ramyac6/ROB537/final_project/csv/all/good_172.csv
tof_0,tof_1,accelx,accely,accelz,gyrox,gyroy,gyroz,shoulder_lift_joint_position,shoulder_lift_joint_velocity,shoulder_lift_joint_effort,elbow_joint_position,elbow_joint_velocity,elbow_joint_effort,wrist_1_joint_position,wrist_1_joint_velocity,wrist_1_joint_effort,wrist_2_joint_position,wrist_2_joint_velocity,wrist_2_joint_effort,wrist_3_joint_position,wrist_3_joint_velocity,wrist_3_joint_effort,shoulder_pan_joint_position,shoulder_pan_joint_velocity,shoulder_pan_joint_effort
908.0,944.0,1.7007,1.0983,9.1759,-0.0344,0.0247,-0.1164,-1.7922350368895472,0.0,2.956265687942505,-1.780573844909668,-0.0,2.0387163162231445,4.886010560184278,0.0,0.2849218249320984,-1.6976740995990198,0.0,-0.009406245313584805,0.8186190128326416,-0.0,-0.023872511461377144,0.7129783630371094,0.0,0.01478472352027893
908.0,944.0,1.7007,1.0983,9.1759,-0.0344,0.0247,-0.1164,-1.7922021351256312,0.0,2.9643168449401855,-1.7806305885314941,-0.0,2.026860237121582,4.8860550848539255,0.0,0.2837570309638977,-1.6977465788470667,0.0,-0.023246221244335175,0.818547248840332,-0.0,-0.018340233713388443,0.7129136323928833,0.0,-0.018548592925071716
908.0,944.0,1.7007,1.0983,9.1759,-0.0344,0.0247,-0.1164,-1.792222639123434,0.0,2.955739974975586,-1.7806428670883179,-0.0,2.0126829147338867,4.88598262050704,0.0,0.28481048345565796,-1.6977141539203089,0.0,-0.03152325749397278,0.8185553550720215,-0.0,-0.025164209306240082,0.7129541039466858,0.0,-0.0045869313180446625
908.0,944.0,1.7007,1.0983,9.1759,-0.0344,0.0247,-0.1164,-1.7922188244261683,0.0,2.9628005027770996,-1.7806305885314941,-0.0,2.0236198902130127,4.8860550848539255,0.0,0.2917632758617401,-1.6976497809039515,0.0,-0.013434203341603279,0.8185710906982422,-0.0,-0.009198468178510666,0.7129338383674622,0.0,-0.048122063279151917
908.0,944.0,1.7007,1.0983,9.1759,-0.0344,0.0247,-0.1164,-1.792250772515768,0.0,2.9684057235717773,-1.7806386947631836,-0.0,2.0129456520080566,4.886054369598188,0.0,0.2898029685020447,-1.697686497365133,0.0,-0.017893997952342033,0.8185672760009766,-0.0,-0.031394071877002716,0.7129420638084412,0.0,-0.0064178574830293655
908.0,944.0,1.7007,1.0983,9.1759,-0.0344,0.0247,-0.1164,-1.7922550640501917,0.0,2.9271631240844727,-1.7806346416473389,-0.0,2.0163605213165283,4.886006775289335,0.0,0.27229613065719604,-1.6976984182940882,0.0,-0.009177341125905514,0.8185911178588867,-0.0,-0.026814669370651245,0.7129056453704834,0.0,-0.010765845887362957
916.0,936.0,1.6445,1.0552,9.207,-0.0405,0.027,-0.1182,-1.7922307453551234,0.0,2.9439303874969482,-1.7806222438812256,-0.0,2.006348133087158,4.886059167772093,0.0,0.28313779830932617,-1.6976984182940882,0.0,-0.017302149906754494,0.8185672760009766,-0.0,-0.032927367836236954,0.7128815054893494,0.0,0.006177821196615696
916.0,936.0,1.6445,1.0552,9.207,-0.0405,0.027,-0.1182,-1.7922231159605921,0.0,2.9403395652770996,-1.7806386947631836,-0.0,2.0101311206817627,4.886050927429952,0.0,0.2789127230644226,-1.6976822058307093,0.0,-0.01602189429104328,0.8185951113700867,-0.0,-0.036711033433675766,0.7129582166671753,0.0,-0.04530065134167671
916.0,936.0,1.6445,1.0552,9.207,-0.0405,0.027,-0.1182,-1.7922307453551234,0.0,2.927825450897217,-1.7805976867675781,-0.0,2.0599021911621094,4.886058527022161,0.0,0.2905072569847107,-1.6976779142962855,0.0,-0.005482153035700321,0.8185632228851318,-0.0,-0.01369468867778778,0.7129541039466858,0.0,-0.047820836305618286
916.0,936.0,1.6445,1.0552,9.207,-0.0405,0.027,-0.1182,-1.7922269306578578,0.0,2.948608875274658,-1.7806222438812256,-0.0,2.02797794342041,4.886022764235296,0.0,0.2770794630050659,-1.6977103392230433,0.0,-0.01629568263888359,0.8184869289398193,-0.0,-0.04238710552453995,0.7129700779914856,0.0,-0.007464191410690546
916.0,936.0,1.6445,1.0552,9.207,-0.0405,0.027,-0.1182,-1.7922350368895472,0.0,2.950829267501831,-1.7806017398834229,-0.0,2.0543394088745117,4.886006372957983,0.0,0.28504908084869385,-1.6976340452777308,0.0,-0.0073229167610406876,0.8185432553291321,-0.0,-0.02633277326822281,0.7129461765289307,0.0,-0.051360122859478
916.0,936.0,1.6445,1.0552,9.207,-0.0405,0.027,-0.1182,-1.7922307453551234,0.0,2.9717400074005127,-1.780598521232605,-0.0,2.0137341022491455,4.886078613787451,0.0,0.2816610634326935,-1.697686020527975,0.0,-0.0034324703738093376,0.8186110854148865,-0.0,-0.02676268294453621,0.7129338383674622,-2.5463207293796586e-06,-0.03057761676609516
916.0,936.0,1.6445,1.0552,9.207,-0.0405,0.027,-0.1182,-1.7922388515868128,0.0,3.0019240379333496,-1.7806017398834229,-0.0,1.9823074340820312,4.886086690216818,0.0,0.28445613384246826,-1.6976822058307093,0.0,-0.02320563979446888,0.8185591697692871,-0.0,-0.027077067643404007,0.712925910949707,-1.1068099053641953e-15,0.006236887536942959
916.0,936.0,1.6445,1.0552,9.207,-0.0405,0.027,-0.1182,-1.7921983204283656,0.0,2.9810962677001953,-1.7806346416473389,-0.0,2.0396854877471924,4.886094930558958,0.0,0.28126758337020874,-1.6976822058307093,0.0,-0.012397972866892815,0.8185352087020874,-0.0,-0.021430982276797295,0.7129619717597961,-3.585923123596981e-23,0.013773301616311073
916.0,936.0,1.6445,1.0552,9.207,-0.0405,0.027,-0.1182,-1.7921902141966761,0.0,2.9971532821655273,-1.7806098461151123,-0.0,1.9921215772628784,4.886046933918752,0.0,0.27675026655197144,-1.6977184454547327,0.0,-0.02292357198894024,0.8185591697692871,-0.0,-0.029252756386995316,0.7129502892494202,-1.1617934469459394e-30,0.024862417951226234
916.0,936.0,1.6445,1.0552,9.207,-0.0405,0.027,-0.1182,-1.7921902141966761,0.0,2.9684438705444336,-1.7806264162063599,-0.0,2.0537099838256836,4.886066603451528,0.0,0.2801707088947296,-1.6976502577411097,0.0,-0.014592516236007214,0.8186150789260864,-0.0,-0.018240809440612793,0.7129138708114624,-3.764063117744192e-38,-0.035472504794597626
916.0,936.0,1.6445,1.0552,9.207,-0.0405,0.027,-0.1182,-1.7922145328917445,0.0,2.960519790649414,-1.7806305885314941,-0.0,1.9987138509750366,4.886103081494131,0.0,0.2875761091709137,-1.6977022329913538,0.0,-0.005530677270144224,0.8185632228851318,-0.0,-0.027719315141439438,0.712970495223999,-0.0,0.025281619280576706
908.0,948.0,1.7498,1.1234,9.0646,-0.0405,0.036,-0.1286,-1.7922269306578578,0.0,3.0024890899658203,-1.7806099653244019,-0.0,2.0045156478881836,4.886042851000585,0.0,0.2758387327194214,-1.6976984182940882,0.0,-0.004143799655139446,0.8185672760009766,-0.0,-0.02738257497549057,0.7129541039466858,0.0,0.004242954775691032
908.0,948.0,1.7498,1.1234,9.0646,-0.0405,0.036,-0.1286,-1.792206426660055,0.0,2.975816488265991,-1.7805976867675781,-0.0,2.0501105785369873,4.886058527022161,0.0,0.2837942838668823,-1.6976502577411097,0.0,-0.00047210202319547534,0.8185989856719971,-0.0,-0.020917212590575218,0.7129177451133728,0.0,-0.0393977053463459
908.0,948.0,1.7498,1.1234,9.0646,-0.0405,0.036,-0.1286,-1.7922188244261683,0.0,2.939502239227295,-1.7805696725845337,-0.0,1.9719010591506958,4.886022406607427,0.0,0.27999255061149597,-1.6976822058307093,0.0,-0.019636251032352448,0.8185192346572876,-0.0,-0.018624071031808853,0.7129659652709961,0.0,-0.016561901196837425
908.0,948.0,1.7498,1.1234,9.0646,-0.0405,0.036,-0.1286,-1.792189737359518,0.0,2.9282174110412598,-1.7806264162063599,-0.0,2.0406227111816406,4.886074888497152,0.0,0.2875550091266632,-1.6976702849017542,0.0,-0.019113359972834587,0.8185672760009766,-0.0,-0.021020978689193726,0.712925910949707,0.0,0.037240829318761826
908.0,948.0,1.7498,1.1234,9.0646,-0.0405,0.036,-0.1286,-1.7921701870360316,0.0,2.9594202041625977,-1.7806305885314941,-0.0,2.0124030113220215,4.886055069952764,0.0,0.2788041830062866,-1.6976702849017542,0.0,-0.025314494967460632,0.818587064743042,-0.0,-0.018415335565805435,0.7129862308502197,0.0,-0.08062918484210968
908.0,948.0,1.7498,1.1234,9.0646,-0.0405,0.036,-0.1286,-1.7921821079649867,0.0,2.973555088043213,-1.7805976867675781,-0.0,2.004788398742676,4.886055069952764,0.0,0.2920118570327759,-1.697686020527975,0.0,-0.026370160281658173,0.8185393810272217,-0.0,-0.02792501449584961,0.7129582166671753,0.0,-0.007158348336815834
908.0,948.0,1.7498,1.1234,9.0646,-0.0405,0.036,-0.1286,-1.792178293267721,0.0,2.955488681793213,-1.780694603919983,-0.0,2.0192387104034424,4.886090922146597,0.0,0.2808241844177246,-1.697686020527975,0.0,-0.012781703844666481,0.8185991048812866,-0.0,-0.030422935262322426,0.7129783034324646,0.0,-0.026082895696163177
908.0,948.0,1.7498,1.1234,9.0646,-0.0405,0.036,-0.1286,-1.7922021351256312,0.0,2.975475549697876,-1.7806345224380493,-0.0,1.9926408529281616,4.88606262484149,0.0,0.2968865633010864,-1.6976740995990198,0.0,-0.020761875435709953,0.8185712695121765,-0.0,-0.016959119588136673,0.7129418253898621,0.0,-0.0011727623641490936
908.0,948.0,1.7498,1.1234,9.0646,-0.0405,0.036,-0.1286,-1.7922350368895472,0.0,2.953709363937378,-1.7806428670883179,-0.0,2.047614097595215,4.886058527022161,0.0,0.2855619192123413,-1.6976941267596644,0.0,-0.012956786900758743,0.8184991478919983,-0.0,-0.015431489795446396,0.7129217982292175,0.0,-0.05212590843439102
908.0,948.0,1.7498,1.1234,9.0646,-0.0405,0.036,-0.1286,-1.792250772515768,0.0,2.9317617416381836,-1.7806428670883179,-0.0,2.050511121749878,4.886074545770445,0.0,0.28743571043014526,-1.6976822058307093,0.0,-0.01518055610358715,0.8185592293739319,-0.0,-0.030210405588150024,0.7129217982292175,0.0,-0.026151780039072037
941.0,946.0,1.7605,1.1079,9.0927,-0.0423,0.0289,-0.1229,-1.7922307453551234,0.0,2.9792280197143555,-1.7806222438812256,-0.0,1.9834411144256592,4.886046933918752,0.0,0.27280884981155396,-1.6976941267596644,0.0,-0.01687432825565338,0.8185871839523315,-0.0,-0.021437130868434906,0.7129136323928833,0.0,-0.05232623592019081
941.0,946.0,1.7605,1.1079,9.0927,-0.0423,0.0289,-0.1229,-1.7922469578185023,0.0,2.9340200424194336,-1.7806789875030518,-0.0,2.0275826454162598,4.886050927429952,0.0,0.2789672613143921,-1.6976740995990198,0.0,0.00034114671871066093,0.8185352087020874,-0.0,-0.023120256140828133,0.7129461765289307,0.0,-0.05927586555480957
941.0,946.0,1.7605,1.1079,9.0927,-0.0423,0.0289,-0.1229,-1.792189737359518,0.0,2.940532684326172,-1.7806181907653809,-0.0,2.009881019592285,4.8860666183526895,0.0,0.2744499444961548,-1.6976984182940882,0.0,0.00018162140622735023,0.8185232877731323,-0.0,-0.043800193816423416,0.7129138708114624,0.0,-0.010165736079216003
941.0,946.0,1.7605,1.1079,9.0927,-0.0423,0.0289,-0.1229,-1.7922231159605921,-0.00016905172378756106,2.95902681350708,-1.7806345224380493,-0.0,2.012270927429199,4.88606262484149,0.0,0.27639567852020264,-1.6977184454547327,0.0,-0.0076492601074278355,0.8185232877731323,-0.0,-0.023534782230854034,0.712925910949707,0.0,0.00893029198050499
941.0,946.0,1.7605,1.1079,9.0927,-0.0423,0.0289,-0.1229,-1.7922712765135707,-3.86794463125284e-09,2.990288734436035,-1.7806099653244019,-0.0,2.034353494644165,4.886074888497152,0.0,0.29343315958976746,-1.6977141539203089,0.0,-0.01513558067381382,0.8185352087020874,-0.0,-0.03056933917105198,0.7128893136978149,0.0,0.011467419564723969
941.0,946.0,1.7605,1.1079,9.0927,-0.0423,0.0289,-0.1229,-1.7922350368895472,-1.6812805773706748e-18,3.024510622024536,-1.7806428670883179,-0.0,2.002734422683716,4.886086809426107,0.0,0.27849435806274414,-1.6977179686175745,0.0,-0.02152777649462223,0.8185432553291321,-0.0,-0.012609010562300682,0.7129420638084412,0.0,-0.03269993141293526
941.0,946.0,1.7605,1.1079,9.0927,-0.0423,0.0289,-0.1229,-1.7922307453551234,-5.447136319547992e-26,2.9640085697174072,-1.780573844909668,-0.0,2.062562942504883,4.886034610658445,0.0,0.27984994649887085,-1.6977265516864222,0.0,-0.012788889929652214,0.8185393810272217,-0.0,-0.025145983323454857,0.7129741907119751,0.0,-0.00465419003739953
941.0,946.0,1.7605,1.1079,9.0927,-0.0423,0.0289,-0.1229,-1.7921863994994105,-1.7648029133391094e-33,2.959354877471924,-1.7806346416473389,-0.0,2.0379648208618164,4.886026549130239,0.0,0.2867414355278015,-1.6977060476886194,0.0,-0.012988457456231117,0.8185831308364868,-0.0,-0.02657090686261654,0.7129461765289307,0.0,0.017075804993510246
941.0,946.0,1.7605,1.1079,9.0927,-0.0423,0.0289,-0.1229,-1.7921863994994105,-5.717718123984551e-41,2.936612129211426,-1.7806822061538696,-0.0,2.036743402481079,4.886050912528791,0.0,0.28551536798477173,-1.6977022329913538,0.0,-0.006942033767700195,0.818531334400177,-0.0,-0.03820022940635681,0.7129659652709961,0.0,-0.009365514852106571
941.0,946.0,1.7605,1.1079,9.0927,-0.0423,0.0289,-0.1229,-1.79221834758901,0.0,2.9547557830810547,-1.7806017398834229,-0.0,1.9891437292099,4.886058556824484,0.0,0.2849629819393158,-1.6976740995990198,0.0,-0.006472171749919653,0.8185233473777771,-0.0,-0.0251507256180048,0.7129461765289307,0.0,-0.009000319987535477
941.0,946.0,1.7605,1.1079,9.0927,-0.0423,0.0289,-0.1229,-1.7922669849791468,0.0,2.937258720397949,-1.7805862426757812,-0.0,2.000727653503418,4.886042851000585,0.0,0.28970563411712646,-1.6977341810809534,0.0,-0.027658086270093918,0.8185871839523315,-0.0,-0.0282243974506855,0.7129056453704834,0.0,-0.027122724801301956
903.0,941.0,1.6845,1.0845,9.2393,-0.0394,0.0185,-0.1193,-1.7922026119627894,0.0,2.9281961917877197,-1.7806057929992676,-0.0,2.0093882083892822,4.886082592397489,0.0,0.2875659763813019,-1.6977022329913538,0.0,-0.00019758893176913261,0.818567156791687,-0.0,-0.009271619841456413,0.7129582166671753,0.0,-0.022379567846655846
903.0,941.0,1.6845,1.0845,9.2393,-0.0394,0.0185,-0.1193,-1.7921983204283656,0.0,2.990668535232544,-1.7806305885314941,-0.0,2.030608654022217,4.886030617147245,0.0,0.2949244976043701,-1.6976984182940882,0.0,-0.014004141092300415,0.8185670971870422,-0.0,-0.024676743894815445,0.7129541039466858,0.0,0.012133155018091202
903.0,941.0,1.6845,1.0845,9.2393,-0.0394,0.0185,-0.1193,-1.7921821079649867,0.0,2.9647929668426514,-1.7806017398834229,-0.0,2.008573055267334,4.886066588550367,0.0,0.29622146487236023,-1.6976740995990198,0.0,-0.02027108706533909,0.8185672163963318,-0.0,-0.015188087709248066,0.7129338383674622,0.0,-0.009759155102074146
903.0,941.0,1.6845,1.0845,9.2393,-0.0394,0.0185,-0.1193,-1.7922350368895472,0.0,2.9681200981140137,-1.7806305885314941,-0.0,2.0124893188476562,4.8860666183526895,0.0,0.28572186827659607,-1.6976941267596644,0.0,-0.017889942973852158,0.8185073137283325,-0.0,-0.02919371798634529,0.7129862308502197,0.0,-0.035472359508275986
903.0,941.0,1.6845,1.0845,9.2393,-0.0394,0.0185,-0.1193,-1.7921902141966761,0.0,2.9696507453918457,-1.7806222438812256,-0.0,2.0582239627838135,4.886022391706266,0.0,0.2756349742412567,-1.6976898352252405,0.0,-0.009586874395608902,0.8185672163963318,-0.0,-0.010465659201145172,0.712925910949707,0.0,0.021314630284905434
903.0,941.0,1.6845,1.0845,9.2393,-0.0394,0.0185,-0.1193,-1.7922469578185023,0.0,2.9265329837799072,-1.7806059122085571,-0.0,2.0043749809265137,4.886107149511137,0.0,0.28858044743537903,-1.6976822058307093,0.0,-0.015751773491501808,0.8185111284255981,-0.0,-0.02978282794356346,0.7129663825035095,0.0,-0.0357375293970108
903.0,941.0,1.6845,1.0845,9.2393,-0.0394,0.0185,-0.1193,-1.7921983204283656,0.0,2.9944727420806885,-1.7805975675582886,-0.0,1.9987602233886719,4.8860550848539255,0.0,0.27326488494873047,-1.6976946035968226,0.0,-0.0045752618461847305,0.8185473084449768,-0.0,-0.01680237241089344,0.7129379510879517,0.0,-0.007062831893563271
903.0,941.0,1.6845,1.0845,9.2393,-0.0394,0.0185,-0.1193,-1.7922231159605921,0.0,2.955890655517578,-1.7806057929992676,-0.0,1.996835470199585,4.886046933918752,0.0,0.27738428115844727,-1.697686497365133,0.0,-0.011607591062784195,0.8185151219367981,-0.0,-0.021862782537937164,0.7129582166671753,0.0,-0.012883464805781841
903.0,941.0,1.6845,1.0845,9.2393,-0.0394,0.0185,-0.1193,-1.7922593555846156,0.0,2.974059581756592,-1.7806543111801147,-0.0,1.9655179977416992,4.886062609940328,0.0,0.27854692935943604,-1.6976502577411097,0.0,-0.00046974534052424133,0.8185632228851318,-0.0,-0.023172851651906967,0.7129541039466858,0.0,-0.0007593310438096523
903.0,941.0,1.6845,1.0845,9.2393,-0.0394,0.0185,-0.1193,-1.7922431431212367,0.0,3.001004457473755,-1.7806264162063599,-0.0,1.9795117378234863,4.886090847640791,0.0,0.28565138578414917,-1.697674576436178,0.0,-0.02586197853088379,0.8185751438140869,-0.0,-0.01989877223968506,0.7128974795341492,0.0,-0.037694722414016724
903.0,941.0,1.6845,1.0845,9.2393,-0.0394,0.0185,-0.1193,-1.7921902141966761,0.0,2.9759349822998047,-1.7805780172348022,-0.0,1.9907310009002686,4.886002617865362,0.0,0.2844089865684509,-1.6976459662066858,0.0,-0.018067479133605957,0.818503201007843,-0.0,-0.020628778263926506,0.712925910949707,0.0,-0.031930118799209595
929.0,950.0,1.5763,1.0217,9.4146,-0.0363,0.0231,-0.1142,-1.7921983204283656,0.0,2.9304261207580566,-1.780642032623291,-0.0,2.0164988040924072,4.886042851000585,0.0,0.2920871078968048,-1.6976779142962855,0.0,-0.016535434871912003,0.8185632228851318,-0.0,-0.009821884334087372,0.7129379510879517,0.0,0.035518843680620193
929.0,950.0,1.5763,1.0217,9.4146,-0.0363,0.0231,-0.1142,-1.7922188244261683,0.0,2.9445133209228516,-1.7806346416473389,-0.0,2.009702205657959,4.886038768082418,0.0,0.2824346423149109,-1.6977022329913538,0.0,-0.020521407946944237,0.818571150302887,-0.0,-0.0236525796353817,0.7129379510879517,0.0,-0.04202733188867569
929.0,950.0,1.5763,1.0217,9.4146,-0.0363,0.0231,-0.1142,-1.7922188244261683,0.0,2.9740653038024902,-1.780590295791626,-0.0,2.0394911766052246,4.886070760875501,0.0,0.2780406177043915,-1.6976903120623987,0.0,-0.016132503747940063,0.8185911178588867,-0.0,-0.01508480217307806,0.7129379510879517,0.0,-0.016121435910463333
929.0,950.0,1.5763,1.0217,9.4146,-0.0363,0.0231,-0.1142,-1.7922107181944789,0.0,3.0107052326202393,-1.7806305885314941,-0.0,2.029585361480713,4.886030602246084,0.0,0.2949700951576233,-1.697669808064596,6.101122380641755e-07,-0.01511689368635416,0.8185631632804871,-0.0,-0.01907072216272354,0.7129420638084412,0.0,-0.04220252111554146
929.0,950.0,1.5763,1.0217,9.4146,-0.0363,0.0231,-0.1142,-1.7922264538206996,0.0,2.95676326751709,-1.7806987762451172,-0.0,1.9994046688079834,4.886046933918752,0.0,0.27068156003952026,-1.6977065245257776,1.1088486899513139e-11,-0.015112118795514107,0.8186149597167969,-0.0,-0.019476979970932007,0.7129700779914856,0.0,-0.01621905528008938
929.0,950.0,1.5763,1.0217,9.4146,-0.0363,0.0231,-0.1142,-1.7922593555846156,0.0,2.9566283226013184,-1.7805935144424438,-0.0,1.9910483360290527,4.8860826072986505,0.0,0.288362056016922,-1.6977065245257776,2.0152777287663765e-16,-0.016069918870925903,0.8185991048812866,-0.0,-0.029175542294979095,0.7129379510879517,0.0,-0.034062691032886505
929.0,950.0,1.5763,1.0217,9.4146,-0.0363,0.0231,-0.1142,-1.7922550640501917,0.0,2.9485244750976562,-1.7806305885314941,-0.0,1.9909329414367676,4.8860550848539255,0.0,0.28296178579330444,-1.6976421515094202,2.3914607380410646e-22,-0.011633815243840218,0.8185393214225769,-0.0,-0.026662372052669525,0.7129217982292175,0.0,-0.01733696088194847
929.0,950.0,1.5763,1.0217,9.4146,-0.0363,0.0231,-0.1142,-1.7922307453551234,0.0,2.9303812980651855,-1.780573844909668,-0.0,2.0123140811920166,4.886078613787451,0.0,0.2867412865161896,-1.6976740995990198,4.3463612761093495e-27,-0.01922602392733097,0.818571150302887,-0.0,-0.020043494179844856,0.7129217982292175,0.0,-0.022734198719263077
929.0,950.0,1.5763,1.0217,9.4146,-0.0363,0.0231,-0.1142,-1.7922426662840785,0.0,2.954932928085327,-1.7806059122085571,-0.0,2.0199382305145264,4.886050927429952,0.0,0.2750403881072998,-1.6976617018329065,-4.28727398684714e-05,-0.014111403375864029,0.8185151815414429,-0.0,-0.014438861049711704,0.7129944562911987,0.0,-0.020120704546570778
929.0,950.0,1.5763,1.0217,9.4146,-0.0363,0.0231,-0.1142,-1.7922145328917445,0.0,3.0121989250183105,-1.7806181907653809,-0.0,2.008434534072876,4.886046933918752,0.0,0.29149729013442993,-1.6976822058307093,-1.2511627573985606e-06,-0.0032585843000561,0.8186030387878418,-0.0,-0.012241440825164318,0.7129015326499939,0.0,-0.06578138470649719
929.0,950.0,1.5763,1.0217,9.4146,-0.0363,0.0231,-0.1142,-1.7922669849791468,0.0,2.9819536209106445,-1.7806346416473389,-0.0,2.0155608654022217,4.886026847153463,0.0,0.27459627389907837,-1.697674576436178,-1.4847114423316432e-12,-0.011412473395466805,0.8185194134712219,-0.0,-0.002644728869199753,0.7129623293876648,0.0,0.005359958857297897
920.0,941.0,1.8915,1.2138,8.9845,-0.031,0.0192,-0.1158,-1.792206426660055,0.0,3.001681327819824,-1.7806305885314941,-0.0,1.9707820415496826,4.88607037344531,0.0,0.27292177081108093,-1.6976898352252405,-2.6983898822178194e-17,-0.018525060266256332,0.8185473084449768,-0.0,-0.02100944332778454,0.7129297852516174,0.0,0.00459403358399868
920.0,941.0,1.8915,1.2138,8.9845,-0.031,0.0192,-0.1158,-1.7921863994994105,0.0,2.956240177154541,-1.7806223630905151,-0.0,1.9967637062072754,4.886066603451528,0.0,0.28268539905548096,-1.6976822058307093,-4.904190475577986e-22,-0.007000477984547615,0.8185393810272217,-0.0,-0.018211273476481438,0.7129984498023987,0.0,-0.021786430850625038
920.0,941.0,1.8915,1.2138,8.9845,-0.031,0.0192,-0.1158,-1.7922388515868128,0.0,2.9983832836151123,-1.7806626558303833,-0.0,1.9927482604980469,4.886066603451528,0.0,0.2859468460083008,-1.6976822058307093,-8.913123663938441e-27,-0.01656023971736431,0.8185393214225769,-0.0,-0.0017649431247264147,0.7129097580909729,0.0,0.011173995211720467
920.0,941.0,1.8915,1.2138,8.9845,-0.031,0.0192,-0.1158,-1.7922021351256312,0.0,2.940366506576538,-1.7806386947631836,-0.0,1.9867117404937744,4.886014613300123,0.0,0.27715981006622314,-1.6976941267596644,-1.0576893926555488e-32,-0.010489700362086296,0.8185234069824219,-0.0,-0.018148543313145638,0.7129379510879517,0.0,-0.04731636121869087
920.0,941.0,1.8915,1.2138,8.9845,-0.031,0.0192,-0.1158,-1.792206426660055,0.0,2.993393898010254,-1.7805935144424438,-0.0,2.033226728439331,4.886026534229078,0.0,0.2757916748523712,-1.6976779142962855,-1.9222983186599783e-37,0.0007784292101860046,0.8185274004936218,-0.0,-0.016970450058579445,0.7129056453704834,0.0,-0.0072114127688109875
920.0,941.0,1.8915,1.2138,8.9845,-0.031,0.0192,-0.1158,-1.7921945057311,0.0,3.0040669441223145,-1.7806379795074463,-0.0,2.0159711837768555,4.8860826072986505,0.0,0.2942380905151367,-1.6976702849017542,-3.493437071561769e-42,-0.007754413411021233,0.8185513019561768,-0.0,-0.02065441571176052,0.7129541039466858,0.0,-0.04264248162508011
920.0,941.0,1.8915,1.2138,8.9845,-0.031,0.0192,-0.1158,-1.7922231159605921,0.0,2.9085068702697754,-1.7805862426757812,-0.0,1.971851110458374,4.8860550848539255,0.0,0.28552481532096863,-1.6976822058307093,-0.0,-0.015091607347130775,0.818571150302887,-0.0,-0.026377636939287186,0.7129741311073303,0.0,0.01684027723968029
920.0,941.0,1.8915,1.2138,8.9845,-0.031,0.0192,-0.1158,-1.7922188244261683,0.0,2.941781520843506,-1.7805893421173096,-0.0,2.047771453857422,4.886046933918752,0.0,0.28617411851882935,-1.6976898352252405,-0.0,-0.00684466352686286,0.8185989856719971,-0.0,-0.016607413068413734,0.7129581570625305,0.0,-0.01620996557176113
920.0,941.0,1.8915,1.2138,8.9845,-0.031,0.0192,-0.1158,-1.7922388515868128,0.0,2.9327259063720703,-1.7806386947631836,-0.0,2.007643938064575,4.8860745308692834,0.0,0.28393444418907166,-1.6977141539203089,-0.0,-0.011911967769265175,0.8186189532279968,-0.0,-0.028106506913900375,0.7129097580909729,0.0,-0.025377469137310982
920.0,941.0,1.8915,1.2138,8.9845,-0.031,0.0192,-0.1158,-1.792206426660055,0.0,2.9714879989624023,-1.7806222438812256,-0.0,2.07717227935791,4.886038768082418,0.0,0.278317928314209,-1.6976822058307093,-0.0,0.0013313989620655775,0.8185473084449768,-0.0,-0.027705345302820206,0.712917685508728,0.0,0.007985596545040607
920.0,941.0,1.1892,0.8333,9.2201,-0.0567,0.0426,-0.1297,-1.7922231159605921,0.0,2.9844133853912354,-1.7806141376495361,-0.0,1.99271559715271,4.886018606811323,0.0,0.2883382737636566,-1.697657887135641,-0.0,-0.013422898016870022,0.818587064743042,-0.0,-0.024796560406684875,0.7129136919975281,0.0,-0.018395379185676575
920.0,941.0,1.1892,0.8333,9.2201,-0.0567,0.0426,-0.1297,-1.7922307453551234,0.0,2.999372720718384,-1.7806462049484253,-0.0,2.014070749282837,4.886046933918752,0.0,0.265346884727478,-1.6977022329913538,-0.0,-0.0054773930460214615,0.8185871243476868,-0.0,-0.02353210188448429,0.7129177451133728,0.0,-0.0006433057133108377
920.0,941.0,1.1892,0.8333,9.2201,-0.0567,0.0426,-0.1297,-1.7922188244261683,0.0,2.9420013427734375,-1.7805894613265991,-0.0,2.0077128410339355,4.886034610658445,0.0,0.28475794196128845,-1.6977341810809534,-0.0,-0.02341509610414505,0.8185513019561768,-0.0,-0.006265040021389723,0.71299809217453,0.0,0.04263323172926903
920.0,941.0,1.1892,0.8333,9.2201,-0.0567,0.0426,-0.1297,-1.7922431431212367,0.0,2.958843231201172,-1.7806305885314941,-0.0,2.020153522491455,4.88604690411643,1.1897062890398047e-08,0.27882319688796997,-1.6976621786700647,-0.0,-8.330494165420532e-05,0.818571150302887,-0.0,-0.021495141088962555,0.7129338383674622,0.0,0.032488178461790085
920.0,941.0,1.1892,0.8333,9.2201,-0.0567,0.0426,-0.1297,-1.7922431431212367,0.0,2.9681828022003174,-1.7806141376495361,-0.0,2.042100667953491,4.88607037344531,2.1622323885788636e-13,0.29566580057144165,-1.6977136770831507,-0.0,-0.001759163336828351,0.8185712099075317,-0.0,-0.020058203488588333,0.7129541039466858,0.0,-0.023126548156142235
920.0,941.0,1.1892,0.8333,9.2201,-0.0567,0.0426,-0.1297,-1.7922269306578578,0.0,2.971298933029175,-1.7806140184402466,-0.0,2.0167016983032227,4.886102708965101,0.0005599345895461738,0.28769657015800476,-1.6977222601519983,-0.0,0.01071197260171175,0.8185632228851318,-0.0,-0.025311894714832306,0.7129899263381958,0.0006516799912787974,-0.03569092974066734
920.0,941.0,1.1892,0.8333,9.2201,-0.0567,0.0426,-0.1297,-1.7921301327147425,0.0019324925960972905,3.0023608207702637,-1.7805976867675781,1.3817349326927797e-06,1.9806632995605469,4.8860904602106,0.0013910798588767648,0.28680193424224854,-1.697754208241598,-0.0,-0.006710872985422611,0.8185274600982666,-0.0,-0.01535026915371418,0.7129817605018616,0.0016294486122205853,-0.001872064545750618
920.0,941.0,1.1892,0.8333,9.2201,-0.0567,0.0426,-0.1297,-1.7921630344786585,0.0031868182122707367,2.9530482292175293,-1.7806304693222046,4.47664535920423e-14,2.005105495452881,4.886158826738157,0.0019240406109020114,0.27633222937583923,-1.69769794145693,-0.0,-0.004103175830096006,0.8185831308364868,-0.0,-0.02016550488770008,0.7129736542701721,0.0007640851545147598,0.030313605442643166
920.0,941.0,1.1892,0.8333,9.2201,-0.0567,0.0426,-0.1297,-1.7921225033202113,0.0052804830484092236,2.93367862701416,-1.780590295791626,1.450376082864617e-21,2.0333049297332764,4.886122363596716,0.0028594636823982,0.2809296250343323,-1.6977623144732874,-0.0,-0.007895847782492638,0.8185989856719971,-0.0,-0.02766340784728527,0.7129698991775513,0.00045485846931114793,-0.017127184197306633
920.0,941.0,1.1892,0.8333,9.2201,-0.0567,0.0426,-0.1297,-1.7920423946776332,0.005029919557273388,2.982457160949707,-1.7806510925292969,6.304353468008032e-31,2.043586492538452,4.886154132872381,0.01371016912162304,0.29372528195381165,-1.6976659933673304,-0.0,-0.013969678431749344,0.8185473084449768,-0.0,-0.02189169079065323,0.7129736542701721,0.00024170651158783585,-0.03248973190784454
920.0,941.0,1.1892,0.8333,9.2201,-0.0567,0.0426,-0.1297,-1.7920180759825648,0.002577537903562188,2.9677133560180664,-1.7806099653244019,2.0425306797820033e-38,2.030177593231201,4.886242139130392,0.007564343512058258,0.295087069272995,-1.6976984182940882,-0.0,-0.00945616140961647,0.8185592293739319,-0.0,-0.02009369060397148,0.7129657864570618,-9.928259532898664e-05,-0.051535218954086304
899.0,937.0,1.5607,0.9595,9.3135,-0.0345,0.0354,-0.1147,-1.7919942341246546,0.0016088057309389114,2.944183349609375,-1.7805976867675781,0.0,2.0368266105651855,4.886217939644613,-0.0011422850657254457,0.2920683026313782,-1.6977103392230433,-3.309983731014654e-05,-0.0037727465387433767,0.8185513019561768,-0.0,-0.03081471100449562,0.7129899263381958,-0.000220263289520517,-0.005919606424868107
899.0,937.0,1.5607,0.9595,9.3135,-0.0345,0.0354,-0.1147,-1.7920223675169886,0.0014649060321971774,2.912583827972412,-1.7806057929992676,-0.0,2.0339128971099854,4.88625385144309,-0.0014570284401997924,0.29840660095214844,-1.6976898352252405,-3.097545777563937e-05,-0.004580055829137564,0.8186070322990417,-0.0,-0.029776794835925102,0.7129541039466858,-0.0008312903228215873,-0.00749545730650425
899.0,937.0,1.5607,0.9595,9.3135,-0.0345,0.0354,-0.1147,-1.7920342884459437,0.0005956297391094267,2.966397762298584,-1.7806141376495361,-0.0,2.015152931213379,4.886257785349645,-0.0006317351944744587,0.28328317403793335,-1.6976941267596644,-2.8521375497803092e-05,0.0017459485679864883,0.8185513019561768,-0.0,-0.007606618572026491,0.7129338383674622,-0.00105171964969486,-0.02241794392466545
899.0,937.0,1.5607,0.9595,9.3135,-0.0345,0.0354,-0.1147,-1.792013784448141,0.00023328542010858655,2.971308469772339,-1.7806181907653809,-0.0,2.016977548599243,4.886250379472532,-0.00043228143476881087,0.2921251058578491,-1.6976984182940882,-1.341170627711108e-05,-0.0038359607569873333,0.8185712099075317,-0.0,-0.029162859544157982,0.7129379510879517,-0.000815211096778512,-0.02317528799176216
899.0,937.0,1.5607,0.9595,9.3135,-0.0345,0.0354,-0.1147,-1.7920543156065882,-0.00032600355916656554,2.9157471656799316,-1.7806223630905151,-0.0,2.001940965652466,4.886202099710264,-0.0004912913427688181,0.29128506779670715,-1.6976822058307093,-1.265634909941582e-05,-9.32958209887147e-06,0.8185552954673767,-0.0,-0.013545542024075985,0.7129340767860413,-0.0007797005819156766,-0.043838076293468475
899.0,937.0,1.5607,0.9595,9.3135,-0.0345,0.0354,-0.1147,-1.7921024761595667,-0.0006058177095837891,2.960296630859375,-1.7806059122085571,-0.0,2.0204169750213623,4.886170032411375,-0.000482089672004804,0.28909245133399963,-1.6976659933673304,-1.1982327123405412e-05,-0.0008235783316195011,0.8185989856719971,-0.0,-0.014503486454486847,0.7128978967666626,-0.0009461110457777977,-0.043633438646793365
899.0,937.0,1.5607,0.9595,9.3135,-0.0345,0.0354,-0.1147,-1.7920543156065882,-0.00036201017792336643,2.9668750762939453,-1.7806059122085571,-0.0,2.012874126434326,4.886197882681646,-0.0003682674723677337,0.2830958366394043,-1.6976421515094202,-1.4219013119709523e-11,-0.010048219002783298,0.8185910582542419,-0.0,-0.023562787100672722,0.7129179239273071,-0.000703277240972966,-0.03734498471021652
899.0,937.0,1.5607,0.9595,9.3135,-0.0345,0.0354,-0.1147,-1.7920786343016566,-0.00027386442525312304,2.9531443119049072,-1.7805780172348022,-0.0,2.0216119289398193,4.88620205500678,-0.00029845754033885896,0.28965792059898376,-1.6977022329913538,-2.5842355827886024e-16,0.0005967973847873509,0.8185155391693115,-0.0,-0.006855112966150045,0.7128817439079285,-0.0005076460656709969,-0.018136275932192802
899.0,937.0,1.5607,0.9595,9.3135,-0.0345,0.0354,-0.1147,-1.7920423946776332,-0.00017621973529458046,3.0117249488830566,-1.7806462049484253,1.165529465652071e-05,2.036001205444336,4.8862061379249475,-0.00025090164854191244,0.2815265655517578,-1.6976783911334437,-4.6967198050693704e-21,0.0019276710227131844,0.8185393810272217,-0.0,-0.005842698737978935,0.7129060626029968,-0.0005507830064743757,-0.018025310710072517
899.0,937.0,1.5607,0.9595,9.3135,-0.0345,0.0354,-0.1147,-1.7920381031432093,-0.00014734604337718338,3.0008296966552734,-1.7806264162063599,1.5164509022724815e-05,2.0402438640594482,4.886214318662443,-0.00021641999774146825,0.28658002614974976,-1.6976502577411097,-8.536056163111366e-26,-0.01881382241845131,0.8186109066009521,-0.0,-0.005997387692332268,0.7129179239273071,-0.0006897018756717443,-0.007480868138372898
899.0,937.0,1.5607,0.9595,9.3135,-0.0345,0.0354,-0.1147,-1.7920624218382777,-0.00012231380969751626,2.9711873531341553,-1.780554175376892,1.3986225894768722e-05,2.026609420776367,4.886230218201437,-0.00018469311180524528,0.2973678708076477,-1.6976340452777308,-1.0129442883535747e-31,-0.011679287999868393,0.8186069130897522,-0.0,-0.010872800834476948,0.7129260897636414,-0.0006848697084933519,-0.010411192663013935
916.0,947.0,1.7976,1.2072,9.2411,-0.0414,0.0136,-0.1367,-1.792030473748678,-0.00010767921776277944,2.968197822570801,-1.7806388139724731,2.1837715394212864e-05,2.0340845584869385,4.886261912971296,-0.00016530693392269313,0.2942572832107544,-1.6976946035968226,-1.840976148308492e-36,-0.015793802216649055,0.8186267614364624,-0.0,-0.004839419852942228,0.7129340767860413,-0.0004564820555970073,0.024538803845643997
916.0,947.0,1.7976,1.2072,9.2411,-0.0414,0.0136,-0.1367,-1.792030473748678,-7.212951459223405e-05,2.989344596862793,-1.7805696725845337,2.487944766471628e-05,2.022693395614624,4.886246251850881,-6.53975730529055e-05,0.29423949122428894,-1.6976583639727991,-3.3458803432683657e-41,-0.012788522988557816,0.818602979183197,-0.0,-0.005698021966964006,0.7128940224647522,-0.00034111030981875956,0.021462270990014076
916.0,947.0,1.7976,1.2072,9.2411,-0.0414,0.0136,-0.1367,-1.7920342884459437,-6.51660084258765e-05,2.9796338081359863,-1.780606746673584,3.1339102861238644e-05,2.0323262214660645,4.8862261203821085,-4.711009387392551e-05,0.28414076566696167,-1.6976540724383753,-0.0,-0.011159094050526619,0.8185791373252869,-0.0,-0.010474874638020992,0.7128899097442627,-0.00027229831903241575,-0.0033838003873825073
916.0,947.0,1.7976,1.2072,9.2411,-0.0414,0.0136,-0.1367,-1.7920385799803675,4.3295913201291114e-05,2.9731101989746094,-1.7806140184402466,3.319046300021e-05,2.023792266845703,4.886253821640768,-4.165820064372383e-05,0.2972201704978943,-1.6976903120623987,-0.0,-0.016155969351530075,0.818583071231842,-0.0,-0.012704617343842983,0.7129179239273071,-0.00021746514539700001,-0.008489850908517838
916.0,947.0,1.7976,1.2072,9.2411,-0.0414,0.0136,-0.1367,-1.792062898675436,3.9496550016338006e-05,2.9378204345703125,-1.7806428670883179,0.0001118664222303778,2.0210013389587402,4.886246624379911,-3.812837530858815e-05,0.28577908873558044,-1.6976702849017542,-0.0,-0.011648586019873619,0.8185672163963318,-0.0,-0.006342526525259018,0.7128857970237732,-0.00018729337898548692,-0.023606084287166595
916.0,947.0,1.7976,1.2072,9.2411,-0.0414,0.0136,-0.1367,-1.792070051232809,3.630966239143163e-05,2.8936691284179688,-1.780582070350647,0.00013109332940075547,2.0043132305145264,4.886209803610601,-4.818991874344647e-05,0.29302459955215454,-1.6976540724383753,-0.0,-0.013049731962382793,0.8185949921607971,-0.0,-0.0016151826130226254,0.7129223346710205,-0.0001918816560646519,-0.04776136949658394
916.0,947.0,1.7976,1.2072,9.2411,-0.0414,0.0136,-0.1367,-1.7920905552306117,3.3598691516090184e-05,2.945089340209961,-1.7806428670883179,0.00011741151683963835,2.0636839866638184,4.886270183115759,-4.8904927098192275e-05,0.2911073565483093,-1.6976144949542444,-0.0,-0.0001863444340415299,0.8185949921607971,-0.0,-0.011443703435361385,0.7128857970237732,-0.00016131922893691808,-0.04930306226015091
916.0,947.0,1.7976,1.2072,9.2411,-0.0414,0.0136,-0.1367,-1.791997571984762,2.8635378512831267e-09,2.891730308532715,-1.7806305885314941,8.309084660140797e-05,2.037870168685913,4.886218058853903,-5.97581201873254e-05,0.2726294994354248,-1.697578255330221,0.0001316224515903741,0.009845716878771782,0.8185513019561768,-0.0,-0.007905060425400734,0.7128136157989502,-0.0024064176250249147,-0.08589529246091843
916.0,947.0,1.7976,1.2072,9.2411,-0.0414,0.0136,-0.1367,-1.792030473748678,9.277498931717148e-17,2.8463644981384277,-1.7806098461151123,7.606702274642885e-05,2.0271201133728027,4.886210205941953,-0.00010945729445666075,0.27867400646209717,-1.6976102034198206,0.000655942247249186,-0.0033918663393706083,0.818571150302887,-0.0,-0.008101563900709152,0.7128341794013977,-0.005645200610160828,-0.06671889126300812
916.0,947.0,1.7976,1.2072,9.2411,-0.0414,0.0136,-0.1367,-1.7920743427672328,3.005791382352511e-24,2.8729166984558105,-1.7806017398834229,7.01389872119762e-05,2.048642635345459,4.88622214177207,-0.0006515941931866109,0.25847023725509644,-1.6976349989520472,0.0008934306679293513,0.021102702245116234,0.818551242351532,-0.0,-0.004302351735532284,0.7127217054367065,-0.009845787659287453,-0.13278955221176147
916.0,947.0,1.7976,1.2072,9.2411,-0.0414,0.0136,-0.1367,-1.7921349010863246,-0.0005160742439329624,2.807260036468506,-1.7805862426757812,6.391294300556183e-05,2.0501065254211426,4.8861823109681985,-0.0006444936734624207,0.26540687680244446,-1.6975625197040003,0.0010963304666802287,0.031926147639751434,0.8186148405075073,-0.0,0.0003852684749290347,0.7126338481903076,-0.015511428005993366,-0.1834707111120224
895.0,925.0,1.7091,0.7472,9.1316,-0.0812,0.0302,-0.1631,-1.7920824489989222,-0.0005623523611575365,2.738769054412842,-1.7806017398834229,3.1062852940522134e-05,2.07767915725708,4.886138456850805,-0.0005709821125492454,0.2462160587310791,-1.6975792090045374,0.0012874632375314832,0.036273811012506485,0.8186109066009521,-0.0,-0.004873406141996384,0.7124817371368408,-0.021032534539699554,-0.2248995304107666
895.0,925.0,1.7091,0.7472,9.1316,-0.0812,0.0302,-0.1631,-1.792070051232809,-0.0005260781617835164,2.7691659927368164,-1.7806181907653809,2.6379739210824482e-05,2.0321316719055176,4.8861945597227,-0.0005062991986051202,0.24080544710159302,-1.6975186506854456,0.0027172446716576815,0.03657916933298111,0.8185632824897766,-0.0,-0.0030646699015051126,0.7122939229011536,-0.024811560288071632,-0.2405112087726593
895.0,925.0,1.7091,0.7472,9.1316,-0.0812,0.0302,-0.1631,-1.7920619450011195,-0.0005013699410483241,2.691208600997925,-1.7806057929992676,4.720970900962129e-05,2.074920177459717,4.886158215790548,-0.0004465602105483413,0.23749218881130219,-1.697474781666891,0.008653230965137482,0.07375457137823105,0.8185672163963318,-0.0,0.009378945454955101,0.7120940685272217,-0.028446154668927193,-0.3074560761451721
895.0,925.0,1.7091,0.7472,9.1316,-0.0812,0.0302,-0.1631,-1.7920781574644984,-0.0005150548531673849,2.6611361503601074,-1.7806428670883179,4.174675268586725e-05,2.019453287124634,4.8861304996307275,-0.0006054579862393439,0.2209802120923996,-1.697371784840719,0.01636349782347679,0.07026463001966476,0.8185989856719971,-0.0,0.004119894467294216,0.7117697596549988,-0.030334949493408203,-0.3053337037563324
895.0,925.0,1.7091,0.7472,9.1316,-0.0812,0.0302,-0.1631,-1.79211487392568,-0.0006195834721438587,2.6570301055908203,-1.7806222438812256,5.73027937207371e-05,2.0759146213531494,4.886126521020689,-0.0005659051821567118,0.21510083973407745,-1.6972196737872522,0.014073989354074001,0.09260466694831848,0.8185712099075317,-0.0,-0.015501181595027447,0.7114980220794678,-0.031448278576135635,-0.3316892981529236
895.0,925.0,1.7091,0.7472,9.1316,-0.0812,0.0302,-0.1631,-1.7920905552306117,-0.0007898684125393629,2.6198158264160156,-1.7806345224380493,7.042637298582122e-05,2.053938865661621,4.886166307121076,-0.0005552323418669403,0.20095482468605042,-1.6971281210528772,0.010878403671085835,0.08650124073028564,0.8186187744140625,-0.0,-0.00813989620655775,0.7112739086151123,-0.03393259271979332,-0.4002903699874878
895.0,925.0,1.7091,0.7472,9.1316,-0.0812,0.0302,-0.1631,-1.792098184625143,-0.0009582277270965278,2.614712715148926,-1.7805664539337158,0.0002666928921826184,2.073740243911743,4.886142524867811,-0.00046279735397547483,0.21598516404628754,-1.6970770994769495,0.009424458257853985,0.08648823201656342,0.8185989856719971,-0.0,-0.013773936778306961,0.7109774947166443,-0.03937702998518944,-0.4296151399612427
895.0,925.0,1.7091,0.7472,9.1316,-0.0812,0.0302,-0.1631,-1.7921143970885218,-0.0012020580470561981,2.482404947280884,-1.780545711517334,0.0016297301044687629,2.029564619064331,4.886134612351217,-0.0003751807671505958,0.19987764954566956,-1.6969011465655726,0.008280578069388866,0.11057503521442413,0.818571150302887,-0.0,-0.008225616998970509,0.7105900049209595,-0.04273733124136925,-0.4898515045642853
895.0,925.0,1.7091,0.7472,9.1316,-0.0812,0.0302,-0.1631,-1.7921301327147425,-0.0010570173617452383,2.5112686157226562,-1.7805745601654053,0.0016751914517953992,2.0619759559631348,4.886170479446211,-0.0003928151272702962,0.19314777851104736,-1.6969097296344202,0.0074142590165138245,0.11567887663841248,0.8185513615608215,-0.0,-0.0004193219356238842,0.7102053761482239,-0.04521709680557251,-0.5382351279258728
895.0,925.0,1.7091,0.7472,9.1316,-0.0812,0.0302,-0.1631,-1.7921387157835902,-0.0008738762116990983,2.524624824523926,-1.7805466651916504,0.002336252247914672,2.0970287322998047,4.8860782263572595,-0.0003598346374928951,0.20204460620880127,-1.696805779133932,0.004762563854455948,0.11305749416351318,0.8185275197029114,-0.0,-0.012432998046278954,0.7097821235656738,-0.048130638897418976,-0.47824394702911377
841.0,946.0,1.6672,0.5946,9.4367,-0.029,0.0029,-0.2037,-1.7921787701048792,-0.0006992693524807692,2.548067569732666,-1.780457854270935,0.0035832941066473722,2.052250385284424,4.886166307121076,-0.00030001968843862414,0.2017744928598404,-1.6967781225787562,0.0026357166934758425,0.09995192289352417,0.818606972694397,-0.0,-0.00558224692940712,0.70942223072052,-0.050534937530756,-0.5317261815071106
841.0,946.0,1.6672,0.5946,9.4367,-0.029,0.0029,-0.2037,-1.7921949825682582,-0.0008399005746468902,2.4649300575256348,-1.7804948091506958,0.0027705298271030188,2.0796823501586914,4.886134612351217,-0.00023586743918713182,0.19056276977062225,-1.6967499891864222,0.0014445125125348568,0.10346055030822754,0.818571150302887,-0.0,-0.013837940990924835,0.7088773250579834,-0.052856214344501495,-0.4977104961872101
841.0,946.0,1.6672,0.5946,9.4367,-0.029,0.0029,-0.2037,-1.7921105823912562,-0.0008932201308198273,2.5505690574645996,-1.7804824113845825,0.0019110942957922816,2.102451801300049,4.886162194400587,-0.00019497753237374127,0.19772179424762726,-1.6967580954181116,0.0011908278102055192,0.10470166802406311,0.818587064743042,-0.0,-0.01146751455962658,0.7084939479827881,-0.059414513409137726,-0.49214252829551697
841.0,946.0,1.6672,0.5946,9.4367,-0.029,0.0029,-0.2037,-1.7921787701048792,-0.0007700989954173565,2.4874982833862305,-1.7804584503173828,0.0014873415930196643,2.0399765968322754,4.886126565724172,-0.00019715361122507602,0.19743935763835907,-1.6966894308673304,0.0009342114790342748,0.09574228525161743,0.8185670971870422,-0.0,0.004295025020837784,0.7079415321350098,-0.0687970295548439,-0.5381147265434265
841.0,946.0,1.6672,0.5946,9.4367,-0.029,0.0029,-0.2037,-1.7922026119627894,-0.0007048760307952762,2.5569875240325928,-1.7804429531097412,0.0012687878916040063,2.0578699111938477,4.886098253517904,-0.000173740423633717,0.20318284630775452,-1.6967180410968226,0.0006863976595923305,0.09856727719306946,0.8186668157577515,-0.0,-0.008664106950163841,0.7074100971221924,-0.0782034620642662,-0.5292929410934448
841.0,946.0,1.6672,0.5946,9.4367,-0.029,0.0029,-0.2037,-1.7922069034972132,-0.0010891129495576024,2.4935479164123535,-1.7804068326950073,0.0013217621017247438,2.039858818054199,4.886098253517904,-0.00014966182061471045,0.1995614916086197,-1.6967137495623987,0.00046490508248098195,0.10603582113981247,0.8185513615608215,-0.0,0.0011224644258618355,0.7065372467041016,-0.08779601007699966,-0.5332564115524292
841.0,946.0,1.6672,0.5946,9.4367,-0.029,0.0029,-0.2037,-1.7921744785704554,-0.00178108352702111,2.5820059776306152,-1.780430555343628,0.0011593401432037354,2.0477664470672607,4.886170449643888,-0.00013472519640345126,0.19306671619415283,-1.6967580954181116,0.00028275162912905216,0.10676418244838715,0.818606972694397,-0.0,0.002392528112977743,0.7058137059211731,-0.09649936109781265,-0.5330847501754761
841.0,946.0,1.6672,0.5946,9.4367,-0.029,0.0029,-0.2037,-1.7921945057311,-0.0023005236871540546,2.5842089653015137,-1.7804150581359863,0.0011502441484481096,2.021240234375,4.886174607067861,-0.00012249959399923682,0.20588895678520203,-1.696698013936178,0.0002709120453801006,0.09978252649307251,0.8185989856719971,-0.0,-0.004013685509562492,0.7050255537033081,-0.09939360618591309,-0.5798673629760742
841.0,946.0,1.6672,0.5946,9.4367,-0.029,0.0029,-0.2037,-1.7922188244261683,-0.0026025068946182728,2.5576999187469482,-1.7803707122802734,0.00133260409347713,2.0783278942108154,4.886138814478674,-9.359175601275638e-05,0.20168599486351013,-1.6967185179339808,0.000263225199887529,0.11437329649925232,0.8185911178588867,-0.0,0.0031667747534811497,0.7042583227157593,-0.09541558474302292,-0.5669816732406616
841.0,946.0,1.6672,0.5946,9.4367,-0.029,0.0029,-0.2037,-1.792274614373678,-0.0015884189633652568,2.5509514808654785,-1.7804067134857178,0.0008364939712919295,2.0874297618865967,4.8861345676477335,-8.477445953758433e-05,0.1948971152305603,-1.696698013936178,0.00032242396264337003,0.11210595071315765,0.8185234665870667,-0.0,-0.0008060412365011871,0.7033311128616333,-0.09237861633300781,-0.5215330123901367
841.0,946.0,1.6672,0.5946,9.4367,-0.029,0.0029,-0.2037,-1.7922545872130335,-0.001032291678711772,2.5478076934814453,-1.7803622484207153,0.0006024183821864426,2.0781352519989014,4.886162909656324,-9.456529369344935e-05,0.20668581128120422,-1.6966946760760706,0.0005250491085462272,0.09436909854412079,0.8185989856719971,-0.0,-0.0018386886222288013,0.7025830149650574,-0.09837906807661057,-0.5772964358329773
621.0,952.0,1.7013,0.7238,9.2477,-0.0499,0.0111,-0.1446,-1.7922622166075648,-0.0010669963667169213,2.522380828857422,-1.7803664207458496,0.00041492903255857527,2.059248447418213,4.886138486653127,-8.840562077239156e-05,0.20077946782112122,-1.6967385450946253,0.0004425562219694257,0.09797298163175583,0.8186228275299072,-0.0,-0.010228141210973263,0.7017955183982849,-0.10011305660009384,-0.5189448595046997
621.0,952.0,1.7013,0.7238,9.2477,-0.0499,0.0111,-0.1446,-1.7922665081419886,-0.0010943734087049961,2.548952102661133,-1.7803622484207153,0.0003615233872551471,2.0692028999328613,4.886138754874029,-8.297213935293257e-05,0.20884892344474792,-1.696709934865133,0.0003798446268774569,0.10648132115602493,0.8185950517654419,-0.0,-0.00801259558647871,0.7010594606399536,-0.09791500121355057,-0.5414751768112183
621.0,952.0,1.7013,0.7238,9.2477,-0.0499,0.0111,-0.1446,-1.7922831974425257,-0.0005194034310989082,2.6032662391662598,-1.780378818511963,0.0005166409537196159,2.0560808181762695,4.8861387995775125,-7.705251482548192e-05,0.1879940629005432,-1.6966818014727991,0.00023468972358386964,0.1257273256778717,0.8186306953430176,-0.0,-0.012168272398412228,0.700066864490509,-0.09595945477485657,-0.5605954527854919
621.0,952.0,1.7013,0.7238,9.2477,-0.0499,0.0111,-0.1446,-1.7922665081419886,-0.00035540995304472744,2.592381477355957,-1.7803590297698975,0.0015396039234474301,2.0641705989837646,4.886194485216894,-7.2892100433819e-05,0.18594478070735931,-1.6967018286334437,0.00019416843133512884,0.11073212325572968,0.8186029195785522,-0.0,-0.001566216815263033,0.6993102431297302,-0.08828999847173691,-0.5321884155273438
621.0,952.0,1.7013,0.7238,9.2477,-0.0499,0.0111,-0.1446,-1.7922665081419886,-0.00027000351110473275,2.5527310371398926,-1.7803033590316772,0.002301301108673215,2.054295301437378,4.8861985532339,-5.9134858020115644e-05,0.18648472428321838,-1.6967623869525355,0.00016558379866182804,0.10986153781414032,0.8186548948287964,-0.0,-0.01352706365287304,0.698642373085022,-0.07829117774963379,-0.5457780957221985
621.0,952.0,1.7013,0.7238,9.2477,-0.0499,0.0111,-0.1446,-1.7922870121397914,-0.0001741904125083238,2.507858991622925,-1.78026282787323,0.0024860172998160124,2.0842931270599365,4.886142539768972,-5.4823252867208794e-05,0.19936645030975342,-1.696738068257467,0.00014433704200200737,0.1058046743273735,0.8186148405075073,-0.0,-0.00735901016741991,0.6980255842208862,-0.07100943475961685,-0.5319869518280029
621.0,952.0,1.7013,0.7238,9.2477,-0.0499,0.0111,-0.1446,-1.792278905908102,-4.15466602134984e-05,2.5801823139190674,-1.7803040742874146,0.0027867360040545464,2.074313163757324,4.886098283320226,-5.167545532458462e-05,0.20112547278404236,-1.696714226399557,0.00012438639532774687,0.09938906133174896,0.8185514211654663,-0.0,-0.0009389807237312198,0.6973693370819092,-0.061820343136787415,-0.5599686503410339
621.0,952.0,1.7013,0.7238,9.2477,-0.0499,0.0111,-0.1446,-1.792234560052389,-3.495393684715964e-05,2.5568461418151855,-1.7803112268447876,0.0019375720294192433,2.0909626483917236,4.886142524867811,-1.2694160432147328e-05,0.19375449419021606,-1.696714226399557,0.00011200214066775516,0.10191183537244797,0.8186029195785522,-0.0,-0.0070760054513812065,0.6968810558319092,-0.056872472167015076,-0.5305979251861572
621.0,952.0,1.7013,0.7238,9.2477,-0.0499,0.0111,-0.1446,-1.7922622166075648,-6.050766023690812e-05,2.5371110439300537,-1.7802668809890747,0.0008191239321604371,2.0790202617645264,4.886146518379011,-2.3071008992125996e-10,0.2101365625858307,-1.6967747847186487,0.00012222668738104403,0.10818087309598923,0.8185752630233765,-0.0,0.0010247367899864912,0.6964685320854187,-0.051505137234926224,-0.507592499256134
621.0,952.0,1.7013,0.7238,9.2477,-0.0499,0.0111,-0.1446,-1.7922831974425257,-5.333579611033201e-05,2.550123691558838,-1.7802472114562988,0.0005684724892489612,2.0720231533050537,4.886138531356611,-4.193040940771598e-15,0.18701234459877014,-1.6967580954181116,0.00011208397336304188,0.10585655272006989,0.8186148405075073,-0.0,-0.0040994915179908276,0.6960488557815552,-0.04567635431885719,-0.5072094202041626
621.0,952.0,1.7013,0.7238,9.2477,-0.0499,0.0111,-0.1446,-1.7922665081419886,-4.645805529435165e-05,2.5473928451538086,-1.7802751064300537,0.0004343795881140977,2.0611867904663086,4.886170151620664,-4.975736953750813e-21,0.1925891637802124,-1.6967185179339808,0.00011845010158140212,0.1080518588423729,0.8185989856719971,-0.0,-0.003649698803201318,0.6956278085708618,-0.041733354330062866,-0.516681969165802
479.0,956.0,1.55,1.3789,9.6532,0.0102,0.0199,-0.1087,-1.7922622166075648,-6.316087092272937e-05,2.5527896881103516,-1.7802512645721436,0.00038917677011340857,2.0956475734710693,4.886134597450056,-9.043156290807645e-26,0.20010310411453247,-1.696698013936178,8.856370550347492e-05,0.10840757191181183,0.8186109066009521,-0.0,-0.015582822263240814,0.6952993869781494,-0.03864862769842148,-0.47022050619125366
479.0,956.0,1.55,1.3789,9.6532,0.0102,0.0199,-0.1087,-1.7922831974425257,-7.701403956161812e-05,2.5785233974456787,-1.7802791595458984,0.0003199869825039059,2.0684621334075928,4.886134597450056,-1.6435487417716872e-30,0.1844002604484558,-1.6967185179339808,0.00010587830183794722,0.11461693793535233,0.8185950517654419,-0.0,0.000610066344961524,0.695031464099884,-0.03316664695739746,-0.5033171772956848
479.0,956.0,1.55,1.3789,9.6532,0.0102,0.0199,-0.1087,-1.7922622166075648,-7.09381201886572e-05,2.5246593952178955,-1.7802627086639404,0.00019552535377442837,2.0976204872131348,4.886178272753515,-2.987068611697744e-35,0.19663645327091217,-1.6966822783099573,0.00012158565368736163,0.10645829141139984,0.8185791373252869,-0.0,-0.00028158898930996656,0.6947791576385498,-0.02665453590452671,-0.4871399998664856
479.0,956.0,1.55,1.3789,9.6532,0.0102,0.0199,-0.1087,-1.792278905908102,-6.457639392465353e-05,2.5431969165802,-1.780235767364502,0.0002138430718332529,2.0981647968292236,4.886162224202909,-3.544584465509625e-41,0.19101974368095398,-1.6967223326312464,0.00037784373853355646,0.11628508567810059,0.8185871243476868,-0.0,-0.002459687413647771,0.6945834755897522,-0.018473923206329346,-0.4812648296356201
479.0,956.0,1.55,1.3789,9.6532,0.0102,0.0199,-0.1087,-1.7922584019102992,-6.025654874974862e-05,2.5592103004455566,-1.7802191972732544,0.00046636140905320644,2.0292139053344727,4.886166292219915,-0.0,0.20549312233924866,-1.6966784636126917,0.0003953118866775185,0.1216919869184494,0.8185592889785767,-0.0,-0.005207048263400793,0.6944718956947327,-0.012902677990496159,-0.44679495692253113
479.0,956.0,1.55,1.3789,9.6532,0.0102,0.0199,-0.1087,-1.7922622166075648,-9.784729627426714e-05,2.5868093967437744,-1.7802791595458984,0.0010978878708556294,2.069262981414795,4.886146533280172,-0.0,0.19109457731246948,-1.696646515523092,0.0005468612653203309,0.12063149362802505,0.818606972694397,-0.0,-0.004611301235854626,0.6943956613540649,-0.00717211002483964,-0.4527284502983093
479.0,956.0,1.55,1.3789,9.6532,0.0102,0.0199,-0.1087,-1.7923313579955042,-0.00011137383262393996,2.542269706726074,-1.7802873849868774,0.0007545079570263624,2.1058197021484375,4.886118325382032,-0.0,0.19639748334884644,-1.6966827551471155,0.0004673584771808237,0.11692740023136139,0.818618655204773,-0.0,-0.006312387529760599,0.694387674331665,-0.002098172204568982,-0.42065781354904175
479.0,956.0,1.55,1.3789,9.6532,0.0102,0.0199,-0.1087,-1.7923270664610804,-0.0005293494905345142,2.5697481632232666,-1.7802399396896362,0.00041028179111890495,2.0476057529449463,4.886150586396017,-0.0,0.19962593913078308,-1.6966589132892054,0.00034891811083070934,0.11579453945159912,0.8186148405075073,-0.0,-0.0015149523969739676,0.69440758228302,0.0024401748087257147,-0.4150767922401428
479.0,956.0,1.55,1.3789,9.6532,0.0102,0.0199,-0.1087,-1.7922946415343226,-0.0012171121779829264,2.54205584526062,-1.780243992805481,0.00030061686993576586,2.0492775440216064,4.886134597450056,-4.2205437011944014e-07,0.19759956002235413,-1.6966741720782679,0.0002662811311893165,0.11516691744327545,0.8186029195785522,-0.0,-0.0006026895716786385,0.6944274306297302,0.0026725423522293568,-0.49798452854156494
479.0,956.0,1.55,1.3789,9.6532,0.0102,0.0199,-0.1087,-1.7923227749266566,-0.0010762931779026985,2.5412187576293945,-1.780191421508789,0.00028463415219448507,2.0973777770996094,4.886154773622312,-7.670629756373337e-12,0.20266185700893402,-1.6966703573810022,0.00021530177036765963,0.1044943630695343,0.8186108469963074,-0.0,0.0038242756854742765,0.6945044994354248,0.0034724376164376736,-0.4236564636230469
479.0,956.0,1.55,1.3789,9.6532,0.0102,0.0199,-0.1087,-1.792330881158346,-0.0007417210726998746,2.5577635765075684,-1.7801913022994995,0.0002350870636291802,2.0642473697662354,4.8860744861658,-1.3940991024058408e-16,0.20062312483787537,-1.6966946760760706,0.00018070875375997275,0.09797141700983047,0.8186389803886414,-0.0,-0.005114119965583086,0.6945037841796875,0.003727417206391692,-0.43217796087265015
524.0,951.0,1.6044,1.4602,9.1968,-0.0237,0.0363,-0.115,-1.7922784290709437,-0.0004944844986312091,2.5548479557037354,-1.7801913022994995,0.00022390548838302493,2.054655075073242,4.886134612351217,-1.654329292016612e-22,0.1996246874332428,-1.6966784636126917,0.0001504882675362751,0.10673975944519043,0.8186429738998413,-0.0,-0.007200403604656458,0.6945884823799133,0.004222314339131117,-0.47191673517227173
524.0,951.0,1.6044,1.4602,9.1968,-0.0237,0.0363,-0.115,-1.7923222980894984,-0.0003879054565913975,2.585526704788208,-1.780182957649231,0.000939595396630466,2.0506157875061035,4.886110263853826,-3.0066612956342556e-27,0.20086592435836792,-1.696686093007223,0.0001327313220826909,0.10885448753833771,0.8186508417129517,-0.0,-0.004718942102044821,0.6945956945419312,0.0045920489355921745,-0.40033847093582153
524.0,951.0,1.6044,1.4602,9.1968,-0.0237,0.0363,-0.115,-1.7922946415343226,-0.0003191253636032343,2.5333383083343506,-1.7801995277404785,0.0013040341436862946,2.048957347869873,4.886106478958883,-5.46445887521415e-32,0.2035134881734848,-1.6966822783099573,0.00011872273171320558,0.10724668204784393,0.8186429738998413,-0.0,0.003414674662053585,0.6946718692779541,0.004634834825992584,-0.4798243045806885
524.0,951.0,1.6044,1.4602,9.1968,-0.0237,0.0363,-0.115,-1.7923222980894984,-0.0002558226988185197,2.565782070159912,-1.780174732208252,0.0015326769789680839,2.087212562561035,4.886098253517904,-9.931382921436766e-37,0.19052821397781372,-1.6966903845416468,0.00010738921264419332,0.09965983033180237,0.818678617477417,-0.0,-0.00470786402001977,0.6946757435798645,0.004455213434994221,-0.418364942073822
524.0,951.0,1.6044,1.4602,9.1968,-0.0237,0.0363,-0.115,-1.7922822437682093,-0.000757983885705471,2.5188722610473633,-1.780131220817566,0.0010679176775738597,2.079371690750122,4.886114272266187,-1.1784920084971712e-42,0.20416763424873352,-1.69670278230776,9.594090806785971e-05,0.11119794845581055,0.8186268210411072,1.3576247764879312e-11,-0.0038624699227511883,0.6947922706604004,0.005324999801814556,-0.4295848608016968
524.0,951.0,1.6044,1.4602,9.1968,-0.0237,0.0363,-0.115,-1.7923022709288539,-0.0010554309701547027,2.5938663482666016,-1.780163288116455,0.0008742591016925871,2.0467190742492676,4.8861427930887125,-0.0,0.18856683373451233,-1.6966903845416468,8.840168447932228e-05,0.11407193541526794,0.8186109066009521,2.4674162397746375e-16,-0.003710090648382902,0.6947919130325317,0.004473233595490456,-0.40789347887039185
524.0,951.0,1.6044,1.4602,9.1968,-0.0237,0.0363,-0.115,-1.7923671207823695,-0.0008993929368443787,2.5200178623199463,-1.780139446258545,0.0006821616552770138,2.048558235168457,4.886098298221388,-0.0,0.19352349638938904,-1.6967147032367151,8.196107228286564e-05,0.11033570766448975,0.8186591863632202,4.484407017972087e-21,-0.0045252228155732155,0.6948078274726868,0.004222189541906118,-0.44122815132141113
524.0,951.0,1.6044,1.4602,9.1968,-0.0237,0.0363,-0.115,-1.7923551998534144,-0.000600795669015497,2.5828380584716797,-1.7801828384399414,0.0006200116476975381,2.0690338611602783,4.886134627252378,-0.0,0.18960227072238922,-1.6966903845416468,7.51200204831548e-05,0.11132560670375824,0.818626880645752,5.321491577389684e-27,0.00505409948527813,0.6949081420898438,0.0050955587066709995,-0.4415976405143738
524.0,951.0,1.6044,1.4602,9.1968,-0.0237,0.0363,-0.115,-1.7923671207823695,-0.00035861440119333565,2.541726589202881,-1.7801270484924316,0.001037253183312714,2.039576530456543,4.886118325382032,-0.0,0.20202520489692688,-1.696657959614889,7.041788194328547e-05,0.12081567943096161,0.8187190294265747,9.671547867082538e-32,-0.008079608902335167,0.6949160099029541,0.005759097635746002,-0.4073150157928467
524.0,951.0,1.6044,1.4602,9.1968,-0.0237,0.0363,-0.115,-1.7923671207823695,-0.00027191746630705893,2.5522372722625732,-1.780151605606079,0.0020688078366219997,2.117422580718994,4.886150601297178,-0.0,0.18157386779785156,-1.6967104117022913,6.62698075757362e-05,0.11348523199558258,0.8186146020889282,1.7577557902676188e-36,0.00024662690702825785,0.695070207118988,0.005411761812865734,-0.45263877511024475
539.0,962.0,1.6726,1.2317,9.2812,-0.0238,0.017,-0.1194,-1.7923432789244593,-0.00021898165869060904,2.535024642944336,-1.7800310850143433,0.0036041387356817722,2.054481267929077,4.886174204736509,-0.0,0.18269193172454834,-1.696686093007223,6.258323264773935e-05,0.10884010791778564,0.8186748027801514,3.194680238967718e-41,-0.00960222166031599,0.6949999332427979,0.00402951380237937,-0.42483654618263245
539.0,962.0,1.6726,1.2317,9.2812,-0.0238,0.017,-0.1194,-1.7923551998534144,-0.00017612494411878288,2.5698423385620117,-1.7800761461257935,0.0054861814714968204,2.110924243927002,4.886106225639143,-0.0,0.1863357424736023,-1.6966984907733362,5.8514295233180746e-05,0.11802017688751221,0.8186228275299072,0.0,0.0018561962060630322,0.6950404047966003,0.0025956411845982075,-0.416056752204895
539.0,962.0,1.6726,1.2317,9.2812,-0.0238,0.017,-0.1194,-1.7923551998534144,-0.00015228311531245708,2.533608913421631,-1.7800521850585938,0.0058954739943146706,2.0558688640594482,4.886166262417593,-0.0,0.18512099981307983,-1.6966536680804651,6.674537144135684e-05,0.11417107284069061,0.8186509609222412,0.0,-0.0003325329744257033,0.6950723528862,0.0018134602578356862,-0.4217725992202759
539.0,962.0,1.6726,1.2317,9.2812,-0.0238,0.017,-0.1194,-1.7923790417113246,-0.00013412712723948061,2.5597472190856934,-1.7799280881881714,0.0045466795563697815,2.058210849761963,4.886126521020689,-0.0,0.20021042227745056,-1.6966617743121546,6.360115366987884e-05,0.11043080687522888,0.8186149597167969,0.0,0.001768356654793024,0.6950482130050659,0.0013330235378816724,-0.421220600605011
539.0,962.0,1.6726,1.2317,9.2812,-0.0238,0.017,-0.1194,-1.792370935479635,-0.0001438069884898141,2.579505443572998,-1.779923915863037,0.0028773280791938305,2.073975086212158,4.886178183346548,-0.0,0.20010346174240112,-1.6966984907733362,6.57311684335582e-05,0.1163242980837822,0.8186228275299072,0.0,-0.004189996514469385,0.6950439214706421,0.0009042156161740422,-0.4301559329032898
539.0,962.0,1.6726,1.2317,9.2812,-0.0238,0.017,-0.1194,-1.7923428020873011,-0.00012690848961938173,2.5208351612091064,-1.7799034118652344,0.0013846387155354023,2.0539438724517822,4.886134597450056,-0.0,0.19740703701972961,-1.6966660658465784,4.950488463606462e-09,0.10862624645233154,0.8185666799545288,0.0,0.001182975247502327,0.6950842142105103,0.0004920664941892028,-0.43685364723205566
539.0,962.0,1.6726,1.2317,9.2812,-0.0238,0.017,-0.1194,-1.792370458642477,-0.00013533743913285434,2.579786777496338,-1.7798960208892822,0.0007831393158994615,2.0749974250793457,4.886134612351217,-0.0,0.20026303827762604,-1.6966946760760706,5.553488517762162e-05,0.11330222338438034,0.8186146020889282,0.0,-0.008691494353115559,0.6950801610946655,0.0004206816083751619,-0.4424401819705963
539.0,962.0,1.6726,1.2317,9.2812,-0.0238,0.017,-0.1194,-1.7923747501769007,-0.00014243215264286846,2.5733723640441895,-1.7798763513565063,0.0005456452490761876,2.0387613773345947,4.886118280678549,-0.0,0.20429618656635284,-1.696646515523092,6.496181725879069e-08,0.11837885528802872,0.8186069130897522,0.0,0.0013647787272930145,0.6950319409370422,0.00033199955942109227,-0.4084777235984802
539.0,962.0,1.6726,1.2317,9.2812,-0.0238,0.017,-0.1194,-1.7923580608763636,-0.00015006933244876564,2.5636343955993652,-1.7799115180969238,0.0004186975711490959,2.0575296878814697,4.886102291732588,-0.0,0.19436819851398468,-1.6966546217547815,0.0004454683803487569,0.11044073104858398,0.8186591863632202,0.0,-0.006948137655854225,0.695076048374176,0.0002784903917927295,-0.4693487882614136
539.0,962.0,1.6726,1.2317,9.2812,-0.0238,0.017,-0.1194,-1.7924391231932582,-0.0012819363037124276,2.5407347679138184,-1.779923915863037,0.0003243718820158392,2.0772342681884766,4.886150571494856,-0.0,0.20308050513267517,-1.6966546217547815,0.00042204654891975224,0.12483995407819748,0.818635106086731,0.0,0.00897497683763504,0.6950923204421997,0.0018226859392598271,-0.4212207794189453
539.0,962.0,1.6726,1.2317,9.2812,-0.0238,0.017,-0.1194,-1.792471548120016,-0.001209367299452424,2.5832982063293457,-1.7799280881881714,0.0002748409169726074,2.052922010421753,4.886086332588949,-0.0,0.16732299327850342,-1.696629826222555,0.00038046707049943507,0.11187446117401123,0.818587064743042,0.0,-0.00494737084954977,0.6951444745063782,0.002098886063322425,-0.44760262966156006
531.0,960.0,1.6917,1.0187,9.3715,-0.0516,0.029,-0.1133,-1.7923699818053187,-0.0008593439124524593,2.598756790161133,-1.779923915863037,0.00023918472288642079,2.059001922607422,4.886138754874029,-0.0,0.1957668662071228,-1.6966264883624476,0.00040845159674063325,0.12126678228378296,0.8185710310935974,0.0,0.004256075248122215,0.6951122283935547,0.0019143283134326339,-0.4595826268196106
531.0,960.0,1.6917,1.0187,9.3715,-0.0516,0.029,-0.1133,-1.7923547230162562,-0.0006134022260084748,2.5888803005218506,-1.7799402475357056,0.00019367951608728617,2.0436458587646484,4.88610232153491,-0.0,0.19493603706359863,-1.6966264883624476,0.0006651548901572824,0.11990223824977875,0.8185751438140869,0.0,-0.013106497004628181,0.6951727271080017,0.0021226645912975073,-0.441189706325531
531.0,960.0,1.6917,1.0187,9.3715,-0.0516,0.029,-0.1133,-1.7924229107298792,-0.00047614084905944765,2.5363306999206543,-1.779872179031372,0.0011283793719485402,2.0754003524780273,4.886110532074728,-0.0,0.19390477240085602,-1.696611229573385,0.0007642643176950514,0.11378724873065948,0.8185788989067078,0.0,0.008425970561802387,0.6951438784599304,0.0028367112390697002,-0.46039295196533203
531.0,960.0,1.6917,1.0187,9.3715,-0.0516,0.029,-0.1133,-1.7924066982665003,-0.00039035637746565044,2.5777230262756348,-1.7798638343811035,0.00100023637060076,2.081061840057373,4.886126521020689,-0.0,0.1991184949874878,-1.696618382130758,0.0008613970130681992,0.1151217669248581,0.8185710906982422,0.0,0.0042527345940470695,0.6951719522476196,0.002903153421357274,-0.45718222856521606
531.0,960.0,1.6917,1.0187,9.3715,-0.0516,0.029,-0.1133,-1.792382379571432,-0.0007637164671905339,2.56756329536438,-1.779872179031372,0.0007471693097613752,2.053539276123047,4.886126521020689,-0.0,0.2027396857738495,-1.6966026465045374,0.0009274877374991775,0.10802711546421051,0.8185713291168213,0.0,-0.01666960120201111,0.6952647566795349,0.0034960033372044563,-0.44968298077583313
531.0,960.0,1.6917,1.0187,9.3715,-0.0516,0.029,-0.1133,-1.7924348316588343,-0.0015067700296640396,2.5157887935638428,-1.7798638343811035,0.0005791045841760933,2.032317638397217,4.886082622199812,-0.0,0.19317254424095154,-1.6966026465045374,0.0010341249871999025,0.12235557287931442,0.818574845790863,0.0,-0.011261982843279839,0.6952646374702454,0.0037301206029951572,-0.41123461723327637
531.0,960.0,1.6917,1.0187,9.3715,-0.0516,0.029,-0.1133,-1.7924591503539027,-0.0021319149527698755,2.6195321083068848,-1.779840111732483,0.00039590010419487953,2.0051627159118652,4.886138754874029,-3.329212253100344e-11,0.19603511691093445,-1.6965706984149378,0.0013923480873927474,0.10775044560432434,0.818562924861908,0.0,-0.006678181234747171,0.6953286528587341,0.0037369607016444206,-0.40350809693336487
531.0,960.0,1.6917,1.0187,9.3715,-0.0516,0.029,-0.1133,-1.792539735833639,-0.0023515468928962946,2.547959327697754,-1.7799246311187744,0.0004042383225169033,2.0406837463378906,4.886126521020689,-6.050678744153016e-16,0.19792070984840393,-1.696514908467428,0.0019595061894506216,0.10686559975147247,0.8186309933662415,0.0,-0.012336935847997665,0.6953646540641785,0.00364454067312181,-0.39298951625823975
531.0,960.0,1.6917,1.0187,9.3715,-0.0516,0.029,-0.1133,-1.7925316296019496,-0.0023800109047442675,2.5738072395324707,-1.7798596620559692,0.0004210754414089024,2.091259002685547,4.88611866810874,-1.0996809674124877e-20,0.206714928150177,-1.6965187231646937,0.0033252257853746414,0.10447970032691956,0.818547248840332,0.0,-0.015558978542685509,0.6953485608100891,0.0037885813508182764,-0.4345521926879883
531.0,960.0,1.6917,1.0187,9.3715,-0.0516,0.029,-0.1133,-1.7925111256041468,-0.0021697720512747765,2.583738088607788,-1.7798638343811035,0.0004309922514948994,2.0638248920440674,4.886078554182806,-1.998615341675267e-25,0.20301198959350586,-1.6964991728412073,0.005803357344120741,0.09989723563194275,0.8185751438140869,0.0,-0.0051082647405564785,0.6953924894332886,0.0038894026074558496,-0.4394061267375946
531.0,960.0,1.6917,1.0187,9.3715,-0.0516,0.029,-0.1133,-1.7925836048521937,-0.0018602482741698623,2.5655064582824707,-1.7798678874969482,0.0005419358494691551,2.095428943634033,4.886106464057722,-2.3716875114704643e-31,0.20475299656391144,-1.6964071432696741,0.005629629362374544,0.10983540862798691,0.8186472058296204,0.0,-0.014209466986358166,0.6954284906387329,0.0036001389380544424,-0.4262505769729614
535.0,962.0,1.657,3.006,9.4241,-0.0451,0.037,-0.1196,-1.792534967462057,-0.0018590004183351994,2.562260389328003,-1.7798120975494385,0.00046078048762865365,2.076380491256714,4.886110532074728,-4.3104234923205004e-36,0.20809169113636017,-1.6963914076434534,0.00368120358325541,0.09933546185493469,0.8185550570487976,0.0,-0.019260890781879425,0.6955048441886902,0.0031575551256537437,-0.4087216854095459
535.0,962.0,1.657,3.006,9.4241,-0.0451,0.037,-0.1196,-1.7926112614073695,-0.0020702467299997807,2.6355137825012207,-1.7798678874969482,0.0003449275391176343,2.0687339305877686,4.88606225231246,-7.83395906480789e-41,0.1962532103061676,-1.6963394323932093,0.002862431574612856,0.10338941216468811,0.8185591697692871,1.6064841901197724e-08,-0.0160230565816164,0.6954603791236877,0.002411075634881854,-0.40580904483795166
535.0,962.0,1.657,3.006,9.4241,-0.0451,0.037,-0.1196,-1.7925712070860804,-0.0023087572772055864,2.576145648956299,-1.7798969745635986,0.00031676932121627033,2.0974526405334473,4.886094900756635,-1.401298464324817e-45,0.20126336812973022,-1.6963475386248987,0.002877664752304554,0.09986071288585663,0.8185551166534424,2.919706306152986e-13,-0.02470068633556366,0.6954848170280457,0.0013941036304458976,-0.41541001200675964
535.0,962.0,1.657,3.006,9.4241,-0.0451,0.037,-0.1196,-1.792692323724264,-0.0024286762345582247,2.5610320568084717,-1.779840111732483,0.00032654195092618465,2.073228359222412,4.886086690216818,-0.0,0.20972150564193726,-1.6962721983539026,0.004463442601263523,0.11750707030296326,0.8185551166534424,3.4647139795849506e-19,-0.027362380176782608,0.6954807639122009,0.0008748345426283777,-0.391850084066391
535.0,962.0,1.657,3.006,9.4241,-0.0451,0.037,-0.1196,-1.792598386804098,-0.002476994413882494,2.5962905883789062,-1.7798681259155273,0.0002987536136060953,2.083986759185791,4.88612279573039,-0.0,0.20492002367973328,-1.6962164084063929,0.006367248948663473,0.09998683631420135,0.8185751438140869,6.296946886281481e-24,-0.02151487022638321,0.6955048441886902,0.0005887059960514307,-0.4382671117782593
535.0,962.0,1.657,3.006,9.4241,-0.0451,0.037,-0.1196,-1.7926227054991664,-0.002420407021418214,2.5783543586730957,-1.779848337173462,0.00028327471227385104,2.0915989875793457,4.886086690216818,-5.7960685808211565e-05,0.19328953325748444,-1.6961362997638147,0.010412702336907387,0.1096249520778656,0.8185632228851318,1.144439091580908e-28,-0.020388741046190262,0.6954766511917114,0.0004435908340383321,-0.42224985361099243
535.0,962.0,1.657,3.006,9.4241,-0.0451,0.037,-0.1196,-1.7926832638182582,-0.002267916686832905,2.5658929347991943,-1.7798523902893066,0.00023414050519932061,2.050187110900879,4.8860745308692834,-8.884583075996488e-05,0.20067593455314636,-1.696073357258932,0.015756824985146523,0.10698867589235306,0.8185952305793762,2.0799613976602112e-33,-0.025992438197135925,0.6954644918441772,0.0003558775642886758,-0.3849015533924103
535.0,962.0,1.657,3.006,9.4241,-0.0451,0.037,-0.1196,-1.7926589451231898,-0.0021909920033067465,2.596721649169922,-1.7798162698745728,0.00019242154667153955,2.0703048706054688,4.886114614992895,-9.703392424853519e-05,0.22301320731639862,-1.695874039326803,0.027357198297977448,0.11322078108787537,0.8185713887214661,2.468217687793982e-39,-0.023623857647180557,0.695468544960022,0.0002853519399650395,-0.4416636526584625
535.0,962.0,1.657,3.006,9.4241,-0.0451,0.037,-0.1196,-1.7927075825133265,-0.0021257216576486826,2.582063674926758,-1.77986478805542,0.00019648551824502647,2.0475165843963623,4.8861228106315515,-9.052918176166713e-05,0.2067955732345581,-1.6955507437335413,0.051091648638248444,0.11576245725154877,0.8185710906982422,4.484155085839415e-44,-0.03359028697013855,0.6954766511917114,0.000246303912717849,-0.3913065195083618
535.0,962.0,1.657,3.006,9.4241,-0.0451,0.037,-0.1196,-1.7927113972105921,-0.0018913634121418,2.5840821266174316,-1.7799131870269775,0.00017469185695517808,2.056558609008789,4.886086690216818,-8.483990677632391e-05,0.20297269523143768,-1.6948931852923792,0.10173478722572327,0.12455275654792786,0.8185431361198425,0.0,-0.023757338523864746,0.6954851150512695,0.0002172535751014948,-0.43282824754714966
535.0,962.0,1.657,3.006,9.4241,-0.0451,0.037,-0.1196,-1.7927762470641078,-0.0019317490514367819,2.563272476196289,-1.779831886291504,0.0001572503097122535,2.0673611164093018,4.886098640948095,-7.982340321177617e-05,0.21782547235488892,-1.6937525908099573,0.1736602634191513,0.15836919844150543,0.818547248840332,0.0,-0.028970949351787567,0.6954807639122009,0.00015300887753255665,-0.43005669116973877
469.0,956.0,1.7976,2.3701,9.2166,-0.567,0.0406,-0.1387,-1.792783876458639,-0.0022641699761152267,2.5428953170776367,-1.779811978340149,0.0001398027379764244,2.0247936248779297,4.886098626046934,-7.432966958731413e-05,0.2112831473350525,-1.6918838659869593,0.1857815980911255,0.18063311278820038,0.8185149431228638,0.0,-0.021141180768609047,0.695468544960022,0.0006638895138166845,-0.419016569852829
469.0,956.0,1.7976,2.3701,9.2166,-0.567,0.0406,-0.1387,-1.7927915058531703,-0.0016656555235385895,2.571284294128418,-1.7798120975494385,0.0001466627581976354,2.078537940979004,4.88610269406394,-7.045075471978635e-05,0.21470680832862854,-1.6901987234698694,0.23571135103702545,0.20254170894622803,0.8185751438140869,0.0,-0.0320763885974884,0.6954965591430664,0.0007837475859560072,-0.4567912220954895
469.0,956.0,1.7976,2.3701,9.2166,-0.567,0.0406,-0.1387,-1.7927833996214808,-0.0010627367300912738,2.6008455753326416,-1.7798720598220825,0.00011271287803538144,2.070483446121216,4.886066320329466,-6.695659249089658e-05,0.20596233010292053,-1.688270394002096,0.2497313916683197,0.19551804661750793,0.8185513019561768,0.0,-0.03208191692829132,0.6955165266990662,0.00046235640184022486,-0.39215269684791565
469.0,956.0,1.7976,2.3701,9.2166,-0.567,0.0406,-0.1387,-1.7927833996214808,-0.0008196659618988633,2.5940308570861816,-1.7798399925231934,0.00012201286881463602,2.053652763366699,4.886138844280996,-6.379266415024176e-05,0.19620588421821594,-1.6859434286700647,0.3066225051879883,0.22332727909088135,0.818547248840332,0.0,-0.0232394989579916,0.6955046653747559,0.0003276473144069314,-0.4188709855079651
469.0,956.0,1.7976,2.3701,9.2166,-0.567,0.0406,-0.1387,-1.7927590809264125,-0.0005285651423037052,2.5429282188415527,-1.779792308807373,0.00014713143173139542,2.0437231063842773,4.886086705117979,-6.02347899985034e-05,0.21196258068084717,-1.68264085451235,0.3460511267185211,0.22956335544586182,0.8184911012649536,0.0,-0.026876233518123627,0.695468544960022,0.00024019090051297098,-0.35687553882598877
469.0,956.0,1.7976,2.3701,9.2166,-0.567,0.0406,-0.1387,-1.7927590809264125,-0.0004431113775353879,2.571532726287842,-1.779811978340149,0.0003762837150134146,2.0596563816070557,4.886078539281645,-8.404912321680058e-09,0.19109874963760376,-1.6797393004046839,0.3926241397857666,0.23873955011367798,0.8186030387878418,0.0,-0.013861813582479954,0.6955128312110901,0.00019792828243225813,-0.4342140853404999
469.0,956.0,1.7976,2.3701,9.2166,-0.567,0.0406,-0.1387,-1.7927547893919886,-0.0003952066181227565,2.556708335876465,-1.7798802852630615,0.0003432787780184299,2.068260431289673,4.886130589037695,-1.5275512788275741e-13,0.20480301976203918,-1.6765411535846155,0.42653700709342957,0.2521466314792633,0.8185312747955322,0.0,-0.018555471673607826,0.6954362988471985,0.00013465135998558253,-0.42408329248428345
469.0,956.0,1.7976,2.3701,9.2166,-0.567,0.0406,-0.1387,-1.7928196392455042,-0.00027076946571469307,2.577300548553467,-1.7798285484313965,0.0003768505994230509,2.0869011878967285,4.886082652002134,-2.776248505528557e-18,0.21597504615783691,-1.6729558149920862,0.4720105528831482,0.2803601920604706,0.8185431361198425,0.0,-0.017464829608798027,0.6954324245452881,-6.616707833018154e-05,-0.3746078312397003
469.0,956.0,1.7976,2.3701,9.2166,-0.567,0.0406,-0.1387,-1.7928034267821253,-0.00020813643641304225,2.5834927558898926,-1.7798367738723755,0.000425766222178936,2.055690050125122,4.8861145851905725,-3.2944783832769875e-24,0.21670004725456238,-1.6678860823260706,0.5144937038421631,0.28100690245628357,0.8185713291168213,0.0,-0.03312726318836212,0.6954525709152222,-0.00014319104957394302,-0.4232727587223053
469.0,956.0,1.7976,2.3701,9.2166,-0.567,0.0406,-0.1387,-1.792795320550436,-0.00017563934670761228,2.5955443382263184,-1.7797882556915283,0.0005440944223664701,2.0389771461486816,4.88611455538825,-5.987551289348428e-29,0.2029346525669098,-1.6635692755328577,0.5571727156639099,0.3057650923728943,0.8185915946960449,-5.38611420779489e-05,-0.023971036076545715,0.6954647302627563,-0.0006357497768476605,-0.4229121506214142
323.0,947.0,1.465,-0.7298,9.3655,-0.7017,0.0444,-0.1307,-1.7927714786925257,-0.00015192024875432253,2.558140516281128,-1.779811978340149,0.0005092634237371385,2.072409152984619,4.886102291732588,-1.0882079259664824e-33,0.20190604031085968,-1.6588977018939417,0.6079640984535217,0.30135223269462585,0.8185873627662659,-5.174288889975287e-05,-0.021336598321795464,0.6953963041305542,-0.0005869539454579353,-0.420726478099823
323.0,947.0,1.465,-0.7298,9.3655,-0.7017,0.0444,-0.1307,-1.7927876911559046,-0.00013384524208959192,2.5480127334594727,-1.779800534248352,0.0004016402817796916,2.071275472640991,4.886090490012922,-1.9777643463190675e-38,0.21360789239406586,-1.653966252003805,0.6328120231628418,0.28214576840400696,0.8185312151908875,-1.2710082046396565e-05,-0.044145673513412476,0.6954567432403564,-0.00038573500933125615,-0.4212501645088196
323.0,947.0,1.465,-0.7298,9.3655,-0.7017,0.0444,-0.1307,-1.7928034267821253,-0.00011651703243842348,2.530198574066162,-1.7798161506652832,0.00026865341351367533,2.080838680267334,4.886122512608328,-2.382207389352189e-44,0.20033934712409973,-1.6474078337298792,0.670003354549408,0.2798178791999817,0.818547248840332,-1.5082615711925484e-11,-0.029495561495423317,0.695448637008667,-0.00021608409588225186,-0.4035069942474365
323.0,947.0,1.465,-0.7298,9.3655,-0.7017,0.0444,-0.1307,-1.7927833996214808,-0.00010558195936027914,2.5836739540100098,-1.7797716856002808,0.00030299180070869625,2.020245313644409,4.886158811836996,-0.0,0.18866592645645142,-1.6419346968280237,0.6897566318511963,0.28828924894332886,0.8185952305793762,-2.74119105261262e-16,-0.03154272586107254,0.6954485177993774,-0.00013063907681498677,-0.4147930145263672
323.0,947.0,1.465,-0.7298,9.3655,-0.7017,0.0444,-0.1307,-1.792795797387594,-8.382352098124102e-05,2.5717544555664062,-1.7798243761062622,0.0013966686092317104,2.0071287155151367,4.886150601297178,-0.0,0.18773332238197327,-1.6363738218890589,0.6962904930114746,0.2926158308982849,0.8185873627662659,-4.981979986332958e-21,-0.009426150470972061,0.6954885125160217,0.00024055452377069741,-0.3961753249168396
323.0,947.0,1.465,-0.7298,9.3655,-0.7017,0.0444,-0.1307,-1.79276766399526,-5.82667016715277e-05,2.520669460296631,-1.7797280550003052,0.0035457646008580923,2.0377769470214844,4.88612653592185,1.8956654457724653e-05,0.18630149960517883,-1.629413906727926,0.6937851309776306,0.2775340974330902,0.8186595439910889,-5.9119431797399226e-27,-0.017610684037208557,0.6955291032791138,0.0021942376624792814,-0.3337615728378296
323.0,947.0,1.465,-0.7298,9.3655,-0.7017,0.0444,-0.1307,-1.7927795849242152,-4.858104875893332e-05,2.525092601776123,-1.7797001600265503,0.007455999962985516,2.072489023208618,4.88618645349101,6.972215582656816e-10,0.17007479071617126,-1.6239803473102015,0.6933010816574097,0.271531879901886,0.8185349702835083,-1.0744662537419958e-31,-0.0018194776494055986,0.6955206394195557,0.004729520063847303,-0.34730514883995056
323.0,947.0,1.465,-0.7298,9.3655,-0.7017,0.0444,-0.1307,-1.792710920373434,5.9237103414488956e-05,2.5321977138519287,-1.77965247631073,0.009657425805926323,1.9904707670211792,4.886154132872381,1.2671656089604643e-14,0.1811220943927765,-1.6186431089984339,0.6710245609283447,0.2742849588394165,0.8185710906982422,-1.9527894522049148e-36,-0.009639820083975792,0.6955683827400208,0.007829777896404266,-0.31559616327285767
323.0,947.0,1.465,-0.7298,9.3655,-0.7017,0.0444,-0.1307,-1.7927190266051234,7.326198101509362e-05,2.559985399246216,-1.779561161994934,0.012655515223741531,2.041083335876465,4.886230605631628,0.0003394939412828535,0.18913212418556213,-1.6133340040790003,0.6520870923995972,0.2365676909685135,0.8186150193214417,-3.549068620595464e-41,-0.016670051962137222,0.695692777633667,0.012991923838853836,-0.21632489562034607
323.0,947.0,1.465,-0.7298,9.3655,-0.7017,0.0444,-0.1307,-1.7926746807494105,0.0003367081517353654,2.5610647201538086,-1.7793645858764648,0.015260957181453705,2.0108642578125,4.8861982999141595,0.00034713451168499887,0.16793377697467804,-1.6069796721087855,0.620078980922699,0.24382081627845764,0.8185428977012634,4.024434747407213e-05,-0.0003982537891715765,0.6958248615264893,0.0206146240234375,-0.1052698940038681
323.0,947.0,1.465,-0.7298,9.3655,-0.7017,0.0444,-0.1307,-1.7926827869811,0.0003536609001457691,2.6066625118255615,-1.779281497001648,0.01627274975180626,2.0100858211517334,4.886198314815321,0.000396131508750841,0.18266341090202332,-1.6021564642535608,0.5771840810775757,0.1962290108203888,0.818626880645752,3.695236591738649e-05,-0.02043899893760681,0.6960049867630005,0.026274554431438446,-0.06437493860721588
272.0,920.0,1.4841,-3.0939,8.9288,-0.0182,0.0325,-0.0266,-1.7927357159056605,0.0004971228772774339,2.582077980041504,-1.779173731803894,0.016817117109894753,2.012030601501465,4.8862061379249475,0.00036777518107555807,0.20731192827224731,-1.5977371374713343,0.5438640117645264,0.2257712483406067,0.8185911178588867,3.414792809053324e-05,-0.011211579665541649,0.6962824463844299,0.03259119391441345,-0.01780323125422001
272.0,920.0,1.4841,-3.0939,8.9288,-0.0182,0.0325,-0.0266,-1.7926632366576136,0.0004947779816575348,2.6419100761413574,-1.7789697647094727,0.015896180644631386,2.0053958892822266,4.886174145131864,0.0003854559035971761,0.19517004489898682,-1.5936172644244593,0.5091744065284729,0.21243153512477875,0.8185509443283081,3.1739575206302106e-05,-0.009375274181365967,0.6964775323867798,0.03811871260404587,0.07302143424749374
272.0,920.0,1.4841,-3.0939,8.9288,-0.0182,0.0325,-0.0266,-1.7926551304259242,0.0004691022040788084,2.6705260276794434,-1.778846263885498,0.01612590067088604,2.1075439453125,4.886197897582807,0.00040046099456958473,0.20724515616893768,-1.5889061133014124,0.4531048834323883,0.1757829338312149,0.8185431361198425,2.9167689717723988e-05,0.003094371873885393,0.6969508528709412,0.04470128193497658,0.10386268049478531
272.0,920.0,1.4841,-3.0939,8.9288,-0.0182,0.0325,-0.0266,-1.7926708660521449,0.0005294306320138276,2.691851854324341,-1.7787995338439941,0.01402187068015337,2.0207085609436035,4.886170032411375,0.00038884070818312466,0.20448675751686096,-1.5855372587787073,0.4007601737976074,0.14209379255771637,0.8186109066009521,2.739219053182751e-05,-0.006891458295285702,0.6972705125808716,0.050771672278642654,0.10135804116725922
272.0,920.0,1.4841,-3.0939,8.9288,-0.0182,0.0325,-0.0266,-1.7926794491209925,0.0006558058666996658,2.7171006202697754,-1.7786431312561035,0.012038146145641804,2.0588080883026123,4.886170062213697,0.0003637021582107991,0.2284136414527893,-1.5825985113727015,0.3537001311779022,0.13774634897708893,0.8185871243476868,2.582045090093743e-05,0.0010890794219449162,0.6977429986000061,0.057470813393592834,0.1961338222026825
272.0,920.0,1.4841,-3.0939,8.9288,-0.0182,0.0325,-0.0266,-1.792626520196432,0.0008206142229028046,2.7156472206115723,-1.7785189151763916,0.010322212241590023,2.0228805541992188,4.886181908636846,0.0003429096541367471,0.22815726697444916,-1.5801947752581995,0.28610989451408386,0.07904127240180969,0.818527102470398,3.6627145163947716e-05,0.002716241404414177,0.6982325315475464,0.06350396573543549,0.22235524654388428
272.0,920.0,1.4841,-3.0939,8.9288,-0.0182,0.0325,-0.0266,-1.7926436863341273,0.0013068864354863763,2.7684385776519775,-1.7783997058868408,0.008623993024230003,2.0520031452178955,4.8862061379249475,0.0003522598708514124,0.22459979355335236,-1.577939812337057,0.18356315791606903,0.044246334582567215,0.8186911940574646,3.4302160202059895e-05,-0.006848494987934828,0.6988797187805176,0.07357010990381241,0.24194154143333435
272.0,920.0,1.4841,-3.0939,8.9288,-0.0182,0.0325,-0.0266,-1.7926351032652796,0.001314428634941578,2.7504429817199707,-1.778355360031128,0.007700863294303417,2.0344529151916504,4.886246222048559,0.00034586997935548425,0.23843158781528473,-1.5767486731158655,0.13832125067710876,0.02104804292321205,0.8186473846435547,4.3522788473637775e-05,-0.006894280202686787,0.6994970440864563,0.07800993323326111,0.30010786652565
272.0,920.0,1.4841,-3.0939,8.9288,-0.0182,0.0325,-0.0266,-1.7926269970335902,0.0013337571872398257,2.7564938068389893,-1.7783280611038208,0.007280546240508556,2.0654141902923584,4.886238145619192,0.00026456406340003014,0.22175312042236328,-1.5760982672320765,0.04076582193374634,-0.015298380516469479,0.8186472654342651,4.1516632336424664e-05,-0.008998855948448181,0.700104832649231,0.07740674167871475,0.3024383783340454
272.0,920.0,1.4841,-3.0939,8.9288,-0.0182,0.0325,-0.0266,-1.7926436863341273,0.0008824990945868194,2.748082160949707,-1.7782795429229736,0.006599251180887222,2.021620035171509,4.886205825000562,0.00025696001830510795,0.23059888184070587,-1.5762184301959437,-0.05887557566165924,-0.06326932460069656,0.8186514377593994,2.0115972802159376e-05,-0.0031433184631168842,0.7007489204406738,0.07485878467559814,0.3407735824584961
272.0,920.0,1.4841,-3.0939,8.9288,-0.0182,0.0325,-0.0266,-1.7926436863341273,0.0005189539515413344,2.70463228225708,-1.7781801223754883,0.004728164058178663,2.0615012645721436,4.886242526560583,0.00017361162463203073,0.24495461583137512,-1.576958481465475,-0.08243294805288315,-0.09126834571361542,0.8186153173446655,2.387092780387068e-11,-0.002222688402980566,0.7015207409858704,0.07486049085855484,0.379408597946167
290.0,948.0,2.0303,1.267,8.6548,0.0304,0.0368,-0.1,-1.7926227054991664,0.0003903153701685369,2.768794059753418,-1.7782368659973145,0.002357528544962406,2.0454912185668945,4.88620205500678,0.00014993848162703216,0.2217552363872528,-1.577526871358053,-0.05586329475045204,-0.08557732403278351,0.8186145424842834,4.338422817102129e-16,-0.016843076795339584,0.7020687460899353,0.07335246354341507,0.3997995853424072
290.0,948.0,2.0303,1.267,8.6548,0.0304,0.0368,-0.1,-1.7926351032652796,0.0003127903619315475,2.748563289642334,-1.7782326936721802,0.0011521469568833709,2.0222840309143066,4.886197897582807,0.00013230352487880737,0.23239174485206604,-1.5778382460223597,-0.022328991442918777,-0.08319258689880371,0.8186109066009521,7.88487058358229e-21,-0.004374458454549313,0.7026821374893188,0.07230853289365768,0.44057342410087585
290.0,948.0,2.0303,1.267,8.6548,0.0304,0.0368,-0.1,-1.7926517925658167,0.0001058654161170125,2.72298264503479,-1.7782564163208008,0.0006149353575892746,2.0486207008361816,4.88617821314887,0.00011838054342661053,0.2146155834197998,-1.5778501669513147,-0.0016395605634897947,-0.07574888318777084,0.818618655204773,1.4330364620368885e-25,0.002027876442298293,0.7032492160797119,0.07748910784721375,0.4938376545906067
290.0,948.0,2.0303,1.267,8.6548,0.0304,0.0368,-0.1,-1.7926393947997035,6.875912367831916e-05,2.7259726524353027,-1.7782721519470215,0.0004130025045014918,2.053858518600464,4.886238458543577,8.369516581296921e-05,0.22950465977191925,-1.5778501669513147,0.000784652482252568,-0.0795743316411972,0.8185631632804871,1.700534309891076e-31,0.002522504422813654,0.7040525674819946,0.08580002188682556,0.502368688583374
290.0,948.0,2.0303,1.267,8.6548,0.0304,0.0368,-0.1,-1.792619367639059,4.005667142337188e-05,2.7323412895202637,-1.7782557010650635,0.00010102646774612367,2.0153961181640625,4.88617421963767,5.743182191508822e-05,0.23304396867752075,-1.5778544584857386,0.0001280971191590652,-0.0902511328458786,0.8185710906982422,3.0906364512223255e-36,-0.009074102155864239,0.7047684192657471,0.09110085666179657,0.5701413154602051
290.0,948.0,2.0303,1.267,8.6548,0.0304,0.0368,-0.1,-1.7926069698729457,2.633230724313762e-05,2.625249147415161,-1.7781636714935303,8.24720409582369e-05,2.017310619354248,4.8862061379249475,-4.132031972403638e-05,0.2124098837375641,-1.5778663794146937,8.147556945914403e-05,-0.0903574675321579,0.8185867071151733,5.617104894246029e-41,-0.008242878131568432,0.7054440975189209,0.08739888668060303,0.6028895378112793
290.0,948.0,2.0303,1.267,8.6548,0.0304,0.0368,-0.1,-1.7926513157286585,1.5345047454928817e-09,2.693796157836914,-1.7783008813858032,6.969769310671836e-05,2.036404848098755,4.886218446284094,-4.060412902617827e-05,0.2071537971496582,-1.5778339544879358,5.706700108021323e-07,-0.08752210438251495,0.81867516040802,1.401298464324817e-45,-0.007748871110379696,0.7061372995376587,0.07897253334522247,0.5616363883018494
290.0,948.0,2.0303,1.267,8.6548,0.0304,0.0368,-0.1,-1.7926918468871058,6.670036009794577e-19,2.6881954669952393,-1.7782968282699585,5.8392284699948505e-05,2.0399701595306396,4.886174145131864,-3.6488545447355136e-05,0.21311943233013153,-1.5778301397906702,6.771943574478134e-13,-0.11356373876333237,0.8185749053955078,5.1209186494816095e-05,0.009078247472643852,0.7068837285041809,0.07512819766998291,0.5598744750022888
290.0,948.0,2.0303,1.267,8.6548,0.0304,0.0368,-0.1,-1.7926107845702113,2.1610067963576041e-26,2.6482725143432617,-1.7782244682312012,5.168545976630412e-05,2.0742766857147217,4.886194216995992,-3.3751712180674076e-05,0.22073820233345032,-1.5778864065753382,1.2307671619374477e-17,-0.1051485612988472,0.8186752200126648,1.6388456742788549e-06,-0.0043959105387330055,0.7074596285820007,0.07216539233922958,0.5995878577232361
290.0,948.0,2.0303,1.267,8.6548,0.0304,0.0368,-0.1,-1.7926436863341273,7.001386698516589e-34,2.6899659633636475,-1.7782760858535767,4.6360531996469945e-05,2.017533302307129,4.886210235744276,-3.139676118735224e-05,0.22126995027065277,-1.5778663794146937,2.236858641876147e-22,-0.10450242459774017,0.818618655204773,2.978520555196873e-11,-0.008662082254886627,0.708019495010376,0.06960999965667725,0.5722438097000122
290.0,948.0,2.0303,1.267,8.6548,0.0304,0.0368,-0.1,-1.7925950489439906,2.268421954049014e-41,2.6955676078796387,-1.7782244682312012,6.304563430603594e-05,2.05183482170105,4.8862061379249475,-2.9349075703066774e-05,0.21232157945632935,-1.5778215567218226,4.065379652802918e-27,-0.11824758350849152,0.8186473250389099,5.413313979914941e-16,-0.010685171000659466,0.7085632681846619,0.07008357346057892,0.6133774518966675
319.0,943.0,1.0726,-2.0806,9.6299,-0.0967,0.0651,0.0464,-1.7926227054991664,0.0,2.6786794662475586,-1.778220534324646,5.6454515288351104e-05,2.0702147483825684,4.886182296067037,-2.713671165111009e-05,0.2205483317375183,-1.5777977148639124,4.824245713505961e-33,-0.09845905005931854,0.818618655204773,6.42379305349116e-22,-0.005522286519408226,0.7092596292495728,0.0806446447968483,0.6271783709526062
319.0,943.0,1.0726,-2.0806,9.6299,-0.0967,0.0651,0.0464,-1.7925950489439906,0.0,2.6820640563964844,-1.7782762050628662,5.2097311709076166e-05,2.051955223083496,4.886161896377363,-2.559334461693652e-05,0.21928444504737854,-1.5778215567218226,8.767826960907263e-38,-0.11141586303710938,0.8187034726142883,1.1674927233861159e-26,0.009254928678274155,0.7099789977073669,0.09307552874088287,0.6315229535102844
319.0,943.0,1.0726,-2.0806,9.6299,-0.0967,0.0651,0.0464,-1.7926269970335902,0.0,2.6734867095947266,-1.778260588645935,4.8364549002144486e-05,2.037409782409668,4.886206123023786,-2.421608405711595e-05,0.2206467092037201,-1.5778020063983362,1.593276353937317e-42,-0.119869664311409,0.818699300289154,2.1218606374856842e-31,-0.0036812794860452414,0.7107068300247192,0.09661256521940231,0.6712789535522461
319.0,943.0,1.0726,-2.0806,9.6299,-0.0967,0.0651,0.0464,-1.7926517925658167,0.0,2.6725032329559326,-1.7782491445541382,4.513091334956698e-05,2.0838098526000977,4.886182296067037,-2.2979489585850388e-05,0.224111407995224,-1.5778101126300257,0.0,-0.0994747057557106,0.8186469078063965,3.856376961145965e-36,-0.0006613613804802299,0.7115070223808289,0.09623606503009796,0.6413691639900208
319.0,943.0,1.0726,-2.0806,9.6299,-0.0967,0.0651,0.0464,-1.7926351032652796,0.0,2.7034454345703125,-1.7782678604125977,5.553336814045906e-05,2.0599117279052734,4.886190134077825,-2.16006810660474e-05,0.22636261582374573,-1.5778382460223597,0.0,-0.11410164833068848,0.8186349868774414,0.00011718564201146364,-0.004277471918612719,0.712478518486023,0.09130778163671494,0.6238107085227966
319.0,943.0,1.0726,-2.0806,9.6299,-0.0967,0.0651,0.0464,-1.7926393947997035,0.0,2.7107596397399902,-1.7782491445541382,8.284735667984933e-05,2.045628070831299,4.886242526560583,-2.061132363451179e-05,0.22667092084884644,-1.5778701941119593,0.0,-0.1146831139922142,0.8186105489730835,0.0001061412476701662,0.012210346758365631,0.7132466435432434,0.09032045304775238,0.6367992162704468
319.0,943.0,1.0726,-2.0806,9.6299,-0.0967,0.0651,0.0464,-1.7926436863341273,0.0,2.667825698852539,-1.7781561613082886,0.002665631240233779,1.9992852210998535,4.88620205500678,-1.2943933143105824e-06,0.20808559656143188,-1.5778301397906702,0.0,-0.0951731950044632,0.8186912536621094,0.00011621799785643816,0.008386966772377491,0.7140021324157715,0.09782954305410385,0.6689831614494324
319.0,943.0,1.0726,-2.0806,9.6299,-0.0967,0.0651,0.0464,-1.7926393947997035,0.0,2.700192451477051,-1.7782046794891357,0.004421908874064684,2.0345559120178223,4.886193829565801,-2.3524954553821864e-11,0.20555000007152557,-1.5778620878802698,0.0,-0.11014513671398163,0.8186912536621094,0.00012440374121069908,0.0169668011367321,0.7148267030715942,0.11777407675981522,0.677772045135498
319.0,943.0,1.0726,-2.0806,9.6299,-0.0967,0.0651,0.0464,-1.792675634423727,0.0,2.676152229309082,-1.778076410293579,0.008981278166174889,2.075138807296753,4.886193829565801,-2.7916247177811214e-17,0.21355246007442474,-1.5778783003436487,0.0,-0.11062293499708176,0.8186146020889282,0.0001294228422921151,0.0039071692153811455,0.7160657644271851,0.1356121152639389,0.6660691499710083
319.0,943.0,1.0726,-2.0806,9.6299,-0.0967,0.0651,0.0464,-1.7926351032652796,0.0,2.6623775959014893,-1.777936577796936,0.012665451504290104,2.018423080444336,4.886230218201437,-5.073639817503377e-22,0.20883998274803162,-1.57788592973818,0.0,-0.10785450041294098,0.818634569644928,0.00012121850886614993,0.01787114143371582,0.7172995805740356,0.14803007245063782,0.68017578125
452.0,960.0,1.66,0.3511,9.4385,-0.0078,0.0962,0.0371,-1.7926064930357875,-6.28444759058766e-05,2.6600117683410645,-1.7778486013412476,0.015388047322630882,2.077305316925049,4.886174145131864,-9.221089876881671e-27,0.22254154086112976,-1.5778816382037562,0.0,-0.10477174818515778,0.8187033534049988,0.00015961391909513623,0.01226956956088543,0.7185119390487671,0.15196159482002258,0.6496394872665405
452.0,960.0,1.66,0.3511,9.4385,-0.0078,0.0962,0.0371,-1.792715688745016,-0.001718207262456417,2.7224206924438477,-1.7777736186981201,0.016230594366788864,2.051227569580078,4.886190134077825,-1.6758872496396448e-31,0.21484966576099396,-1.5779059568988245,0.0,-0.09520451724529266,0.8186629414558411,0.00013978101196698844,0.014808183535933495,0.7196906208992004,0.15423600375652313,0.7060202360153198
452.0,960.0,1.66,0.3511,9.4385,-0.0078,0.0962,0.0371,-1.7927395306029261,-0.0011592375813052058,2.673482894897461,-1.7775934934616089,0.017073452472686768,2.0641064643859863,4.886157843261518,-1.988717175375923e-37,0.21347635984420776,-1.5779102484332483,-0.00045972029329277575,-0.1103101521730423,0.8186428546905518,0.00012098829756723717,0.007783366367220879,0.7213156223297119,0.16276375949382782,0.7006425261497498
452.0,960.0,1.66,0.3511,9.4385,-0.0078,0.0962,0.0371,-1.7927237949767054,-0.0006675656768493354,2.6854162216186523,-1.7773985862731934,0.021358797326683998,2.0322577953338623,4.886226194887914,-3.613948739493703e-42,0.2121623456478119,-1.5779383818255823,-0.0004087429551873356,-0.11252887547016144,0.8185588717460632,0.00010923931404249743,0.009723220951855183,0.7225685715675354,0.16579043865203857,0.6804293394088745
452.0,960.0,1.66,0.3511,9.4385,-0.0078,0.0962,0.0371,-1.792699476281637,-0.00016250411863438785,2.71462345123291,-1.7772431373596191,0.027865631505846977,2.0324225425720215,4.886202472239294,-0.0,0.20824027061462402,-1.5779102484332483,-0.0003520128666423261,-0.09285396337509155,0.8187068700790405,9.957048314390704e-05,0.0030198656022548676,0.723837673664093,0.15822423994541168,0.6299920082092285
452.0,960.0,1.66,0.3511,9.4385,-0.0078,0.0962,0.0371,-1.7926708660521449,-9.872285590972751e-05,2.689309597015381,-1.7769757509231567,0.03450537100434303,2.0424957275390625,4.886190119176664,-0.0,0.20061933994293213,-1.5778573195086878,-6.972894084356085e-07,-0.10205888003110886,0.818614661693573,9.147295349976048e-05,0.0072000655345618725,0.7251679301261902,0.15462230145931244,0.5846506357192993
452.0,960.0,1.66,0.3511,9.4385,-0.0078,0.0962,0.0371,-1.7927319012083949,-8.964796870714054e-05,2.7401700019836426,-1.7765284776687622,0.04219746217131615,2.101592540740967,4.88622214177207,-0.0,0.2292274832725525,-1.5778940359698694,-8.274490576228033e-13,-0.07766245305538177,0.8186509609222412,8.303349022753537e-05,0.01004161685705185,0.7267196178436279,0.15038728713989258,0.5871906876564026
452.0,960.0,1.66,0.3511,9.4385,-0.0078,0.0962,0.0371,-1.7926951847472132,-7.475449092453346e-05,2.698028564453125,-1.7761327028274536,0.05093729496002197,2.0496883392333984,4.886202040105619,-0.0,0.22115299105644226,-1.5779264608966272,-1.5038477717181515e-17,-0.09073426574468613,0.8185825943946838,7.732616359135136e-05,0.0052527193911373615,0.7278965711593628,0.15094827115535736,0.5534645318984985
452.0,960.0,1.66,0.3511,9.4385,-0.0078,0.0962,0.0371,-1.7926708660521449,-6.410479545593262e-05,2.7175354957580566,-1.77570641040802,0.05696003511548042,2.0839383602142334,4.8862061379249475,-0.0,0.2176443338394165,-1.5779178778277796,-2.7331687764563915e-22,-0.07726313918828964,0.8186268210411072,7.235293742269278e-05,0.0011151171056553721,0.7291412949562073,0.14872051775455475,0.5818480253219604
452.0,960.0,1.66,0.3511,9.4385,-0.0078,0.0962,0.0371,-1.7926789722838343,-2.7207439416088164e-05,2.7582104206085205,-1.7750517129898071,0.06531648337841034,2.066589832305908,4.886197882681646,-0.0,0.21847882866859436,-1.577869717274801,-3.2433563043142483e-28,-0.067815862596035,0.8186109066009521,5.4462929256260395e-05,0.014439674094319344,0.7305383086204529,0.14484679698944092,0.5355402827262878
452.0,960.0,1.66,0.3511,9.4385,-0.0078,0.0962,0.0371,-1.7926870785155238,-2.4272336304420605e-05,2.6953816413879395,-1.774489164352417,0.06981869786977768,2.1817526817321777,4.886210220843115,-0.0,0.22370442748069763,-1.5779102484332483,-5.8946394817632124e-33,-0.0665874257683754,0.8185908198356628,5.056520603829995e-05,0.010629845783114433,0.7317158579826355,0.13261429965496063,0.5439497232437134
863.0,883.0,1.7725,1.3902,9.7436,-0.0283,0.1703,-0.0696,-1.792699476281637,-2.1908883354626596e-05,2.683502197265625,-1.7739182710647583,0.07681886851787567,2.1085751056671143,4.886202472239294,-0.0,0.2206343710422516,-1.577857796345846,-1.0713217108805035e-37,-0.05014200508594513,0.8186752200126648,4.787535726791248e-05,0.0029412079602479935,0.7327512502670288,0.12398608028888702,0.42999371886253357
863.0,883.0,1.7725,1.3902,9.7436,-0.0283,0.1703,-0.0696,-1.792727609673971,-1.9964845705544576e-05,2.7325243949890137,-1.773284912109375,0.08732714504003525,2.1140458583831787,4.886194231897154,-0.0,0.22254639863967896,-1.5779178778277796,-1.946403566947171e-42,-0.06183529645204544,0.8186509609222412,4.545729825622402e-05,-0.003855458227917552,0.7337014079093933,0.12099815905094147,0.4492657780647278
863.0,883.0,1.7725,1.3902,9.7436,-0.0283,0.1703,-0.0696,-1.7927195034422816,-3.594300142140128e-05,2.7075977325439453,-1.772262454032898,0.09672625362873077,2.1420845985412598,4.88617821314887,-0.0,0.22496852278709412,-1.5779383818255823,-0.0,-0.059198055416345596,0.8186591863632202,4.275775791029446e-05,0.008901231922209263,0.7349335551261902,0.11944208294153214,0.4157593250274658
863.0,883.0,1.7725,1.3902,9.7436,-0.0283,0.1703,-0.0696,-1.792699476281637,-3.3284577511949465e-05,2.683664083480835,-1.7715121507644653,0.10357815027236938,2.138777732849121,4.886178242951193,-0.0,0.21672770380973816,-1.577869717274801,-0.0,-0.06533123552799225,0.8186228275299072,4.081855877302587e-05,-0.008537532761693,0.735873281955719,0.12114020437002182,0.4414382576942444
863.0,883.0,1.7725,1.3902,9.7436,-0.0283,0.1703,-0.0696,-1.792699476281637,-3.0992214306024835e-05,2.659390449523926,-1.7706352472305298,0.11404336988925934,2.1297924518585205,4.886141779809751,-0.0,0.20888863503932953,-1.5779832045184534,-0.0,-0.043946340680122375,0.8186309337615967,3.35677668772405e-07,0.0012814891524612904,0.7367567420005798,0.10753633826971054,0.39850813150405884
863.0,883.0,1.7725,1.3902,9.7436,-0.0283,0.1703,-0.0696,-1.7926708660521449,-5.3028521506348625e-05,2.6306252479553223,-1.769736886024475,0.12102808058261871,2.171191692352295,4.886186468392172,-0.0,0.20119141042232513,-1.5779340902911585,-0.0,-0.04227333515882492,0.818666934967041,6.100776567957711e-12,-0.0035300287418067455,0.7376407384872437,0.09302061796188354,0.31902968883514404
863.0,883.0,1.7725,1.3902,9.7436,-0.0283,0.1703,-0.0696,-1.7927428684630335,-0.0014956514351069927,2.622584342956543,-1.7684520483016968,0.13070057332515717,2.173218250274658,4.886165964394369,-0.0,0.21243911981582642,-1.5779178778277796,-0.0,-0.041025299578905106,0.8186268210411072,7.239579846834542e-18,0.005647907964885235,0.7384930849075317,0.08325441926717758,0.2918965518474579
