ramyac6/ROB537/final_project/csv/all/good_231.csv
tof_0,tof_1,accelx,accely,accelz,gyrox,gyroy,gyroz,shoulder_lift_joint_position,shoulder_lift_joint_velocity,shoulder_lift_joint_effort,elbow_joint_position,elbow_joint_velocity,elbow_joint_effort,wrist_1_joint_position,wrist_1_joint_velocity,wrist_1_joint_effort,wrist_2_joint_position,wrist_2_joint_velocity,wrist_2_joint_effort,wrist_3_joint_position,wrist_3_joint_velocity,wrist_3_joint_effort,shoulder_pan_joint_position,shoulder_pan_joint_velocity,shoulder_pan_joint_effort
201.0,219.0,-6.2195,2.2451,7.5595,-0.036,0.0237,-0.1196,-2.3714171848692835,0.0,5.041108131408691,-1.179323434829712,-0.0,1.9679956436157227,5.580786454468527,0.0,0.19220419228076935,-2.0600174109088343,0.0,0.04948759451508522,0.24507363140583038,-0.0,0.002251617144793272,1.1077239513397217,0.0,0.007155939005315304
201.0,219.0,-6.2195,2.2451,7.5595,-0.036,0.0237,-0.1196,-2.3714448414244593,0.0,5.0686187744140625,-1.1793274879455566,-0.0,1.9887795448303223,5.580754446774282,0.0,0.18130891025066376,-2.059988323842184,0.0,0.0517081543803215,0.2450379729270935,-0.0,0.0029069101437926292,1.1077280044555664,0.0,-0.02011530101299286
201.0,219.0,-6.2195,2.2451,7.5595,-0.036,0.0237,-0.1196,-2.3714291057982386,0.0,5.052829265594482,-1.179311990737915,-0.0,1.937280535697937,5.580742227822103,0.0,0.20489893853664398,-2.0599926153766077,0.0,0.048928163945674896,0.2449769228696823,-0.0,0.010734708979725838,1.1077078580856323,0.0,0.03656081110239029
201.0,219.0,-6.2195,2.2451,7.5595,-0.036,0.0237,-0.1196,-2.371392866174215,0.0,5.051116466522217,-1.179223656654358,-0.0,1.9366978406906128,5.580754446774282,0.0,0.19601646065711975,-2.060016934071676,0.0,0.06048319861292839,0.24498482048511505,-0.0,-0.002236965112388134,1.1077358722686768,0.0,0.03335433080792427
201.0,219.0,-6.2195,2.2451,7.5595,-0.036,0.0237,-0.1196,-2.3713933430113734,0.0,5.0372700691223145,-1.1793594360351562,-0.0,1.984832763671875,5.580706524639883,0.0,0.2001141905784607,-2.0599926153766077,0.0,0.06333605945110321,0.24500899016857147,-0.0,0.0037065348587930202,1.1077239513397217,0.0,0.02397424727678299
201.0,219.0,-6.2195,2.2451,7.5595,-0.036,0.0237,-0.1196,-2.371425291100973,0.0,5.038721084594727,-1.1792680025100708,-0.0,1.9630982875823975,5.580766367703237,0.0,0.19336718320846558,-2.0599964300738733,0.0,0.047615595161914825,0.2449769377708435,-0.0,0.004704799968749285,1.1077320575714111,0.0,-0.009368203580379486
201.0,219.0,-6.2195,2.2451,7.5595,-0.036,0.0237,-0.1196,-2.371424814263815,0.0,5.01747989654541,-1.1793437004089355,-0.0,1.9800400733947754,5.580774593144216,0.0,0.2034139335155487,-2.05998403230776,0.0,0.059890296310186386,0.24500082433223724,-0.0,0.006554934661835432,1.1077641248703003,0.0,0.004080669023096561
207.0,222.0,-6.1328,2.2116,7.5703,-0.0276,0.0199,-0.1168,-2.3713847599425257,0.0,5.08436393737793,-1.1792720556259155,-0.0,2.01005220413208,5.580738591938772,0.0,0.18889248371124268,-2.0600770155536097,0.0,0.047623470425605774,0.24507364630699158,-0.0,0.007901770062744617,1.1076915264129639,0.0,-0.002026431728154421
207.0,222.0,-6.1328,2.2116,7.5703,-0.0276,0.0199,-0.1168,-2.3714128933348597,0.0,5.045079231262207,-1.179323434829712,-0.0,1.9586817026138306,5.580806600838461,0.0,0.19511370360851288,-2.0599926153766077,0.0,0.0556056946516037,0.24502155184745789,-0.0,0.0018063172465190291,1.107736349105835,0.0,-0.013577448204159737
207.0,222.0,-6.1328,2.2116,7.5703,-0.0276,0.0199,-0.1168,-2.3713728390135707,0.0,5.012995719909668,-1.1793395280838013,-0.0,1.9961304664611816,5.580790567189016,0.0,0.17849001288414001,-2.06004506746401,0.0,0.06785532087087631,0.2450576275587082,-0.0,0.014389336109161377,1.1076916456222534,0.0,-0.04238513112068176
207.0,222.0,-6.1328,2.2116,7.5703,-0.0276,0.0199,-0.1168,-2.3714128933348597,0.0,5.036465644836426,-1.1793153285980225,-0.0,1.9497370719909668,5.5807503936584375,0.0,0.18200385570526123,-2.0599644819842737,0.0,0.0540042519569397,0.24495692551136017,-0.0,-0.0057887304574251175,1.107768177986145,0.0,0.00584150105714798
207.0,222.0,-6.1328,2.2116,7.5703,-0.0276,0.0199,-0.1168,-2.3714128933348597,0.0,5.069244384765625,-1.1793439388275146,-0.0,1.9633855819702148,5.580778765469351,0.0,0.18714912235736847,-2.060000721608297,0.0,0.0408400222659111,0.24501748383045197,-0.0,0.005392268765717745,1.1077358722686768,0.0,-0.009737316519021988
207.0,222.0,-6.1328,2.2116,7.5703,-0.0276,0.0199,-0.1168,-2.37138094524526,0.0,5.0541605949401855,-1.179323434829712,-0.0,1.980086088180542,5.580754446774282,0.0,0.18619976937770844,-2.060073200856344,0.0,0.059098027646541595,0.24499300122261047,-0.0,-0.008405518718063831,1.1076956987380981,0.0,0.028676513582468033
207.0,222.0,-6.1328,2.2116,7.5703,-0.0276,0.0199,-0.1168,-2.3714052639403285,0.0,5.008008003234863,-1.179311990737915,-0.0,1.9223158359527588,5.580718445568838,0.0,0.1932014673948288,-2.0600455443011683,0.0,0.06770462542772293,0.24502988159656525,-0.0,-0.01272505335509777,1.1077160835266113,0.0,0.03680005297064781
207.0,222.0,-6.1328,2.2116,7.5703,-0.0276,0.0199,-0.1168,-2.37138094524526,0.0,5.074612140655518,-1.1793559789657593,-0.0,1.971892237663269,5.580786454468527,0.0,0.20192228257656097,-2.0600207487689417,0.0,0.056569356471300125,0.245025634765625,-0.0,0.002576941391453147,1.1076916456222534,0.0,-0.03441796451807022
207.0,222.0,-6.1328,2.2116,7.5703,-0.0276,0.0199,-0.1168,-2.371408601800436,0.0,5.077548027038574,-1.179328203201294,-0.0,1.9608454704284668,5.580738115101614,0.0,0.18017297983169556,-2.0599964300738733,0.0,0.05986446887254715,0.24502988159656525,-0.0,0.007476828061044216,1.1077362298965454,0.0,0.007102488074451685
207.0,222.0,-6.1328,2.2116,7.5703,-0.0276,0.0199,-0.1168,-2.3714047871031703,0.0,5.031056880950928,-1.17936372756958,-0.0,1.9631153345108032,5.580722558289327,0.0,0.19566784799098969,-2.059988323842184,0.0,0.06236123666167259,0.24502155184745789,-0.0,-0.005150155629962683,1.1076797246932983,0.0,0.05037803575396538
207.0,222.0,-6.1328,2.2116,7.5703,-0.0276,0.0199,-0.1168,-2.3714047871031703,0.0,5.048534870147705,-1.1792556047439575,-0.0,1.9423482418060303,5.580758559494772,0.0,0.193549245595932,-2.0599926153766077,0.0,0.07462506741285324,0.2450375258922577,-0.0,-0.005067889578640461,1.1077120304107666,0.0,0.002845015376806259
207.0,222.0,-6.1328,2.2116,7.5703,-0.0276,0.0199,-0.1168,-2.3713847599425257,0.0,5.035945892333984,-1.1793193817138672,-0.0,1.9611876010894775,5.580782818585195,0.0,0.19804994761943817,-2.060016934071676,0.0,0.06250927597284317,0.2450380027294159,-0.0,0.013474058359861374,1.1077558994293213,0.0,0.045384932309389114
202.0,216.0,-6.1693,2.1924,7.7121,-0.0334,0.0237,-0.1159,-2.371396680871481,0.0,5.051438331604004,-1.17933988571167,-0.0,1.9735777378082275,5.580738115101614,0.0,0.1801753044128418,-2.060032669697897,0.0,0.059768859297037125,0.24501338601112366,-0.0,0.01752110943198204,1.1077641248703003,0.0,0.011468956246972084
202.0,216.0,-6.1693,2.1924,7.7121,-0.0334,0.0237,-0.1159,-2.371392866174215,0.0,5.05565071105957,-1.1793513298034668,-0.0,1.9113398790359497,5.580762731819906,0.0,0.20863832533359528,-2.0599964300738733,0.0,0.05380255728960037,0.24504166841506958,-0.0,-0.011981175281107426,1.1076997518539429,0.0,0.017656857147812843
202.0,216.0,-6.1693,2.1924,7.7121,-0.0334,0.0237,-0.1159,-2.3714004955687464,0.0,5.062548637390137,-1.1793315410614014,-0.0,1.9729433059692383,5.5807299492652795,0.0,0.18517076969146729,-2.0600207487689417,0.0,0.06057284399867058,0.24503757059574127,-0.0,-0.0018616397865116596,1.1077239513397217,0.0,0.0003879331052303314
202.0,216.0,-6.1693,2.1924,7.7121,-0.0334,0.0237,-0.1159,-2.3714128933348597,0.0,5.038023948669434,-1.179379940032959,-0.0,1.962631106376648,5.580770480423727,0.0,0.18950995802879333,-2.0600531736956995,0.0,0.055127665400505066,0.24512194097042084,-0.0,0.007402688264846802,1.1077439785003662,0.0,0.00228287186473608
202.0,216.0,-6.1693,2.1924,7.7121,-0.0334,0.0237,-0.1159,-2.3713933430113734,0.0,5.101959228515625,-1.1793559789657593,-0.0,1.9557058811187744,5.580778705864706,0.0,0.18975652754306793,-2.06004506746401,0.0,0.04769878834486008,0.24497292935848236,-0.0,0.007577106822282076,1.1077280044555664,0.0,0.025972537696361542
202.0,216.0,-6.1693,2.1924,7.7121,-0.0334,0.0237,-0.1159,-2.3714009724059046,0.0,5.0313639640808105,-1.1793594360351562,-0.0,1.958256483078003,5.5807745335395715,0.0,0.17846640944480896,-2.060061279927389,0.0,0.0532865934073925,0.24502155184745789,-0.0,0.01681932434439659,1.1077120304107666,0.0,0.022287551313638687
202.0,216.0,-6.1693,2.1924,7.7121,-0.0334,0.0237,-0.1159,-2.3713566265501917,0.0,5.039436340332031,-1.1793395280838013,-0.0,1.9588825702667236,5.580714392452993,0.0,0.17647784948349,-2.0600412527667444,0.0,0.06215699762105942,0.2450416386127472,-0.0,0.015478316694498062,1.107748031616211,0.0,0.030416281893849373
202.0,216.0,-6.1693,2.1924,7.7121,-0.0334,0.0237,-0.1159,-2.3714171848692835,0.0,5.06165885925293,-1.1793560981750488,-0.0,2.00662899017334,5.580758559494772,0.0,0.1832188218832016,-2.0600412527667444,0.0,0.05439210683107376,0.24502988159656525,-0.0,0.011527061462402344,1.107719898223877,0.0,0.02018117904663086
202.0,216.0,-6.1693,2.1924,7.7121,-0.0334,0.0237,-0.1159,-2.371364732781881,0.0,5.0354180335998535,-1.1793080568313599,-0.0,1.9530980587005615,5.5807668445403955,0.0,0.19709232449531555,-2.0600412527667444,0.0,0.056378789246082306,0.24500899016857147,-0.0,0.009418263100087643,1.1077280044555664,0.0,0.014762087725102901
202.0,216.0,-6.1693,2.1924,7.7121,-0.0334,0.0237,-0.1159,-2.3714291057982386,0.0,5.067733287811279,-1.1792720556259155,-0.0,1.9726409912109375,5.580770480423727,0.0,0.192832350730896,-2.0600250403033655,0.0,0.043044816702604294,0.24499677121639252,-0.0,0.007444199174642563,1.1077558994293213,0.0,0.024833919480443
202.0,216.0,-6.1693,2.1924,7.7121,-0.0334,0.0237,-0.1159,-2.3713566265501917,0.0,5.069478988647461,-1.1793040037155151,-0.0,1.9872404336929321,5.580774593144216,0.0,0.19802871346473694,-2.0600250403033655,0.0,0.05247597023844719,0.24501731991767883,-0.0,0.00319646461866796,1.1077280044555664,0.0,0.015902364626526833
202.0,216.0,-6.1693,2.1924,7.7121,-0.0334,0.0237,-0.1159,-2.3713890514769496,0.0,5.043254852294922,-1.1792757511138916,-0.0,1.939366340637207,5.580778765469351,0.0,0.19251105189323425,-2.060033146535055,0.0,0.06914886087179184,0.24497699737548828,-0.0,0.0004458199255168438,1.1076716184616089,0.0,0.023835327476263046
202.0,216.0,-6.1693,2.1924,7.7121,-0.0334,0.0237,-0.1159,-2.371392866174215,0.0,5.092325687408447,-1.1792922019958496,-0.0,1.9724628925323486,5.580778348236837,0.0,0.19623053073883057,-2.0600207487689417,0.0,0.0569886788725853,0.24507366120815277,-0.0,0.006729157641530037,1.1077243089675903,0.0,-0.014250239357352257
204.0,218.0,-6.2004,2.1685,7.7031,-0.0379,0.0252,-0.1217,-2.3714052639403285,0.0,5.0820393562316895,-1.1793479919433594,-0.0,1.9429905414581299,5.580770480423727,0.0,0.1869800090789795,-2.0600293318377894,0.0,0.052677229046821594,0.24498124420642853,-0.0,-0.0006692279130220413,1.1077280044555664,0.0,0.030003409832715988
204.0,218.0,-6.2004,2.1685,7.7031,-0.0379,0.0252,-0.1217,-2.3714009724059046,0.0,5.047300338745117,-1.1793559789657593,-0.0,1.9468395709991455,5.580714332848348,0.0,0.19783726334571838,-2.060032669697897,0.0,0.05489334091544151,0.24506548047065735,-0.0,0.011359091848134995,1.1077399253845215,0.0,0.020881731063127518
204.0,218.0,-6.2004,2.1685,7.7031,-0.0379,0.0252,-0.1217,-2.3714128933348597,0.0,5.0700578689575195,-1.1793274879455566,-0.0,1.9632885456085205,5.5807464001472376,0.0,0.19201302528381348,-2.0600250403033655,0.0,0.046535760164260864,0.24498935043811798,-0.0,0.01600484363734722,1.1077723503112793,0.0,0.00017142156139016151
204.0,218.0,-6.2004,2.1685,7.7031,-0.0379,0.0252,-0.1217,-2.3713847599425257,0.0,5.045530319213867,-1.1793038845062256,-0.0,1.947638750076294,5.580754446774282,0.0,0.18342316150665283,-2.060005013142721,0.0,0.05231858789920807,0.24504169821739197,-0.0,0.009590264409780502,1.1076956987380981,0.0,0.019595026969909668
204.0,218.0,-6.2004,2.1685,7.7031,-0.0379,0.0252,-0.1217,-2.3713890514769496,0.0,5.0863542556762695,-1.1793079376220703,-0.0,1.9878917932510376,5.580770480423727,0.0,0.19233067333698273,-2.0599926153766077,0.0,0.0596696175634861,0.24505001306533813,-0.0,0.007527332752943039,1.1077358722686768,0.0,0.027424270287156105
204.0,218.0,-6.2004,2.1685,7.7031,-0.0379,0.0252,-0.1217,-2.3714291057982386,0.0,5.047797203063965,-1.1793283224105835,-0.0,1.9535269737243652,5.580774593144216,0.0,0.189610555768013,-2.0600412527667444,0.0,0.057925060391426086,0.24504992365837097,-0.0,0.0013130927691236138,1.1077362298965454,0.0,0.0037250248715281487
204.0,218.0,-6.2004,2.1685,7.7031,-0.0379,0.0252,-0.1217,-2.3713885746397914,0.0,5.041163444519043,-1.1792840957641602,-0.0,1.9559130668640137,5.580750512867727,0.0,0.1754557341337204,-2.0600412527667444,0.0,0.05375584959983826,0.2449769675731659,-0.0,-0.0015118289738893509,1.1077239513397217,0.0,0.0092414366081357
204.0,218.0,-6.2004,2.1685,7.7031,-0.0379,0.0252,-0.1217,-2.371364732781881,0.0,5.031264781951904,-1.179315447807312,-0.0,1.9604995250701904,5.580786454468527,0.0,0.19974558055400848,-2.0600126425372522,0.0,0.05546031892299652,0.2449929565191269,-0.0,0.00336804473772645,1.1077320575714111,0.0,-0.006825111340731382
204.0,218.0,-6.2004,2.1685,7.7031,-0.0379,0.0252,-0.1217,-2.371449132958883,0.0,5.0879645347595215,-1.179280161857605,-0.0,1.94223952293396,5.5807381747062585,0.0,0.1755037009716034,-2.0599964300738733,0.0,0.06490583717823029,0.24501335620880127,-0.0,0.0012377696111798286,1.1077039241790771,0.0,-0.04259442538022995
204.0,218.0,-6.2004,2.1685,7.7031,-0.0379,0.0252,-0.1217,-2.3713847599425257,0.0,5.032521724700928,-1.1792556047439575,-0.0,1.9485456943511963,5.580758559494772,0.0,0.17778190970420837,-2.0599926153766077,0.0,0.06267277896404266,0.24507786333560944,-0.0,-0.0032376672606915236,1.1077239513397217,0.0,0.004939912352710962
204.0,218.0,-6.2004,2.1685,7.7031,-0.0379,0.0252,-0.1217,-2.3714128933348597,0.0,5.066415309906006,-1.1792759895324707,-0.0,1.9654526710510254,5.580758559494772,0.0,0.185519278049469,-2.060028855000631,0.0,0.05221514031291008,0.24505355954170227,-0.0,0.012733997777104378,1.1077404022216797,0.0,0.0054654888808727264
204.0,218.0,-6.2004,2.1685,7.7031,-0.0379,0.0252,-0.1217,-2.3714410267271937,0.0,5.027797222137451,-1.17933988571167,-0.0,1.908635139465332,5.5807503936584375,0.0,0.19804854691028595,-2.05998403230776,0.0,0.05692574381828308,0.24504587054252625,-0.0,-0.009166381321847439,1.1077399253845215,0.0,0.04585137218236923
204.0,218.0,-6.2004,2.1685,7.7031,-0.0379,0.0252,-0.1217,-2.371396680871481,0.0,5.067543029785156,-1.1793004274368286,-0.0,1.9757275581359863,5.580746340542593,0.0,0.19019123911857605,-2.0600531736956995,0.0,0.06346685439348221,0.2450416386127472,-0.0,0.019503111019730568,1.107719898223877,0.0,0.05992719531059265
202.0,217.0,-6.1268,2.1511,7.6463,-0.0334,0.0154,-0.115,-2.3714291057982386,0.0,5.042195796966553,-1.1793079376220703,-0.0,1.9559876918792725,5.58079473951415,0.0,0.19915622472763062,-2.0600250403033655,0.0,0.059927839785814285,0.24499723315238953,-0.0,0.0052447132766246796,1.1077522039413452,0.0,0.02545526809990406
202.0,217.0,-6.1268,2.1511,7.6463,-0.0334,0.0154,-0.115,-2.37143673519277,0.0,5.081281661987305,-1.1792595386505127,-0.0,1.9518842697143555,5.58077089765624,0.0,0.18705599009990692,-2.060028855000631,0.0,0.0506184846162796,0.2450576275587082,-0.0,0.004148856271058321,1.107719898223877,0.0,-0.005266471765935421
202.0,217.0,-6.1268,2.1511,7.6463,-0.0334,0.0154,-0.115,-2.371420999566549,0.0,5.037667274475098,-1.1793040037155151,-0.0,2.0072391033172607,5.580770480423727,0.0,0.17605996131896973,-2.060005013142721,0.0,0.061587363481521606,0.24501323699951172,-0.0,0.011009285226464272,1.1077280044555664,0.0,-0.008830920793116093
202.0,217.0,-6.1268,2.1511,7.6463,-0.0334,0.0154,-0.115,-2.3714448414244593,0.0,5.0212931632995605,-1.1793439388275146,-0.0,1.986487627029419,5.5807745335395715,0.0,0.20106540620326996,-2.0600207487689417,0.0,0.053528934717178345,0.24504995346069336,-0.0,0.00339534436352551,1.107748031616211,0.0,-0.003749729134142399
202.0,217.0,-6.1268,2.1511,7.6463,-0.0334,0.0154,-0.115,-2.37143673519277,0.0,5.125491142272949,-1.1793193817138672,-0.0,1.9489725828170776,5.580766427307882,0.0,0.1972762495279312,-2.0600088278399866,0.0,0.0626990869641304,0.24504539370536804,-0.0,0.008574976585805416,1.1076956987380981,0.0,-0.001739252358675003
202.0,217.0,-6.1268,2.1511,7.6463,-0.0334,0.0154,-0.115,-2.371408601800436,0.0,5.058233261108398,-1.1793798208236694,-0.0,1.964858055114746,5.580758559494772,0.0,0.18305689096450806,-2.0599964300738733,0.0,0.05549342930316925,0.24507786333560944,-0.0,0.011485722847282887,1.1076956987380981,0.0,0.03608641400933266
202.0,217.0,-6.1268,2.1511,7.6463,-0.0334,0.0154,-0.115,-2.371408601800436,0.0,5.075314521789551,-1.1793553829193115,-0.0,1.9738246202468872,5.580782818585195,0.0,0.1949116587638855,-2.06004506746401,0.0,0.060791488736867905,0.24501748383045197,-0.0,-0.0008250204846262932,1.1077399253845215,0.0,-0.04294269159436226
202.0,217.0,-6.1268,2.1511,7.6463,-0.0334,0.0154,-0.115,-2.3713728390135707,0.0,5.0876545906066895,-1.1793757677078247,-0.0,1.968691349029541,5.5807984350021265,0.0,0.1883043646812439,-2.0600088278399866,0.0,0.060960330069065094,0.24504999816417694,-0.0,0.00632600300014019,1.1077160835266113,0.0,-0.01547824963927269
202.0,217.0,-6.1268,2.1511,7.6463,-0.0334,0.0154,-0.115,-2.3714410267271937,0.0,5.012857913970947,-1.1793601512908936,-0.0,1.9904836416244507,5.580754506378927,0.0,0.1827891767024994,-2.0600412527667444,0.0,0.0658893957734108,0.24502989649772644,-0.0,0.016969604417681694,1.1077120304107666,0.0,-0.01557278074324131
202.0,217.0,-6.1268,2.1511,7.6463,-0.0334,0.0154,-0.115,-2.3714572391905726,0.0,5.053216934204102,-1.1792720556259155,-0.0,1.9076008796691895,5.580758559494772,0.0,0.18697749078273773,-2.060005013142721,0.0,0.04447944089770317,0.24498885869979858,-0.0,0.0014784904196858406,1.1077481508255005,0.0,-0.018354296684265137
202.0,217.0,-6.1268,2.1511,7.6463,-0.0334,0.0154,-0.115,-2.3714009724059046,0.0,5.02236270904541,-1.1792595386505127,-0.0,2.0039093494415283,5.5807503936584375,0.0,0.19166243076324463,-2.060049358998434,0.0,0.05639621615409851,0.24506953358650208,-0.0,0.006649977061897516,1.1077762842178345,0.0,-0.02399897202849388
202.0,217.0,-6.1268,2.1511,7.6463,-0.0334,0.0154,-0.115,-2.3714009724059046,0.0,5.071207523345947,-1.1792556047439575,-0.0,1.946309208869934,5.5807745335395715,0.0,0.19198980927467346,-2.0599644819842737,0.0,0.06263366341590881,0.24505764245986938,-0.0,0.004431841894984245,1.1077440977096558,0.0,0.03681756556034088
213.0,217.0,-6.1908,2.2044,7.587,-0.0322,0.0301,-0.113,-2.3713885746397914,0.0,5.035398483276367,-1.1793601512908936,-0.0,2.0163028240203857,5.580718445568838,0.0,0.2060677707195282,-2.0600250403033655,0.0,0.056828904896974564,0.24505355954170227,-0.0,0.0006027156487107277,1.107711911201477,0.0,0.03032432124018669
213.0,217.0,-6.1908,2.2044,7.587,-0.0322,0.0301,-0.113,-2.371424814263815,0.0,5.078779697418213,-1.1792720556259155,-0.0,1.9338343143463135,5.580782818585195,0.0,0.18890053033828735,-2.0600369612323206,0.0,0.057632070034742355,0.245025634765625,-0.0,-0.006068320944905281,1.1077723503112793,0.0,-0.004568964242935181
213.0,217.0,-6.1908,2.2044,7.587,-0.0322,0.0301,-0.113,-2.3713890514769496,0.0,5.0296478271484375,-1.1793513298034668,-0.0,1.9324125051498413,5.580754506378927,0.0,0.20461486279964447,-2.0600250403033655,0.0,0.05289461463689804,0.24508991837501526,-0.0,0.012823347002267838,1.1077481508255005,0.0,-0.006622007116675377
213.0,217.0,-6.1908,2.2044,7.587,-0.0322,0.0301,-0.113,-2.3714291057982386,0.0,5.092642307281494,-1.1792720556259155,-0.0,1.912246823310852,5.58078687170104,0.0,0.19119545817375183,-2.0600250403033655,0.0,0.05647191032767296,0.24500899016857147,-0.0,-0.0006454488029703498,1.1077804565429688,0.0,0.03977252542972565
213.0,217.0,-6.1908,2.2044,7.587,-0.0322,0.0301,-0.113,-2.3714128933348597,0.0,5.069789409637451,-1.1793315410614014,-0.0,1.9566131830215454,5.580746340542593,0.0,0.18767394125461578,-2.0600293318377894,0.0,0.04729674383997917,0.24500492215156555,-0.0,0.0015375867951661348,1.1076592206954956,0.0,0.0002857428044080734
213.0,217.0,-6.1908,2.2044,7.587,-0.0322,0.0301,-0.113,-2.371408601800436,0.0,5.0821533203125,-1.179323673248291,-0.0,1.9343650341033936,5.5807344792182825,0.0,0.17733579874038696,-2.0600207487689417,0.0,0.04092656075954437,0.24501323699951172,-0.0,0.0176998358219862,1.1077280044555664,0.0,0.036678045988082886
213.0,217.0,-6.1908,2.2044,7.587,-0.0322,0.0301,-0.113,-2.3713890514769496,0.0,5.074764251708984,-1.1793513298034668,-0.0,1.9202724695205688,5.580766784935751,0.0,0.1816103756427765,-2.0600174109088343,0.0,0.06306953728199005,0.24499677121639252,-0.0,0.002977604977786541,1.1077039241790771,0.0,-0.003121341113001108
213.0,217.0,-6.1908,2.2044,7.587,-0.0322,0.0301,-0.113,-2.371409078637594,0.0,5.063591003417969,-1.1793195009231567,-0.0,1.9581127166748047,5.580758559494772,0.0,0.1942533254623413,-2.0600250403033655,0.0,0.051803506910800934,0.24501323699951172,-0.0,-0.003136616200208664,1.1077038049697876,0.0,-0.016312869265675545
213.0,217.0,-6.1908,2.2044,7.587,-0.0322,0.0301,-0.113,-2.371364255944723,0.0,5.044955730438232,-1.1792999505996704,-0.0,1.94959557056427,5.580770480423727,0.0,0.1896345168352127,-2.0600207487689417,0.0,0.06395353376865387,0.24503755569458008,-0.0,-0.0046856096014380455,1.1077523231506348,0.0,-0.016279736533761024
213.0,217.0,-6.1908,2.2044,7.587,-0.0322,0.0301,-0.113,-2.371449132958883,0.0,5.05814790725708,-1.1792840957641602,-0.0,1.9618406295776367,5.5807344792182825,0.0,0.18879006803035736,-2.0600412527667444,0.0,0.05635150894522667,0.2450942099094391,-0.0,0.014615099877119064,1.1076955795288086,0.0,0.0035854740999639034
213.0,217.0,-6.1908,2.2044,7.587,-0.0322,0.0301,-0.113,-2.371364732781881,0.0,5.065634727478027,-1.1792676448822021,-0.0,1.9385926723480225,5.580754506378927,0.0,0.1897473782300949,-2.0600207487689417,0.0,0.05323188006877899,0.24500131607055664,-0.0,0.01663193106651306,1.1077239513397217,0.0,-0.00942892488092184
213.0,217.0,-6.1908,2.2044,7.587,-0.0322,0.0301,-0.113,-2.3713847599425257,0.0,5.064809799194336,-1.179271936416626,-0.0,1.9840222597122192,5.580754506378927,0.0,0.1887156069278717,-2.0599926153766077,0.0,0.04846680536866188,0.24497286975383759,-0.0,0.018335886299610138,1.1076796054840088,0.0,0.01368044875562191
213.0,217.0,-6.1908,2.2044,7.587,-0.0322,0.0301,-0.113,-2.371408601800436,0.0,5.02561092376709,-1.1793758869171143,-0.0,1.9160531759262085,5.580742227822103,0.0,0.17722797393798828,-2.060016934071676,0.0,0.05064917355775833,0.24500492215156555,-0.0,0.005355764180421829,1.107719898223877,0.0,0.020032573491334915
201.0,218.0,-6.149,2.1655,7.7139,-0.0331,0.0257,-0.1113,-2.3714052639403285,0.0,5.059256076812744,-1.1793193817138672,-0.0,1.969069004058838,5.58078687170104,0.0,0.20053213834762573,-2.0600088278399866,0.0,0.054189905524253845,0.24505411088466644,-0.0,0.012372912839055061,1.1077481508255005,0.0,0.005594414658844471
201.0,218.0,-6.149,2.1655,7.7139,-0.0331,0.0257,-0.1113,-2.37135710338735,0.0,5.065583229064941,-1.1792595386505127,-0.0,1.937773585319519,5.580754506378927,0.0,0.19252511858940125,-2.0599964300738733,0.0,0.059862881898880005,0.24500484764575958,-0.0,0.003555250819772482,1.1077079772949219,0.0,0.015912750735878944
201.0,218.0,-6.149,2.1655,7.7139,-0.0331,0.0257,-0.1113,-2.3714171848692835,0.0,5.048402786254883,-1.1793038845062256,-0.0,1.9624395370483398,5.5807344792182825,0.0,0.19797170162200928,-2.0600207487689417,0.0,0.039724819362163544,0.24500896036624908,-0.0,0.0012983520282432437,1.1077280044555664,0.0,-0.044366464018821716
201.0,218.0,-6.149,2.1655,7.7139,-0.0331,0.0257,-0.1113,-2.3714128933348597,0.0,5.123898029327393,-1.1793153285980225,-0.0,1.9240705966949463,5.580782401352682,0.0,0.20575356483459473,-2.0600250403033655,0.0,0.052285268902778625,0.24500490725040436,-0.0,0.0078676026314497,1.1077320575714111,0.0,0.000725883524864912
201.0,218.0,-6.149,2.1655,7.7139,-0.0331,0.0257,-0.1113,-2.3714128933348597,0.0,5.0392303466796875,-1.1793161630630493,-0.0,1.953608751296997,5.5807262537773035,0.0,0.19354145228862762,-2.06006890932192,0.0,0.05717415362596512,0.24500079452991486,-0.0,0.007163030095398426,1.1077120304107666,0.0,-0.0035681677982211113
201.0,218.0,-6.149,2.1655,7.7139,-0.0331,0.0257,-0.1113,-2.3713280163206996,0.0,5.049091339111328,-1.1793160438537598,-0.0,1.9513585567474365,5.5807344792182825,0.0,0.1976945996284485,-2.0600207487689417,0.0,0.05414405092597008,0.24504587054252625,-0.0,0.01072213426232338,1.1077197790145874,0.0,0.033298980444669724
201.0,218.0,-6.149,2.1655,7.7139,-0.0331,0.0257,-0.1113,-2.371392866174215,0.0,5.0583343505859375,-1.1792757511138916,-0.0,1.9392422437667847,5.580730366497793,0.0,0.19915075600147247,-2.0600531736956995,0.0,0.056426726281642914,0.24503758549690247,-0.0,0.00896824523806572,1.1076916456222534,0.0,-0.024642042815685272
201.0,218.0,-6.149,2.1655,7.7139,-0.0331,0.0257,-0.1113,-2.3714291057982386,0.0,5.034390449523926,-1.1792635917663574,-0.0,1.9315788745880127,5.580706167012014,0.0,0.19945913553237915,-2.0600412527667444,0.0,0.055043961852788925,0.24506954848766327,-0.0,0.00021091406233608723,1.1077320575714111,0.0,-0.01863456331193447
201.0,218.0,-6.149,2.1655,7.7139,-0.0331,0.0257,-0.1113,-2.371396680871481,0.0,5.040951728820801,-1.1793358325958252,-0.0,1.9157636165618896,5.580742227822103,0.0,0.1971435695886612,-2.060056988392965,0.0,0.05899830907583237,0.24502988159656525,-0.0,0.011170842684805393,1.1077399253845215,0.0,0.026589976623654366
201.0,218.0,-6.149,2.1655,7.7139,-0.0331,0.0257,-0.1113,-2.371420999566549,0.0,5.065341949462891,-1.1793153285980225,-0.0,1.958425760269165,5.580774593144216,0.0,0.18203401565551758,-2.0600250403033655,0.0,0.05936514586210251,0.24508194625377655,-0.0,-0.002501889131963253,1.1077518463134766,0.0,-0.010049065575003624
201.0,218.0,-6.149,2.1655,7.7139,-0.0331,0.0257,-0.1113,-2.371437212029928,0.0,5.058140754699707,-1.1792922019958496,-0.0,1.978275179862976,5.580827104836263,0.0,0.20394673943519592,-2.0600293318377894,0.0,0.046021513640880585,0.24502155184745789,-0.0,0.009210818447172642,1.107683777809143,0.0,0.0014910278841853142
201.0,218.0,-6.149,2.1655,7.7139,-0.0331,0.0257,-0.1113,-2.3714615307249964,0.0,5.044438362121582,-1.1793274879455566,-0.0,1.9579131603240967,5.580738115101614,0.0,0.18003961443901062,-2.060049358998434,0.0,0.046357542276382446,0.24502155184745789,-0.0,0.0031841807067394257,1.1076956987380981,0.0,0.012949878349900246
201.0,218.0,-6.149,2.1655,7.7139,-0.0331,0.0257,-0.1113,-2.3714171848692835,0.0,5.064113616943359,-1.1793395280838013,-0.0,2.0072803497314453,5.5807381747062585,0.0,0.19909580051898956,-2.0600293318377894,0.0,0.041092269122600555,0.2450576275587082,-0.0,0.005022985395044088,1.1077845096588135,0.0,0.029719922691583633
203.0,213.0,-6.1406,2.2134,7.5488,-0.0304,0.0229,-0.118,-2.3714171848692835,0.0,5.003823280334473,-1.1793757677078247,-0.0,1.9637835025787354,5.580730366497793,0.0,0.20113448798656464,-2.0600293318377894,0.0,0.05857260897755623,0.24503397941589355,-0.0,-0.00354463467374444,1.1077280044555664,0.0,-0.002739119343459606
203.0,213.0,-6.1406,2.2134,7.5488,-0.0304,0.0229,-0.118,-2.37138094524526,0.0,5.0716753005981445,-1.1792598962783813,-0.0,1.967561960220337,5.5807827589805505,0.0,0.17641720175743103,-2.059948269520895,0.0,0.05795127898454666,0.24501727521419525,-0.0,0.006933510769158602,1.1077439785003662,0.0,0.035485900938510895
203.0,213.0,-6.1406,2.2134,7.5488,-0.0304,0.0229,-0.118,-2.3714128933348597,0.0,5.05626106262207,-1.1792800426483154,-0.0,1.9600231647491455,5.580726194172659,0.0,0.18479551374912262,-2.0600250403033655,0.0,0.04841885343194008,0.245106041431427,-0.0,0.0015285471454262733,1.1077402830123901,0.0,0.022993505001068115
203.0,213.0,-6.1406,2.2134,7.5488,-0.0304,0.0229,-0.118,-2.371437212029928,0.0,5.038811683654785,-1.1793235540390015,-0.0,1.9560683965682983,5.580722141056814,0.0,0.1895308941602707,-2.06004506746401,0.0,0.034739017486572266,0.245025634765625,-0.0,0.0041676913388073444,1.1076997518539429,0.0,-0.03641405701637268
203.0,213.0,-6.1406,2.2134,7.5488,-0.0304,0.0229,-0.118,-2.371340414086813,0.0,5.041587829589844,-1.1793274879455566,-0.0,1.9673383235931396,5.580754446774282,0.0,0.19773969054222107,-2.0600855986224573,0.0,0.05184095352888107,0.24509002268314362,-0.0,-0.00011674361303448677,1.1077439785003662,0.0,-0.0023526502773165703
203.0,213.0,-6.1406,2.2134,7.5488,-0.0304,0.0229,-0.118,-2.3714047871031703,0.0,5.001102924346924,-1.1792759895324707,-0.0,1.9572465419769287,5.580722141056814,0.0,0.18130871653556824,-2.0599563757525843,0.0,0.05353447049856186,0.24501731991767883,-0.0,0.0026514409109950066,1.1077239513397217,0.0,-0.024442218244075775
203.0,213.0,-6.1406,2.2134,7.5488,-0.0304,0.0229,-0.118,-2.3714410267271937,0.0,5.022998809814453,-1.1792761087417603,-0.0,1.9204375743865967,5.580778765469351,0.0,0.1937902420759201,-2.0600088278399866,0.0,0.05048181861639023,0.24502567946910858,-0.0,0.01741187646985054,1.1077280044555664,0.0,-0.009347449988126755
203.0,213.0,-6.1406,2.2134,7.5488,-0.0304,0.0229,-0.118,-2.371409078637594,0.0,5.0606489181518555,-1.179323434829712,-0.0,1.995798110961914,5.580738532334127,0.0,0.19162976741790771,-2.0600207487689417,0.0,0.05303823575377464,0.24503348767757416,-0.0,0.000737255671992898,1.1077439785003662,0.0,0.04781539738178253
203.0,213.0,-6.1406,2.2134,7.5488,-0.0304,0.0229,-0.118,-2.3714128933348597,0.0,5.031778335571289,-1.1793718338012695,-0.0,1.955514669418335,5.580806600838461,0.0,0.17868423461914062,-2.0600813070880335,0.0,0.053762272000312805,0.2450089454650879,-0.0,0.019770225510001183,1.1077039241790771,0.0,-0.004999892320483923
203.0,213.0,-6.1406,2.2134,7.5488,-0.0304,0.0229,-0.118,-2.3714128933348597,0.0,5.065424919128418,-1.179263949394226,-0.0,2.0131988525390625,5.580722141056814,0.0,0.18226297199726105,-2.060056988392965,0.0,0.04792321100831032,0.24500899016857147,-0.0,-0.0005315318703651428,1.1077682971954346,0.0,-0.01981116458773613
203.0,213.0,-6.1406,2.2134,7.5488,-0.0304,0.0229,-0.118,-2.371420522729391,0.0,5.082282066345215,-1.1793396472930908,-0.0,1.9483113288879395,5.580718445568838,0.0,0.18694885075092316,-2.0600531736956995,0.0,0.04032358527183533,0.24501343071460724,-0.0,0.006184367462992668,1.1077320575714111,0.0,-0.02111184224486351
203.0,213.0,-6.1406,2.2134,7.5488,-0.0304,0.0229,-0.118,-2.37143673519277,0.0,5.060965538024902,-1.1793359518051147,-0.0,1.9731780290603638,5.58079473951415,0.0,0.18395298719406128,-2.060032669697897,0.0,0.05449283868074417,0.24504536390304565,-0.0,0.004979221150279045,1.1077518463134766,0.0,0.033544301986694336
207.0,214.0,-6.1801,2.1511,7.6845,-0.0345,0.0221,-0.1196,-2.3714291057982386,0.0,5.044149398803711,-1.1793079376220703,-0.0,1.9644570350646973,5.58077089765624,0.0,0.1902799904346466,-2.0600813070880335,0.0,0.05386698991060257,0.2450576275587082,-0.0,0.007746805902570486,1.1077439785003662,0.0,0.002776618115603924
207.0,214.0,-6.1801,2.1511,7.6845,-0.0345,0.0221,-0.1196,-2.3714047871031703,0.0,5.03219747543335,-1.179315447807312,-0.0,2.006314754486084,5.580758559494772,0.0,0.18423181772232056,-2.0599926153766077,0.0,0.06031331419944763,0.24503755569458008,-0.0,-0.01130889356136322,1.1077039241790771,0.0,0.015464860945940018
207.0,214.0,-6.1801,2.1511,7.6845,-0.0345,0.0221,-0.1196,-2.3714448414244593,0.0,5.034055709838867,-1.17936372756958,-0.0,1.9500432014465332,5.580758559494772,0.0,0.19548970460891724,-2.060089890156881,0.0,0.055131398141384125,0.2450818419456482,-0.0,-0.0036578914150595665,1.1077316999435425,0.00028396854759193957,0.05430764704942703
207.0,214.0,-6.1801,2.1511,7.6845,-0.0345,0.0221,-0.1196,-2.3714128933348597,0.0,5.024379730224609,-1.179323434829712,-0.0,1.9760715961456299,5.580786514073171,0.0,0.19962169229984283,-2.06004506746401,0.0,0.05727265775203705,0.2450576275587082,-0.0,-0.009780682623386383,1.1077558994293213,0.00028199993539601564,-0.0071193017065525055
207.0,214.0,-6.1801,2.1511,7.6845,-0.0345,0.0221,-0.1196,-2.3714615307249964,0.0,5.070631980895996,-1.179311990737915,-0.0,1.9786354303359985,5.580697941571035,0.0,0.1842484325170517,-2.0600088278399866,0.0,0.06587986648082733,0.24504990875720978,-0.0,0.007713077124208212,1.1077399253845215,0.0002371588780079037,0.018144505098462105
207.0,214.0,-6.1801,2.1511,7.6845,-0.0345,0.0221,-0.1196,-2.371441503564352,0.0,5.0084638595581055,-1.1793478727340698,-0.0,1.9268195629119873,5.58079885223464,0.0,0.19091352820396423,-2.06004506746401,0.0,0.05596654489636421,0.24500088393688202,-0.0,0.004108206368982792,1.1077481508255005,0.0002444155979901552,0.04745940864086151
207.0,214.0,-6.1801,2.1511,7.6845,-0.0345,0.0221,-0.1196,-2.371392866174215,0.0,5.050065040588379,-1.1793633699417114,-0.0,1.9708836078643799,5.580782818585195,0.0,0.20046234130859375,-2.059948269520895,0.0,0.04954152554273605,0.245057612657547,-0.0,0.00833645649254322,1.1077922582626343,0.00015007412002887577,0.02624589018523693
207.0,214.0,-6.1801,2.1511,7.6845,-0.0345,0.0221,-0.1196,-2.3713890514769496,0.0,5.078101634979248,-1.1793479919433594,-0.0,1.9245600700378418,5.580730426102438,0.0,0.1942097544670105,-2.060028855000631,0.0,0.05823175609111786,0.245057612657547,-0.0,-0.009605241008102894,1.1077197790145874,9.859585406957194e-05,-0.00073256716132164
207.0,214.0,-6.1801,2.1511,7.6845,-0.0345,0.0221,-0.1196,-2.37135710338735,0.0,5.016423225402832,-1.179315447807312,-0.0,1.9523717164993286,5.580714392452993,0.0,0.18952877819538116,-2.060061279927389,0.0,0.05741247534751892,0.24502156674861908,-0.0,-0.001046347664669156,1.107768177986145,8.087439346127212e-05,0.017312871292233467
207.0,214.0,-6.1801,2.1511,7.6845,-0.0345,0.0221,-0.1196,-2.3714171848692835,0.0,5.0299072265625,-1.1793079376220703,-0.0,1.9329026937484741,5.580750453263082,0.0,0.18579424917697906,-2.060016934071676,0.0,0.0571102574467659,0.24507786333560944,-0.0,0.007098286412656307,1.1077476739883423,0.00010689896589610726,-0.010928364470601082
207.0,214.0,-6.1801,2.1511,7.6845,-0.0345,0.0221,-0.1196,-2.371413370172018,0.0,5.0423736572265625,-1.1793274879455566,-0.0,1.9626728296279907,5.5807984350021265,0.0,0.18110117316246033,-2.0600369612323206,0.0,0.05341719090938568,0.24503348767757416,-0.0,0.0065373871475458145,1.1077358722686768,9.228536509908736e-05,0.035169001668691635
207.0,214.0,-6.1801,2.1511,7.6845,-0.0345,0.0221,-0.1196,-2.3714448414244593,0.0,5.0344462394714355,-1.1793758869171143,-0.0,1.9415730237960815,5.580770480423727,0.0,0.19612355530261993,-2.060016934071676,0.0,0.05677366256713867,0.24502155184745789,-0.0,0.012921219691634178,1.1077518463134766,8.370229625143111e-05,-0.02040618285536766
207.0,214.0,-6.1801,2.1511,7.6845,-0.0345,0.0221,-0.1196,-2.3713933430113734,0.0,5.062764644622803,-1.1793477535247803,-0.0,1.9391353130340576,5.580774593144216,0.0,0.20319458842277527,-2.0600207487689417,0.0,0.0665067732334137,0.2450735867023468,-0.0,-0.0059442780911922455,1.1077558994293213,7.44678545743227e-05,-0.007339716423302889
204.0,212.0,-6.1777,2.4012,7.4901,-0.0489,0.0223,-0.1174,-2.3714128933348597,0.0,5.066162109375,-1.1792635917663574,-0.0,1.9429528713226318,5.580754446774282,0.0,0.19790789484977722,-2.06004506746401,0.0,0.060815081000328064,0.2450416535139084,-0.0,-0.00716486107558012,1.1077522039413452,6.877709529362619e-05,0.00907698180526495
204.0,212.0,-6.1777,2.4012,7.4901,-0.0489,0.0223,-0.1174,-2.3714052639403285,0.0,5.094111919403076,-1.179311990737915,-0.0,1.954031229019165,5.580734061985769,0.0,0.19026313722133636,-2.0600088278399866,0.0,0.061972957104444504,0.24506592750549316,-0.0,0.008988924324512482,1.1077115535736084,6.241713708732277e-05,0.02856544218957424
204.0,212.0,-6.1777,2.4012,7.4901,-0.0489,0.0223,-0.1174,-2.371437212029928,0.0,5.068194389343262,-1.179315447807312,-0.0,1.965378999710083,5.580770480423727,0.0,0.19151589274406433,-2.060016934071676,0.0,0.05940403789281845,0.24497701227664948,-0.0,-0.005420609377324581,1.1077518463134766,5.836917262058705e-05,-0.0236811600625515
204.0,212.0,-6.1777,2.4012,7.4901,-0.0489,0.0223,-0.1174,-2.3714128933348597,0.0,5.063434600830078,-1.1792999505996704,-0.0,1.9353220462799072,5.580782818585195,0.0,0.18820229172706604,-2.060005013142721,0.0,0.04735015705227852,0.24497702717781067,-0.0,0.00500715896487236,1.1077560186386108,5.3723535529570654e-05,0.024085715413093567
204.0,212.0,-6.1777,2.4012,7.4901,-0.0489,0.0223,-0.1174,-2.3713847599425257,0.0,5.050050735473633,-1.1793439388275146,-0.0,1.9767775535583496,5.580742227822103,0.0,0.18415412306785583,-2.060032669697897,0.0,0.05133804678916931,0.2450380176305771,-0.0,0.007596820127218962,1.1077518463134766,-2.0531047994154505e-05,-0.018276505172252655
204.0,212.0,-6.1777,2.4012,7.4901,-0.0489,0.0223,-0.1174,-2.371364732781881,0.0,5.054697036743164,-1.1793439388275146,-0.0,1.9535465240478516,5.58079473951415,0.0,0.1908217817544937,-2.0600369612323206,0.0,0.06256680190563202,0.24502155184745789,-0.0,0.011843529529869556,1.1077804565429688,-4.171343971393071e-05,0.03240188956260681
204.0,212.0,-6.1777,2.4012,7.4901,-0.0489,0.0223,-0.1174,-2.371437212029928,0.0,5.117231369018555,-1.1793241500854492,-0.0,1.9125027656555176,5.580742227822103,0.0,0.1748182475566864,-2.0600250403033655,0.0,0.050092168152332306,0.24505355954170227,-0.0,0.004998935852199793,1.1076997518539429,-3.974763967562467e-05,-0.024151597172021866
204.0,212.0,-6.1777,2.4012,7.4901,-0.0489,0.0223,-0.1174,-2.371409078637594,0.0,5.049115180969238,-1.1793437004089355,-0.0,1.9203848838806152,5.580706167012014,0.0,0.19330674409866333,-2.06004506746401,0.0,0.04844352602958679,0.24504587054252625,-0.0,0.008307559415698051,1.1077239513397217,-3.6521745641948655e-05,-0.018850184977054596
204.0,212.0,-6.1777,2.4012,7.4901,-0.0489,0.0223,-0.1174,-2.3713890514769496,0.0,5.062731742858887,-1.1793479919433594,-0.0,1.9552292823791504,5.580798792629995,0.0,0.19736959040164948,-2.0600369612323206,0.0,0.0554363839328289,0.24503347277641296,-0.0,0.004431679844856262,1.1077160835266113,-3.442625893512741e-05,0.016250934451818466
204.0,212.0,-6.1777,2.4012,7.4901,-0.0489,0.0223,-0.1174,-2.371369024316305,0.0,5.030800819396973,-1.1792476177215576,-0.0,1.9964134693145752,5.580754565983572,0.0,0.18468210101127625,-2.0600207487689417,0.0,0.04277057200670242,0.24504989385604858,-0.0,0.006210461724549532,1.1077239513397217,-3.19797545671463e-05,-0.0026819659397006035
204.0,212.0,-6.1777,2.4012,7.4901,-0.0489,0.0223,-0.1174,-2.37138094524526,2.379859688517172e-05,5.029115200042725,-1.1793274879455566,-0.0,1.9702346324920654,5.580734061985769,0.0,0.1810392141342163,-2.0599926153766077,0.0,0.06002625823020935,0.24508994817733765,-0.0,0.005076952278614044,1.1077882051467896,-3.0361494282260537e-05,0.009141260758042336
204.0,212.0,-6.1777,2.4012,7.4901,-0.0489,0.0223,-0.1174,-2.3713847599425257,2.3463519028155133e-05,5.022984504699707,-1.1792759895324707,-0.0,1.9619382619857788,5.580734121590414,0.0,0.19152632355690002,-2.060033146535055,0.0,0.044676169753074646,0.24498070776462555,-0.0,0.007568472996354103,1.1077038049697876,-4.2663668864406645e-05,0.012476829811930656
204.0,212.0,-6.1777,2.4012,7.4901,-0.0489,0.0223,-0.1174,-2.3714047871031703,2.2580499717150815e-05,5.01877498626709,-1.179315447807312,-0.0,1.9857587814331055,5.580754506378927,0.0,0.2064966857433319,-2.0600531736956995,0.0,0.05139605700969696,0.24499723315238953,-0.0,-0.005575519986450672,1.1077399253845215,-6.252800085349008e-05,-0.0001912107691168785
200.0,220.0,-6.143,2.1015,7.6128,-0.038,0.0275,-0.1211,-2.371420999566549,1.0896781532210298e-05,5.096096992492676,-1.1793235540390015,-0.0,1.976812481880188,5.580778705864706,0.0,0.1984579861164093,-2.0599802176104944,0.0,0.04564034193754196,0.24500080943107605,-0.0,0.015022575855255127,1.1077038049697876,-5.4900581744732335e-05,-0.01959078386425972
200.0,220.0,-6.143,2.1015,7.6128,-0.038,0.0275,-0.1211,-2.371481557885641,1.2091428516214364e-06,5.055527687072754,-1.179323434829712,-0.0,1.9633283615112305,5.58077089765624,0.0,0.1832011491060257,-2.0600488821612757,0.0,0.04717234894633293,0.2450576275587082,-0.0,0.0078889736905694,1.1077358722686768,-2.5149287466774695e-05,0.02157146856188774
200.0,220.0,-6.143,2.1015,7.6128,-0.038,0.0275,-0.1211,-2.3714567623534144,3.917469443997547e-14,5.068103790283203,-1.1793678998947144,-4.656916280509904e-05,1.9475932121276855,5.5807262537773035,0.0,0.18325243890285492,-2.06006890932192,0.0,0.06630455702543259,0.24505354464054108,-0.0,0.013735268265008926,1.1077759265899658,-2.0243395501551298e-11,-0.0047803884372115135
200.0,220.0,-6.143,2.1015,7.6128,-0.038,0.0275,-0.1211,-2.3715206585326136,-0.001664999988861382,5.062355041503906,-1.1793917417526245,-0.0022216534707695246,1.9363125562667847,5.5807262537773035,0.0,0.18192517757415771,-2.0600207487689417,0.0,0.07107912749052048,0.2450575977563858,-0.0,0.01339210756123066,1.1078078746795654,0.003609901526942849,0.04053865745663643
200.0,220.0,-6.143,2.1015,7.6128,-0.038,0.0275,-0.1211,-2.3715206585326136,-0.004514844622462988,5.008730411529541,-1.17940354347229,-0.0018018112750723958,1.9316246509552002,5.580730426102438,0.0,0.19306689500808716,-2.0600364843951624,0.0,0.06712335348129272,0.24502991139888763,-0.0,-0.0024277037009596825,1.1078438758850098,0.007768386509269476,-0.0007005648221820593
200.0,220.0,-6.143,2.1015,7.6128,-0.038,0.0275,-0.1211,-2.371568819085592,-0.006596093066036701,5.01718807220459,-1.1793675422668457,-0.001223035273142159,1.9790061712265015,5.5807344792182825,0.0,0.1967155635356903,-2.0600531736956995,0.0,0.06415320187807083,0.24505767226219177,-0.0,0.002033139578998089,1.1079481840133667,0.00880960188806057,0.021744828671216965
200.0,220.0,-6.143,2.1015,7.6128,-0.038,0.0275,-0.1211,-2.371573110620016,-0.0033319154754281044,5.055871963500977,-1.1793678998947144,0.003445393405854702,2.0061209201812744,5.580746757775106,0.0,0.1917995661497116,-2.0600250403033655,0.0,0.07255758345127106,0.24503755569458008,-0.0,-0.009176382794976234,1.1079357862472534,0.008406492881476879,0.043517548590898514
200.0,220.0,-6.143,2.1015,7.6128,-0.038,0.0275,-0.1211,-2.3715769253172816,-1.6230798792093992e-05,5.060949802398682,-1.1792796850204468,0.003858128795400262,1.9806387424468994,5.580738591938772,0.0,0.2003595530986786,-2.0600608030902308,0.0,0.05789274722337723,0.24504953622817993,-0.0,-0.003703816095367074,1.1080759763717651,0.009728158824145794,-0.008938711136579514
200.0,220.0,-6.143,2.1015,7.6128,-0.038,0.0275,-0.1211,-2.37151636699819,0.0016515454044565558,5.035567283630371,-1.1792879104614258,0.0017485208809375763,1.9716112613677979,5.580714392452993,0.0,0.19299528002738953,-2.0600531736956995,0.0,0.057309702038764954,0.24506959319114685,-0.0,0.003683079034090042,1.1082043647766113,0.0154410470277071,0.08095652610063553
200.0,220.0,-6.143,2.1015,7.6128,-0.038,0.0275,-0.1211,-2.37146057705068,0.0012446828186511993,5.048824310302734,-1.179231882095337,0.001090283622033894,1.9696846008300781,5.580714392452993,0.0,0.20507192611694336,-2.0600245634662073,0.0,0.07192449271678925,0.2450372278690338,-0.0,-0.007766673341393471,1.1082558631896973,0.020724447444081306,0.05709940940141678
200.0,220.0,-6.143,2.1015,7.6128,-0.038,0.0275,-0.1211,-2.3715011082091273,0.0012337476946413517,5.0737223625183105,-1.1792478561401367,0.0009531342075206339,1.9466354846954346,5.580714392452993,0.0,0.1897001564502716,-2.0600245634662073,0.0,0.05199819803237915,0.24500924348831177,-0.0,-0.002098741941154003,1.1084880828857422,0.028284594416618347,0.045731741935014725
200.0,220.0,-6.143,2.1015,7.6128,-0.038,0.0275,-0.1211,-2.371517320672506,0.0008903283160179853,5.056678295135498,-1.1792399883270264,0.0008418853394687176,1.9495848417282104,5.580702471524038,0.0,0.19919991493225098,-2.0600250403033655,0.0,0.07494340091943741,0.24498485028743744,-0.0,0.001041836803779006,1.1086479425430298,0.03025403805077076,0.04419725015759468
202.0,220.0,-5.8576,1.0989,7.3232,-0.0816,-0.007,-0.1045,-2.3714968166747035,0.0004469637351576239,5.034426212310791,-1.1792559623718262,0.000646002939902246,1.9288761615753174,5.58068202713088,0.0,0.19629625976085663,-2.0600488821612757,0.0,0.07803227007389069,0.24506549537181854,-0.0,-0.002643415704369545,1.108847975730896,0.02922060526907444,0.039602648466825485
202.0,220.0,-5.8576,1.0989,7.3232,-0.0816,-0.007,-0.1045,-2.371504922906393,0.0002754991874098778,5.052236557006836,-1.1792075634002686,0.00047536002239212394,1.9715420007705688,5.580718445568838,0.0,0.187362939119339,-2.060044590626852,0.0,0.06670238077640533,0.24506139755249023,-0.0,-0.00043288804590702057,1.1090481281280518,0.02678627520799637,0.002141973003745079
202.0,220.0,-5.8576,1.0989,7.3232,-0.0816,-0.007,-0.1045,-2.37148441890859,0.00015817412349861115,5.054986953735352,-1.1792157888412476,0.00035154237411916256,1.942106008529663,5.580734896450796,-9.426920587429777e-05,0.1899145245552063,-2.0600650946246546,0.0,0.06194588169455528,0.24503347277641296,-0.0,0.014731314033269882,1.1092560291290283,0.024179227650165558,0.02360551431775093
202.0,220.0,-5.8576,1.0989,7.3232,-0.0816,-0.007,-0.1045,-2.371573587457174,0.0001787367364158854,5.042109489440918,-1.179215669631958,0.00029409537091851234,1.9638489484786987,5.580694722920217,-0.0001510212168795988,0.18972894549369812,-2.06006890932192,0.0,0.06968802958726883,0.24504587054252625,-0.0,0.014270558953285217,1.1093679666519165,0.02085992880165577,0.02427557110786438
202.0,220.0,-5.8576,1.0989,7.3232,-0.0816,-0.007,-0.1045,-2.371488710443014,0.00014956000086385757,5.04902458190918,-1.1792240142822266,0.00024148357624653727,1.9481788873672485,5.5806307075317285,-0.0011753339786082506,0.19409701228141785,-2.0600808302508753,0.0,0.06903532147407532,0.24506548047065735,-0.0,-0.005161123350262642,1.1095277070999146,0.015438313595950603,0.019400732591748238
202.0,220.0,-5.8576,1.0989,7.3232,-0.0816,-0.007,-0.1045,-2.3714567623534144,6.213912274688482e-05,5.011070728302002,-1.1792075634002686,0.00028244752320460975,1.9180865287780762,5.580622839718618,-0.0013618271332234144,0.18292006850242615,-2.0601213614093226,0.0,0.07481276988983154,0.24503716826438904,-0.0,0.005658034235239029,1.1095958948135376,0.010019183158874512,0.06057572364807129
202.0,220.0,-5.8576,1.0989,7.3232,-0.0816,-0.007,-0.1045,-2.3714806042113246,0.00012875409447588027,5.038628578186035,-1.1792082786560059,0.001172756659798324,1.9902117252349854,5.580650794297018,-0.0008536900859326124,0.1827959418296814,-2.06006890932192,-7.577658834634349e-05,0.05536416918039322,0.24506957828998566,-0.0,0.011672395281493664,1.109623670578003,0.003909597638994455,0.015362164005637169
202.0,220.0,-5.8576,1.0989,7.3232,-0.0816,-0.007,-0.1045,-2.3714448414244593,0.0007542218081653118,5.0635175704956055,-1.179180383682251,0.002039170591160655,1.9669042825698853,5.580594587116995,-0.0006680134683847427,0.18036986887454987,-2.060097042714254,-7.242409628815949e-05,0.06601768732070923,0.24504946172237396,-0.0,0.007115792948752642,1.109647512435913,0.0012594439322128892,0.014640714973211288
202.0,220.0,-5.8576,1.0989,7.3232,-0.0816,-0.007,-0.1045,-2.371432443658346,0.0024642336647957563,5.059155464172363,-1.1791564226150513,0.006240976508706808,1.9473727941513062,5.5806147930915735,-0.0007572110625915229,0.1829039454460144,-2.060056511555807,-6.804348231526092e-05,0.06786613911390305,0.24506136775016785,-0.0,0.003813140792772174,1.1096396446228027,-0.0005560435820370913,0.021243050694465637
202.0,220.0,-5.8576,1.0989,7.3232,-0.0816,-0.007,-0.1045,-2.371420522729391,0.003371572121977806,5.056216239929199,-1.1790962219238281,0.008829783648252487,2.010316848754883,5.580618905812063,-0.000905913591850549,0.1924869418144226,-2.060085121785299,-6.509083323180676e-05,0.06734815239906311,0.24502158164978027,-0.0,0.0039460971020162106,1.1095958948135376,-0.002782604191452265,-0.005827862769365311
202.0,220.0,-5.8576,1.0989,7.3232,-0.0816,-0.007,-0.1045,-2.371392866174215,0.003861449658870697,5.075541973114014,-1.1790289878845215,0.008054643869400024,1.9564166069030762,5.5805349228675745,-0.0011619004653766751,0.18799874186515808,-2.0600608030902308,-4.963782339473255e-05,0.08798960596323013,0.24502117931842804,-0.0,0.006111146882176399,1.1095154285430908,-0.004799411632120609,-0.0013681775890290737
202.0,220.0,-5.8576,1.0989,7.3232,-0.0816,-0.007,-0.1045,-2.371328969995016,0.001606769161298871,5.023187160491943,-1.178989291191101,0.006950693670660257,1.9812089204788208,5.580570983677664,-0.000960832869168371,0.1975908875465393,-2.060032669697897,-4.667195025831461e-05,0.07352568209171295,0.24499677121639252,-0.0,0.010070966556668282,1.1094276905059814,-0.005678666289895773,0.04367636889219284
202.0,220.0,-5.8576,1.0989,7.3232,-0.0816,-0.007,-0.1045,-2.371340890923971,0.003399572102352977,5.074501037597656,-1.1788842678070068,0.006636811885982752,2.02516508102417,5.580550896912374,-0.0007127914577722549,0.19667088985443115,-2.0600488821612757,-4.4924658141098917e-05,0.07702331990003586,0.24504123628139496,-0.0,-0.0010998556390404701,1.109399437904358,-0.007136256899684668,-0.012600143440067768
205.0,212.0,-6.6467,3.4522,7.5817,0.0496,0.078,-0.0941,-2.3712321720519007,0.00791651289910078,5.063206672668457,-1.1788331270217896,0.007602210156619549,1.9873554706573486,5.580547141819753,-0.0006157236057333648,0.18552476167678833,-2.0600250403033655,-3.218375059077516e-05,0.05708722025156021,0.24506546556949615,-0.0,0.005329248961061239,1.109331488609314,-0.009006275795400143,-0.03266480937600136
205.0,212.0,-6.6467,3.4522,7.5817,0.0496,0.078,-0.0941,-2.3712288341917933,0.008425742387771606,5.082078456878662,-1.1787687540054321,0.00844699889421463,2.009925365447998,5.580587315350332,-0.000645014806650579,0.18264871835708618,-2.060032669697897,-3.0986746423877776e-05,0.06324665248394012,0.24506141245365143,-0.0,0.007272625342011452,1.1092838048934937,-0.00951119139790535,0.008406044915318489
205.0,212.0,-6.6467,3.4522,7.5817,0.0496,0.078,-0.0941,-2.371153493920797,0.007683186326175928,5.066532135009766,-1.1787134408950806,0.010573911480605602,1.9998513460159302,5.580518948822775,-0.002095781732350588,0.19679000973701477,-2.060032669697897,-7.612112767674262e-06,0.05596961826086044,0.24507367610931396,-0.0,-0.003393275197595358,1.109175682067871,-0.010537557303905487,0.04944603145122528
205.0,212.0,-6.6467,3.4522,7.5817,0.0496,0.078,-0.0941,-2.37111296276235,0.007982669398188591,5.074912071228027,-1.1786295175552368,0.010891876183450222,2.0149683952331543,5.580490994244375,-0.003539551515132189,0.1917773187160492,-2.060000721608297,-2.1188595322740866e-09,0.06117008253931999,0.2450817972421646,-0.0,0.008933240547776222,1.109107494354248,-0.011332379654049873,-0.008013641461730003
205.0,212.0,-6.6467,3.4522,7.5817,0.0496,0.078,-0.0941,-2.371045251885885,0.008738801814615726,5.095022678375244,-1.1785447597503662,0.01270908210426569,2.026648998260498,5.580443072109976,-0.007224680855870247,0.16872063279151917,-2.0600207487689417,-3.850922469903102e-14,0.049273766577243805,0.24502936005592346,-0.0,0.009973369538784027,1.1089673042297363,-0.011748703196644783,0.045839812606573105
205.0,212.0,-6.6467,3.4522,7.5817,0.0496,0.078,-0.0941,-2.370993276635641,0.00846911035478115,5.069297790527344,-1.178506851196289,0.014482110738754272,2.0090653896331787,5.5804034350212,-0.008697766810655594,0.18992991745471954,-2.0600412527667444,-1.0719183749529695e-17,0.05231618881225586,0.24511028826236725,-0.0,0.011504123918712139,1.1089075803756714,-0.01025943923741579,0.01308266632258892
205.0,212.0,-6.6467,3.4522,7.5817,0.0496,0.078,-0.0941,-2.3709212742247523,0.007686826400458813,5.102685928344727,-1.1783466339111328,0.016723068431019783,2.0011396408081055,5.580307173519888,-0.005263284780085087,0.1776578724384308,-2.060016934071676,-1.948159153283541e-22,0.06224020570516586,0.24506142735481262,-0.0,-0.0026320121251046658,1.1088676452636719,-0.008065094240009785,0.10420246422290802
205.0,212.0,-6.6467,3.4522,7.5817,0.0496,0.078,-0.0941,-2.3709050617613734,0.005778491962701082,5.0680389404296875,-1.178234577178955,0.019124746322631836,2.0932226181030273,5.580367851048269,-0.003209345508366823,0.18110960721969604,-2.060056988392965,-5.422772227230724e-26,0.05458901822566986,0.24501748383045197,-0.0,0.017925085499882698,1.1088037490844727,-0.006348713766783476,0.010349825955927372
205.0,212.0,-6.6467,3.4522,7.5817,0.0496,0.078,-0.0941,-2.3708049259581507,0.0027231185231357813,5.120170593261719,-1.178054928779602,0.02401709370315075,2.0895543098449707,5.580311643868246,-0.002139758551493287,0.17876213788986206,-2.0600813070880335,-9.855620173169891e-31,0.0534408763051033,0.24502940475940704,-0.0,0.011765653267502785,1.1088197231292725,-0.0031450071837753057,0.08574993908405304
205.0,212.0,-6.6467,3.4522,7.5817,0.0496,0.078,-0.0941,-2.3708249531187953,0.0010261611314490438,5.064097881317139,-1.1779118776321411,0.028119459748268127,2.1075949668884277,5.580287623196401,-0.0028497520834207535,0.17523552477359772,-2.06004506746401,-2.743348052962419e-34,0.05363181233406067,0.24502940475940704,-0.0,0.011399127542972565,1.1087795495986938,-0.0016448282403871417,0.05659535154700279
205.0,212.0,-6.6467,3.4522,7.5817,0.0496,0.078,-0.0941,-2.3708368740477503,0.0005362426745705307,5.090335845947266,-1.1776611804962158,0.03640652820467949,2.08212947845459,5.580174910813131,-0.005125769414007664,0.1508358269929886,-2.0600293318377894,-4.98590121137863e-39,0.05208241939544678,0.2450694739818573,-0.0,0.0193485040217638,1.1088160276412964,-0.0008115748642012477,0.11121000349521637
205.0,212.0,-6.6467,3.4522,7.5817,0.0496,0.078,-0.0941,-2.3708530865111292,0.0002644594933371991,5.117802619934082,-1.1774568557739258,0.044728364795446396,2.116187572479248,5.580139207630911,-0.008120688609778881,0.1615261286497116,-2.060056988392965,-1.3872854796815689e-42,0.03638704866170883,0.24504908919334412,-0.0,0.004426252096891403,1.1088438034057617,-2.1716401477078762e-07,0.12954013049602509
205.0,212.0,-6.6467,3.4522,7.5817,0.0496,0.078,-0.0941,-2.370873113671774,-0.00013566235429607332,5.12192440032959,-1.1770305633544922,0.05446571856737137,2.1653854846954346,5.580011355667867,-0.015051903203129768,0.15256473422050476,-2.060005013142721,-0.0,0.05230708420276642,0.24501708149909973,-0.0,0.014552369713783264,1.1088197231292725,0.00176904012914747,0.1872229427099228
202.0,215.0,-6.1741,2.132,7.7222,-0.0368,0.0315,-0.1432,-2.3709379635252894,-0.0002192430110881105,5.0654144287109375,-1.1765985488891602,0.06234870105981827,2.1413021087646484,5.579919683724203,-0.022365517914295197,0.14534874260425568,-2.0600412527667444,-0.0,0.04017486423254013,0.2450817972421646,-0.0,0.00607294449582696,1.1088474988937378,0.001546015264466405,0.11630667746067047
202.0,215.0,-6.1741,2.132,7.7222,-0.0368,0.0315,-0.1432,-2.370913644830221,-0.0001777689321897924,5.095950126647949,-1.176060438156128,0.07088911533355713,2.1864259243011475,5.5796759007270715,-0.038156140595674515,0.13604852557182312,-2.0600088278399866,-0.0,0.030434224754571915,0.2450777143239975,-0.0,0.012616673484444618,1.1088635921478271,0.0012494351249188185,0.17216840386390686
202.0,215.0,-6.1741,2.132,7.7222,-0.0368,0.0315,-0.1432,-2.3708769283690394,-0.00015483058814425021,5.076709747314453,-1.175589919090271,0.07814902067184448,2.2174463272094727,5.579412865429678,-0.059210218489170074,0.13864557445049286,-2.0600412527667444,-0.0,0.032156143337488174,0.24501343071460724,-0.0,0.01413135975599289,1.1089118719100952,0.0012317472137510777,0.1551094353199005
202.0,215.0,-6.1741,2.132,7.7222,-0.0368,0.0315,-0.1432,-2.3708530865111292,-0.00011394240573281422,5.0873260498046875,-1.1749072074890137,0.08934991806745529,2.2341837882995605,5.578709113388815,-0.10245496779680252,0.10565602779388428,-2.0600531736956995,-0.0,0.04612953960895538,0.24508990347385406,-0.0,0.011107662692666054,1.1088917255401611,0.0019663090351969004,0.17593303322792053
202.0,215.0,-6.1741,2.132,7.7222,-0.0368,0.0315,-0.1432,-2.3709050617613734,-9.570681140758097e-05,5.088162899017334,-1.1743613481521606,0.09911257773637772,2.237945556640625,5.577921736031332,-0.13991481065750122,0.08944973349571228,-2.0600250403033655,-0.0,0.03813258558511734,0.24503709375858307,-0.0,0.0092423465102911,1.108952283859253,0.00280023948289454,0.15615758299827576
202.0,215.0,-6.1741,2.132,7.7222,-0.0368,0.0315,-0.1432,-2.370909353295797,-3.946010474464856e-05,5.0938920974731445,-1.1734590530395508,0.10932538658380508,2.2640106678009033,5.576664256840505,-0.1716153770685196,0.07389163225889206,-2.0600293318377894,-0.0,0.019931713119149208,0.2450937181711197,-0.0,0.01114489883184433,1.1089117527008057,0.005040329415351152,0.2020193338394165
202.0,215.0,-6.1741,2.132,7.7222,-0.0368,0.0315,-0.1432,-2.370828767816061,-3.487288995529525e-05,5.0754780769348145,-1.1728129386901855,0.11172426491975784,2.278613805770874,5.575473415642538,-0.20457985997200012,0.06774090975522995,-2.0600250403033655,-0.0,0.027885232120752335,0.24510557949543,-0.0,0.016272688284516335,1.1089718341827393,0.006355584133416414,0.22410818934440613
202.0,215.0,-6.1741,2.132,7.7222,-0.0368,0.0315,-0.1432,-2.3708893261351527,-3.019308132934384e-05,5.10262393951416,-1.1718829870224,0.12454510480165482,2.271003007888794,5.57356088140563,-0.2522885799407959,0.0523320734500885,-2.0599964300738733,-0.0,0.04537852853536606,0.24506957828998566,-0.0,0.016652267426252365,1.1090320348739624,0.004668743349611759,0.17753399908542633
202.0,215.0,-6.1741,2.132,7.7222,-0.0368,0.0315,-0.1432,-2.370896955529684,-7.906958489911631e-05,5.110667705535889,-1.1711256504058838,0.13586191833019257,2.2492423057556152,5.571926879673757,-0.2724587321281433,0.02604379504919052,-2.0600412527667444,-0.0,0.028310276567935944,0.24506954848766327,-0.0,0.020109061151742935,1.1090439558029175,0.002540969057008624,0.2194364368915558
202.0,215.0,-6.1741,2.132,7.7222,-0.0368,0.0315,-0.1432,-2.370953222314352,-0.00019721088756341487,5.053756237030029,-1.169988989830017,0.15119442343711853,2.290489673614502,5.569570708065786,-0.3050747811794281,0.010754608549177647,-2.0600088278399866,-0.0,0.037979964166879654,0.24508136510849,-0.0,0.02216069959104061,1.109027624130249,0.001256348448805511,0.19591528177261353
202.0,215.0,-6.1741,2.132,7.7222,-0.0368,0.0315,-0.1432,-2.3709689579405726,-0.0014101890847086906,5.050134658813477,-1.169071912765503,0.15757301449775696,2.3007864952087402,5.567622113018789,-0.3491722345352173,-0.008343891240656376,-2.060033146535055,-0.0,0.02658175490796566,0.2451179474592209,-0.0,0.015594664961099625,1.1090435981750488,0.0009849031921476126,0.19259098172187805
202.0,215.0,-6.1741,2.132,7.7222,-0.0368,0.0315,-0.1432,-2.3709527454771937,-0.0011737386230379343,5.032742500305176,-1.1677556037902832,0.1574547290802002,2.264586925506592,5.564618098526754,-0.38951027393341064,-0.030670318752527237,-2.0600207487689417,-0.0,0.032305244356393814,0.24506139755249023,-0.0,0.011485440656542778,1.1090718507766724,0.0005256789154373109,0.2322293072938919
205.0,209.0,-7.3651,2.2158,7.4662,-0.0531,0.0819,-0.1042,-2.3709289036192835,-0.0006646339897997677,5.090710163116455,-1.1667813062667847,0.16098672151565552,2.2860660552978516,5.562142419606008,-0.4218722879886627,-0.034810446202754974,-2.060049358998434,-0.0,0.03849320858716965,0.24510186910629272,-0.0,0.015965163707733154,1.1090999841690063,0.0004670439229812473,0.144657164812088
205.0,209.0,-7.3651,2.2158,7.4662,-0.0531,0.0819,-0.1042,-2.3709007702269496,-0.00033414969220757484,5.085725784301758,-1.1654093265533447,0.17082686722278595,2.2827186584472656,5.558454680233755,-0.4666415750980377,-0.03686153516173363,-2.059976879750387,-4.262331820825693e-09,0.03206294775009155,0.24504123628139496,-0.0,-0.001386744435876608,1.109075903892517,0.0003469765651971102,0.1503501981496811
205.0,209.0,-7.3651,2.2158,7.4662,-0.0531,0.0819,-0.1042,-2.370981355706686,-0.00026135012740269303,5.043863296508789,-1.1643368005752563,0.18263885378837585,2.2736434936523438,5.555593359261312,-0.5028707385063171,-0.06621460616588593,-2.0600088278399866,-1.1864358237176353e-12,0.04240109771490097,0.24507355690002441,-0.0,0.006211050320416689,1.109075903892517,0.00024249361013062298,0.13867168128490448
205.0,209.0,-7.3651,2.2158,7.4662,-0.0531,0.0819,-0.1042,-2.3709527454771937,-0.0001526159467175603,5.04827356338501,-1.1628248691558838,0.19600167870521545,2.2622036933898926,5.551314699440756,-0.5438245534896851,-0.058184362947940826,-2.060016934071676,-2.1562886305389447e-17,0.04702836275100708,0.24503347277641296,-0.0,0.017824947834014893,1.109075903892517,0.0001994338963413611,0.1289304494857788
205.0,209.0,-7.3651,2.2158,7.4662,-0.0531,0.0819,-0.1042,-2.370969434777731,-0.00017306944937445223,5.030954837799072,-1.1616352796554565,0.20016947388648987,2.320335626602173,5.547940420895376,-0.5606896281242371,-0.0281064473092556,-2.059964958821432,-6.0021085546996486e-21,0.037474218755960464,0.24505724012851715,-7.336146690128942e-10,0.004879730753600597,1.109015703201294,0.00014099165855441242,0.06934206932783127
205.0,209.0,-7.3651,2.2158,7.4662,-0.0531,0.0819,-0.1042,-2.370953222314352,-0.00014530257612932473,5.052523136138916,-1.1599879264831543,0.21234175562858582,2.3128604888916016,5.543351638108053,-0.5907719135284424,-0.029048016294836998,-2.05990440050234,0.0002693064452614635,0.0556647963821888,0.2450416386127472,-1.3333085483390687e-14,0.005687158554792404,1.1090717315673828,-7.488001574529335e-05,0.03288266807794571
205.0,209.0,-7.3651,2.2158,7.4662,-0.0531,0.0819,-0.1042,-2.370948930779928,-3.7228492146823555e-05,5.098183631896973,-1.1586849689483643,0.2247038334608078,2.385579824447632,5.539756285935201,-0.6015427708625793,-0.029555082321166992,-2.059936825429098,0.0002749163832049817,0.04174520820379257,0.24503347277641296,-3.711313322293201e-18,0.008926095440983772,1.1090553998947144,-0.0001669999328441918,0.043278440833091736
205.0,209.0,-7.3651,2.2158,7.4662,-0.0531,0.0819,-0.1042,-2.37100948909902,-0.0005932210478931665,5.084948539733887,-1.1568334102630615,0.2269880771636963,2.326822280883789,5.535015451699056,-0.6068171262741089,-0.01749441772699356,-2.0599454084979456,0.00030427947058342397,0.06450145691633224,0.24505355954170227,-6.74512929545457e-23,0.02260875143110752,1.1090394258499146,-0.0006853955565020442,0.022443918511271477
205.0,209.0,-7.3651,2.2158,7.4662,-0.0531,0.0819,-0.1042,-2.3710814915099085,-0.0021158282179385424,5.017616271972656,-1.155466914176941,0.2309475541114807,2.308349132537842,5.531293022423544,-0.6144036054611206,0.0017576145473867655,-2.0599291960345667,0.000450920284492895,0.0672609731554985,0.24502155184745789,-1.8775313248847846e-26,0.0037328496109694242,1.109027624130249,-0.0006609417614527047,-0.0040573617443442345
205.0,209.0,-7.3651,2.2158,7.4662,-0.0531,0.0819,-0.1042,-2.3709970913329066,-0.0023964750580489635,5.099867343902588,-1.1535601615905762,0.23838534951210022,2.3706793785095215,5.526387500553884,-0.6113994121551514,-0.020611772313714027,-2.0599492231952112,0.00045122316805645823,0.08236260712146759,0.24505355954170227,-3.4123199815104826e-31,0.000511364487465471,1.1089915037155151,-0.0005498823011294007,-0.07233759015798569
205.0,209.0,-7.3651,2.2158,7.4662,-0.0531,0.0819,-0.1042,-2.3710648022093714,-0.0020582356955856085,5.052490711212158,-1.1521258354187012,0.24180704355239868,2.3335227966308594,5.522837388306417,-0.6089639663696289,-0.005361765623092651,-2.059912983571188,0.000519141205586493,0.06611724197864532,0.24505765736103058,-9.49831807476804e-35,0.003164776600897312,1.1090595722198486,-0.0004913999582640827,-0.06474391371011734
205.0,209.0,-7.3651,2.2158,7.4662,-0.0531,0.0819,-0.1042,-2.3710814915099085,-0.001371536636725068,5.126152515411377,-1.1502124071121216,0.2479633241891861,2.3626179695129395,5.518092381745138,-0.5962238907814026,0.0125488992780447,-2.0599005858050745,0.0004654554359149188,0.07364565134048462,0.24501748383045197,-1.726272189887921e-39,0.0027916959952563047,1.1090877056121826,-0.00017481423856224865,-0.07226420938968658
205.0,209.0,-7.3651,2.2158,7.4662,-0.0531,0.0819,-0.1042,-2.371089597741598,-0.0009401885909028351,5.118265151977539,-1.1487116813659668,0.2524240016937256,2.356546401977539,5.514558720379629,-0.5857369303703308,0.0034311055205762386,-2.0599291960345667,0.0003818026161752641,0.08737215399742126,0.24508194625377655,-4.8064537326341226e-43,0.007916511967778206,1.109047293663025,-6.769492028979585e-05,-0.0991198867559433
207.0,205.0,-7.2676,3.009,7.6762,0.0939,0.0102,0.0638,-2.3710247478880824,-0.0008544506272301078,5.145233154296875,-1.1467335224151611,0.2546331584453583,2.3375184535980225,5.5099841234977625,-0.5609689354896545,0.01947065256536007,-2.0599454084979456,0.0003511801769491285,0.07322043180465698,0.24499303102493286,-0.0,0.0028245518915355206,1.1090513467788696,-2.1932293221144095e-12,-0.1271631121635437
207.0,205.0,-7.2676,3.009,7.6762,0.0939,0.0102,0.0638,-2.3711539707579554,-0.0026441134978085756,5.139052391052246,-1.1451350450515747,0.2616614103317261,2.3238162994384766,5.50674735286788,-0.5351721048355103,0.031745489686727524,-2.0599334875689905,0.0003063436015509069,0.08098364621400833,0.24498477578163147,-0.0,0.016762802377343178,1.1091078519821167,-5.296390726472427e-18,-0.11284637451171875
207.0,205.0,-7.2676,3.009,7.6762,0.0939,0.0102,0.0638,-2.3711849651732386,-0.006061304826289415,5.0999579429626465,-1.1430721282958984,0.26750078797340393,2.4076642990112305,5.502618360310354,-0.5107417106628418,0.04062735289335251,-2.0599291960345667,0.0002617820573505014,0.07041637599468231,0.24505767226219177,-0.0,-0.004897858016192913,1.1091722249984741,0.0018041613511741161,-0.10824209451675415
207.0,205.0,-7.2676,3.009,7.6762,0.0939,0.0102,0.0638,-2.37119259456777,-0.008367104455828667,5.140508651733398,-1.1413969993591309,0.2680467665195465,2.311117172241211,5.499568688660421,-0.4843720495700836,0.03653115779161453,-2.0599449316607874,0.0002360333746764809,0.08684422820806503,0.245025634765625,-0.0,-0.004322018474340439,1.1091597080230713,0.0023491568863391876,-0.05623874068260193
207.0,205.0,-7.2676,3.009,7.6762,0.0939,0.0102,0.0638,-2.371300836602682,-0.006123496685177088,5.063511848449707,-1.1392590999603271,0.2740404009819031,2.4036026000976562,5.4958000657852075,-0.4531251788139343,0.05181431025266647,-2.0599692503558558,0.00020866785780526698,0.06161019951105118,0.24500899016857147,-0.0,0.008785184472799301,1.1091678142547607,0.004950900096446276,-0.012421022169291973
207.0,205.0,-7.2676,3.009,7.6762,0.0939,0.0102,0.0638,-2.371328969995016,-0.005209316499531269,5.096257209777832,-1.1376843452453613,0.27681201696395874,2.3880302906036377,5.493187832623281,-0.4318438172340393,0.07020395994186401,-2.059941116963522,0.0001919753267429769,0.06149010360240936,0.24495692551136017,-0.0,0.011747059412300587,1.1092116832733154,0.006173120811581612,-0.04695133864879608
207.0,205.0,-7.2676,3.009,7.6762,0.0939,0.0102,0.0638,-2.3713771305479945,-0.008146860636770725,5.119053840637207,-1.135514259338379,0.2692546248435974,2.349555015563965,5.4898841855819605,-0.4036012291908264,0.08715465664863586,-2.0599291960345667,0.00017347261018585414,0.07321332395076752,0.2449609488248825,-0.0,0.005266232416033745,1.1093319654464722,0.0075462982058525085,-0.037508174777030945
207.0,205.0,-7.2676,3.009,7.6762,0.0939,0.0102,0.0638,-2.3714410267271937,-0.00722300261259079,5.080379486083984,-1.133895754814148,0.27243226766586304,2.3725621700286865,5.487485813885488,-0.37861111760139465,0.08428515493869781,-2.059937302266256,0.00016177896759472787,0.07020429521799088,0.2450132519006729,-0.0,0.001776787219569087,1.109331488609314,0.006661761086434126,0.03323019668459892
207.0,205.0,-7.2676,3.009,7.6762,0.0939,0.0102,0.0638,-2.3714806042113246,-0.005066798068583012,5.115489482879639,-1.131717562675476,0.27153557538986206,2.3995847702026367,5.484698164253988,-0.3521726131439209,0.10684340447187424,-2.05990440050234,0.00014843711687717587,0.06814631819725037,0.24498939514160156,-0.0,0.006928491406142712,1.1094081401824951,0.0048346612602472305,-0.042737994343042374
207.0,205.0,-7.2676,3.009,7.6762,0.0939,0.0102,0.0638,-2.3715249500670375,-0.003018961288034916,5.132663726806641,-1.1301652193069458,0.2686389982700348,2.383333683013916,5.482603537827291,-0.3171375095844269,0.13562119007110596,-2.0599167982684534,0.0001397911983076483,0.07069621235132217,0.24497337639331818,-0.0,0.005925592500716448,1.1094117164611816,0.003653864376246929,-0.017704445868730545
207.0,205.0,-7.2676,3.009,7.6762,0.0939,0.0102,0.0638,-2.371488710443014,-0.0012724095722660422,5.094357490539551,-1.1279352903366089,0.26796531677246094,2.4275894165039062,5.480267452984609,-0.2843765318393707,0.13209117949008942,-2.059937302266256,0.00012971693649888039,0.06529460847377777,0.24499300122261047,-0.0,0.010190082713961601,1.1094154119491577,0.0026981444098055363,0.0028334935195744038
207.0,205.0,-7.2676,3.009,7.6762,0.0939,0.0102,0.0638,-2.37151636699819,-0.0006194260786287487,5.148658752441406,-1.1263865232467651,0.2639148533344269,2.363631248474121,5.478689121990957,-0.25415921211242676,0.14641961455345154,-2.059924904500143,0.0001230651541845873,0.08493389934301376,0.24502988159656525,-0.0,-0.0015192566206678748,1.1094276905059814,0.002008531242609024,0.02951907552778721
207.0,205.0,-7.2676,3.009,7.6762,0.0939,0.0102,0.0638,-2.371561189691061,-0.00131143257021904,5.1455230712890625,-1.1242889165878296,0.25813615322113037,2.326349973678589,5.4767910716827295,-0.20899462699890137,0.1566525399684906,-2.059981171284811,0.00011518970131874084,0.06522209942340851,0.24503754079341888,-0.0,-0.00380147248506546,1.1094555854797363,0.0021781024988740683,-0.006331991404294968
203.0,199.0,-5.5214,2.6865,7.6229,-0.047,0.0301,-0.0111,-2.3715249500670375,-0.0013646031729876995,5.1433820724487305,-1.1227251291275024,0.2553052604198456,2.3570075035095215,5.4756889818008325,-0.1652757227420807,0.19439752399921417,-2.059937302266256,0.00010991423187078908,0.0498315691947937,0.24499298632144928,-0.0,-0.006623195484280586,1.1094473600387573,0.0017916011856868863,-0.000987113919109106
203.0,199.0,-5.5214,2.6865,7.6229,-0.047,0.0301,-0.0111,-2.3715487919249476,-0.0012049120850861073,5.091813087463379,-1.120711088180542,0.24950584769248962,2.316366672515869,5.474598276406088,-0.13663113117218018,0.21186266839504242,-2.0599454084979456,0.00010358868894400075,0.06370143592357635,0.24499723315238953,-0.0,-0.0016390117816627026,1.1094272136688232,0.0011718503665179014,-0.016015484929084778
203.0,199.0,-5.5214,2.6865,7.6229,-0.047,0.0301,-0.0111,-2.371556898156637,-0.001288795261643827,5.102411270141602,-1.1191718578338623,0.2469279170036316,2.3691537380218506,5.473891663342275,-0.10961192846298218,0.21768522262573242,-2.059953037892477,9.930264786817133e-05,0.06206686049699783,0.24500489234924316,-0.0,0.002134355716407299,1.1095198392868042,0.0013768596109002829,-0.04516768082976341
203.0,199.0,-5.5214,2.6865,7.6229,-0.047,0.0301,-0.0111,-2.371540685693258,-0.0006774492794647813,5.08851957321167,-1.1172696352005005,0.24168996512889862,2.3102669715881348,5.473265337734976,-0.052414245903491974,0.2514534294605255,-2.059941116963522,9.411066275788471e-05,0.068308025598526,0.2450256049633026,-0.0,-0.005522859748452902,1.1095317602157593,0.0012710747541859746,-0.05121909826993942
203.0,199.0,-5.5214,2.6865,7.6229,-0.047,0.0301,-0.0111,-2.371561189691061,-0.0005252410192042589,5.100240230560303,-1.1157989501953125,0.23378126323223114,2.3324756622314453,5.473053681641378,-0.016493070870637894,0.2577381134033203,-2.0599611441241663,9.055966802407056e-05,0.06931079924106598,0.24504588544368744,-0.0,-0.009881364181637764,1.1095035076141357,0.0010237121023237705,-0.012101502157747746
203.0,199.0,-5.5214,2.6865,7.6229,-0.047,0.0301,-0.0111,-2.3715206585326136,-0.00044764886843040586,5.135603904724121,-1.113900065422058,0.2319934070110321,2.3111369609832764,5.473045813828268,0.01038246788084507,0.27793779969215393,-2.0599454084979456,8.622180757811293e-05,0.06394487619400024,0.24503394961357117,-0.0,-0.011970012448728085,1.109499454498291,0.0007533063762821257,-0.032437875866889954
203.0,199.0,-5.5214,2.6865,7.6229,-0.047,0.0301,-0.0111,-2.371568819085592,-0.0004195189103484154,5.077886581420898,-1.112561821937561,0.22736872732639313,2.361027717590332,5.473069655686178,0.008229309692978859,0.2766677439212799,-2.059953037892477,8.323163638124242e-05,0.05780377984046936,0.24505355954170227,-0.0,0.010524687357246876,1.1094952821731567,0.0006336589576676488,0.005763655062764883
203.0,199.0,-5.5214,2.6865,7.6229,-0.047,0.0301,-0.0111,-2.371500154534811,-0.0003416449762880802,5.0861592292785645,-1.1107274293899536,0.22087302803993225,2.365257501602173,5.473093735962667,0.0014045631978660822,0.27123600244522095,-2.0599454084979456,7.955316687002778e-05,0.07347524911165237,0.24497689306735992,-0.0,-0.002752560656517744,1.1094834804534912,0.0003916909627150744,-0.07011410593986511
203.0,199.0,-5.5214,2.6865,7.6229,-0.047,0.0301,-0.0111,-2.3715206585326136,-0.0002616876154206693,5.123500823974609,-1.1094399690628052,0.21751247346401215,2.28140926361084,5.473053681641378,0.0002834907209035009,0.2520916759967804,-2.0599210898028772,2.214392047505953e-08,0.06874684989452362,0.24504122138023376,-0.0,0.009969188831746578,1.1094834804534912,0.0002559051208663732,-0.04783833771944046
203.0,199.0,-5.5214,2.6865,7.6229,-0.047,0.0301,-0.0111,-2.3715526066222132,-0.0002243994240416214,5.132534503936768,-1.107717514038086,0.21809054911136627,2.313091993331909,5.473057734757223,1.9216029158997117e-06,0.28151264786720276,-2.0599492231952112,4.024548164345554e-13,0.07311107963323593,0.24500131607055664,-0.0,0.01965806819498539,1.109519600868225,0.00014603277668356895,-0.004673607647418976
203.0,199.0,-5.5214,2.6865,7.6229,-0.047,0.0301,-0.0111,-2.3715769253172816,-0.00020273479458410293,5.072020530700684,-1.106495976448059,0.21447937190532684,2.3502848148345947,5.473038065224447,5.348852472053522e-10,0.26581627130508423,-2.059941116963522,1.1202477919048092e-16,0.0683847963809967,0.24502985179424286,-0.0,0.00522390753030777,1.1095361709594727,0.0001256365649169311,-0.11020848155021667
203.0,199.0,-5.5214,2.6865,7.6229,-0.047,0.0301,-0.0111,-2.371549268762106,-0.00017961460980586708,5.056142807006836,-1.104769229888916,0.2051749974489212,2.2758514881134033,5.472985195904531,9.7212751628932e-15,0.27264204621315,-2.0599210898028772,2.035995015925781e-21,0.065101757645607,0.2450256198644638,-0.0,0.0016953102312982082,1.1095317602157593,-0.00016272276116069406,-0.031031902879476547
195.0,178.0,-5.2881,2.808,7.6576,-0.0958,0.1975,-0.2275,-2.3715769253172816,-0.00016546229016967118,5.074043273925781,-1.1035377979278564,0.20077316462993622,2.316680431365967,5.472981321602621,-0.0007198413368314505,0.2673073410987854,-2.0599334875689905,5.667267462111849e-25,0.07153165340423584,0.24502940475940704,-0.0,0.019494952633976936,1.1094675064086914,-0.0001842714991653338,-0.05458943545818329
195.0,178.0,-5.2881,2.808,7.6576,-0.0958,0.1975,-0.2275,-2.3715368709959925,-0.0001637986715650186,5.0482025146484375,-1.1019550561904907,0.19881828129291534,2.3070201873779297,5.472945797234335,-0.003644933458417654,0.25649702548980713,-2.0599334875689905,1.0299977162244002e-29,0.07024069875478745,0.2450576275587082,-0.0,0.0033173325937241316,1.1094515323638916,-0.00018685436225496233,-0.05686207115650177
195.0,178.0,-5.2881,2.808,7.6576,-0.0958,0.1975,-0.2275,-2.371556898156637,-0.00015973315748851746,5.085875988006592,-1.1008132696151733,0.1903688907623291,2.27732253074646,5.472905564099111,-0.005786610301584005,0.241925448179245,-2.05994159380068,2.8670362317853287e-33,0.08334868401288986,0.24506139755249023,-0.0,-0.0006901715532876551,1.1094355583190918,-0.0002986339386552572,-0.05965422838926315
195.0,178.0,-5.2881,2.808,7.6576,-0.0958,0.1975,-0.2275,-2.371512552300924,-0.0001467137481085956,5.0453081130981445,-1.099340558052063,0.18045496940612793,2.2567195892333984,5.472878205567159,-0.010076946578919888,0.25264328718185425,-2.0599573294269007,5.210697511025617e-38,0.07526998966932297,0.2450415939092636,-6.297835852819844e-08,0.01628970354795456,1.1094757318496704,-0.000381311634555459,-0.10398569703102112
195.0,178.0,-5.2881,2.808,7.6576,-0.0958,0.1975,-0.2275,-2.371568819085592,-0.00013826183567289263,5.038873195648193,-1.098292350769043,0.1758594512939453,2.261768341064453,5.472741770535269,-0.015061496756970882,0.2304632067680359,-2.05988055864443,1.4504840404226182e-41,0.06149451434612274,0.2450777143239975,-1.753025849482448e-11,0.008220921270549297,1.1094317436218262,-0.0007150588789954782,-0.08001464605331421
195.0,178.0,-5.2881,2.808,7.6576,-0.0958,0.1975,-0.2275,-2.371540685693258,-0.00012839931878261268,5.045253276824951,-1.0970008373260498,0.17163144052028656,2.299914836883545,5.47249715307311,-0.025576135143637657,0.2371617555618286,-2.059876267110006,0.0,0.08480969071388245,0.24507786333560944,-3.186038462829594e-16,0.008690258488059044,1.109427571296692,-0.0008977220859378576,-0.0907299816608429
195.0,178.0,-5.2881,2.808,7.6576,-0.0958,0.1975,-0.2275,-2.3715888462462367,-0.00011985011224169284,5.0195136070251465,-1.095542550086975,0.1639033854007721,2.247708797454834,5.47225849607543,-0.05047933757305145,0.21743394434452057,-2.0599010626422327,7.827797965376249e-09,0.07193475216627121,0.24503347277641296,-5.790467447953281e-21,0.0050462088547647,1.10946786403656,-0.0005873690242879093,-0.101371631026268
195.0,178.0,-5.2881,2.808,7.6576,-0.0958,0.1975,-0.2275,-2.371493001977438,-0.00011414982145652175,5.025808334350586,-1.0946357250213623,0.15695838630199432,2.2163171768188477,5.471837985306539,-0.08663636445999146,0.19600534439086914,-2.059863869343893,2.17889660307502e-12,0.07446760684251785,0.24498070776462555,-1.6117976433191767e-24,0.01225895993411541,1.1094436645507812,-0.0005235990392975509,-0.11957716941833496
195.0,178.0,-5.2881,2.808,7.6576,-0.0958,0.1975,-0.2275,-2.371549268762106,-0.0001073426246875897,5.027675151824951,-1.093463659286499,0.14579203724861145,2.252139091491699,5.470874476223745,-0.1321265697479248,0.1741909384727478,-2.0599210898028772,3.960035530985749e-17,0.0932089239358902,0.24502940475940704,-2.9293620149045215e-29,0.0029458024073392153,1.1094595193862915,-0.0004358039586804807,-0.16185912489891052
195.0,178.0,-5.2881,2.808,7.6576,-0.0958,0.1975,-0.2275,-2.371549268762106,-0.00010274720989400521,5.059560775756836,-1.0925668478012085,0.1407642513513565,2.1966419219970703,5.469987320690908,-0.14666542410850525,0.16538575291633606,-2.0599210898028772,1.102290463751151e-20,0.09296759217977524,0.24502520263195038,-8.153987011159667e-33,0.01359116192907095,1.1094317436218262,-0.00041156262159347534,-0.20758698880672455
195.0,178.0,-5.2881,2.808,7.6576,-0.0958,0.1975,-0.2275,-2.371556898156637,-9.719900117488578e-05,5.023066520690918,-1.091450810432434,0.13462768495082855,2.262216806411743,5.4687848565872095,-0.1577719748020172,0.16525053977966309,-2.0599048773394983,2.0033584911274248e-25,0.08231183886528015,0.2450694739818573,-1.481946778270779e-37,0.004805152304470539,1.109399437904358,-0.0006752524641342461,-0.19991210103034973
195.0,178.0,-5.2881,2.808,7.6576,-0.0958,0.1975,-0.2275,-2.3715530834593714,-9.341572149423882e-05,5.019172191619873,-1.0906741619110107,0.1254052221775055,2.2223691940307617,5.467701363354482,-0.18045908212661743,0.14510619640350342,-2.059864346181051,0.00022610498126596212,0.0892101377248764,0.24502943456172943,-4.125002289432964e-41,0.005167561583220959,1.1094157695770264,-0.0010711471550166607,-0.18916407227516174
195.0,178.0,-5.2881,2.808,7.6576,-0.0958,0.1975,-0.2275,-2.371544977227682,-6.063211185391992e-05,5.008482933044434,-1.089737892150879,0.11386159062385559,2.2131285667419434,5.466082799225607,-0.20017148554325104,0.1513952761888504,-2.0598605314837855,0.00022099500347394496,0.08737928420305252,0.2450694739818573,-1.401298464324817e-45,0.014525039121508598,1.10944402217865,-0.0008471721666865051,-0.21732649207115173
226.0,165.0,-6.3703,1.9986,6.9733,-0.0944,0.1688,-0.2069,-2.3715931377806605,-5.826251799589954e-05,5.030828952789307,-1.0890421867370605,0.10629890859127045,2.1760783195495605,5.464896011143484,-0.21603268384933472,0.13452228903770447,-2.0599048773394983,0.0002007990115089342,0.08417557179927826,0.24504946172237396,-0.0,0.00580541230738163,1.1093957424163818,-0.0005412088357843459,-0.23599368333816528
226.0,165.0,-6.3703,1.9986,6.9733,-0.0944,0.1688,-0.2069,-2.371544977227682,-5.539374251384288e-05,5.049472808837891,-1.088244915008545,0.094442218542099,2.1686503887176514,5.462938415795126,-0.2569863796234131,0.11679462343454361,-2.059852902089254,0.00022920165793038905,0.09321708232164383,0.24506540596485138,-0.0,0.004629841074347496,1.109391689300537,-0.0005084322183392942,-0.2767164707183838
226.0,165.0,-6.3703,1.9986,6.9733,-0.0944,0.1688,-0.2069,-2.3715325794615687,-4.398169039632194e-05,5.011392116546631,-1.087717890739441,0.08895067870616913,2.2069671154022217,5.46137564161376,-0.27028343081474304,0.12156622111797333,-2.059909168873922,0.0002686123480089009,0.09213950484991074,0.24507775902748108,-0.0,0.010982343927025795,1.1094081401824951,-0.0004368728259578347,-0.27165672183036804
226.0,165.0,-6.3703,1.9986,6.9733,-0.0944,0.1688,-0.2069,-2.371533056298727,-4.079945938428864e-05,5.050884246826172,-1.087053894996643,0.08091531693935394,2.184159517288208,5.459065604000845,-0.29665935039520264,0.10698145627975464,-2.0599210898028772,0.0003268226282671094,0.09810736030340195,0.24502524733543396,-0.0,0.009146611206233501,1.109323263168335,-0.0014087754534557462,-0.2990683913230896
226.0,165.0,-6.3703,1.9986,6.9733,-0.0944,0.1688,-0.2069,-2.371544977227682,-4.595544851326849e-06,5.058035850524902,-1.0866060256958008,0.0751834437251091,2.1813912391662598,5.457243549614706,-0.32058873772621155,0.08272749185562134,-2.0599053541766565,0.0005114410305395722,0.08918888866901398,0.24506548047065735,-0.0,0.01938898116350174,1.1093556880950928,-0.0026393653824925423,-0.3284876048564911
226.0,165.0,-6.3703,1.9986,6.9733,-0.0944,0.1688,-0.2069,-2.37151636699819,-1.4888982516510219e-13,5.021556377410889,-1.0859732627868652,0.06909416615962982,2.1346969604492188,5.454510140209951,-0.33362874388694763,0.09568680822849274,-2.0599048773394983,0.0004962455132044852,0.10817307233810425,0.24508586525917053,-0.0,-0.0031567446421831846,1.1093720197677612,-0.006499561946839094,-0.27936601638793945
226.0,165.0,-6.3703,1.9986,6.9733,-0.0944,0.1688,-0.2069,-2.371493001977438,-3.595513723402488e-19,5.05477237701416,-1.0855815410614014,0.06076580286026001,2.1710917949676514,5.45250033119277,-0.3587716817855835,0.09333885461091995,-2.059857193623678,0.0005567280459217727,0.10590726882219315,0.24506142735481262,-0.0,0.00132447958458215,1.1093279123306274,-0.005487770773470402,-0.32382792234420776
226.0,165.0,-6.3703,1.9986,6.9733,-0.0944,0.1688,-0.2069,-2.3715692959227503,-1.1649008068669595e-26,5.033824920654297,-1.0852020978927612,0.04855223000049591,2.1250905990600586,5.449487614422598,-0.39143261313438416,0.08231759816408157,-2.059869114552633,0.0006006914773024619,0.10566303133964539,0.24506141245365143,-0.0,-0.006415769923478365,1.109291434288025,-0.002189874416217208,-0.29595547914505005
226.0,165.0,-6.3703,1.9986,6.9733,-0.0944,0.1688,-0.2069,-2.371528764764303,-2.813098453092657e-32,5.046986103057861,-1.0849580764770508,0.03789617121219635,2.1491825580596924,5.447089540749349,-0.39701545238494873,0.06483209133148193,-2.0598204771624964,0.0007304338505491614,0.11331874877214432,0.24507363140583038,-0.0,0.01064236368983984,1.109307885169983,-0.0008926651207730174,-0.35995012521743774
226.0,165.0,-6.3703,1.9986,6.9733,-0.0944,0.1688,-0.2069,-2.371533056298727,-9.11408725092254e-40,5.082971096038818,-1.084620475769043,0.02900184690952301,2.116420269012451,5.443892645626821,-0.40853285789489746,0.07743126153945923,-2.059861485158102,0.0008913400233723223,0.10439661890268326,0.24506548047065735,-0.0,0.00729934498667717,1.1092395782470703,-0.0008576504769735038,-0.3735349178314209
226.0,165.0,-6.3703,1.9986,6.9733,-0.0944,0.1688,-0.2069,-2.3715373478331507,-2.802596928649634e-45,5.054088115692139,-1.0844613313674927,0.024161947891116142,2.1205482482910156,5.4414111254508875,-0.42309150099754333,0.07900445908308029,-2.059861485158102,0.0012316795764490962,0.1160103976726532,0.2450937181711197,-0.0,-0.00032924592960625887,1.1092718839645386,-0.0017596379620954394,-0.4144231379032135
226.0,165.0,-6.3703,1.9986,6.9733,-0.0944,0.1688,-0.2069,-2.3715082607665003,0.0,5.0743021965026855,-1.0843870639801025,0.019528808072209358,2.124906539916992,5.4380026934440515,-0.4316921830177307,0.05421505868434906,-2.0598700682269495,0.0019231969490647316,0.10829898715019226,0.24502988159656525,-0.0,0.008937872014939785,1.109291911125183,-0.0015469779027625918,-0.30862659215927124
226.0,165.0,-6.3703,1.9986,6.9733,-0.0944,0.1688,-0.2069,-2.3715206585326136,0.0,5.091897487640381,-1.0842137336730957,0.017071576789021492,2.136690139770508,5.435316312104025,-0.4452134966850281,0.06151299923658371,-2.0598047415362757,0.0036834643688052893,0.11970391124486923,0.2450534999370575,-0.0,0.0014795195311307907,1.109243631362915,-0.0014780809869989753,-0.3955613374710083
264.0,170.0,-6.9188,2.0853,6.679,-0.0038,-0.0397,-0.0165,-2.3715692959227503,0.0,5.115952491760254,-1.0840531587600708,0.014294548891484737,2.152315139770508,5.431760060578146,-0.44963034987449646,0.05371343344449997,-2.0597851912127894,0.009438592940568924,0.10938173532485962,0.24502988159656525,-0.0,0.0019746567122638226,1.109191656112671,-0.0024245851673185825,-0.33612939715385437
264.0,170.0,-6.9188,2.0853,6.679,-0.0038,-0.0397,-0.0165,-2.371549268762106,0.0,5.131731033325195,-1.0840134620666504,0.012215130031108856,2.1052441596984863,5.429063844471731,-0.4616924226284027,0.066873699426651,-2.0597251097308558,0.008711977861821651,0.12048898637294769,0.24500492215156555,-0.0,0.011371316388249397,1.1091876029968262,-0.0031546500977128744,-0.3753525912761688
264.0,170.0,-6.9188,2.0853,6.679,-0.0038,-0.0397,-0.0165,-2.3715931377806605,0.0,5.142472743988037,-1.0839818716049194,0.009002335369586945,2.1372647285461426,5.425468611508169,-0.4559681713581085,0.056756600737571716,-2.059669319783346,0.0015302742831408978,0.12486733496189117,0.24503394961357117,-0.0,0.00516840536147356,1.1091474294662476,-0.0035297805443406105,-0.36474183201789856
264.0,170.0,-6.9188,2.0853,6.679,-0.0038,-0.0397,-0.0165,-2.3715812168517054,0.0,5.175869941711426,-1.083905577659607,0.006190165411680937,2.1432950496673584,5.422780859261312,-0.45396894216537476,0.06415730714797974,-2.059669319783346,0.00018543096666689962,0.11999650299549103,0.24502940475940704,-0.0,-0.00041607022285461426,1.1091715097427368,-0.003195474622771144,-0.41766393184661865
264.0,170.0,-6.9188,2.0853,6.679,-0.0038,-0.0397,-0.0165,-2.3715373478331507,0.0,5.179084777832031,-1.0838572978973389,0.0036797327920794487,2.1120259761810303,5.419148611813345,-0.45189303159713745,0.07376580685377121,-2.0596731344806116,9.857029363047332e-05,0.13208399713039398,0.24500924348831177,-0.0,-0.0030532623641192913,1.1091477870941162,-0.0028674418572336435,-0.4201633334159851
264.0,170.0,-6.9188,2.0853,6.679,-0.0038,-0.0397,-0.0165,-2.371544977227682,0.0,5.1879377365112305,-1.0838541984558105,0.002214765176177025,2.152181386947632,5.4164848802383325,-0.4393254518508911,0.09436578303575516,-2.05972129503359,7.416812150040641e-05,0.12629304826259613,0.2450421005487442,-0.0,0.005818093195557594,1.1091477870941162,-0.002627473557367921,-0.4206461012363434
264.0,170.0,-6.9188,2.0853,6.679,-0.0038,-0.0397,-0.0165,-2.371544977227682,0.0,5.178091526031494,-1.0838377475738525,0.0014459328958764672,2.166989803314209,5.412975597172537,-0.42780613899230957,0.10193277895450592,-2.0596888701068323,5.577076808549464e-05,0.14352566003799438,0.24496887624263763,-0.0,0.01261009369045496,1.1090950965881348,-0.0015177545137703419,-0.4413032531738281
264.0,170.0,-6.9188,2.0853,6.679,-0.0038,-0.0397,-0.0165,-2.371528764764303,0.0,5.186493873596191,-1.0838013887405396,0.0011432538740336895,2.1529955863952637,5.410408246308126,-0.42208433151245117,0.10860604047775269,-2.059709374104635,4.7024983359733596e-05,0.11277492344379425,0.24498124420642853,-0.0,-0.007146351505070925,1.1091033220291138,-0.0008507259772159159,-0.4289257824420929
264.0,170.0,-6.9188,2.0853,6.679,-0.0038,-0.0397,-0.0165,-2.371561189691061,0.0,5.227995872497559,-1.0837931632995605,0.0011493671918287873,2.1504080295562744,5.407002198487081,-0.4154033958911896,0.11516889929771423,-2.0596731344806116,3.889384606736712e-05,0.12341585755348206,0.24501731991767883,-0.0,-0.0051594385877251625,1.109107494354248,-0.0004453266737982631,-0.4119001626968384
264.0,170.0,-6.9188,2.0853,6.679,-0.0038,-0.0397,-0.0165,-2.371540685693258,0.0,5.2660813331604,-1.0838055610656738,0.0022974833846092224,2.139893054962158,5.404563534050741,-0.4067727327346802,0.1154908686876297,-2.059696976338522,6.88479412929155e-05,0.13775762915611267,0.24501323699951172,-0.0,0.0012168335961177945,1.1091396808624268,-0.0003370297490619123,-0.3914664089679718
264.0,170.0,-6.9188,2.0853,6.679,-0.0038,-0.0397,-0.0165,-2.371540685693258,0.0,5.222780227661133,-1.0837736129760742,0.004146261606365442,2.1524572372436523,5.401365864067831,-0.39408761262893677,0.1211353987455368,-2.059725586568014,5.9719113778555766e-05,0.12118372321128845,0.24496932327747345,-0.0,0.000660651596263051,1.1091240644454956,-0.0002593260142020881,-0.4661245048046112
264.0,170.0,-6.9188,2.0853,6.679,-0.0038,-0.0397,-0.0165,-2.37157740215444,0.0,5.225067138671875,-1.0837295055389404,0.005853487644344568,2.129317283630371,5.399085151940145,-0.3763580322265625,0.12831926345825195,-2.0597012678729456,5.4312695283442736e-05,0.12605568766593933,0.24498887360095978,-0.0,0.009543084539473057,1.1090672016143799,-0.00026350648840889335,-0.4721372425556183
253.0,163.0,-6.9631,1.6175,8.1242,0.106,-0.3067,0.1633,-2.37151636699819,0.0,5.255838394165039,-1.083640694618225,0.007496809121221304,2.154754400253296,5.396162676602163,-0.35491374135017395,0.1417858749628067,-2.059693161641256,4.846299270866439e-05,0.14993777871131897,0.24502989649772644,-0.0,0.011110225692391396,1.10909104347229,-0.00022173571051098406,-0.4806734323501587
253.0,163.0,-6.9631,1.6175,8.1242,0.106,-0.3067,0.1633,-2.371585031548971,0.0,5.269214630126953,-1.0836126804351807,0.007761734072118998,2.190154552459717,5.394009041577139,-0.34698623418807983,0.14229586720466614,-2.0596888701068323,4.484094097279012e-05,0.14480218291282654,0.24498531222343445,-0.0,0.00039377412758767605,1.1091277599334717,-0.00022643599368166178,-0.4788116216659546
253.0,163.0,-6.9631,1.6175,8.1242,0.106,-0.3067,0.1633,-2.371528764764303,0.0,5.277966499328613,-1.0835611820220947,0.008429503999650478,2.1671485900878906,5.391422498017111,-0.32714396715164185,0.14963379502296448,-2.0596888701068323,6.115412543294951e-05,0.14002729952335358,0.2450380176305771,-0.0,0.0033734131138771772,1.1091477870941162,-0.0002009340823860839,-0.5009980201721191
253.0,163.0,-6.9631,1.6175,8.1242,0.106,-0.3067,0.1633,-2.37160124401235,0.0,5.245871543884277,-1.0835286378860474,0.008529218845069408,2.230743408203125,5.389488804131307,-0.31119367480278015,0.1525634527206421,-2.0596402327166956,7.143396942410618e-05,0.12749862670898438,0.24497292935848236,-0.0,0.008109900169074535,1.1091077327728271,-0.00020958392997272313,-0.5158194899559021
253.0,163.0,-6.9631,1.6175,8.1242,0.106,-0.3067,0.1633,-2.3715769253172816,0.0,5.289187908172607,-1.083449363708496,0.0098633524030447,2.236481189727783,5.38695656040267,-0.311979740858078,0.17001742124557495,-2.0596936384784144,7.039166666800156e-05,0.140811488032341,0.245025634765625,-0.0,0.00988166406750679,1.1091318130493164,-0.00019654100469779223,-0.48706161975860596
253.0,163.0,-6.9631,1.6175,8.1242,0.106,-0.3067,0.1633,-2.371568819085592,0.0,5.276517868041992,-1.0834171772003174,0.011190127581357956,2.2093353271484375,5.385130691319265,-0.29444947838783264,0.16693979501724243,-2.059608761464254,0.00010477678006282076,0.13620908558368683,0.24501731991767883,-0.0,0.0015888536581769586,1.1090712547302246,-0.0015053007518872619,-0.5287801027297974
253.0,163.0,-6.9631,1.6175,8.1242,0.106,-0.3067,0.1633,-2.3715082607665003,-8.00240082532433e-12,5.309988021850586,-1.083309531211853,0.014126433059573174,2.177420139312744,5.382861900120535,-0.27155935764312744,0.16819459199905396,-2.0596330801593226,0.00013177112850826234,0.13041327893733978,0.24496938288211823,-0.0,0.004928013309836388,1.1090153455734253,-0.002564113587141037,-0.5216401815414429
253.0,163.0,-6.9631,1.6175,8.1242,0.106,-0.3067,0.1633,-2.371561189691061,-1.932485816825985e-17,5.312752723693848,-1.0832093954086304,0.017113566398620605,2.2066712379455566,5.381311106472769,-0.2750304639339447,0.18888162076473236,-2.0596001783954065,0.0007015209412202239,0.14303737878799438,0.2449769824743271,-0.0,0.0017780212219804525,1.1090476512908936,-0.003080241847783327,-0.5366436243057251
253.0,163.0,-6.9631,1.6175,8.1242,0.106,-0.3067,0.1633,-2.3715530834593714,-6.261008552807101e-25,5.282774925231934,-1.0829843282699585,0.023078855127096176,2.2974157333374023,5.379221784859457,-0.25192561745643616,0.1945977658033371,-2.059613052998678,0.0019661355763673782,0.15438689291477203,0.24499304592609406,-0.0,0.005863552913069725,1.108943223953247,-0.004227805882692337,-0.5960485339164734
253.0,163.0,-6.9631,1.6175,8.1242,0.106,-0.3067,0.1633,-2.371556898156637,-1.5119598604400735e-30,5.375295639038086,-1.0828282833099365,0.028712769970297813,2.2711665630340576,5.377738582878866,-0.24467025697231293,0.1972409188747406,-2.059584442769186,0.002547828247770667,0.17430821061134338,0.24500539898872375,-0.0,-0.003466613357886672,1.109007477760315,-0.005121306516230106,-0.574353814125061
253.0,163.0,-6.9631,1.6175,8.1242,0.106,-0.3067,0.1633,-2.3715249500670375,-4.898557157058493e-38,5.362357139587402,-1.0826287269592285,0.03617813065648079,2.2740442752838135,5.375884878426351,-0.21060055494308472,0.2172704041004181,-2.059549156819479,0.0029143341816961765,0.1496156007051468,0.24505402147769928,-0.0,0.0022972864098846912,1.1089195013046265,-0.010095661506056786,-0.6424283981323242
253.0,163.0,-6.9631,1.6175,8.1242,0.106,-0.3067,0.1633,-2.371540685693258,8.862195682013407e-05,5.397337436676025,-1.0823522806167603,0.04175006225705147,2.3367271423339844,5.374648976116934,-0.20735812187194824,0.22417554259300232,-2.059565846120016,0.003446726594120264,0.17817939817905426,0.24497286975383759,-0.0,0.0009246380068361759,1.108871340751648,-0.010300389491021633,-0.6876356601715088
253.0,163.0,-6.9631,1.6175,8.1242,0.106,-0.3067,0.1633,-2.371533056298727,7.404972711810842e-05,5.432722568511963,-1.0819952487945557,0.04531975835561752,2.3447961807250977,5.373072314053335,-0.17996951937675476,0.23498740792274475,-2.059533421193258,0.004843021277338266,0.17458438873291016,0.24500899016857147,-0.0,0.007427911274135113,1.1087955236434937,-0.010519943200051785,-0.7311245203018188
204.0,162.0,-5.7577,2.7846,7.7683,0.071,-0.1903,0.0058,-2.371580740014547,6.591432611458004e-05,5.394160270690918,-1.0817161798477173,0.047638311982154846,2.345733404159546,5.372052240162649,-0.14835065603256226,0.25440433621406555,-2.059492890034811,0.004458619747310877,0.195927694439888,0.24499303102493286,-0.0,0.007525686640292406,1.1087919473648071,-0.010956449434161186,-0.7465679049491882
204.0,162.0,-5.7577,2.7846,7.7683,0.071,-0.1903,0.0058,-2.3715769253172816,5.749268166255206e-05,5.421047210693359,-1.0813359022140503,0.05190355330705643,2.3426334857940674,5.370841252594747,-0.14472337067127228,0.2513917088508606,-2.059472386037008,0.0029771169647574425,0.19086627662181854,0.24500492215156555,-0.0,0.013337245211005211,1.1086797714233398,-0.011912576854228973,-0.7850472331047058
204.0,162.0,-5.7577,2.7846,7.7683,0.071,-0.1903,0.0058,-2.3715888462462367,5.2465402404777706e-05,5.440615653991699,-1.0810322761535645,0.05345582589507103,2.393678903579712,5.369993197708883,-0.135997012257576,0.26192882657051086,-2.059505287800924,0.0016031222185119987,0.18762677907943726,0.2449769824743271,-0.0,0.001697872532531619,1.1086241006851196,-0.012268195860087872,-0.8376996517181396
204.0,162.0,-5.7577,2.7846,7.7683,0.071,-0.1903,0.0058,-2.3715931377806605,4.6987031964818016e-05,5.438743591308594,-1.0805351734161377,0.055657632648944855,2.3426413536071777,5.369098174362936,-0.10328350216150284,0.27005234360694885,-2.059497658406393,0.0009439002606086433,0.19488339126110077,0.2450215369462967,-0.0,-0.009613712318241596,1.1085078716278076,-0.012049004435539246,-0.8375177383422852
204.0,162.0,-5.7577,2.7846,7.7683,0.071,-0.1903,0.0058,-2.371549268762106,6.536182627314702e-05,5.436851501464844,-1.080215573310852,0.05667128041386604,2.3796279430389404,5.368520366936483,-0.09041835367679596,0.28610485792160034,-2.059518639241354,0.0008304663351736963,0.19949182868003845,0.24500492215156555,-0.0,0.004721358418464661,1.1084519624710083,-0.011751399375498295,-0.8081432580947876
204.0,162.0,-5.7577,2.7846,7.7683,0.071,-0.1903,0.0058,-2.371528764764303,7.944447861518711e-05,5.427515983581543,-1.0796705484390259,0.059451453387737274,2.3754587173461914,5.3677435396011255,-0.10567759722471237,0.2877894937992096,-2.0594900290118616,0.0012129379902034998,0.17677631974220276,0.24498531222343445,-0.0,0.006395955104380846,1.1083232164382935,-0.010934922844171524,-0.8500980138778687
204.0,162.0,-5.7577,2.7846,7.7683,0.071,-0.1903,0.0058,-2.371549268762106,5.997500556986779e-05,5.4709625244140625,-1.0793988704681396,0.06160392239689827,2.4178240299224854,5.367074179440298,-0.10781539231538773,0.27584362030029297,-2.059420887623922,0.0018449369817972183,0.20172050595283508,0.24500899016857147,-0.0,0.011360390111804008,1.1082918643951416,-0.010615000501275063,-0.8442627787590027
204.0,162.0,-5.7577,2.7846,7.7683,0.071,-0.1903,0.0058,-2.371528764764303,5.5978714954108e-05,5.480441570281982,-1.0788007974624634,0.07021769881248474,2.431825637817383,5.366334187775411,-0.08374853432178497,0.28128740191459656,-2.0594175497638147,0.0021843917202204466,0.20503969490528107,0.24499347805976868,-0.0,0.004124991130083799,1.1081998348236084,-0.01164047047495842,-0.8850103616714478
204.0,162.0,-5.7577,2.7846,7.7683,0.071,-0.1903,0.0058,-2.371556898156637,4.858949250774458e-05,5.480906009674072,-1.0783898830413818,0.07924209535121918,2.4065189361572266,5.36594437339858,-0.054104678332805634,0.2974923849105835,-2.0594332853900355,0.002130070934072137,0.19928863644599915,0.24500899016857147,-0.0,-0.005742408335208893,1.1081801652908325,-0.013680296018719673,-0.9136826992034912
204.0,162.0,-5.7577,2.7846,7.7683,0.071,-0.1903,0.0058,-2.371573110620016,4.155676691652843e-09,5.470322132110596,-1.0777050256729126,0.0909612774848938,2.424541473388672,5.365681397705831,-0.01177156250923872,0.3143654763698578,-2.059368912373678,0.001653747633099556,0.20050685107707977,0.24498939514160156,-0.0,-0.0022056326270103455,1.108055830001831,-0.015715721994638443,-0.9020899534225464
204.0,162.0,-5.7577,2.7846,7.7683,0.071,-0.1903,0.0058,-2.3716093502440394,1.0035470176215922e-14,5.469343662261963,-1.077168345451355,0.09456413239240646,2.4322566986083984,5.36570959070281,0.008971458300948143,0.3293423056602478,-2.059352699910299,0.0013340611476451159,0.21237418055534363,0.24504625797271729,-0.0,0.009073462337255478,1.1079154014587402,-0.01729598455131054,-0.9552409648895264
204.0,162.0,-5.7577,2.7846,7.7683,0.071,-0.1903,0.0058,-2.3716045818724574,-0.0009956271387636662,5.489284515380859,-1.0764299631118774,0.09938456863164902,2.4509999752044678,5.365760850697317,0.009455712512135506,0.3409774899482727,-2.0594332853900355,0.0009824811713770032,0.217646986246109,0.24498939514160156,-0.0,0.019622456282377243,1.1077873706817627,-0.019864432513713837,-0.9643881320953369
204.0,162.0,-5.7577,2.7846,7.7683,0.071,-0.1903,0.0058,-2.3716331921019496,-0.0010270948987454176,5.459271430969238,-1.0758122205734253,0.10010833293199539,2.46771502494812,5.365809726506033,0.00273907370865345,0.3256582021713257,-2.059385124837057,0.0006367906462401152,0.21645885705947876,0.24498076736927032,-0.0,0.009564409963786602,1.1076632738113403,-0.022499460726976395,-0.966418981552124
