ramyac6/ROB537/final_project/csv/all/good_186.csv
tof_0,tof_1,accelx,accely,accelz,gyrox,gyroy,gyroz,shoulder_lift_joint_position,shoulder_lift_joint_velocity,shoulder_lift_joint_effort,elbow_joint_position,elbow_joint_velocity,elbow_joint_effort,wrist_1_joint_position,wrist_1_joint_velocity,wrist_1_joint_effort,wrist_2_joint_position,wrist_2_joint_velocity,wrist_2_joint_effort,wrist_3_joint_position,wrist_3_joint_velocity,wrist_3_joint_effort,shoulder_pan_joint_position,shoulder_pan_joint_velocity,shoulder_pan_joint_effort
8190.0,8190.0,4.075,0.1561,8.4437,-0.0463,0.026,-0.1226,-1.5249388974956055,0.0,1.866443157196045,-1.2370977401733398,-0.0,2.1086294651031494,3.818967505092285,-0.0,0.29672756791114807,-1.596569840108053,-0.0,-0.007408502511680126,0.7881276607513428,0.0,-0.004957124590873718,0.7867009043693542,0.0,0.04135402664542198
8190.0,8190.0,4.075,0.1561,8.4437,-0.0463,0.026,-0.1226,-1.524943010216095,0.0,1.8544963598251343,-1.2371459007263184,-0.0,2.035543203353882,3.818972273463867,-0.0,0.30531710386276245,-1.5965655485736292,-0.0,-0.005137274041771889,0.7881438732147217,0.0,-0.003247973509132862,0.7867290377616882,0.0,-0.028144914656877518
8190.0,8190.0,4.075,0.1561,8.4437,-0.0463,0.026,-0.1226,-1.5249306944063683,0.0,1.8457318544387817,-1.237117886543274,-0.0,2.04885196685791,3.818919821376465,-0.0,0.29540228843688965,-1.596581761037008,-0.0,-0.007106752134859562,0.7881317138671875,0.0,-0.006073255091905594,0.7867171168327332,0.0,-0.008286663331091404
8190.0,8190.0,4.075,0.1561,8.4437,-0.0463,0.026,-0.1226,-1.5249107492021103,0.0,1.859985113143921,-1.2371457815170288,-0.0,2.08917236328125,3.8189360338398437,-0.0,0.28752782940864563,-1.5965741316424769,-0.0,-0.007676614448428154,0.7881035208702087,0.0,-0.004011273849755526,0.7867370247840881,0.0,-0.012572096660733223
8190.0,8190.0,4.075,0.1561,8.4437,-0.0463,0.026,-0.1226,-1.5249591742507,0.0,1.8878552913665771,-1.2371344566345215,-0.0,2.058229446411133,3.818915529842041,-0.0,0.2936103343963623,-1.5965898672686976,-0.0,0.002365593798458576,0.7880875468254089,0.0,-0.007842187769711018,0.7867048978805542,0.0,-0.03716546297073364
8190.0,8190.0,4.075,0.1561,8.4437,-0.0463,0.026,-0.1226,-1.5249429953149338,0.0,1.851902961730957,-1.2370734214782715,-0.0,2.0467681884765625,3.818947954768799,-0.0,0.29250863194465637,-1.5965536276446741,-0.0,0.003509934525936842,0.7881356477737427,0.0,0.0008476281072944403,0.7867089509963989,0.0,-0.002124355174601078
8190.0,8190.0,4.075,0.1561,8.4437,-0.0463,0.026,-0.1226,-1.524922863846161,0.0,1.8754000663757324,-1.23708176612854,-0.0,2.0247039794921875,3.818915529842041,-0.0,0.28815001249313354,-1.5965455214129847,-0.0,0.0007468713447451591,0.7881037592887878,0.0,0.00013326294720172882,0.786768913269043,0.0,-0.0004991756286472082
8190.0,8190.0,4.075,0.1561,8.4437,-0.0463,0.026,-0.1226,-1.5249187399498005,0.0,1.8555649518966675,-1.2370615005493164,-0.0,2.0768470764160156,3.8189355570026855,-0.0,0.30202025175094604,-1.5965774695025843,-0.0,-0.006473240442574024,0.7881398797035217,0.0,0.00039437063969671726,0.7867211103439331,0.0,-0.01728181168437004
8190.0,405.0,4.0684,0.1071,8.4407,-0.0363,0.0269,-0.1242,-1.5249147054604073,0.0,1.876692771911621,-1.2371220588684082,-0.0,2.0443625450134277,3.8188955026813964,-0.0,0.2894762456417084,-1.5966017881976526,-0.0,-0.0033481228165328503,0.7881679534912109,0.0,-0.0067257811315357685,0.7867611050605774,0.0,-0.00038996897637844086
8190.0,405.0,4.0684,0.1071,8.4407,-0.0363,0.0269,-0.1242,-1.5249710542014618,0.0,1.9029619693756104,-1.2371220588684082,-0.0,2.0431950092315674,3.8189641672321777,-0.0,0.3065272867679596,-1.5965741316424769,-0.0,0.0023517331574112177,0.7880718111991882,0.0,-0.0005852682515978813,0.7867370247840881,0.0,-0.0171616580337286
8190.0,405.0,4.0684,0.1071,8.4407,-0.0363,0.0269,-0.1242,-1.5249388974956055,0.0,1.8764629364013672,-1.237134337425232,-0.0,2.062697410583496,3.8189193445393066,-0.0,0.279228150844574,-1.5965779463397425,-0.0,-0.007923832163214684,0.7881357073783875,0.0,0.004418050404638052,0.7867410778999329,0.0,0.001734172459691763
8190.0,405.0,4.0684,0.1071,8.4407,-0.0363,0.0269,-0.1242,-1.5249228973737736,0.0,1.8582442998886108,-1.237109661102295,-0.0,2.0920610427856445,3.8189560610004882,-0.0,0.2969558537006378,-1.5965617338763636,-0.0,0.004109595902264118,0.7881397604942322,0.0,-0.0056966859847307205,0.7867211103439331,0.0,0.01558053120970726
8190.0,405.0,4.0684,0.1071,8.4407,-0.0363,0.0269,-0.1242,-1.5249833849123497,0.0,1.8621108531951904,-1.237141728401184,-0.0,2.094595432281494,3.8189517694660644,-0.0,0.2938702702522278,-1.5965617338763636,-0.0,-0.015117606148123741,0.788111686706543,0.0,0.0005503401043824852,0.7866848707199097,0.0,-0.017633244395256042
8190.0,405.0,4.0684,0.1071,8.4407,-0.0363,0.0269,-0.1242,-1.5249228712967415,0.0,1.8300175666809082,-1.2371056079864502,-0.0,2.059152603149414,3.818904085750244,-0.0,0.2932650148868561,-1.596597973500387,-0.0,-0.002654505195096135,0.7880957126617432,0.0,-0.015161512419581413,0.786768913269043,0.0,0.016307920217514038
8190.0,405.0,4.0684,0.1071,8.4407,-0.0363,0.0269,-0.1242,-1.5249269765666504,0.0,1.8768510818481445,-1.2370853424072266,-0.0,2.0975804328918457,3.8189517694660644,-0.0,0.28456395864486694,-1.5966103712665003,-0.0,-0.013635756447911263,0.7881076335906982,0.0,-0.0040320646949112415,0.7866770625114441,0.0,0.02209348976612091
8190.0,405.0,4.0684,0.1071,8.4407,-0.0363,0.0269,-0.1242,-1.5249550578049202,0.0,1.8776044845581055,-1.2371180057525635,-0.0,2.0711560249328613,3.81893174230542,-0.0,0.30848419666290283,-1.5965617338763636,-0.0,0.001569574698805809,0.7880678772926331,0.0,-0.0009348596213385463,0.7867211103439331,0.0,0.031053174287080765
8190.0,405.0,4.0684,0.1071,8.4407,-0.0363,0.0269,-0.1242,-1.5249389123967667,0.0,1.8611924648284912,-1.2370935678482056,-0.0,2.081418037414551,3.8189398485371093,-0.0,0.2766573429107666,-1.5965655485736292,-0.0,-0.003821930382400751,0.7880916595458984,0.0,-0.0032087857834994793,0.7867171168327332,0.0,0.010135078802704811
8190.0,405.0,4.0684,0.1071,8.4407,-0.0363,0.0269,-0.1242,-1.5249509376338501,0.0,1.8815515041351318,-1.2371467351913452,-0.0,2.0878326892852783,3.8189684587666015,-0.0,0.2895592749118805,-1.596569840108053,-0.0,-0.007649276405572891,0.7881758809089661,0.0,-0.001852012937888503,0.7867129445075989,0.0,-0.011620566248893738
8190.0,405.0,4.0684,0.1071,8.4407,-0.0363,0.0269,-0.1242,-1.5249228787473221,0.0,1.8729413747787476,-1.2370977401733398,-0.0,2.035917282104492,3.818947954768799,-0.0,0.28869664669036865,-1.5965288321124476,-0.0,-0.009542778134346008,0.7881398797035217,0.0,-0.017160892486572266,0.7867490649223328,0.0,-0.027910446748137474
8190.0,405.0,4.0684,0.1071,8.4407,-0.0363,0.0269,-0.1242,-1.524902594541647,0.0,1.8476728200912476,-1.237117886543274,-0.0,2.0753467082977295,3.8189236360737304,-0.0,0.2836849093437195,-1.596586052571432,-0.0,-0.01694023795425892,0.7881718277931213,0.0,-0.00848210696130991,0.7867330312728882,0.0,0.025719644501805305
8190.0,405.0,4.0684,0.1071,8.4407,-0.0363,0.0269,-0.1242,-1.5249429617873211,0.0,1.8773236274719238,-1.2371302843093872,-0.0,2.0949976444244385,3.81893174230542,-0.0,0.29997989535331726,-1.5965617338763636,-0.0,0.006777314934879541,0.7881317138671875,0.0,-0.006788503844290972,0.7867009043693542,0.0,-0.010391335003077984
8190.0,405.0,4.0684,0.1071,8.4407,-0.0363,0.0269,-0.1242,-1.5249751594713707,0.0,1.886325478553772,-1.237069845199585,-0.0,2.112781286239624,3.8189312654682617,-0.0,0.29662561416625977,-1.5965498129474085,-0.0,-0.004560715518891811,0.7881476879119873,0.0,-0.0006108812522143126,0.7866848707199097,0.0,0.03158574551343918
8190.0,405.0,4.0684,0.1071,8.4407,-0.0363,0.0269,-0.1242,-1.5249067184380074,0.0,1.854000210762024,-1.237126111984253,-0.0,2.056553840637207,3.8188997942158203,-0.0,0.30232560634613037,-1.5965574423419397,-0.0,-0.00718143954873085,0.7881317138671875,0.0,-0.010497784242033958,0.7867009043693542,0.0,0.013488851487636566
8190.0,8190.0,4.1001,0.1836,8.3677,-0.038,0.0275,-0.1197,-1.5249187511256714,0.0,1.8659155368804932,-1.2370775938034058,-0.0,2.0456786155700684,3.818939371699951,-0.0,0.2930241823196411,-1.5965655485736292,-0.0,-0.01697714999318123,0.7880997657775879,0.0,-0.007221648003906012,0.7867609858512878,0.0,-0.038830485194921494
8190.0,8190.0,4.1001,0.1836,8.3677,-0.038,0.0275,-0.1197,-1.5249632869711895,0.0,1.8869538307189941,-1.2370575666427612,-0.0,2.0575015544891357,3.818919821376465,-0.0,0.2959349453449249,-1.5965774695025843,-0.0,-0.004114065319299698,0.7881356477737427,0.0,-0.012625661678612232,0.7866929173469543,0.0,0.007686851546168327
8190.0,8190.0,4.1001,0.1836,8.3677,-0.038,0.0275,-0.1197,-1.5249429878643532,0.0,1.8333990573883057,-1.2370977401733398,-0.0,2.050502061843872,3.8189560610004882,-0.0,0.2963249683380127,-1.5965779463397425,-0.0,-0.0096452496945858,0.7880875468254089,0.0,-0.005603363737463951,0.7867211103439331,0.0,-0.0013067014515399933
8190.0,8190.0,4.1001,0.1836,8.3677,-0.038,0.0275,-0.1197,-1.5248703819564362,0.0,1.8824169635772705,-1.237109661102295,-0.0,2.0607306957244873,3.818927450770996,-0.0,0.28938236832618713,-1.5965936819659632,-0.0,-0.012592250481247902,0.7881276607513428,0.0,-0.0065479157492518425,0.7866928577423096,0.0,-0.03063308820128441
8190.0,8190.0,4.1001,0.1836,8.3677,-0.038,0.0275,-0.1197,-1.5249108050814648,0.0,1.8601008653640747,-1.2370775938034058,-0.0,2.0758655071258545,3.818927450770996,-0.0,0.295973539352417,-1.596586052571432,-0.0,-0.003802716499194503,0.788179874420166,0.0,-0.004083061125129461,0.7867369651794434,0.0,-0.03481306508183479
8190.0,8190.0,4.1001,0.1836,8.3677,-0.038,0.0275,-0.1197,-1.5249228973737736,0.0,1.8488348722457886,-1.2370657920837402,-0.0,2.034696340560913,3.818903608913086,-0.0,0.2973231077194214,-1.596557919179098,-0.0,-0.02094559371471405,0.788043737411499,0.0,-0.009694802574813366,0.7866848707199097,0.0,0.005449370946735144
8190.0,8190.0,4.1001,0.1836,8.3677,-0.038,0.0275,-0.1197,-1.5249311302653332,0.0,1.808040738105774,-1.2371416091918945,-0.0,2.039980411529541,3.818988009090088,-0.0,0.2860281765460968,-1.5965655485736292,-0.0,-0.00871386006474495,0.7881236672401428,0.0,-0.0038639791309833527,0.7866611480712891,0.0,0.02724001742899418
8190.0,8190.0,4.1001,0.1836,8.3677,-0.038,0.0275,-0.1197,-1.52494706705723,0.0,1.8742023706436157,-1.2370977401733398,-0.0,2.0668554306030273,3.818972273463867,-0.0,0.28926724195480347,-1.5965898672686976,-0.0,-0.014543688856065273,0.7880315184593201,0.0,-0.005466490052640438,0.7867211103439331,0.0,-0.012062938883900642
8190.0,8190.0,4.1001,0.1836,8.3677,-0.038,0.0275,-0.1197,-1.524955042903759,0.0,1.8006746768951416,-1.23708176612854,-0.0,2.079176902770996,3.818891687984131,-0.0,0.29604077339172363,-1.596569840108053,-0.0,-0.004800776485353708,0.7881276607513428,0.0,-0.004947770852595568,0.7867410778999329,0.0,0.033531807363033295
8190.0,8190.0,4.1001,0.1836,8.3677,-0.038,0.0275,-0.1197,-1.5249792796424408,0.0,1.9020012617111206,-1.2370935678482056,-0.0,2.0774691104888916,3.818927450770996,-0.0,0.297476589679718,-1.5965655485736292,-0.0,-0.01711476780474186,0.7881479263305664,0.0,-0.0101204514503479,0.7867330312728882,0.0,-0.01382424309849739
8190.0,8190.0,4.1001,0.1836,8.3677,-0.038,0.0275,-0.1197,-1.5249430288425465,0.0,1.8174171447753906,-1.237061619758606,-0.0,2.047755479812622,3.818939371699951,-0.0,0.29594919085502625,-1.5966060797320765,-0.0,-0.014410681091248989,0.7881398797035217,0.0,0.0030804788693785667,0.7867370247840881,0.0,-0.030935615301132202
8190.0,8190.0,4.1001,0.1836,8.3677,-0.038,0.0275,-0.1197,-1.5249269616654892,0.0,1.898781418800354,-1.2370935678482056,-0.0,2.0329172611236572,3.8188955026813964,-0.0,0.2901386320590973,-1.5965617338763636,-0.0,-0.00741605507209897,0.7881437540054321,0.0,0.005676502361893654,0.7867171764373779,0.0,0.027266349643468857
8190.0,8190.0,4.1001,0.1836,8.3677,-0.038,0.0275,-0.1197,-1.5249347251704712,0.0,1.8641152381896973,-1.2370895147323608,-0.0,2.0342624187469482,3.8188797670551757,-0.0,0.2889496982097626,-1.596569840108053,-0.0,-0.0027658056933432817,0.7881035208702087,0.0,-0.008951477706432343,0.7867089509963989,0.0,0.03153526037931442
8190.0,8190.0,4.1001,0.1836,8.3677,-0.038,0.0275,-0.1197,-1.5249468733421345,0.0,1.8624272346496582,-1.237109661102295,-0.0,2.053907871246338,3.818947954768799,-0.0,0.2939023971557617,-1.5965941588031214,-0.0,-0.012845848686993122,0.7881157398223877,0.0,-0.009151920676231384,0.7867330312728882,0.0,0.009904911741614342
8190.0,8190.0,4.1001,0.1836,8.3677,-0.038,0.0275,-0.1197,-1.5249351945570488,0.0,1.912613868713379,-1.237158179283142,-0.0,2.0583438873291016,3.818976564998291,-0.0,0.29471397399902344,-1.5965941588031214,-0.0,-0.00804391223937273,0.7881798148155212,0.0,-0.010259062051773071,0.7867048978805542,0.0,-0.04061199352145195
8190.0,8190.0,4.0959,0.1591,8.3533,-0.0376,0.0286,-0.1246,-1.5249269765666504,0.0,1.873647689819336,-1.2370812892913818,-0.0,2.0815227031707764,3.818972273463867,-0.0,0.29472535848617554,-1.5965774695025843,-0.0,-0.0019016714068129659,0.7881357669830322,0.0,0.006050138268619776,0.7867330312728882,0.0,0.03641464561223984
8190.0,8190.0,4.0959,0.1591,8.3533,-0.0376,0.0286,-0.1246,-1.5249347922256966,0.0,1.8681906461715698,-1.2371138334274292,-0.0,2.033107280731201,3.8189517694660644,-0.0,0.29408738017082214,-1.596586052571432,-0.0,-0.003543935716152191,0.7880876064300537,0.0,-0.010255260393023491,0.7867251634597778,0.0,-0.0018991939723491669
8190.0,8190.0,4.0959,0.1591,8.3533,-0.0376,0.0286,-0.1246,-1.5248947975090523,0.0,1.8372687101364136,-1.2370977401733398,-0.0,2.047715425491333,3.8189799028583984,-0.0,0.2921788692474365,-1.5965455214129847,-0.0,-0.007590221241116524,0.7881398797035217,0.0,-0.0027185119688510895,0.7867171764373779,0.0,-0.008438736200332642
8190.0,8190.0,4.0959,0.1591,8.3533,-0.0376,0.0286,-0.1246,-1.524955042903759,0.0,1.8919951915740967,-1.2370775938034058,-0.0,2.098335027694702,3.8189193445393066,-0.0,0.2994377613067627,-1.5965374151812952,-0.0,-0.0006384665612131357,0.7880997657775879,0.0,0.013627148233354092,0.7867330312728882,0.0,0.034811802208423615
8190.0,8190.0,4.0959,0.1591,8.3533,-0.0376,0.0286,-0.1246,-1.524922815417387,0.0,1.8314274549484253,-1.237109661102295,-0.0,2.0627288818359375,3.8189560610004882,-0.0,0.2902153730392456,-1.596597973500387,-0.0,-0.004941253922879696,0.7880841493606567,0.0,-0.003237907774746418,0.7867450714111328,0.0,-0.03664292022585869
8190.0,8190.0,4.0959,0.1591,8.3533,-0.0376,0.0286,-0.1246,-1.5249470745078106,0.0,1.9160619974136353,-1.2371056079864502,-0.0,2.06939435005188,3.818915529842041,-0.0,0.29687371850013733,-1.5965655485736292,-0.0,-0.000828691991046071,0.7881439328193665,0.0,-0.001758058089762926,0.7867450714111328,0.0,-0.035389482975006104
8190.0,8190.0,4.0959,0.1591,8.3533,-0.0376,0.0286,-0.1246,-1.5249389123967667,0.0,1.8681724071502686,-1.2371302843093872,-0.0,2.0360679626464844,3.818939371699951,-0.0,0.29125094413757324,-1.5966222921954554,-0.0,-0.011343215592205524,0.7881076335906982,0.0,0.00398434791713953,0.7867211103439331,0.0,-0.021839939057826996
8190.0,8190.0,4.0959,0.1591,8.3533,-0.0376,0.0286,-0.1246,-1.5249833588353177,0.0,1.8322992324829102,-1.2370977401733398,-0.0,2.0869972705841064,3.8189560610004882,-0.0,0.2911163568496704,-1.596581761037008,-0.0,-0.008377755992114544,0.788075864315033,0.0,-0.004628165625035763,0.7867171764373779,0.0,0.01352966483682394
8190.0,8190.0,4.0959,0.1591,8.3533,-0.0376,0.0286,-0.1246,-1.5249310967377205,0.0,1.8554415702819824,-1.23708176612854,-0.0,2.0938549041748047,3.81893174230542,-0.0,0.30655112862586975,-1.596597973500387,-0.0,-0.01764681562781334,0.788123607635498,0.0,-0.012362666428089142,0.786704957485199,0.0,-0.019521329551935196
8190.0,8190.0,4.0959,0.1591,8.3533,-0.0376,0.0286,-0.1246,-1.524995458578207,0.0,1.8401182889938354,-1.23708176612854,-0.0,2.0695674419403076,3.8189360338398437,-0.0,0.2950729727745056,-1.596569840108053,-0.0,-0.007417007349431515,0.7880917191505432,0.0,-0.010806865990161896,0.7867211103439331,0.0,-0.01464505959302187
8190.0,8190.0,4.0959,0.1591,8.3533,-0.0376,0.0286,-0.1246,-1.5249269765666504,0.0,1.8841664791107178,-1.2371302843093872,-0.0,2.0192646980285645,3.818927450770996,-0.0,0.28183797001838684,-1.596569840108053,-0.0,-0.01202809251844883,0.788080096244812,0.0,-0.009073924273252487,0.7867410182952881,0.0,0.010206545703113079
8190.0,8190.0,4.0959,0.1591,8.3533,-0.0376,0.0286,-0.1246,-1.5248664331487198,0.0,1.878767728805542,-1.2370895147323608,-0.0,2.0295591354370117,3.8189756113239746,-0.0,0.2865101397037506,-1.596586052571432,-0.0,-0.010005366988480091,0.7881357669830322,0.0,-0.0058425553143024445,0.7867330312728882,0.0,0.01774481125175953
8190.0,8190.0,4.0959,0.1591,8.3533,-0.0376,0.0286,-0.1246,-1.524955091332533,0.0,1.8607597351074219,-1.2370574474334717,-0.0,2.0919485092163086,3.8189117151447753,-0.0,0.3019798994064331,-1.5965455214129847,-0.0,-0.005756249651312828,0.7881518602371216,0.0,-0.009921138174831867,0.786745011806488,0.0,0.025432825088500977
8190.0,8190.0,4.0959,0.1591,8.3533,-0.0376,0.0286,-0.1246,-1.524931078111269,0.0,1.8248107433319092,-1.2370496988296509,-0.0,2.073645830154419,3.8189684587666015,-0.0,0.2946844696998596,-1.596569840108053,-0.0,0.002373122377321124,0.7881797552108765,0.0,-0.015033909119665623,0.7867089509963989,0.0,0.017581133171916008
8190.0,8190.0,4.0959,0.1591,8.3533,-0.0376,0.0286,-0.1246,-1.5249669042280694,0.0,1.857757568359375,-1.2371017932891846,-0.0,2.0336225032806396,3.818960352534912,-0.0,0.2979239523410797,-1.5966060797320765,-0.0,-0.0011370577849447727,0.7880957722663879,0.0,-0.01272035762667656,0.7867051959037781,0.0,-0.03084901161491871
8190.0,8190.0,4.0959,0.1591,8.3533,-0.0376,0.0286,-0.1246,-1.524947141563036,0.0,1.8533473014831543,-1.2371220588684082,-0.0,2.0316214561462402,3.8189961153217773,-0.0,0.2975533604621887,-1.596557919179098,-0.0,-0.01455547846853733,0.7881196141242981,0.0,0.007362929172813892,0.7867211103439331,0.0,0.01736518181860447
8190.0,8190.0,4.1521,0.1992,8.3791,-0.0441,0.0267,-0.1257,-1.524918758576252,0.0,1.8254722356796265,-1.2371017932891846,-0.0,2.062932014465332,3.8189756113239746,-0.0,0.2980213463306427,-1.5965655485736292,-0.0,-0.003375966101884842,0.7880921959877014,0.0,0.0012552454136312008,0.786700963973999,0.0,-0.02990270033478737
8190.0,8190.0,4.1521,0.1992,8.3791,-0.0441,0.0267,-0.1257,-1.5249389123967667,0.0,1.9045687913894653,-1.2370898723602295,-0.0,2.111384868621826,3.818943663234375,-0.0,0.29864636063575745,-1.5965455214129847,-0.0,-0.014192406088113785,0.7881036996841431,0.0,0.006384912878274918,0.7867570519447327,0.0,-0.012559694238007069
8190.0,8190.0,4.1521,0.1992,8.3791,-0.0441,0.0267,-0.1257,-1.5249228787473221,0.0,1.8496499061584473,-1.2371344566345215,-0.0,2.059643268585205,3.8189632135578613,-0.0,0.27939701080322266,-1.5965779463397425,-0.0,-0.013069161213934422,0.7881518602371216,0.0,-0.008615105412900448,0.7867251634597778,0.0,-0.014856216497719288
8190.0,8190.0,4.1521,0.1992,8.3791,-0.0441,0.0267,-0.1257,-1.5249710951796551,0.0,1.9074232578277588,-1.2371416091918945,-0.0,2.0751116275787354,3.8189560610004882,-0.0,0.2912023663520813,-1.5965741316424769,-0.0,0.0020251316018402576,0.788111686706543,0.0,-0.008322665467858315,0.7867211103439331,0.0,-0.05171431601047516
8190.0,8190.0,4.1521,0.1992,8.3791,-0.0441,0.0267,-0.1257,-1.5249389310232182,0.0,1.8293306827545166,-1.237028956413269,-0.0,2.0795888900756836,3.818903608913086,-0.0,0.2808001637458801,-1.5966137091266077,-0.0,-0.018703417852520943,0.7880917191505432,0.0,0.011001965962350368,0.7866730093955994,0.0,0.022825466468930244
8190.0,8190.0,4.1521,0.1992,8.3791,-0.0441,0.0267,-0.1257,-1.5248988692513485,0.0,1.8722448348999023,-1.237109661102295,-0.0,2.1036977767944336,3.81893174230542,-0.0,0.29662370681762695,-1.5965498129474085,-0.0,-0.007359737530350685,0.7880796194076538,0.0,0.0009489270159974694,0.7867369651794434,0.0,-0.010651566088199615
8190.0,8190.0,4.1521,0.1992,8.3791,-0.0441,0.0267,-0.1257,-1.5249347922256966,0.0,1.8405437469482422,-1.2371056079864502,-0.0,2.0495383739471436,3.8188997942158203,-0.0,0.2880706787109375,-1.596569840108053,-0.0,-0.008155511692166328,0.7881036996841431,0.0,-0.006672864779829979,0.7867330312728882,0.0,0.011169198900461197
8190.0,8190.0,4.1521,0.1992,8.3791,-0.0441,0.0267,-0.1257,-1.5249149029007931,0.0,1.874385118484497,-1.2371058464050293,-0.0,2.0263328552246094,3.818943663234375,-0.0,0.2908558249473572,-1.5965412298785608,-0.0,-0.0006781010306440294,0.7881798148155212,0.0,-0.009899226017296314,0.7867048978805542,0.0,0.018287532031536102
8190.0,8190.0,4.1521,0.1992,8.3791,-0.0441,0.0267,-0.1257,-1.5249429953149338,0.0,1.844265103340149,-1.2371704578399658,-0.0,2.038133144378662,3.8189641672321777,-0.0,0.288666695356369,-1.5965941588031214,-0.0,-0.011347994208335876,0.788123607635498,0.0,-0.012236114591360092,0.7867529988288879,0.0,-0.006662406027317047
8190.0,8190.0,4.1521,0.1992,8.3791,-0.0441,0.0267,-0.1257,-1.524918758576252,0.0,1.8504595756530762,-1.2370858192443848,-0.0,2.086077928543091,3.818915529842041,-0.0,0.286927193403244,-1.5966103712665003,-0.0,-0.0056953453458845615,0.7881115078926086,0.0,-0.016262101009488106,0.7867048978805542,0.0,-2.2025778889656067e-05
8190.0,8190.0,4.1521,0.1992,8.3791,-0.0441,0.0267,-0.1257,-1.5249710765532036,0.0,1.8991165161132812,-1.2371180057525635,-0.0,2.1050796508789062,3.81893174230542,-0.0,0.29289478063583374,-1.5965455214129847,-0.0,-0.005686591845005751,0.788123607635498,0.0,-0.007278081029653549,0.7867410182952881,0.0,-0.015646779909729958
8190.0,8190.0,4.1521,0.1992,8.3791,-0.0441,0.0267,-0.1257,-1.5249429580620308,0.0,1.848568081855774,-1.2371375560760498,-0.0,2.1121270656585693,3.818943663234375,-0.0,0.29427051544189453,-1.5965779463397425,-0.0,-0.004460303578525782,0.7881438732147217,0.0,0.0017159730195999146,0.786733090877533,0.0,-0.011457161977887154
8190.0,8190.0,4.1521,0.1992,8.3791,-0.0441,0.0267,-0.1257,-1.524950986062624,0.0,1.8647743463516235,-1.2371385097503662,-0.0,2.0749683380126953,3.81893174230542,-0.0,0.2890772223472595,-1.5965455214129847,-0.0,-0.003173422534018755,0.7881195545196533,0.0,-0.005606488324701786,0.7867211103439331,0.0,0.015279363840818405
8190.0,8190.0,4.1521,0.1992,8.3791,-0.0441,0.0267,-0.1257,-1.5249107976308842,0.0,1.8777976036071777,-1.2371344566345215,-0.0,2.075995922088623,3.8189236360737304,-0.0,0.2932593822479248,-1.5966060797320765,-0.0,-0.009522630833089352,0.788127601146698,0.0,-0.01756010763347149,0.7866849303245544,0.0,0.05956323817372322
8190.0,8190.0,4.1521,0.1992,8.3791,-0.0441,0.0267,-0.1257,-1.524906699811556,0.0,1.8976383209228516,-1.2371344566345215,-0.0,2.0902721881866455,3.818976564998291,-0.0,0.2903766334056854,-1.5965655485736292,-0.0,-0.00724737998098135,0.7880876660346985,0.0,0.006431996822357178,0.7867129445075989,0.0,-0.027198994532227516
8190.0,8190.0,4.0989,0.1466,8.3815,-0.0356,0.0238,-0.1213,-1.5249310669353981,0.0,1.8746545314788818,-1.2370858192443848,-0.0,2.1079535484313965,3.8189756113239746,-0.0,0.3016393184661865,-1.5965736548053187,-0.0,0.00484167505055666,0.7880598902702332,0.0,-0.008593241684138775,0.7866849899291992,0.0,0.024864843115210533
8190.0,8190.0,4.0989,0.1466,8.3815,-0.0356,0.0238,-0.1213,-1.5249187660268326,0.0,1.8585667610168457,-1.23708176612854,-0.0,2.072415828704834,3.8188835817524414,-0.0,0.30299296975135803,-1.596569840108053,-0.0,-0.0045373402535915375,0.7881637811660767,0.0,-0.0016189181478694081,0.7867171168327332,0.0,0.03448999300599098
8190.0,8190.0,4.0989,0.1466,8.3815,-0.0356,0.0238,-0.1213,-1.5249429766884823,0.0,1.8632102012634277,-1.237109661102295,-0.0,2.035715103149414,3.8189074236103515,-0.0,0.2827703654766083,-1.5965622107135218,-0.0,-0.007404269650578499,0.7881476879119873,0.0,0.0009340657852590084,0.7866929173469543,0.0,-0.0218664538115263
8190.0,8190.0,4.0989,0.1466,8.3815,-0.0356,0.0238,-0.1213,-1.524947115486004,0.0,1.8210996389389038,-1.237117886543274,-0.0,2.074803113937378,3.8189756113239746,-0.0,0.29534250497817993,-1.596557919179098,-0.0,-0.0057157110422849655,0.7880558371543884,0.0,0.0020773515570908785,0.7867211103439331,0.0,-0.03120844066143036
8190.0,8190.0,4.0989,0.1466,8.3815,-0.0356,0.0238,-0.1213,-1.5248907071403046,0.0,1.8512957096099854,-1.2371017932891846,-0.0,2.087371826171875,3.8189398485371093,-0.0,0.2861388325691223,-1.5965331236468714,-0.0,-0.0004872309509664774,0.7881597876548767,0.0,-0.00977502204477787,0.7867089509963989,0.0,-0.03030671924352646
8190.0,8190.0,4.0989,0.1466,8.3815,-0.0356,0.0238,-0.1213,-1.5249146682075043,0.0,1.8471194505691528,-1.2370734214782715,-0.0,2.046628713607788,3.8189517694660644,-0.0,0.2987661361694336,-1.5965736548053187,-0.0,0.003541934536769986,0.7880957722663879,0.0,-0.007366545498371124,0.7867330312728882,0.0,0.012983592227101326
8190.0,8190.0,4.0989,0.1466,8.3815,-0.0356,0.0238,-0.1213,-1.5249509525350113,0.0,1.844541311264038,-1.2370496988296509,-0.0,2.036777973175049,3.8189074236103515,-0.0,0.28308045864105225,-1.5966060797320765,-0.0,-0.004812919069081545,0.7881194949150085,0.0,-0.002841518260538578,0.7867370247840881,0.0,-0.006339177954941988
8190.0,8190.0,4.0989,0.1466,8.3815,-0.0356,0.0238,-0.1213,-1.5249550391784688,0.0,1.8417272567749023,-1.2370574474334717,-0.0,2.0275683403015137,3.8188950258442382,-0.0,0.3010004162788391,-1.5965774695025843,-0.0,-0.009937354363501072,0.7881155014038086,0.0,0.007517615798860788,0.786700963973999,0.0,-0.03659432753920555
8190.0,8190.0,4.0989,0.1466,8.3815,-0.0356,0.0238,-0.1213,-1.5249751892736931,0.0,1.868342399597168,-1.2371056079864502,-0.0,2.059842109680176,3.818984194392822,-0.0,0.298584520816803,-1.5965898672686976,-0.0,-0.00725710391998291,0.7881196141242981,0.0,-0.012312810868024826,0.7866929173469543,0.0,-0.003909354098141193
8190.0,8190.0,4.0989,0.1466,8.3815,-0.0356,0.0238,-0.1213,-1.5249669452062626,0.0,1.881582260131836,-1.2371302843093872,-0.0,2.0550053119659424,3.81893174230542,-0.0,0.2884979248046875,-1.596557919179098,-0.0,-0.021443868055939674,0.7880877256393433,0.0,0.006474246270954609,0.7867048978805542,0.0,0.025301242247223854
8190.0,8190.0,4.0989,0.1466,8.3815,-0.0356,0.0238,-0.1213,-1.5249509376338501,0.0,1.8489453792572021,-1.2370660305023193,-0.0,2.0983965396881104,3.818959875697754,-0.0,0.3023953437805176,-1.5965536276446741,-0.0,-0.0042576235719025135,0.7880439758300781,0.0,0.0090301763266325,0.7867330312728882,0.0,0.02959314174950123
8190.0,8190.0,4.0989,0.1466,8.3815,-0.0356,0.0238,-0.1213,-1.5249228973737736,0.0,1.9014033079147339,-1.2371056079864502,-0.0,2.104949951171875,3.81893174230542,-0.0,0.29223284125328064,-1.5965774695025843,-0.0,-0.005560053046792746,0.7881316542625427,0.0,-0.00961232464760542,0.7867410182952881,0.0,0.008619572967290878
8190.0,8190.0,4.0989,0.1466,8.3815,-0.0356,0.0238,-0.1213,-1.524955091332533,0.0,1.8587050437927246,-1.2371056079864502,-0.0,2.0615968704223633,3.818988009090088,-0.0,0.2899863123893738,-1.5965536276446741,-0.0,-0.010021807625889778,0.7881195545196533,0.0,-0.010867933742702007,0.7867410182952881,0.0,0.05131933465600014
8190.0,8190.0,4.0989,0.1466,8.3815,-0.0356,0.0238,-0.1213,-1.5249388714185734,0.0,1.8833980560302734,-1.2371623516082764,-0.0,2.0343728065490723,3.818927450770996,-0.0,0.3007822334766388,-1.5965288321124476,-0.0,-0.012284323573112488,0.7880721092224121,0.0,-0.002711649751290679,0.7866730093955994,0.0,-0.014584587886929512
8190.0,8190.0,4.0989,0.1466,8.3815,-0.0356,0.0238,-0.1213,-1.524979231213667,0.0,1.8585861921310425,-1.23708176612854,-0.0,2.0439884662628174,3.8189517694660644,-0.0,0.2842802107334137,-1.596569840108053,-0.0,-0.002788697835057974,0.7881438136100769,0.0,-0.008333029225468636,0.7867211103439331,0.0,-0.005062456708401442
8190.0,529.0,4.0899,0.1639,8.3384,-0.0447,0.0247,-0.1269,-1.5249351535788556,0.0,1.912184238433838,-1.2371058464050293,-0.0,2.080986976623535,3.8189074236103515,-0.0,0.2893468737602234,-1.5965898672686976,-0.0,-0.01224980317056179,0.788111686706543,0.0,0.0012863284209743142,0.7867609858512878,0.0,-0.02803712524473667
8190.0,529.0,4.0899,0.1639,8.3384,-0.0447,0.0247,-0.1269,-1.524930679505207,0.0,1.8693253993988037,-1.2370574474334717,-0.0,2.070406675338745,3.8189398485371093,-0.0,0.28407934308052063,-1.5966180006610315,-0.0,-0.009374061599373817,0.7881478071212769,0.0,-0.002841025358065963,0.786704957485199,0.0,0.0026419619098305702
8190.0,529.0,4.0899,0.1639,8.3384,-0.0447,0.0247,-0.1269,-1.5249189858189602,0.0,1.8331173658370972,-1.2370895147323608,-0.0,2.026256561279297,3.8189517694660644,-0.0,0.2989710569381714,-1.596557919179098,-0.0,-0.015447143465280533,0.7881195545196533,0.0,0.001165639841929078,0.7867251634597778,0.0,-0.02888832613825798
8190.0,529.0,4.0899,0.1639,8.3384,-0.0447,0.0247,-0.1269,-1.5249347698739548,0.0,1.8627631664276123,-1.2371138334274292,-0.0,2.05289888381958,3.818904085750244,-0.0,0.2941857576370239,-1.5966103712665003,-0.0,0.007252177223563194,0.7881036400794983,0.0,-0.0115295285359025,0.7867211103439331,0.0,0.0042063770815730095
8190.0,529.0,4.0899,0.1639,8.3384,-0.0447,0.0247,-0.1269,-1.524950986062624,0.0,1.8511168956756592,-1.2371017932891846,-0.0,2.0940253734588623,3.8189713197895507,-0.0,0.2976309657096863,-1.596586052571432,-0.0,-0.01744551584124565,0.7881196141242981,0.0,-0.011464165523648262,0.7866929173469543,0.0,-0.013305343687534332
8190.0,529.0,4.0899,0.1639,8.3384,-0.0447,0.0247,-0.1269,-1.5249550764313717,0.0,1.9025988578796387,-1.2371220588684082,-0.0,2.0642035007476807,3.818927450770996,-0.0,0.29013416171073914,-1.5965898672686976,-0.0,-0.005280802026391029,0.788091778755188,0.0,-0.010436778888106346,0.7867330312728882,0.0,-0.039519526064395905
8190.0,529.0,4.0899,0.1639,8.3384,-0.0447,0.0247,-0.1269,-1.5249107976308842,0.0,1.8435332775115967,-1.2371383905410767,-0.0,1.9957938194274902,3.818891687984131,-0.0,0.2947779893875122,-1.596557919179098,-0.0,0.0015551011310890317,0.7880877256393433,0.0,-0.00988124031573534,0.7866888642311096,0.0,-0.007869843393564224
8190.0,529.0,4.0899,0.1639,8.3384,-0.0447,0.0247,-0.1269,-1.524950986062624,0.0,1.8814866542816162,-1.2370693683624268,-0.0,2.024200916290283,3.818967505092285,-0.0,0.2943395972251892,-1.596581761037008,-0.0,-0.018986403942108154,0.7880837321281433,0.0,-0.004511904902756214,0.7867251038551331,0.0,-0.015419814735651016
8190.0,529.0,4.0899,0.1639,8.3384,-0.0447,0.0247,-0.1269,-1.524918758576252,0.0,1.8696084022521973,-1.2370977401733398,-0.0,2.099303722381592,3.818927450770996,-0.0,0.28659746050834656,-1.5965936819659632,-0.0,-0.005758323706686497,0.7880997657775879,0.0,0.004474230110645294,0.7867048978805542,0.0,-0.007016084622591734
8190.0,529.0,4.0899,0.1639,8.3384,-0.0447,0.0247,-0.1269,-1.5249149029007931,0.0,1.869164228439331,-1.237069845199585,-0.0,2.095301628112793,3.8189150530048828,-0.0,0.30011335015296936,-1.5965741316424769,-0.0,-0.016087470576167107,0.788091778755188,0.0,-0.00748418690636754,0.7866929173469543,0.0,0.041457291692495346
8190.0,529.0,4.0899,0.1639,8.3384,-0.0447,0.0247,-0.1269,-1.5249269616654892,0.0,1.9001080989837646,-1.2371344566345215,-0.0,2.029719829559326,3.8189641672321777,-0.0,0.3028675615787506,-1.5965293089496058,-0.0,-0.017979156225919724,0.7881478071212769,0.0,-0.012216462753713131,0.786768913269043,0.0,0.03520500287413597
8190.0,529.0,4.0899,0.1639,8.3384,-0.0447,0.0247,-0.1269,-1.5249269616654892,0.0,1.8726450204849243,-1.237073540687561,-0.0,2.0017569065093994,3.81901661931958,-0.0,0.2856948971748352,-1.5965898672686976,-0.0,-0.005996552295982838,0.7881116271018982,0.0,-0.00017181457951664925,0.786729097366333,0.0,-0.016304202377796173
8190.0,529.0,4.0899,0.1639,8.3384,-0.0447,0.0247,-0.1269,-1.5249187399498005,0.0,1.8890256881713867,-1.2370977401733398,-0.0,2.092954635620117,3.8189117151447753,-0.0,0.299439400434494,-1.5965893904315394,-0.0,-0.013518710620701313,0.7880877256393433,0.0,-0.011089927516877651,0.7867369651794434,0.0,-0.028608515858650208
8190.0,529.0,4.0899,0.1639,8.3384,-0.0447,0.0247,-0.1269,-1.5249025796404858,0.0,1.8969216346740723,-1.23708176612854,-0.0,2.056009292602539,3.818983717555664,-0.0,0.29944902658462524,-1.5965374151812952,-0.0,-0.0031284077558666468,0.7881355285644531,0.0,-0.0035588210448622704,0.7867089509963989,0.0,-0.06635736674070358
8190.0,529.0,4.0899,0.1639,8.3384,-0.0447,0.0247,-0.1269,-1.5249632944217701,0.0,1.858464241027832,-1.237078070640564,-0.0,2.0709071159362793,3.8189360338398437,-0.0,0.285474568605423,-1.596597973500387,-0.0,-0.0010761613957583904,0.7881195545196533,0.0,0.0021492443047463894,0.7867171764373779,0.0,0.009096820838749409
8190.0,8190.0,4.1019,0.1238,8.3994,-0.0383,0.0166,-0.1182,-1.524963279520609,0.0,1.861563801765442,-1.237141728401184,-0.0,2.070218086242676,3.8189684587666015,-0.0,0.2938961386680603,-1.596586052571432,-0.0,-0.00448221992701292,0.788091778755188,0.0,-0.00561358779668808,0.786716878414154,0.0,0.03494904190301895
8190.0,8190.0,4.1019,0.1238,8.3994,-0.0383,0.0166,-0.1182,-1.5249351945570488,0.0,1.8853695392608643,-1.2370738983154297,-0.0,2.0867528915405273,3.818915529842041,-0.0,0.2928370237350464,-1.5965536276446741,-0.0,-0.019012566655874252,0.7880762219429016,0.0,0.0014534664805978537,0.7867048978805542,0.0,-0.00023162271827459335
8190.0,8190.0,4.1019,0.1238,8.3994,-0.0383,0.0166,-0.1182,-1.5249228452197094,0.0,1.8912220001220703,-1.2371101379394531,-0.0,2.082001209259033,3.818960352534912,-0.0,0.2748073637485504,-1.596569840108053,-0.0,-0.0015723749529570341,0.7881315350532532,0.0,-0.00487641803920269,0.7867171764373779,0.0,0.016798842698335648
8190.0,8190.0,4.1019,0.1238,8.3994,-0.0383,0.0166,-0.1182,-1.5249189671925087,0.0,1.851461410522461,-1.2371220588684082,-0.0,2.086611270904541,3.818899317378662,-0.0,0.2990483045578003,-1.5965655485736292,-0.0,-0.010696787387132645,0.7881438136100769,0.0,-0.00852273404598236,0.7867089509963989,0.0,-0.011964105069637299
8190.0,8190.0,4.1019,0.1238,8.3994,-0.0383,0.0166,-0.1182,-1.5248703819564362,0.0,1.8555595874786377,-1.237061619758606,-0.0,2.0800938606262207,3.8189074236103515,-0.0,0.28606337308883667,-1.596557919179098,-0.0,-0.006413470953702927,0.788111686706543,0.0,-0.004164369776844978,0.7866730093955994,0.0,-0.0036097653210163116
8190.0,8190.0,4.1019,0.1238,8.3994,-0.0383,0.0166,-0.1182,-1.524906699811556,0.0,1.8839325904846191,-1.237109661102295,-0.0,2.041501522064209,3.8189074236103515,-0.0,0.29494228959083557,-1.5965898672686976,-0.0,-0.00165588001254946,0.788091778755188,0.0,-0.004756483249366283,0.7867410182952881,0.0,-0.012893352657556534
8190.0,8190.0,4.1019,0.1238,8.3994,-0.0383,0.0166,-0.1182,-1.5249831651202221,0.0,1.8819358348846436,-1.2371302843093872,-0.0,2.015155792236328,3.8188673692890625,-0.0,0.2916369140148163,-1.5965936819659632,-0.0,-0.0007550101727247238,0.7880598902702332,0.0,-0.0003345673030707985,0.786713182926178,0.0,0.024493759498000145
8190.0,8190.0,4.1019,0.1238,8.3994,-0.0383,0.0166,-0.1182,-1.524979294543602,0.0,1.8843474388122559,-1.2370895147323608,-0.0,2.0371882915496826,3.8189684587666015,-0.0,0.28394076228141785,-1.5965655485736292,-0.0,-0.009757079184055328,0.7881516814231873,0.0,-0.0053524901159107685,0.7867251634597778,0.0,0.010770783759653568
8190.0,8190.0,4.1019,0.1238,8.3994,-0.0383,0.0166,-0.1182,-1.5249551099589844,0.0,1.8426365852355957,-1.2371302843093872,-0.0,2.080324172973633,3.818943663234375,-0.0,0.2847541272640228,-1.596513573323385,-0.0,-0.013419429771602154,0.7881354689598083,0.0,-0.00490016583353281,0.7867089509963989,0.0,0.00991805549710989
8190.0,8190.0,4.1019,0.1238,8.3994,-0.0383,0.0166,-0.1182,-1.5249831092408677,0.0,1.8385441303253174,-1.2371541261672974,-0.0,2.1120667457580566,3.8189360338398437,-0.0,0.29739686846733093,-1.5966060797320765,-0.0,-0.0020090921316295862,0.7880921363830566,0.0,-0.010148459114134312,0.7867171764373779,0.0,0.017958033829927444
8190.0,8190.0,4.1019,0.1238,8.3994,-0.0383,0.0166,-0.1182,-1.5249269616654892,0.0,1.8701472282409668,-1.2371344566345215,-0.0,2.0222573280334473,3.8189360338398437,-0.0,0.29787999391555786,-1.5965622107135218,-0.0,-0.005787856876850128,0.788091778755188,0.0,0.00012570183025673032,0.7867211103439331,0.0,0.02165025658905506
8190.0,8190.0,4.1019,0.1238,8.3994,-0.0383,0.0166,-0.1182,-1.5249347773245354,0.0,1.8575003147125244,-1.2371058464050293,-0.0,2.036245822906494,3.81893174230542,-0.0,0.2904714047908783,-1.5966060797320765,-0.0,-0.010257899761199951,0.7881438136100769,0.0,0.014327685348689556,0.786700963973999,0.0,0.03338500112295151
8190.0,8190.0,4.1019,0.1238,8.3994,-0.0383,0.0166,-0.1182,-1.524922863846161,0.0,1.8763582706451416,-1.2370977401733398,-0.0,2.087639331817627,3.8189117151447753,-0.0,0.29280194640159607,-1.5965574423419397,-0.0,-0.0056722331792116165,0.7880842089653015,0.0,-0.0005841167876496911,0.7867369651794434,0.0,0.01933034136891365
8190.0,8190.0,4.1019,0.1238,8.3994,-0.0383,0.0166,-0.1182,-1.524943010216095,0.0,1.8849661350250244,-1.2371138334274292,-0.0,2.0225915908813477,3.818983717555664,-0.0,0.29732415080070496,-1.5966013113604944,-0.0,-0.011804165318608284,0.7881516814231873,0.0,-0.012436684221029282,0.7867330312728882,0.0,-0.017186056822538376
8190.0,8190.0,4.1019,0.1238,8.3994,-0.0383,0.0166,-0.1182,-1.5249389123967667,0.0,1.8678455352783203,-1.237073540687561,-0.0,2.070183753967285,3.818960352534912,-0.0,0.27201807498931885,-1.596586052571432,-0.0,-0.008985974825918674,0.7881315350532532,0.0,-0.0006585915107280016,0.7867251634597778,0.0,-0.02198765054345131
8190.0,8190.0,4.0594,0.1059,8.5304,-0.0469,0.0173,-0.1214,-1.5249107641032715,0.0,1.903548240661621,-1.23708176612854,-0.0,2.1198415756225586,3.8189236360737304,-0.0,0.28794190287590027,-1.5965374151812952,-0.0,-7.26534053683281e-05,0.7880997657775879,0.0,0.005201071500778198,0.7867171764373779,0.0,-0.03577440232038498
8190.0,8190.0,4.0594,0.1059,8.5304,-0.0469,0.0173,-0.1214,-1.5249311079135914,0.0,1.916379690170288,-1.2370734214782715,-0.0,2.0535495281219482,3.8189398485371093,-0.0,0.30054742097854614,-1.5966017881976526,-0.0,-0.017918072640895844,0.7881357669830322,0.0,-0.0003101350739598274,0.7867089509963989,0.0,0.04933304339647293
8190.0,8190.0,4.0594,0.1059,8.5304,-0.0469,0.0173,-0.1214,-1.524955091332533,0.0,1.8423597812652588,-1.2371220588684082,-0.0,2.0833840370178223,3.818915529842041,-0.0,0.29070723056793213,-1.5965936819659632,-0.0,-0.01107055600732565,0.7881834506988525,0.0,-0.009983259253203869,0.7867211103439331,0.0,-0.025072194635868073
8190.0,8190.0,4.0594,0.1059,8.5304,-0.0469,0.0173,-0.1214,-1.5249591556242486,0.0,1.9188668727874756,-1.237109661102295,-0.0,2.065670967102051,3.818927450770996,-0.0,0.2991369068622589,-1.5965655485736292,-0.0,-0.0013061894569545984,0.788155734539032,0.0,-0.002736578928306699,0.7867171764373779,0.0,0.06724514067173004
8190.0,8190.0,4.0594,0.1059,8.5304,-0.0469,0.0173,-0.1214,-1.5249591556242486,0.0,1.8826165199279785,-1.2370977401733398,-0.0,2.0111401081085205,3.818927450770996,-0.0,0.2907749116420746,-1.5966017881976526,-0.0,-0.010253972373902798,0.7881357669830322,0.0,-0.01683637499809265,0.786716878414154,0.0,0.007848072797060013
8190.0,8190.0,4.0594,0.1059,8.5304,-0.0469,0.0173,-0.1214,-1.5249429878643532,0.0,1.8579320907592773,-1.2370935678482056,-0.0,2.0891621112823486,3.818943663234375,-0.0,0.2852046489715576,-1.596581761037008,-0.0,-0.00919369887560606,0.788091778755188,0.0,0.004840295761823654,0.7867330312728882,0.0,0.015423065051436424
8190.0,8190.0,4.0594,0.1059,8.5304,-0.0469,0.0173,-0.1214,-1.5249228563955803,0.0,1.862923502922058,-1.2371056079864502,-0.0,2.064915180206299,3.818891687984131,-0.0,0.28779706358909607,-1.596557919179098,-0.0,0.0007974142208695412,0.7880957722663879,0.0,-0.006998772732913494,0.7867211103439331,0.0,0.019902242347598076
8190.0,8190.0,4.0594,0.1059,8.5304,-0.0469,0.0173,-0.1214,-1.5249228973737736,0.0,1.843301773071289,-1.2371344566345215,-0.0,2.0324244499206543,3.8189799028583984,-0.0,0.2678370773792267,-1.596581761037008,-0.0,-0.010966665111482143,0.7881315350532532,0.0,-0.009095128625631332,0.7867048978805542,0.0,-0.027858741581439972
8190.0,8190.0,4.0594,0.1059,8.5304,-0.0469,0.0173,-0.1214,-1.524926984017231,0.0,1.8771679401397705,-1.2371059656143188,-0.0,2.035161256790161,3.818947954768799,-0.0,0.29105108976364136,-1.5965898672686976,-0.0,-0.014446046203374863,0.7881278395652771,0.0,0.003938969224691391,0.786729097366333,0.0,-0.015301467850804329
8190.0,8190.0,4.0594,0.1059,8.5304,-0.0469,0.0173,-0.1214,-1.5248865385404606,0.0,1.886730432510376,-1.237117886543274,-0.0,2.0784354209899902,3.818915529842041,-0.0,0.29081597924232483,-1.596557919179098,-0.0,0.014877690002322197,0.7881354093551636,0.0,-0.005676145665347576,0.7867529988288879,0.0,-0.006905012298375368
8190.0,8190.0,4.0594,0.1059,8.5304,-0.0469,0.0173,-0.1214,-1.5249146607569237,0.0,1.8894379138946533,-1.2371385097503662,-0.0,2.099099636077881,3.8189641672321777,-0.0,0.28352484107017517,-1.596557919179098,-0.0,-0.007725341245532036,0.7880640029907227,0.0,0.0049140844494104385,0.7866849303245544,0.0,0.02195028029382229
8190.0,8190.0,4.0594,0.1059,8.5304,-0.0469,0.0173,-0.1214,-1.5249429878643532,0.0,1.8606667518615723,-1.2370935678482056,-0.0,2.0727481842041016,3.8189517694660644,-0.0,0.2955870032310486,-1.5965374151812952,-0.0,-0.007647269405424595,0.788111686706543,0.0,-0.0084994500502944,0.7867171764373779,0.0,-0.02141735330224037
8190.0,8190.0,4.0594,0.1059,8.5304,-0.0469,0.0173,-0.1214,-1.5249388974956055,0.0,1.9006989002227783,-1.2371056079864502,-0.0,2.007749080657959,3.818875475520752,-0.0,0.29702919721603394,-1.596513573323385,-0.0,-0.007658523041754961,0.7881238460540771,0.0,-0.0037487701047211885,0.7867171764373779,0.0,0.0027249008417129517
8190.0,8190.0,4.0594,0.1059,8.5304,-0.0469,0.0173,-0.1214,-1.5249550578049202,0.0,1.887522578239441,-1.237126111984253,-0.0,2.118373155593872,3.8188797670551757,-0.0,0.2960841953754425,-1.5965574423419397,-0.0,-0.005757475271821022,0.7880918383598328,0.0,-6.402307190001011e-05,0.7867211103439331,0.0,0.011685125529766083
8190.0,8190.0,4.0594,0.1059,8.5304,-0.0469,0.0173,-0.1214,-1.5249025870910664,0.0,1.8983911275863647,-1.237158179283142,-0.0,2.077033281326294,3.8189517694660644,-0.0,0.30348336696624756,-1.5965941588031214,-0.0,-0.01424403116106987,0.788123607635498,0.0,-0.009487771429121494,0.7867129445075989,0.0,-0.0032620681449770927
8190.0,446.0,4.325,0.1825,8.1882,-0.0333,0.0363,-0.1229,-1.5249149029007931,0.0,1.8395540714263916,-1.2371344566345215,-0.0,2.069833278656006,3.8189117151447753,-0.0,0.2963930070400238,-1.5965898672686976,-0.0,-0.0051404740661382675,0.7881036400794983,0.0,0.002053294563665986,0.7867410182952881,0.0,0.016865111887454987
8190.0,446.0,4.325,0.1825,8.1882,-0.0333,0.0363,-0.1229,-1.524922863846161,0.0,1.8404839038848877,-1.2371220588684082,-0.0,2.063236951828003,3.8188997942158203,-0.0,0.2901804447174072,-1.5966017881976526,-0.0,0.0013725482858717442,0.7881315350532532,0.0,0.0002974721137434244,0.7867729067802429,0.0,0.014491993933916092
8190.0,446.0,4.325,0.1825,8.1882,-0.0333,0.0363,-0.1229,-1.5249351610294362,0.0,1.8643717765808105,-1.237117886543274,-0.0,2.069162607192993,3.818947954768799,-0.0,0.2938985228538513,-1.596581761037008,-0.0,-0.0014901559334248304,0.788139820098877,0.0,-0.001593725522980094,0.786764919757843,0.0,-0.0013118558563292027
8190.0,446.0,4.325,0.1825,8.1882,-0.0333,0.0363,-0.1229,-1.5249714788845559,0.0,1.8547885417938232,-1.237109661102295,-0.0,2.0785484313964844,3.818943663234375,-0.0,0.293623685836792,-1.5965617338763636,-0.0,-0.01793813332915306,0.7880682349205017,0.0,-0.01294146478176117,0.7867048978805542,0.0,-0.007314029149711132
8190.0,446.0,4.325,0.1825,8.1882,-0.0333,0.0363,-0.1229,-1.5249067184380074,0.0,1.8443864583969116,-1.2371138334274292,-0.0,2.062549591064453,3.8189684587666015,-0.0,0.29419800639152527,-1.596597973500387,-0.0,-0.0008564015151932836,0.788127601146698,0.0,-0.017272621393203735,0.7867929339408875,0.0,-0.013377606868743896
8190.0,446.0,4.325,0.1825,8.1882,-0.0333,0.0363,-0.1229,-1.5249471080354233,0.0,1.8562746047973633,-1.2371302843093872,-0.0,2.061681032180786,3.818943663234375,-0.0,0.28561604022979736,-1.5966180006610315,-0.0,-0.011588783003389835,0.788139820098877,0.0,-0.0017215200932696462,0.7866770029067993,0.0,-0.02301611378788948
8190.0,446.0,4.325,0.1825,8.1882,-0.0333,0.0363,-0.1229,-1.5249269616654892,0.0,1.8872509002685547,-1.2371262311935425,-0.0,2.0502676963806152,3.818939371699951,-0.0,0.28630948066711426,-1.5965617338763636,-0.0,0.001902089104987681,0.7881156802177429,0.0,-0.0025050067342817783,0.7866889238357544,0.0,0.013279981911182404
8190.0,446.0,4.325,0.1825,8.1882,-0.0333,0.0363,-0.1229,-1.5249429506114502,0.0,1.8678345680236816,-1.23708176612854,-0.0,2.0038435459136963,3.8189360338398437,-0.0,0.28315842151641846,-1.5965574423419397,-0.0,-0.008124354295432568,0.7880642414093018,0.0,-0.01459270715713501,0.7867251634597778,0.0,-0.02722017839550972
8190.0,446.0,4.325,0.1825,8.1882,-0.0333,0.0363,-0.1229,-1.5248906661621113,0.0,1.8809521198272705,-1.2371302843093872,-0.0,2.0735416412353516,3.8189074236103515,-0.0,0.2843244969844818,-1.5965455214129847,-0.0,-0.014400091022253036,0.7881077527999878,0.0,0.004409726709127426,0.7867008447647095,0.0,0.02152147889137268
8190.0,446.0,4.325,0.1825,8.1882,-0.0333,0.0363,-0.1229,-1.5249269281378766,0.0,1.8781105279922485,-1.237101435661316,-0.0,2.0667595863342285,3.8189961153217773,-0.0,0.306155264377594,-1.5965412298785608,-0.0,-0.001658325782045722,0.7881077527999878,0.0,-0.011401548981666565,0.7867409586906433,0.0,0.02310977317392826
8190.0,446.0,4.325,0.1825,8.1882,-0.0333,0.0363,-0.1229,-1.5249591891518612,0.0,1.8641082048416138,-1.2370657920837402,-0.0,2.104201316833496,3.8189074236103515,-0.0,0.3055039942264557,-1.596525017415182,-0.0,-0.0039694528095424175,0.788111686706543,0.0,-0.019040362909436226,0.7867450714111328,0.0,-0.03400825709104538
8190.0,446.0,4.325,0.1825,8.1882,-0.0333,0.0363,-0.1229,-1.524931078111269,-6.228093041293903e-10,1.849195957183838,-1.2370693683624268,-0.0,2.0521864891052246,3.818903608913086,-0.0,0.2932244539260864,-1.5965498129474085,-0.0,0.0003266285639256239,0.7881275415420532,0.0,0.0008944958681240678,0.786700963973999,0.0,-0.021489351987838745
8190.0,446.0,4.325,0.1825,8.1882,-0.0333,0.0363,-0.1229,-1.5249594312957306,-1.5040108652651673e-15,1.8617236614227295,-1.237126111984253,-0.0,2.0331101417541504,3.8189799028583984,-0.0,0.29820504784584045,-1.5966218153582972,-0.0,-0.003652532584965229,0.7880918383598328,0.0,0.0026698645669966936,0.7867089509963989,0.0,0.012792941182851791
8190.0,446.0,4.325,0.1825,8.1882,-0.0333,0.0363,-0.1229,-1.524927244787552,0.0006699325749650598,1.9077057838439941,-1.2370898723602295,-0.0,2.054591178894043,3.8189961153217773,-0.0,0.2962316870689392,-1.5965941588031214,-0.0,-0.0059331669472157955,0.7880679965019226,0.0,0.0033541498705744743,0.786684513092041,0.0,0.018297316506505013
8190.0,446.0,4.325,0.1825,8.1882,-0.0333,0.0363,-0.1229,-1.5248950471035023,0.0007336263661272824,1.8511312007904053,-1.2370495796203613,-6.6884369154252e-09,2.068598747253418,3.8189560610004882,-0.0,0.2902282774448395,-1.5965936819659632,-0.0,-0.018842853605747223,0.7880997657775879,0.0,0.002028709277510643,0.786704957485199,0.0,-0.027430705726146698
8190.0,507.0,3.7406,-0.3547,8.476,-0.0365,0.0089,-0.1155,-1.524887291049101,0.0014009027509018779,1.8464539051055908,-1.2370412349700928,-1.615178836218787e-14,2.028618097305298,3.818972273463867,-0.0,0.293703556060791,-1.596609894429342,-0.0,-0.008139210753142834,0.7881437540054321,0.0,-0.00020793708972632885,0.7866771221160889,0.0,0.03513338789343834
8190.0,507.0,3.7406,-0.3547,8.476,-0.0365,0.0089,-0.1155,-1.5248711009374638,0.001666101161390543,1.8623814582824707,-1.2370495796203613,-3.9004671040346597e-20,2.116607666015625,3.818903608913086,-0.0,0.29554709792137146,-1.5965455214129847,-0.0,-0.004817347042262554,0.7880958318710327,0.0,-0.01283408422023058,0.7866889238357544,0.0,-0.0221378393471241
8190.0,507.0,3.7406,-0.3547,8.476,-0.0365,0.0089,-0.1155,-1.5248752322844048,0.001591897220350802,1.8522956371307373,-1.2370858192443848,-9.419168690173987e-26,2.0643868446350098,3.818904085750244,-0.0,0.2935523986816406,-1.5965655485736292,-0.0,-0.016087640076875687,0.7881476879119873,0.0,0.002286277711391449,0.7867010235786438,0.0,0.0322260707616806
8190.0,507.0,3.7406,-0.3547,8.476,-0.0365,0.0089,-0.1155,-1.5248026561788102,0.0009582076454535127,1.9169459342956543,-1.2371059656143188,-2.274618479363742e-31,2.09310245513916,3.818988009090088,-0.0,0.289884477853775,-1.596626106892721,-0.0,-0.006919623352587223,0.7881437540054321,0.0,-0.0032896888442337513,0.7866809964179993,0.0,0.020154811441898346
8190.0,507.0,3.7406,-0.3547,8.476,-0.0365,0.0089,-0.1155,-1.524859220986702,0.0005843656836077571,1.8395706415176392,-1.2370898723602295,-5.49293572521833e-37,2.0599958896636963,3.8190042215534667,-0.0,0.29339665174484253,-1.5965412298785608,-0.0,-0.01280350424349308,0.788123607635498,0.0,-0.015309726819396019,0.7866889238357544,0.0,0.002969257067888975
8190.0,507.0,3.7406,-0.3547,8.476,-0.0365,0.0089,-0.1155,-1.5249312457493325,0.00033636705484241247,1.8950181007385254,-1.23708176612854,-1.3270296457156018e-42,2.0673341751098633,3.8189193445393066,-0.0,0.2992575466632843,-1.5965898672686976,-0.0,-0.010825983248651028,0.7881515622138977,0.0,-0.01954442821443081,0.7866929173469543,0.0,0.008166046813130379
8190.0,507.0,3.7406,-0.3547,8.476,-0.0365,0.0089,-0.1155,-1.524891411220171,0.00026270540547557175,1.8499295711517334,-1.2370775938034058,-0.0,2.099451780319214,3.8189799028583984,-0.0,0.29012709856033325,-1.5965617338763636,-0.0,-0.0165706779807806,0.788107693195343,0.0,-0.009648583829402924,0.7867449522018433,0.0,0.05013250559568405
8190.0,507.0,3.7406,-0.3547,8.476,-0.0365,0.0089,-0.1155,-1.5248872575214882,0.0001616373920114711,1.8877918720245361,-1.23708176612854,-0.0,2.0785622596740723,3.8189727503010253,-0.0,0.2944835424423218,-1.596609894429342,-0.0,-0.00618060864508152,0.7880842089653015,0.0,0.001425330643542111,0.786716878414154,0.0,-0.01683972030878067
8190.0,507.0,3.7406,-0.3547,8.476,-0.0365,0.0089,-0.1155,-1.524859183733799,0.00013702431169804186,1.8944556713104248,-1.2370898723602295,-0.0,2.042123794555664,3.818927450770996,-0.0,0.28778818249702454,-1.596569840108053,-0.0,-0.0015437934780493379,0.788167417049408,0.0,0.004122622776776552,0.7866889238357544,0.0,-0.02482621558010578
8190.0,507.0,3.7406,-0.3547,8.476,-0.0365,0.0089,-0.1155,-1.5248592247119923,0.00011891727626789361,1.881661057472229,-1.2370693683624268,-0.0,2.054845094680786,3.8189517694660644,-0.0,0.29150810837745667,-1.5965936819659632,-0.0,-0.0043430938385427,0.7881476879119873,0.0,-0.015402420423924923,0.7867171764373779,0.0,-0.010709504596889019
8190.0,507.0,3.7406,-0.3547,8.476,-0.0365,0.0089,-0.1155,-1.5249194514802475,0.00010503798694116995,1.8583532571792603,-1.2371784448623657,-0.0,2.077012538909912,3.8189360338398437,-0.0,0.2828553318977356,-1.5965655485736292,-0.0,-0.006831675302237272,0.7881438136100769,0.0,-0.015925602987408638,0.7866969108581543,0.0,-0.007930178195238113
8190.0,507.0,3.7406,-0.3547,8.476,-0.0365,0.0089,-0.1155,-1.524895441984274,-7.013476715655997e-05,1.8805921077728271,-1.2371302843093872,-0.0,2.0747435092926025,3.818960352534912,-0.0,0.2991205155849457,-1.5965498129474085,-0.0,-0.005295633804053068,0.7880799770355225,0.0,-0.005069831386208534,0.7867050766944885,0.0,0.008784007281064987
8190.0,507.0,3.7406,-0.3547,8.476,-0.0365,0.0089,-0.1155,-1.524859232162573,-0.00015325455751735717,1.8985661268234253,-1.2370332479476929,-0.0,2.0852580070495605,3.8189641672321777,-0.0,0.283905029296875,-1.5965412298785608,-0.0,-0.011614568531513214,0.788123607635498,0.0,1.3939803466200829e-05,0.7866927981376648,0.0,0.0023508230224251747
8190.0,507.0,3.7406,-0.3547,8.476,-0.0365,0.0089,-0.1155,-1.524927244787552,-0.0008559551788493991,1.8769481182098389,-1.2371262311935425,-0.0,2.0813677310943604,3.818959875697754,-0.0,0.3024854063987732,-1.5965331236468714,-0.0,-0.017450235784053802,0.788139820098877,0.0,-0.00846785306930542,0.786700963973999,-0.0003335739020258188,0.023143330588936806
8190.0,507.0,3.7406,-0.3547,8.476,-0.0365,0.0089,-0.1155,-1.5249715645662327,-0.0018594070570543408,1.9051263332366943,-1.2371467351913452,-0.0,2.032179355621338,3.8189117151447753,-3.3481944683444453e-07,0.2931814193725586,-1.596581761037008,-0.0,0.0020127929747104645,0.7881195545196533,0.0,-0.005873842164874077,0.78665691614151,-0.00033793222974054515,-0.01275323610752821
8190.0,507.0,3.7406,-0.3547,8.476,-0.0365,0.0089,-0.1155,-1.5249067184380074,-0.0019259194377809763,1.8168445825576782,-1.2371220588684082,-0.0,2.0596961975097656,3.818920298213623,-9.319822691367108e-11,0.2793971300125122,-1.5965536276446741,-0.0,0.0016694968799129128,0.7881275415420532,0.0,-0.014148920774459839,0.7866927981376648,-0.00029903335962444544,-0.011967532336711884
8190.0,8190.0,3.9135,-0.2518,8.339,-0.0487,0.0371,-0.1147,-1.5249868270805855,-0.0019169218139722943,1.872650146484375,-1.237125277519226,-3.423132875468582e-05,2.081051826477051,3.8189079004475097,-2.594206791116209e-14,0.29850202798843384,-1.5965412298785608,-0.0,-0.008110158145427704,0.7881437540054321,0.0,0.00423178868368268,0.7866849899291992,-0.0002564287278801203,0.0039888666942715645
8190.0,8190.0,3.9135,-0.2518,8.339,-0.0487,0.0371,-0.1147,-1.5249587272158642,-0.002770486520603299,1.8286080360412598,-1.2371779680252075,-4.878179242950864e-05,2.067028045654297,3.8188792902180175,-0.0006211742875166237,0.29707852005958557,-1.596586052571432,-0.0,-0.012101514264941216,0.7881036400794983,0.0,-0.008232586085796356,0.7867010235786438,-0.00022445109789259732,-0.0009837737306952477
8190.0,8190.0,3.9135,-0.2518,8.339,-0.0487,0.0371,-0.1147,-1.5250390034965058,-0.0036901149433106184,1.8857008218765259,-1.237161636352539,-6.169671542011201e-05,2.0275299549102783,3.8188845354267578,-0.0005764086963608861,0.28870105743408203,-1.5965455214129847,-0.0,-0.004508942365646362,0.7880601286888123,0.0,-0.017155911773443222,0.7866808772087097,-0.00019956497999373823,0.005416569299995899
8190.0,8190.0,3.9135,-0.2518,8.339,-0.0487,0.0371,-0.1147,-1.525026635532715,-0.005191938020288944,1.8888556957244873,-1.2371898889541626,-7.332960376515985e-05,2.1206085681915283,3.818835421199463,-0.0005653675179928541,0.2987506091594696,-1.5965741316424769,-0.0,-0.010821541771292686,0.7880997657775879,0.0,0.0005746686947531998,0.7866849899291992,-0.0002360018261242658,-0.007970293052494526
8190.0,8190.0,3.9135,-0.2518,8.339,-0.0487,0.0371,-0.1147,-1.5250746992281456,-0.005696724634617567,1.8591601848602295,-1.2372100353240967,-0.0003359391412232071,2.086585521697998,3.818859739894531,-0.0005350411520339549,0.2900124788284302,-1.5965779463397425,-0.0,-0.009966036304831505,0.7881314754486084,0.0,-0.007691080681979656,0.7867134213447571,-0.00029292210820131004,-0.0075662508606910706
8190.0,8190.0,3.9135,-0.2518,8.339,-0.0487,0.0371,-0.1147,-1.5251427453807374,-0.005287514999508858,1.8846821784973145,-1.2370848655700684,-0.0003322572447359562,2.055476427078247,3.818880243892334,-0.0004281398723833263,0.30008065700531006,-1.5965455214129847,-0.0,0.006410419009625912,0.7881354093551636,0.0,-0.012330085039138794,0.7866652011871338,-0.0011312238639220595,-0.007938060909509659
8190.0,8190.0,3.9135,-0.2518,8.339,-0.0487,0.0371,-0.1147,-1.525194765334465,-0.00505015067756176,1.8941140174865723,-1.237149953842163,-0.00028067189850844443,2.1166114807128906,3.818840189571045,-0.000406280072638765,0.28594738245010376,-1.5965455214129847,-0.0,-0.0009818831458687782,0.7881433367729187,0.0,-0.005002016667276621,0.7866529822349548,-0.0010522892698645592,-0.003886342514306307
8190.0,8190.0,3.9135,-0.2518,8.339,-0.0487,0.0371,-0.1147,-1.525202741180994,-0.006219127215445042,1.907285451889038,-1.2371737957000732,-0.00024280781508423388,2.0928711891174316,3.8188115793415527,-0.00034753422369249165,0.28868231177330017,-1.596529785786764,-0.0,0.0019634757190942764,0.7881275415420532,0.0,-0.01322094164788723,0.7866652607917786,-0.0009191130520775914,-0.053378600627183914
8190.0,8190.0,3.9135,-0.2518,8.339,-0.0487,0.0371,-0.1147,-1.5252667416683217,-0.006720498204231262,1.8330047130584717,-1.2371817827224731,-0.0002496044326107949,2.0440542697906494,3.818887873286865,-0.0003035654663108289,0.29182305932044983,-1.596529785786764,-0.0,-0.017354816198349,0.7881036996841431,0.0,0.002740506548434496,0.7866405844688416,-0.0006382818100973964,-0.04654509574174881
8190.0,8190.0,3.9135,-0.2518,8.339,-0.0487,0.0371,-0.1147,-1.5252783720246335,-0.006753049325197935,1.8600690364837646,-1.2371054887771606,-0.00022308681218419224,2.092965602874756,3.818859739894531,-0.0002694741706363857,0.3013404607772827,-1.5965421835528772,-0.0,-0.017907630652189255,0.7881156206130981,0.0,-0.01848018169403076,0.7866529226303101,-0.00044765681377612054,-0.033545397222042084
8190.0,8190.0,3.9135,-0.2518,8.339,-0.0487,0.0371,-0.1147,-1.5253464740565796,-0.005494250915944576,1.879455327987671,-1.2371619939804077,-0.0002016629878198728,2.057675361633301,3.818904085750244,-0.00021403080609161407,0.29623153805732727,-1.5965493361102503,-0.0,-0.007053656969219446,0.7881117463111877,0.0,-0.0075163403525948524,0.7866488695144653,-0.00034473530831746757,0.02643522620201111
8190.0,8190.0,3.9135,-0.2518,8.339,-0.0487,0.0371,-0.1147,-1.525362254386284,-0.004386521875858307,1.845870018005371,-1.2371940612792969,-0.00018399421242065728,2.0851781368255615,3.818864031428955,-0.00019254702783655375,0.2871031165122986,-1.5965259710894983,-0.0,0.0014393874444067478,0.7880759239196777,0.0,-0.0112486332654953,0.7866126298904419,-0.00028030105750076473,0.02259899117052555
8190.0,8190.0,3.9135,-0.2518,8.339,-0.0487,0.0371,-0.1147,-1.5254185621491452,-0.004488387145102024,1.833528757095337,-1.2370973825454712,-7.221426494652405e-05,2.0286765098571777,3.8188792902180175,-7.776171696605161e-05,0.2971024513244629,-1.5965140501605433,-0.0,-0.010535632260143757,0.7880641222000122,0.0,-0.004418112803250551,0.7866730093955994,-0.00014236732386052608,-0.048471853137016296
8190.0,8190.0,3.9135,-0.2518,8.339,-0.0487,0.0371,-0.1147,-1.5254866567305108,-0.005217324942350388,1.8598086833953857,-1.237149953842163,-6.441375444410369e-05,2.0457522869110107,3.8188959795185546,-2.8917538656969555e-05,0.2875348925590515,-1.5965054670916956,-0.0,-0.009432528167963028,0.7880799174308777,0.0,-0.013790126889944077,0.7866849899291992,0.00024310968001373112,0.0232570618391037
8190.0,8190.0,3.9135,-0.2518,8.339,-0.0487,0.0371,-0.1147,-1.5255021092346688,-0.007521606981754303,1.8929908275604248,-1.2371294498443604,-5.8168912801193073e-05,2.1087169647216797,3.8189355570026855,-8.049303446000522e-09,0.2964523434638977,-1.5964859167682093,-0.0,-0.005615706089884043,0.7880798578262329,0.0,-0.00869754608720541,0.7867491245269775,0.0027941951993852854,-0.015493233688175678
8190.0,497.0,2.8505,0.7789,8.4808,0.0174,0.0249,-0.1197,-1.5255742979100724,-0.009437290020287037,1.8392095565795898,-1.237125277519226,-5.302777935867198e-05,2.0484275817871094,3.818988009090088,-2.2405530122199258e-12,0.2989044785499573,-1.596478287373678,-0.0,0.0005552595248445868,0.7880958318710327,0.0,-0.0008919206447899342,0.7868136763572693,0.005393722094595432,0.029294198378920555
8190.0,497.0,2.8505,0.7789,8.4808,0.0174,0.0249,-0.1197,-1.5256583255580445,-0.012839337810873985,1.8641834259033203,-1.237126111984253,-4.872174031333998e-05,2.06721830368042,3.818967505092285,0.0009255582699552178,0.29029199481010437,-1.5965178648578089,-0.0,-0.024359915405511856,0.7881116271018982,0.0,-0.001431031501851976,0.7868009209632874,0.008494731970131397,0.0016394555568695068
8190.0,497.0,2.8505,0.7789,8.4808,0.0174,0.0249,-0.1197,-1.525746365343668,-0.014693903736770153,1.910895824432373,-1.2371375560760498,-4.50625411758665e-05,2.0876688957214355,3.818943663234375,0.0006164205260574818,0.29497694969177246,-1.5965216795550745,-0.0,-0.0051515968516469,0.7880086302757263,0.0,-0.005159731954336166,0.7869133949279785,0.010450134985148907,0.014411401003599167
8190.0,497.0,2.8505,0.7789,8.4808,0.0174,0.0249,-0.1197,-1.5258702983013173,-0.016042720526456833,1.852947473526001,-1.2371820211410522,-4.1914554458344355e-05,2.0728554725646973,3.8189560610004882,0.0005300406483002007,0.29855597019195557,-1.596490208302633,-0.0,-0.023210439831018448,0.7880800366401672,0.0,-0.010589763522148132,0.7869529724121094,0.010940504260361195,0.006318024359643459
8190.0,497.0,2.8505,0.7789,8.4808,0.0174,0.0249,-0.1197,-1.525970024322607,-0.015302889049053192,1.8611421585083008,-1.2371702194213867,-3.9177659346023574e-05,2.0639986991882324,3.8189355570026855,0.0004266232717782259,0.3080938756465912,-1.596529785786764,-0.0,-0.012238764204084873,0.7881275415420532,0.0,-0.003739855717867613,0.7869892716407776,0.010133377276360989,0.016107190400362015
8190.0,497.0,2.8505,0.7789,8.4808,0.0174,0.0249,-0.1197,-1.5260861602476616,-0.014901727437973022,1.8345274925231934,-1.2371619939804077,-3.677640052046627e-05,2.0534608364105225,3.8189560610004882,0.00032758357701823115,0.3011888563632965,-1.5965021292315882,-0.0,-0.01622699946165085,0.7881036400794983,0.0,-0.005025907419621944,0.787024974822998,0.008252223953604698,0.006046750117093325
8190.0,497.0,2.8505,0.7789,8.4808,0.0174,0.0249,-0.1197,-1.5262025122395535,-0.016100341454148293,1.8626165390014648,-1.2371138334274292,-3.465239569777623e-05,2.076220989227295,3.818999930019043,0.0003580456832423806,0.31222325563430786,-1.5965021292315882,-0.0,-0.009795141406357288,0.7880842089653015,0.0,-0.003933958243578672,0.7870853543281555,0.0049762786366045475,0.01738772913813591
8190.0,497.0,2.8505,0.7789,8.4808,0.0174,0.0249,-0.1197,-1.5262738478234787,-0.016451092436909676,1.8695290088653564,-1.2371779680252075,-3.276038114563562e-05,2.0477209091186523,3.8189875322529296,0.0007183767738752067,0.3053436875343323,-1.5965383688556116,-0.0,-0.02225870080292225,0.7880759239196777,0.0,-0.012258239090442657,0.7870771288871765,0.002376302843913436,0.009174199774861336
8190.0,497.0,2.8505,0.7789,8.4808,0.0174,0.0249,-0.1197,-1.526425977503397,-0.019518356770277023,1.8884952068328857,-1.2371097803115845,-3.1064304494066164e-05,2.0398287773132324,3.8190037447163085,0.0012706550769507885,0.31027141213417053,-1.59650165239443,-0.0,-0.012621873058378696,0.7880802750587463,0.0,-0.004464185796678066,0.7871132493019104,0.0013743736781179905,0.0813070684671402
8190.0,497.0,2.8505,0.7789,8.4808,0.0174,0.0249,-0.1197,-1.5265577521971245,-0.02489725686609745,1.8123266696929932,-1.2371180057525635,-2.953517650894355e-05,2.0533862113952637,3.8190762239643554,0.0018834290094673634,0.2965359687805176,-1.5965178648578089,-0.0,-0.00781069602817297,0.7880522012710571,0.0,-0.016497023403644562,0.787113606929779,0.0008736492018215358,0.0121835358440876
8190.0,497.0,2.8505,0.7789,8.4808,0.0174,0.0249,-0.1197,-1.5267618720284482,-0.030327264219522476,1.913659691810608,-1.2371820211410522,-2.8149526769993827e-05,2.0706992149353027,3.8190433222004394,0.002059018239378929,0.30536115169525146,-1.5964816252337855,-0.0,-0.029870666563510895,0.7880640029907227,0.0,-0.01403153594583273,0.7871256470680237,0.0006403973675332963,-0.015732944011688232
8190.0,497.0,2.8505,0.7789,8.4808,0.0174,0.0249,-0.1197,-1.5269370202771206,-0.036160051822662354,1.8377331495285034,-1.2371660470962524,-4.0332128264708444e-05,2.0714192390441895,3.819063826198242,0.0013142990646883845,0.3170855641365051,-1.5965264479266565,-0.0,-0.01689862087368965,0.7881155610084534,0.0,-0.014707817696034908,0.7870970964431763,0.0004040938802063465,0.01331463735550642
8190.0,497.0,2.8505,0.7789,8.4808,0.0174,0.0249,-0.1197,-1.5271974217942734,-0.04388285055756569,1.8735661506652832,-1.2371940612792969,-3.860226206597872e-05,2.1064705848693848,3.8190275865742187,0.0007644918514415622,0.3014059066772461,-1.5965259710894983,-0.0,-0.020013535395264626,0.7880921363830566,0.0,-0.018108531832695007,0.787081241607666,0.00028383664903230965,-0.0014426307752728462
8190.0,497.0,2.8505,0.7789,8.4808,0.0174,0.0249,-0.1197,-1.527493019854166,-0.051614925265312195,1.8353079557418823,-1.2371180057525635,-3.7014688132330775e-05,2.113029956817627,3.8190318781086425,0.000619130558334291,0.29485607147216797,-1.5965140501605433,-0.0,-0.013492531143128872,0.7880517244338989,0.0,-0.005140555091202259,0.7870729565620422,0.00019289406191091985,0.02058950439095497
8190.0,497.0,2.8505,0.7789,8.4808,0.0174,0.0249,-0.1197,-1.5278088462403794,-0.05891478806734085,1.8054921627044678,-1.2371702194213867,-3.555255534593016e-05,2.0710175037384033,3.819080038661621,0.00048189389053732157,0.2933296859264374,-1.5964935461627405,-0.0,-0.01906423643231392,0.7880881428718567,0.0,-0.011078900657594204,0.7870652675628662,0.00016472280549351126,0.03566799312829971
8190.0,397.0,2.8618,0.1364,7.794,-0.0205,-0.0263,-0.124,-1.5281926293722172,-0.06656842678785324,1.812047004699707,-1.2371976375579834,-3.420147913857363e-05,2.0834665298461914,3.819023295039795,0.0003925296477973461,0.30740174651145935,-1.5965340773211878,-0.0,-0.02521926537156105,0.7880997657775879,0.0,-0.00837928056716919,0.7871094346046448,0.00010863025818252936,-0.002331152092665434
8190.0,397.0,2.8618,0.1364,7.794,-0.0205,-0.0263,-0.124,-1.5286766935935994,-0.07732748240232468,1.848703145980835,-1.237125277519226,-3.294939597253688e-05,2.1002626419067383,3.819035692805908,0.00010796016431413591,0.31467655301094055,-1.5965140501605433,-0.0,-0.025349143892526627,0.7880717515945435,0.0,-0.006757225841283798,0.787081241607666,-0.00011855819320771843,0.030485820025205612
8190.0,397.0,2.8618,0.1364,7.794,-0.0205,-0.0263,-0.124,-1.5291681711426754,-0.08779798448085785,1.8380813598632812,-1.2371495962142944,-3.178574479534291e-05,2.0828990936279297,3.8190719324299316,9.143933129962534e-05,0.3033286929130554,-1.596529785786764,-0.0,-0.020393986254930496,0.788084089756012,0.0,-0.017905570566654205,0.7870652079582214,-0.0001479193160776049,0.016313467174768448
8190.0,397.0,2.8618,0.1364,7.794,-0.0205,-0.0263,-0.124,-1.5297319304994126,-0.09830738604068756,1.7910491228103638,-1.2371861934661865,-3.070144884986803e-05,2.084465265274048,3.8190108972736816,7.934391032904387e-05,0.31051239371299744,-1.596489731465475,-0.0,-0.01465686596930027,0.7880997657775879,0.0,-0.014124942943453789,0.7870816588401794,-0.00017000350635498762,0.03062380477786064
8190.0,397.0,2.8618,0.1364,7.794,-0.0205,-0.0263,-0.124,-1.5303676661900063,-0.10406792163848877,1.838104009628296,-1.237133502960205,-1.0131936505786143e-05,2.069995880126953,3.8190719324299316,7.007525709923357e-05,0.3173326551914215,-1.5965216795550745,-0.0,-0.020358307287096977,0.788084089756012,0.0,-0.00539013184607029,0.7871135473251343,-0.00018619417096488178,0.02185535803437233
8190.0,397.0,2.8618,0.1364,7.794,-0.0205,-0.0263,-0.124,-1.5310107891312619,-0.10801767557859421,1.7963716983795166,-1.237133502960205,1.2703429092653096e-05,2.0374369621276855,3.8190719324299316,6.274569022934884e-05,0.31094789505004883,-1.5965264479266565,-0.0,-0.014887770637869835,0.7880874276161194,0.0,-0.0075247823260724545,0.7871015071868896,-0.0003292795445304364,0.013126274570822716
8190.0,397.0,2.8618,0.1364,7.794,-0.0205,-0.0263,-0.124,-1.5316822168282052,-0.10439036041498184,1.805179238319397,-1.2371821403503418,1.2189223525638226e-05,2.0724689960479736,3.819023295039795,5.6804739870131016e-05,0.3041110932826996,-1.5964978376971644,-0.0,-0.019665254279971123,0.7881481051445007,0.0,-0.002851428696885705,0.7870852947235107,-0.0002700214390642941,0.0025282285641878843
8190.0,397.0,2.8618,0.1364,7.794,-0.0205,-0.0263,-0.124,-1.5323494722000142,-0.10195980221033096,1.8390717506408691,-1.2371537685394287,8.619716745927875e-11,2.122737169265747,3.8190151888081054,5.18914675922133e-05,0.2999139726161957,-1.5964935461627405,-0.0,-0.0002634366974234581,0.7881119847297668,0.0,-0.020778821781277657,0.7870734930038452,-0.00022882471967022866,0.018619712442159653
8190.0,397.0,2.8618,0.1364,7.794,-0.0205,-0.0263,-0.124,-1.5330007274499913,-0.11036300659179688,1.7892539501190186,-1.2371456623077393,2.0815603068202916e-16,2.090104818344116,3.81897942602124,2.5482022465439513e-05,0.2889232635498047,-1.5964778105365198,-0.0,-0.01984424889087677,0.7880759239196777,0.0,-0.002747749909758568,0.787113606929779,-0.00019853550475090742,-0.057481564581394196
8190.0,397.0,2.8618,0.1364,7.794,-0.0205,-0.0263,-0.124,-1.5337843869677563,-0.12522800266742706,1.7582693099975586,-1.2372422218322754,-0.0013868991518393159,2.0335211753845215,3.8190676408955078,2.21198788494803e-05,0.29030245542526245,-1.5965178648578089,-0.0,-0.002163336845114827,0.7881722450256348,0.0,-0.0278763547539711,0.7870852947235107,-0.00017532805213704705,0.016766367480158806
8190.0,397.0,2.8618,0.1364,7.794,-0.0205,-0.0263,-0.124,-1.534555972819664,-0.14105567336082458,1.8070656061172485,-1.2371734380722046,-0.0011036600917577744,2.0358617305755615,3.8189593988605957,6.157149901042658e-09,0.3094569742679596,-1.5964816252337855,-0.0,0.0018438519909977913,0.7880595922470093,0.0,-0.002619877690449357,0.7870612144470215,-0.00015697874187026173,-0.015428873710334301
8190.0,397.0,2.8618,0.1364,7.794,-0.0205,-0.0263,-0.124,-1.5353270818344136,-0.1499021351337433,1.7615991830825806,-1.2371697425842285,-0.0006614249432459474,2.044074535369873,3.8190275865742187,1.7138650524814447e-12,0.289661169052124,-1.596546475087301,-0.0,-0.016847727820277214,0.7880915999412537,0.0,0.009624741971492767,0.7870489358901978,-0.00017052785551641136,-0.03138401731848717
8190.0,397.0,2.8618,0.1364,7.794,-0.0205,-0.0263,-0.124,-1.5362706047347565,-0.15143007040023804,1.7432146072387695,-1.2371779680252075,-4.0050422285276e-06,2.055150032043457,3.8190318781086425,4.770606555362059e-16,0.29344359040260315,-1.5965259710894983,-0.0,-0.009167380630970001,0.7881157994270325,0.0,0.002187620149925351,0.7870571613311768,-0.00020733480050694197,-0.025904880836606026
8190.0,397.0,2.8618,0.1364,7.794,-0.0205,-0.0263,-0.124,-1.5370814774981518,-0.14194735884666443,1.7339236736297607,-1.237109661102295,-9.6717044095751e-12,2.0495645999908447,3.8190480905720214,1.3279159473256515e-19,0.28298479318618774,-1.5965097586261194,-0.0,-0.00402921624481678,0.7880915999412537,0.0,-0.004752042703330517,0.787032961845398,-0.00019115138275083154,-0.0921785831451416
8190.0,397.0,2.8618,0.1364,7.794,-0.0205,-0.0263,-0.124,-1.5380052302828808,-0.1377391219139099,1.7623790502548218,-1.2371779680252075,-2.335603189366965e-17,2.0202271938323975,3.8189875322529296,3.6963027502660394e-23,0.29487675428390503,-1.596457306538717,-0.0,0.006562055088579655,0.7880874276161194,0.0,-0.016407432034611702,0.787081241607666,-0.00015522311150562018,-0.05388501286506653
1076.0,8190.0,3.6796,-0.0455,8.0219,-0.027,-0.1825,-0.1249,-1.5389122527888794,-0.14342555403709412,1.7370264530181885,-1.2371940612792969,-0.00018797999655362219,2.0442817211151123,3.819023295039795,1.0288794623170844e-26,0.28572291135787964,-1.5964859167682093,-0.0,-0.000516487518325448,0.7881317734718323,0.0,0.007162180729210377,0.7870932817459106,-2.9406519388430752e-05,-0.04902327060699463
1076.0,8190.0,3.6796,-0.0455,8.0219,-0.027,-0.1825,-0.1249,-1.5398513351431866,-0.16172835230827332,1.7393321990966797,-1.2371776103973389,-0.0014713043347001076,2.014221668243408,3.8190318781086425,2.8639236549874658e-30,0.28540679812431335,-1.5965140501605433,-0.0,0.014149194583296776,0.7880997061729431,0.0,-0.0064058671705424786,0.7871094346046448,-1.6918167977664211e-09,-0.01827915571630001
1076.0,8190.0,3.6796,-0.0455,8.0219,-0.027,-0.1825,-0.1249,-1.5408588343164702,-0.18343736231327057,1.7137553691864014,-1.2371857166290283,-0.0013583538820967078,1.9694244861602783,3.8189913469501953,7.971838100357007e-34,0.28658822178840637,-1.5965102354632776,-0.0,0.004774757660925388,0.788123607635498,0.0,-0.01080541405826807,0.7871376276016235,-4.085539330754345e-15,-0.06289338320493698
1076.0,8190.0,3.6796,-0.0455,8.0219,-0.027,-0.1825,-0.1249,-1.541873763581254,-0.19644664227962494,1.610400915145874,-1.2371211051940918,-0.0006538759917020798,2.0301504135131836,3.819039984340332,2.2189904220447545e-37,0.2790987491607666,-1.5965059439288538,1.2674764775510994e-06,-0.0005859786178916693,0.7881317138671875,0.0,0.014712120406329632,0.7870932817459106,-9.866097397617503e-21,-0.008926009759306908
1076.0,8190.0,3.6796,-0.0455,8.0219,-0.027,-0.1825,-0.1249,-1.5430528738400717,-0.1966787725687027,1.7227609157562256,-1.2371459007263184,0.0003056736313737929,2.077169418334961,3.8190557199665527,-0.00018659571651369333,0.28257280588150024,-1.596457306538717,3.5280670052095786e-10,0.01588479056954384,0.7881521582603455,0.0,-0.009794975630939007,0.787081241607666,-2.3825463637860723e-26,-0.07456934452056885
1076.0,8190.0,3.6796,-0.0455,8.0219,-0.027,-0.1825,-0.1249,-1.5442243435284873,-0.18851061165332794,1.6655546426773071,-1.2371459007263184,0.0018768275622278452,1.9824655055999756,3.8190719324299316,-0.00014392130833584815,0.270097941160202,-1.5964697043048304,9.820504056224505e-14,0.0034596992190927267,0.7880881428718567,0.0,-0.008900986984372139,0.7870528697967529,-5.753568772063014e-32,-0.049986183643341064
1076.0,8190.0,3.6796,-0.0455,8.0219,-0.027,-0.1825,-0.1249,-1.5453268208405753,-0.19010736048221588,1.6415441036224365,-1.2371375560760498,0.0012364377034828067,1.9570801258087158,3.819039984340332,-5.806987246614881e-05,0.27929937839508057,-1.5964415709124964,2.7335736787005174e-17,0.024089356884360313,0.7880957126617432,0.0,-0.003862728364765644,0.7870809435844421,8.302677451865748e-05,-0.1630803793668747
1076.0,8190.0,3.6796,-0.0455,8.0219,-0.027,-0.1825,-0.1249,-1.5465216909400006,-0.19914326071739197,1.6541602611541748,-1.2371541261672974,0.0006104471976868808,1.984618902206421,3.819068117732666,-8.827746000861225e-07,0.28342369198799133,-1.5965140501605433,7.609002618121588e-21,0.017506562173366547,0.7881520986557007,0.0,-0.009271673858165741,0.7871458530426025,0.0001040190618368797,-0.04503379762172699
1076.0,8190.0,3.6796,-0.0455,8.0219,-0.027,-0.1825,-0.1249,-1.547773204078414,-0.20813414454460144,1.6305809020996094,-1.2371138334274292,0.0004337441932875663,1.9733089208602905,3.8190032678791503,-2.457235526165391e-10,0.2745499014854431,-1.5964534918414515,2.1179937117661693e-24,0.03017299808561802,0.7881076335906982,0.0,-0.005197378806769848,0.7871459126472473,0.00017239368753507733,-0.0686158686876297
1076.0,8190.0,3.6796,-0.0455,8.0219,-0.027,-0.1825,-0.1249,-1.5490685750595112,-0.21991470456123352,1.6597864627838135,-1.237141728401184,0.0003364291333127767,1.9450438022613525,3.8190557199665527,-6.839805279231989e-14,0.265426367521286,-1.5964658896075647,5.895513745459836e-28,0.023348376154899597,0.7881603240966797,0.0,-0.0014770741108804941,0.7870891690254211,0.00015475509280804545,-0.05761785805225372
1076.0,8190.0,3.6796,-0.0455,8.0219,-0.027,-0.1825,-0.1249,-1.5502907198718567,-0.22554904222488403,1.628498911857605,-1.237149953842163,0.00027478556148707867,1.957932710647583,3.8190714555927734,-1.903884723657984e-17,0.26801934838294983,-1.5964739958392542,1.6410377212691217e-31,0.0046560862101614475,0.7881037592887878,0.0,-0.010966114699840546,0.7871053218841553,0.0001370762474834919,-0.037498921155929565
1076.0,8190.0,3.6796,-0.0455,8.0219,-0.027,-0.1825,-0.1249,-1.551650221725442,-0.22641214728355408,1.6907742023468018,-1.2370693683624268,0.00030911245266906917,2.013946533203125,3.819136305446289,0.00015767857257742435,0.2711648643016815,-1.596461598073141,4.5678881083629416e-35,0.020285144448280334,0.7881037592887878,0.0,-0.004157915711402893,0.7870688438415527,9.589132969267666e-05,-0.09359153360128403
1076.0,8190.0,3.6796,-0.0455,8.0219,-0.027,-0.1825,-0.1249,-1.5529360820404072,-0.22043190896511078,1.6929221153259277,-1.237109661102295,0.00023145224258769304,2.0070438385009766,3.819107695216797,0.00125503062736243,0.2827298045158386,-1.596490208302633,1.271488340303009e-38,0.013406261801719666,0.7881439328193665,0.0,-0.005816962104290724,0.7870970368385315,8.368738053832203e-05,-0.0521186925470829
1076.0,8190.0,3.6796,-0.0455,8.0219,-0.027,-0.1825,-0.1249,-1.554335643803217,-0.2200922966003418,1.6764657497406006,-1.2370373010635376,0.000292828626697883,2.034646987915039,3.819143458003662,0.0020903125405311584,0.2727947235107422,-1.596457306538717,3.539679920884488e-42,0.016620352864265442,0.7880595922470093,0.0,0.00027811992913484573,0.7871214747428894,7.656757952645421e-05,-0.11170078814029694
1076.0,8190.0,3.6796,-0.0455,8.0219,-0.027,-0.1825,-0.1249,-1.5556822980618854,-0.22480086982250214,1.7120355367660522,-1.2370412349700928,0.0002714034344535321,1.9417997598648071,3.819154902095459,0.004191442392766476,0.27125272154808044,-1.5964296499835413,1.401298464324817e-45,0.0045086173340678215,0.7881194353103638,0.0,-0.010606545023620129,0.7871053218841553,9.407250763615593e-05,-0.05537731200456619
1004.0,446.0,4.5093,0.2375,8.1356,-0.0377,-0.2176,-0.1492,-1.5571054576760908,-0.23006515204906464,1.6742188930511475,-1.237061619758606,0.00024382899573538452,1.9784355163574219,3.819195433253906,0.006454533897340298,0.2850278317928314,-1.5965102354632776,0.0,0.017572078853845596,0.7880800366401672,0.0,-0.016248097643256187,0.7871454358100891,0.00016450502153020352,-0.10336161404848099
1004.0,446.0,4.5093,0.2375,8.1356,-0.0377,-0.2176,-0.1492,-1.5584873755327244,-0.2285984456539154,1.6809287071228027,-1.2371219396591187,0.0002213413390563801,2.037612199783325,3.8192431169697265,0.008553077466785908,0.27070486545562744,-1.5965021292315882,0.0,-0.0026241042651236057,0.7881197333335876,0.0,-0.00043806765461340547,0.7871173620223999,0.00020406977273523808,-0.08434648811817169
1004.0,446.0,4.5093,0.2375,8.1356,-0.0377,-0.2176,-0.1492,-1.5599104103497048,-0.23643331229686737,1.7664668560028076,-1.2371058464050293,0.0002026515721809119,2.0247087478637695,3.819295569057129,0.007916162721812725,0.28330978751182556,-1.5964739958392542,0.0,0.025540003553032875,0.7880637645721436,0.0,-0.00888548418879509,0.7871331572532654,0.00021586150978691876,-0.06802527606487274
1004.0,446.0,4.5093,0.2375,8.1356,-0.0377,-0.2176,-0.1492,-1.5613736103153606,-0.24778848886489868,1.7106088399887085,-1.2370935678482056,0.00018687207193579525,1.9891250133514404,3.819359465236328,0.004583663307130337,0.2736067771911621,-1.5965059439288538,0.0,0.013489492237567902,0.7880759239196777,0.0,0.002521032001823187,0.7871012091636658,0.000494896958116442,-0.03163398429751396
1004.0,446.0,4.5093,0.2375,8.1356,-0.0377,-0.2176,-0.1492,-1.5628841754845162,-0.24767890572547913,1.727365493774414,-1.2370941638946533,0.0002877947117667645,2.0067977905273438,3.819375200862549,0.003078095382079482,0.2733156681060791,-1.5964940229998987,0.0,0.018103765323758125,0.7880956530570984,0.0,-0.0029254790861159563,0.7871012091636658,0.0004529435245785862,-0.08003255724906921
1004.0,446.0,4.5093,0.2375,8.1356,-0.0377,-0.2176,-0.1492,-1.5643628950095554,-0.2373402714729309,1.7964487075805664,-1.2371021509170532,0.002645555417984724,2.0778729915618896,3.819387121791504,0.002997296629473567,0.29562491178512573,-1.5964372793780726,0.0,0.007010754197835922,0.7880397439002991,0.0,-0.005088845267891884,0.7871053218841553,0.00020432336896192282,-0.0408802293241024
1004.0,446.0,4.5093,0.2375,8.1356,-0.0377,-0.2176,-0.1492,-1.5658136967434366,-0.2396397739648819,1.7622199058532715,-1.2369855642318726,0.002942790277302265,1.9986534118652344,3.8194190698811035,0.0034814795944839716,0.27101245522499084,-1.5965102354632776,0.0,0.014972735196352005,0.7880401611328125,0.0,-0.00011371541768312454,0.7871132493019104,0.00015235265891533345,-0.021756116300821304
1004.0,446.0,4.5093,0.2375,8.1356,-0.0377,-0.2176,-0.1492,-1.567288189460971,-0.24850837886333466,1.7777924537658691,-1.2371264696121216,0.0017894805641844869,2.0605199337005615,3.8194758135029296,0.0035974206402897835,0.2925912141799927,-1.5964492003070276,0.0,0.0013098297640681267,0.788084089756012,0.0,-0.007955193519592285,0.7871536612510681,0.00016121075896080583,-0.06614002585411072
1004.0,446.0,4.5093,0.2375,8.1356,-0.0377,-0.2176,-0.1492,-1.5687709602392097,-0.2449503093957901,1.8189499378204346,-1.237037181854248,0.0010246975580230355,2.0264081954956055,3.8194429117390136,0.003623764729127288,0.2932901084423065,-1.5964940229998987,0.0,0.010047181509435177,0.7880479693412781,0.0,0.004456161987036467,0.7871533632278442,0.0001515485200798139,0.007378392852842808
1004.0,446.0,4.5093,0.2375,8.1356,-0.0377,-0.2176,-0.1492,-1.5702778771850099,-0.2468322217464447,1.7704834938049316,-1.2370661497116089,0.000717939983587712,2.068300485610962,3.8194634157368164,0.0027766709681600332,0.2882245182991028,-1.5964296499835413,0.0,0.007180890999734402,0.7880759239196777,0.0,-0.019898008555173874,0.7871533632278442,0.00017117253446485847,-0.039601948112249374
1004.0,446.0,4.5093,0.2375,8.1356,-0.0377,-0.2176,-0.1492,-1.5717159710326136,-0.2533491849899292,1.7950141429901123,-1.2370617389678955,0.0005525789456441998,2.0602476596832275,3.8194429117390136,0.0016108889831230044,0.29883652925491333,-1.596478287373678,0.0,0.007322975434362888,0.7880034446716309,0.0,-0.019065309315919876,0.7871413230895996,0.00015187672397587448,-0.1081690713763237
1004.0,446.0,4.5093,0.2375,8.1356,-0.0377,-0.2176,-0.1492,-1.5732313595213832,-0.2594556212425232,1.8083138465881348,-1.2370059490203857,0.00044914352474734187,2.093008518218994,3.8194991785236816,0.000968287349678576,0.2917289733886719,-1.5964492003070276,0.0,0.01906016282737255,0.7881119847297668,0.0,-0.008540104143321514,0.7870970368385315,0.00013567364658229053,-0.044172536581754684
1004.0,446.0,4.5093,0.2375,8.1356,-0.0377,-0.2176,-0.1492,-1.5747581921019496,-0.2547292411327362,1.744436502456665,-1.2370741367340088,0.00025581842055544257,1.999549150466919,3.8194467264362792,0.0005103228031657636,0.2894311547279358,-1.5964496771441858,0.0,0.011424431577324867,0.7880480289459229,0.0,-0.02332232892513275,0.7871173620223999,0.00011931543122045696,-0.08809424936771393
1004.0,446.0,4.5093,0.2375,8.1356,-0.0377,-0.2176,-0.1492,-1.5762044392027796,-0.24976499378681183,1.7953855991363525,-1.2369904518127441,0.0007052849396131933,2.0692121982574463,3.819478674525879,0.0005626193014904857,0.2919994592666626,-1.5964940229998987,0.0,0.0005288580432534218,0.7880074381828308,0.0,-0.009617341682314873,0.7871454358100891,7.040080527076498e-05,-0.09008031338453293
1004.0,446.0,4.5093,0.2375,8.1356,-0.0377,-0.2176,-0.1492,-1.5777231655516566,-0.2503402531147003,1.7562788724899292,-1.2369740009307861,0.001575328060425818,2.072892427444458,3.819451017970703,0.0007230964256450534,0.30452942848205566,-1.5964658896075647,0.0,0.01822364144027233,0.788092315196991,0.0,-0.0064330510795116425,0.7871574759483337,9.387161844642833e-05,-0.03314215689897537
880.0,381.0,4.9334,0.0335,8.2445,-0.0339,-0.2556,-0.1283,-1.5792061291136683,-0.25016629695892334,1.756730318069458,-1.23701810836792,0.0010229620384052396,2.070013999938965,3.819531126613281,0.0005336633184924722,0.27721869945526123,-1.5964492003070276,0.0,0.018297873437404633,0.7881197333335876,0.0,-0.01631455309689045,0.7871293425559998,8.536328095942736e-05,-0.06849932670593262
880.0,381.0,4.9334,0.0335,8.2445,-0.0339,-0.2556,-0.1283,-1.580740591088766,-0.255831778049469,1.8064624071121216,-1.2369780540466309,0.0006876682164147496,2.033059597015381,3.819439573878906,0.00041152845369651914,0.28234508633613586,-1.5964372793780726,5.2830378990620375e-05,0.01306643895804882,0.7880922555923462,0.0,-0.021378662437200546,0.7871132493019104,7.796796853654087e-05,-0.08834350109100342
880.0,381.0,4.9334,0.0335,8.2445,-0.0339,-0.2556,-0.1283,-1.5822192631163539,-0.25757819414138794,1.8000200986862183,-1.2370386123657227,0.0005179735599085689,2.088853359222412,3.8194748598286132,0.00027923076413571835,0.28482019901275635,-1.596461598073141,5.158470230526291e-05,0.011782574467360973,0.7880762815475464,0.0,-0.03242907673120499,0.7871454358100891,7.175194332376122e-05,-0.05046435073018074
880.0,381.0,4.9334,0.0335,8.2445,-0.0339,-0.2556,-0.1283,-1.5837379894652308,-0.2595246136188507,1.7735995054244995,-1.236993670463562,0.0004154699854552746,2.0481326580047607,3.8194753366657714,0.00023529311874881387,0.27782705426216125,-1.5965145269977015,4.9869871872942895e-05,0.0055878013372421265,0.7880677580833435,0.0,-0.018008315935730934,0.7871615886688232,6.645396206295118e-05,-0.08999481797218323
880.0,381.0,4.9334,0.0335,8.2445,-0.0339,-0.2556,-0.1283,-1.5852886639037074,-0.25871068239212036,1.7888033390045166,-1.2369657754898071,0.0003233277820982039,2.044492721557617,3.8194548326679687,0.00020338100148364902,0.28296342492103577,-1.5965145269977015,2.738461368778644e-08,0.028296809643507004,0.7880479693412781,0.0,-0.02151825837790966,0.7871454358100891,6.188452971400693e-05,-0.07018224149942398
880.0,381.0,4.9334,0.0335,8.2445,-0.0339,-0.2556,-0.1283,-1.5868469677367152,-0.26113080978393555,1.7321946620941162,-1.2369414567947388,0.0012082139728590846,2.0432538986206055,3.8195153909870605,0.0001790931128198281,0.27351731061935425,-1.596461598073141,7.622607406387871e-12,0.0375383235514164,0.7881522178649902,0.0,-0.015471137128770351,0.7871294021606445,3.8602182030444965e-05,-0.09815026074647903
880.0,381.0,4.9334,0.0335,8.2445,-0.0339,-0.2556,-0.1283,-1.5884539089598597,-0.2578781545162201,1.7814538478851318,-1.2369335889816284,0.0036636381410062313,2.0798614025115967,3.819478674525879,0.0001599883398739621,0.2844819724559784,-1.596461598073141,2.1217806869388168e-15,0.03273696452379227,0.7880681157112122,0.0,-0.02410983294248581,0.787169873714447,1.8134733181796037e-05,-0.09505684673786163
880.0,381.0,4.9334,0.0335,8.2445,-0.0339,-0.2556,-0.1283,-1.5899721584715785,-0.2475551962852478,1.8293781280517578,-1.23697030544281,0.004802030045539141,2.0097458362579346,3.8195153909870605,0.00014456680219154805,0.2684374451637268,-1.596478287373678,5.906054580980015e-19,0.033351827412843704,0.7880717515945435,0.0,-0.010819369927048683,0.7871173620223999,1.7100637705880217e-05,-0.16304130852222443
880.0,381.0,4.9334,0.0335,8.2445,-0.0339,-0.2556,-0.1283,-1.5915352306761683,-0.25460824370384216,1.7221803665161133,-1.2369422912597656,0.0038649176713079214,2.016305923461914,3.8194634157368164,0.0001318577560596168,0.27004677057266235,-1.5964534918414515,1.643971990093167e-22,0.03881007432937622,0.7880557775497437,0.0,-0.018384389579296112,0.7871495485305786,1.617843736312352e-05,-0.15559794008731842
880.0,381.0,4.9334,0.0335,8.2445,-0.0339,-0.2556,-0.1283,-1.5931579075255335,-0.2655898630619049,1.8097853660583496,-1.2369065284729004,0.0020742053166031837,2.052736759185791,3.819451017970703,7.594510680064559e-05,0.2696748673915863,-1.596433464680807,4.57605638648032e-26,0.03438572585582733,0.7880640029907227,0.0,-0.030809763818979263,0.7871294021606445,1.5350608009612188e-05,-0.11637307703495026
880.0,381.0,4.9334,0.0335,8.2445,-0.0339,-0.2556,-0.1283,-1.5947281322874964,-0.26051872968673706,1.8368356227874756,-1.2368983030319214,0.0012615120504051447,2.0572683811187744,3.8194467264362792,6.7285327531863e-05,0.28267520666122437,-1.5964983145343226,1.273762067432385e-29,0.04561614617705345,0.7880279421806335,0.0,-0.03042905405163765,0.7870726585388184,4.990262823412195e-06,-0.11876726895570755
880.0,381.0,4.9334,0.0335,8.2445,-0.0339,-0.2556,-0.1283,-1.5963717899718226,-0.2582906484603882,1.7624449729919434,-1.2369344234466553,0.0007969368016347289,2.021557331085205,3.819467230434082,6.260389636736363e-05,0.2815033495426178,-1.5964329878436487,3.545563529832616e-33,0.03474952280521393,0.7880640029907227,0.0,-0.028613101691007614,0.7871053814888,1.2050896738835526e-11,-0.12915921211242676
880.0,381.0,4.9334,0.0335,8.2445,-0.0339,-0.2556,-0.1283,-1.5979310474791468,-0.2612401247024536,1.7747340202331543,-1.236873984336853,0.0012689040740951896,2.0532240867614746,3.8194514948078613,-4.3154021113878116e-05,0.2690003216266632,-1.596445385609762,9.869206523847534e-37,0.034300994127988815,0.7881119251251221,0.0,-0.03732771426439285,0.7871132493019104,2.9101497733926196e-17,-0.1790069043636322
880.0,381.0,4.9334,0.0335,8.2445,-0.0339,-0.2556,-0.1283,-1.599485536614889,-0.2559410631656647,1.8235599994659424,-1.2368742227554321,0.0016943356022238731,2.076345920562744,3.8194591242023925,-6.155094888526946e-05,0.2766663134098053,-1.596457306538717,2.747133535431658e-40,0.03638560324907303,0.7880357503890991,0.0,-0.01587090454995632,0.7871050834655762,7.027668979445976e-23,-0.1596687138080597
880.0,381.0,4.9334,0.0335,8.2445,-0.0339,-0.2556,-0.1283,-1.6010080776610316,-0.2475760579109192,1.803046464920044,-1.2369024753570557,0.002047249348834157,2.050595760345459,3.819471521968506,-6.706784915877506e-05,0.27129271626472473,-1.596461598073141,7.707141553786494e-44,0.03493630513548851,0.7880997061729431,0.0,-0.021840926259756088,0.7871132493019104,1.6970996150798942e-28,-0.10704754292964935
484.0,361.0,5.1045,0.2937,8.2989,-0.033,-0.2126,-0.1388,-1.602494855920309,-0.2492956817150116,1.8071379661560059,-1.2368303537368774,0.0012210194254294038,2.0200533866882324,3.8194476801105957,-0.0003776107623707503,0.2781372666358948,-1.5963934103595179,0.0,0.043827034533023834,0.7880279421806335,0.0,-0.03250410035252571,0.7871012091636658,4.0982953917621524e-34,-0.13448423147201538
484.0,361.0,5.1045,0.2937,8.2989,-0.033,-0.2126,-0.1388,-1.604014059106344,-0.256033331155777,1.8000965118408203,-1.2368465662002563,0.000707885657902807,2.001790761947632,3.81935898839917,-0.0005246177315711975,0.2608337998390198,-1.5964821020709437,0.0,0.039101626724004745,0.7880997657775879,0.0,-0.022212348878383636,0.7871012687683105,9.896894612048313e-40,-0.1737176775932312
484.0,361.0,5.1045,0.2937,8.2989,-0.033,-0.2126,-0.1388,-1.6055127582945765,-0.2554362118244171,1.8239085674285889,-1.236870288848877,0.0005293572321534157,2.022845983505249,3.8194476801105957,-0.0008061646949499846,0.2678378224372864,-1.596478287373678,0.0,0.054685428738594055,0.788084089756012,0.0,-0.02337334118783474,0.7870888710021973,2.802596928649634e-45,-0.1459144949913025
484.0,361.0,5.1045,0.2937,8.2989,-0.033,-0.2126,-0.1388,-1.6070119343199671,-0.24926666915416718,1.8287298679351807,-1.2368983030319214,0.00048314264859072864,2.049201011657715,3.81940667211499,-0.0006523501360788941,0.2661133110523224,-1.596461598073141,0.0,0.038497358560562134,0.7880640029907227,0.0,-0.028219234198331833,0.7871335744857788,0.0,-0.17219774425029755
484.0,361.0,5.1045,0.2937,8.2989,-0.033,-0.2126,-0.1388,-1.6084705791869105,-0.24865636229515076,1.7008583545684814,-1.2368464469909668,0.00040217870264314115,1.9788520336151123,3.819410963649414,-0.0004976725904271007,0.25801247358322144,-1.5964496771441858,0.0,0.05614452809095383,0.7880640029907227,0.0,-0.03555046021938324,0.7871376276016235,0.0,-0.14132492244243622
484.0,361.0,5.1045,0.2937,8.2989,-0.033,-0.2126,-0.1388,-1.6099258861937464,-0.24608959257602692,1.795417070388794,-1.236882209777832,0.0002801707887556404,1.9720957279205322,3.8194076257893066,-0.00040227262070402503,0.2664371430873871,-1.5964863936053675,0.0,0.05215019732713699,0.7881160974502563,0.0,-0.03364945203065872,0.7871413230895996,0.0,-0.17091511189937592
484.0,361.0,5.1045,0.2937,8.2989,-0.033,-0.2126,-0.1388,-1.6113277874388636,-0.2450597733259201,1.775165319442749,-1.236822247505188,0.00024387420853599906,2.0180447101593018,3.8194147783466796,-0.00033757666824385524,0.25767791271209717,-1.5964253584491175,0.0,0.05324406921863556,0.7880640029907227,0.0,-0.028098948299884796,0.787133514881134,0.0,-0.17038945853710175
484.0,361.0,5.1045,0.2937,8.2989,-0.033,-0.2126,-0.1388,-1.6127706966795863,-0.24621419608592987,1.750902771949768,-1.2368507385253906,0.00021477443806361407,2.0227596759796143,3.819387121791504,-0.0003322587290313095,0.2534792125225067,-1.5964739958392542,0.0,0.06323902308940887,0.7880680561065674,0.0,-0.032760486006736755,0.7871053218841553,0.0,-0.21934214234352112
484.0,361.0,5.1045,0.2937,8.2989,-0.033,-0.2126,-0.1388,-1.6143065891661585,-0.2453388124704361,1.762765884399414,-1.2368507385253906,0.00022256337979342788,1.9594413042068481,3.8193675714680175,-0.00022021330369170755,0.2530074417591095,-1.5964697043048304,0.0,0.03928239643573761,0.7881119847297668,0.0,-0.020282721146941185,0.7871294021606445,0.0,-0.22407646477222443
484.0,361.0,5.1045,0.2937,8.2989,-0.033,-0.2126,-0.1388,-1.6156932316222132,-0.24263876676559448,1.7409671545028687,-1.2368263006210327,0.00023079199308995157,1.9628608226776123,3.8193790155598144,-0.00022032123524695635,0.248502716422081,-1.596490208302633,6.383754953276366e-05,0.07188639044761658,0.7880319952964783,0.0,-0.021362902596592903,0.7871173620223999,0.0,-0.23800677061080933
484.0,361.0,5.1045,0.2937,8.2989,-0.033,-0.2126,-0.1388,-1.6171442470946253,-0.24642442166805267,1.7901802062988281,-1.236818552017212,0.0003042484459001571,1.962604284286499,3.8194233614155273,-0.00020420514920260757,0.250666081905365,-1.5964658896075647,6.139783363323659e-05,0.05356078967452049,0.7880640029907227,0.0,-0.015123479999601841,0.7871012091636658,0.0,-0.22121383249759674
484.0,361.0,5.1045,0.2937,8.2989,-0.033,-0.2126,-0.1388,-1.6186028919615687,-0.24580402672290802,1.7112672328948975,-1.2368427515029907,0.001325999735854566,1.979493260383606,3.8194190698811035,-0.00018339851521886885,0.24980290234088898,-1.5964377562152308,5.8983536291634664e-05,0.06047048792243004,0.7879914045333862,0.0,-0.035589590668678284,0.7871334552764893,0.0,-0.25381243228912354
484.0,361.0,5.1045,0.2937,8.2989,-0.033,-0.2126,-0.1388,-1.6200739345946253,-0.2353006899356842,1.737776279449463,-1.2367584705352783,0.004618316888809204,1.9685471057891846,3.8193551737019042,-0.00016643856361042708,0.25256025791168213,-1.596506420766012,5.675191277987324e-05,0.05289165675640106,0.7880963683128357,0.0,-0.018180279061198235,0.7871173620223999,0.0,-0.2381042242050171
484.0,361.0,5.1045,0.2937,8.2989,-0.033,-0.2126,-0.1388,-1.6215244732298792,-0.22932901978492737,1.7839622497558594,-1.2368313074111938,0.00693734223023057,1.9509367942810059,3.8193628030964355,-0.00015235028695315123,0.24721649289131165,-1.5964577833758753,5.4683037888025865e-05,0.06576859205961227,0.7879914045333862,0.0,-0.015856025740504265,0.7871012091636658,0.0,-0.251945436000824
484.0,361.0,5.1045,0.2937,8.2989,-0.033,-0.2126,-0.1388,-1.6229154072203578,-0.23544496297836304,1.7949378490447998,-1.236746907234192,0.006507325917482376,1.9731330871582031,3.8193628030964355,-0.00016346463235095143,0.26114264130592346,-1.5964539686786097,5.2759663958568126e-05,0.06281913816928864,0.7880319952964783,0.0,-0.03466899320483208,0.7871458530426025,0.0,-0.1953865885734558
484.0,361.0,5.1045,0.2937,8.2989,-0.033,-0.2126,-0.1388,-1.624338289300436,-0.23905189335346222,1.769108533859253,-1.2366745471954346,0.005516913719475269,2.03253436088562,3.819387121791504,-0.0001520084624644369,0.2522280812263489,-1.5964539686786097,6.098741869209334e-05,0.05414849519729614,0.7880680561065674,0.0,-0.02755920961499214,0.7871294021606445,0.0,-0.22094273567199707
404.0,315.0,5.5328,0.1842,7.684,-0.0305,-0.1828,-0.1217,-1.6258169613280238,-0.22965113818645477,1.840124487876892,-1.2366588115692139,0.005724291317164898,2.0203986167907715,3.8193952280231933,-0.0001417478924850002,0.24472260475158691,-1.5964296499835413,7.703312803641893e-06,0.051137544214725494,0.7880799770355225,0.0,-0.028902370482683182,0.7871253490447998,0.0,-0.21126581728458405
404.0,315.0,5.5328,0.1842,7.684,-0.0305,-0.1828,-0.1217,-1.6271234951415003,-0.22443455457687378,1.85325026512146,-1.2365832328796387,0.006870890501886606,2.002805709838867,3.8194119173237304,-0.00013278468395583332,0.25418373942375183,-1.5964215437518519,2.1442452258213507e-09,0.06580311059951782,0.7880361676216125,0.0,-0.016748245805501938,0.7871453762054443,-7.141863170545548e-05,-0.2616097927093506
404.0,315.0,5.5328,0.1842,7.684,-0.0305,-0.1828,-0.1217,-1.6285110912718714,-0.2266712337732315,1.8596446514129639,-1.2365469932556152,0.007230614777654409,2.026606559753418,3.8193551737019042,-0.00012488772335927933,0.24937927722930908,-1.5964577833758753,5.96858662754024e-13,0.058959148824214935,0.7881004214286804,0.0,-0.02968459203839302,0.7870850563049316,-6.836431566625834e-05,-0.2654949426651001
404.0,315.0,5.5328,0.1842,7.684,-0.0305,-0.1828,-0.1217,-1.6298777065672816,-0.22663331031799316,1.857887625694275,-1.2364988327026367,0.00794202834367752,2.03110408782959,3.8194233614155273,-0.00011787752009695396,0.25855255126953125,-1.5964134375201624,1.6613775695850771e-16,0.06746193766593933,0.7880759239196777,0.0,-0.040463145822286606,0.7870768308639526,-6.538442539749667e-05,-0.24572862684726715
404.0,315.0,5.5328,0.1842,7.684,-0.0305,-0.1828,-0.1217,-1.6312128506102503,-0.21248893439769745,1.8340990543365479,-1.2364192008972168,0.009260404855012894,1.9998443126678467,3.819399519557617,-0.00011161246220581234,0.25614267587661743,-1.5964215437518519,4.6245060490205675e-20,0.06029340624809265,0.7880483865737915,0.0,-0.020868264138698578,0.7870973944664001,-7.468488183803856e-05,-0.2874999940395355
404.0,315.0,5.5328,0.1842,7.684,-0.0305,-0.1828,-0.1217,-1.632467886010641,-0.2063627392053604,1.8693180084228516,-1.236459493637085,0.008746336214244366,1.9861454963684082,3.8193952280231933,-0.00010597971413517371,0.259551465511322,-1.5965026060687464,1.2872482367824479e-23,0.0771707147359848,0.7880439162254333,0.0,-0.03968769311904907,0.7871094346046448,-7.216969243017957e-05,-0.2547171115875244
404.0,315.0,5.5328,0.1842,7.684,-0.0305,-0.1828,-0.1217,-1.6337515316405238,-0.2115359902381897,1.8475620746612549,-1.2364113330841064,0.005656509194523096,2.0017240047454834,3.8193747240253906,-0.00010088823910336941,0.2538207769393921,-1.5964697043048304,3.583102528011055e-27,0.06846677511930466,0.7880640029907227,0.0,-0.031966034322977066,0.7871171236038208,-5.82833745284006e-05,-0.20404821634292603
404.0,315.0,5.5328,0.1842,7.684,-0.0305,-0.1828,-0.1217,-1.6349016628661097,-0.21477538347244263,1.8366498947143555,-1.2363190650939941,0.003330949228256941,2.0366625785827637,3.8193508821674804,-9.626349492464215e-05,0.26028794050216675,-1.5964134375201624,9.973697170116769e-31,0.07186764478683472,0.7881280183792114,0.0,-0.04508860781788826,0.7870891690254211,-6.666091940132901e-05,-0.3028643727302551
404.0,315.0,5.5328,0.1842,7.684,-0.0305,-0.1828,-0.1217,-1.636200567285055,-0.20794548094272614,1.860835313796997,-1.2363677024841309,0.0021418528631329536,2.0115630626678467,3.8194076257893066,-3.62340833817143e-05,0.2645552158355713,-1.5964134375201624,2.776215288271143e-34,0.07417044788599014,0.7880763411521912,0.0,-0.03633730113506317,0.7870932817459106,-6.442105950554833e-05,-0.29270416498184204
404.0,315.0,5.5328,0.1842,7.684,-0.0305,-0.1828,-0.1217,-1.6373917065062464,-0.20165954530239105,1.8661162853240967,-1.2363845109939575,0.002805202966555953,2.0197181701660156,3.81938283025708,-3.373931394889951e-05,0.25239914655685425,-1.5964096228228968,7.727696360180596e-38,0.06703848391771317,0.7880480289459229,0.0,-0.026769284158945084,0.7870970964431763,-8.278611494461074e-05,-0.25718599557876587
404.0,315.0,5.5328,0.1842,7.684,-0.0305,-0.1828,-0.1217,-1.6386190853514613,-0.1979779303073883,1.855239748954773,-1.236368179321289,0.003359984140843153,2.053459644317627,3.819427652949951,-3.19429200317245e-05,0.2634257674217224,-1.5964577833758753,2.1509931427385942e-41,0.05403430014848709,0.7880480289459229,0.0,-0.04604865610599518,0.7870929837226868,-8.015728963073343e-05,-0.2219378650188446
404.0,315.0,5.5328,0.1842,7.684,-0.0305,-0.1828,-0.1217,-1.6397940121092738,-0.19918237626552582,1.8851486444473267,-1.2362682819366455,0.0031626734416931868,2.0328011512756348,3.8194233614155273,-3.032832137250807e-05,0.2665155529975891,-1.596461598073141,5.605193857299268e-45,0.06725794821977615,0.7880680561065674,0.0,-0.026284869760274887,0.7870933413505554,-4.869691760944761e-09,-0.22911012172698975
404.0,315.0,5.5328,0.1842,7.684,-0.0305,-0.1828,-0.1217,-1.640989442864889,-0.1958199292421341,1.8716461658477783,-1.2362878322601318,0.002147046383470297,2.06673002243042,3.8193914133259277,-2.8869075322290882e-05,0.2616512179374695,-1.5964215437518519,0.0,0.06443040072917938,0.788032054901123,0.0,-0.03274509683251381,0.787064790725708,-1.1759733642327085e-14,-0.2446053922176361
