ramyac6/ROB537/final_project/csv/all/good_14.csv
tof_0,tof_1,accelx,accely,accelz,gyrox,gyroy,gyroz,shoulder_lift_joint_position,shoulder_lift_joint_velocity,shoulder_lift_joint_effort,elbow_joint_position,elbow_joint_velocity,elbow_joint_effort,wrist_1_joint_position,wrist_1_joint_velocity,wrist_1_joint_effort,wrist_2_joint_position,wrist_2_joint_velocity,wrist_2_joint_effort,wrist_3_joint_position,wrist_3_joint_velocity,wrist_3_joint_effort,shoulder_pan_joint_position,shoulder_pan_joint_velocity,shoulder_pan_joint_effort
241.0,225.0,5.6465,3.3846,6.0915,-0.0211,0.0279,-0.1112,-1.6665383778014125,0.0,2.5573983192443848,-1.2677749395370483,-8.448513108305633e-05,2.1454737186431885,-2.55361332515859,0.0,0.2650338411331177,-1.2167041937457483,0.0,-0.0419025644659996,-0.10749179521669561,0.0,-0.010694125667214394,1.4158433675765991,-0.00175117002800107,0.03128078579902649
241.0,225.0,5.6465,3.3846,6.0915,-0.0211,0.0279,-0.1112,-1.666546484033102,1.7960250261239707e-05,2.553480625152588,-1.2677667140960693,-8.910000178730115e-05,2.1514365673065186,-2.553685804406637,0.0,0.26146578788757324,-1.216700855885641,0.0,-0.04212378337979317,-0.10750848451723272,0.0,-0.006266379728913307,1.415831446647644,-0.002452702261507511,0.01421375386416912
241.0,225.0,5.6465,3.3846,6.0915,-0.0211,0.0279,-0.1112,-1.6664577923216761,8.59761712490581e-05,2.5792341232299805,-1.2677305936813354,-3.7187437555985525e-05,2.1018927097320557,-2.553629537621969,0.0,0.26223301887512207,-1.2167204062091272,0.0,-0.03263750672340393,-0.1075361410724085,0.0,-0.00019114278256893158,1.4158515930175781,-0.004148978274315596,-0.005377378314733505
241.0,225.0,5.6465,3.3846,6.0915,-0.0211,0.0279,-0.1112,-1.666506906548971,0.0010070971911773086,2.532543897628784,-1.2677388191223145,-6.427848031620442e-09,2.1142377853393555,-2.553617616693014,0.0,0.2501498758792877,-1.2167604605304163,0.0,-0.025066375732421875,-0.1074755827533167,0.0,-0.01726086065173149,1.4158074855804443,-0.005259248428046703,-0.047396060079336166
241.0,225.0,5.6465,3.3846,6.0915,-0.0211,0.0279,-0.1112,-1.6664463482298792,0.002412478206679225,2.5483527183532715,-1.2676588296890259,-2.0825410121545345e-16,2.0861780643463135,-2.553617616693014,0.0,0.2741260528564453,-1.216656510029928,0.0,-0.029392627999186516,-0.10750037828554326,0.0,-0.0028542440850287676,1.4157514572143555,-0.004054720047861338,-0.012164711020886898
241.0,225.0,5.6465,3.3846,6.0915,-0.0211,0.0279,-0.1112,-1.6664301357665003,0.002991272136569023,2.5288984775543213,-1.2677791118621826,-5.029091012028246e-22,2.1531572341918945,-2.553645750085348,0.0,0.24329020082950592,-1.216696564351217,0.0,-0.03882469981908798,-0.10747987428774053,0.0,-0.0017493447521701455,1.4157153367996216,-0.0038474509492516518,-0.03105848841369152
241.0,225.0,5.6465,3.3846,6.0915,-0.0211,0.0279,-0.1112,-1.6664263210692347,0.003281645942479372,2.588926076889038,-1.2677067518234253,-1.629361559392291e-29,2.1406428813934326,-2.553685804406637,0.0,0.25911855697631836,-1.2166646162616175,0.0,-0.04589448124170303,-0.10749608675111944,0.0,-0.026337677612900734,1.4157273769378662,-0.0030653157737106085,-0.033507633954286575
235.0,246.0,5.6925,3.4792,6.1549,-0.0403,0.0105,-0.1219,-1.6664229832091273,0.002571741584688425,2.585330009460449,-1.2677594423294067,-5.278923594345032e-37,2.09712290763855,-2.553669591943258,0.0,0.26253995299339294,-1.216724697743551,0.0,-0.028312891721725464,-0.10744840303529912,0.0,-0.01502668671309948,1.4156951904296875,-0.0020800898782908916,-0.019829433411359787
235.0,246.0,5.6925,3.4792,6.1549,-0.0403,0.0105,-0.1219,-1.666393896142477,0.0014718378661200404,2.551952838897705,-1.2677470445632935,-1.2751816025355835e-42,2.1975936889648438,-2.5536614857115687,0.0,0.2497013509273529,-1.216712776814596,0.0,-0.03883477672934532,-0.1075361410724085,0.0,-0.0038038447964936495,1.4156911373138428,-0.0015861530555412173,0.01801273599267006
235.0,246.0,5.6925,3.4792,6.1549,-0.0403,0.0105,-0.1219,-1.6663786373534144,0.0006307506118901074,2.5423989295959473,-1.2677191495895386,-0.0,2.0818777084350586,-2.5536819897093714,0.0,0.2545834481716156,-1.2167523542987269,0.0,-0.03518369421362877,-0.10749179521669561,0.0,-0.007267361041158438,1.4157154560089111,-0.0010962416417896748,0.0037746033631265163
235.0,246.0,5.6925,3.4792,6.1549,-0.0403,0.0105,-0.1219,-1.6664144001402796,0.0005314008449204266,2.6136932373046875,-1.26771080493927,6.744652637280524e-05,2.1163177490234375,-2.553641458550924,0.0,0.26258915662765503,-1.216724697743551,0.0,-0.028789713978767395,-0.10743981996645147,0.0,-0.00813138298690319,1.4156593084335327,-0.0006477151182480156,-0.005121910013258457
235.0,246.0,5.6925,3.4792,6.1549,-0.0403,0.0105,-0.1219,-1.6664306126036585,0.00044528942089527845,2.5323874950408936,-1.2677593231201172,4.530352453002706e-05,2.1419732570648193,-2.5536538563170375,0.0,0.2629983127117157,-1.216700855885641,0.0,-0.024929193779826164,-0.10750848451723272,0.0,-0.006571479141712189,1.4157277345657349,-0.00041094524203799665,-0.010421710088849068
235.0,246.0,5.6925,3.4792,6.1549,-0.0403,0.0105,-0.1219,-1.666438718835348,0.00029775570146739483,2.522000551223755,-1.2676986455917358,3.771007322939113e-05,2.115002393722534,-2.5536495647826136,0.0,0.261241614818573,-1.216712776814596,0.0,-0.02843814343214035,-0.10752374330629522,0.0,-0.0014532177010551095,1.4156873226165771,-0.00030097190756350756,-0.015666339546442032
235.0,246.0,5.6925,3.4792,6.1549,-0.0403,0.0105,-0.1219,-1.6663910351195277,0.00034573214361444116,2.5441274642944336,-1.2677315473556519,6.653122545685619e-05,2.146088123321533,-2.55364527324819,0.0,0.2480568289756775,-1.2166884581195276,0.0,-0.02554377168416977,-0.10750848451723272,0.0,-0.008925028145313263,1.4156992435455322,-0.0002506680611986667,-0.023819930851459503
235.0,246.0,5.6925,3.4792,6.1549,-0.0403,0.0105,-0.1219,-1.6663700542845667,0.0005626975907944143,2.567272424697876,-1.2677192687988281,8.747249376028776e-05,2.142003297805786,-2.553605695764059,0.0,0.2671637535095215,-1.216712776814596,0.0,-0.026911389082670212,-0.10751563707460576,0.0,-0.0029926158022135496,1.4156670570373535,-0.00020498846424743533,0.04454362392425537
235.0,246.0,5.6925,3.4792,6.1549,-0.0403,0.0105,-0.1219,-1.6663948498167933,0.0005734496517106891,2.575314998626709,-1.2677512168884277,0.00010629847383825108,2.132397174835205,-2.5536214313902796,0.0,0.2721666693687439,-1.2167041937457483,0.0,-0.04780641570687294,-0.10748368898500615,0.0,-0.01144556887447834,1.4156711101531982,-0.00018034162349067628,0.05603360757231712
235.0,246.0,5.6925,3.4792,6.1549,-0.0403,0.0105,-0.1219,-1.6663662395873011,0.0005401558591984212,2.540804386138916,-1.2677594423294067,0.00023222260642796755,2.081549882888794,-2.553657194177145,0.0,0.25248855352401733,-1.2167084852801722,0.0,-0.04445300251245499,-0.10755569139589483,0.0,-0.00382880587130785,1.4156992435455322,-0.0001554251939523965,0.021404176950454712
235.0,246.0,5.6925,3.4792,6.1549,-0.0403,0.0105,-0.1219,-1.6664144001402796,0.00036924073356203735,2.5371360778808594,-1.267662763595581,0.00023112686176318675,2.144514322280884,-2.553629537621969,0.0,0.2554471492767334,-1.2166922728167933,0.0,-0.04582475125789642,-0.10742360750307256,0.0,-0.010022806003689766,1.4157397747039795,-0.00016382573812734336,0.002659746678546071
235.0,246.0,5.6925,3.4792,6.1549,-0.0403,0.0105,-0.1219,-1.666410585443014,0.0002962876169476658,2.5125784873962402,-1.267727255821228,0.00021784436830785125,2.153855323791504,-2.5536495647826136,0.0,0.26264601945877075,-1.2167084852801722,0.0,-0.01824778877198696,-0.10747987428774053,0.0,0.0033321212977170944,1.4156992435455322,-0.00015019629790913314,-0.11235786974430084
248.0,230.0,5.6812,3.6173,6.2985,-0.0322,0.0249,-0.1559,-1.6663662395873011,0.00027583909104578197,2.527406692504883,-1.2677552700042725,0.00021869799820706248,2.106867790222168,-2.5536252460875453,0.0,0.2635653614997864,-1.2167041937457483,0.0,-0.02800540253520012,-0.10748750368227178,0.0,-0.003053867258131504,1.4157277345657349,-0.00013515882892534137,0.016209186986088753
248.0,230.0,5.6812,3.6173,6.2985,-0.0322,0.0249,-0.1559,-1.666330476800436,0.0002433658082736656,2.5364930629730225,-1.2677149772644043,0.0002579019928816706,2.154348850250244,-2.553629537621969,0.0,0.24702158570289612,-1.2166803518878382,0.0,-0.02416207827627659,-0.10752374330629522,0.0,-0.008139513432979584,1.4156911373138428,-0.0001466720423195511,0.005619014147669077
248.0,230.0,5.6812,3.6173,6.2985,-0.0322,0.0249,-0.1559,-1.6664101086058558,0.00027444405714049935,2.4942564964294434,-1.2677030563354492,0.0003379489644430578,2.1101155281066895,-2.553629537621969,0.0,0.26203373074531555,-1.216696564351217,0.0,-0.03293663263320923,-0.10750419298280889,0.0,-0.0054672532714903355,1.4156951904296875,-0.00013417680747807026,0.004534014035016298
248.0,230.0,5.6812,3.6173,6.2985,-0.0322,0.0249,-0.1559,-1.6663867435851039,0.00026501071988604963,2.5529961585998535,-1.2676589488983154,0.0010547946440055966,2.1559720039367676,-2.5536376438536585,0.0,0.2527731657028198,-1.2167084852801722,0.0,-0.030983496457338333,-0.10748750368227178,0.0,-0.014424377121031284,1.415711522102356,-0.00012364353460725397,0.021816415712237358
248.0,230.0,5.6812,3.6173,6.2985,-0.0322,0.0249,-0.1559,-1.6664029560484828,0.00028116858447901905,2.5224051475524902,-1.267687439918518,0.0014843296958133578,2.144191265106201,-2.553669591943258,0.0,0.2544777989387512,-1.2167566458331507,0.0,-0.029851233586668968,-0.10745603242983037,0.0,0.0012034079991281033,1.4156869649887085,-0.00011710973922163248,0.05420678108930588
248.0,230.0,5.6812,3.6173,6.2985,-0.0322,0.0249,-0.1559,-1.6663867435851039,0.00045426012366078794,2.537379264831543,-1.267634391784668,0.0026338037569075823,2.108877182006836,-2.5536495647826136,0.0,0.24737423658370972,-1.2167285124408167,0.0,-0.03351157158613205,-0.10743171373476201,0.0,-0.0069026523269712925,1.4156911373138428,-3.3545213227625936e-05,0.006368926726281643
248.0,230.0,5.6812,3.6173,6.2985,-0.0322,0.0249,-0.1559,-1.66638245205068,0.00041824262007139623,2.5650994777679443,-1.267695665359497,0.004421409219503403,2.158668279647827,-2.5536896191039027,0.0,0.25654834508895874,-1.2167084852801722,0.0,-0.04521975666284561,-0.10754472414125615,0.0,-0.0015426138415932655,1.4156551361083984,-3.176908285240643e-05,0.029805289581418037
248.0,230.0,5.6812,3.6173,6.2985,-0.0322,0.0249,-0.1559,-1.6663748226561488,0.0003193702141288668,2.5490102767944336,-1.2676392793655396,0.005180981941521168,2.10148286819458,-2.5536815128722132,0.0,0.2524319589138031,-1.2167084852801722,0.0,-0.019079664722085,-0.10743981996645147,0.0,0.003872363595291972,1.415731430053711,-2.967419095512014e-05,-0.020192164927721024
248.0,230.0,5.6812,3.6173,6.2985,-0.0322,0.0249,-0.1559,-1.6663743458189906,0.00025826599448919296,2.553475856781006,-1.2675637006759644,0.0028795383404940367,2.137295722961426,-2.553645750085348,0.0,0.2510562539100647,-1.2167404333697718,0.0,-0.02541765570640564,-0.1074755827533167,0.0,-0.0024344543926417828,1.4157476425170898,-1.391923342453083e-05,-0.008311598561704159
248.0,230.0,5.6812,3.6173,6.2985,-0.0322,0.0249,-0.1559,-1.6664029560484828,0.00022585722035728395,2.532982349395752,-1.2675312757492065,0.00149833457544446,2.1664838790893555,-2.5536376438536585,0.0,0.2675170302391052,-1.2167328039752405,0.0,-0.03407683223485947,-0.10749608675111944,0.0,-0.010269257239997387,1.415743350982666,-2.467255066918028e-09,-0.03478521853685379
248.0,230.0,5.6812,3.6173,6.2985,-0.0322,0.0249,-0.1559,-1.6663991413512171,0.0001934853062266484,2.5187764167785645,-1.2675917148590088,0.0007097094203345478,2.1157093048095703,-2.5536252460875453,0.0,0.2596471309661865,-1.2167084852801722,0.0,-0.03587223216891289,-0.1075361410724085,0.0,-0.00662632193416357,1.415703296661377,-7.993593521793172e-17,-0.0035663314629346132
248.0,230.0,5.6812,3.6173,6.2985,-0.0322,0.0249,-0.1559,-1.6663948498167933,0.00017470514285378158,2.5032379627227783,-1.2675915956497192,0.0005901423864997923,2.178436279296875,-2.5536533794798792,0.0,0.26655933260917664,-1.2167122999774378,0.0,-0.043330468237400055,-0.10746413866151983,0.0,0.0017699927557259798,1.415743350982666,-1.9303584122939203e-22,0.0677090585231781
248.0,230.0,5.6812,3.6173,6.2985,-0.0322,0.0249,-0.1559,-1.6664186916747035,0.00015468665515072644,2.5473618507385254,-1.2675796747207642,0.0004853544232901186,2.13499116897583,-2.553645750085348,0.0,0.26162606477737427,-1.2167366186725062,0.0,-0.04413311928510666,-0.10748798051942998,0.0,-0.007746458053588867,1.4157233238220215,-6.254114814284397e-30,-0.018725641071796417
232.0,245.0,5.1374,3.9338,6.4457,-0.0267,0.0383,-0.1235,-1.6663948498167933,0.0001387843076372519,2.5735626220703125,-1.2675471305847168,0.0003868341154884547,2.0861709117889404,-2.553657671014303,0.0,0.26045581698417664,-1.216708008443014,0.0,-0.024422820657491684,-0.10747987428774053,0.0,-0.007029385305941105,1.4157313108444214,-2.0262535891839762e-37,0.02282414399087429
232.0,245.0,5.1374,3.9338,6.4457,-0.0267,0.0383,-0.1235,-1.6664110622801722,0.00012884970055893064,2.5514752864837646,-1.2675312757492065,0.00029169523622840643,2.136986494064331,-2.5536538563170375,0.0,0.25250113010406494,-1.2167447249041956,0.0,-0.03789674863219261,-0.1074760595904749,0.0,-0.005670483689755201,1.4157273769378662,-4.8905316404936116e-43,0.008942418731749058
232.0,245.0,5.1374,3.9338,6.4457,-0.0267,0.0383,-0.1235,-1.666410585443014,9.801952546695247e-05,2.574526071548462,-1.2675271034240723,0.0002459677343722433,2.082458972930908,-2.5536614857115687,0.0,0.2586986720561981,-1.2167366186725062,0.0,-0.030614163726568222,-0.10747987428774053,0.0,0.0007510271389037371,1.415711522102356,0.0,0.052539046853780746
232.0,245.0,5.1374,3.9338,6.4457,-0.0267,0.0383,-0.1235,-1.6663500271239222,9.200711065204814e-05,2.542520523071289,-1.2675069570541382,0.0002201779279857874,2.0816402435302734,-2.553633829156393,0.0,0.26075854897499084,-1.2167404333697718,0.0,-0.024171173572540283,-0.10750800768007451,0.0,0.0042215995490550995,1.4157195091247559,0.0,-0.01604795642197132
232.0,245.0,5.1374,3.9338,6.4457,-0.0267,0.0383,-0.1235,-1.666330476800436,8.505136793246493e-05,2.543870210647583,-1.2675673961639404,0.00019317252736072987,2.1792635917663574,-2.5536257229247035,0.0,0.2553946375846863,-1.2167366186725062,0.0,-0.03988281264901161,-0.1074441115008753,0.0,0.009085025638341904,1.4157594442367554,0.0,-0.037923745810985565
232.0,245.0,5.1374,3.9338,6.4457,-0.0267,0.0383,-0.1235,-1.6663662395873011,7.907331746537238e-05,2.5693559646606445,-1.267543077468872,0.000172068175743334,2.079516649246216,-2.5536099872984828,0.0,0.26123613119125366,-1.2167161146747034,0.0,-0.0347151942551136,-0.10743981996645147,0.0,-0.009878203272819519,1.415759563446045,0.0,-0.014247496612370014
232.0,245.0,5.1374,3.9338,6.4457,-0.0267,0.0383,-0.1235,-1.6663905582823695,9.011253132484853e-05,2.526057481765747,-1.2675554752349854,0.00015903670282568783,2.178189516067505,-2.5536495647826136,0.0,0.25909101963043213,-1.2167003790484827,0.0,-0.030874382704496384,-0.10749990144838506,0.0,0.007900049909949303,1.415731430053711,0.0,-0.03169851750135422
232.0,245.0,5.1374,3.9338,6.4457,-0.0267,0.0383,-0.1235,-1.6663505039610804,8.449499728158116e-05,2.5174787044525146,-1.2676112651824951,0.00016508671978954226,2.1852211952209473,-2.553629537621969,0.0,0.2574644684791565,-1.2166722456561487,0.0,-0.01628158427774906,-0.10748750368227178,0.0,-0.0022644223645329475,1.415731430053711,0.0,-0.013458863832056522
232.0,245.0,5.1374,3.9338,6.4457,-0.0267,0.0383,-0.1235,-1.6663381061949671,8.070661715464666e-05,2.546783924102783,-1.2675232887268066,0.00015446206089109182,2.1550915241241455,-2.553661962548727,0.0,0.2648826837539673,-1.2166803518878382,0.0,-0.04209359362721443,-0.10748416582216436,0.0,-0.0005015457281842828,1.4157154560089111,0.0,-0.037709325551986694
232.0,245.0,5.1374,3.9338,6.4457,-0.0267,0.0383,-0.1235,-1.666370531121725,7.61539995437488e-05,2.5244340896606445,-1.2675632238388062,0.0001085435287677683,2.1366467475891113,-2.553605695764059,0.0,0.259332537651062,-1.2167404333697718,0.0,-0.025459185242652893,-0.107459847127096,0.0,-0.016412265598773956,1.4157233238220215,0.0,-0.04418399930000305
232.0,245.0,5.1374,3.9338,6.4457,-0.0267,0.0383,-0.1235,-1.6663867435851039,7.20875832485035e-05,2.54575252532959,-1.2676081657409668,0.00010231308988295496,2.114885091781616,-2.5536138019957484,8.983480626056917e-09,0.271003782749176,-1.2167523542987269,0.0,-0.03411271795630455,-0.10747987428774053,0.0,-0.0061514414846897125,1.415751338005066,0.0,-0.00946248322725296
232.0,245.0,5.1374,3.9338,6.4457,-0.0267,0.0383,-0.1235,-1.6663462124266566,6.931177631486207e-05,2.5948939323425293,-1.2675354480743408,0.00011272499978076667,2.1195595264434814,-2.5536333523192347,2.500585025502766e-12,0.27228519320487976,-1.2167165915118616,0.0,-0.035651396960020065,-0.10745603242983037,0.0,-0.006563043221831322,1.4156633615493774,0.0,0.028452420607209206
244.0,235.0,5.747,3.4433,6.1597,-0.038,0.04,-0.1457,-1.6663381061949671,6.592702266061679e-05,2.5625641345977783,-1.2675632238388062,0.00010538798233028501,2.157564163208008,-2.5536495647826136,4.5446904275329243e-17,0.2734788954257965,-1.2167204062091272,0.0,-0.03279859200119972,-0.10748750368227178,0.0,-0.002362664323300123,1.4156792163848877,0.0,-0.008119836449623108
244.0,235.0,5.747,3.4433,6.1597,-0.038,0.04,-0.1457,-1.6664349041380824,6.359774124575779e-05,2.5178823471069336,-1.2675915956497192,0.00011468530283309519,2.111849784851074,-2.5536090336241664,1.2650313022462835e-20,0.26871219277381897,-1.2166765371905726,0.0,-0.034289103001356125,-0.10742789903749639,0.0,-0.016010558232665062,1.415703296661377,0.0,-0.033514950424432755
244.0,235.0,5.747,3.4433,6.1597,-0.038,0.04,-0.1457,-1.6664186916747035,6.073655094951391e-05,2.542400360107422,-1.2676163911819458,0.00020871222659479827,2.1395680904388428,-2.5536815128722132,2.2991319035192114e-25,0.2651658058166504,-1.2167204062091272,0.0,-0.03429213538765907,-0.10750800768007451,0.0,-0.010043148882687092,1.4157354831695557,0.0,-0.03732513263821602
244.0,235.0,5.747,3.4433,6.1597,-0.038,0.04,-0.1457,-1.666354318658346,3.6487410870478243e-09,2.5415310859680176,-1.26755952835083,0.00021125840430613607,2.1313529014587402,-2.5535856686034144,4.1785585449696935e-30,0.27499106526374817,-1.2167442480670374,0.0,-0.031191574409604073,-0.10747987428774053,0.0,-0.015141164883971214,1.4157154560089111,0.0,-0.037299685180187225
244.0,235.0,5.747,3.4433,6.1597,-0.038,0.04,-0.1457,-1.666370531121725,8.81128140963654e-15,2.564148426055908,-1.2675353288650513,0.00022014687419869006,2.1333937644958496,-2.553645750085348,1.163117129992098e-33,0.27404338121414185,-1.2166960875140589,0.0,-0.020830070599913597,-0.10749990144838506,0.0,0.0019675870425999165,1.4157195091247559,0.0,0.015332496725022793
244.0,235.0,5.747,3.4433,6.1597,-0.038,0.04,-0.1457,-1.6664029560484828,2.85474322289475e-22,2.5755162239074707,-1.2675600051879883,0.0001934858300955966,2.1605756282806396,-2.5536214313902796,2.1139081992697772e-38,0.27941733598709106,-1.216712776814596,0.0,-0.043817706406116486,-0.10751659074892217,0.0,-0.008803167380392551,1.4157154560089111,0.0,0.0362442210316658
244.0,235.0,5.747,3.4433,6.1597,-0.038,0.04,-0.1457,-1.6663223705687464,6.893869124829027e-28,2.577976703643799,-1.2675517797470093,0.0001771625829860568,2.175006151199341,-2.5536653004088343,5.884052251699907e-42,0.2721056640148163,-1.2167523542987269,0.0,-0.026219096034765244,-0.10746795335878545,0.0,0.006293510086834431,1.4157553911209106,0.0,0.016693497076630592
244.0,235.0,5.747,3.4433,6.1597,-0.038,0.04,-0.1457,-1.666370531121725,2.2335257928188826e-35,2.5462162494659424,-1.2675838470458984,0.0001592497283127159,2.0850634574890137,-2.5536419353880824,0.0,0.27141284942626953,-1.216708008443014,0.0,-0.03367333859205246,-0.10745174089540654,0.0,-0.009025754407048225,1.4157757759094238,-2.2697528038406745e-05,0.003921483177691698
244.0,235.0,5.747,3.4433,6.1597,-0.038,0.04,-0.1457,-1.6663867435851039,5.393737919032653e-41,2.5824832916259766,-1.2675915956497192,0.0001690710778348148,2.108644962310791,-2.553657194177145,0.0,0.2730555236339569,-1.2167404333697718,0.0,-0.03891677409410477,-0.10752374330629522,0.0,-0.006275103893131018,1.4157276153564453,-2.2384507246897556e-05,0.01715964823961258
244.0,235.0,5.747,3.4433,6.1597,-0.038,0.04,-0.1457,-1.6664306126036585,0.0,2.6143436431884766,-1.2674953937530518,0.00018687597184907645,2.1253604888916016,-2.5536533794798792,0.0,0.27817484736442566,-1.2167962233172815,0.0,-0.023114334791898727,-0.10743981996645147,0.0,-0.01370396837592125,1.4156869649887085,-2.13238199648913e-05,0.001203981228172779
244.0,235.0,5.747,3.4433,6.1597,-0.038,0.04,-0.1457,-1.6663743458189906,3.4035330109816186e-11,2.5467419624328613,-1.2675800323486328,0.0005683289491571486,2.152660846710205,-2.5536495647826136,0.0,0.27611592411994934,-1.2167280356036585,0.0,-0.03459785506129265,-0.10747224489320928,0.0,-0.009772613644599915,1.4156752824783325,-2.0359093468869105e-05,0.010456259362399578
244.0,235.0,5.747,3.4433,6.1597,-0.038,0.04,-0.1457,-1.6663586101927699,8.21913192586739e-17,2.58705735206604,-1.2675315141677856,0.0007045363308861852,2.1398396492004395,-2.5537177524962367,0.0,0.2762373089790344,-1.2167442480670374,0.0,-0.040736280381679535,-0.10747987428774053,0.0,-0.0007986563723534346,1.415711522102356,-7.826473620298202e-07,-0.005718458443880081
244.0,235.0,5.747,3.4433,6.1597,-0.038,0.04,-0.1457,-1.6663586101927699,2.6628942544516993e-24,2.5358738899230957,-1.26753568649292,0.0007493909797631204,2.1508560180664062,-2.5536371670165003,0.0,0.2640877664089203,-1.2167442480670374,0.0,-0.036628492176532745,-0.10748416582216436,0.0,-0.008488464169204235,1.4157195091247559,-2.535678339120242e-14,-0.02733473852276802
247.0,239.0,4.7635,3.5007,6.6538,-0.0478,0.0409,-0.1136,-1.666314264337057,6.430577769280685e-30,2.580265998840332,-1.26753568649292,0.0005299761542119086,2.194406032562256,-2.5536776981749476,0.0,0.28350114822387695,-1.216764275227682,0.0,-0.023578129708766937,-0.10741931596864873,0.0,-0.003931451588869095,1.4157154560089111,-6.123364104432616e-20,-0.02383396029472351
247.0,239.0,4.7635,3.5007,6.6538,-0.0478,0.0409,-0.1136,-1.666354318658346,2.0834256696974116e-37,2.571791172027588,-1.26755952835083,0.00038053456228226423,2.1362593173980713,-2.5536776981749476,0.0,0.27759435772895813,-1.216719929371969,0.0,-0.030041052028536797,-0.10749990144838506,0.0,-0.002659175544977188,1.4157154560089111,-0.00023135088849812746,0.005538276396691799
247.0,239.0,4.7635,3.5007,6.6538,-0.0478,0.0409,-0.1136,-1.666370531121725,7.006492321624085e-45,2.566481113433838,-1.2675036191940308,0.0002968465560115874,2.1531147956848145,-2.553657194177145,0.0,0.2842496633529663,-1.2167442480670374,0.0,-0.03302153944969177,-0.1074760595904749,0.0,-0.0005234149284660816,1.4156672954559326,-0.0011670503299683332,-0.000948367640376091
247.0,239.0,4.7635,3.5007,6.6538,-0.0478,0.0409,-0.1136,-1.666342397729391,0.0,2.5546069145202637,-1.2675232887268066,0.00025481919874437153,2.145228385925293,-2.553669591943258,0.0,0.2798762619495392,-1.2167442480670374,0.0,-0.03868439793586731,-0.10747224489320928,0.0,-0.014900490641593933,1.4156231880187988,-0.001316503039561212,-0.017711514607071877
247.0,239.0,4.7635,3.5007,6.6538,-0.0478,0.0409,-0.1136,-1.666354318658346,0.0,2.52425217628479,-1.267555832862854,0.00021435663802549243,2.135545253753662,-2.5536691151061,0.0,0.2760387063026428,-1.2167280356036585,0.0,-0.038410671055316925,-0.10754043260683233,0.0,0.0001491790171712637,1.415655255317688,-0.0013906694948673248,0.02317545935511589
247.0,239.0,4.7635,3.5007,6.6538,-0.0478,0.0409,-0.1136,-1.6664029560484828,0.0,2.55269718170166,-1.2675719261169434,0.00022346268815454096,2.1694743633270264,-2.5536815128722132,0.0,0.2780879735946655,-1.2167318503009241,0.0,-0.027456430718302727,-0.10744363466371709,0.0,-0.010756111703813076,1.4156675338745117,-0.0012549448292702436,-0.05107247456908226
247.0,239.0,4.7635,3.5007,6.6538,-0.0478,0.0409,-0.1136,-1.666370531121725,0.0,2.5841903686523438,-1.267507791519165,0.00022365787299349904,2.1325535774230957,-2.5536815128722132,0.0,0.27402156591415405,-1.2167122999774378,0.0,-0.040410351008176804,-0.10748416582216436,0.0,-0.0031409692019224167,1.4156394004821777,-0.0010043997317552567,-0.022868024185299873
247.0,239.0,4.7635,3.5007,6.6538,-0.0478,0.0409,-0.1136,-1.6663662395873011,0.0,2.5275325775146484,-1.2675517797470093,0.00014375903992913663,2.186400890350342,-2.553657194177145,0.0,0.27616700530052185,-1.2167604605304163,0.0,-0.04117210581898689,-0.10749990144838506,0.0,-0.009779665619134903,1.4156312942504883,-0.0008210849482566118,-0.029816441237926483
247.0,239.0,4.7635,3.5007,6.6538,-0.0478,0.0409,-0.1136,-1.6664029560484828,0.0,2.5779037475585938,-1.2675108909606934,0.0001311858941335231,2.1311256885528564,-2.5536653004088343,0.0,0.2836739718914032,-1.2167566458331507,0.0,-0.042243875563144684,-0.1074441115008753,0.0,-0.002974602859467268,1.415603518486023,-0.0008616010891273618,-0.013025227002799511
247.0,239.0,4.7635,3.5007,6.6538,-0.0478,0.0409,-0.1136,-1.6663662395873011,0.0,2.5406455993652344,-1.2675150632858276,9.399007103638723e-05,2.1822669506073,-2.5536614857115687,0.0,0.2861633896827698,-1.2167766729937952,0.0,-0.03457164019346237,-0.10750800768007451,0.0,0.001248681452125311,1.4156033992767334,-0.0016854718560352921,0.022237421944737434
247.0,239.0,4.7635,3.5007,6.6538,-0.0478,0.0409,-0.1136,-1.6663743458189906,3.657346678664908e-05,2.5607070922851562,-1.2675719261169434,6.567090167663991e-05,2.135220766067505,-2.5536939106383265,0.0,0.28766733407974243,-1.2166841665851038,0.0,-0.03748305141925812,-0.10743981996645147,0.0,-0.01366527657955885,1.4156115055084229,-0.0026593736838549376,-0.024878155440092087
247.0,239.0,4.7635,3.5007,6.6538,-0.0478,0.0409,-0.1136,-1.6664029560484828,2.269525248266291e-05,2.5456409454345703,-1.2674953937530518,5.959933332633227e-05,2.1440885066986084,-2.553629060784811,0.0,0.2880640923976898,-1.2167280356036585,0.0,-0.03205721080303192,-0.10742789903749639,0.0,0.0032977419905364513,1.4155395030975342,-0.0035939556546509266,-0.023059971630573273
238.0,233.0,5.0578,3.6514,6.7328,0.0014,-0.1139,-0.1304,-1.6663991413512171,1.5730143786640838e-05,2.584601402282715,-1.267575979232788,5.4763957450632006e-05,2.1625638008117676,-2.5537053547301234,0.0,0.27770593762397766,-1.2167404333697718,0.0,-0.035090044140815735,-0.10750800768007451,0.0,-0.005612981505692005,1.4154952764511108,-0.004267236217856407,-0.029799362644553185
238.0,233.0,5.0578,3.6514,6.7328,0.0014,-0.1139,-0.1304,-1.6663624248900355,1.4946466762921773e-05,2.5667309761047363,-1.2675397396087646,5.1622795581351966e-05,2.146463394165039,-2.553709169427389,0.0,0.2856098413467407,-1.216724697743551,0.0,-0.04750090464949608,-0.1074603239642542,0.0,-0.01165046263486147,1.415475606918335,-0.004775261972099543,-0.004870106466114521
238.0,233.0,5.0578,3.6514,6.7328,0.0014,-0.1139,-0.1304,-1.666410585443014,1.4015438864589669e-05,2.5616226196289062,-1.2675998210906982,4.7955330956028774e-05,2.161975860595703,-2.5536776981749476,0.0,0.2853391766548157,-1.2167041937457483,0.0,-0.04349975287914276,-0.10751229921449834,0.0,-0.0012878025881946087,1.4154998064041138,-0.004687266889959574,0.03349096328020096
238.0,233.0,5.0578,3.6514,6.7328,0.0014,-0.1139,-0.1304,-1.6664229832091273,1.3389905689109582e-05,2.6016197204589844,-1.2675517797470093,4.552941027213819e-05,2.1224541664123535,-2.553690095941061,0.0,0.2857155203819275,-1.2167366186725062,0.0,-0.031060263514518738,-0.1074760595904749,0.0,-0.0035329642705619335,1.4154276847839355,-0.00455756951123476,-0.010485567152500153
238.0,233.0,5.0578,3.6514,6.7328,0.0014,-0.1139,-0.1304,-1.6663743458189906,1.263783542526653e-05,2.5701589584350586,-1.2675879001617432,5.6676122767385095e-05,2.199221611022949,-2.553685804406637,0.0,0.2913829982280731,-1.216724697743551,0.0,-0.030082564800977707,-0.10749227205385381,0.0,0.0020278245210647583,1.4154117107391357,-0.005584388505667448,-0.032706212252378464
238.0,233.0,5.0578,3.6514,6.7328,0.0014,-0.1139,-0.1304,-1.6663867435851039,1.1965753401455004e-05,2.5801591873168945,-1.2675315141677856,5.349007551558316e-05,2.17079758644104,-2.553704877892965,0.0,0.28825896978378296,-1.2167041937457483,0.0,-0.03794961795210838,-0.10746843019594365,0.0,-0.0034327630419284105,1.4153112173080444,-0.005926887039095163,-0.060712624341249466
238.0,233.0,5.0578,3.6514,6.7328,0.0014,-0.1139,-0.1304,-1.6663624248900355,1.1506793271109927e-05,2.5707297325134277,-1.267507791519165,5.120751666254364e-05,2.0864925384521484,-2.553690095941061,0.0,0.2814589738845825,-1.2167084852801722,0.0,-0.02775649167597294,-0.10751659074892217,0.0,-0.015199624933302402,1.4153152704238892,-0.0062262434512376785,-0.05044540762901306
238.0,233.0,5.0578,3.6514,6.7328,0.0014,-0.1139,-0.1304,-1.6663991413512171,1.094696835934883e-05,2.548767566680908,-1.2675315141677856,4.845080184168182e-05,2.1551504135131836,-2.5536371670165003,0.0,0.27998778223991394,-1.216656510029928,0.0,-0.036949776113033295,-0.10748798051942998,0.0,-0.003575720824301243,1.4152154922485352,-0.006981162820011377,-0.03847988694906235
238.0,233.0,5.0578,3.6514,6.7328,0.0014,-0.1139,-0.1304,-1.666410585443014,1.0561589078861289e-05,2.5980594158172607,-1.2675554752349854,4.6570577978855e-05,2.1816534996032715,-2.553725381890768,0.0,0.3070436716079712,-1.216700855885641,0.0,-0.03718455135822296,-0.10750419298280889,0.0,-0.0065416619181632996,1.4151954650878906,-0.007437010761350393,0.03008590079843998
238.0,233.0,5.0578,3.6514,6.7328,0.0014,-0.1139,-0.1304,-1.6663991413512171,1.0088057024404407e-05,2.6030445098876953,-1.2675435543060303,3.449964424362406e-05,2.200458526611328,-2.553713460961813,0.0,0.28832846879959106,-1.216696564351217,0.0,-0.042015716433525085,-0.10745603242983037,0.0,0.0018099043518304825,1.4151759147644043,-0.007352838292717934,0.029667627066373825
238.0,233.0,5.0578,3.6514,6.7328,0.0014,-0.1139,-0.1304,-1.6663905582823695,2.0684567947348853e-10,2.5536446571350098,-1.2675635814666748,3.1652278266847134e-05,2.114828586578369,-2.55364527324819,0.0,0.2999192178249359,-1.216700855885641,0.0,-0.04399963468313217,-0.1074603239642542,0.0,-0.013587801717221737,1.4151281118392944,-0.007582245394587517,-0.053746357560157776
238.0,233.0,5.0578,3.6514,6.7328,0.0014,-0.1139,-0.1304,-1.6664468250670375,4.995079286109513e-16,2.542757272720337,-1.2675915956497192,3.057694630115293e-05,2.171001434326172,-2.553709646264547,0.0,0.30029016733169556,-1.2167204062091272,0.0,-0.047381214797496796,-0.10746795335878545,0.0,-0.006256963592022657,1.4149798154830933,-0.007676764857023954,-0.014849766157567501
238.0,233.0,5.0578,3.6514,6.7328,0.0014,-0.1139,-0.1304,-1.6664062939085902,1.618342151718026e-23,2.5625417232513428,-1.2675837278366089,1.576911223821753e-08,2.1602072715759277,-2.553704877892965,0.0,0.30104827880859375,-1.2167046705829065,0.0,-0.04096626490354538,-0.10748798051942998,0.0,-0.006613860838115215,1.4149961471557617,-0.007248958572745323,-0.021598150953650475
234.0,239.0,5.6632,3.4678,6.5306,-0.0363,0.0449,-0.1359,-1.666466852227682,3.9081060709471933e-29,2.5380282402038574,-1.2676163911819458,3.808055148882099e-14,2.1699624061584473,-2.553713460961813,0.0,0.30219346284866333,-1.2167165915118616,0.0,-0.03956952691078186,-0.10751229921449834,0.0,-0.0073828380554914474,1.414935827255249,-0.007127695716917515,-0.013149846345186234
234.0,239.0,5.6632,3.4678,6.5306,-0.0363,0.0449,-0.1359,-1.6664144001402796,1.266176791341506e-36,2.5969066619873047,-1.267527461051941,1.2337614921007566e-21,2.2431111335754395,-2.553721090356344,0.0,0.30387499928474426,-1.216684643422262,0.0,-0.046446554362773895,-0.10739547411073858,0.0,-0.012536820024251938,1.4148757457733154,-0.006854825187474489,0.016118457540869713
234.0,239.0,5.6632,3.4678,6.5306,-0.0363,0.0449,-0.1359,-1.6664425335326136,4.0637655465419695e-44,2.5696115493774414,-1.2675395011901855,-2.3868695279816166e-05,2.172557830810547,-2.553709646264547,0.0,0.3088391423225403,-1.216684643422262,0.0,-0.05110856145620346,-0.10749227205385381,0.0,-0.007192461751401424,1.414771556854248,-0.006443549878895283,0.0011329276021569967
234.0,239.0,5.6632,3.4678,6.5306,-0.0363,0.0449,-0.1359,-1.6664306126036585,0.0,2.5641050338745117,-1.2675635814666748,-2.2955540771363303e-05,2.149346351623535,-2.5537010631956996,0.0,0.3004467487335205,-1.216684643422262,0.0,-0.06030530855059624,-0.10746843019594365,0.0,-0.01659686677157879,1.4147799015045166,-0.006980308331549168,0.011609054170548916
234.0,239.0,5.6632,3.4678,6.5306,-0.0363,0.0449,-0.1359,-1.666438718835348,0.0,2.5754756927490234,-1.2676278352737427,-3.2762076443759724e-05,2.154971122741699,-2.553725381890768,0.0,0.31051769852638245,-1.216672722493307,0.0,-0.04911820590496063,-0.10739213625063115,0.0,-0.009582435712218285,1.4147040843963623,-0.00807181652635336,-0.007555389776825905
234.0,239.0,5.6632,3.4678,6.5306,-0.0363,0.0449,-0.1359,-1.6664306126036585,0.0,2.6178290843963623,-1.2675632238388062,-4.17294395447243e-05,2.135472297668457,-2.553673883477682,0.0,0.3173692226409912,-1.216656510029928,0.0,-0.061001598834991455,-0.1073997656451624,0.0,-0.012100243009626865,1.4146840572357178,-0.00811010878533125,0.008173610083758831
234.0,239.0,5.6632,3.4678,6.5306,-0.0363,0.0449,-0.1359,-1.6664501629271449,-6.072115138522349e-05,2.577089786529541,-1.267595648765564,-4.026295937364921e-05,2.1933884620666504,-2.5537215671935023,0.0,0.3129027485847473,-1.216672722493307,0.0,-0.07042250037193298,-0.10744792619814092,0.0,0.006109652109444141,1.4146119356155396,-0.008531194180250168,-0.01771027222275734
234.0,239.0,5.6632,3.4678,6.5306,-0.0363,0.0449,-0.1359,-1.6664587459959925,-0.00021367114095482975,2.572497844696045,-1.2675999402999878,-0.00019055072334595025,2.1340889930725098,-2.553652902642721,0.0,0.3009178638458252,-1.2166608015643519,0.0,-0.058605216443538666,-0.1073997656451624,0.0,0.0057914974167943,1.414552092552185,-0.008167561143636703,-0.013494644314050674
234.0,239.0,5.6632,3.4678,6.5306,-0.0363,0.0449,-0.1359,-1.6664825878539027,-0.00022283499129116535,2.5353639125823975,-1.2675435543060303,-0.00018574492423795164,2.208953857421875,-2.553704877892965,0.0,0.3067299723625183,-1.2166608015643519,0.0,-0.06506196409463882,-0.10745603242983037,0.0,-0.005816688761115074,1.4145402908325195,-0.007226171437650919,0.05288219451904297
234.0,239.0,5.6632,3.4678,6.5306,-0.0363,0.0449,-0.1359,-1.6664544544615687,-0.0002231047401437536,2.5424695014953613,-1.2675796747207642,-0.0001913062878884375,2.1546120643615723,-2.553697248498434,0.0,0.31876397132873535,-1.2166889349566858,0.0,-0.07121866941452026,-0.10741597810854131,0.0,-0.00346431159414351,1.4144642353057861,-0.005987595766782761,0.006069890223443508
234.0,239.0,5.6632,3.4678,6.5306,-0.0363,0.0449,-0.1359,-1.6664544544615687,-0.00020412850426509976,2.5326132774353027,-1.2675632238388062,-0.00017292726261075586,2.1608917713165283,-2.55369295696401,0.0,0.3095974028110504,-1.2166808287249964,0.0,-0.07240287959575653,-0.10745221773256475,0.0,0.005760935600847006,1.4144163131713867,-0.005918443668633699,-0.032832175493240356
234.0,239.0,5.6632,3.4678,6.5306,-0.0363,0.0449,-0.1359,-1.6664782963194789,-0.0001835189323173836,2.498307466506958,-1.267587423324585,-0.00015329144662246108,2.155665397644043,-2.553709169427389,0.0,0.3092486560344696,-1.216668430958883,0.0,-0.07498669624328613,-0.10745603242983037,0.0,0.007802849169820547,1.4143321514129639,-0.00575826782733202,-0.025508761405944824
248.0,237.0,5.3976,3.5821,6.2698,-0.0357,0.0228,-0.124,-1.666490217248434,-0.0002036664227489382,2.557682514190674,-1.2675632238388062,-0.00013765993935521692,2.138644218444824,-2.5536653004088343,0.0,0.3066233992576599,-1.2166441122638147,0.0,-0.0725938156247139,-0.1074441115008753,0.0,-0.004832093603909016,1.414304256439209,-0.005190827883780003,0.024450575932860374
248.0,237.0,5.3976,3.5821,6.2698,-0.0357,0.0228,-0.124,-1.66654696087026,-0.00017931763431988657,2.5413570404052734,-1.2676196098327637,-0.00012787975720129907,2.145502805709839,-2.553673406640524,0.0,0.3076310157775879,-1.2166770140277308,0.0,-0.0696563869714737,-0.1074441115008753,0.0,0.010523023083806038,1.4142844676971436,-0.0052357628010213375,-0.007128816097974777
248.0,237.0,5.3976,3.5821,6.2698,-0.0357,0.0228,-0.124,-1.6664658985533656,-0.000185596858500503,2.5269346237182617,-1.2675710916519165,-0.00011681461910484359,2.137138843536377,-2.55369295696401,0.0,0.30658236145973206,-1.2166526953326624,0.0,-0.07631488144397736,-0.10741597810854131,0.0,0.016457000747323036,1.41421639919281,-0.006056907586753368,-0.000945819541811943
248.0,237.0,5.3976,3.5821,6.2698,-0.0357,0.0228,-0.124,-1.6665307484068812,-0.00016824872000142932,2.5036871433258057,-1.2675833702087402,-0.00010969579307129607,2.152820110321045,-2.55369295696401,0.0,0.3057595491409302,-1.2166321913348597,0.0,-0.06459033489227295,-0.1073835531817835,0.0,0.0077467611990869045,1.4142284393310547,-0.00607379712164402,-0.020711082965135574
248.0,237.0,5.3976,3.5821,6.2698,-0.0357,0.0228,-0.124,-1.6665026150145472,-0.00017453728651162237,2.4929163455963135,-1.2676154375076294,-0.00011833385360660031,2.1201910972595215,-2.553733011285299,0.0,0.2999941408634186,-1.216684643422262,0.0,-0.0713101476430893,-0.10748035112489873,0.0,0.0016383097972720861,1.4141162633895874,-0.005965238902717829,-0.06221441924571991
248.0,237.0,5.3976,3.5821,6.2698,-0.0357,0.0228,-0.124,-1.6665150127806605,-0.00017957156524062157,2.520034074783325,-1.267543077468872,-0.00011008795263478532,2.1321816444396973,-2.5537458858885707,0.0,0.30294710397720337,-1.2166770140277308,0.0,-0.06657432019710541,-0.10739165941347295,0.0,0.007711405865848064,1.4141523838043213,-0.0063881282694637775,-0.037934135645627975
248.0,237.0,5.3976,3.5821,6.2698,-0.0357,0.0228,-0.124,-1.6665345631041468,-0.0001805071224225685,2.472653865814209,-1.2675751447677612,-0.0001046045363182202,2.187394857406616,-2.553704877892965,0.0,0.30521905422210693,-1.216628376637594,0.0,-0.07017732411623001,-0.1074603239642542,0.0,0.01758597046136856,1.4140684604644775,-0.007400999777019024,-0.03960974141955376
248.0,237.0,5.3976,3.5821,6.2698,-0.0357,0.0228,-0.124,-1.6665221653380335,-0.0001866613165475428,2.525343418121338,-1.2676475048065186,-9.808988397708163e-05,2.1023497581481934,-2.5536848507323207,0.0,0.30809420347213745,-1.2166526953326624,0.0,-0.06409336626529694,-0.10743600526918584,0.0,-0.0038506099954247475,1.414044737815857,-0.007625472266227007,-0.04574834555387497
248.0,237.0,5.3976,3.5821,6.2698,-0.0357,0.0228,-0.124,-1.6665188274779261,-0.00019691951456479728,2.544099807739258,-1.2675999402999878,-0.00010710016795201227,2.1353888511657715,-2.553704877892965,0.0,0.2950688600540161,-1.2166608015643519,0.0,-0.06839201599359512,-0.10745650926698858,0.0,0.011697771959006786,1.4139764308929443,-0.008636204525828362,-0.0447729229927063
248.0,237.0,5.3976,3.5821,6.2698,-0.0357,0.0228,-0.124,-1.6665145359435023,-0.00017534292419441044,2.5119481086730957,-1.2676401138305664,-0.00010108562128152698,2.1209259033203125,-2.553704877892965,0.0,0.2998650074005127,-1.216656510029928,0.0,-0.06961185485124588,-0.10750419298280889,0.0,0.027429822832345963,1.4138805866241455,-0.010448513552546501,-0.06715080142021179
248.0,237.0,5.3976,3.5821,6.2698,-0.0357,0.0228,-0.124,-1.6664983234801234,-0.00016183075786102563,2.4895577430725098,-1.2675755023956299,-9.70001783571206e-05,2.1566555500030518,-2.5537053547301234,0.0,0.30240896344184875,-1.2166650930987757,0.0,-0.057153716683387756,-0.1073840300189417,0.0,0.021799178794026375,1.4138526916503906,-0.01130421832203865,-0.09371574223041534
248.0,237.0,5.3976,3.5821,6.2698,-0.0357,0.0228,-0.124,-1.666514059106344,-0.00016771655646152794,2.5641627311706543,-1.2676360607147217,-9.204032539855689e-05,2.1780846118927,-2.553709646264547,0.0,0.2889367640018463,-1.2166608015643519,0.0,-0.06209857761859894,-0.10742456117738897,0.0,0.022595005109906197,1.4137088060379028,-0.01309142354875803,-0.08547954261302948
248.0,237.0,5.3976,3.5821,6.2698,-0.0357,0.0228,-0.124,-1.6665388546385707,-0.00015342136612161994,2.4869837760925293,-1.2675957679748535,-8.756302850088105e-05,2.1140098571777344,-2.5537172756590785,0.0,0.2905299663543701,-1.2166608015643519,0.0,-0.06779590249061584,-0.10742026964296514,0.0,0.02874080464243889,1.413604736328125,-0.01432008109986782,-0.05771252512931824
243.0,229.0,5.4263,3.8082,6.265,-0.0388,0.0191,-0.13,-1.6665145359435023,-0.00014420323714148253,2.568614959716797,-1.267647385597229,-8.448086737189442e-05,2.1214280128479004,-2.5537215671935023,0.0,0.30090612173080444,-1.216656510029928,0.0,-0.06966368854045868,-0.1073997656451624,0.0,0.0132785364985466,1.4135329723358154,-0.014903990551829338,-0.06319399178028107
243.0,229.0,5.4263,3.8082,6.265,-0.0388,0.0191,-0.13,-1.666546484033102,-0.0001335076376562938,2.5127644538879395,-1.2675472497940063,-8.069368050200865e-05,2.1181750297546387,-2.553690095941061,0.0,0.29803383350372314,-1.2166770140277308,0.0,-0.07629604637622833,-0.10740787187685186,0.0,0.013643428683280945,1.4133765697479248,-0.016418758779764175,-0.05425805598497391
243.0,229.0,5.4263,3.8082,6.265,-0.0388,0.0191,-0.13,-1.6665307484068812,-0.0001266588515136391,2.538022994995117,-1.26763916015625,-1.23324042533568e-07,2.1499314308166504,-2.5536891422667445,0.0,0.2978209853172302,-1.2166608015643519,0.0,-0.060446515679359436,-0.10742742220033819,0.0,0.037633128464221954,1.4132888317108154,-0.01771109364926815,-0.07860353589057922
243.0,229.0,5.4263,3.8082,6.265,-0.0388,0.0191,-0.13,-1.666490217248434,-0.00011821046791737899,2.5095138549804688,-1.2676351070404053,-3.995542503625049e-15,2.150315761566162,-2.553685804406637,0.0,0.288451224565506,-1.2166608015643519,0.0,-0.07000698149204254,-0.10743981996645147,0.0,0.014662818983197212,1.4131569862365723,-0.020717525854706764,-0.07351195812225342
243.0,229.0,5.4263,3.8082,6.265,-0.0388,0.0191,-0.13,-1.6665426693358363,-0.0001283646561205387,2.46590518951416,-1.2675591707229614,-1.294504968249576e-22,2.1064467430114746,-2.553648611108297,0.0,0.289440780878067,-1.2166608015643519,0.0,-0.058848172426223755,-0.1073997656451624,0.00011376212205504999,0.025924574583768845,1.4129410982131958,-0.023402197286486626,-0.10255539417266846
243.0,229.0,5.4263,3.8082,6.265,-0.0388,0.0191,-0.13,-1.6665221653380335,-0.00013978942297399044,2.467957019805908,-1.2676031589508057,-5.455869177239947e-05,2.128427743911743,-2.5536819897093714,0.0,0.28939947485923767,-1.2166770140277308,0.0,-0.07567780464887619,-0.10737258592714483,0.00011990226630587131,0.036099743098020554,1.4127891063690186,-0.025562092661857605,-0.1028764545917511
243.0,229.0,5.4263,3.8082,6.265,-0.0388,0.0191,-0.13,-1.666570325891012,-0.0003392173966858536,2.4290401935577393,-1.2675669193267822,-5.2039507863810286e-05,2.0873067378997803,-2.5537053547301234,0.0,0.28529226779937744,-1.2166650930987757,0.0,-0.059580013155937195,-0.10743648210634404,0.00012997906014788896,0.030168551951646805,1.4126613140106201,-0.028116170316934586,-0.08563897758722305
243.0,229.0,5.4263,3.8082,6.265,-0.0388,0.0191,-0.13,-1.6665460071959437,-0.0003499772574286908,2.472209930419922,-1.2675632238388062,-5.029469321016222e-05,2.0516374111175537,-2.5537010631956996,0.0,0.28715258836746216,-1.2166441122638147,0.0,-0.07321271300315857,-0.107368294392721,0.00012126795627409592,0.033506400883197784,1.4124376773834229,-0.03147231414914131,-0.05640138313174248
243.0,229.0,5.4263,3.8082,6.265,-0.0388,0.0191,-0.13,-1.666530271569723,-0.0005150243523530662,2.393495559692383,-1.2675833702087402,-3.5194039349484285e-10,2.0516693592071533,-2.5536776981749476,0.0,0.290281742811203,-1.2166484037982386,0.0,-0.06850264966487885,-0.10740358034242803,0.00012981465260963887,0.04306895285844803,1.4121454954147339,-0.03261785954236984,-0.10296541452407837
243.0,229.0,5.4263,3.8082,6.265,-0.0388,0.0191,-0.13,-1.666530271569723,-0.000540758075658232,2.3942742347717285,-1.2676072120666504,-1.140242004624747e-17,2.0850305557250977,-2.5536252460875453,0.0,0.28899818658828735,-1.2166689077960413,0.0,-0.07205495983362198,-0.10737973848451787,0.00011993193766102195,0.030577026307582855,1.4119139909744263,-0.03309817239642143,-0.16299469769001007
243.0,229.0,5.4263,3.8082,6.265,-0.0388,0.0191,-0.13,-1.6665622196593226,-0.0004595216305460781,2.4351139068603516,-1.2676557302474976,-2.7535502285657885e-23,2.045165538787842,-2.5536657772459925,0.0,0.28338199853897095,-1.2166650930987757,0.0,-0.06193116307258606,-0.10741597810854131,0.00012958822480868548,0.03220025822520256,1.4116498231887817,-0.03405369073152542,-0.10583166033029556
243.0,229.0,5.4263,3.8082,6.265,-0.0388,0.0191,-0.13,-1.6665383778014125,-0.0004199839604552835,2.45119047164917,-1.267587423324585,-8.92115482641309e-31,2.100529670715332,-2.5536333523192347,0.0,0.28271621465682983,-1.2166608015643519,0.0,-0.0704556256532669,-0.10738832155336553,0.00012094757403247058,0.045496731996536255,1.41143000125885,-0.034206949174404144,-0.12342236936092377
241.0,231.0,5.6016,3.527,6.1651,-0.0568,0.0185,-0.1364,-1.6665059528746546,-0.0003987106028944254,2.4253692626953125,-1.267587423324585,-2.1543538376092274e-36,2.028810501098633,-2.55364527324819,0.0,0.2967267334461212,-1.2166650930987757,0.0,-0.07461361587047577,-0.10739213625063115,0.00015644278028048575,0.029733825474977493,1.4112744331359863,-0.0338345505297184,-0.06772800534963608
241.0,231.0,5.6016,3.527,6.1651,-0.0568,0.0185,-0.1364,-1.6665259800352992,-0.0005451034521684051,2.4444162845611572,-1.2675590515136719,-7.006492321624085e-44,2.1043331623077393,-2.5536495647826136,0.0,0.2949778735637665,-1.2166889349566858,0.0,-0.07633001357316971,-0.10741693178285772,0.00016424254863522947,0.038594670593738556,1.4109745025634766,-0.03473303094506264,-0.0740279033780098
241.0,231.0,5.6016,3.527,6.1651,-0.0568,0.0185,-0.1364,-1.6665784321227015,-0.0018847226165235043,2.3660922050476074,-1.2675632238388062,-0.0,2.038177490234375,-2.5536371670165003,0.0,0.2943958342075348,-1.216656510029928,0.0,-0.07116194069385529,-0.10735589662660772,0.00014717705198563635,0.0341060608625412,1.4106786251068115,-0.03669152781367302,-0.051613569259643555
241.0,231.0,5.6016,3.527,6.1651,-0.0568,0.0185,-0.1364,-1.6665946445860804,-0.0037735081277787685,2.381580352783203,-1.2675834894180298,-0.0,2.0626561641693115,-2.5536657772459925,0.0,0.29932522773742676,-1.216668430958883,0.0,-0.07918700575828552,-0.10742026964296514,0.00015870094648562372,0.046798840165138245,1.4104710817337036,-0.039179835468530655,-0.05797432363033295
241.0,231.0,5.6016,3.527,6.1651,-0.0568,0.0185,-0.1364,-1.666633745233053,-0.012583260424435139,2.327091693878174,-1.2676196098327637,-0.0,2.088622570037842,-2.553690095941061,0.0,0.2947988510131836,-1.216656510029928,0.0,-0.07837355881929398,-0.10735208192934209,0.00015432144573424011,0.04615972191095352,1.4101070165634155,-0.03946634754538536,-0.026317141950130463
241.0,231.0,5.6016,3.527,6.1651,-0.0568,0.0185,-0.1364,-1.6667262516417445,-0.009935157373547554,2.3602685928344727,-1.26755952835083,-0.0,2.039017677307129,-2.553617139855856,0.0,0.29625657200813293,-1.2167046705829065,0.0,-0.09559029340744019,-0.1073525587665003,0.00015420203271787614,0.046424321830272675,1.409871220588684,-0.040340669453144073,-0.006338808685541153
241.0,231.0,5.6016,3.527,6.1651,-0.0568,0.0185,-0.1364,-1.6667825184264125,-0.0032673701643943787,2.3529891967773438,-1.2676112651824951,-0.0,2.067079544067383,-2.5536614857115687,0.0,0.2959604561328888,-1.2166646162616175,0.0,-0.09745016694068909,-0.10734445253481084,0.0001885044330265373,0.03983418643474579,1.4095914363861084,-0.04147733002901077,-0.03748340904712677
241.0,231.0,5.6016,3.527,6.1651,-0.0568,0.0185,-0.1364,-1.6667939625182093,-0.0017107167514041066,2.3861305713653564,-1.2676277160644531,-0.0,2.0196995735168457,-2.553629537621969,0.0,0.3016652762889862,-1.2167328039752405,0.0,-0.09560739248991013,-0.10737258592714483,0.00019503881048876792,0.059806231409311295,1.409295916557312,-0.0402829572558403,0.017568714916706085
241.0,231.0,5.6016,3.527,6.1651,-0.0568,0.0185,-0.1364,-1.6668464146056117,-0.0037313965149223804,2.333317279815674,-1.2675551176071167,-0.0,2.0567519664764404,-2.55364527324819,0.0,0.304068386554718,-1.216668430958883,0.0,-0.0882577896118164,-0.10730392137636358,0.00020168685296084732,0.04088975116610527,1.4089677333831787,-0.03822691738605499,-0.049466509371995926
241.0,231.0,5.6016,3.527,6.1651,-0.0568,0.0185,-0.1364,-1.666849752465719,-0.005377723835408688,2.3440890312194824,-1.2675751447677612,-0.0,2.0362977981567383,-2.5536896191039027,0.0,0.29603707790374756,-1.2167089621173304,0.0,-0.09178346395492554,-0.10729962984193975,0.00020692619727924466,0.053337953984737396,1.408668041229248,-0.03617531806230545,0.013984406366944313
241.0,231.0,5.6016,3.527,6.1651,-0.0568,0.0185,-0.1364,-1.6669179401793421,-0.005186398513615131,2.3136932849884033,-1.2676433324813843,-0.0,2.015308380126953,-2.553617616693014,0.0,0.3001134395599365,-1.2166889349566858,0.0,-0.09924690425395966,-0.10737258592714483,0.0002810376463457942,0.05795969069004059,1.4084720611572266,-0.03519737720489502,-0.018828850239515305
241.0,231.0,5.6016,3.527,6.1651,-0.0568,0.0185,-0.1364,-1.6668974361815394,-0.0034961935598403215,2.328845500946045,-1.2676112651824951,-0.0,2.0353426933288574,-2.5536376438536585,0.0,0.30840662121772766,-1.2166770140277308,0.0,-0.10928618907928467,-0.10732824007143194,0.00027954793768003583,0.05702222138643265,1.4082244634628296,-0.03558714687824249,-0.0014329561963677406
241.0,231.0,5.6016,3.527,6.1651,-0.0568,0.0185,-0.1364,-1.6669579945006312,-0.002162311691790819,2.3303048610687256,-1.2675917148590088,-0.0,2.0355374813079834,-2.553657671014303,0.0,0.2995140850543976,-1.2166889349566858,0.0,-0.1076490581035614,-0.10735637346376592,0.00023271405370905995,0.050618428736925125,1.4079606533050537,-0.035151656717061996,0.04750830680131912
253.0,222.0,5.3797,3.2686,6.4828,-0.077,0.0428,-0.1344,-1.6669861278929652,-0.0016521301586180925,2.295983076095581,-1.2675590515136719,-0.0,1.9951622486114502,-2.5536896191039027,0.0,0.30586621165275574,-1.2167046705829065,0.0,-0.11321830749511719,-0.10727960268129522,0.0002398035430815071,0.07696280628442764,1.4077125787734985,-0.03459656983613968,0.03584498167037964
253.0,222.0,5.3797,3.2686,6.4828,-0.077,0.0428,-0.1344,-1.6669656238951625,-0.0011677001602947712,2.3544039726257324,-1.2676351070404053,-0.0,2.069934844970703,-2.55358948330068,0.00011679170711431652,0.31622305512428284,-1.216696564351217,0.0,-0.09852152317762375,-0.10737258592714483,0.0002085696323774755,0.060358285903930664,1.4074487686157227,-0.03350621089339256,0.006888731382787228
253.0,222.0,5.3797,3.2686,6.4828,-0.077,0.0428,-0.1344,-1.667058607141012,-0.0009159119799733162,2.3061466217041016,-1.2676196098327637,-0.0,2.054774284362793,-2.55364527324819,0.00012269007856957614,0.3127732574939728,-1.2167285124408167,0.0,-0.1027384102344513,-0.10734397569765264,0.00021676579490303993,0.06106403470039368,1.4072810411453247,-0.031766507774591446,0.044812411069869995
253.0,222.0,5.3797,3.2686,6.4828,-0.077,0.0428,-0.1344,-1.6669579945006312,-0.0007424444775097072,2.330803871154785,-1.2676030397415161,-0.0,1.9999244213104248,-2.553617616693014,0.00011062876728828996,0.29802989959716797,-1.2166765371905726,0.0,-0.09484022855758667,-0.107368294392721,0.00019914885342586786,0.06737693399190903,1.4070935249328613,-0.028292056173086166,0.06858229637145996
253.0,222.0,5.3797,3.2686,6.4828,-0.077,0.0428,-0.1344,-1.6669780216612757,-0.0007342088501900434,2.346511125564575,-1.267594814300537,-0.0,2.0340731143951416,-2.55358948330068,0.00012086213973816484,0.3121667504310608,-1.216696564351217,-7.56543013267219e-05,-0.10596124827861786,-0.10730439821352178,0.00020324357319623232,0.07693428546190262,1.406825304031372,-0.023511914536356926,-0.003498242236673832
253.0,222.0,5.3797,3.2686,6.4828,-0.077,0.0428,-0.1344,-1.6670133076109828,-0.0012182743521407247,2.311626672744751,-1.2676318883895874,-0.0,2.0181965827941895,-2.5536214313902796,0.00011326246021781117,0.3271881639957428,-1.216668430958883,-7.426862430293113e-05,-0.09760724008083344,-0.10732871690859014,0.00021309607836883515,0.06345907598733902,1.406693458557129,-0.02045348845422268,0.06207067891955376
253.0,222.0,5.3797,3.2686,6.4828,-0.077,0.0428,-0.1344,-1.6670133076109828,-0.0018226669635623693,2.3304271697998047,-1.2675957679748535,-0.0,2.022878885269165,-2.5535932979979457,0.00012191084533696994,0.3240421414375305,-1.216668430958883,-6.966989167267457e-05,-0.11792414635419846,-0.10731679597963506,0.00021466476027853787,0.08405041694641113,1.4065173864364624,-0.016357023268938065,0.1114458367228508
253.0,222.0,5.3797,3.2686,6.4828,-0.077,0.0428,-0.1344,-1.6670133076109828,-0.0018534595146775246,2.3055357933044434,-1.2676113843917847,-0.0,2.0383710861206055,-2.553697725335592,0.0001152221011579968,0.31426867842674255,-1.2167084852801722,-7.987802382558584e-05,-0.11593712866306305,-0.1072929541217249,0.0003388624463696033,0.08338300883769989,1.4064418077468872,-0.014377197250723839,0.09562866389751434
253.0,222.0,5.3797,3.2686,6.4828,-0.077,0.0428,-0.1344,-1.6670462093748988,-0.0022555741015821695,2.300689697265625,-1.267570972442627,-2.588516872492619e-05,2.0118305683135986,-2.553593774835104,0.00010736727563198656,0.3018786907196045,-1.2166922728167933,-7.542913954239339e-05,-0.12931175529956818,-0.10732490221132451,0.0003267008869443089,0.07950779795646667,1.406329870223999,-0.011600171215832233,0.0672115907073021
253.0,222.0,5.3797,3.2686,6.4828,-0.077,0.0428,-0.1344,-1.6670576534666957,-0.0033590581733733416,2.27462100982666,-1.2676228284835815,-8.386465350299077e-13,2.0553174018859863,-2.5536819897093714,0.00010051522258436307,0.31259864568710327,-1.2167285124408167,-7.143769471440464e-05,-0.12437233328819275,-0.1072762648211878,0.00030983032775111496,0.09656223654747009,1.4062535762786865,-0.009509517811238766,0.10799804329872131
253.0,222.0,5.3797,3.2686,6.4828,-0.077,0.0428,-0.1344,-1.6670814953246058,-0.003883473575115204,2.2799947261810303,-1.2676516771316528,-2.0252326158278806e-18,2.0095231533050537,-2.55364527324819,9.592386777512729e-05,0.3032878637313843,-1.216672722493307,-8.015600178623572e-05,-0.12297461926937103,-0.10726052919496709,0.0003582846256904304,0.10045211017131805,1.4062260389328003,-0.00849225651472807,0.11895166337490082
253.0,222.0,5.3797,3.2686,6.4828,-0.077,0.0428,-0.1344,-1.6670972309508265,-0.004297518637031317,2.258707284927368,-1.2675917148590088,-6.561496641702748e-26,1.954318642616272,-2.5536538563170375,9.041715384228155e-05,0.30858999490737915,-1.2167285124408167,-8.681213512318209e-05,-0.13710865378379822,-0.10725671449770147,0.00035388258402235806,0.09772345423698425,1.4061299562454224,-0.007406017743051052,0.10567488521337509
237.0,223.0,5.6166,3.3482,6.1406,-0.0365,0.0289,-0.1214,-1.6671420536436976,-0.00473202858120203,2.2585196495056152,-1.2675875425338745,-1.584524184661249e-31,1.980506181716919,-2.55361332515859,9.896136180032045e-05,0.31337669491767883,-1.2167084852801722,-0.00015260667714755982,-0.12726038694381714,-0.10724097887148076,0.0004518942441791296,0.09036422520875931,1.4060938358306885,-0.006247683893889189,0.1261110156774521
237.0,223.0,5.6166,3.3482,6.1406,-0.0365,0.0289,-0.1214,-1.6671534977354945,-0.004432907328009605,2.293630599975586,-1.2676680088043213,-5.1336569240539673e-39,1.9654541015625,-2.5536381206908167,9.390035847900435e-05,0.30777987837791443,-1.2167041937457483,-0.00016358472930733114,-0.14222681522369385,-0.10725671449770147,0.0007363457698374987,0.10246558487415314,1.4060778617858887,-0.004947838373482227,0.09044139087200165
237.0,223.0,5.6166,3.3482,6.1406,-0.0365,0.0289,-0.1214,-1.667185445825094,-0.004733558278530836,2.17384934425354,-1.2676154375076294,-0.0,1.9531936645507812,-2.5536419353880824,8.924480789573863e-05,0.3184007704257965,-1.2166803518878382,-0.00017023415421135724,-0.12868815660476685,-0.10725242296327764,0.0015688581624999642,0.10766270011663437,1.4060462713241577,-0.004643650259822607,0.19062337279319763
237.0,223.0,5.6166,3.3482,6.1406,-0.0365,0.0289,-0.1214,-1.6672498188414515,-0.005628545302897692,2.220702648162842,-1.2676795721054077,-0.0,1.9804885387420654,-2.5536138019957484,8.604514732724056e-05,0.32324403524398804,-1.2167523542987269,-0.00017995250527746975,-0.13384447991847992,-0.10716420808901006,0.006318805273622274,0.11355478316545486,1.4059982299804688,-0.004457082599401474,0.13268209993839264
237.0,223.0,5.6166,3.3482,6.1406,-0.0365,0.0289,-0.1214,-1.6673056087889613,-0.008431500755250454,2.134629011154175,-1.2676310539245605,-0.0,1.9596099853515625,-2.553621908227438,8.211967360693961e-05,0.31603938341140747,-1.2167442480670374,-0.0002781134389806539,-0.14513550698757172,-0.10713702837099248,0.021285945549607277,0.10369929671287537,1.4059860706329346,-0.005204882938414812,0.11722499132156372
237.0,223.0,5.6166,3.3482,6.1406,-0.0365,0.0289,-0.1214,-1.6673413715758265,-0.010590141639113426,2.1581413745880127,-1.2676072120666504,-0.0001405327202519402,1.9169032573699951,-2.553661962548727,4.0248516597785056e-05,0.31580689549446106,-1.2167323271380823,-0.00028149905847385526,-0.13612914085388184,-0.10698491731752569,0.018744448199868202,0.12586939334869385,1.4058897495269775,-0.006722076330333948,0.16504141688346863
237.0,223.0,5.6166,3.3482,6.1406,-0.0365,0.0289,-0.1214,-1.6675220928587855,-0.01420511957257986,2.0882301330566406,-1.2676516771316528,-0.0001500772632425651,1.983954906463623,-2.5536138019957484,7.314969741045729e-10,0.2955997586250305,-1.2167447249041956,-0.00023295787104871124,-0.16175273060798645,-0.10690623918642217,0.00979662500321865,0.118270143866539,1.4058058261871338,-0.008996336720883846,0.17133130133152008
237.0,223.0,5.6166,3.3482,6.1406,-0.0365,0.0289,-0.1214,-1.6675416431822718,-0.016774028539657593,2.092067003250122,-1.2676278352737427,-0.00016161514213308692,1.8530875444412231,-2.553573270837301,2.0361488916372655e-13,0.2963334619998932,-1.2167485396014612,-0.0002062581042991951,-0.15594267845153809,-0.1068337599383753,0.00261653121560812,0.1206846758723259,1.4058022499084473,-0.011310436762869358,0.14216125011444092
237.0,223.0,5.6166,3.3482,6.1406,-0.0365,0.0289,-0.1214,-1.6676889858641566,-0.018636653199791908,2.0325255393981934,-1.2676112651824951,-0.00014657480642199516,1.9206291437149048,-2.553645750085348,3.70060009258972e-18,0.30060452222824097,-1.216696564351217,-0.00020873731409665197,-0.15200713276863098,-0.10685760179628545,0.0006266304990276694,0.12240427732467651,1.405630350112915,-0.015470660291612148,0.12699618935585022
237.0,223.0,5.6166,3.3482,6.1406,-0.0365,0.0289,-0.1214,-1.6678492031493128,-0.021875564008951187,1.9793040752410889,-1.2676228284835815,-0.0001532515452709049,1.8946324586868286,-2.5535932979979457,6.725658946136267e-23,0.29945001006126404,-1.2167003790484827,-0.0001843086938606575,-0.14420193433761597,-0.10682136217226201,2.0182403304147556e-08,0.11960240453481674,1.4055261611938477,-0.02024960331618786,0.11040317267179489
237.0,223.0,5.6166,3.3482,6.1406,-0.0365,0.0289,-0.1214,-1.667981287042135,-0.024815017357468605,2.030611038208008,-1.2676196098327637,-0.00023176620015874505,1.84437894821167,-2.553605695764059,1.8721122202444656e-26,0.2872285544872284,-1.2166646162616175,-0.0001694368984317407,-0.13848036527633667,-0.10689050356020147,5.6178455984379205e-12,0.12123202532529831,1.40537428855896,-0.02402852289378643,0.08243846148252487
237.0,223.0,5.6166,3.3482,6.1406,-0.0365,0.0289,-0.1214,-1.6682330570616664,-0.028429973870515823,2.0068604946136475,-1.2676032781600952,-0.0002309766277903691,1.871901035308838,-2.5536657772459925,3.4024714547404233e-31,0.28159573674201965,-1.2167404333697718,-0.00015297862410079688,-0.1412467360496521,-0.10684520403017217,1.0210156322027018e-16,0.11286740005016327,1.4052225351333618,-0.029355257749557495,0.06232891231775284
237.0,223.0,5.6166,3.3482,6.1406,-0.0365,0.0289,-0.1214,-1.6684166393675746,-0.030624564737081528,2.0178515911102295,-1.2676712274551392,-0.00023866846458986402,1.8646225929260254,-2.553673883477682,2.1837391614099033e-05,0.2797292172908783,-1.2167604605304163,-5.8595192967914045e-05,-0.13969700038433075,-0.10687429109682256,2.8420345803105084e-20,0.12030679732561111,1.4050266742706299,-0.0339675135910511,0.035106509923934937
245.0,231.0,5.0638,3.8166,6.2716,-0.0365,-0.0118,-0.1549,-1.6686364612975062,-0.033323608338832855,1.945396900177002,-1.2676712274551392,-0.00023700374003965408,1.7758300304412842,-2.5536538563170375,2.078819125017617e-05,0.27824729681015015,-1.2166722456561487,-5.155277904123068e-05,-0.11802050471305847,-0.10681754747499639,5.165257089627959e-25,0.11291664093732834,1.4046988487243652,-0.04064793139696121,-0.003197221551090479
245.0,231.0,5.0638,3.8166,6.2716,-0.0365,-0.0118,-0.1549,-1.668892046014303,-0.037823908030986786,1.9631060361862183,-1.2676031589508057,-0.0003315490030217916,1.8406528234481812,-2.553673883477682,1.987027280847542e-05,0.26297464966773987,-1.2167285124408167,-4.625354631571099e-05,-0.11453208327293396,-0.10680181184877569,9.387602457644237e-30,0.12087433785200119,1.4042867422103882,-0.048512618988752365,-0.007444857619702816
245.0,231.0,5.0638,3.8166,6.2716,-0.0365,-0.0118,-0.1549,-1.6691476307311,-0.04406150057911873,1.9516699314117432,-1.2676548957824707,-0.0002799963694997132,1.8042160272598267,-2.553606172601217,5.530963687050416e-09,0.2729906737804413,-1.2167165915118616,-4.294285099604167e-05,-0.13111041486263275,-0.10679752031435186,2.6130739833680352e-33,0.12460345029830933,1.4040148258209229,-0.05572320148348808,-0.03459211066365242
245.0,231.0,5.0638,3.8166,6.2716,-0.0365,-0.0118,-0.1549,-1.6695038280882777,-0.048770565539598465,1.937441110610962,-1.267650842666626,-0.00023189609055407345,1.7952156066894531,-2.553633829156393,1.0052252948219639e-13,0.260286420583725,-1.216700855885641,-3.9201764593599364e-05,-0.11907698959112167,-0.10681754747499639,4.749133338691223e-38,0.11432063579559326,1.4035313129425049,-0.06436506658792496,-0.05232323706150055
245.0,231.0,5.0638,3.8166,6.2716,-0.0365,-0.0118,-0.1549,-1.6698314152159632,-0.05326521396636963,1.941278100013733,-1.2676032781600952,-0.00020542918355204165,1.8130218982696533,-2.553645750085348,2.798081358770465e-17,0.26048964262008667,-1.2167204062091272,-3.6797482607653365e-05,-0.14049801230430603,-0.10682183900942022,1.3219849712440324e-41,0.12466224282979965,1.4031236171722412,-0.07305008172988892,-0.06510671973228455
245.0,231.0,5.0638,3.8166,6.2716,-0.0365,-0.0118,-0.1549,-1.6702190838255824,-0.060175102204084396,1.9268078804016113,-1.2676353454589844,-0.00015208015975076705,1.8394405841827393,-2.5535861454405726,5.08537453367621e-22,0.2724941074848175,-1.2167084852801722,-3.40158621838782e-05,-0.124296635389328,-0.10686999956239873,0.0,0.12811338901519775,1.4025239944458008,-0.08560240268707275,-0.11220474541187286
245.0,231.0,5.0638,3.8166,6.2716,-0.0365,-0.0118,-0.1549,-1.6707302532591761,-0.06673631817102432,1.9808461666107178,-1.2676031589508057,-0.00013124618271831423,1.8810738325119019,-2.553593774835104,6.539226160384715e-05,0.2815500497817993,-1.2167204062091272,-4.74366606795229e-05,-0.13311421871185303,-0.10683805147279912,0.0,0.11454591155052185,1.4017807245254517,-0.09552322328090668,-0.0677066296339035
245.0,231.0,5.0638,3.8166,6.2716,-0.0365,-0.0118,-0.1549,-1.671122213403219,-0.06784621626138687,1.9577326774597168,-1.267590880393982,-0.00012068652722518891,1.8682537078857422,-2.553582330743307,8.833210449665785e-05,0.28373390436172485,-1.2167523542987269,-4.506262484937906e-05,-0.14354315400123596,-0.10685855547060186,0.0,0.11871470510959625,1.4012008905410767,-0.09521148353815079,-0.09611733257770538
245.0,231.0,5.0638,3.8166,6.2716,-0.0365,-0.0118,-0.1549,-1.6717421017088832,-0.06787823885679245,1.928865909576416,-1.2676228284835815,-0.00013068995031062514,1.8131632804870605,-2.5535861454405726,0.0001302395248785615,0.27971163392066956,-1.2167165915118616,-5.538937693927437e-05,-0.13685660064220428,-0.10684186617006475,0.00019824615446850657,0.12875302135944366,1.400457501411438,-0.09236670285463333,-0.011881944723427296
245.0,231.0,5.0638,3.8166,6.2716,-0.0365,-0.0118,-0.1549,-1.672072549859518,-0.07057803869247437,1.9301533699035645,-1.2676310539245605,-0.0001422221539542079,1.830836296081543,-2.553593774835104,0.00011993439693469554,0.3006424307823181,-1.2166884581195276,-5.3798037697561085e-05,-0.1409420371055603,-0.10682183900942022,0.00023641438747290522,0.13064420223236084,1.3999018669128418,-0.0938517153263092,0.0019818414002656937
245.0,231.0,5.0638,3.8166,6.2716,-0.0365,-0.0118,-0.1549,-1.6726685963072718,-0.0775396078824997,1.9081709384918213,-1.2677074670791626,-0.0001942204835359007,1.8514479398727417,-2.5536261997618617,8.815385081106797e-05,0.29217544198036194,-1.2167366186725062,-5.076384695712477e-05,-0.1424746811389923,-0.10680610338319951,0.0005240326863713562,0.13187123835086823,1.3990339040756226,-0.09540236741304398,0.0014635433908551931
245.0,231.0,5.0638,3.8166,6.2716,-0.0365,-0.0118,-0.1549,-1.6733480892577113,-0.0893949344754219,1.901597499847412,-1.2676146030426025,-0.001509443623945117,1.8561220169067383,-2.553585191766256,7.908450061222538e-05,0.27671968936920166,-1.2167442480670374,-4.805344724445604e-05,-0.1437886655330658,-0.10676604906191045,0.0005032638437114656,0.13815277814865112,1.3983346223831177,-0.09903652966022491,-0.006654735654592514
251.0,223.0,6.1705,3.21,5.6566,-0.0652,-0.0496,-0.219,-1.673807760278219,-0.09200865775346756,1.8917489051818848,-1.267687439918518,-0.000995734240859747,1.8231456279754639,-2.5535618267455042,7.419471512548625e-05,0.27815309166908264,-1.2166884581195276,-4.62032257928513e-05,-0.14194181561470032,-0.10680181184877569,0.00041904181125573814,0.13013972342014313,1.3977434635162354,-0.10960784554481506,-0.006374866236001253
251.0,223.0,6.1705,3.21,5.6566,-0.0652,-0.0496,-0.219,-1.6745463810362757,-0.09553846716880798,1.88637113571167,-1.2676631212234497,-0.000117605144623667,1.810514211654663,-2.5535737476744593,0.00012253955355845392,0.2986809015274048,-1.2167442480670374,-4.39471477875486e-05,-0.1432155966758728,-0.10680562654604131,0.0003329561441205442,0.12707018852233887,1.3968278169631958,-0.12259157001972198,-0.0027630282565951347
251.0,223.0,6.1705,3.21,5.6566,-0.0652,-0.0496,-0.219,-1.6751100025572718,-0.09412678331136703,1.906995177268982,-1.26760733127594,-6.4715726111330696e-09,1.8344354629516602,-2.55356564144277,0.00023140198027249426,0.2900424599647522,-1.2167280356036585,-3.2929783628787845e-05,-0.13521578907966614,-0.10681420961488897,0.0002724454097915441,0.11589919030666351,1.396084189414978,-0.12845757603645325,-0.046486884355545044
251.0,223.0,6.1705,3.21,5.6566,-0.0652,-0.0496,-0.219,-1.6758810482420863,-0.0910782665014267,1.9337060451507568,-1.2676588296890259,-2.0967072411506686e-16,1.8485276699066162,-2.553549905816549,0.0013210352044552565,0.2804658114910126,-1.2167242209063929,-4.1291219531558454e-05,-0.14073169231414795,-0.10678226152528936,0.00021931281662546098,0.138091579079628,1.3950732946395874,-0.12505722045898438,0.018229171633720398
251.0,223.0,6.1705,3.21,5.6566,-0.0652,-0.0496,-0.219,-1.6765724621214808,-0.08973947167396545,1.9652553796768188,-1.2676351070404053,-6.793064270588144e-24,1.8436723947525024,-2.5534941158690394,0.0009018094278872013,0.2840544581413269,-1.216792408620016,-5.460582906380296e-05,-0.1540672332048416,-0.10682613054384404,0.00018352654296904802,0.12071363627910614,1.3940658569335938,-0.11976944655179977,-0.038159068673849106
251.0,223.0,6.1705,3.21,5.6566,-0.0652,-0.0496,-0.219,-1.6771637401976527,-0.087967649102211,1.9451754093170166,-1.2676914930343628,-1.6404451357589625e-29,1.8607215881347656,-2.553530355493063,0.0005441092071123421,0.30929186940193176,-1.2167485396014612,-5.391373997554183e-05,-0.1490309238433838,-0.10680181184877569,0.0001635161170270294,0.133062943816185,1.3933380842208862,-0.11414803564548492,0.03653440997004509
251.0,223.0,6.1705,3.21,5.6566,-0.0652,-0.0496,-0.219,-1.677887579003805,-0.09467863291501999,1.9912567138671875,-1.26763117313385,6.230895087355748e-05,1.8990223407745361,-2.5535346470274867,0.0003649127029348165,0.3048422634601593,-1.2167847792254847,-5.086705641588196e-05,-0.14729395508766174,-0.10678607622255498,0.00014276307774707675,0.14720657467842102,1.3924226760864258,-0.11783299595117569,-0.00027664750814437866
251.0,223.0,6.1705,3.21,5.6566,-0.0652,-0.0496,-0.219,-1.6784306965269984,-0.10172979533672333,1.9606027603149414,-1.2677116394042969,8.254564454546198e-05,1.8782925605773926,-2.553481718102926,0.0002934669319074601,0.29588714241981506,-1.21682054201235,-4.879851985606365e-05,-0.13677892088890076,-0.10681802431215459,0.000130355212604627,0.12325457483530045,1.3916430473327637,-0.12769636511802673,0.011314213275909424
251.0,223.0,6.1705,3.21,5.6566,-0.0652,-0.0496,-0.219,-1.6792651615538539,-0.11012966930866241,1.9981682300567627,-1.2676310539245605,0.00012228378909640014,1.9056755304336548,-2.5535179577269496,0.00025543750962242484,0.3009676933288574,-1.2167280356036585,-5.784790118923411e-05,-0.1613512486219406,-0.10684615770448858,0.0001282948796870187,0.10868838429450989,1.3906280994415283,-0.1357247531414032,0.028166431933641434
251.0,223.0,6.1705,3.21,5.6566,-0.0652,-0.0496,-0.219,-1.6801330051817835,-0.11164842545986176,2.0246946811676025,-1.267615556716919,0.00022162939421832561,1.917298436164856,-2.553497930566305,0.0002859194646589458,0.3049010634422302,-1.2167800108539026,-0.00019708772015292197,-0.14810411632061005,-0.10684186617006475,0.00012699390936177224,0.12003850936889648,1.3895765542984009,-0.13798107206821442,-0.06517533212900162
251.0,223.0,6.1705,3.21,5.6566,-0.0652,-0.0496,-0.219,-1.680791517297262,-0.1074434295296669,2.039020538330078,-1.2676196098327637,0.0024981938768178225,1.908024787902832,-2.5534941158690394,0.0007934147724881768,0.31015580892562866,-1.2167561689959925,-0.00023754825815558434,-0.13466672599315643,-0.10681420961488897,0.00011862462270073593,0.1339690387248993,1.3887771368026733,-0.1301560252904892,-0.002671058289706707
251.0,223.0,6.1705,3.21,5.6566,-0.0652,-0.0496,-0.219,-1.6816150150694789,-0.10119838267564774,2.0125720500946045,-1.2675549983978271,0.0015757278306409717,1.9533673524856567,-2.5534702740111292,0.000952969363424927,0.31405913829803467,-1.216804329548971,-0.0007607336156070232,-0.14925211668014526,-0.10677796999086553,0.00010904252849286422,0.12169510871171951,1.3877778053283691,-0.11425730586051941,0.07176641374826431
251.0,223.0,6.1705,3.21,5.6566,-0.0652,-0.0496,-0.219,-1.68227018932485,-0.09498560428619385,2.1582846641540527,-1.2675590515136719,0.0003185647074133158,1.9559190273284912,-2.553450723687643,0.0006391934002749622,0.31645435094833374,-1.2167843023883265,-0.0006873453385196626,-0.1452590674161911,-0.10682613054384404,0.0001028139449772425,0.11650022864341736,1.3870501518249512,-0.1106402724981308,0.023089734837412834
229.0,218.0,5.5352,3.7639,6.7639,-0.0374,-0.1355,-0.2349,-1.6830574474730433,-0.10100362449884415,2.1575026512145996,-1.2675989866256714,1.6242771039287618e-07,1.9380743503570557,-2.553502222100729,0.00040735804941505194,0.3187401294708252,-1.216788117085592,-0.00042656963341869414,-0.15499542653560638,-0.1068337599383753,9.553776180837303e-05,0.12093092501163483,1.3861390352249146,-0.11678580194711685,-0.008536245673894882
229.0,218.0,5.5352,3.7639,6.7639,-0.0374,-0.1355,-0.2349,-1.6839367351927699,-0.11303431540727615,2.076618194580078,-1.2676072120666504,5.2624505298662534e-15,1.9926810264587402,-2.5534659824767054,0.00029899817309342325,0.3116668164730072,-1.2167604605304163,-0.0003667207492981106,-0.1446114182472229,-0.10681420961488897,8.9223452960141e-05,0.12143439054489136,1.385231852531433,-0.11764286458492279,0.02598363533616066
229.0,218.0,5.5352,3.7639,6.7639,-0.0374,-0.1355,-0.2349,-1.6846362553038539,-0.12151000648736954,2.0781373977661133,-1.2675751447677612,1.2708197086089507e-20,1.9427462816238403,-2.5534101925291957,0.00024928367929533124,0.3189586102962494,-1.216788117085592,-0.0003076102293562144,-0.1453254222869873,-0.106757942830221,8.500966941937804e-05,0.11916616559028625,1.3844776153564453,-0.12017767131328583,0.0297616645693779
229.0,218.0,5.5352,3.7639,6.7639,-0.0374,-0.1355,-0.2349,-1.685598989526266,-0.1241556853055954,2.0968427658081055,-1.2675999402999878,0.00043338877731002867,1.9409115314483643,-2.553434511224264,0.00032501283567398787,0.31637102365493774,-1.2168086210833948,-0.0002505099109839648,-0.13857579231262207,-0.10681802431215459,7.997352804522961e-05,0.11441946029663086,1.3835439682006836,-0.11763810366392136,-0.010178867727518082
229.0,218.0,5.5352,3.7639,6.7639,-0.0374,-0.1355,-0.2349,-1.6863461933531703,-0.1158648282289505,2.1466782093048096,-1.267547607421875,0.0023040457163006067,2.000464677810669,-2.553410669366354,0.0041663809679448605,0.31349384784698486,-1.2167757193194788,-0.000255897524766624,-0.155280202627182,-0.10683805147279912,7.657151581952348e-05,0.14045020937919617,1.382886290550232,-0.10809224843978882,0.018872534856200218
229.0,218.0,5.5352,3.7639,6.7639,-0.0374,-0.1355,-0.2349,-1.6872326336302699,-0.09770283102989197,2.179353713989258,-1.2675554752349854,0.0009040075819939375,1.9989207983016968,-2.5533229313292445,0.010796022601425648,0.338321328163147,-1.2168119589435022,-0.00022251359769143164,-0.14420008659362793,-0.10675412813295537,9.503864566795528e-05,0.13932092487812042,1.3819880485534668,-0.099696084856987,-0.00431946013122797
229.0,218.0,5.5352,3.7639,6.7639,-0.0374,-0.1355,-0.2349,-1.6880480251707972,-0.09213649481534958,2.265641689300537,-1.2676196098327637,-0.000630342576187104,1.99693763256073,-2.553279539147848,0.00833552423864603,0.33576229214668274,-1.216816250477926,-0.0006760125979781151,-0.15458695590496063,-0.10674983659853154,8.801060903351754e-05,0.12541265785694122,1.3812267780303955,-0.09715913236141205,-0.00241179671138525
229.0,218.0,5.5352,3.7639,6.7639,-0.0374,-0.1355,-0.2349,-1.6886793575682582,-0.09728728234767914,2.254338502883911,-1.2676353454589844,-0.0014179040445014834,2.04929518699646,-2.5533038578429164,0.0025225908029824495,0.32933491468429565,-1.2168200651751917,-0.000673836562782526,-0.13740608096122742,-0.1068337599383753,0.0012671247823163867,0.13674047589302063,1.3806155920028687,-0.09550425410270691,0.03757437318563461
229.0,218.0,5.5352,3.7639,6.7639,-0.0374,-0.1355,-0.2349,-1.6895343265929164,-0.11413299292325974,2.229935646057129,-1.267639398574829,-0.0008170060464181006,2.027047634124756,-2.5532714329161585,-0.00027744309045374393,0.34144872426986694,-1.21682054201235,-0.0005536434473469853,-0.14799056947231293,-0.10669833818544561,0.002980856690555811,0.13336053490638733,1.3798942565917969,-0.0922033041715622,0.1070491224527359
229.0,218.0,5.5352,3.7639,6.7639,-0.0374,-0.1355,-0.2349,-1.6902300320067347,-0.12377198785543442,2.1979598999023438,-1.2676236629486084,-0.00029251250089146197,1.9881138801574707,-2.553279539147848,-0.00010829077655216679,0.3319738209247589,-1.216832462941305,-0.0004502570373006165,-0.1532028317451477,-0.10671025911440069,0.003534428309649229,0.13441911339759827,1.379311203956604,-0.09260934591293335,0.07101891189813614
229.0,218.0,5.5352,3.7639,6.7639,-0.0374,-0.1355,-0.2349,-1.6911612949767054,-0.12127529084682465,2.2088327407836914,-1.2675998210906982,0.0020331419073045254,2.0810914039611816,-2.553207059899801,-1.396995141789148e-08,0.34239670634269714,-1.2168400923358362,-0.00030777230858802795,-0.16249600052833557,-0.1066659132586878,0.0052856863476336,0.14373843371868134,1.3786218166351318,-0.09225156158208847,0.039945684373378754
229.0,218.0,5.5352,3.7639,6.7639,-0.0374,-0.1355,-0.2349,-1.6920558414854945,-0.10735959559679031,2.278433322906494,-1.2674912214279175,0.0020301940385252237,2.0469489097595215,-2.5532237492003382,0.0038972576148808002,0.33903223276138306,-1.2168687025653284,-0.00038234071689657867,-0.1594700962305069,-0.1066511313067835,0.005248321685940027,0.16262692213058472,1.3779107332229614,-0.08916133642196655,0.05713541805744171
242.0,219.0,3.9649,3.0096,7.3866,-0.0037,-0.0209,-0.2266,-1.6926590404906214,-0.08827389031648636,2.352421283721924,-1.26753568649292,0.0012309307930991054,2.0331904888153076,-2.553216119805807,0.005984054878354073,0.3496571183204651,-1.2168563047992151,-0.0019161358941346407,-0.14622238278388977,-0.10661489168276006,0.004526268690824509,0.13912811875343323,1.3773767948150635,-0.0838422104716301,0.05299030989408493
242.0,219.0,3.9649,3.0096,7.3866,-0.0037,-0.0209,-0.2266,-1.6933533153929652,-0.07356809824705124,2.3619534969329834,-1.2675796747207642,1.1559412094186428e-08,2.0876543521881104,-2.553131719628805,0.0036294846795499325,0.34852203726768494,-1.2168596426593226,-0.010909869335591793,-0.16921278834342957,-0.10658723512758428,0.002788091078400612,0.1392309069633484,1.3767468929290771,-0.07971944659948349,0.08827444165945053
242.0,219.0,3.9649,3.0096,7.3866,-0.0037,-0.0209,-0.2266,-1.6938649616637171,-0.07300981879234314,2.3405234813690186,-1.2676112651824951,-0.002588486298918724,2.0521411895751953,-2.553131719628805,0.001754185650497675,0.3520597815513611,-1.216952149068014,-0.014302054420113564,-0.1589461714029312,-0.10655099550356084,0.0024211679119616747,0.13508416712284088,1.3762561082839966,-0.07759130746126175,0.06775665283203125
242.0,219.0,3.9649,3.0096,7.3866,-0.0037,-0.0209,-0.2266,-1.6944972477354945,-0.08400064706802368,2.3570351600646973,-1.2676278352737427,-0.0010097331833094358,2.11836576461792,-2.5532318554320277,0.0007757251150906086,0.36188846826553345,-1.2169998327838343,-0.004554009530693293,-0.1781890094280243,-0.10653096834291631,0.0028003838378936052,0.16440609097480774,1.3756535053253174,-0.07314153760671616,0.1049608662724495
242.0,219.0,3.9649,3.0096,7.3866,-0.0037,-0.0209,-0.2266,-1.6951161823668421,-0.09328517317771912,2.2903122901916504,-1.2675957679748535,-0.0003237779892515391,2.079913377761841,-2.5531674824156703,0.0005553740193136036,0.34649360179901123,-1.2169674078570765,-0.00020489063172135502,-0.15203158557415009,-0.10646707216371709,0.004260892979800701,0.1666521281003952,1.3750752210617065,-0.0661526471376419,0.06324470043182373
242.0,219.0,3.9649,3.0096,7.3866,-0.0037,-0.0209,-0.2266,-1.695627351800436,-0.09311909228563309,2.298518657684326,-1.2675714492797852,0.0019657332450151443,2.0409257411956787,-2.5531040630736292,0.0004691267677117139,0.34579962491989136,-1.216975514088766,-0.00012097669969080016,-0.1559835970401764,-0.10644704500307256,0.005422590766102076,0.16579782962799072,1.3747155666351318,-0.06121023744344711,0.14696015417575836
242.0,219.0,3.9649,3.0096,7.3866,-0.0037,-0.0209,-0.2266,-1.6962906322874964,-0.07957496494054794,2.385453224182129,-1.2674871683120728,0.0022437027655541897,2.0732004642486572,-2.5530840359129847,0.005209818948060274,0.3641091287136078,-1.217038933430807,-0.0001572342007420957,-0.16309715807437897,-0.10638410249818975,0.008104571141302586,0.17065881192684174,1.3742856979370117,-0.05513594299554825,0.11964929103851318
242.0,219.0,3.9649,3.0096,7.3866,-0.0037,-0.0209,-0.2266,-1.6967183552184046,-0.0679367408156395,2.421306848526001,-1.2674628496170044,0.0018095022533088923,2.0720784664154053,-2.5529686413206996,0.011969901621341705,0.37148064374923706,-1.2170317808734339,-0.00024426006712019444,-0.1572674810886383,-0.10628348985780889,0.00958741270005703,0.1674312949180603,1.3739538192749023,-0.050698745995759964,0.10281891375780106
242.0,219.0,3.9649,3.0096,7.3866,-0.0037,-0.0209,-0.2266,-1.6972538433470667,-0.05617796257138252,2.5056443214416504,-1.2675150632858276,0.0013993432512506843,2.133406400680542,-2.552885671655172,0.021265825256705284,0.38265612721443176,-1.2170913855182093,-0.004298280458897352,-0.1754389852285385,-0.10625964799989873,0.012931270524859428,0.19228391349315643,1.3735913038253784,-0.04306122660636902,0.11286354809999466
242.0,219.0,3.9649,3.0096,7.3866,-0.0037,-0.0209,-0.2266,-1.6976171932616175,-0.05194808170199394,2.392885446548462,-1.267519235610962,-0.00010753120295703411,2.070405960083008,-2.552714010278219,0.025500673800706863,0.3999912440776825,-1.2170947233783167,-0.005477437283843756,-0.1769401580095291,-0.10616428056825811,0.014597871340811253,0.18899250030517578,1.373332142829895,-0.038752008229494095,0.17978417873382568
242.0,219.0,3.9649,3.0096,7.3866,-0.0037,-0.0209,-0.2266,-1.6980720959105433,-0.052152372896671295,2.4388086795806885,-1.2676122188568115,-0.002747029298916459,2.083432197570801,-2.5525666675963343,0.02951618656516075,0.39007607102394104,-1.2171672026263636,-0.0054722316563129425,-0.185318261384964,-0.1059802214251917,0.017774442210793495,0.19497966766357422,1.37305748462677,-0.03520466014742851,0.14631088078022003
242.0,219.0,3.9649,3.0096,7.3866,-0.0037,-0.0209,-0.2266,-1.6985160313048304,-0.05506383627653122,2.4297003746032715,-1.267562747001648,-0.0017218008870258927,2.08158278465271,-2.552307268182272,0.037402864545583725,0.3831576108932495,-1.2171428839312952,-0.0029353988356888294,-0.19054830074310303,-0.10585338274110967,0.02740243449807167,0.21045663952827454,1.3727692365646362,-0.033090945333242416,0.17873859405517578
242.0,219.0,3.9649,3.0096,7.3866,-0.0037,-0.0209,-0.2266,-1.6987959347166957,-0.05515356361865997,2.3445262908935547,-1.2675999402999878,-0.00024601008044555783,2.056461811065674,-2.5520693264403285,0.05034453421831131,0.4045217037200928,-1.2171548048602503,-0.0015299114165827632,-0.19063133001327515,-0.1056135336505335,0.043067555874586105,0.20318299531936646,1.3725626468658447,-0.032140690833330154,0.18955279886722565
232.0,216.0,8.1206,5.1386,5.1045,-0.0672,0.0211,-0.1089,-1.699230810204977,-0.054030925035476685,2.3509535789489746,-1.2675390243530273,-0.0001002005155896768,2.069382667541504,-2.5514871082701625,0.08665381371974945,0.38564950227737427,-1.2172072569476526,-0.0006001336732879281,-0.18822194635868073,-0.10509092012514287,0.08431975543498993,0.22848552465438843,1.3723193407058716,-0.03333118557929993,0.1884143352508545
232.0,216.0,8.1206,5.1386,5.1045,-0.0672,0.0211,-0.1089,-1.6995231113829554,-0.05068212375044823,2.3110694885253906,-1.2675957679748535,-3.827669843303738e-07,2.001864194869995,-2.5508858166136683,0.11019418388605118,0.39634913206100464,-1.217215363179342,-0.0006607341347262263,-0.19449302554130554,-0.10442048708070928,0.14421425759792328,0.246074378490448,1.3721197843551636,-0.03340752422809601,0.18972116708755493
232.0,216.0,8.1206,5.1386,5.1045,-0.0672,0.0211,-0.1089,-1.6998745403685511,-0.04508725181221962,2.285870313644409,-1.2675795555114746,-1.2401164588228455e-14,2.057147741317749,-2.5499187908568324,0.12868274748325348,0.42472031712532043,-1.217231575642721,-0.0018951946403831244,-0.19279183447360992,-0.10277301469911748,0.23326259851455688,0.3023298680782318,1.371835708618164,-0.033870186656713486,0.2182716429233551
232.0,216.0,8.1206,5.1386,5.1045,-0.0672,0.0211,-0.1089,-1.7002459965147914,-0.04182453826069832,2.2913036346435547,-1.267567753791809,0.0010106639238074422,2.00396466255188,-2.5488716564574183,0.1508948653936386,0.4278515577316284,-1.217259709035055,-0.004763348959386349,-0.20348531007766724,-0.10067493120302373,0.284178227186203,0.30201297998428345,1.3716692924499512,-0.0334511399269104,0.21788135170936584
232.0,216.0,8.1206,5.1386,5.1045,-0.0672,0.0211,-0.1089,-1.7005459270873011,-0.042529258877038956,2.2749671936035156,-1.267531156539917,0.000364772422472015,2.002084970474243,-2.5477963886656703,0.1864706128835678,0.434980571269989,-1.2172663847552698,-0.005557036027312279,-0.1911897510290146,-0.09884864488710576,0.31237873435020447,0.30426377058029175,1.3713737726211548,-0.03340288996696472,0.20918096601963043
232.0,216.0,8.1206,5.1386,5.1045,-0.0672,0.0211,-0.1089,-1.7008816204466761,-0.04680659994482994,2.220886707305908,-1.2676433324813843,-0.0010156109929084778,1.9745697975158691,-2.54620422939443,0.20801635086536407,0.44823700189590454,-1.2172539869891565,-0.003921637311577797,-0.2098284363746643,-0.09604055086244756,0.38750019669532776,0.3270938992500305,1.3711426258087158,-0.03347928822040558,0.21276715397834778
232.0,216.0,8.1206,5.1386,5.1045,-0.0672,0.0211,-0.1089,-1.7011853657164515,-0.0512794554233551,2.1949992179870605,-1.2676277160644531,-0.000568398623727262,1.9720327854156494,-2.5450107059874476,0.21256832778453827,0.4371466040611267,-1.2173031012164515,-0.0016966921975836158,-0.20067009329795837,-0.09370500246156865,0.4230693280696869,0.35363084077835083,1.3709790706634521,-0.033341482281684875,0.18570943176746368
232.0,216.0,8.1206,5.1386,5.1045,-0.0672,0.0211,-0.1089,-1.7015935383238734,-0.05606306716799736,2.1504342555999756,-1.2675554752349854,-0.00034590516588650644,1.9539562463760376,-2.5430833301939906,0.24025402963161469,0.4463275671005249,-1.2172706762896937,-0.0007513326127082109,-0.20204678177833557,-0.09005147615541631,0.4672827124595642,0.33171647787094116,1.3706756830215454,-0.0341346375644207,0.2003529667854309
232.0,216.0,8.1206,5.1386,5.1045,-0.0672,0.0211,-0.1089,-1.7020088634886683,-0.058140236884355545,2.142474412918091,-1.2675471305847168,3.9486505556851625e-05,1.8964111804962158,-2.541088720361227,0.2536759376525879,0.4510025382041931,-1.217294994984762,-0.00048235850408673286,-0.20700541138648987,-0.08595639864076787,0.5328820943832397,0.3682951331138611,1.3704166412353516,-0.031932033598423004,0.1784922182559967
232.0,216.0,8.1206,5.1386,5.1045,-0.0672,0.0211,-0.1089,-1.7023478947081507,-0.05765637010335922,2.0959362983703613,-1.2675800323486328,7.103151438059285e-05,1.8756794929504395,-2.539468904534811,0.26602932810783386,0.44544366002082825,-1.2172825972186487,-0.00038034195313230157,-0.20824645459651947,-0.08268720308412725,0.5672107338905334,0.3571769595146179,1.370253324508667,-0.02976669743657112,0.21285124123096466
232.0,216.0,8.1206,5.1386,5.1045,-0.0672,0.0211,-0.1089,-1.702799459496969,-0.05456467345356941,2.0856733322143555,-1.2676122188568115,4.947180059389211e-05,1.8745768070220947,-2.537419458428854,0.27611303329467773,0.43616729974746704,-1.2172706762896937,-0.0002967064210679382,-0.20868755877017975,-0.07793265977968389,0.6064717769622803,0.3151054382324219,1.3700178861618042,-0.02535160630941391,0.20693102478981018
232.0,216.0,8.1206,5.1386,5.1045,-0.0672,0.0211,-0.1089,-1.703139444390768,-0.05450504645705223,2.0332815647125244,-1.267595648765564,2.4478040927533584e-08,1.8383471965789795,-2.535679956475729,0.2864256501197815,0.42844945192337036,-1.217306915913717,-0.0002547066833358258,-0.20851656794548035,-0.07414895692934209,0.63946133852005,0.32609471678733826,1.3698620796203613,-0.022696785628795624,0.16924065351486206
224.0,201.0,6.5216,4.2323,6.003,-0.2002,0.1239,0.5774,-1.7036110363402308,-0.059610456228256226,1.9746878147125244,-1.26755952835083,-0.0015166858211159706,1.841329574584961,-2.5333992443480433,0.29903560876846313,0.43939536809921265,-1.217294994984762,-0.00021427088358905166,-0.2072315365076065,-0.06897384325136358,0.6561689972877502,0.31010115146636963,1.3696625232696533,-0.02093646116554737,0.2434338927268982
224.0,201.0,6.5216,4.2323,6.003,-0.2002,0.1239,0.5774,-1.7040988407530726,-0.06593787670135498,1.9559757709503174,-1.2675999402999878,-0.0007431449485011399,1.795194387435913,-2.5311066112914027,0.2725996971130371,0.39676034450531006,-1.2172468344317835,-0.00018491636728867888,-0.19868433475494385,-0.0636523405658167,0.6643247008323669,0.2718755304813385,1.3694831132888794,-0.023874973878264427,0.19567592442035675
224.0,201.0,6.5216,4.2323,6.003,-0.2002,0.1239,0.5774,-1.7043897114195765,-0.06901028007268906,1.9450466632843018,-1.2675915956497192,0.00010255423694616184,1.7879376411437988,-2.5294186077513636,0.2712837755680084,0.3925588130950928,-1.2172344366656702,-0.00016768767090979964,-0.19548426568508148,-0.05959922472109014,0.6746547222137451,0.2788572907447815,1.36929190158844,-0.026520639657974243,0.19805021584033966
224.0,201.0,6.5216,4.2323,6.003,-0.2002,0.1239,0.5774,-1.7048851452269496,-0.06688272207975388,1.9140509366989136,-1.267567753791809,0.0001881333882920444,1.8226494789123535,-2.527361055413717,0.2566309869289398,0.3753334879875183,-1.2172506491290491,-0.0001259680138900876,-0.18914638459682465,-0.05424958864320928,0.6808960437774658,0.27039486169815063,1.3690763711929321,-0.032072603702545166,0.16767796874046326
224.0,201.0,6.5216,4.2323,6.003,-0.2002,0.1239,0.5774,-1.7052966556944789,-0.06828290969133377,1.8897202014923096,-1.2675312757492065,0.00014320957416202873,1.7354869842529297,-2.525900503198141,0.25145941972732544,0.36315083503723145,-1.2172468344317835,-0.00011478675878606737,-0.1848049759864807,-0.05023652711977178,0.6607400178909302,0.22804707288742065,1.3689208030700684,-0.03456771373748779,0.1754634976387024
224.0,201.0,6.5216,4.2323,6.003,-0.2002,0.1239,0.5774,-1.705860277215475,-0.06990008801221848,1.8757565021514893,-1.2675193548202515,0.00010863102943403646,1.7441389560699463,-2.524092813531393,0.21631652116775513,0.3414887487888336,-1.2172468344317835,-0.00010415825090603903,-0.1889590322971344,-0.04499847093691045,0.6548481583595276,0.22730900347232819,1.3686095476150513,-0.03543773666024208,0.17218905687332153
224.0,201.0,6.5216,4.2323,6.003,-0.2002,0.1239,0.5774,-1.7064720592894496,-0.07177227735519409,1.884488821029663,-1.2676039934158325,4.5541954023065045e-05,1.790008544921875,-2.522435804406637,0.1924080103635788,0.331158846616745,-1.217198673878805,-6.68936554575339e-05,-0.16527876257896423,-0.039991203938619435,0.6251695156097412,0.2047949731349945,1.3683903217315674,-0.03532194718718529,0.10643011331558228
224.0,201.0,6.5216,4.2323,6.003,-0.2002,0.1239,0.5774,-1.7068993053831996,-0.07659170031547546,1.8539557456970215,-1.26755952835083,3.818321420112625e-05,1.6731674671173096,-2.521489759484762,0.1503225415945053,0.2959493398666382,-1.2172272841082972,4.3033771362388507e-05,-0.18462887406349182,-0.036353890095846,0.5905762314796448,0.17700935900211334,1.3681268692016602,-0.03688960149884224,0.15193507075309753
224.0,201.0,6.5216,4.2323,6.003,-0.2002,0.1239,0.5774,-1.707566877404684,-0.0805692970752716,1.8173993825912476,-1.2675838470458984,1.952060699750291e-07,1.7462607622146606,-2.5204721889891566,0.11885901540517807,0.27244067192077637,-1.2171991507159632,0.0009148138342425227,-0.15646104514598846,-0.031798664723531544,0.5570488572120667,0.17483176290988922,1.3677994012832642,-0.041287969797849655,0.11104172468185425
224.0,201.0,6.5216,4.2323,6.003,-0.2002,0.1239,0.5774,-1.7080022297301234,-0.08019228279590607,1.8477596044540405,-1.2675635814666748,4.71399612053669e-13,1.7277936935424805,-2.519865175286764,0.08873314410448074,0.24550963938236237,-1.2171948591815394,0.001065475051291287,-0.15252144634723663,-0.028712097798482716,0.5085219740867615,0.1566123366355896,1.367552638053894,-0.04521428421139717,0.09211862087249756
224.0,201.0,6.5216,4.2323,6.003,-0.2002,0.1239,0.5774,-1.7086135349669398,-0.08373580873012543,1.7806203365325928,-1.2676122188568115,1.5272747790687994e-20,1.7100294828414917,-2.519398351708883,0.03533603623509407,0.2022143006324768,-1.2171834150897425,0.0009032317320816219,-0.14841724932193756,-0.02476674715151006,0.4808577597141266,0.15026307106018066,1.3671776056289673,-0.053465329110622406,0.06433327496051788
224.0,201.0,6.5216,4.2323,6.003,-0.2002,0.1239,0.5774,-1.709292551080221,-0.09068870544433594,1.8240172863006592,-1.2676204442977905,4.948176250317462e-28,1.6734524965286255,-2.5193382702269496,-0.018930945545434952,0.17804522812366486,-1.217154328023092,0.0007019396871328354,-0.1355905532836914,-0.021312538777486623,0.41862964630126953,0.10929089784622192,1.3667389154434204,-0.06587497144937515,0.027038313448429108
224.0,201.0,6.5216,4.2323,6.003,-0.2002,0.1239,0.5774,-1.7098924122252406,-0.0958898738026619,1.8495038747787476,-1.267603874206543,1.19492646630283e-33,1.7172415256500244,-2.519522329370016,-0.029412996023893356,0.1713852435350418,-1.2172029654132288,0.000635921664070338,-0.12877994775772095,-0.018943134938375294,0.3801211416721344,0.08482597023248672,1.3662673234939575,-0.07660963386297226,0.049614716321229935
228.0,191.0,4.3196,2.2271,6.7196,0.0446,-0.0247,0.1391,-1.7106553516783656,-0.0994081124663353,1.8769354820251465,-1.2675353288650513,3.871367267390172e-41,1.6927787065505981,-2.519642015496725,-0.021769637241959572,0.15646600723266602,-1.217215363179342,0.00044116200297139585,-0.11606229841709137,-0.016219441090719044,0.3063550889492035,0.05251865088939667,1.3656617403030396,-0.08983157575130463,-0.05090794712305069
228.0,191.0,4.3196,2.2271,6.7196,0.0446,-0.0247,0.1391,-1.7112990818419398,-0.0993240475654602,1.9353044033050537,-1.2675471305847168,0.0,1.7609074115753174,-2.5196978054442347,-0.008528679609298706,0.17918851971626282,-1.2171624342547815,0.0004086447006557137,-0.11403075605630875,-0.014603916798726857,0.2611803114414215,0.019962625578045845,1.3651223182678223,-0.09829827398061752,-0.08404800295829773
228.0,191.0,4.3196,2.2271,6.7196,0.0446,-0.0247,0.1391,-1.712130685845846,-0.10247574001550674,1.9176886081695557,-1.2676122188568115,-0.0,1.7449119091033936,-2.519705434838766,0.0038892461452633142,0.17818722128868103,-1.2171991507159632,0.0003138486936222762,-0.10112130641937256,-0.012816254292623341,0.1928146630525589,0.0002498643007129431,1.3643373250961304,-0.09960149228572845,-0.060066524893045425
228.0,191.0,4.3196,2.2271,6.7196,0.0446,-0.0247,0.1391,-1.7129627666869105,-0.10194212943315506,1.9591820240020752,-1.2676122188568115,-0.0,1.7240046262741089,-2.5197578869261683,0.0008809808641672134,0.1691579818725586,-1.217215363179342,0.00029705517226830125,-0.11661036312580109,-0.011730972920553029,0.10413750261068344,-0.05287238210439682,1.3635506629943848,-0.0994393602013588,-0.1384752094745636
228.0,191.0,4.3196,2.2271,6.7196,0.0446,-0.0247,0.1391,-1.7135912380614222,-0.10199148207902908,2.0129811763763428,-1.267502784729004,-0.0,1.790403127670288,-2.5197535953917445,-0.0003224615065846592,0.17686793208122253,-1.217191521321432,0.0002973351802211255,-0.12344453483819962,-0.011308018361226857,0.052049390971660614,-0.0714949369430542,1.362881064414978,-0.09757893532514572,-0.03416943922638893
228.0,191.0,4.3196,2.2271,6.7196,0.0446,-0.0247,0.1391,-1.7145010433592738,-0.10893621295690536,1.9805881977081299,-1.2675917148590088,-0.0,1.75215744972229,-2.519681592980856,-0.00015519527369178832,0.15860816836357117,-1.2171667257892054,0.0002951840288005769,-0.11658459156751633,-0.011225048695699513,-0.018782246857881546,-0.11135366559028625,1.3621033430099487,-0.1007348820567131,-0.13263148069381714
228.0,191.0,4.3196,2.2271,6.7196,0.0446,-0.0247,0.1391,-1.7151295147337855,-0.11470800638198853,1.9954094886779785,-1.26755952835083,-0.0,1.7763173580169678,-2.519705911675924,-2.064689397229813e-06,0.17078867554664612,-1.2171629110919397,0.0003007709456142038,-0.10622880607843399,-0.011453930531637013,-0.04317668452858925,-0.12963689863681793,1.3615009784698486,-0.10581667721271515,-0.14532989263534546
228.0,191.0,4.3196,2.2271,6.7196,0.0446,-0.0247,0.1391,-1.716074605981344,-0.1266542226076126,2.0141968727111816,-1.267567753791809,-0.0,1.7839677333831787,-2.519754549066061,-3.752470556506182e-11,0.17081227898597717,-1.2171991507159632,0.00025776936672627926,-0.0989043116569519,-0.011700455342428029,-0.04516684636473656,-0.12492690980434418,1.3606034517288208,-0.1185891181230545,-0.11960127204656601
228.0,191.0,4.3196,2.2271,6.7196,0.0446,-0.0247,0.1391,-1.7171646557249964,-0.12966851890087128,2.0800256729125977,-1.2674751281738281,0.0016902504721656442,1.822901725769043,-2.5196944675841273,0.002470682142302394,0.18813717365264893,-1.2172506491290491,0.0002254759456263855,-0.10326544940471649,-0.01197225252260381,-0.040252383798360825,-0.1224835216999054,1.3596221208572388,-0.12876896560192108,-0.12386521697044373
228.0,191.0,4.3196,2.2271,6.7196,0.0446,-0.0247,0.1391,-1.717888971368307,-0.11961381137371063,2.099076509475708,-1.2675273418426514,0.0021147653460502625,1.8592159748077393,-2.519609590569967,0.0041317990981042385,0.20282520353794098,-1.2172310988055628,0.00018035477842204273,-0.11206942796707153,-0.012159172688619435,-0.042254671454429626,-0.12638729810714722,1.358884334564209,-0.12882788479328156,-0.11985602974891663
228.0,191.0,4.3196,2.2271,6.7196,0.0446,-0.0247,0.1391,-1.7189070187010707,-0.10495899617671967,2.1344618797302246,-1.2675036191940308,0.0011435184860602021,1.8451306819915771,-2.5195499859251917,0.005064822733402252,0.22434091567993164,-1.2172392050372522,8.872062608134001e-05,-0.11075849831104279,-0.012571636830465138,-0.05842877924442291,-0.1211751401424408,1.3578550815582275,-0.12305641174316406,-0.1200956404209137
228.0,191.0,4.3196,2.2271,6.7196,0.0446,-0.0247,0.1391,-1.7195435963072718,-0.10668732225894928,2.1726372241973877,-1.2675719261169434,3.117281153208751e-07,1.9049100875854492,-2.5195981464781703,0.00455912109464407,0.22592633962631226,-1.2172072569476526,7.33622582629323e-05,-0.13115811347961426,-0.0130236784564417,-0.07736217230558395,-0.1248677521944046,1.357145071029663,-0.11545424908399582,-0.10797266662120819
213.0,195.0,6.8076,3.6437,6.1872,-0.0544,-0.2091,-0.3097,-1.7205568752684535,-0.1229071319103241,2.174201011657715,-1.2675353288650513,-0.0017614966491237283,1.865018367767334,-2.519590040246481,0.0017132986104115844,0.2061609923839569,-1.217170540486471,7.85308875492774e-05,-0.12050782144069672,-0.013681713734762013,-0.08376708626747131,-0.1247987151145935,1.3561917543411255,-0.11481315642595291,-0.13976438343524933
213.0,195.0,6.8076,3.6437,6.1872,-0.0544,-0.2091,-0.3097,-1.7215739689269007,-0.13947170972824097,2.1900839805603027,-1.2675435543060303,-0.0004188676830381155,1.861883521080017,-2.5196148357787074,0.00020501174731180072,0.21300886571407318,-1.2172511259662073,8.298119792016223e-05,-0.11233453452587128,-0.014095131550924123,-0.04096730798482895,-0.11151248216629028,1.355238437652588,-0.12496644258499146,-0.10632598400115967
213.0,195.0,6.8076,3.6437,6.1872,-0.0544,-0.2091,-0.3097,-1.7223826847472132,-0.14708618819713593,2.191303253173828,-1.2674994468688965,0.0005741406930610538,1.898198127746582,-2.5195542774596156,0.0003648103156592697,0.21653616428375244,-1.2172110716449183,7.597578223794699e-05,-0.13812953233718872,-0.01426726976503545,-0.003802907420322299,-0.08304892480373383,1.3544642925262451,-0.13329444825649261,-0.09692777693271637
213.0,195.0,6.8076,3.6437,6.1872,-0.0544,-0.2091,-0.3097,-1.723588605920309,-0.1416591852903366,2.1354353427886963,-1.2674235105514526,0.003116031177341938,1.8722546100616455,-2.519482275048727,0.004539207089692354,0.23239882290363312,-1.2171948591815394,6.828891491750255e-05,-0.10748155415058136,-0.014142815266744435,0.02351265400648117,-0.0721878856420517,1.3533673286437988,-0.13758277893066406,-0.10323789715766907
213.0,195.0,6.8076,3.6437,6.1872,-0.0544,-0.2091,-0.3097,-1.7243977985777796,-0.12724579870700836,2.2043163776397705,-1.2674912214279175,0.0032452221494168043,1.8902137279510498,-2.5194465122618617,0.007654988672584295,0.23273712396621704,-1.2171991507159632,-1.3963113815407269e-05,-0.12409878522157669,-0.0140154997455042,0.02311152219772339,-0.056057922542095184,1.3525898456573486,-0.13526631891727448,-0.07532351464033127
213.0,195.0,6.8076,3.6437,6.1872,-0.0544,-0.2091,-0.3097,-1.7254187069334925,-0.1170051321387291,2.243356943130493,-1.2674751281738281,0.001061600516550243,1.9477827548980713,-2.519386430779928,0.008326970972120762,0.24218538403511047,-1.217254940663473,-3.480198574834503e-05,-0.13532257080078125,-0.01398021379579717,0.007356949150562286,-0.049925606697797775,1.3515446186065674,-0.1231708899140358,-0.08518258482217789
213.0,195.0,6.8076,3.6437,6.1872,-0.0544,-0.2091,-0.3097,-1.7263676128783167,-0.12604281306266785,2.1948068141937256,-1.267600178718567,-0.002445054240524769,1.8823771476745605,-2.519358297387594,0.0054110148921608925,0.23797768354415894,-1.2172392050372522,-3.0139839509502053e-05,-0.14122915267944336,-0.013975922261373341,-0.001617317902855575,-0.0817890390753746,1.3505513668060303,-0.1170077919960022,-0.07012756168842316
