ramyac6/ROB537/final_project/csv/all/good_56.csv
tof_0,tof_1,accelx,accely,accelz,gyrox,gyroy,gyroz,shoulder_lift_joint_position,shoulder_lift_joint_velocity,shoulder_lift_joint_effort,elbow_joint_position,elbow_joint_velocity,elbow_joint_effort,wrist_1_joint_position,wrist_1_joint_velocity,wrist_1_joint_effort,wrist_2_joint_position,wrist_2_joint_velocity,wrist_2_joint_effort,wrist_3_joint_position,wrist_3_joint_velocity,wrist_3_joint_effort,shoulder_pan_joint_position,shoulder_pan_joint_velocity,shoulder_pan_joint_effort
639.0,565.0,-4.1151,0.4786,8.8582,-0.0315,0.0174,-0.121,-2.3662859402098597,0.0,4.977997779846191,-1.3192625045776367,-0.0,1.885284662246704,5.540215480118551,-0.0,0.2155725359916687,-1.7939518133746546,-0.0,0.04185055196285248,0.19378559291362762,0.0,0.007073869928717613,1.5191110372543335,0.0,0.02673202008008957
639.0,565.0,-4.1151,0.4786,8.8582,-0.0315,0.0174,-0.121,-2.366294046441549,0.0,4.943151473999023,-1.3192909955978394,-0.0,1.865091323852539,5.540187108307638,-0.0,0.22648823261260986,-1.79393178621401,-0.0,0.04086244851350784,0.1937061846256256,0.0,0.003997058141976595,1.5191068649291992,0.0,0.03243272751569748
639.0,565.0,-4.1151,0.4786,8.8582,-0.0315,0.0174,-0.121,-2.3663064442076625,0.0,4.933351039886475,-1.319286823272705,-0.0,1.8650543689727783,5.540211486607351,-0.0,0.2139875441789627,-1.7939031759845179,-0.0,0.03587869554758072,0.19375014305114746,0.0,-0.0068229734897613525,1.5191749334335327,0.0,0.013813057914376259
639.0,565.0,-4.1151,0.4786,8.8582,-0.0315,0.0174,-0.121,-2.3662620983519496,0.0,4.959291458129883,-1.3192702531814575,-0.0,1.8720316886901855,5.540211427002706,-0.0,0.2260967493057251,-1.7939556280719202,-0.0,0.045814499258995056,0.19381771981716156,0.0,0.00455900002270937,1.519150733947754,0.0,0.08379243314266205
639.0,565.0,-4.1151,0.4786,8.8582,-0.0315,0.0174,-0.121,-2.366322179833883,0.0,4.918704032897949,-1.3193188905715942,-0.0,1.869297742843628,5.540211427002706,-0.0,0.22214773297309875,-1.7939236799823206,-0.0,0.03830129653215408,0.1938057243824005,0.0,0.012465212494134903,1.5191549062728882,0.0,0.0030116839334368706
639.0,565.0,-4.1151,0.4786,8.8582,-0.0315,0.0174,-0.121,-2.3663507900633753,0.0,4.943221092224121,-1.3192299604415894,-0.0,1.848597764968872,5.540195274143972,-0.0,0.23456114530563354,-1.7939394156085413,-0.0,0.04498938471078873,0.1937301903963089,0.0,0.006374858785420656,1.5191068649291992,0.0,0.04077436774969101
639.0,565.0,-4.1151,0.4786,8.8582,-0.0315,0.0174,-0.121,-2.366326471368307,0.0,4.93880558013916,-1.319258451461792,-0.0,1.8724682331085205,5.540166842728414,-0.0,0.2123321294784546,-1.7939155737506312,-0.0,0.03087686374783516,0.19374212622642517,0.0,0.012788225896656513,1.5191231966018677,0.0,-0.016742078587412834
620.0,560.0,-4.1701,0.4857,8.9486,-0.0353,0.0244,-0.1184,-2.366297861138815,0.0,4.929076671600342,-1.3192176818847656,-0.0,1.8390755653381348,5.540191340237417,-0.0,0.2269500494003296,-1.7939274946795862,-0.0,0.02770276367664337,0.1937696784734726,0.0,0.0035106560681015253,1.5190867185592651,0.0,0.044931020587682724
620.0,560.0,-4.1701,0.4857,8.9486,-0.0353,0.0244,-0.1184,-2.366297861138815,0.0,4.9076104164123535,-1.3192784786224365,-0.0,1.8783774375915527,5.540171134262838,-0.0,0.23157212138175964,-1.7939117590533655,-0.0,0.03325427323579788,0.1937580108642578,0.0,-0.0016914817970246077,1.5191426277160645,0.0,0.03578265383839607
620.0,560.0,-4.1701,0.4857,8.9486,-0.0353,0.0244,-0.1184,-2.366310258904928,0.0,4.923364639282227,-1.3192909955978394,-0.0,1.8572323322296143,5.540199506073751,-0.0,0.22075827419757843,-1.7939112822162073,-0.0,0.03385566920042038,0.1937660574913025,0.0,0.008056996390223503,1.5191184282302856,0.0,0.030144134536385536
620.0,560.0,-4.1701,0.4857,8.9486,-0.0353,0.0244,-0.1184,-2.3663507900633753,0.0,4.959603309631348,-1.3193023204803467,-0.0,1.8369299173355103,5.540231513767996,-0.0,0.2288033366203308,-1.7939356009112757,-0.0,0.03011445701122284,0.19378161430358887,0.0,0.0021903517190366983,1.5190786123275757,0.0,-0.028151985257864
620.0,560.0,-4.1701,0.4857,8.9486,-0.0353,0.0244,-0.1184,-2.3663388691344203,0.0,4.967589855194092,-1.3192620277404785,-0.0,1.8425238132476807,5.540199506073751,-0.0,0.220473051071167,-1.7939313093768519,-0.0,0.04170230031013489,0.19378164410591125,0.0,0.007959578186273575,1.5191303491592407,0.0,0.06704734265804291
620.0,560.0,-4.1701,0.4857,8.9486,-0.0353,0.0244,-0.1184,-2.3662945232787074,0.0,4.909754276275635,-1.319266676902771,-0.0,1.865783452987671,5.540215480118551,-0.0,0.2275744080543518,-1.7939274946795862,-0.0,0.028613809496164322,0.19375018775463104,0.0,0.0006532236002385616,1.5191789865493774,0.0,0.060126714408397675
620.0,560.0,-4.1701,0.4857,8.9486,-0.0353,0.0244,-0.1184,-2.3662902317442835,0.0,4.931560516357422,-1.319258451461792,-0.0,1.8675942420959473,5.540182816773214,-0.0,0.2260850965976715,-1.7938912550555628,-0.0,0.05569890886545181,0.1937894970178604,0.0,0.0035889113787561655,1.5191184282302856,0.0,-0.0015259161591529846
620.0,560.0,-4.1701,0.4857,8.9486,-0.0353,0.0244,-0.1184,-2.3663388691344203,0.0,4.903964996337891,-1.319258451461792,-0.0,1.8730480670928955,5.54022382476882,-0.0,0.2270834743976593,-1.7939356009112757,-0.0,0.028242498636245728,0.19374608993530273,0.0,0.0019202616531401873,1.5191385746002197,0.0,0.04577808454632759
620.0,560.0,-4.1701,0.4857,8.9486,-0.0353,0.0244,-0.1184,-2.366322179833883,0.0,4.978741645812988,-1.3192992210388184,-0.0,1.8716564178466797,5.540207373886862,-0.0,0.21874870359897614,-1.79384690919985,-0.0,0.03716272860765457,0.19378161430358887,0.0,-0.002350440016016364,1.519134759902954,0.0,0.039874400943517685
620.0,560.0,-4.1701,0.4857,8.9486,-0.0353,0.0244,-0.1184,-2.366330762902731,0.0,4.9609599113464355,-1.3192662000656128,-0.0,1.8861167430877686,5.540191221028127,-0.0,0.23045560717582703,-1.7938874403582972,-0.0,0.028691839426755905,0.19378557801246643,0.0,0.0015234730672091246,1.5191266536712646,0.0,0.025054045021533966
620.0,560.0,-4.1701,0.4857,8.9486,-0.0353,0.0244,-0.1184,-2.366294046441549,0.0,4.901082515716553,-1.3192744255065918,-0.0,1.8606595993041992,5.540219771652975,-0.0,0.22689923644065857,-1.7939236799823206,-0.0,0.03656727820634842,0.19373026490211487,0.0,-0.0006929748924449086,1.5191149711608887,0.0,0.014494971372187138
620.0,560.0,-4.1701,0.4857,8.9486,-0.0353,0.0244,-0.1184,-2.3663021526732386,0.0,4.95761775970459,-1.319290041923523,-0.0,1.8524030447006226,5.540178823262014,-0.0,0.20820948481559753,-1.7938831488238733,-0.0,0.0298373494297266,0.19380569458007812,0.0,-0.003345377976074815,1.5191307067871094,0.0,0.04054911434650421
657.0,576.0,-4.1354,0.463,8.9611,-0.0345,0.0218,-0.1168,-2.3663021526732386,0.0,4.9141058921813965,-1.3192464113235474,-0.0,1.8602917194366455,5.54022382476882,-0.0,0.22852365672588348,-1.7939236799823206,-0.0,0.04909117519855499,0.19372206926345825,0.0,0.005212361458688974,1.5191184282302856,0.0,-0.000733454420696944
657.0,576.0,-4.1354,0.463,8.9611,-0.0345,0.0218,-0.1168,-2.3663345775999964,0.0,4.926723480224609,-1.319258451461792,-0.0,1.8324432373046875,5.54020373800353,-0.0,0.2195824533700943,-1.7939074675189417,-0.0,0.02696920745074749,0.19374606013298035,0.0,0.004583379719406366,1.519170880317688,0.0,0.023521874099969864
657.0,576.0,-4.1354,0.463,8.9611,-0.0345,0.0218,-0.1168,-2.3662859402098597,0.0,4.943314075469971,-1.3193023204803467,-0.0,1.863977313041687,5.54020373800353,-0.0,0.23266485333442688,-1.7939031759845179,-0.0,0.04138118028640747,0.19380569458007812,0.0,0.011622668243944645,1.5191307067871094,0.0,0.040590859949588776
657.0,576.0,-4.1354,0.463,8.9611,-0.0345,0.0218,-0.1168,-2.3663183651366175,0.0,4.951388359069824,-1.3192707300186157,-0.0,1.87815523147583,5.540199506073751,-0.0,0.22172506153583527,-1.7939236799823206,-0.0,0.03313462436199188,0.1937382072210312,0.0,0.017717767506837845,1.519114375114441,0.0,0.06459290534257889
657.0,576.0,-4.1354,0.463,8.9611,-0.0345,0.0218,-0.1168,-2.366297861138815,0.0,4.971287250518799,-1.3192784786224365,-0.0,1.884211540222168,5.540215480118551,-0.0,0.2164727747440338,-1.7939594427691858,-0.0,0.023887306451797485,0.19377361238002777,0.0,0.005249799694865942,1.519150733947754,0.0,-0.010059933178126812
657.0,576.0,-4.1354,0.463,8.9611,-0.0345,0.0218,-0.1168,-2.366322179833883,0.0,4.930563926696777,-1.3192702531814575,-0.0,1.8803656101226807,5.540166842728414,-0.0,0.22129511833190918,-1.7938993612872522,-0.0,0.03101031295955181,0.19379347562789917,0.0,-0.011742626316845417,1.5191068649291992,0.0,0.0225616917014122
657.0,576.0,-4.1354,0.463,8.9611,-0.0345,0.0218,-0.1168,-2.3663140736021937,0.0,4.935008525848389,-1.3193106651306152,-0.0,1.8820219039916992,5.540187167912283,-0.0,0.2206220030784607,-1.7939356009112757,-0.0,0.041794855147600174,0.1937343031167984,0.0,-0.006078790873289108,1.5191426277160645,0.0,0.0027062753215432167
657.0,576.0,-4.1354,0.463,8.9611,-0.0345,0.0218,-0.1168,-2.3663021526732386,0.0,4.902637481689453,-1.3192542791366577,-0.0,1.830622673034668,5.5401954529579065,-0.0,0.21441011130809784,-1.7938712278949183,-0.0,0.035227835178375244,0.19381371140480042,0.0,-0.007086479105055332,1.51912260055542,0.0,-0.009277448058128357
657.0,576.0,-4.1354,0.463,8.9611,-0.0345,0.0218,-0.1168,-2.3662783108153285,0.0,4.938736915588379,-1.3192505836486816,-0.0,1.8557264804840088,5.540235745697775,-0.0,0.22590231895446777,-1.7939117590533655,-0.0,0.038537487387657166,0.1937420815229416,0.0,0.0052315061911940575,1.5191385746002197,0.0,0.02665744349360466
657.0,576.0,-4.1354,0.463,8.9611,-0.0345,0.0218,-0.1168,-2.366294046441549,0.0,4.8924055099487305,-1.3192381858825684,-0.0,1.8572636842727661,5.540187167912283,-0.0,0.22382709383964539,-1.79393178621401,-0.0,0.03272620216012001,0.19376972317695618,0.0,0.004230901133269072,1.5191465616226196,0.0,-0.01720885932445526
657.0,576.0,-4.1354,0.463,8.9611,-0.0345,0.0218,-0.1168,-2.3662778339781703,0.0,4.950653553009033,-1.3192909955978394,-0.0,1.9106309413909912,5.540215480118551,-0.0,0.21777664124965668,-1.7938507238971155,-0.0,0.035191312432289124,0.19376197457313538,0.0,0.0028337030671536922,1.5191670656204224,0.0,0.036602169275283813
657.0,576.0,-4.1354,0.463,8.9611,-0.0345,0.0218,-0.1168,-2.3663188419737757,0.0,4.941094398498535,-1.3192784786224365,-0.0,1.8059132099151611,5.540166842728414,-0.0,0.2183765470981598,-1.7939193884478968,-0.0,0.05055628716945648,0.1937541365623474,0.0,0.02100168913602829,1.5191184282302856,0.0,0.04597873613238335
648.0,580.0,-4.1234,0.4702,8.9115,-0.0353,0.0252,-0.1211,-2.366297861138815,0.0,4.925139427185059,-1.3192826509475708,-0.0,1.8520879745483398,5.54022382476882,-0.0,0.21514272689819336,-1.793915096913473,-0.0,0.03171283006668091,0.193821519613266,0.0,-0.007874248549342155,1.519158959388733,0.0,-0.03479831665754318
648.0,580.0,-4.1234,0.4702,8.9115,-0.0353,0.0252,-0.1211,-2.3663670025267542,0.0,4.948362827301025,-1.319250226020813,-0.0,1.864335298538208,5.540199506073751,-0.0,0.22518400847911835,-1.7939394156085413,-0.0,0.031587593257427216,0.1937696933746338,0.0,0.007152208127081394,1.519158959388733,0.0,0.03135368973016739
648.0,580.0,-4.1234,0.4702,8.9115,-0.0353,0.0252,-0.1211,-2.3662778339781703,0.0,4.926170349121094,-1.319250226020813,-0.0,1.8453762531280518,5.54020785072402,-0.0,0.22355881333351135,-1.7938874403582972,-0.0,0.03085831180214882,0.19371813535690308,0.0,0.006748964078724384,1.5191549062728882,0.0,0.018717046827077866
648.0,580.0,-4.1234,0.4702,8.9115,-0.0353,0.0252,-0.1211,-2.3663021526732386,0.0,4.883317947387695,-1.3192951679229736,-0.0,1.8476340770721436,5.540211427002706,-0.0,0.2174779623746872,-1.7939236799823206,-0.0,0.027734816074371338,0.19375799596309662,0.0,0.013847514055669308,1.519102692604065,0.0,-0.04421953856945038
648.0,580.0,-4.1234,0.4702,8.9115,-0.0353,0.0252,-0.1211,-2.366314550439352,0.0,4.961103916168213,-1.3193073272705078,-0.0,1.9065319299697876,5.540219175606527,-0.0,0.22496074438095093,-1.7939031759845179,-0.0,0.041058965027332306,0.1937263309955597,0.0,0.011419065296649933,1.5191149711608887,0.0,0.00968746468424797
648.0,580.0,-4.1234,0.4702,8.9115,-0.0353,0.0252,-0.1211,-2.3663021526732386,0.0,4.964416980743408,-1.3192909955978394,-0.0,1.9071869850158691,5.540215480118551,-0.0,0.22484233975410461,-1.7938912550555628,-0.0,0.03801045939326286,0.1937343180179596,0.0,0.006289090029895306,1.5191549062728882,0.0,-0.002188907703384757
648.0,580.0,-4.1234,0.4702,8.9115,-0.0353,0.0252,-0.1211,-2.3662778339781703,0.0,4.90932559967041,-1.3192620277404785,-0.0,1.8770866394042969,5.540203201561727,-0.0,0.22178518772125244,-1.7939356009112757,-0.0,0.035720452666282654,0.19376173615455627,0.0,0.006108125206083059,1.5191549062728882,0.0,-0.015538028441369534
648.0,580.0,-4.1234,0.4702,8.9115,-0.0353,0.0252,-0.1211,-2.366314550439352,0.0,4.920949935913086,-1.3192826509475708,-0.0,1.8444366455078125,5.540195393353262,-0.0,0.2104177474975586,-1.7938874403582972,-0.0,0.029839325696229935,0.19376572966575623,0.0,-0.0025330684147775173,1.51912260055542,0.0,0.005990654230117798
648.0,580.0,-4.1234,0.4702,8.9115,-0.0353,0.0252,-0.1211,-2.3663188419737757,0.0,4.924801349639893,-1.319278597831726,-0.0,1.8287572860717773,5.54020373800353,-0.0,0.22241145372390747,-1.7938955465899866,-0.0,0.03047889471054077,0.1936941146850586,0.0,0.006558889523148537,1.5191069841384888,0.0,0.03799230605363846
648.0,580.0,-4.1234,0.4702,8.9115,-0.0353,0.0252,-0.1211,-2.366330762902731,0.0,4.986087322235107,-1.319250226020813,-0.0,1.816584587097168,5.540207314282217,-0.0,0.21169522404670715,-1.7939031759845179,-0.0,0.043208349496126175,0.19378159940242767,0.0,0.0015274505130946636,1.5190986394882202,0.0,-0.04504026472568512
648.0,580.0,-4.1234,0.4702,8.9115,-0.0353,0.0252,-0.1211,-2.3663021526732386,0.0,4.932161808013916,-1.3192827701568604,-0.0,1.8704732656478882,5.540138590126791,-0.0,0.22285237908363342,-1.793915096913473,-0.0,0.04442828148603439,0.19375020265579224,0.0,0.005736442282795906,1.5191749334335327,0.0,-0.0412873849272728
648.0,580.0,-4.1234,0.4702,8.9115,-0.0353,0.0252,-0.1211,-2.3663507900633753,0.0,4.911822319030762,-1.3192144632339478,-0.0,1.8547170162200928,5.540166842728414,-0.0,0.21960291266441345,-1.7938955465899866,-0.0,0.02476980723440647,0.19380955398082733,0.0,0.010893727652728558,1.5191385746002197,0.0,-0.025787748396396637
640.0,545.0,-4.1384,0.4792,8.951,-0.0368,0.0241,-0.1124,-2.3663226566710414,0.0,4.946527481079102,-1.3193230628967285,-0.0,1.8737164735794067,5.54020373800353,-0.0,0.22317229211330414,-1.7938993612872522,-0.0,0.03021235018968582,0.19382159411907196,0.0,-0.0042302412912249565,1.5191385746002197,0.0,0.02992035634815693
640.0,545.0,-4.1384,0.4792,8.951,-0.0368,0.0241,-0.1124,-2.366330762902731,0.0,4.987240314483643,-1.3193023204803467,-0.0,1.8016430139541626,5.540166902333059,-0.0,0.21918554604053497,-1.7939236799823206,-0.0,0.0296708345413208,0.19375023245811462,0.0,0.007041767239570618,1.519150733947754,0.0,0.015724752098321915
640.0,545.0,-4.1384,0.4792,8.951,-0.0368,0.0241,-0.1124,-2.366282125512594,0.0,4.915687561035156,-1.319286823272705,-0.0,1.8426475524902344,5.540166842728414,-0.0,0.23594675958156586,-1.7938950697528284,-0.0,0.04584289714694023,0.1937735676765442,0.0,0.030347570776939392,1.5191385746002197,0.0,0.026045745238661766
640.0,545.0,-4.1384,0.4792,8.951,-0.0368,0.0241,-0.1124,-2.366310258904928,0.0,4.928257942199707,-1.31931471824646,-0.0,1.886469841003418,5.540215539723196,-0.0,0.2214909791946411,-1.7939155737506312,-0.0,0.03641968593001366,0.19369035959243774,0.0,0.005824586376547813,1.5191110372543335,0.0,-0.023842783644795418
640.0,545.0,-4.1384,0.4792,8.951,-0.0368,0.0241,-0.1124,-2.366282125512594,0.0,4.961634159088135,-1.3192625045776367,-0.0,1.8608953952789307,5.54020785072402,-0.0,0.20779642462730408,-1.793943230305807,-0.0,0.04904797673225403,0.19375023245811462,0.0,-0.005057246889919043,1.519074559211731,0.0,0.005642794072628021
640.0,545.0,-4.1384,0.4792,8.951,-0.0368,0.0241,-0.1124,-2.3662859402098597,0.0,4.955497741699219,-1.3192423582077026,-0.0,1.8421006202697754,5.540203797608175,-0.0,0.22231119871139526,-1.793875519429342,-0.0,0.04897860437631607,0.19371815025806427,0.0,0.008566267788410187,1.5191307067871094,0.0,0.009204407222568989
640.0,545.0,-4.1384,0.4792,8.951,-0.0368,0.0241,-0.1124,-2.366330762902731,0.0,4.949739933013916,-1.319266676902771,-0.0,1.8317655324935913,5.540175246983328,-0.0,0.22417598962783813,-1.7939117590533655,-0.0,0.03727974742650986,0.19372598826885223,0.0,0.0008418302168138325,1.5191266536712646,0.0,0.0017951279878616333
640.0,545.0,-4.1384,0.4792,8.951,-0.0368,0.0241,-0.1124,-2.3663226566710414,0.0,4.926242828369141,-1.319295048713684,-0.0,1.8923704624176025,5.540166902333059,-0.0,0.23786889016628265,-1.7939556280719202,-0.0,0.029028497636318207,0.1936943084001541,0.0,0.005070339422672987,1.519074559211731,0.0,-0.021224677562713623
640.0,545.0,-4.1384,0.4792,8.951,-0.0368,0.0241,-0.1124,-2.366298337975973,0.0,4.963971138000488,-1.3192341327667236,-0.0,1.8648072481155396,5.540182876377859,-0.0,0.23224656283855438,-1.7939556280719202,-0.0,0.03450164943933487,0.19376572966575623,0.0,-0.0010659154504537582,1.5191307067871094,0.0,0.005468133836984634
640.0,545.0,-4.1384,0.4792,8.951,-0.0368,0.0241,-0.1124,-2.366314550439352,0.0,4.936944961547852,-1.3193188905715942,-0.0,1.838187575340271,5.540256130486288,-0.0,0.22790992259979248,-1.7939274946795862,-0.0,0.03194563090801239,0.1937299519777298,0.0,0.0035074518527835608,1.5191549062728882,0.0,0.015709469094872475
640.0,545.0,-4.1384,0.4792,8.951,-0.0368,0.0241,-0.1124,-2.3662945232787074,0.0,4.95612907409668,-1.319258689880371,-0.0,1.816986083984375,5.540191340237417,-0.0,0.23280403017997742,-1.7939274946795862,-0.0,0.032512832432985306,0.19372636079788208,0.0,-0.0030596312135457993,1.5191184282302856,0.0,-0.008748525753617287
640.0,545.0,-4.1384,0.4792,8.951,-0.0368,0.0241,-0.1124,-2.366314550439352,0.0,4.944618225097656,-1.3192662000656128,-0.0,1.8464794158935547,5.540199506073751,-0.0,0.22704863548278809,-1.7939274946795862,-0.0,0.024391185492277145,0.1938095986843109,0.0,-0.013978364877402782,1.5191110372543335,0.0,0.022817250341176987
643.0,592.0,-4.0816,0.5043,8.7422,-0.0461,0.0298,-0.1162,-2.366310258904928,0.0,4.925516605377197,-1.3192826509475708,-0.0,1.8590339422225952,5.540199506073751,-0.0,0.2296503186225891,-1.7938955465899866,-0.0,0.039871856570243835,0.19374613463878632,0.0,0.012864714488387108,1.5191549062728882,0.0,-0.04080374538898468
643.0,592.0,-4.0816,0.5043,8.7422,-0.0461,0.0298,-0.1162,-2.3663226566710414,0.0,4.9528656005859375,-1.3192702531814575,-0.0,1.8575026988983154,5.5401954529579065,-0.0,0.22350069880485535,-1.7939236799823206,-0.0,0.03444429859519005,0.19369427859783173,0.0,-0.002565145492553711,1.519162654876709,0.0,-0.04465952515602112
643.0,592.0,-4.0816,0.5043,8.7422,-0.0461,0.0298,-0.1162,-2.3663464985289515,0.0,4.93580961227417,-1.319295048713684,-0.0,1.8374643325805664,5.540207373886862,-0.0,0.22838237881660461,-1.7938912550555628,-0.0,0.030180498957633972,0.19378942251205444,0.0,0.003492641029879451,1.5191630125045776,0.0,0.046357400715351105
643.0,592.0,-4.0816,0.5043,8.7422,-0.0461,0.0298,-0.1162,-2.3663188419737757,0.0,4.962453842163086,-1.319246530532837,-0.0,1.8340678215026855,5.540191340237417,-0.0,0.23647478222846985,-1.7939437071429651,-0.0,0.017451375722885132,0.1937461793422699,0.0,0.0012224134989082813,1.519158959388733,0.0,0.011167116463184357
643.0,592.0,-4.0816,0.5043,8.7422,-0.0461,0.0298,-0.1162,-2.3663064442076625,0.0,4.965932846069336,-1.319258451461792,-0.0,1.856050729751587,5.5401954529579065,-0.0,0.22715014219284058,-1.7939074675189417,-0.0,0.020077522844076157,0.19377759099006653,0.0,0.0010305813048034906,1.519114375114441,0.0,0.021524185314774513
643.0,592.0,-4.0816,0.5043,8.7422,-0.0461,0.0298,-0.1162,-2.3663188419737757,0.0,4.939205169677734,-1.3192662000656128,-0.0,1.880164384841919,5.540195393353262,-0.0,0.21347102522850037,-1.7938831488238733,-0.0,0.03263195604085922,0.19376195967197418,0.0,0.008982640691101551,1.5191303491592407,0.0,-0.01656121015548706
643.0,592.0,-4.0816,0.5043,8.7422,-0.0461,0.0298,-0.1162,-2.366310258904928,0.0,4.958865165710449,-1.3192826509475708,-0.0,1.831752061843872,5.540191161423483,-0.0,0.2138596773147583,-1.7938836256610315,-0.0,0.03672413527965546,0.19378161430358887,0.0,-0.0038062920793890953,1.5191344022750854,0.0,0.001635535154491663
643.0,592.0,-4.0816,0.5043,8.7422,-0.0461,0.0298,-0.1162,-2.366326948205465,0.0,4.9436187744140625,-1.3192464113235474,-0.0,1.9148672819137573,5.540223288327017,-0.0,0.2156493365764618,-1.7939394156085413,-0.0,0.04339759796857834,0.19379785656929016,0.0,0.0046959384344518185,1.5191466808319092,0.0,0.01830294355750084
643.0,592.0,-4.0816,0.5043,8.7422,-0.0461,0.0298,-0.1162,-2.3663388691344203,0.0,4.966187477111816,-1.3192909955978394,-0.0,1.8798630237579346,5.540207373886862,-0.0,0.23243311047554016,-1.7938874403582972,-0.0,0.037511080503463745,0.19376574456691742,0.0,0.014095853082835674,1.5191549062728882,0.0,0.007694460451602936
643.0,592.0,-4.0816,0.5043,8.7422,-0.0461,0.0298,-0.1162,-2.366294046441549,0.0,4.940856456756592,-1.3192381858825684,-0.0,1.8475332260131836,5.540219771652975,-0.0,0.228159561753273,-1.7939394156085413,-0.0,0.02987964078783989,0.19375020265579224,0.0,-1.4888588339090347e-05,1.5191030502319336,0.0,-0.042355142533779144
643.0,592.0,-4.0816,0.5043,8.7422,-0.0461,0.0298,-0.1162,-2.3662859402098597,0.0,4.96065092086792,-1.3192940950393677,-0.0,1.8921499252319336,5.540227460652151,-0.0,0.21964403986930847,-1.7939031759845179,-0.0,0.037467047572135925,0.19371815025806427,0.0,-0.003575806273147464,1.5191266536712646,0.0,0.012823579832911491
643.0,592.0,-4.0816,0.5043,8.7422,-0.0461,0.0298,-0.1162,-2.3662778339781703,0.0,4.8927435874938965,-1.3192216157913208,-0.0,1.8399484157562256,5.540211427002706,-0.0,0.22616806626319885,-1.7938998381244105,-0.0,0.02272653393447399,0.1938020884990692,0.0,0.009587028995156288,1.5192112922668457,0.0,0.007149335462599993
623.0,558.0,-4.1109,0.4774,8.8576,-0.0397,0.0235,-0.1176,-2.3662740192809046,0.0,4.952154636383057,-1.3192744255065918,-0.0,1.8551305532455444,5.540219771652975,-0.0,0.22298023104667664,-1.7939031759845179,-0.0,0.03311697766184807,0.19377334415912628,0.0,0.0032663391903042793,1.5191712379455566,0.0,0.007915434427559376
623.0,558.0,-4.1109,0.4774,8.8576,-0.0397,0.0235,-0.1176,-2.366330762902731,0.0,4.923112869262695,-1.3192909955978394,-0.0,1.87384033203125,5.540247845440664,-0.0,0.2183053195476532,-1.7938998381244105,-0.0,0.026999566704034805,0.19374161958694458,0.0,0.000570409232750535,1.5191344022750854,0.0,-0.010048968717455864
623.0,558.0,-4.1109,0.4774,8.8576,-0.0397,0.0235,-0.1176,-2.366265913049215,0.0,4.928713321685791,-1.319306492805481,-0.0,1.8483612537384033,5.540182816773214,-0.0,0.22178971767425537,-1.7939031759845179,-0.0,0.027932221069931984,0.19374994933605194,0.0,-0.0006124412175267935,1.5190867185592651,0.0,0.00019532814621925354
623.0,558.0,-4.1109,0.4774,8.8576,-0.0397,0.0235,-0.1176,-2.366282125512594,0.0,4.927494049072266,-1.3192381858825684,-0.0,1.836195945739746,5.540223884373464,-0.0,0.23139411211013794,-1.793971363698141,-0.0,0.031162461265921593,0.1937580108642578,0.0,-0.0034726005978882313,1.5191549062728882,0.0,-0.001124159898608923
623.0,558.0,-4.1109,0.4774,8.8576,-0.0397,0.0235,-0.1176,-2.3663226566710414,0.0,4.961989402770996,-1.3193023204803467,-0.0,1.8287569284439087,5.540227520256796,-0.0,0.21384455263614655,-1.7938669363604944,-0.0,0.04092888534069061,0.19372981786727905,0.0,0.010241602547466755,1.5191072225570679,0.0,0.028411002829670906
623.0,558.0,-4.1109,0.4774,8.8576,-0.0397,0.0235,-0.1176,-2.366326471368307,0.0,4.971856117248535,-1.3192662000656128,-0.0,1.854223370552063,5.540175187378683,-0.0,0.2247113734483719,-1.7939117590533655,-0.0,0.025433149188756943,0.19381433725357056,0.0,0.010521824471652508,1.5190908908843994,0.0,0.0200439915060997
623.0,558.0,-4.1109,0.4774,8.8576,-0.0397,0.0235,-0.1176,-2.366310258904928,0.0,4.942382335662842,-1.3192909955978394,-0.0,1.8519583940505981,5.540207791119375,-0.0,0.22293277084827423,-1.7938874403582972,-0.0,0.03102744370698929,0.1937696486711502,0.0,-0.012230143882334232,1.5191266536712646,0.0,-0.014513647183775902
623.0,558.0,-4.1109,0.4774,8.8576,-0.0397,0.0235,-0.1176,-2.3663064442076625,0.0,4.960216999053955,-1.3193023204803467,-0.0,1.888756275177002,5.54020785072402,-0.0,0.22354756295681,-1.7939117590533655,-0.0,0.03925580531358719,0.19375024735927582,0.0,0.010606925003230572,1.5191466808319092,0.0,-0.018829867243766785
623.0,558.0,-4.1109,0.4774,8.8576,-0.0397,0.0235,-0.1176,-2.366241594354147,0.0,4.9456281661987305,-1.3192826509475708,-0.0,1.8495614528656006,5.540195393353262,-0.0,0.22012051939964294,-1.7939394156085413,-0.0,0.023183684796094894,0.1937696933746338,0.0,0.008918525651097298,1.5191305875778198,0.0,-0.01758945919573307
623.0,558.0,-4.1109,0.4774,8.8576,-0.0397,0.0235,-0.1176,-2.3662859402098597,0.0,4.934177875518799,-1.319290041923523,-0.0,1.833304524421692,5.540199506073751,-0.0,0.2305757850408554,-1.7939236799823206,-0.0,0.05535352602601051,0.19380603730678558,0.0,0.0009681074297986925,1.519102692604065,0.0,0.009715777821838856
623.0,558.0,-4.1109,0.4774,8.8576,-0.0397,0.0235,-0.1176,-2.366270204583639,0.0,4.938927173614502,-1.3192423582077026,-0.0,1.8723580837249756,5.540235745697775,-0.0,0.2139500081539154,-1.793858830128805,-0.0,0.03044862672686577,0.1938142329454422,0.0,0.002012246986851096,1.5190986394882202,0.0,0.022349610924720764
623.0,558.0,-4.1109,0.4774,8.8576,-0.0397,0.0235,-0.1176,-2.3663345775999964,0.0,4.934914588928223,-1.319254755973816,-0.0,1.87774658203125,5.540199506073751,-0.0,0.2251717746257782,-1.7939193884478968,-0.0,0.036423150449991226,0.19372166693210602,0.0,0.00915283802896738,1.5191184282302856,0.0,-0.005995826330035925
633.0,563.0,-4.1521,0.4481,9.0897,-0.0299,0.0244,-0.109,-2.3662854633727015,0.0,4.93988561630249,-1.3193105459213257,-0.0,1.8683801889419556,5.540199506073751,-0.0,0.21565143764019012,-1.7939637343036097,-0.0,0.04371250048279762,0.19373801350593567,0.0,-0.0030571892857551575,1.519170880317688,0.0,-0.05514807626605034
633.0,563.0,-4.1521,0.4481,9.0897,-0.0299,0.0244,-0.109,-2.3663226566710414,0.0,4.945615768432617,-1.3192909955978394,-0.0,1.8373494148254395,5.540231513767996,-0.0,0.24165835976600647,-1.7939031759845179,-0.0,0.033874671906232834,0.1937379688024521,0.0,-0.0016340117435902357,1.5191385746002197,0.0,-0.016838066279888153
633.0,563.0,-4.1521,0.4481,9.0897,-0.0299,0.0244,-0.109,-2.3663345775999964,0.0,4.934696674346924,-1.3192702531814575,-0.0,1.8579570055007935,5.54022382476882,-0.0,0.21285200119018555,-1.7939031759845179,-0.0,0.02243626117706299,0.19378161430358887,0.0,0.010990968905389309,1.51912260055542,0.0,-0.024038933217525482
633.0,563.0,-4.1521,0.4481,9.0897,-0.0299,0.0244,-0.109,-2.366322179833883,0.0,4.98322868347168,-1.3192909955978394,-0.0,1.8515424728393555,5.540211427002706,-0.0,0.22605979442596436,-1.7939117590533655,-0.0,0.037978146225214005,0.19376209378242493,0.0,0.02096174843609333,1.519150733947754,0.0,0.027874890714883804
633.0,563.0,-4.1521,0.4481,9.0897,-0.0299,0.0244,-0.109,-2.366294046441549,0.0,4.9398698806762695,-1.3192992210388184,-0.0,1.8592156171798706,5.540187167912283,-0.0,0.2299494594335556,-1.7938507238971155,-0.0,0.038326241075992584,0.1937662661075592,0.0,-0.0018306206911802292,1.5191466808319092,0.0,0.0528557151556015
633.0,563.0,-4.1521,0.4481,9.0897,-0.0299,0.0244,-0.109,-2.366342683831686,0.0,4.927504539489746,-1.3192020654678345,3.0749833235255153e-10,1.8661978244781494,5.540219235211172,-0.0,0.21981865167617798,-1.7939193884478968,-0.0,0.03406532108783722,0.19370943307876587,0.0,-0.005065848585218191,1.519126296043396,0.0,-0.018030500039458275
633.0,563.0,-4.1521,0.4481,9.0897,-0.0299,0.0244,-0.109,-2.3663064442076625,0.0,4.92649507522583,-1.3193148374557495,9.96255502578254e-18,1.8647178411483765,5.540187108307638,-0.0,0.21849583089351654,-1.7938955465899866,-0.0,0.041161712259054184,0.19378969073295593,0.0,0.00269765080884099,1.5191385746002197,0.0,-0.009251288138329983
633.0,563.0,-4.1521,0.4481,9.0897,-0.0299,0.0244,-0.109,-2.3662778339781703,0.0,4.9296722412109375,-1.3192744255065918,9.90144835668616e-05,1.833034873008728,5.540215480118551,-0.0,0.22864022850990295,-1.7938674131976526,-0.0,0.03862477093935013,0.193766251206398,0.0,-0.004623992834240198,1.519114375114441,0.0,-0.018117938190698624
633.0,563.0,-4.1521,0.4481,9.0897,-0.0299,0.0244,-0.109,-2.3663064442076625,0.0,4.960226058959961,-1.3192464113235474,6.877922714920714e-05,1.8715400695800781,5.54020373800353,-0.0,0.22319313883781433,-1.7938950697528284,-0.0,0.033962398767471313,0.19378969073295593,0.0,0.0028638443909585476,1.519110918045044,0.0,0.02205611951649189
633.0,563.0,-4.1521,0.4481,9.0897,-0.0299,0.0244,-0.109,-2.366294046441549,0.0,4.961695671081543,-1.3192784786224365,5.2674342441605404e-05,1.861155390739441,5.540182876377859,-0.0,0.2208784818649292,-1.7938993612872522,-0.0,0.019749777391552925,0.19377745687961578,0.0,0.004105428699404001,1.5190703868865967,0.0,-0.012688654474914074
633.0,563.0,-4.1521,0.4481,9.0897,-0.0299,0.0244,-0.109,-2.3662945232787074,0.0,4.975726127624512,-1.3192588090896606,4.268122211215086e-05,1.865828275680542,5.540211427002706,-0.0,0.21942128241062164,-1.7938831488238733,-0.0,0.037113845348358154,0.19375401735305786,0.0,0.004396164324134588,1.5191184282302856,0.0,0.03973603621125221
633.0,563.0,-4.1521,0.4481,9.0897,-0.0299,0.0244,-0.109,-2.3663064442076625,0.0,4.935477256774902,-1.319298267364502,3.736497455975041e-05,1.8193423748016357,5.540191161423483,-0.0,0.2188885509967804,-1.7938993612872522,-0.0,0.02647559344768524,0.19378969073295593,0.0,0.0011941182892769575,1.519150733947754,0.0,-0.009359466843307018
639.0,566.0,-4.2365,0.4134,9.1334,-0.0431,0.0267,-0.1136,-2.3662620983519496,0.0,4.968133449554443,-1.3192464113235474,3.204336098860949e-05,1.9045720100402832,5.540235745697775,-0.0,0.222968190908432,-1.793915096913473,-0.0,0.03457581251859665,0.19377776980400085,0.0,0.012614259496331215,1.5191069841384888,0.0,0.02048316039144993
639.0,566.0,-4.2365,0.4134,9.1334,-0.0431,0.0267,-0.1136,-2.3662616215147914,0.0,4.950860023498535,-1.3192909955978394,2.804872565320693e-05,1.8561952114105225,5.540223884373464,-0.0,0.23015668988227844,-1.7939680258380335,-0.0,0.02627425827085972,0.19378164410591125,0.0,-0.005477461032569408,1.5191549062728882,0.0,0.008373618125915527
639.0,566.0,-4.2365,0.4134,9.1334,-0.0431,0.0267,-0.1136,-2.366314550439352,0.0,4.913774490356445,-1.319339394569397,2.565051181591116e-05,1.8310375213623047,5.540199506073751,-0.0,0.21254897117614746,-1.7939356009112757,-0.0,0.03960118442773819,0.19371792674064636,0.0,-0.00046508992090821266,1.519158959388733,0.0,0.027188077569007874
639.0,566.0,-4.2365,0.4134,9.1334,-0.0431,0.0267,-0.1136,-2.366322179833883,0.0,4.948380947113037,-1.319258451461792,2.3025504560791887e-05,1.8278772830963135,5.54020785072402,-0.0,0.23086132109165192,-1.793915096913473,-0.0,0.02866656333208084,0.19376564025878906,0.0,-0.0075966366566717625,1.519170880317688,0.0,-0.025522423908114433
639.0,566.0,-4.2365,0.4134,9.1334,-0.0431,0.0267,-0.1136,-2.366310258904928,0.0,4.947962760925293,-1.3192423582077026,7.149861176003469e-06,1.822554588317871,5.540182876377859,-0.0,0.2333526611328125,-1.7939356009112757,-4.875814196836359e-10,0.039606817066669464,0.19377776980400085,0.0,0.007355790585279465,1.5191588401794434,0.0,0.012573311105370522
639.0,566.0,-4.2365,0.4134,9.1334,-0.0431,0.0267,-0.1136,-2.366294046441549,0.0,4.992715358734131,-1.319278597831726,2.316464077847802e-13,1.900521993637085,5.540166842728414,-0.0,0.2217385619878769,-1.7939394156085413,-8.861552815056083e-15,0.02156764641404152,0.19380977749824524,0.0,-0.0006334168137982488,1.519170880317688,0.0,0.00047826115041971207
639.0,566.0,-4.2365,0.4134,9.1334,-0.0431,0.0267,-0.1136,-2.3662854633727015,0.0,4.9900288581848145,-1.3192909955978394,5.593986736221549e-19,1.84757661819458,5.54020373800353,-0.0,0.20823675394058228,-1.7939193884478968,-2.466645555597922e-18,0.0389489009976387,0.1938261240720749,0.0,0.015342555940151215,1.5191344022750854,0.0,-0.041924916207790375
639.0,566.0,-4.2365,0.4134,9.1334,-0.0431,0.0267,-0.1136,-2.3662778339781703,0.0,4.944256782531738,-1.3192702531814575,1.812380350428471e-26,1.8675391674041748,5.540155100613394,-0.0,0.2277475744485855,-1.7939594427691858,-4.483006278683453e-23,0.037558235228061676,0.19373799860477448,0.0,0.008198545314371586,1.5191385746002197,0.0004915328463539481,0.000722536351531744
639.0,566.0,-4.2365,0.4134,9.1334,-0.0431,0.0267,-0.1136,-2.3663226566710414,0.0,4.929679870605469,-1.3192135095596313,5.871883104992743e-34,1.8964667320251465,5.540215539723196,-0.0,0.21229395270347595,-1.7938993612872522,-8.14764181490534e-28,0.04685750603675842,0.1937297284603119,0.0,0.0046406397596001625,1.5191667079925537,0.0005972671788185835,0.011241664178669453
639.0,566.0,-4.2365,0.4134,9.1334,-0.0431,0.0267,-0.1136,-2.366330762902731,0.0,4.972220420837402,-1.319242000579834,1.9024027951673717e-41,1.8330838680267334,5.540166842728414,-0.0,0.22761984169483185,-1.793943230305807,-1.4807935966810582e-32,0.0386476032435894,0.19375404715538025,0.0,-0.0034713938366621733,1.5191667079925537,0.0008024328271858394,-0.02583889663219452
639.0,566.0,-4.2365,0.4134,9.1334,-0.0431,0.0267,-0.1136,-2.3663345775999964,0.0,4.9750871658325195,-1.3192423582077026,0.0,1.8666796684265137,5.540150451451101,-0.0,0.22360606491565704,-1.7939594427691858,-4.121843605748948e-36,0.030745815485715866,0.19378161430358887,0.0,-0.0016575190238654613,1.5191868543624878,0.0006765333819203079,-0.008583923801779747
639.0,566.0,-4.2365,0.4134,9.1334,-0.0431,0.0267,-0.1136,-2.3663188419737757,0.0,4.92208194732666,-1.319286823272705,-0.0,1.8910984992980957,5.540231513767996,-0.0,0.22687599062919617,-1.7939189116107386,-7.49120146043404e-41,0.035712212324142456,0.19375400245189667,0.0,0.008315399289131165,1.5192269086837769,0.0006656419718638062,0.021325720474123955
651.0,585.0,-4.2209,0.6084,8.9557,-0.0367,0.0191,-0.118,-2.3663507900633753,0.0,4.942378044128418,-1.319278597831726,-0.0,1.9136998653411865,5.54020785072402,-0.0,0.2218678891658783,-1.7939394156085413,-1.401298464324817e-45,0.04065650701522827,0.1937580406665802,0.0,0.0026397837791591883,1.5191949605941772,0.0004745261394418776,-0.004597026854753494
651.0,585.0,-4.2209,0.6084,8.9557,-0.0367,0.0191,-0.118,-2.366310258904928,0.0,4.933689594268799,-1.3192827701568604,-0.0,1.8609285354614258,5.540268111019888,-0.0,0.2162398248910904,-1.7939475218402308,-0.0,0.031037911772727966,0.19374576210975647,0.0,0.004769178107380867,1.5192229747772217,0.0004004556394647807,0.003586217761039734
651.0,585.0,-4.2209,0.6084,8.9557,-0.0367,0.0191,-0.118,-2.366330762902731,0.0,4.945797920227051,-1.3192542791366577,-0.0,1.8189866542816162,5.540191340237417,-0.0,0.22412872314453125,-1.7939356009112757,-0.0,0.04082191362977028,0.19381387531757355,0.0,-0.006023967172950506,1.5191867351531982,0.00032756541622802615,0.006498334463685751
651.0,585.0,-4.2209,0.6084,8.9557,-0.0367,0.0191,-0.118,-2.3663021526732386,0.0,4.963361740112305,-1.3192542791366577,-0.0,1.892315149307251,5.540187108307638,-0.0,0.2208179533481598,-1.7939074675189417,-0.0,0.0481339767575264,0.19375738501548767,0.0,0.003776583354920149,1.5191991329193115,0.00026359764160588384,0.03884532302618027
651.0,585.0,-4.2209,0.6084,8.9557,-0.0367,0.0191,-0.118,-2.3663064442076625,0.0,4.978620529174805,-1.3192909955978394,-0.0,1.8619470596313477,5.540231513767996,-0.0,0.2212952971458435,-1.7939274946795862,-0.0,0.03261392191052437,0.19377368688583374,0.0,0.006306553725153208,1.519170880317688,0.00022053316934034228,0.012095904909074306
651.0,585.0,-4.2209,0.6084,8.9557,-0.0367,0.0191,-0.118,-2.3662578068175257,0.0,4.91295051574707,-1.3192625045776367,-0.0,1.8959143161773682,5.540187108307638,-0.0,0.22898948192596436,-1.7939475218402308,-0.0,0.03156151622533798,0.19377337396144867,0.0,-0.005663608200848103,1.5191502571105957,0.00016371851961594075,-0.022398661822080612
651.0,585.0,-4.2209,0.6084,8.9557,-0.0367,0.0191,-0.118,-2.3662778339781703,0.0,4.937278747558594,-1.3193023204803467,-0.0,1.8708957433700562,5.540259825974264,-0.0,0.23165267705917358,-1.7939031759845179,-0.0,0.036265358328819275,0.1937696933746338,0.0,-0.0020398152992129326,1.5192149877548218,0.00014291897241491824,-0.020441779866814613
651.0,585.0,-4.2209,0.6084,8.9557,-0.0367,0.0191,-0.118,-2.3662859402098597,0.0,4.926576137542725,-1.3192992210388184,-0.0,1.8353077173233032,5.540199506073751,-0.0,0.22259731590747833,-1.7939675490008753,-0.0,0.0294695682823658,0.1937696933746338,0.0,0.013280561193823814,1.5191220045089722,0.0001268091145902872,0.019343256950378418
651.0,585.0,-4.2209,0.6084,8.9557,-0.0367,0.0191,-0.118,-2.3663021526732386,0.0,4.955735683441162,-1.3192341327667236,-0.0,1.8924825191497803,5.540199506073751,-0.0,0.22427722811698914,-1.7938993612872522,-0.0,0.03147425875067711,0.19372573494911194,0.0,0.004636681638658047,1.5191303491592407,0.00011396317859180272,0.06359217315912247
651.0,585.0,-4.2209,0.6084,8.9557,-0.0367,0.0191,-0.118,-2.366330762902731,0.0,4.959438323974609,-1.3192744255065918,-0.0,1.8707287311553955,5.540126669197836,-0.0,0.2180722951889038,-1.793915096913473,-0.0,0.02684551104903221,0.19380202889442444,0.0,-0.00479805376380682,1.5191749334335327,0.0001059160495060496,0.031177090480923653
651.0,585.0,-4.2209,0.6084,8.9557,-0.0367,0.0191,-0.118,-2.3663021526732386,0.0,4.951204776763916,-1.319177269935608,-0.0,1.8540682792663574,5.540211427002706,-0.0,0.22496706247329712,-1.7939313093768519,-0.0,0.03966238722205162,0.19378161430358887,0.0,0.002765672281384468,1.5191786289215088,9.680233051767573e-05,0.0041799298487603664
651.0,585.0,-4.2209,0.6084,8.9557,-0.0367,0.0191,-0.118,-2.366355081597799,0.0,4.906221389770508,-1.3192546367645264,-0.0,1.8907439708709717,5.540227460652151,-0.0,0.22107383608818054,-1.7939394156085413,-0.0,0.024748265743255615,0.1938060075044632,0.0,0.01888970471918583,1.5191667079925537,8.913290366763249e-05,0.0012180311605334282
647.0,581.0,-4.1533,0.4935,8.9665,-0.027,0.0214,-0.117,-2.366330762902731,0.0,4.92898416519165,-1.319266676902771,-0.0,1.8335754871368408,5.540235805302419,-0.0,0.21873682737350464,-1.7938955465899866,-0.0,0.03633478656411171,0.19372567534446716,0.0,0.011660256423056126,1.519150733947754,8.258943125838414e-05,0.017561499029397964
647.0,581.0,-4.1533,0.4935,8.9665,-0.027,0.0214,-0.117,-2.366270204583639,0.0,4.909883499145508,-1.3192464113235474,-0.0,1.8757469654083252,5.540227460652151,-0.0,0.23541969060897827,-1.7938993612872522,-0.0,0.03470513969659805,0.19376209378242493,0.0,-0.0033496562391519547,1.51915442943573,7.827940862625837e-05,0.01872238889336586
647.0,581.0,-4.1533,0.4935,8.9665,-0.027,0.0214,-0.117,-2.36625399212026,0.0,4.927134990692139,-1.3192826509475708,-0.0,1.8708008527755737,5.540203201561727,-0.0,0.2304026484489441,-1.7939069906817835,-0.0,0.03933887556195259,0.1937502771615982,0.0,0.006223662756383419,1.519174575805664,7.318700954783708e-05,-0.0021734721958637238
647.0,581.0,-4.1533,0.4935,8.9665,-0.027,0.0214,-0.117,-2.3663302860655726,0.0,4.904142379760742,-1.3192464113235474,-0.0,1.8411214351654053,5.54020373800353,-0.0,0.22050505876541138,-1.793927017842428,-0.0,0.029697272926568985,0.19376517832279205,0.0,-0.0027138013392686844,1.519162654876709,6.871670484542847e-05,-0.07106148451566696
647.0,581.0,-4.1533,0.4935,8.9665,-0.027,0.0214,-0.117,-2.366297861138815,0.0,4.928295135498047,-1.3192702531814575,-0.0,1.8883631229400635,5.540191340237417,-0.0,0.23426949977874756,-1.7939031759845179,-0.0,0.027069777250289917,0.19382990896701813,0.0,0.0009685603436082602,1.5192228555679321,6.570662662852556e-05,-0.00829918310046196
647.0,581.0,-4.1533,0.4935,8.9665,-0.027,0.0214,-0.117,-2.3663627109923304,0.0,4.935769081115723,-1.3192625045776367,-0.0,1.8923231363296509,5.540178823262014,-0.0,0.2073153257369995,-1.7938993612872522,-0.0,0.03275323286652565,0.19376149773597717,0.0,-0.0047286320477724075,1.519150733947754,6.20807841187343e-05,0.016636010259389877
647.0,581.0,-4.1533,0.4935,8.9665,-0.027,0.0214,-0.117,-2.3663507900633753,0.0,4.913059711456299,-1.3193269968032837,-0.0,1.8280999660491943,5.540215480118551,-0.0,0.2258525937795639,-1.7938993612872522,-0.0,0.027682583779096603,0.19376209378242493,0.0,0.010317221283912659,1.5191463232040405,5.883423727937043e-05,-0.041626110672950745
647.0,581.0,-4.1533,0.4935,8.9665,-0.027,0.0214,-0.117,-2.3663021526732386,0.0,4.972325325012207,-1.3192867040634155,-0.0,1.8424057960510254,5.540191399842062,-0.0,0.224785715341568,-1.7939232031451624,-0.0,0.030145183205604553,0.19378969073295593,0.0,0.009818580001592636,1.5191949605941772,6.709234730806202e-05,0.008439499884843826
647.0,581.0,-4.1533,0.4935,8.9665,-0.027,0.0214,-0.117,-2.3663226566710414,0.0,4.954253196716309,-1.3192542791366577,-0.0,1.862879991531372,5.540207373886862,-0.0,0.21253728866577148,-1.7939518133746546,-0.0,0.02479012869298458,0.1937580108642578,0.0,0.009629005566239357,1.5191786289215088,7.545975677203387e-05,0.018934857100248337
647.0,581.0,-4.1533,0.4935,8.9665,-0.027,0.0214,-0.117,-2.3662578068175257,0.0,4.916059494018555,-1.3192341327667236,-0.0,1.834236979484558,5.540223347931661,-0.0,0.22399237751960754,-1.7939193884478968,-0.0,0.02903783693909645,0.1937614530324936,0.0,0.0005809285212308168,1.519230604171753,8.229705417761579e-05,-0.008837159723043442
647.0,581.0,-4.1533,0.4935,8.9665,-0.027,0.0214,-0.117,-2.366294046441549,0.0,4.929610252380371,-1.319242238998413,5.995916581014171e-05,1.886861801147461,5.540247785836019,-0.0,0.20931987464427948,-1.7938993612872522,-0.0,0.02648157626390457,0.19379375874996185,0.0,-0.004847443662583828,1.5191704034805298,5.33795464434661e-05,0.037060730159282684
647.0,581.0,-4.1533,0.4935,8.9665,-0.027,0.0214,-0.117,-2.3662620983519496,0.0,4.975719451904297,-1.3192462921142578,5.4356893985918475e-11,1.892063856124878,5.540158736496725,-0.0,0.21761004626750946,-1.7939356009112757,-0.0,0.03707830607891083,0.1937580108642578,0.0,0.0033184916246682405,1.519210934638977,6.115323776612058e-05,-0.011798975989222527
654.0,573.0,-4.2185,0.5192,8.8875,-0.0338,0.0247,-0.1214,-2.366286417047018,0.0,4.939264297485352,-1.3192299604415894,1.3126548992938697e-16,1.8229182958602905,5.540215480118551,-0.0,0.2196175456047058,-1.793915096913473,-0.0,0.04222322255373001,0.19374197721481323,0.0,-0.010666699148714542,1.5191826820373535,2.3507166133640567e-06,0.02134506218135357
654.0,573.0,-4.2185,0.5192,8.8875,-0.0338,0.0247,-0.1214,-2.3663188419737757,0.0,4.964479923248291,-1.319294810295105,0.0003494590928312391,1.8648152351379395,5.5402119038398645,-0.0,0.2290061116218567,-1.7938712278949183,-0.0,0.02620096504688263,0.19374991953372955,0.0,-0.004051389172673225,1.5192228555679321,7.616021528711325e-14,-0.025872522965073586
654.0,573.0,-4.2185,0.5192,8.8875,-0.0338,0.0247,-0.1214,-2.366265913049215,0.0,4.946800708770752,-1.3192309141159058,0.0003199155326001346,1.832090139389038,5.540182876377859,-0.0,0.22885364294052124,-1.7939193884478968,-0.0,0.025908861309289932,0.19381429255008698,0.0,0.0039362357929348946,1.519174575805664,2.4674943075298866e-21,0.006289774086326361
654.0,573.0,-4.2185,0.5192,8.8875,-0.0338,0.0247,-0.1214,-2.3662897549071253,0.0,4.94309663772583,-1.31917405128479,0.0003448478819336742,1.834900975227356,5.540215480118551,-0.0,0.24227219820022583,-1.7938793341266077,-0.0,0.011396986432373524,0.19374604523181915,0.0,0.017505478113889694,1.5191586017608643,4.021587665192783e-05,-0.03574102744460106
654.0,573.0,-4.2185,0.5192,8.8875,-0.0338,0.0247,-0.1214,-2.366237779656881,6.407051778012374e-09,4.931105613708496,-1.3192226886749268,0.0003230073780287057,1.8785910606384277,5.54020373800353,-0.0,0.2196948230266571,-1.7938993612872522,-0.0,0.03029511123895645,0.19375735521316528,0.0,0.0008362054359167814,1.519207239151001,3.805708547588438e-05,0.053836800158023834
654.0,573.0,-4.2185,0.5192,8.8875,-0.0338,0.0247,-0.1214,-2.366314550439352,2.0758035268036166e-16,4.938488483428955,-1.3192627429962158,0.0003512552357278764,1.8339698314666748,5.540215480118551,-0.0,0.23265774548053741,-1.7939031759845179,-0.0,0.03736434876918793,0.19380603730678558,0.0,-0.010876927524805069,1.5191385746002197,2.921159841795529e-11,-0.0016836915165185928
654.0,573.0,-4.2185,0.5192,8.8875,-0.0338,0.0247,-0.1214,-2.3662783108153285,0.00042426466825418174,4.952205657958984,-1.3191699981689453,0.00045679701725021005,1.8889262676239014,5.540166902333059,-0.0,0.21856841444969177,-1.7938993612872522,-0.0,0.041235458105802536,0.1937696933746338,0.0,0.003294896800071001,1.5191749334335327,-0.0009815929224714637,-0.001361606176942587
654.0,573.0,-4.2185,0.5192,8.8875,-0.0338,0.0247,-0.1214,-2.3662501774229945,0.00036523197195492685,4.9246625900268555,-1.3191946744918823,0.0003501928586047143,1.8738915920257568,5.540243911534109,-0.0,0.22169354557991028,-1.7938993612872522,-0.0,0.028381429612636566,0.19372975826263428,0.0,0.011548151262104511,1.519074559211731,-0.001928923767991364,-0.04605266451835632
654.0,573.0,-4.2185,0.5192,8.8875,-0.0338,0.0247,-0.1214,-2.366265913049215,0.0002757032634690404,5.008143424987793,-1.319190502166748,0.0002670475805643946,1.8701865673065186,5.540143239289083,-0.0,0.21925219893455505,-1.7939356009112757,-0.0,0.033739201724529266,0.1937696933746338,0.0,0.008487026207149029,1.5191072225570679,-0.001744236215017736,-0.025532439351081848
654.0,573.0,-4.2185,0.5192,8.8875,-0.0338,0.0247,-0.1214,-2.366297861138815,0.0001771447859937325,4.952485084533691,-1.319258689880371,0.00021581312466878444,1.875288486480713,5.540139126568594,-0.0,0.22838839888572693,-1.7939313093768519,-0.0,0.03042054921388626,0.19376973807811737,0.0,0.004065122455358505,1.5190989971160889,-0.0011398843489587307,0.0013275607489049435
654.0,573.0,-4.2185,0.5192,8.8875,-0.0338,0.0247,-0.1214,-2.3662778339781703,0.0001110076773329638,4.9182353019714355,-1.3192143440246582,0.0001810745889088139,1.8418195247650146,5.540179240494528,-0.0,0.228692889213562,-1.7939475218402308,-0.0,0.04058416932821274,0.19378158450126648,0.0,0.0071606626734137535,1.5190949440002441,-0.001018428010866046,-0.00570747721940279
654.0,573.0,-4.2185,0.5192,8.8875,-0.0338,0.0247,-0.1214,-2.3663226566710414,9.881844016490504e-05,4.922403812408447,-1.3192309141159058,0.0001615693763596937,1.8615131378173828,5.540163206845083,-0.0,0.21731078624725342,-1.793915096913473,-0.0,0.043814025819301605,0.19379380345344543,0.0,-0.008360082283616066,1.5190387964248657,-0.0012118365848436952,-0.03539426624774933
628.0,544.0,-4.0828,0.4899,9.143,-0.0324,0.0286,-0.1231,-2.366294046441549,8.619883010396734e-05,4.947515487670898,-1.3192059993743896,0.00016948883421719074,1.8349785804748535,5.540147232800283,-0.0,0.22143131494522095,-1.7939313093768519,-0.0,0.028817448765039444,0.19380202889442444,0.0,0.009208712726831436,1.5190306901931763,-0.0007389996317215264,-0.06971824914216995
628.0,544.0,-4.0828,0.4899,9.143,-0.0324,0.0286,-0.1231,-2.3662740192809046,0.0001019165210891515,4.894025802612305,-1.3191864490509033,0.00021462611039169133,1.8301427364349365,5.540167379170217,-0.0,0.22339709103107452,-1.7939313093768519,-0.0,0.038877472281455994,0.19372978806495667,0.0,0.00648444052785635,1.5190670490264893,-0.0004458606708794832,-0.013787908479571342
628.0,544.0,-4.0828,0.4899,9.143,-0.0324,0.0286,-0.1231,-2.3662783108153285,9.15492491913028e-05,4.87639856338501,-1.3191863298416138,0.0024004958104342222,1.8854641914367676,5.5401391861732385,-0.0,0.21627917885780334,-1.793927017842428,-0.0,0.03573580086231232,0.1938060224056244,0.0,0.004541412927210331,1.5190789699554443,-0.0002563459856901318,-0.020175311714410782
628.0,544.0,-4.0828,0.4899,9.143,-0.0324,0.0286,-0.1231,-2.3663226566710414,8.505996083840728e-05,4.953638553619385,-1.3191542625427246,0.003960229456424713,1.8385839462280273,5.540155517845907,-0.00016667436284478754,0.2220100313425064,-1.793943230305807,-0.0,0.025425929576158524,0.19378569722175598,0.0,-0.009713461622595787,1.5190428495407104,-0.00021059089340269566,-0.028226330876350403
628.0,544.0,-4.0828,0.4899,9.143,-0.0324,0.0286,-0.1231,-2.3662740192809046,7.771507807774469e-05,4.935749530792236,-1.3191304206848145,0.004332182928919792,1.8950539827346802,5.5401272652442834,-0.00020313539425842464,0.21760380268096924,-1.7939594427691858,-0.0,0.04521632567048073,0.19377368688583374,0.0,0.005983198527246714,1.5190908908843994,-0.0001706546318018809,0.02053903415799141
628.0,544.0,-4.0828,0.4899,9.143,-0.0324,0.0286,-0.1231,-2.3663226566710414,5.3653369832318276e-05,4.936583995819092,-1.31910240650177,0.001316225272603333,1.8885679244995117,5.540099310665884,-0.00020608087652362883,0.21747836470603943,-1.7939232031451624,-0.0,0.028782926499843597,0.19370970129966736,0.0,0.0026138662360608578,1.5190870761871338,-0.00014345196541398764,-0.015269945375621319
628.0,544.0,-4.0828,0.4899,9.143,-0.0324,0.0286,-0.1231,-2.3663021526732386,5.063854769105092e-05,4.954527854919434,-1.319158911705017,0.0004696222604252398,1.8660106658935547,5.540111231594839,-0.0001897901383927092,0.22160279750823975,-1.793943230305807,-0.0,0.03845517709851265,0.19376206398010254,0.0,0.008510541170835495,1.5190593004226685,-0.0001281335426028818,-0.002211151411756873
628.0,544.0,-4.0828,0.4899,9.143,-0.0324,0.0286,-0.1231,-2.3663064442076625,-3.709007069119252e-05,4.937199592590332,-1.319158911705017,-4.06487743020989e-05,1.8562017679214478,5.540095376759329,-0.0002614161348901689,0.2113199084997177,-1.7939232031451624,-0.0,0.034226395189762115,0.1938219964504242,0.0,-0.007906420156359673,1.5190470218658447,-3.1401872547576204e-05,0.05294086039066315
628.0,544.0,-4.0828,0.4899,9.143,-0.0324,0.0286,-0.1231,-2.366297861138815,-5.139874338055961e-05,4.921448230743408,-1.3191789388656616,-7.009713590377942e-05,1.851527452468872,5.540115344315328,-0.00027526365010999143,0.20614033937454224,-1.7939475218402308,-0.0,0.03335367888212204,0.19378569722175598,0.0,0.0016065244562923908,1.519034743309021,-0.00010696105164242908,0.01268263254314661
628.0,544.0,-4.0828,0.4899,9.143,-0.0324,0.0286,-0.1231,-2.3663183651366175,-4.7761841415194795e-05,4.979545593261719,-1.3191137313842773,-5.343500743038021e-05,1.8563849925994873,5.540079343109884,-0.00024985105847008526,0.2166667878627777,-1.793943230305807,-0.0,0.02619214355945587,0.19379377365112305,0.0,0.0030954889953136444,1.5190552473068237,-0.0006923594628460705,0.03261353820562363
628.0,544.0,-4.0828,0.4899,9.143,-0.0324,0.0286,-0.1231,-2.366294046441549,-3.044294317078311e-05,4.96275520324707,-1.3190741539001465,-4.535539846983738e-05,1.8520938158035278,5.540075289994039,-0.0002551046200096607,0.21994704008102417,-1.793943230305807,-0.0,0.05641629546880722,0.19373808801174164,0.0,0.004625811241567135,1.519031047821045,-0.002143645891919732,0.0392543226480484
628.0,544.0,-4.0828,0.4899,9.143,-0.0324,0.0286,-0.1231,-2.366343160668844,-2.833293729054276e-05,4.970670223236084,-1.3191020488739014,-1.4694572598658584e-12,1.8247239589691162,5.540082978993215,-0.00024961261078715324,0.2254372388124466,-1.7939313093768519,-0.0,0.031037231907248497,0.19379794597625732,0.0,0.0059755221009254456,1.5189790725708008,-0.003992805723100901,-0.010663000866770744
649.0,550.0,-4.1288,0.6275,8.9408,-0.0513,0.0272,-0.1298,-2.3662897549071253,-1.332735519099515e-05,4.910817623138428,-1.3190785646438599,-4.760855463889997e-20,1.865705966949463,5.54008303859786,-0.00020433837198652327,0.22218583524227142,-1.7939556280719202,-0.0,0.03557474911212921,0.19379380345344543,0.0,0.0032335626892745495,1.5189794301986694,-0.003956118132919073,0.007100148592144251
649.0,550.0,-4.1288,0.6275,8.9408,-0.0513,0.0272,-0.1298,-2.366331239739889,-3.700430586950354e-12,4.966053009033203,-1.3190497159957886,0.0008896657382138073,1.8680551052093506,5.540091264038839,-0.00020515923097264022,0.21909554302692413,-1.7939756552325647,-0.0,0.028445590287446976,0.19375796616077423,0.0,-0.008995707146823406,1.5189192295074463,-0.0022939350455999374,0.05071018636226654
649.0,550.0,-4.1288,0.6275,8.9408,-0.0513,0.0272,-0.1298,-2.3662826023497523,-8.936104949304263e-18,4.937756061553955,-1.3190382719039917,0.0013205361319705844,1.8649996519088745,5.540063369065084,-0.00018605530203785747,0.2015746384859085,-1.7939112822162073,-0.0,0.03833610191941261,0.19380603730678558,0.0,4.2978208512067795e-05,1.518943428993225,-0.0012954759877175093,0.006456857547163963
649.0,550.0,-4.1288,0.6275,8.9408,-0.0513,0.0272,-0.1298,-2.3662945232787074,-2.895184603185794e-25,4.953085422515869,-1.3190340995788574,0.0013571083545684814,1.9005653858184814,5.54008715131835,-0.00021441701392177492,0.21581697463989258,-1.7939232031451624,-0.0,0.026011589914560318,0.19378970563411713,0.0,0.004000710789114237,1.5189151763916016,-0.0007086468394845724,0.005013115704059601
649.0,550.0,-4.1288,0.6275,8.9408,-0.0513,0.0272,-0.1298,-2.3662620983519496,-9.38002982311922e-33,4.898839950561523,-1.3189812898635864,0.0014949950855225325,1.8793888092041016,5.5400633094604395,-0.00025427876971662045,0.21537263691425323,-1.793938938771383,-0.0,0.015449374914169312,0.1937696784734726,0.0,0.013589616864919662,1.518959403038025,-0.0005420498782768846,0.03418322652578354
649.0,550.0,-4.1288,0.6275,8.9408,-0.0513,0.0272,-0.1298,-2.3662783108153285,-3.039009992565874e-40,4.97037935256958,-1.3190867900848389,0.0013606284046545625,1.8569016456604004,5.540071594506063,-0.0005669605452567339,0.2105875313282013,-1.7939313093768519,-0.0,0.023539934307336807,0.19378569722175598,0.0,-0.006190411280840635,1.518923282623291,-0.00014712466509081423,0.03695964813232422
649.0,550.0,-4.1288,0.6275,8.9408,-0.0513,0.0272,-0.1298,-2.3663021526732386,-1.401298464324817e-45,4.979363918304443,-1.3190062046051025,0.0015220006462186575,1.9294297695159912,5.540043103485861,-0.0007409267709590495,0.2045547366142273,-1.793915096913473,-3.293049610775256e-09,0.01212591864168644,0.1938299536705017,0.0,0.005931917577981949,1.5189069509506226,-5.903391866013408e-05,0.0958363488316536
649.0,550.0,-4.1288,0.6275,8.9408,-0.0513,0.0272,-0.1298,-2.366342683831686,0.0,4.924323558807373,-1.3189775943756104,0.002637397265061736,1.9631826877593994,5.540043103485861,-0.001582779106684029,0.20273587107658386,-1.7939513365374964,-5.98495455668771e-14,0.027096904814243317,0.19374911487102509,0.0,0.00587645685300231,1.518886923789978,-4.6699187805643305e-05,0.0285604577511549
649.0,550.0,-4.1288,0.6275,8.9408,-0.0513,0.0272,-0.1298,-2.366265913049215,0.0,4.950501918792725,-1.3189175128936768,0.007600792683660984,1.8972351551055908,5.540015208512106,-0.005201578605920076,0.20252659916877747,-1.7939356009112757,-1.0877360948574841e-18,0.0013596187345683575,0.19378569722175598,0.0,0.007897181436419487,1.5189069509506226,-7.680189446546137e-05,0.1248684674501419
649.0,550.0,-4.1288,0.6275,8.9408,-0.0513,0.0272,-0.1298,-2.3663345775999964,0.0,4.965142250061035,-1.3188859224319458,0.011602779850363731,1.9526183605194092,5.539906966477194,-0.01828925497829914,0.19930174946784973,-1.7939475218402308,-3.027752662530967e-22,0.025640279054641724,0.19377368688583374,0.0,0.00688371155411005,1.518923282623291,-6.851193029433489e-05,0.061162836849689484
649.0,550.0,-4.1288,0.6275,8.9408,-0.0513,0.0272,-0.1298,-2.366326471368307,0.0,4.952049732208252,-1.3187896013259888,0.008443213067948818,1.9404370784759521,5.539746391564169,-0.016993846744298935,0.20070162415504456,-1.7939632574664515,-5.502790533448532e-27,0.020194943994283676,0.19378161430358887,0.0,0.016049671918153763,1.5189192295074463,-5.945894736214541e-05,0.11081761121749878
649.0,550.0,-4.1288,0.6275,8.9408,-0.0513,0.0272,-0.1298,-2.3663188419737757,0.0,4.960219383239746,-1.3187496662139893,0.007408597506582737,1.9379196166992188,5.539723205357351,-0.005814128555357456,0.19702498614788055,-1.7939356009112757,-1.0001049513067183e-31,0.018098946660757065,0.19377368688583374,0.0,-0.0006617037579417229,1.5189471244812012,-5.2519466407829896e-05,0.08546476066112518
652.0,606.0,-4.0259,0.4337,8.9868,-0.0342,0.024,-0.1184,-2.366310258904928,0.0,4.910099506378174,-1.3187098503112793,0.006937256548553705,1.972091794013977,5.539687144547262,-0.0006244053947739303,0.20157629251480103,-1.7938874403582972,-1.817641143340394e-36,0.012883903458714485,0.19374573230743408,0.0,0.000545394083019346,1.518935203552246,-2.759854623946012e-06,0.09599877893924713
652.0,606.0,-4.0259,0.4337,8.9868,-0.0342,0.024,-0.1184,-2.366310258904928,0.0,4.943357944488525,-1.3185724020004272,0.006588452961295843,1.929643154144287,5.539678859501638,0.00027307451819069684,0.20479819178581238,-1.7939513365374964,-5.0594721833526115e-40,0.021072469651699066,0.19376561045646667,0.0,0.01383113767951727,1.518971562385559,-6.664723894295177e-12,0.09055688977241516
652.0,606.0,-4.0259,0.4337,8.9868,-0.0342,0.024,-0.1184,-2.366282125512594,0.0,4.956963539123535,-1.3186177015304565,0.007526342291384935,1.978592038154602,5.539694833546438,0.00017002507229335606,0.20858412981033325,-1.7939193884478968,-9.80908925027372e-45,0.02751755714416504,0.19376209378242493,0.0,0.00048389495350420475,1.5189471244812012,-2.1592859711873189e-19,0.15712012350559235
652.0,606.0,-4.0259,0.4337,8.9868,-0.0342,0.024,-0.1184,-2.366326948205465,0.0,4.979026794433594,-1.3184891939163208,0.008811205625534058,1.977245807647705,5.539699423104086,6.198931077960879e-05,0.19552096724510193,-1.7939356009112757,-0.0,0.0008079666877165437,0.19383785128593445,0.0,-0.0005823684623464942,1.5189388990402222,-6.995812641238327e-27,0.04255219176411629
652.0,606.0,-4.0259,0.4337,8.9868,-0.0342,0.024,-0.1184,-2.366310258904928,0.0,4.934689044952393,-1.3184411525726318,0.008552276529371738,1.9602407217025757,5.539678919106283,1.1868954175042745e-07,0.1999688595533371,-1.7939356009112757,-0.0,0.027556810528039932,0.19378569722175598,5.118256929392828e-09,0.00020224344916641712,1.518923282623291,-2.266553998533216e-34,0.11830379068851471
652.0,606.0,-4.0259,0.4337,8.9868,-0.0342,0.024,-0.1184,-2.3662578068175257,0.0,4.918992042541504,-1.3183608055114746,0.007363724987953901,1.9713019132614136,5.539610254555502,3.303766982210021e-11,0.19049373269081116,-1.7939074675189417,-0.0,0.0038179398979991674,0.19377337396144867,1.4246855648339385e-12,0.0024024266749620438,1.518951177597046,-5.473457788668092e-40,0.14465659856796265
652.0,606.0,-4.0259,0.4337,8.9868,-0.0342,0.024,-0.1184,-2.366297861138815,0.0,4.92164421081543,-1.3183529376983643,0.005769813433289528,1.9632790088653564,5.539647328644552,-0.0020836899057030678,0.1972019523382187,-1.7939556280719202,-0.0,0.013071553781628609,0.19375436007976532,2.5892960090784058e-17,0.007595600560307503,1.518935203552246,-0.0,0.1066468209028244
652.0,606.0,-4.0259,0.4337,8.9868,-0.0342,0.024,-0.1184,-2.3663021526732386,0.0,4.961770057678223,-1.3182883262634277,0.004710536915808916,1.998105525970459,5.539606976300039,-0.004190828651189804,0.201785147190094,-1.7939475218402308,-0.0,0.010637793689966202,0.1937856525182724,4.705918554312972e-22,0.004268275573849678,1.5189552307128906,0.0,0.11080244183540344
652.0,606.0,-4.0259,0.4337,8.9868,-0.0342,0.024,-0.1184,-2.366269727746481,0.0,4.964616298675537,-1.3182482719421387,0.004666129592806101,1.9796726703643799,5.5395386693771265,-0.005619625095278025,0.19475588202476501,-1.7939437071429651,-0.0,0.015477951616048813,0.1937134712934494,8.55277523799579e-27,0.00514526292681694,1.5189151763916016,0.0,0.12704402208328247
652.0,606.0,-4.0259,0.4337,8.9868,-0.0342,0.024,-0.1184,-2.366322179833883,0.0,4.931609153747559,-1.318204402923584,0.004970574285835028,2.023705005645752,5.539502966194906,-0.0065232920460402966,0.20038893818855286,-1.7939155737506312,-0.0,0.012228577397763729,0.19376564025878906,2.3806963591158443e-30,0.004939696751534939,1.5189392566680908,0.0001660126872593537,0.13116493821144104
652.0,606.0,-4.0259,0.4337,8.9868,-0.0342,0.024,-0.1184,-2.366297861138815,0.0,4.936958312988281,-1.318176507949829,0.006948246154934168,1.993523359298706,5.539483117848196,-0.006410294212400913,0.18730133771896362,-1.793915096913473,-0.0,0.001394585706293583,0.19376972317695618,4.3267978330319516e-35,0.009573366492986679,1.518935203552246,0.0001446647511329502,0.13783055543899536
652.0,606.0,-4.0259,0.4337,8.9868,-0.0342,0.024,-0.1184,-2.366297861138815,0.0,4.9165730476379395,-1.3181370496749878,0.008806638419628143,1.992364764213562,5.539451229363241,-0.006262579932808876,0.19597409665584564,-1.7939074675189417,-0.0,0.0040833246894180775,0.19379377365112305,7.863736657174792e-40,-0.0023499566596001387,1.5189552307128906,0.0001281814620597288,0.1373666226863861
650.0,586.0,-4.197,0.5001,8.8181,-0.0348,0.0292,-0.1147,-2.3662735424437464,0.0,4.951613903045654,-1.3180640935897827,0.010104562155902386,2.0445990562438965,5.539427089482107,-0.006237661466002464,0.1867908090353012,-1.7939117590533655,-0.0,0.010716469958424568,0.19373756647109985,2.1860256043467146e-43,0.012627850286662579,1.5189471244812012,0.00011809013813035563,0.11837837845087051
650.0,586.0,-4.197,0.5001,8.8181,-0.0348,0.0292,-0.1147,-2.3663345775999964,0.0,4.949077606201172,-1.3179640769958496,0.012722019106149673,2.024501323699951,5.53930680730895,-0.006560264155268669,0.19976815581321716,-1.7938993612872522,-0.0,0.012337768450379372,0.1937733292579651,0.0,0.016849016770720482,1.5189955234527588,0.00010687195754144341,0.15703383088111877
650.0,586.0,-4.197,0.5001,8.8181,-0.0348,0.0292,-0.1147,-2.3663140736021937,0.0,4.956559658050537,-1.3178796768188477,0.012389487586915493,2.0055131912231445,5.53928308466033,-0.007193717639893293,0.18972592055797577,-1.7938793341266077,-0.0,0.005377192981541157,0.19379378855228424,0.0,0.0085448594763875,1.5189552307128906,9.760018292581663e-05,0.11834640800952911
650.0,586.0,-4.197,0.5001,8.8181,-0.0348,0.0292,-0.1147,-2.366342683831686,0.0,4.958133697509766,-1.3178484439849854,0.013487832620739937,2.031463384628296,5.539154577046194,-0.0072791362181305885,0.20817960798740387,-1.7939274946795862,-0.0,0.0032595887314528227,0.19382576644420624,0.0,0.002074385993182659,1.5189552307128906,8.980875281849876e-05,0.12191939353942871
650.0,586.0,-4.197,0.5001,8.8181,-0.0348,0.0292,-0.1147,-2.3663345775999964,0.0,4.962069511413574,-1.3176554441452026,0.015297483652830124,1.9723279476165771,5.5391591666038416,-0.005692821461707354,0.18902458250522614,-1.7939074675189417,-0.0,0.014725235290825367,0.1938459873199463,0.0,0.0054998332634568214,1.5189634561538696,0.00010168248263653368,0.11233766376972198
650.0,586.0,-4.197,0.5001,8.8181,-0.0348,0.0292,-0.1147,-2.366354604760641,0.0,4.930803298950195,-1.3175476789474487,0.017835838720202446,2.0722620487213135,5.5391268012817285,-0.0022776403930038214,0.19490349292755127,-1.7939031759845179,-0.0,0.013767275027930737,0.19379793107509613,0.0,-0.0008938262471929193,1.519011378288269,0.00011029531742678955,0.12989531457424164
650.0,586.0,-4.197,0.5001,8.8181,-0.0348,0.0292,-0.1147,-2.366354604760641,0.0,4.967757701873779,-1.3173545598983765,0.022230172529816628,2.0180115699768066,5.53911446312026,-0.0007446067174896598,0.198041170835495,-1.7939274946795862,-0.0,0.007542770821601152,0.19380569458007812,0.0,0.004728479310870171,1.518926978111267,0.00011610719957388937,0.14179684221744537
650.0,586.0,-4.197,0.5001,8.8181,-0.0348,0.0292,-0.1147,-2.3663341007628382,0.0,4.957568168640137,-1.3172590732574463,0.02594573237001896,2.0428409576416016,5.53909848907546,-0.0004475704627111554,0.19941888749599457,-1.793903652821676,-0.0,0.009054876863956451,0.19379793107509613,0.0,0.017170608043670654,1.5189913511276245,0.00011058838572353125,0.12254881858825684
650.0,586.0,-4.197,0.5001,8.8181,-0.0348,0.0292,-0.1147,-2.366350313226217,0.0,4.993687152862549,-1.3170219659805298,0.029473280534148216,2.0248489379882812,5.539102959423818,-0.00034462494659237564,0.20383110642433167,-1.7938955465899866,-0.0,0.00216484977863729,0.19378969073295593,0.0,0.01669865846633911,1.5189228057861328,0.00010571718303253874,0.12401509284973145
650.0,586.0,-4.197,0.5001,8.8181,-0.0348,0.0292,-0.1147,-2.3663140736021937,0.0,4.95039176940918,-1.3167775869369507,0.03440357744693756,2.041472911834717,5.539130914002218,-0.000316032295813784,0.19846543669700623,-1.7939241568194788,-0.0,0.009376341477036476,0.19377745687961578,0.0,0.01165315043181181,1.5189671516418457,9.985277574742213e-05,0.16089975833892822
650.0,586.0,-4.197,0.5001,8.8181,-0.0348,0.0292,-0.1147,-2.3663746319212855,-0.00013352010864764452,4.970731258392334,-1.3164485692977905,0.03898366913199425,2.0144779682159424,5.539098727494039,-0.0003198905906174332,0.20391808450222015,-1.7938955465899866,-0.0,0.012150416150689125,0.19381804764270782,0.0,-0.001577488612383604,1.518951177597046,8.700579928699881e-05,0.10587253421545029
650.0,586.0,-4.197,0.5001,8.8181,-0.0348,0.0292,-0.1147,-2.366387029687399,-0.0001226221938850358,4.963330268859863,-1.3162487745285034,0.04242197796702385,2.055598258972168,5.539082336216726,-0.00023895442427601665,0.21312865614891052,-1.793915096913473,-0.0,0.006753607653081417,0.19384995102882385,0.0,0.01655798777937889,1.5189834833145142,6.601081986445934e-05,0.152430921792984
639.0,606.0,-4.1868,0.548,9.1771,-0.0576,0.0619,-0.1388,-2.3663460216917933,-0.00013268383918330073,4.990562915802002,-1.3158520460128784,0.04770905524492264,2.0708484649658203,5.5390827534492395,-0.0012805347796529531,0.22119688987731934,-1.7939356009112757,-0.0,0.0058350106701254845,0.19376561045646667,0.0,-0.002579799387603998,1.5189752578735352,0.00010178035881835967,0.11664359271526337
639.0,606.0,-4.1868,0.548,9.1771,-0.0576,0.0619,-0.1388,-2.366362234155172,-0.00012081033491995186,4.970601558685303,-1.315471887588501,0.05518948659300804,2.1000266075134277,5.539046633034506,-0.0018742673564702272,0.20353147387504578,-1.7939117590533655,-0.0,0.014334814622998238,0.19378970563411713,0.0,-0.0009125317446887493,1.5189028978347778,8.450449058727827e-06,0.15289026498794556
639.0,606.0,-4.1868,0.548,9.1771,-0.0576,0.0619,-0.1388,-2.3664070568480433,-0.00011088726751040667,4.960460186004639,-1.314897894859314,0.06522765755653381,2.0664501190185547,5.539086866169729,-0.00202208966948092,0.2016097456216812,-1.7938955465899866,-0.0,-1.9593629986047745e-05,0.19380977749824524,0.0,-0.0004854839062318206,1.5189954042434692,2.737838439032664e-13,0.12347015738487244
639.0,606.0,-4.1868,0.548,9.1771,-0.0576,0.0619,-0.1388,-2.3663746319212855,-0.00010445259977132082,4.996211051940918,-1.3144774436950684,0.07315763086080551,2.0915637016296387,5.539083111077108,-0.0018834652146324515,0.19095078110694885,-1.79393178621401,-0.0,0.012995597906410694,0.19376149773597717,0.0,0.011541093699634075,1.518991231918335,6.611557959402258e-19,0.16449496150016785
639.0,606.0,-4.1868,0.548,9.1771,-0.0576,0.0619,-0.1388,-2.3663422069945277,-9.695123299024999e-05,4.980709075927734,-1.3138279914855957,0.07987210154533386,2.1003856658935547,5.538986551552572,-0.001564250560477376,0.2104027420282364,-1.793903652821676,-0.0,-0.00391850620508194,0.19380977749824524,0.0,-0.009352454915642738,1.5189671516418457,2.142060730159887e-26,0.14326588809490204
639.0,606.0,-4.1868,0.548,9.1771,-0.0576,0.0619,-0.1388,-2.3663302860655726,-9.045528713613749e-05,4.993935585021973,-1.3131791353225708,0.0822490006685257,2.097172260284424,5.538994717388906,-0.001088162767700851,0.2051999270915985,-1.793903652821676,-0.0,0.009292027913033962,0.1937774121761322,0.0,0.009129809215664864,1.5189752578735352,6.9400047712395495e-34,0.12062221020460129
639.0,606.0,-4.1868,0.548,9.1771,-0.0576,0.0619,-0.1388,-2.3663341007628382,-7.06459250068292e-05,4.9310102462768555,-1.3124901056289673,0.08656709641218185,2.1160550117492676,5.5390065787132166,-0.0009004653547890484,0.2045736312866211,-1.7938998381244105,-0.0,0.014854328706860542,0.193841814994812,0.0,-0.0004160655662417412,1.5189229249954224,2.2485235158556015e-41,0.12838920950889587
639.0,606.0,-4.1868,0.548,9.1771,-0.0576,0.0619,-0.1388,-2.3663021526732386,-5.397498534875922e-05,4.9506378173828125,-1.3119490146636963,0.08969315141439438,2.0944485664367676,5.53903894403533,-0.0007750554941594601,0.1950129270553589,-1.793919865285055,-0.0,0.004296586848795414,0.19379375874996185,0.0,0.018345028162002563,1.5189752578735352,0.0,0.12486112117767334
639.0,606.0,-4.1868,0.548,9.1771,-0.0576,0.0619,-0.1388,-2.366338392297262,-5.092092033009976e-05,4.978720664978027,-1.3111757040023804,0.09683481603860855,2.0918827056884766,5.539047229080953,-0.0007478782790713012,0.2221982777118683,-1.7939518133746546,-0.0,0.006393482908606529,0.19372570514678955,0.0,0.022201327607035637,1.518926978111267,0.0,0.14673279225826263
639.0,606.0,-4.1868,0.548,9.1771,-0.0576,0.0619,-0.1388,-2.3663183651366175,-4.819416790269315e-05,5.019287586212158,-1.310269832611084,0.1065165102481842,2.1192424297332764,5.538994717388906,-0.0010811201063916087,0.19433337450027466,-1.7938550154315394,-0.0,0.007105263881385326,0.19377337396144867,0.0,0.008794285356998444,1.5189069509506226,0.0,0.10925514996051788
639.0,606.0,-4.1868,0.548,9.1771,-0.0576,0.0619,-0.1388,-2.36639465908193,-1.9197415895177983e-05,4.9395670890808105,-1.3093924522399902,0.11654368788003922,2.1568796634674072,5.53897916057662,-0.0028542946092784405,0.1941927969455719,-1.793891731892721,-0.0,0.012916459701955318,0.1937975436449051,0.0,0.0034152138978242874,1.5189069509506226,0.0,0.14117704331874847
639.0,606.0,-4.1868,0.548,9.1771,-0.0576,0.0619,-0.1388,-2.366398950616354,-5.340178176993504e-05,4.977956771850586,-1.3086591958999634,0.12151773273944855,2.154977560043335,5.5389548418815515,-0.004939238540828228,0.19867533445358276,-1.7938631216632288,-0.0,-0.0006223594537004828,0.19382578134536743,2.6477156023219095e-09,0.009790342301130295,1.518942952156067,0.0,0.13778436183929443
626.0,559.0,-4.4686,0.4624,9.3218,-0.0863,0.1235,-0.1564,-2.36641850093984,-0.0005491754855029285,4.968335151672363,-1.307665228843689,0.12349147349596024,2.113743305206299,5.53883050659255,-0.00741865299642086,0.18826177716255188,-1.7938388029681605,-0.0,0.020253630355000496,0.19382576644420624,4.812092090360383e-14,0.008951586671173573,1.518951177597046,0.0,0.12369205057621002
626.0,559.0,-4.4686,0.4624,9.3218,-0.0863,0.1235,-0.1564,-2.366366525689596,-0.0004073454183526337,4.9679059982299805,-1.3066433668136597,0.12971805036067963,2.1344621181488037,5.538839030056753,-0.008093210868537426,0.19786840677261353,-1.7938879171954554,-0.0,0.00586483720690012,0.19375738501548767,8.745739257492534e-19,0.020358283072710037,1.5189069509506226,0.0,0.1584564447402954
626.0,559.0,-4.4686,0.4624,9.3218,-0.0863,0.1235,-0.1564,-2.366366525689596,-0.00033215974690392613,4.967292785644531,-1.3058500289916992,0.1329946219921112,2.1669976711273193,5.538746404438772,-0.0075161694549024105,0.17812985181808472,-1.7938998381244105,-0.0,0.009293818846344948,0.19375738501548767,2.434408345205214e-22,0.014389632269740105,1.518971562385559,0.0,0.1366942971944809
626.0,559.0,-4.4686,0.4624,9.3218,-0.0863,0.1235,-0.1564,-2.366366525689596,-0.0002665651263669133,4.945618629455566,-1.3047446012496948,0.13838887214660645,2.1205193996429443,5.538706707745352,-0.006669934373348951,0.20145893096923828,-1.7939117590533655,-0.0,0.014012329280376434,0.19378970563411713,4.424416135267453e-27,0.009258265607059002,1.5189552307128906,0.0,0.16833370923995972
626.0,559.0,-4.4686,0.4624,9.3218,-0.0863,0.1235,-0.1564,-2.366337915460104,-0.0002226064243586734,5.010453701019287,-1.3035337924957275,0.1450084000825882,2.1756718158721924,5.5386626599128626,-0.005531597416847944,0.19208265841007233,-1.7938793341266077,-0.0,0.01611267402768135,0.19381804764270782,8.041158949137515e-32,0.012288721278309822,1.5189834833145142,-4.7163572162389755e-05,0.08539769053459167
626.0,559.0,-4.4686,0.4624,9.3218,-0.0863,0.1235,-0.1564,-2.366337915460104,-0.00019109463028144091,4.987261772155762,-1.3023560047149658,0.14882488548755646,2.220839738845825,5.538570570736685,-0.006089352536946535,0.17488212883472443,-1.7938793341266077,-0.0,0.00771871255710721,0.19379794597625732,1.4614407594840108e-36,0.013633030466735363,1.5189712047576904,-2.1794036001665518e-05,0.1357499063014984
626.0,559.0,-4.4686,0.4624,9.3218,-0.0863,0.1235,-0.1564,-2.366349836389059,-0.00017275376012548804,4.974806785583496,-1.3014506101608276,0.15741512179374695,2.208671808242798,5.5385546562965295,-0.006720494944602251,0.18510843813419342,-1.7938874403582972,-0.0,0.014525365084409714,0.19378562271595,4.067969441934944e-40,0.0019229082390666008,1.5189592838287354,-2.0060937458765693e-05,0.19529494643211365
626.0,559.0,-4.4686,0.4624,9.3218,-0.0863,0.1235,-0.1564,-2.3663984737791957,-0.000169931270647794,5.008701324462891,-1.3001154661178589,0.1640264242887497,2.211832046508789,5.538514661579885,-0.009812102653086185,0.19199606776237488,-1.7938836256610315,-0.0,0.010167505592107773,0.19383768737316132,7.006492321624085e-45,0.0005644592456519604,1.5189752578735352,-1.8418733816361055e-05,0.10988292843103409
626.0,559.0,-4.4686,0.4624,9.3218,-0.0863,0.1235,-0.1564,-2.3663822613158167,-0.0001839129690779373,4.9801459312438965,-1.2988579273223877,0.17352566123008728,2.206761598587036,5.53836207368926,-0.01414775475859642,0.16671086847782135,-1.7939236799823206,-0.0,-0.00046055216807872057,0.19381797313690186,0.0,0.006810635328292847,1.518915057182312,-1.702506051515229e-05,0.12940238416194916
626.0,559.0,-4.4686,0.4624,9.3218,-0.0863,0.1235,-0.1564,-2.366418024102682,-0.00019280290871392936,4.993115425109863,-1.297459602355957,0.17128600180149078,2.1970183849334717,5.538210320263662,-0.021414512768387794,0.1864919662475586,-1.7939236799823206,-0.0,-0.0019456876907497644,0.19381390511989594,0.0,0.00580363254994154,1.5189592838287354,-1.5827463357709348e-05,0.17322152853012085
626.0,559.0,-4.4686,0.4624,9.3218,-0.0863,0.1235,-0.1564,-2.3663984737791957,-0.0006389458430930972,4.992314338684082,-1.2963895797729492,0.17416520416736603,2.273252010345459,5.538138854294576,-0.0288534052670002,0.19501599669456482,-1.7938836256610315,-0.0,-0.006021680310368538,0.19378167390823364,0.0,0.01569177210330963,1.518951177597046,-3.006846600328572e-05,0.18653711676597595
626.0,559.0,-4.4686,0.4624,9.3218,-0.0863,0.1235,-0.1564,-2.3664266071715296,-0.0004077946941833943,4.9546709060668945,-1.294974684715271,0.18404799699783325,2.2487897872924805,5.537801611214437,-0.04560164734721184,0.1497230976819992,-1.7939561049090784,-0.0,-0.0029816054739058018,0.19382169842720032,0.0,0.017765242606401443,1.5189471244812012,-2.8185280825709924e-05,0.18307924270629883
530.0,471.0,-4.52,0.3302,9.0185,-0.1066,0.1576,-0.168,-2.366462846795553,-0.0003588374820537865,5.003735542297363,-1.293516755104065,0.1956642121076584,2.2754693031311035,5.537309455662527,-0.07935339957475662,0.13947920501232147,-1.793891731892721,-0.0,0.015023032203316689,0.19381390511989594,0.0,0.002239643130451441,1.5189592838287354,-2.6524014174356125e-05,0.1322316825389862
530.0,471.0,-4.52,0.3302,9.0185,-0.1066,0.1576,-0.168,-2.366446157495016,-0.0003433453384786844,5.013763427734375,-1.2923301458358765,0.1955389529466629,2.283926486968994,5.536708640843191,-0.11392049491405487,0.1237068772315979,-1.7938712278949183,-0.0,-0.003180899191647768,0.1937216967344284,0.0,-0.012727922759950161,1.5189995765686035,-1.270136908715358e-05,0.22138632833957672
530.0,471.0,-4.52,0.3302,9.0185,-0.1066,0.1576,-0.168,-2.3664385281004847,-0.00010955012839986011,4.968074798583984,-1.2908363342285156,0.20099703967571259,2.264554500579834,5.535643863468923,-0.14901278913021088,0.09906591475009918,-1.7938631216632288,-0.0,-0.0015498434659093618,0.1937696933746338,0.0,0.004899623803794384,1.5188864469528198,-1.2021974725939799e-05,0.15983523428440094
530.0,471.0,-4.52,0.3302,9.0185,-0.1066,0.1576,-0.168,-2.3664666614928187,-8.809905557427555e-05,5.014739990234375,-1.2891448736190796,0.20857883989810944,2.304091691970825,5.534342932492056,-0.17273874580860138,0.10977110266685486,-1.793919865285055,-0.0,0.01488268282264471,0.19383400678634644,0.0,-0.012594882398843765,1.5189110040664673,-1.1412218555051368e-05,0.16628143191337585
530.0,471.0,-4.52,0.3302,9.0185,-0.1066,0.1576,-0.168,-2.36645044902944,-7.36742076696828e-05,4.958766937255859,-1.2874821424484253,0.21849213540554047,2.3334896564483643,5.532645809441366,-0.22860485315322876,0.08825387060642242,-1.793875519429342,-0.0,0.00869771372526884,0.19382168352603912,0.0,0.00694010965526104,1.518923282623291,-1.0861333976208698e-05,0.2055869996547699
530.0,471.0,-4.52,0.3302,9.0185,-0.1066,0.1576,-0.168,-2.3664103947081507,-9.842292638495564e-05,4.983112335205078,-1.2861614227294922,0.21834896504878998,2.2949724197387695,5.531216788082876,-0.24550311267375946,0.0709831640124321,-1.7939117590533655,-0.0,0.006265478208661079,0.19374170899391174,0.0,0.013067051768302917,1.5189392566680908,-2.096362368320115e-05,0.15821312367916107
530.0,471.0,-4.52,0.3302,9.0185,-0.1066,0.1576,-0.168,-2.3664261303343714,-0.00011337602336425334,4.964888572692871,-1.2844384908676147,0.22502657771110535,2.3465957641601562,5.529107737332144,-0.28422439098358154,0.046329841017723083,-1.793875519429342,-0.0,-0.0021794107742607594,0.19382169842720032,0.0,0.006030844058841467,1.5189471244812012,-2.003058216359932e-05,0.1733245551586151
530.0,471.0,-4.52,0.3302,9.0185,-0.1066,0.1576,-0.168,-2.3664828739561976,-0.00011909612658200786,4.9751362800598145,-1.2825984954833984,0.23169375956058502,2.340501308441162,5.526626753598013,-0.32167530059814453,0.031387925148010254,-1.7938793341266077,-7.392308134512859e-07,0.010941537097096443,0.19382169842720032,0.0,0.0027583229821175337,1.518915057182312,-2.1702620603414324e-11,0.15748417377471924
530.0,471.0,-4.52,0.3302,9.0185,-0.1066,0.1576,-0.168,-2.3664380512633265,-0.0012888220371678472,4.989623069763184,-1.2807838916778564,0.23082110285758972,2.3328990936279297,5.523848521500387,-0.3624003529548645,0.010882674716413021,-1.7938192526446741,-1.3435154898322477e-11,0.005142180249094963,0.1937614530324936,0.0,0.007723696995526552,1.5189151763916016,-7.031372799788233e-19,0.21559450030326843
530.0,471.0,-4.52,0.3302,9.0185,-0.1066,0.1576,-0.168,-2.366490503350729,-0.0012255359906703234,4.963610649108887,-1.2794106006622314,0.22989186644554138,2.3060402870178223,5.5215638158615015,-0.3978722393512726,0.004177632741630077,-1.7938311735736292,-3.739724577510621e-15,0.02646980993449688,0.193801611661911,0.0,-0.0029249328654259443,1.5188828706741333,-2.821516500262078e-05,0.1677575707435608
530.0,471.0,-4.52,0.3302,9.0185,-0.1066,0.1576,-0.168,-2.366441865960592,-0.0006889172946102917,4.961480617523193,-1.2774513959884644,0.2326614409685135,2.3192076683044434,5.5182461617286584,-0.4353336989879608,-0.010613717138767242,-1.7938712278949183,-6.79676344005894e-20,0.019313780590891838,0.1938016563653946,0.0,0.0001017408212646842,1.5188992023468018,-6.646193651249632e-05,0.14802321791648865
530.0,471.0,-4.52,0.3302,9.0185,-0.1066,0.1576,-0.168,-2.3664661846556605,-0.0005476781516335905,4.969277381896973,-1.2755882740020752,0.23148062825202942,2.313549757003784,5.514648008137502,-0.47126761078834534,-0.019267572090029716,-1.7938717047320765,-1.2352781789541008e-24,0.021136023104190826,0.19379787147045135,0.0,0.00021949666552245617,1.5189274549484253,-0.0005964197916910052,0.11804631352424622
411.0,364.0,-5.1697,-0.2441,8.8857,0.0585,-0.0522,-0.0799,-2.3664380512633265,-0.0003736677172128111,5.000312805175781,-1.2737774848937988,0.23351900279521942,2.286929130554199,5.510628568917074,-0.5033314228057861,-0.03696409985423088,-1.793835465108053,-2.2450569875620315e-29,0.02058751881122589,0.19374996423721313,0.0,0.00590409804135561,1.5189028978347778,-0.0004195660294499248,0.08511662483215332
411.0,364.0,-5.1697,-0.2441,8.8857,0.0585,-0.0522,-0.0799,-2.3664585552611292,-0.0003567310341168195,5.0413713455200195,-1.27234947681427,0.2338806539773941,2.360045909881592,5.507729220181265,-0.5230361819267273,-0.034845639020204544,-1.7938397566424769,-6.24919833267197e-33,0.01566684991121292,0.19378161430358887,0.0,-0.004672105889767408,1.518898844718933,-0.0003969451645389199,0.0580085851252079
411.0,364.0,-5.1697,-0.2441,8.8857,0.0585,-0.0522,-0.0799,-2.366514345208639,-0.00023732481349725276,5.0093841552734375,-1.2704617977142334,0.23444359004497528,2.3242547512054443,5.503462540894308,-0.5444775819778442,-0.010210881009697914,-1.7938593069659632,-1.1357610373338045e-37,0.031761545687913895,0.1937493532896042,0.0,0.007948006503283978,1.518923282623291,-0.00031711035990156233,0.03417222946882248
411.0,364.0,-5.1697,-0.2441,8.8857,0.0585,-0.0522,-0.0799,-2.3664866886534632,-0.00019614656048361212,5.045952796936035,-1.2686219215393066,0.23397135734558105,2.3061611652374268,5.498952317028799,-0.5626451373100281,-0.027728112414479256,-1.7938631216632288,-2.0641126379504555e-42,0.03484784811735153,0.19376200437545776,0.0,0.0039796289056539536,1.518915057182312,-0.0003015466791111976,0.034624919295310974
411.0,364.0,-5.1697,-0.2441,8.8857,0.0585,-0.0522,-0.0799,-2.3664943180479945,-0.00024499057326465845,5.053486347198486,-1.2671138048171997,0.23622776567935944,2.3383326530456543,5.495487439423361,-0.5741549134254456,-0.005517045967280865,-1.7938397566424769,0.00012658143532462418,0.02981705032289028,0.19382166862487793,0.0,0.008762132376432419,1.5189274549484253,-0.0002679351018741727,0.04842992126941681
411.0,364.0,-5.1697,-0.2441,8.8857,0.0585,-0.0522,-0.0799,-2.366514345208639,-0.0005598093848675489,5.0667572021484375,-1.2652829885482788,0.23038482666015625,2.299762487411499,5.490836727410116,-0.5961216688156128,-0.024415530264377594,-1.7938430945025843,0.00012063293979736045,0.035560354590415955,0.19379790127277374,0.0,0.00650421530008316,1.518895149230957,-0.0002040979452431202,0.023857874795794487
411.0,364.0,-5.1697,-0.2441,8.8857,0.0585,-0.0522,-0.0799,-2.36649813274526,-0.0006233862368389964,5.018520832061768,-1.2634639739990234,0.2354797124862671,2.3675432205200195,5.486108886986532,-0.5927298069000244,0.004285264294594526,-1.7938435713397425,0.00015107070794329047,0.037835389375686646,0.19374175369739532,0.0,0.007947256788611412,1.518883228302002,-0.0002475142537150532,0.02578885667026043
411.0,364.0,-5.1697,-0.2441,8.8857,0.0585,-0.0522,-0.0799,-2.366513868371481,-0.0006382998544722795,5.050676345825195,-1.261573076248169,0.23333463072776794,2.3328723907470703,5.481326985150137,-0.6027125716209412,0.0028648818843066692,-1.7938316504107874,0.00015883911692071706,0.04804553836584091,0.19377772510051727,0.0,0.011651836335659027,1.5189074277877808,-0.002059331862255931,-0.06314022839069366
411.0,364.0,-5.1697,-0.2441,8.8857,0.0585,-0.0522,-0.0799,-2.36649813274526,-0.0007876234594732523,5.046972274780273,-1.2601481676101685,0.22827333211898804,2.306556224822998,5.477749752789297,-0.5968509912490845,0.009647623635828495,-1.7938116232501429,0.0003364527365192771,0.038626763969659805,0.19376204907894135,0.0,0.0021698689088225365,1.518895149230957,-0.0028566482942551374,-0.10006746649742126
411.0,364.0,-5.1697,-0.2441,8.8857,0.0585,-0.0522,-0.0799,-2.3665300808348597,-0.0006883508758619428,5.0496745109558105,-1.2583129405975342,0.2298801839351654,2.300098419189453,5.473104405194082,-0.578733503818512,0.033267416059970856,-1.7938039938556116,0.0006982986815273762,0.04814750701189041,0.19374202191829681,0.0,0.0020084294956177473,1.5188636779785156,-0.003762369742617011,-0.15220800042152405
411.0,364.0,-5.1697,-0.2441,8.8857,0.0585,-0.0522,-0.0799,-2.3665343723692835,-0.0005086889723315835,5.088696479797363,-1.2564940452575684,0.23537656664848328,2.3342576026916504,5.46855645158843,-0.5581424832344055,0.04365851730108261,-1.7938197294818323,0.0005239898455329239,0.06033029779791832,0.19375403225421906,0.0,0.003020435106009245,1.5188356637954712,-0.0042447298765182495,-0.16446757316589355
411.0,364.0,-5.1697,-0.2441,8.8857,0.0585,-0.0522,-0.0799,-2.3665863476195277,-0.00043516745790839195,5.090394020080566,-1.254678726196289,0.2269563525915146,2.3298749923706055,5.464225995331564,-0.5384626388549805,0.02644222043454647,-1.793812100087301,0.0005029346793889999,0.05736412853002548,0.19377367198467255,0.0,0.011043723672628403,1.5187954902648926,-0.0050690011121332645,-0.19883424043655396
382.0,375.0,-2.8678,0.1932,8.5896,0.1275,-0.1658,-0.0058,-2.366586824456686,-0.00033279028139077127,5.057026386260986,-1.2533620595932007,0.22741219401359558,2.276956558227539,5.461081015854635,-0.5190150737762451,0.02903222106397152,-1.7937749067889612,0.0003729785094037652,0.0537586510181427,0.193758025765419,0.0,0.008982810191810131,1.5187877416610718,-0.005614754743874073,-0.19373422861099243
382.0,375.0,-2.8678,0.1932,8.5896,0.1275,-0.1658,-0.0058,-2.3665176830687464,-0.0003930709499400109,5.126808166503906,-1.2514421939849854,0.22711801528930664,2.335592269897461,5.457053172379293,-0.49855226278305054,0.04526318609714508,-1.7938039938556116,0.00033603364136070013,0.07707107812166214,0.19376207888126373,0.0,-0.0006769016617909074,1.518715262413025,-0.005374361760914326,-0.21761731803417206
382.0,375.0,-2.8678,0.1932,8.5896,0.1275,-0.1658,-0.0058,-2.3665982685484828,-0.0016491722781211138,5.109009742736816,-1.2496873140335083,0.21605773270130157,2.312387704849243,5.45322202423171,-0.46855419874191284,0.06649387627840042,-1.7937830130206507,0.00026904221158474684,0.059149011969566345,0.19376620650291443,0.0,0.005038795992732048,1.5186917781829834,-0.005079618655145168,-0.20511136949062347
382.0,375.0,-2.8678,0.1932,8.5896,0.1275,-0.1658,-0.0058,-2.3666068516173304,-0.0018317681970074773,5.132246971130371,-1.2483712434768677,0.21179533004760742,2.2878904342651367,5.450492548733511,-0.4512491524219513,0.053514689207077026,-1.793772045766012,0.0002340494393138215,0.06521812081336975,0.19374610483646393,0.0,-0.0017084339633584023,1.5186758041381836,-0.004879652988165617,-0.21548867225646973
382.0,375.0,-2.8678,0.1932,8.5896,0.1275,-0.1658,-0.0058,-2.366594453851217,-0.0009324098937213421,5.132490158081055,-1.2466946840286255,0.21046629548072815,2.286297082901001,5.4470571158225916,-0.4141992926597595,0.08679305016994476,-1.7938039938556116,0.00023045195848681033,0.06559661775827408,0.19376619160175323,0.0,-0.006561380811035633,1.5185714960098267,-0.0056541599333286285,-0.19323396682739258
382.0,375.0,-2.8678,0.1932,8.5896,0.1275,-0.1658,-0.0058,-2.366582056085104,-0.0007449101540260017,5.103946208953857,-1.2450592517852783,0.20157642662525177,2.2675180435180664,5.444045233517446,-0.37105196714401245,0.12132742255926132,-1.7937873045550745,0.00020274623238947242,0.053024180233478546,0.1937696784734726,0.0,0.001345721073448658,1.5186082124710083,-0.005988007877022028,-0.25908565521240234
382.0,375.0,-2.8678,0.1932,8.5896,0.1275,-0.1658,-0.0058,-2.366594453851217,-0.0006491300882771611,5.0710296630859375,-1.2434593439102173,0.19920004904270172,2.2821338176727295,5.441256153374471,-0.3278130292892456,0.13336777687072754,-1.7937911192523401,0.0002052781783277169,0.07198382169008255,0.19375018775463104,0.0,0.001548753585666418,1.5185681581497192,-0.0058833337388932705,-0.2661266028881073
382.0,375.0,-2.8678,0.1932,8.5896,0.1275,-0.1658,-0.0058,-2.366610189477438,-0.0007186559960246086,5.130891799926758,-1.2422387599945068,0.19581151008605957,2.3167784214019775,5.4393948195274255,-0.300989031791687,0.1391521394252777,-1.7937801519977015,0.00015989414532668889,0.08515842258930206,0.19376206398010254,7.980649741057277e-08,-0.01355798076838255,1.5184760093688965,-0.005448955576866865,-0.30113863945007324
382.0,375.0,-2.8678,0.1932,8.5896,0.1275,-0.1658,-0.0058,-2.366594453851217,-0.000848416006192565,5.087233543395996,-1.240730881690979,0.18767674267292023,2.258941173553467,5.4372097728546045,-0.24818037450313568,0.169429749250412,-1.7938039938556116,0.00016706215683370829,0.0792832300066948,0.1937217116355896,1.4504432811063284e-12,-0.004498851485550404,1.5184481143951416,-0.005651731509715319,-0.27513056993484497
382.0,375.0,-2.8678,0.1932,8.5896,0.1275,-0.1658,-0.0058,-2.36666264156484,-0.0013387496583163738,5.1465678215026855,-1.239282250404358,0.18222597241401672,2.281437873840332,5.4354508993919275,-0.19956433773040771,0.1819658875465393,-1.793795410786764,0.0001674551604082808,0.07280133664608002,0.19377771019935608,2.6361091377929868e-17,0.0006690765148960054,1.5183961391448975,-0.006399426143616438,-0.28577685356140137
382.0,375.0,-2.8678,0.1932,8.5896,0.1275,-0.1658,-0.0058,-2.3667026958861292,-0.0008236744324676692,5.126076698303223,-1.237834095954895,0.17588035762310028,2.3047142028808594,5.434147703438558,-0.14216797053813934,0.20367461442947388,-1.7937801519977015,0.00015660084318369627,0.07683387398719788,0.19378161430358887,4.790998402009634e-22,-0.0098657151684165,1.5183559656143188,-0.005749539006501436,-0.286556601524353
382.0,375.0,-2.8678,0.1932,8.5896,0.1275,-0.1658,-0.0058,-2.3666545353331507,-0.0013003950007259846,5.125833511352539,-1.2368848323822021,0.1734972447156906,2.284071922302246,5.433358597546377,-0.12078504264354706,0.22196921706199646,-1.7937911192523401,0.00016636888904031366,0.07662563025951385,0.19379779696464539,1.3335920400271456e-25,0.0035548340529203415,1.5183601379394531,-0.005932198371738195,-0.26076123118400574
373.0,344.0,-2.5316,1.5218,8.2552,-0.0539,0.0767,-0.1477,-2.366678377191061,-0.0020815166644752026,5.129289627075195,-1.2355328798294067,0.16181877255439758,2.2999258041381836,5.432581472187795,-0.08417776972055435,0.25432637333869934,-1.7937634626971644,0.00015244573296513408,0.07965395599603653,0.19377373158931732,2.4237375079491686e-30,-0.001730428310111165,1.5183405876159668,-0.005895018577575684,-0.30006641149520874
373.0,344.0,-2.5316,1.5218,8.2552,-0.0539,0.0767,-0.1477,-2.366706510583395,-0.001303394790738821,5.164251327514648,-1.2342636585235596,0.15169233083724976,2.2429122924804688,5.432135033398428,-0.0330793559551239,0.27825307846069336,-1.7937634626971644,0.0001838470925576985,0.09116357564926147,0.19374200701713562,4.4050227346874775e-35,-0.0070100510492920876,1.5182526111602783,-0.006784060038626194,-0.2948901653289795
373.0,344.0,-2.5316,1.5218,8.2552,-0.0539,0.0767,-0.1477,-2.3666697941222132,-0.0008848090656101704,5.1616010665893555,-1.2331714630126953,0.15040086209774017,2.229210138320923,5.432075488358297,0.014188235625624657,0.3008221387863159,-1.7937911192523401,0.00015865768364164978,0.08256924897432327,0.19376561045646667,8.005912399365188e-40,-0.0040633841417729855,1.518204689025879,-0.008276194334030151,-0.3524685502052307
373.0,344.0,-2.5316,1.5218,8.2552,-0.0539,0.0767,-0.1477,-2.366690298120016,-0.0006353335338644683,5.127997398376465,-1.2322331666946411,0.1483127474784851,2.227323532104492,5.432155120163717,0.024580303579568863,0.31258425116539,-1.793812100087301,0.00017167296027764678,0.08086630702018738,0.19372978806495667,2.228064558276459e-43,0.01132611557841301,1.518205165863037,-0.008748681284487247,-0.35906749963760376
373.0,344.0,-2.5316,1.5218,8.2552,-0.0539,0.0767,-0.1477,-2.366690298120016,-0.0016312407096847892,5.13862943649292,-1.2310515642166138,0.1443692445755005,2.263289213180542,5.432239043503561,0.012665669433772564,0.2955446243286133,-1.7937634626971644,0.0002031540934694931,0.08722098171710968,0.1938060075044632,0.0,-0.003299545496702194,1.5181450843811035,-0.00894786324352026,-0.34432363510131836
373.0,344.0,-2.5316,1.5218,8.2552,-0.0539,0.0767,-0.1477,-2.36671843151235,-0.001465611276216805,5.170711517333984,-1.2299550771713257,0.12847962975502014,2.178964376449585,5.432322847634115,0.00013177002256270498,0.2876531779766083,-1.7937715689288538,0.0003274820919614285,0.10662512481212616,0.19372980296611786,0.0,0.003254873212426901,1.517980694770813,-0.010527942329645157,-0.361768901348114
373.0,344.0,-2.5316,1.5218,8.2552,-0.0539,0.0767,-0.1477,-2.36674227337026,-0.000865750596858561,5.157586097717285,-1.2292287349700928,0.12220539152622223,2.176344871520996,5.4322430966194055,-0.0036103823222219944,0.29157784581184387,-1.7937114874469202,0.0003217325429432094,0.08870474994182587,0.1937379688024521,0.0,0.004571359604597092,1.5179167985916138,-0.012718841433525085,-0.35902923345565796
373.0,344.0,-2.5316,1.5218,8.2552,-0.0539,0.0767,-0.1477,-2.3667103252806605,-0.0005577520933002234,5.1896491050720215,-1.2283154726028442,0.11560868471860886,2.211066246032715,5.432255017548361,-0.0011339499615132809,0.2905343770980835,-1.793788258229391,0.00030781884561292827,0.09293562173843384,0.19377747178077698,0.0,0.0005068546161055565,1.517812967300415,-0.014240935444831848,-0.4198075830936432
373.0,344.0,-2.5316,1.5218,8.2552,-0.0539,0.0767,-0.1477,-2.3666984043517054,-0.000411860179156065,5.184798717498779,-1.227381944656372,0.1153123676776886,2.2146270275115967,5.432239043503561,-0.0006580578628927469,0.2870326638221741,-1.7937644163714808,0.00032834181911312044,0.11034515500068665,0.19376559555530548,0.0,-4.77852881886065e-05,1.517777442932129,-0.01638958789408207,-0.4900411367416382
373.0,344.0,-2.5316,1.5218,8.2552,-0.0539,0.0767,-0.1477,-2.3667546711363734,-0.0003016212140209973,5.1449785232543945,-1.2264961004257202,0.11440760642290115,2.2469141483306885,5.432219075947561,-0.00036817201180383563,0.2733970582485199,-1.7937396208392542,0.00030419297399930656,0.10704825818538666,0.19381394982337952,0.0,0.0018658488988876343,1.5175894498825073,-0.018765123561024666,-0.4105709493160248
373.0,344.0,-2.5316,1.5218,8.2552,-0.0539,0.0767,-0.1477,-2.36674227337026,-0.0014212783426046371,5.150358200073242,-1.2258740663528442,0.10837074369192123,2.210965633392334,5.432198929577627,-0.0012323805131018162,0.26754030585289,-1.793743912373678,0.0002608818467706442,0.09341961145401001,0.19377745687961578,0.0,-0.008404780179262161,1.5174535512924194,-0.02149416133761406,-0.43827277421951294
373.0,344.0,-2.5316,1.5218,8.2552,-0.0539,0.0767,-0.1477,-2.3667217693724574,-0.0030024240259081125,5.130306720733643,-1.2250440120697021,0.09533338248729706,2.215366840362549,5.432179200440206,-0.0023862309753894806,0.2733713388442993,-1.7937758604632776,0.0002550488570705056,0.1123792827129364,0.1937975436449051,0.0,0.015117336064577103,1.517310380935669,-0.026754003018140793,-0.460640549659729
373.0,344.0,-2.5316,1.5218,8.2552,-0.0539,0.0767,-0.1477,-2.3667456112303675,-0.0016239290125668049,5.107944488525391,-1.2244137525558472,0.08122090995311737,2.1474061012268066,5.432162868767538,-0.001984258182346821,0.2762415111064911,-1.7937563101397913,0.00025031311088241637,0.11359106004238129,0.19379375874996185,0.0,-0.003314851550385356,1.517054557800293,-0.03317859023809433,-0.45866209268569946
331.0,303.0,-4.5045,0.8471,8.7978,-0.0492,0.115,-0.1739,-2.366774698297018,-0.000752985302824527,5.115021705627441,-1.2238157987594604,0.07363821566104889,2.1695897579193115,5.432159173279562,-0.0016547639388591051,0.26302990317344666,-1.7937758604632776,0.00021655553427990526,0.10659803450107574,0.19378161430358887,0.0,-0.002366088330745697,1.5167144536972046,-0.04054323583841324,-0.4693922698497772
331.0,303.0,-4.5045,0.8471,8.7978,-0.0492,0.115,-0.1739,-2.3667384586729945,-0.0005541559075936675,5.039304733276367,-1.223365068435669,0.06652054935693741,2.1478843688964844,5.432123112469473,-0.0016314324457198381,0.25822019577026367,-1.7937477270709437,0.00018650581478141248,0.11322300136089325,0.19389832019805908,0.0,0.005522862542420626,1.5164591073989868,-0.046628404408693314,-0.49083060026168823
331.0,303.0,-4.5045,0.8471,8.7978,-0.0492,0.115,-0.1739,-2.3667661152281703,-0.0004684552550315857,5.061948776245117,-1.2228703498840332,0.06122896820306778,2.117201328277588,5.4321074960525415,-0.0017884704284369946,0.26359280943870544,-1.793760124837057,0.000221798472921364,0.10850788652896881,0.19377745687961578,0.0,0.01255751308053732,1.5160518884658813,-0.05411960184574127,-0.5406205654144287
331.0,303.0,-4.5045,0.8471,8.7978,-0.0492,0.115,-0.1739,-2.366753717462057,-0.0002679557364899665,5.0572404861450195,-1.2223600149154663,0.05725577473640442,2.0893149375915527,5.432079243450918,-0.0020138868130743504,0.26373884081840515,-1.7937114874469202,0.0002168234350392595,0.10849487036466599,0.19377745687961578,0.0,0.0036488082259893417,1.515625,-0.05978640168905258,-0.5384949445724487
331.0,303.0,-4.5045,0.8471,8.7978,-0.0492,0.115,-0.1739,-2.3667904339232386,-0.00028882495826110244,5.0761590003967285,-1.2220686674118042,0.05528305843472481,2.1209678649902344,5.432079601078787,-0.0026096554938703775,0.25767868757247925,-1.7937677542315882,0.00020495359785854816,0.11234121024608612,0.19385400414466858,0.0,0.0019197242800146341,1.5152415037155151,-0.061515361070632935,-0.5211570262908936
331.0,303.0,-4.5045,0.8471,8.7978,-0.0492,0.115,-0.1739,-2.366774698297018,-0.0020107124000787735,5.069039821624756,-1.221642255783081,0.05084078013896942,2.1699509620666504,5.432063567429342,-0.0027174854185432196,0.25361090898513794,-1.7937234083758753,0.0002469724277034402,0.1090092584490776,0.19373394548892975,0.0,0.00713287852704525,1.514806866645813,-0.06614094227552414,-0.5499499440193176
331.0,303.0,-4.5045,0.8471,8.7978,-0.0492,0.115,-0.1739,-2.366826196710104,-0.0038118569646030664,5.027027130126953,-1.2212754487991333,0.044849444180727005,2.107093334197998,5.432035791664877,-0.0023728846572339535,0.257507860660553,-1.7937353293048304,0.00024329008010681719,0.12126907706260681,0.19380569458007812,0.0,0.026867203414440155,1.5141514539718628,-0.07431855797767639,-0.599126935005188
331.0,303.0,-4.5045,0.8471,8.7978,-0.0492,0.115,-0.1739,-2.366814275781149,-0.0040894122794270515,5.039089679718018,-1.2209328413009644,0.038476865738630295,2.124239206314087,5.431975471764364,-0.0018693074816837907,0.24806077778339386,-1.7937234083758753,0.00024048954946920276,0.114014632999897,0.19378969073295593,0.0,0.01438737753778696,1.513604998588562,-0.07244925200939178,-0.5266568660736084
331.0,303.0,-4.5045,0.8471,8.7978,-0.0492,0.115,-0.1739,-2.366866251031393,-0.003447046270594001,5.036462306976318,-1.2207411527633667,0.03343478590250015,2.118905544281006,5.431979763298788,-0.0018256758339703083,0.24832716584205627,-1.7937563101397913,0.0002464598510414362,0.11141514778137207,0.19374993443489075,0.0,0.0039869649335742,1.513157606124878,-0.06984268128871918,-0.5426324009895325
331.0,303.0,-4.5045,0.8471,8.7978,-0.0492,0.115,-0.1739,-2.366878171960348,-0.0018068536883220077,5.074682235717773,-1.2204779386520386,0.023624161258339882,2.0983433723449707,5.431968021183767,-0.0016592215979471803,0.2543914020061493,-1.793715778981344,0.00029165868181735277,0.12282025068998337,0.19377337396144867,0.0,-0.006058108061552048,1.512591004371643,-0.06762028485536575,-0.610331118106842
331.0,303.0,-4.5045,0.8471,8.7978,-0.0492,0.115,-0.1739,-2.3668419323363246,-0.000924107909668237,5.106578350067139,-1.2204031944274902,0.014190726913511753,2.0417966842651367,5.431947695999899,-0.0011788910487666726,0.26011693477630615,-1.7937114874469202,0.00034201116068288684,0.1102176085114479,0.193801611661911,0.0,0.0004441459896042943,1.5120197534561157,-0.07123246788978577,-0.5740827322006226
331.0,303.0,-4.5045,0.8471,8.7978,-0.0492,0.115,-0.1739,-2.366866251031393,-0.0005822560633532703,5.048050403594971,-1.2203388214111328,0.00526004284620285,2.0739994049072266,5.431959974556722,-0.0008262626943178475,0.24704237282276154,-1.7937114874469202,0.001963184215128422,0.12288132309913635,0.19379794597625732,0.0,-0.003138539846986532,1.5113927125930786,-0.07748010009527206,-0.5661705732345581
305.0,315.0,-4.1318,0.3003,8.5771,-0.037,0.0344,-0.1965,-2.366861959496969,-0.00045583079918287694,5.0322651863098145,-1.2202551364898682,0.0016879173927009106,2.051326036453247,5.431951749115743,-0.0007385093485936522,0.2454940378665924,-1.793755833302633,0.004321352578699589,0.10934054851531982,0.19379794597625732,0.0,0.0010978674981743097,1.5109330415725708,-0.0816117376089096,-0.5713374614715576
305.0,315.0,-4.1318,0.3003,8.5771,-0.037,0.0344,-0.1965,-2.366873880425924,-0.00035350173129700124,5.086336135864258,-1.220323085784912,0.00024873678921721876,2.049126625061035,5.431955861836233,-0.0005660860915668309,0.2383507490158081,-1.7936118284808558,0.013766555115580559,0.12776818871498108,0.1937614530324936,0.0,0.013157498091459274,1.5103507041931152,-0.07988215237855911,-0.5616822242736816
