ramyac6/ROB537/final_project/csv/all/good_152.csv
tof_0,tof_1,accelx,accely,accelz,gyrox,gyroy,gyroz,shoulder_lift_joint_position,shoulder_lift_joint_velocity,shoulder_lift_joint_effort,elbow_joint_position,elbow_joint_velocity,elbow_joint_effort,wrist_1_joint_position,wrist_1_joint_velocity,wrist_1_joint_effort,wrist_2_joint_position,wrist_2_joint_velocity,wrist_2_joint_effort,wrist_3_joint_position,wrist_3_joint_velocity,wrist_3_joint_effort,shoulder_pan_joint_position,shoulder_pan_joint_velocity,shoulder_pan_joint_effort
509.0,426.0,-2.068,-0.3894,9.527,-0.0331,0.0301,-0.1138,-1.6101705036559046,0.0,2.040940523147583,-2.0758607387542725,-0.0,1.9277012348175049,5.33283959606246,0.0,0.26554664969444275,-1.5349467436419886,0.0,-0.02440696209669113,0.770409345626831,-0.0,0.011152704246342182,0.8345457911491394,0.0,0.03483807295560837
509.0,426.0,-2.068,-0.3894,9.527,-0.0331,0.0301,-0.1138,-1.61012663463735,0.0,2.0704755783081055,-2.075808048248291,-0.0,1.9285600185394287,5.332799422531881,0.0,0.25135812163352966,-1.5349434057818812,0.0,-0.015743916854262352,0.7704013586044312,-0.0,-0.003671810030937195,0.8345375657081604,0.0,-0.02983018010854721
509.0,426.0,-2.068,-0.3894,9.527,-0.0331,0.0301,-0.1138,-1.6101423702635707,0.0,2.086348056793213,-2.075845241546631,-0.0,1.8750057220458984,5.332811343460836,0.0,0.26444223523139954,-1.5349271933185022,0.0,-0.016491062939167023,0.7704132199287415,-0.0,0.004841163754463196,0.8345457911491394,0.0,0.01829509064555168
509.0,426.0,-2.068,-0.3894,9.527,-0.0331,0.0301,-0.1138,-1.6101581058897914,0.0,2.063870668411255,-2.075824499130249,-0.0,1.9314579963684082,5.33281164148406,0.0,0.2780399024486542,-1.5349672476397913,0.0,-0.008881622925400734,0.770365297794342,-0.0,-0.0016952246660366654,0.8345817923545837,0.0,-0.03863903135061264
509.0,426.0,-2.068,-0.3894,9.527,-0.0331,0.0301,-0.1138,-1.6101223431029261,0.0,2.1240181922912598,-2.0758402347564697,-0.0,1.930012822151184,5.332799422531881,0.0,0.26074180006980896,-1.5348871389972132,0.0,-0.011463490314781666,0.7703653573989868,-0.0,0.008309116587042809,0.8345333933830261,0.0,-0.03764870762825012
509.0,426.0,-2.068,-0.3894,9.527,-0.0331,0.0301,-0.1138,-1.610138555566305,0.0,2.060159206390381,-2.075824499130249,-0.0,1.9142643213272095,5.332815396576681,0.0,0.26332980394363403,-1.5348952452289026,0.0,-0.019490238279104233,0.7704291343688965,-0.0,-0.0031948299147188663,0.834545373916626,0.0,0.05833742022514343
497.0,447.0,-2.0746,-0.3661,9.4995,-0.0444,0.0218,-0.122,-1.610149999658102,0.0,2.0741145610809326,-2.0758163928985596,-0.0,1.878852128982544,5.332803416043081,0.0,0.2546720802783966,-1.5349553267108362,0.0,-0.006081650033593178,0.7704330682754517,-0.0,0.0009508509538136423,0.8345094919204712,0.0,-0.016691990196704865
497.0,447.0,-2.0746,-0.3661,9.4995,-0.0444,0.0218,-0.122,-1.6101261578001917,0.0,2.076685905456543,-2.075784206390381,-0.0,1.8798065185546875,5.332787740021505,0.0,0.2702811360359192,-1.5349553267108362,0.0,-0.013857990503311157,0.7703970670700073,-0.0,0.005690526217222214,0.8345780968666077,0.0,0.029942715540528297
497.0,447.0,-2.0746,-0.3661,9.4995,-0.0444,0.0218,-0.122,-1.6101585827269496,0.0,2.046839952468872,-2.075892686843872,-0.0,1.899144172668457,5.332847702294149,0.0,0.2628610134124756,-1.5349834601031702,0.0,-0.024860814213752747,0.770397424697876,-0.0,-0.013503029011189938,0.8345334529876709,0.0,0.021327244117856026
497.0,447.0,-2.0746,-0.3661,9.4995,-0.0444,0.0218,-0.122,-1.6101790867247523,0.0,2.052178144454956,-2.075864791870117,-0.0,1.9355311393737793,5.33283148983077,0.0,0.2603817582130432,-1.5349229017840784,0.0,-0.019170016050338745,0.7704291343688965,-0.0,-0.010343864560127258,0.8345577120780945,0.0,-0.016640089452266693
497.0,447.0,-2.0746,-0.3661,9.4995,-0.0444,0.0218,-0.122,-1.6101461849608363,0.0,2.067441940307617,-2.075848340988159,-0.0,1.9347174167633057,5.332835423737325,0.0,0.25734108686447144,-1.5349391142474573,0.0,-0.01606687903404236,0.7703851461410522,-0.0,-0.0052780164405703545,0.8345375657081604,0.0,-0.006949673872441053
497.0,447.0,-2.0746,-0.3661,9.4995,-0.0444,0.0218,-0.122,-1.6101223431029261,0.0,2.0782878398895264,-2.0758328437805176,-0.0,1.9048783779144287,5.332819449692526,0.0,0.2538484036922455,-1.534942928944723,0.0,0.002438823925331235,0.7703772783279419,-0.0,0.01060611754655838,0.8345740437507629,0.0,-0.013884373940527439
497.0,447.0,-2.0746,-0.3661,9.4995,-0.0444,0.0218,-0.122,-1.6101304493346156,0.0,2.085845947265625,-2.0758681297302246,-0.0,1.9149320125579834,5.332759308605947,0.0,0.2713892161846161,-1.5348952452289026,0.0,-0.023513663560152054,0.770349383354187,-0.0,-0.010007625445723534,0.8345577120780945,0.0,0.017563385888934135
497.0,447.0,-2.0746,-0.3661,9.4995,-0.0444,0.0218,-0.122,-1.6101910076537074,0.0,2.076390266418457,-2.0757429599761963,-0.0,1.9039666652679443,5.332823562413015,0.0,0.265331894159317,-1.5349553267108362,0.0,-0.015034625306725502,0.7704012989997864,-0.0,0.02173812873661518,0.8345494270324707,0.0,-0.023673687130212784
497.0,447.0,-2.0746,-0.3661,9.4995,-0.0444,0.0218,-0.122,-1.6101581058897914,0.0,2.0253679752349854,-2.0758161544799805,-0.0,1.8862844705581665,5.332791256695547,0.0,0.2624262571334839,-1.5349472204791468,0.0,-0.014167393557727337,0.7704370617866516,-0.0,0.00925310980528593,0.8345090746879578,0.0,0.0013593938201665878
497.0,447.0,-2.0746,-0.3661,9.4995,-0.0444,0.0218,-0.122,-1.610121866265768,0.0,2.0710387229919434,-2.0757997035980225,-0.0,1.8855805397033691,5.332803118019857,0.0,0.25947099924087524,-1.5349434057818812,0.0,-0.03351302444934845,0.7704052329063416,-0.0,0.013047969900071621,0.8346181511878967,0.0,-0.006935101002454758
497.0,447.0,-2.0746,-0.3661,9.4995,-0.0444,0.0218,-0.122,-1.6101910076537074,0.0,2.0417869091033936,-2.0758285522460938,-0.0,1.8942153453826904,5.3328396556671045,0.0,0.26083746552467346,-1.5349672476397913,0.0,-0.01918112300336361,0.7704092860221863,-0.0,0.00205317884683609,0.8345417380332947,0.0,0.007709424011409283
497.0,447.0,-2.0746,-0.3661,9.4995,-0.0444,0.0218,-0.122,-1.6101142368712367,0.0,2.0915892124176025,-2.0758368968963623,-0.0,1.8887579441070557,5.3327592490013025,0.0,0.2649536728858948,-1.5349028746234339,0.0,-0.024826474487781525,0.7703890800476074,-0.0,0.004616834688931704,0.834581732749939,0.0,0.015265824273228645
490.0,417.0,-2.0375,-0.3589,9.4068,-0.0396,0.0353,-0.1304,-1.6101910076537074,0.0,2.0561110973358154,-2.0758681297302246,-0.0,1.8985869884490967,5.332847761898794,0.0,0.266740620136261,-1.5349028746234339,0.0,-0.021559828892350197,0.7704013586044312,-0.0,-0.0078181903809309,0.8345699310302734,0.0,0.01035924069583416
490.0,417.0,-2.0375,-0.3589,9.4068,-0.0396,0.0353,-0.1304,-1.6101423702635707,0.0,2.0792593955993652,-2.0757956504821777,-0.0,1.8565757274627686,5.332815396576681,0.0,0.2724264860153198,-1.5349190870868128,0.0,-0.017367970198392868,0.7703573703765869,-0.0,0.001565950340591371,0.8345334529876709,0.0,0.016230126842856407
490.0,417.0,-2.0375,-0.3589,9.4068,-0.0396,0.0353,-0.1304,-1.6102072201170863,0.0,2.050630569458008,-2.075845241546631,-0.0,1.9242644309997559,5.332795369416036,0.0,0.26979389786720276,-1.5349510351764124,0.0,-0.012814193964004517,0.7703732848167419,-0.0,0.002566547365859151,0.8345817923545837,0.0,0.0020111671183258295
490.0,417.0,-2.0375,-0.3589,9.4068,-0.0396,0.0353,-0.1304,-1.6101423702635707,0.0,2.0914814472198486,-2.0758204460144043,-0.0,1.8896254301071167,5.332831370621481,0.0,0.2670935392379761,-1.5349553267108362,0.0,-0.015985870733857155,0.7703494429588318,-0.0,0.003627115860581398,0.834521472454071,0.0,-0.02844834327697754
490.0,417.0,-2.0375,-0.3589,9.4068,-0.0396,0.0353,-0.1304,-1.610211034814352,0.0,2.069550037384033,-2.075841188430786,-0.0,1.9086031913757324,5.332787084370413,0.0,0.27214497327804565,-1.5349271933185022,0.0,-0.012041501700878143,0.7703332304954529,-0.0,0.010088063776493073,0.8345781564712524,0.0,-0.004606498870998621
490.0,417.0,-2.0375,-0.3589,9.4068,-0.0396,0.0353,-0.1304,-1.610154768029684,0.0,2.1117069721221924,-2.0758039951324463,-0.0,1.906741738319397,5.332795369416036,0.0,0.2643907964229584,-1.534971062337057,0.0,-0.02145642414689064,0.7703852653503418,-0.0,-0.009584285318851471,0.8345416784286499,0.0,-0.013986610807478428
490.0,417.0,-2.0375,-0.3589,9.4068,-0.0396,0.0353,-0.1304,-1.6101910076537074,0.0,2.03588604927063,-2.075876235961914,-0.0,1.869638204574585,5.332771408348837,0.0,0.262930691242218,-1.5349753538714808,0.0,-0.016747785732150078,0.7704212069511414,-0.0,-0.004266439937055111,0.8345494270324707,0.0,-0.01903880387544632
490.0,417.0,-2.0375,-0.3589,9.4068,-0.0396,0.0353,-0.1304,-1.6101261578001917,0.0,2.0531303882598877,-2.075780153274536,-0.0,1.8488776683807373,5.332827377110281,0.0,0.2616956830024719,-1.5349591414081019,0.0,-0.016430342569947243,0.7704295516014099,-0.0,-0.011390251107513905,0.8345293402671814,0.0,0.02444920688867569
490.0,417.0,-2.0375,-0.3589,9.4068,-0.0396,0.0353,-0.1304,-1.610110422173971,0.0,2.0689046382904053,-2.075880289077759,-0.0,1.9045770168304443,5.332775580673971,0.0,0.25846827030181885,-1.5349271933185022,0.0,-0.010353632271289825,0.7703406810760498,-0.0,-0.011226898059248924,0.834553599357605,0.0,0.007170114666223526
490.0,417.0,-2.0375,-0.3589,9.4068,-0.0396,0.0353,-0.1304,-1.6101142368712367,0.0,2.0955214500427246,-2.075824499130249,-0.0,1.8778599500656128,5.332823264389791,0.0,0.27676278352737427,-1.5349434057818812,0.0,-0.01719534955918789,0.7704336047172546,-0.0,0.005885551683604717,0.834561824798584,0.0,0.014055812731385231
490.0,417.0,-2.0375,-0.3589,9.4068,-0.0396,0.0353,-0.1304,-1.610110422173971,0.0,2.0685253143310547,-2.0758368968963623,-0.0,1.9190813302993774,5.332791852741995,0.0,0.25976014137268066,-1.5349271933185022,0.0,-0.018462173640727997,0.7704094648361206,-0.0,0.0016055861487984657,0.8345333933830261,0.0,-0.030819039791822433
502.0,450.0,-1.9896,-0.3464,9.5067,-0.038,0.0235,-0.1153,-1.6101428471007289,0.0,2.0492846965789795,-2.075859785079956,-0.0,1.8507394790649414,5.332815336972036,0.0,0.2598135769367218,-1.5349672476397913,0.0,-0.012330034747719765,0.7703611254692078,-0.0,-0.00237038591876626,0.834545373916626,0.0,-0.007724340073764324
502.0,450.0,-1.9896,-0.3464,9.5067,-0.038,0.0235,-0.1153,-1.610138555566305,0.0,2.0566790103912354,-2.075780153274536,-0.0,1.9513423442840576,5.332807230740347,0.0,0.2700217664241791,-1.5349915663348597,0.0,-0.01979188621044159,0.7703688740730286,-0.0,-0.0016734739765524864,0.8345617055892944,0.0,0.008402353152632713
502.0,450.0,-1.9896,-0.3464,9.5067,-0.038,0.0235,-0.1153,-1.610138555566305,0.0,2.0505576133728027,-2.075845241546631,-0.0,1.8616735935211182,5.3328314302261255,0.0,0.267194926738739,-1.5349553267108362,0.0,-0.016397738829255104,0.7703849077224731,-0.0,0.0037661048118025064,0.8345416784286499,0.0,0.009202328510582447
502.0,450.0,-1.9896,-0.3464,9.5067,-0.038,0.0235,-0.1153,-1.6101099453368128,0.0,2.112178325653076,-2.0758285522460938,-0.0,1.9421336650848389,5.332807230740347,0.0,0.2643428444862366,-1.5349071661578577,0.0,-0.016012003645300865,0.7704052925109863,-0.0,0.01680675335228443,0.8345296382904053,0.0,0.012160684913396835
502.0,450.0,-1.9896,-0.3464,9.5067,-0.038,0.0235,-0.1153,-1.6101223431029261,0.0,2.0837996006011963,-2.075767755508423,-0.0,1.9166184663772583,5.332815456181326,0.0,0.26819539070129395,-1.5349310080157679,0.0,-0.020559683442115784,0.7703971862792969,-0.0,0.00046673964243382215,0.834561824798584,0.0,-0.023585747927427292
502.0,450.0,-1.9896,-0.3464,9.5067,-0.038,0.0235,-0.1153,-1.6101423702635707,0.0,2.054689884185791,-2.0757925510406494,-0.0,1.8603107929229736,5.332823323994436,0.0,0.2553401589393616,-1.5349510351764124,0.0,-0.01561778225004673,0.7704172134399414,-0.0,-0.010971026495099068,0.8345255255699158,0.0,0.0031505972146987915
502.0,450.0,-1.9896,-0.3464,9.5067,-0.038,0.0235,-0.1153,-1.61015047649526,0.0,2.0507586002349854,-2.0758204460144043,-0.0,1.9118645191192627,5.332851755409994,0.0,0.2755514085292816,-1.5349510351764124,0.0,-0.00797450914978981,0.7703853249549866,-0.0,-0.01469994243234396,0.8345376253128052,0.0,0.008187979459762573
502.0,450.0,-1.9896,-0.3464,9.5067,-0.038,0.0235,-0.1153,-1.6101581058897914,0.0,2.0359947681427,-2.0758566856384277,-0.0,1.8702465295791626,5.332763361721792,0.0,0.2718770503997803,-1.5349553267108362,0.0,-0.015501771122217178,0.770482063293457,-0.0,0.0028403177857398987,0.8345296382904053,0.0,-0.03873038664460182
502.0,450.0,-1.9896,-0.3464,9.5067,-0.038,0.0235,-0.1153,-1.610166688958639,0.0,2.0977885723114014,-2.075824499130249,-0.0,1.9567861557006836,5.332795309811392,0.0,0.2714642882347107,-1.5349071661578577,0.0,-0.016739442944526672,0.7703812122344971,-0.0,-0.009224053472280502,0.8345457911491394,0.0,-0.00038277730345726013
502.0,450.0,-1.9896,-0.3464,9.5067,-0.038,0.0235,-0.1153,-1.6101342640318812,0.0,2.083530902862549,-2.075828790664673,-0.0,1.9186465740203857,5.332795369416036,0.0,0.25589483976364136,-1.5349071661578577,0.0,-0.024794690310955048,0.7703129053115845,-0.0,-0.00803530402481556,0.8345900177955627,0.0,0.059892307966947556
502.0,450.0,-1.9896,-0.3464,9.5067,-0.038,0.0235,-0.1153,-1.610138555566305,0.0,2.072188377380371,-2.075763463973999,-0.0,1.9224762916564941,5.332803416043081,0.0,0.2627261281013489,-1.534914795552389,0.0,-0.008019800297915936,0.7703812718391418,-0.0,-0.008929549716413021,0.8345781564712524,0.0,-0.02832462266087532
502.0,450.0,-1.9896,-0.3464,9.5067,-0.038,0.0235,-0.1153,-1.6101428471007289,0.0,2.062955141067505,-2.075763463973999,-0.0,1.8503141403198242,5.332763361721792,0.0,0.2629581391811371,-1.5349510351764124,0.0,-0.012776343151926994,0.7703931331634521,-0.0,-0.0033539305441081524,0.8345296382904053,0.0,-0.014063650742173195
509.0,421.0,-2.0465,-0.3661,9.4977,-0.0356,0.0249,-0.119,-1.6101428471007289,0.0,2.10776948928833,-2.0758402347564697,-0.0,1.8829057216644287,5.332775580673971,0.0,0.26821625232696533,-1.5349591414081019,0.0,-0.0049045505002141,0.7703849077224731,-0.0,-0.006653139367699623,0.8345494270324707,0.0,-0.01964746229350567
509.0,421.0,-2.0465,-0.3661,9.4977,-0.0356,0.0249,-0.119,-1.6101428471007289,0.0,2.084272623062134,-2.0758204460144043,-0.0,1.8888189792633057,5.3328314302261255,0.0,0.27012115716934204,-1.5349510351764124,0.0,0.0034355823881924152,0.7703729867935181,-0.0,0.005785871297121048,0.834561824798584,0.0,0.034876856952905655
509.0,421.0,-2.0465,-0.3661,9.4977,-0.0356,0.0249,-0.119,-1.610154768029684,0.0,2.0494072437286377,-2.075828790664673,-0.0,1.8852776288986206,5.332827317505636,0.0,0.25949233770370483,-1.5349071661578577,0.0,-0.01348986104130745,0.7703652381896973,-0.0,0.0016613896004855633,0.8345494270324707,0.0,-0.005719101522117853
509.0,421.0,-2.0465,-0.3661,9.4977,-0.0356,0.0249,-0.119,-1.61015047649526,0.0,2.049732208251953,-2.0758681297302246,-0.0,1.948379635810852,5.3328072903449915,0.0,0.25739264488220215,-1.5349510351764124,0.0,-0.014598319306969643,0.7704094648361206,-0.0,0.004872203804552555,0.8345333933830261,0.0,0.019588230177760124
509.0,421.0,-2.0465,-0.3661,9.4977,-0.0356,0.0249,-0.119,-1.6101223431029261,0.0,2.0358598232269287,-2.0758161544799805,-0.0,1.8463754653930664,5.332755434304037,0.0,0.26969078183174133,-1.534971062337057,0.0,-0.02175169810652733,0.7704131603240967,-0.0,0.0017101553967222571,0.8345416784286499,0.0,-0.008781280368566513
509.0,421.0,-2.0465,-0.3661,9.4977,-0.0356,0.0249,-0.119,-1.6101304493346156,0.0,2.054816722869873,-2.0758163928985596,-0.0,1.8983449935913086,5.332823264389791,0.0,0.27533406019210815,-1.534987751637594,0.0,-0.018268615007400513,0.7703729867935181,-0.0,0.0073714787140488625,0.8345938324928284,0.0,0.03683871030807495
509.0,421.0,-2.0465,-0.3661,9.4977,-0.0356,0.0249,-0.119,-1.61012663463735,0.0,2.027094602584839,-2.075780153274536,-0.0,1.888132095336914,5.332827317505636,0.0,0.26807084679603577,-1.534931484852926,0.0,-0.014881719835102558,0.7704455852508545,-0.0,0.0075359707698225975,0.8345293402671814,0.0,0.01212972030043602
509.0,421.0,-2.0465,-0.3661,9.4977,-0.0356,0.0249,-0.119,-1.6101623974242152,0.0,2.0633974075317383,-2.0758328437805176,-0.0,1.8790004253387451,5.332811343460836,0.0,0.25986266136169434,-1.5349872748004358,0.0,-0.025456873700022697,0.7703889608383179,-0.0,0.015592335723340511,0.8345375657081604,0.0,0.00946428906172514
509.0,421.0,-2.0465,-0.3661,9.4977,-0.0356,0.0249,-0.119,-1.6101585827269496,0.0,2.0706381797790527,-2.075751304626465,-0.0,1.9239997863769531,5.332795369416036,0.0,0.25494518876075745,-1.5349348227130335,0.0,-0.01811971701681614,0.770441472530365,-0.0,-0.004322426859289408,0.8345576524734497,0.0,0.02305525355041027
509.0,421.0,-2.0465,-0.3661,9.4977,-0.0356,0.0249,-0.119,-1.610138555566305,0.0,2.063366174697876,-2.075876235961914,-0.0,1.8528205156326294,5.332823264389791,0.0,0.2588474154472351,-1.5349796454059046,0.0,-0.01188107393682003,0.7704135775566101,-0.0,0.01124033983796835,0.8345699310302734,0.0,0.033110618591308594
509.0,421.0,-2.0465,-0.3661,9.4977,-0.0356,0.0249,-0.119,-1.6101304493346156,0.0,2.0641183853149414,-2.0757720470428467,-0.0,1.93553626537323,5.332803118019857,0.0,0.25869202613830566,-1.5349753538714808,0.0,-0.013818122446537018,0.7704094648361206,-0.0,-0.001773166237398982,0.834553599357605,0.0,-0.035772375762462616
538.0,441.0,-2.1655,-0.4391,9.7609,-0.0405,0.027,-0.1158,-1.610154768029684,0.0,2.080105781555176,-2.0757720470428467,-0.0,1.9111053943634033,5.332835423737325,0.0,0.2637099325656891,-1.5349672476397913,0.0,-0.02361583150923252,0.7704295516014099,-0.0,0.009738761931657791,0.8345699310302734,0.0,-0.012643205001950264
538.0,441.0,-2.1655,-0.4391,9.7609,-0.0405,0.027,-0.1158,-1.61012663463735,0.0,2.0201332569122314,-2.0758368968963623,-0.0,1.892768383026123,5.332819092064657,0.0,0.26627087593078613,-1.5349190870868128,0.0,-0.011846397072076797,0.7703889608383179,-0.0,0.004515987355262041,0.8345333933830261,0.0,0.04709067940711975
538.0,441.0,-2.1655,-0.4391,9.7609,-0.0405,0.027,-0.1158,-1.6101623974242152,0.0,2.0372109413146973,-2.0758163928985596,-0.0,1.9388612508773804,5.332835423737325,0.0,0.2642194926738739,-1.534931484852926,0.0,-0.0032210045028477907,0.7704052925109863,-0.0,-0.0031850188970565796,0.834585964679718,0.0,-0.0022013552952557802
538.0,441.0,-2.1655,-0.4391,9.7609,-0.0405,0.027,-0.1158,-1.610138555566305,0.0,2.07521390914917,-2.075808048248291,-0.0,1.8475878238677979,5.332811403065481,0.0,0.2643812596797943,-1.5349434057818812,0.0,-0.019915737211704254,0.7703807950019836,-0.0,-0.0001583877019584179,0.8345699310302734,0.0,-0.010734308511018753
538.0,441.0,-2.1655,-0.4391,9.7609,-0.0405,0.027,-0.1158,-1.6101623974242152,0.0,2.067892074584961,-2.0758681297302246,-0.0,1.93755042552948,5.332791256695547,0.0,0.25034159421920776,-1.5348952452289026,0.0,-0.011655528098344803,0.7704336047172546,-0.0,0.014896529726684093,0.8346058130264282,0.0,0.004354755859822035
538.0,441.0,-2.1655,-0.4391,9.7609,-0.0405,0.027,-0.1158,-1.6101428471007289,0.0,2.0535194873809814,-2.075841188430786,-0.0,1.8935999870300293,5.332727300911703,0.0,0.2587265074253082,-1.5349591414081019,0.0,-0.012576278299093246,0.770441472530365,-0.0,0.0028119918424636126,0.8345617055892944,0.0,0.012819012627005577
538.0,441.0,-2.1655,-0.4391,9.7609,-0.0405,0.027,-0.1158,-1.6101342640318812,0.0,2.0452942848205566,-2.0758328437805176,-0.0,1.9012374877929688,5.332823264389791,0.0,0.2623688578605652,-1.5349434057818812,0.0,-0.015730174258351326,0.7704135179519653,-0.0,-0.005963288247585297,0.8345657587051392,0.0,0.012789641506969929
538.0,441.0,-2.1655,-0.4391,9.7609,-0.0405,0.027,-0.1158,-1.610110422173971,0.0,2.0737316608428955,-2.0758204460144043,-0.0,1.9284675121307373,5.332835423737325,0.0,0.2481098771095276,-1.5349591414081019,0.0,-0.010109190829098225,0.7703889608383179,-0.0,-0.001754768192768097,0.8345457911491394,0.0,-0.0010745730251073837
538.0,441.0,-2.1655,-0.4391,9.7609,-0.0405,0.027,-0.1158,-1.6101581058897914,0.0,2.0863254070281982,-2.075852632522583,-0.0,1.8692859411239624,5.332823264389791,0.0,0.2592605948448181,-1.5349753538714808,0.0,-0.00826416164636612,0.7704094648361206,-0.0,-0.017493436112999916,0.8345577120780945,0.0,-0.016235165297985077
538.0,441.0,-2.1655,-0.4391,9.7609,-0.0405,0.027,-0.1158,-1.610166688958639,0.0,2.100095272064209,-2.0757884979248047,-0.0,1.9036786556243896,5.332847761898794,0.0,0.260265976190567,-1.5349028746234339,0.0,-0.017207706347107887,0.7704094648361206,-0.0,-0.0011306640226393938,0.8345376253128052,0.0,0.011064453050494194
538.0,441.0,-2.1655,-0.4391,9.7609,-0.0405,0.027,-0.1158,-1.6101910076537074,0.0,2.0458240509033203,-2.0758402347564697,-0.0,1.9158653020858765,5.332807230740347,0.0,0.259568989276886,-1.5349391142474573,0.0,-0.02538028359413147,0.770348846912384,-0.0,0.01053120382130146,0.8345657587051392,0.0,-0.0015138043090701103
538.0,441.0,-2.1655,-0.4391,9.7609,-0.0405,0.027,-0.1158,-1.610138555566305,0.0,2.029836654663086,-2.075824499130249,-0.0,1.8960862159729004,5.332811343460836,0.0,0.27643710374832153,-1.5349553267108362,0.0,-0.025249527767300606,0.7703569531440735,-0.0,0.005686801392585039,0.8345252871513367,0.0,0.027485007420182228
542.0,467.0,-2.0512,-0.3613,9.4463,-0.0308,0.022,-0.1208,-1.6101585827269496,0.0,2.0583457946777344,-2.0757720470428467,-0.0,1.9033868312835693,5.3327796933944605,0.0,0.2654682397842407,-1.5349190870868128,0.0,0.0021297174971550703,0.7703365683555603,-0.0,0.005005004350095987,0.8345699310302734,0.0,-0.008234744891524315
542.0,467.0,-2.0512,-0.3613,9.4463,-0.0308,0.022,-0.1208,-1.610098501245016,0.0,2.0704002380371094,-2.0757761001586914,-0.0,1.9025623798370361,5.332835423737325,0.0,0.2741226553916931,-1.5349510351764124,0.0,-0.009421445429325104,0.770352840423584,-0.0,0.004594871308654547,0.834521472454071,0.0,-0.006748480722308159
542.0,467.0,-2.0512,-0.3613,9.4463,-0.0308,0.022,-0.1208,-1.610154768029684,0.0,2.08793306350708,-2.0758285522460938,-0.0,1.9157443046569824,5.332827377110281,0.0,0.26595547795295715,-1.5349629561053675,0.0,-0.015992797911167145,0.7703931331634521,-0.0,0.016941314563155174,0.834509551525116,0.0,-0.030594587326049805
542.0,467.0,-2.0512,-0.3613,9.4463,-0.0308,0.022,-0.1208,-1.6101304493346156,0.0,2.0883278846740723,-2.0758039951324463,-0.0,1.9181817770004272,5.332803118019857,0.0,0.26438963413238525,-1.5349348227130335,0.0,-0.011338082142174244,0.7703611254692078,-0.0,-0.003187897615134716,0.8345457911491394,0.0,-0.010194177739322186
542.0,467.0,-2.0512,-0.3613,9.4463,-0.0308,0.022,-0.1208,-1.61015047649526,0.0,2.0327982902526855,-2.0757761001586914,-0.0,1.8922932147979736,5.332827317505636,0.0,0.26280155777931213,-1.5349634329425257,0.0,-0.01082189753651619,0.7704415321350098,-0.0,0.010285260155797005,0.8345293402671814,0.0,-0.02448698878288269
542.0,467.0,-2.0512,-0.3613,9.4463,-0.0308,0.022,-0.1208,-1.6101342640318812,0.0,2.067028284072876,-2.0758039951324463,-0.0,1.9012372493743896,5.332747387676992,0.0,0.2723236382007599,-1.5349348227130335,0.0,-0.023721199482679367,0.770473837852478,-0.0,-0.0022034142166376114,0.8345296382904053,0.0,-0.006925369147211313
542.0,467.0,-2.0512,-0.3613,9.4463,-0.0308,0.022,-0.1208,-1.6101790867247523,0.0,2.1190874576568604,-2.0758721828460693,-0.0,1.898364782333374,5.3328637955482385,0.0,0.26667487621307373,-1.5349391142474573,0.0,-0.02777070552110672,0.7703767418861389,-0.0,-0.004942628089338541,0.8345780968666077,0.0,-0.008080877363681793
542.0,467.0,-2.0512,-0.3613,9.4463,-0.0308,0.022,-0.1208,-1.6101304493346156,0.0,2.0240213871002197,-2.0758328437805176,-0.0,1.8794513940811157,5.332767414837637,0.0,0.25714272260665894,-1.5349672476397913,0.0,-0.016979901120066643,0.7704415321350098,-0.0,-0.0013211674522608519,0.834553599357605,0.0,-0.010595577768981457
542.0,467.0,-2.0512,-0.3613,9.4463,-0.0308,0.022,-0.1208,-1.610138555566305,0.0,2.0721778869628906,-2.0757884979248047,-0.0,1.865877628326416,5.332799422531881,0.0,0.27534112334251404,-1.534942928944723,0.0,-0.010918883606791496,0.7703852653503418,-0.0,-0.005620123352855444,0.834521472454071,0.0,-0.013777907937765121
542.0,467.0,-2.0512,-0.3613,9.4463,-0.0308,0.022,-0.1208,-1.6100942097105921,0.0,2.056759834289551,-2.075876235961914,-0.0,1.8858554363250732,5.3328314302261255,0.0,0.2649000287055969,-1.5349028746234339,0.0,0.002462141215801239,0.7703209519386292,-0.0,-0.00016751838847994804,0.8346102833747864,0.0,0.025858096778392792
542.0,467.0,-2.0512,-0.3613,9.4463,-0.0308,0.022,-0.1208,-1.6101871929564417,0.0,2.0905654430389404,-2.075852632522583,-0.0,1.8772265911102295,5.332855868130483,0.0,0.2673802375793457,-1.534966770802633,0.0,-0.012690643779933453,0.7703812122344971,-0.0,-0.0027723275125026703,0.8345983028411865,0.0,-0.02952815778553486
560.0,452.0,-1.9705,-0.3123,9.2925,-0.0334,0.0287,-0.126,-1.610166688958639,0.0,2.0580315589904785,-2.075780153274536,-0.0,1.8848950862884521,5.33278768041686,0.0,0.2657020688056946,-1.5349753538714808,0.0,0.0025773970410227776,0.7703652381896973,-0.0,0.004855025094002485,0.8345617651939392,0.0,-0.012485992163419724
560.0,452.0,-1.9705,-0.3123,9.2925,-0.0334,0.0287,-0.126,-1.6101342640318812,0.0,2.067845344543457,-2.075767755508423,-0.0,1.926023006439209,5.332843708782949,0.0,0.2630704343318939,-1.534971062337057,0.0,-0.025774892419576645,0.7703449130058289,-0.0,-0.004524202551692724,0.8345293402671814,0.0,0.007523974869400263
560.0,452.0,-1.9705,-0.3123,9.2925,-0.0334,0.0287,-0.126,-1.6102191410460414,0.0,2.0636069774627686,-2.0757997035980225,-0.0,1.8908015489578247,5.332835423737325,0.0,0.2750406861305237,-1.5349510351764124,0.0,-0.004024719353765249,0.7704213261604309,-0.0,0.013470505364239216,0.8345494270324707,0.0,-0.007336879149079323
560.0,452.0,-1.9705,-0.3123,9.2925,-0.0334,0.0287,-0.126,-1.61015047649526,0.0,2.031221389770508,-2.0758328437805176,-0.0,1.8976373672485352,5.3328396556671045,0.0,0.2664739489555359,-1.5349434057818812,0.0,-0.00823569018393755,0.7703729867935181,-0.0,-0.0033235931769013405,0.8345699310302734,0.0,-0.013057475909590721
560.0,452.0,-1.9705,-0.3123,9.2925,-0.0334,0.0287,-0.126,-1.610154768029684,0.0,2.067850351333618,-2.0758285522460938,-0.0,1.8860294818878174,5.332835423737325,0.0,0.24865013360977173,-1.5349109808551233,0.0,-0.017459271475672722,0.7704496383666992,-0.0,-0.003042172873392701,0.8345576524734497,0.0,0.033509258180856705
560.0,452.0,-1.9705,-0.3123,9.2925,-0.0334,0.0287,-0.126,-1.61015047649526,0.0,2.092766761779785,-2.0758163928985596,-0.0,1.8735816478729248,5.3328314302261255,0.0,0.26613849401474,-1.5349348227130335,0.0,-0.02359037846326828,0.7703734636306763,-0.0,0.011997386813163757,0.8345739841461182,0.0,-0.01099422574043274
560.0,452.0,-1.9705,-0.3123,9.2925,-0.0334,0.0287,-0.126,-1.6101466617979945,0.0,2.0519819259643555,-2.0758163928985596,-0.0,1.958562970161438,5.332751381188192,0.0,0.2607996463775635,-1.5349434057818812,0.0,-0.011446213349699974,0.7703729867935181,-0.0,-0.0001392874401062727,0.8345416784286499,0.0,-0.01899854652583599
560.0,452.0,-1.9705,-0.3123,9.2925,-0.0334,0.0287,-0.126,-1.6101871929564417,0.0,2.0786304473876953,-2.075784206390381,-0.0,1.8652353286743164,5.332827377110281,0.0,0.2639133036136627,-1.5349591414081019,0.0,-0.006531856954097748,0.7704052925109863,-0.0,0.002604246372357011,0.8345416784286499,0.0,-0.007935550063848495
560.0,452.0,-1.9705,-0.3123,9.2925,-0.0334,0.0287,-0.126,-1.6101185284056605,0.0,2.0529234409332275,-2.075848340988159,-0.0,1.905731439590454,5.332823264389791,0.0,0.2649579346179962,-1.5349467436419886,0.0,-0.013750452548265457,0.7703246474266052,-0.0,-0.0022290251217782497,0.834509551525116,0.0,-0.052592430263757706
560.0,452.0,-1.9705,-0.3123,9.2925,-0.0334,0.0287,-0.126,-1.6101585827269496,0.0,2.0559628009796143,-2.075784206390381,-0.0,1.8751752376556396,5.332763302117147,0.0,0.25780361890792847,-1.5349348227130335,0.0,0.006240896414965391,0.7703931331634521,-0.0,-0.0022266695741564035,0.834521472454071,0.0,0.01923256926238537
560.0,452.0,-1.9705,-0.3123,9.2925,-0.0334,0.0287,-0.126,-1.610166688958639,0.0,2.0326592922210693,-2.075824499130249,-0.0,1.8953602313995361,5.332787740021505,0.0,0.26753026247024536,-1.5349229017840784,0.0,-0.019554657861590385,0.770369291305542,-0.0,0.002506367163732648,0.8345739841461182,0.0,0.019388623535633087
560.0,452.0,-1.9705,-0.3123,9.2925,-0.0334,0.0287,-0.126,-1.6101223431029261,0.0,2.126807689666748,-2.0758368968963623,-0.0,1.9268112182617188,5.332763302117147,0.0,0.2622460126876831,-1.5349348227130335,0.0,-0.0072344327345490456,0.770377516746521,-0.0,0.013365555554628372,0.8345255255699158,0.0,0.07938960194587708
544.0,440.0,-2.0393,-0.3577,9.4594,-0.0325,0.0115,-0.1101,-1.610182901422018,0.0,2.073014736175537,-2.0757925510406494,-0.0,1.862341284751892,5.332759308605947,0.0,0.2625395655632019,-1.5349310080157679,0.0,-0.01364128664135933,0.7704135179519653,-0.0,0.008709350600838661,0.8345657587051392,0.0,-0.008129183202981949
544.0,440.0,-2.0393,-0.3577,9.4594,-0.0325,0.0115,-0.1101,-1.6101991138853968,0.0,2.0653867721557617,-2.0758121013641357,-0.0,1.8594822883605957,5.3327796933944605,0.0,0.2739550769329071,-1.5349510351764124,0.0,-0.02645953558385372,0.7703729867935181,-0.0,-0.0023021302185952663,0.8345494270324707,0.0,0.006423830054700375
544.0,440.0,-2.0393,-0.3577,9.4594,-0.0325,0.0115,-0.1101,-1.6101223431029261,0.0,2.0364627838134766,-2.0758886337280273,-0.0,1.8496452569961548,5.332795369416036,0.0,0.2612384259700775,-1.5349391142474573,0.0,-0.02053624764084816,0.7704012393951416,-0.0,-0.005775077268481255,0.8345699310302734,0.0,-0.020931344479322433
544.0,440.0,-2.0393,-0.3577,9.4594,-0.0325,0.0115,-0.1101,-1.6101423702635707,0.0,2.0515363216400146,-2.0758204460144043,-0.0,1.8877904415130615,5.332791256695547,0.0,0.2477184534072876,-1.5349028746234339,0.0,-0.01228482834994793,0.7704537510871887,-0.0,-0.0024349172599613667,0.8345576524734497,0.0,-0.0061848098412156105
544.0,440.0,-2.0393,-0.3577,9.4594,-0.0325,0.0115,-0.1101,-1.6101623974242152,0.0,2.0725936889648438,-2.075852632522583,-0.0,1.9392037391662598,5.332787084370413,0.0,0.2722918391227722,-1.534971062337057,0.0,-0.021516531705856323,0.7703689336776733,-0.0,-0.0028444065246731043,0.8345739841461182,0.0,0.06012675538659096
544.0,440.0,-2.0393,-0.3577,9.4594,-0.0325,0.0115,-0.1101,-1.610166688958639,0.0,2.012033224105835,-2.0758121013641357,-0.0,1.8914015293121338,5.332803416043081,0.0,0.25562697649002075,-1.5349310080157679,0.0,-0.016304723918437958,0.7704737782478333,-0.0,-0.0018375555519014597,0.8345416784286499,0.0,0.04137808084487915
544.0,440.0,-2.0393,-0.3577,9.4594,-0.0325,0.0115,-0.1101,-1.610138555566305,0.0,2.100144386291504,-2.075859785079956,-0.0,1.9312808513641357,5.332799422531881,0.0,0.2686917781829834,-1.5349834601031702,0.0,-0.01872749999165535,0.770352840423584,-0.0,-0.006566180847585201,0.8345575332641602,0.0,0.01854710467159748
544.0,440.0,-2.0393,-0.3577,9.4594,-0.0325,0.0115,-0.1101,-1.6101871929564417,0.0,2.0355846881866455,-2.075800657272339,-0.0,1.850362777709961,5.3328436491783044,0.0,0.2652345597743988,-1.5349834601031702,0.0,0.0027140947058796883,0.7704336643218994,-0.0,0.010783735662698746,0.8345699310302734,0.0,0.019063439220190048
544.0,440.0,-2.0393,-0.3577,9.4594,-0.0325,0.0115,-0.1101,-1.61015047649526,0.0,2.073242425918579,-2.0757884979248047,-0.0,1.9107569456100464,5.332815456181326,0.0,0.2630097270011902,-1.534931484852926,0.0,-0.024893123656511307,0.7703651785850525,-0.0,-0.020703446120023727,0.8345498442649841,0.0,0.05549503117799759
544.0,440.0,-2.0393,-0.3577,9.4594,-0.0325,0.0115,-0.1101,-1.6101342640318812,0.0,2.0314884185791016,-2.0758163928985596,-0.0,1.8965790271759033,5.3327592490013025,0.0,0.2687930166721344,-1.5349348227130335,0.0,-0.009751830250024796,0.7703889012336731,-0.0,0.0011098685208708048,0.8345173001289368,0.0,-0.01847589761018753
544.0,440.0,-2.0393,-0.3577,9.4594,-0.0325,0.0115,-0.1101,-1.610182901422018,0.0,2.059581756591797,-2.0758285522460938,-0.0,1.9309940338134766,5.332819092064657,0.0,0.27122074365615845,-1.5349348227130335,0.0,-0.024146564304828644,0.7704135775566101,-0.0,0.004541130270808935,0.8346061706542969,0.0,-0.035221077501773834
551.0,463.0,-2.1739,-0.4002,9.7723,-0.038,0.0249,-0.1162,-1.61015047649526,0.0,2.0676145553588867,-2.0757925510406494,-0.0,1.8568334579467773,5.332795369416036,0.0,0.2652311325073242,-1.5349391142474573,0.0,-0.0212375707924366,0.7703889608383179,-0.0,0.012509381398558617,0.8345376253128052,0.0,-0.007471436634659767
551.0,463.0,-2.1739,-0.4002,9.7723,-0.038,0.0249,-0.1162,-1.610138555566305,0.0,2.097257137298584,-2.0758328437805176,-0.0,1.8746161460876465,5.332799422531881,0.0,0.2635437250137329,-1.5349391142474573,0.0,0.002863881643861532,0.7703568935394287,-0.0,0.007045535370707512,0.8345457911491394,0.0,-0.06061903387308121
551.0,463.0,-2.1739,-0.4002,9.7723,-0.038,0.0249,-0.1162,-1.610154768029684,0.0,2.110834836959839,-2.0758328437805176,-0.0,1.928055763244629,5.332775580673971,0.0,0.2593923807144165,-1.5349391142474573,0.0,-0.022835351526737213,0.7703808546066284,-0.0,0.011954952962696552,0.8345617651939392,0.0,-0.00750380102545023
551.0,463.0,-2.1739,-0.4002,9.7723,-0.038,0.0249,-0.1162,-1.6101304493346156,0.0,2.0198607444763184,-2.0758566856384277,-0.0,1.9098479747772217,5.332771408348837,0.0,0.268466055393219,-1.5349434057818812,0.0,-0.013623444363474846,0.7704052925109863,-0.0,-0.002084058942273259,0.8345575928688049,0.0,-0.0099966274574399
551.0,463.0,-2.1739,-0.4002,9.7723,-0.038,0.0249,-0.1162,-1.6101223431029261,0.0,2.0602760314941406,-2.075780153274536,-0.0,1.877197265625,5.332803058415212,0.0,0.2636258006095886,-1.5349190870868128,0.0,-0.010803179815411568,0.7703931331634521,-0.0,0.0069116633385419846,0.8345616459846497,0.0,-0.010761248879134655
551.0,463.0,-2.1739,-0.4002,9.7723,-0.038,0.0249,-0.1162,-1.6101705036559046,0.0,2.04854416847229,-2.0758886337280273,-0.0,1.894275426864624,5.332819390087881,0.0,0.2677111029624939,-1.5349348227130335,0.0,-0.0038798542227596045,0.7703889608383179,-0.0,0.0020159354899078608,0.8345252275466919,0.0,-0.011160791851580143
551.0,463.0,-2.1739,-0.4002,9.7723,-0.038,0.0249,-0.1162,-1.6101705036559046,0.0,2.0269765853881836,-2.0758492946624756,-0.0,1.9398622512817383,5.332807588368215,0.0,0.2757170796394348,-1.5349348227130335,0.0,-0.012286563403904438,0.7703812122344971,-0.0,-0.006398037075996399,0.8345252275466919,0.0,0.007688426412642002
551.0,463.0,-2.1739,-0.4002,9.7723,-0.038,0.0249,-0.1162,-1.6101747951903285,0.0,2.071866989135742,-2.0757884979248047,-0.0,1.8978885412216187,5.332775580673971,0.0,0.26260244846343994,-1.5349028746234339,0.0,0.002028333954513073,0.7703852653503418,-0.0,0.003536438336595893,0.8345498442649841,0.0,0.021104484796524048
551.0,463.0,-2.1739,-0.4002,9.7723,-0.038,0.0249,-0.1162,-1.6101423702635707,0.0,2.096424102783203,-2.0758039951324463,-0.0,1.9144072532653809,5.332815456181326,0.0,0.26566967368125916,-1.5349190870868128,0.0,-0.012805050238966942,0.7704294919967651,-0.0,-0.014780414290726185,0.8345293402671814,0.0,-0.027589209377765656
551.0,463.0,-2.1739,-0.4002,9.7723,-0.038,0.0249,-0.1162,-1.6101261578001917,0.0,2.048337697982788,-2.0758283138275146,-0.0,1.891143798828125,5.332823264389791,0.0,0.26261985301971436,-1.5349672476397913,0.0,-0.01904243975877762,0.7703648209571838,-0.0,-0.005396433640271425,0.8345498442649841,0.0,-0.002489033155143261
551.0,463.0,-2.1739,-0.4002,9.7723,-0.038,0.0249,-0.1162,-1.6101299724974574,0.0,2.059039354324341,-2.0758566856384277,-0.0,1.9227797985076904,5.332843708782949,0.0,0.2644312381744385,-1.534926716481344,0.0,-0.011101823300123215,0.7703729271888733,-0.0,0.0038262195885181427,0.834553599357605,0.0,-0.0028328702319413424
551.0,463.0,-2.1739,-0.4002,9.7723,-0.038,0.0249,-0.1162,-1.610098501245016,0.0,2.072599172592163,-2.0758368968963623,-0.0,1.8394607305526733,5.33282362201766,0.0,0.2684832215309143,-1.5349834601031702,0.0,-0.012354189530014992,0.7704053521156311,-0.0,-0.002285755705088377,0.8345376253128052,0.0,-0.029389513656497
548.0,411.0,-2.0255,-0.3589,9.4887,-0.044,0.0202,-0.1194,-1.6101342640318812,0.0,2.053380012512207,-2.075840950012207,-0.0,1.897862195968628,5.332847761898794,0.0,0.2781543731689453,-1.5349229017840784,0.0,-0.006190561689436436,0.7703729867935181,-0.0,8.261733455583453e-06,0.8345293402671814,0.0,0.01749778538942337
548.0,411.0,-2.0255,-0.3589,9.4887,-0.044,0.0202,-0.1194,-1.610182901422018,0.0,2.0675153732299805,-2.075828790664673,-0.0,1.8693366050720215,5.3328314302261255,0.0,0.2607889175415039,-1.5349553267108362,0.0,-0.01991317979991436,0.7704012393951416,-0.0,0.012152627110481262,0.8345012664794922,0.0,0.00938637275248766
548.0,411.0,-2.0255,-0.3589,9.4887,-0.044,0.0202,-0.1194,-1.6101871929564417,0.0,2.083463668823242,-2.075772762298584,-0.0,1.9007949829101562,5.332775580673971,0.0,0.25939133763313293,-1.534914795552389,0.0,-0.012133614160120487,0.7704336643218994,-0.0,-0.009080605581402779,0.8345453143119812,0.0,0.023712562397122383
548.0,411.0,-2.0255,-0.3589,9.4887,-0.044,0.0202,-0.1194,-1.6101185284056605,0.0,2.0663089752197266,-2.0758249759674072,-0.0,1.8444774150848389,5.332815456181326,0.0,0.2637316584587097,-1.5349310080157679,0.0,-0.014828605577349663,0.7703729271888733,-0.0,-0.010098823346197605,0.8345375657081604,0.0,-0.024581095203757286
548.0,411.0,-2.0255,-0.3589,9.4887,-0.044,0.0202,-0.1194,-1.6101623974242152,0.0,2.0373497009277344,-2.0758204460144043,-0.0,1.8304989337921143,5.332799362927236,0.0,0.28044089674949646,-1.5349791685687464,0.0,-0.012913575395941734,0.7704335451126099,-0.0,-0.010220080614089966,0.8345375657081604,0.0,-0.07152406871318817
548.0,411.0,-2.0255,-0.3589,9.4887,-0.044,0.0202,-0.1194,-1.6101705036559046,0.0,2.0969078540802,-2.0758042335510254,-0.0,1.9362975358963013,5.332827377110281,0.0,0.25724977254867554,-1.5349834601031702,0.0,-0.009706176817417145,0.7704135775566101,-0.0,-0.010845299810171127,0.8345293402671814,0.0,-0.023870591074228287
548.0,411.0,-2.0255,-0.3589,9.4887,-0.044,0.0202,-0.1194,-1.6101185284056605,0.0,2.036870002746582,-2.0757997035980225,-0.0,1.8703174591064453,5.332807230740347,0.0,0.26114511489868164,-1.5349391142474573,0.0,-0.008097928948700428,0.7703734636306763,-0.0,-0.009712336584925652,0.8345416784286499,0.0,0.027926061302423477
548.0,411.0,-2.0255,-0.3589,9.4887,-0.044,0.0202,-0.1194,-1.6101581058897914,0.0,2.0187747478485107,-2.0758001804351807,-0.0,1.9157994985580444,5.3328314302261255,0.0,0.2605583965778351,-1.534914795552389,0.0,-0.022789577022194862,0.7704052925109863,-0.0,0.0037418215069919825,0.8345453143119812,0.0,-0.03482353687286377
548.0,411.0,-2.0255,-0.3589,9.4887,-0.044,0.0202,-0.1194,-1.6101461849608363,0.0,2.0573885440826416,-2.075840711593628,-0.0,1.9149045944213867,5.332799422531881,0.0,0.25629889965057373,-1.5349348227130335,0.0,-0.019354313611984253,0.7703529000282288,-0.0,-0.0021645850501954556,0.834561824798584,0.0,-0.03731844201683998
548.0,411.0,-2.0255,-0.3589,9.4887,-0.044,0.0202,-0.1194,-1.610138555566305,0.0,2.044560432434082,-2.075808525085449,-0.0,1.885837435722351,5.332815456181326,0.0,0.26597607135772705,-1.5349510351764124,0.0,-0.011742053553462029,0.7704336047172546,-0.0,-0.00011504464782774448,0.8345375657081604,0.0,0.05501861870288849
548.0,411.0,-2.0255,-0.3589,9.4887,-0.044,0.0202,-0.1194,-1.610166688958639,0.0,2.063657522201538,-2.0758368968963623,-0.0,1.9057490825653076,5.332795309811392,0.0,0.2527576684951782,-1.5349190870868128,0.0,-0.014075028710067272,0.7704052925109863,-0.0,0.006024487782269716,0.8345376253128052,0.0,0.03509984165430069
532.0,422.0,-2.2152,-0.4582,9.7801,-0.0331,0.0189,-0.099,-1.61015047649526,0.0,2.1089727878570557,-2.075784683227539,-0.0,1.8941643238067627,5.332779633789816,0.0,0.26554253697395325,-1.534971062337057,0.0,-0.011590723879635334,0.7703767418861389,-0.0,-0.0048695397563278675,0.8345576524734497,0.0,-0.030827386304736137
532.0,422.0,-2.2152,-0.4582,9.7801,-0.0331,0.0189,-0.099,-1.610166688958639,0.0,2.070033073425293,-2.075848340988159,-0.0,1.9407517910003662,5.332811343460836,0.0,0.27537569403648376,-1.5349510351764124,0.0,-0.010861216112971306,0.7704052925109863,-0.0,0.008655956014990807,0.8345499038696289,0.0,-0.006228273268789053
532.0,422.0,-2.2152,-0.4582,9.7801,-0.0331,0.0189,-0.099,-1.6101342640318812,0.0,2.061284065246582,-2.075796604156494,-0.0,1.8962841033935547,5.332815456181326,0.0,0.26575854420661926,-1.5349391142474573,0.0,-0.0035287546925246716,0.7703729867935181,-0.0,-0.00102526624687016,0.834553599357605,0.0,0.06651619076728821
532.0,422.0,-2.2152,-0.4582,9.7801,-0.0331,0.0189,-0.099,-1.6101705036559046,0.0,2.099384307861328,-2.075784683227539,-0.0,1.9295508861541748,5.332799422531881,0.0,0.26326531171798706,-1.5349467436419886,0.0,-0.013234322890639305,0.7704615592956543,-0.0,0.007491032127290964,0.8346021175384521,0.0,0.024083247408270836
532.0,422.0,-2.2152,-0.4582,9.7801,-0.0331,0.0189,-0.099,-1.6101223431029261,0.0,2.047649621963501,-2.075812578201294,-0.0,1.9132719039916992,5.3327796933944605,0.0,0.26209092140197754,-1.5349510351764124,0.0,-0.0058635808527469635,0.7703406810760498,-0.0,0.00875956192612648,0.834585964679718,0.0,0.021516378968954086
532.0,422.0,-2.2152,-0.4582,9.7801,-0.0331,0.0189,-0.099,-1.6101185284056605,0.0,2.0704965591430664,-2.0758323669433594,-0.0,1.92070472240448,5.332763302117147,0.0,0.25489184260368347,-1.5349190870868128,0.0,-0.020695103332400322,0.7704135775566101,-0.0,-0.001530943438410759,0.8345616459846497,3.6593849478405716e-11,-0.05058242008090019
532.0,422.0,-2.2152,-0.4582,9.7801,-0.0331,0.0189,-0.099,-1.610182901422018,0.0,2.095630168914795,-2.0758283138275146,-0.0,1.8552820682525635,5.332835423737325,0.0,0.27100658416748047,-1.5349915663348597,0.0,-0.024751881137490273,0.7703934907913208,-0.0,-0.003235336858779192,0.8345776796340942,1.185594042864345e-18,0.011009288020431995
532.0,422.0,-2.2152,-0.4582,9.7801,-0.0331,0.0189,-0.099,-1.610138555566305,0.0,2.051900863647461,-2.0758121013641357,-0.0,1.903348445892334,5.332795369416036,0.0,0.2550029158592224,-1.5349629561053675,0.0,-0.018950840458273888,0.7703689336776733,-0.0,-0.0030697197653353214,0.8345173001289368,3.8411729805502647e-26,0.05366917699575424
532.0,422.0,-2.2152,-0.4582,9.7801,-0.0331,0.0189,-0.099,-1.6101705036559046,0.0,2.0589466094970703,-2.0758328437805176,-0.0,1.896637201309204,5.332811343460836,0.0,0.2680189609527588,-1.5349510351764124,0.0,-0.010848179459571838,0.7703972458839417,-0.0,0.013085836544632912,0.8345941305160522,1.2444914611117402e-33,-0.005657549016177654
532.0,422.0,-2.2152,-0.4582,9.7801,-0.0331,0.0189,-0.099,-1.6101581058897914,0.0,2.085026979446411,-2.075808048248291,-0.0,1.8730741739273071,5.332815396576681,0.0,0.25382328033447266,-1.5349510351764124,0.0,-0.015437869355082512,0.7704135775566101,-0.0,0.0026074256747961044,0.8345577120780945,4.031956071401796e-41,-0.010191641747951508
532.0,422.0,-2.2152,-0.4582,9.7801,-0.0331,0.0189,-0.099,-1.6101342640318812,0.0,2.025674819946289,-2.075880289077759,-0.0,1.9013121128082275,5.332751440792837,0.0,0.2674274146556854,-1.5349391142474573,0.0,-0.023835770785808563,0.770365297794342,-0.0,-0.007131865248084068,0.8345740437507629,0.0,0.0003062104806303978
532.0,422.0,-2.2152,-0.4582,9.7801,-0.0331,0.0189,-0.099,-1.6101304493346156,0.0,2.1028974056243896,-2.075800657272339,-0.0,1.9157941341400146,5.332835423737325,0.0,0.27477070689201355,-1.5349510351764124,0.0,-0.020649658516049385,0.7703570127487183,-0.0,0.010761992074549198,0.8345979452133179,0.0,-0.016159284859895706
516.0,419.0,-2.0154,-0.283,9.4816,-0.038,0.0148,-0.1118,-1.6101623974242152,0.0,2.110287666320801,-2.0758328437805176,-0.0,1.882303237915039,5.332811343460836,0.0,0.27416956424713135,-1.5349391142474573,0.0,-0.016112642362713814,0.7703767418861389,-0.0,-0.004320685286074877,0.8345412015914917,0.0,-0.0020455950871109962
516.0,419.0,-2.0154,-0.283,9.4816,-0.038,0.0148,-0.1118,-1.6101871929564417,0.0,2.03701114654541,-2.0758249759674072,-0.0,1.8839879035949707,5.332815396576681,0.0,0.25918838381767273,-1.5349190870868128,0.0,-0.013769419863820076,0.7703688740730286,-0.0,0.0124357333406806,0.8345941305160522,0.0,0.026055580005049706
516.0,419.0,-2.0154,-0.283,9.4816,-0.038,0.0148,-0.1118,-1.610154768029684,0.0,2.096713066101074,-2.0758841037750244,-0.0,1.9153259992599487,5.332771408348837,0.0,0.25628411769866943,-1.5349510351764124,0.0,-0.0015613276045769453,0.7704335451126099,-0.0,0.0018588702660053968,0.8345416784286499,0.0,-0.027761371806263924
516.0,419.0,-2.0154,-0.283,9.4816,-0.038,0.0148,-0.1118,-1.61015047649526,0.0,2.065690755844116,-2.0758841037750244,-0.0,1.9252955913543701,5.332783746510305,0.0,0.2566946744918823,-1.5349834601031702,0.0,0.0007089478895068169,0.7704135179519653,-0.0,-0.011665225960314274,0.8345577120780945,0.0,-0.019159376621246338
516.0,419.0,-2.0154,-0.283,9.4816,-0.038,0.0148,-0.1118,-1.6101223431029261,0.0,2.0897226333618164,-2.075796127319336,-0.0,1.8949060440063477,5.332751440792837,0.0,0.2660359740257263,-1.5349510351764124,0.0,-0.006947055924683809,0.7703972458839417,-0.0,-0.002180462935939431,0.834561824798584,1.976654675672762e-05,0.01845743879675865
516.0,419.0,-2.0154,-0.283,9.4816,-0.038,0.0148,-0.1118,-1.6101423702635707,0.0,2.0609898567199707,-2.075840711593628,-0.0,1.875044345855713,5.332787740021505,0.0,0.2626442313194275,-1.5349434057818812,0.0,0.005251135211437941,0.7703284025192261,-0.0,-0.005153459496796131,0.8345577120780945,1.8170390831073746e-05,-0.031147552654147148
516.0,419.0,-2.0154,-0.283,9.4816,-0.038,0.0148,-0.1118,-1.6101871929564417,0.0,2.0481104850769043,-2.0757644176483154,-0.0,1.9051828384399414,5.332755434304037,0.0,0.26891952753067017,-1.534942928944723,0.0,-0.0135607048869133,0.7703812122344971,-0.0,0.0013909264234825969,0.8345292806625366,1.6812660760479048e-05,-0.023910056799650192
516.0,419.0,-2.0154,-0.283,9.4816,-0.038,0.0148,-0.1118,-1.610154768029684,0.0,2.0511069297790527,-2.0758163928985596,-0.0,1.9109172821044922,5.332783746510305,0.0,0.2582044005393982,-1.5349348227130335,0.0,-0.006087010260671377,0.7704012393951416,-0.0,9.524170309305191e-06,0.8345616459846497,2.0990401026210748e-05,-0.001559640048071742
516.0,419.0,-2.0154,-0.283,9.4816,-0.038,0.0148,-0.1118,-1.6100942097105921,0.0,2.053917646408081,-2.075824499130249,-0.0,1.8698995113372803,5.332847761898794,0.0,0.2621070146560669,-1.5349109808551233,0.0,-0.021146977320313454,0.7703447937965393,-0.0,0.012434570118784904,0.8345494270324707,1.4626765732828062e-05,-0.020502470433712006
516.0,419.0,-2.0154,-0.283,9.4816,-0.038,0.0148,-0.1118,-1.6101705036559046,0.0,2.1003589630126953,-2.0758800506591797,-0.0,1.904297113418579,5.332807588368215,0.0,0.267668753862381,-1.5349348227130335,0.0,-0.02129407972097397,0.7704291343688965,-0.0,0.011027565225958824,0.8345735669136047,1.3733969353779685e-05,0.010323025286197662
516.0,419.0,-2.0154,-0.283,9.4816,-0.038,0.0148,-0.1118,-1.6101581058897914,0.0,2.0693061351776123,-2.0758635997772217,-0.0,1.8607442378997803,5.332739460259237,0.0,0.26017436385154724,-1.5349672476397913,0.0,-0.005085475742816925,0.7704135775566101,-0.0,0.007317854091525078,0.8345859050750732,1.2943891306349542e-05,0.016161680221557617
501.0,411.0,-2.0883,-0.8584,9.6269,-0.0362,0.0165,-0.1066,-1.6102148495116175,0.0,2.095860004425049,-2.075840711593628,-0.0,1.8874417543411255,5.332799422531881,0.0,0.2725737392902374,-1.5349391142474573,0.0,-0.022624671459197998,0.7704135179519653,-0.0,0.0009945856872946024,0.8345535397529602,1.2239768693689257e-05,-0.02745925821363926
501.0,411.0,-2.0883,-0.8584,9.6269,-0.0362,0.0165,-0.1066,-1.610211034814352,0.0,2.028404712677002,-2.0758039951324463,-0.0,1.861969232559204,5.332783746510305,0.0,0.2684597373008728,-1.534971062337057,0.0,-0.012166263535618782,0.7704209089279175,-0.0,0.0019342368468642235,0.834589958190918,3.9655293480357623e-13,-0.024668732658028603
501.0,411.0,-2.0883,-0.8584,9.6269,-0.0362,0.0165,-0.1066,-1.6101747951903285,0.0,2.075418710708618,-2.0758204460144043,-0.0,1.8782458305358887,5.332775521069326,0.0,0.2706897258758545,-1.5349391142474573,0.0,-0.0064773885533213615,0.7703529000282288,-0.0,0.00359166762791574,0.834553599357605,9.576287529114418e-19,-0.0014657045248895884
501.0,411.0,-2.0883,-0.8584,9.6269,-0.0362,0.0165,-0.1066,-1.6101623974242152,0.0,2.053946018218994,-2.075824499130249,-0.0,1.8957221508026123,5.332759547024526,0.0,0.26226359605789185,-1.5349271933185022,0.0,-0.01040844339877367,0.7704532742500305,-0.0,-0.00014723790809512138,0.8345858454704285,3.102595486912479e-26,0.007423554081469774
501.0,411.0,-2.0883,-0.8584,9.6269,-0.0362,0.0165,-0.1066,-1.6101261578001917,0.0,2.0773494243621826,-2.0757763385772705,-0.0,1.9068264961242676,5.332767772465505,0.0,0.2719213366508484,-1.5349553267108362,0.0,-0.010222995653748512,0.7703971266746521,-0.0,-0.002688628388568759,0.8345252275466919,1.0052013107381281e-33,-0.010675886645913124
501.0,411.0,-2.0883,-0.8584,9.6269,-0.0362,0.0165,-0.1066,-1.6101824245848597,3.040983914334716e-12,2.0577845573425293,-2.075840711593628,3.5491032690515567e-07,1.8453184366226196,5.332743632584371,4.016654564509281e-09,0.264931857585907,-1.5349553267108362,0.0,-0.012427753768861294,0.7704819440841675,-0.0,0.009136107750236988,0.834553599357605,3.2567577609373074e-41,0.016881968826055527
501.0,411.0,-2.0883,-0.8584,9.6269,-0.0362,0.0165,-0.1066,-1.6102148495116175,9.852400288337648e-20,2.043482780456543,-2.075871467590332,1.1498643359632472e-14,1.9197609424591064,5.332771885185995,7.300072140748251e-14,0.2754749059677124,-1.534931484852926,0.0,-0.015070740133523941,0.7703931331634521,-0.0,-0.004446086008101702,0.83452969789505,0.0,0.010482343845069408
501.0,411.0,-2.0883,-0.8584,9.6269,-0.0362,0.0165,-0.1066,-1.6102024517455042,-0.0002672263071872294,2.0709002017974854,-2.0758681297302246,3.7254136740437397e-22,1.909083604812622,5.33277194479064,1.3267520008062128e-18,0.2700597047805786,-1.534926716481344,0.0,-0.01471791137009859,0.7704295516014099,-0.0,0.015667317435145378,0.834585964679718,0.0,0.008320298045873642
501.0,411.0,-2.0883,-0.8584,9.6269,-0.0362,0.0165,-0.1066,-1.6101910076537074,-0.00029983854619786143,2.080286741256714,-2.0758719444274902,1.2069866156051107e-29,1.8858109712600708,5.332747685700216,-0.0003271811583545059,0.26482945680618286,-1.5349634329425257,0.0,-0.025486117228865623,0.7703688740730286,-0.0,0.012189900502562523,0.8345699310302734,0.0,0.0041663758456707
501.0,411.0,-2.0883,-0.8584,9.6269,-0.0362,0.0165,-0.1066,-1.6101986370482386,-0.0002367331035202369,2.042415142059326,-2.0758516788482666,3.910482776411704e-37,1.943861961364746,5.332723605423727,-0.0003043706819880754,0.26819881796836853,-1.534931484852926,0.0,-0.01509497594088316,0.7704052925109863,-0.0,-0.004245125222951174,0.834517240524292,0.0,-0.0075700413435697556
501.0,411.0,-2.0883,-0.8584,9.6269,-0.0362,0.0165,-0.1066,-1.610234876672262,-0.0002346873516216874,2.0691871643066406,-2.0758635997772217,1.2611686178923354e-44,1.8926148414611816,5.3327040551002405,-0.0003256603085901588,0.2530813217163086,-1.5349348227130335,0.0,-0.012154844589531422,0.7703849077224731,-0.0,-0.0047158654779195786,0.8345781564712524,0.0,0.025510495528578758
501.0,411.0,-2.0883,-0.8584,9.6269,-0.0362,0.0165,-0.1066,-1.6102105579771937,-0.00023323518689721823,2.074213981628418,-2.075892448425293,-0.0,1.9333910942077637,5.3327157376106165,-0.00029654489480890334,0.2593494951725006,-1.534875218068258,0.0,-0.015144591219723225,0.7704172134399414,-0.0,0.010819029062986374,0.8345412015914917,0.0,0.023101316764950752
573.0,432.0,-2.0279,-0.2853,9.4331,-0.0376,0.0263,-0.1185,-1.610222955743307,-0.00023218824935611337,2.0583128929138184,-2.0758044719696045,-0.0,1.8792259693145752,5.3327040551002405,-0.00028299528639763594,0.2585715353488922,-1.5349190870868128,0.0,-0.02544940821826458,0.7704135179519653,-0.0,0.010404372587800026,0.8345337510108948,0.0,0.027739930897951126
573.0,432.0,-2.0279,-0.2853,9.4331,-0.0376,0.0263,-0.1185,-1.610239168206686,-0.0001938779023475945,2.072190999984741,-2.0758557319641113,-0.0,1.9289605617523193,5.332695948868551,-0.0002936059609055519,0.26602351665496826,-1.534954849873678,0.0,-0.005560753867030144,0.770469605922699,-0.0,0.010020817629992962,0.8345333933830261,0.0,0.01917680725455284
573.0,432.0,-2.0279,-0.2853,9.4331,-0.0376,0.0263,-0.1185,-1.6102506122984828,-0.00016537118062842637,2.063681125640869,-2.0758721828460693,-0.0,1.8655383586883545,5.332687723427572,-0.00028508823015727103,0.271742045879364,-1.534931484852926,0.0,-0.0035119098611176014,0.7703972458839417,-0.0,0.00742741022258997,0.8345499038696289,0.0,-0.0028234890196472406
573.0,432.0,-2.0279,-0.2853,9.4331,-0.0376,0.0263,-0.1185,-1.6101943455138148,-0.0001730121875880286,2.085099697113037,-2.0758328437805176,-0.0,1.8919885158538818,5.332683670311727,-0.0002466602891217917,0.2551807165145874,-1.5349348227130335,0.0,-0.0168179702013731,0.7703971862792969,-0.0,0.004339891020208597,0.8345900177955627,0.0,0.02291738986968994
573.0,432.0,-2.0279,-0.2853,9.4331,-0.0376,0.0263,-0.1185,-1.610178133050436,-0.00020147397299297154,2.090440273284912,-2.075875997543335,-0.0,1.8578567504882812,5.332708227425375,-0.00023525657888967544,0.2599261999130249,-1.534931484852926,0.0,-0.015872837975621223,0.7703729867935181,-0.0,-0.008495784364640713,0.8345616459846497,0.0,0.019437549635767937
573.0,432.0,-2.0279,-0.2853,9.4331,-0.0376,0.0263,-0.1185,-1.610246320764059,-0.0003490751259960234,2.0823700428009033,-2.0758516788482666,-0.0,1.8503363132476807,5.332683729916372,-0.00019455983419902623,0.2678631544113159,-1.5349229017840784,0.0,-0.017642585560679436,0.7703808546066284,-0.0,0.001511664711870253,0.8345333933830261,0.0,0.024183718487620354
573.0,432.0,-2.0279,-0.2853,9.4331,-0.0376,0.0263,-0.1185,-1.6102544269957484,-0.0018384256400167942,2.0477569103240967,-2.0758328437805176,-0.0,1.9119690656661987,5.332655775337972,-0.00019889036775566638,0.27010446786880493,-1.5349591414081019,0.0,-0.017055168747901917,0.7704454660415649,-0.0,-0.013010775670409203,0.834570050239563,0.0,0.021676145493984222
573.0,432.0,-2.0279,-0.2853,9.4331,-0.0376,0.0263,-0.1185,-1.6102825603880824,-0.0034946217201650143,2.097907543182373,-2.075875997543335,-0.0,1.8692584037780762,5.332696008473196,-0.00020211610535625368,0.25514888763427734,-1.5349319616900843,0.0,-0.022027427330613136,0.7703529596328735,-0.0,0.00778720760717988,0.8345656991004944,0.0,0.016840539872646332
573.0,432.0,-2.0279,-0.2853,9.4331,-0.0376,0.0263,-0.1185,-1.6103469334044398,-0.005801900289952755,2.0362703800201416,-2.075859785079956,-0.0,1.9057828187942505,5.332619476109304,-0.0002049445902230218,0.25963205099105835,-1.5348957220660608,0.0,-0.0018977206200361252,0.7704012393951416,-0.0,-0.006091758608818054,0.8345900177955627,0.0,-0.0355464443564415
573.0,432.0,-2.0279,-0.2853,9.4331,-0.0376,0.0263,-0.1185,-1.6104065380492152,-0.007442559115588665,2.026663303375244,-2.075792074203491,-0.0,1.8690309524536133,5.332696008473196,-0.00018858311523217708,0.27101755142211914,-1.5348666349994105,6.502346514025703e-05,-0.016363533213734627,0.7703849077224731,-0.0,-0.005283097270876169,0.8345699310302734,0.0,0.04859548434615135
573.0,432.0,-2.0279,-0.2853,9.4331,-0.0376,0.0263,-0.1185,-1.6104546986021937,-0.006741801276803017,2.111401081085205,-2.0758557319641113,-0.0,1.93308424949646,5.332691895752706,-0.00021772382024209946,0.26009297370910645,-1.534891430531637,7.368997466983274e-05,-0.013427170924842358,0.7703611254692078,-0.0,-0.010935848578810692,0.8345657587051392,0.0,-0.04416637867689133
513.0,419.0,-2.0758,-0.3224,9.3194,-0.033,0.0191,-0.1151,-1.610518594781393,-0.007014766335487366,2.04122257232666,-2.075920343399048,-0.0,1.916131854057312,5.332643854409017,-0.00023230740043800324,0.25906795263290405,-1.5348709265338343,7.098538480931893e-05,-0.0012497585266828537,0.7704094052314758,-0.0,-0.003831075970083475,0.8345412015914917,0.0,0.017103813588619232
513.0,419.0,-2.0758,-0.3224,9.3194,-0.033,0.0191,-0.1151,-1.6105624637999476,-0.008578617125749588,2.0141139030456543,-2.0758635997772217,-0.0,1.8988579511642456,5.332604038506307,-0.0004046458634547889,0.24263450503349304,-1.5348747412311,7.86790915299207e-05,-0.013838180340826511,0.7703893780708313,-0.0,0.0005292342975735664,0.8345333933830261,0.0,-0.03479049354791641
513.0,419.0,-2.0758,-0.3224,9.3194,-0.033,0.0191,-0.1151,-1.610633989373678,-0.010030671954154968,2.0442733764648438,-2.075812578201294,-0.0,1.9377418756484985,5.33267633894042,-0.00039199533057399094,0.25678813457489014,-1.5348508993731897,8.564016025047749e-05,-0.0014037578366696835,0.7703730463981628,-0.0,-0.005035036243498325,0.8345859050750732,0.0,-0.016592111438512802
513.0,419.0,-2.0758,-0.3224,9.3194,-0.033,0.0191,-0.1151,-1.61071838955068,-0.009868137538433075,2.045898199081421,-2.0758557319641113,-0.0,1.9166231155395508,5.332643973618307,-0.0004092695307917893,0.2406485676765442,-1.5348790327655237,0.00021281045337673277,-0.0013424316421151161,0.7703971862792969,-0.0,0.0035075852647423744,0.8345576524734497,0.0,-0.034557051956653595
513.0,419.0,-2.0758,-0.3224,9.3194,-0.033,0.0191,-0.1151,-1.6108061275877894,-0.009709150530397892,2.000627040863037,-2.075808525085449,-0.0,1.9064369201660156,5.33267633894042,-0.0003639590577222407,0.24231120944023132,-1.5348628203021448,0.00021474565437529236,-0.0027732010930776596,0.7704291343688965,-0.0,-0.00042730613495223224,0.8345699310302734,0.0,-0.025257635861635208
513.0,419.0,-2.0758,-0.3224,9.3194,-0.033,0.0191,-0.1151,-1.6108743153014125,-0.011418496258556843,1.9677621126174927,-2.0758557319641113,-0.0,1.916208267211914,5.332639801293173,-0.00037912538391537964,0.24867604672908783,-1.5348432699786585,0.00021615230070892721,0.0043641347438097,0.7704095244407654,-0.0,0.008741140365600586,0.834561824798584,0.0,0.0026462171226739883
513.0,419.0,-2.0758,-0.3224,9.3194,-0.033,0.0191,-0.1151,-1.6109582386412562,-0.013431024737656116,2.0011444091796875,-2.0758249759674072,-0.0,1.912968397140503,5.33267633894042,-0.0004811632097698748,0.24201849102973938,-1.5348551909076136,0.0003190872957929969,0.012132678180932999,0.7703931331634521,-0.0,0.004029113799333572,0.8345659375190735,0.0,-0.07490605115890503
513.0,419.0,-2.0758,-0.3224,9.3194,-0.033,0.0191,-0.1151,-1.6111141643919886,-0.01584024168550968,1.9678908586502075,-2.0758402347564697,-0.0,1.9128856658935547,5.3326443312461755,-0.0009180476772598922,0.22998827695846558,-1.534851376210348,0.0003679382789414376,0.016135895624756813,0.7703689932823181,-0.0,-0.0016380497254431248,0.8345534801483154,0.0,-0.053549572825431824
513.0,419.0,-2.0758,-0.3224,9.3194,-0.033,0.0191,-0.1151,-1.6112176380553187,-0.01677061803638935,1.9478468894958496,-2.0758438110351562,-0.0,1.9525340795516968,5.332596289902487,-0.0015902528539299965,0.24286994338035583,-1.5348551909076136,0.0006623085937462747,0.021285925060510635,0.7704052925109863,-0.0,-0.0072364360094070435,0.8346021175384521,0.0,-0.06562331318855286
513.0,419.0,-2.0758,-0.3224,9.3194,-0.033,0.0191,-0.1151,-1.6113416157164515,-0.01823880895972252,1.9611907005310059,-2.0758402347564697,-0.0,1.9107873439788818,5.332596289902487,-0.004000399727374315,0.22531357407569885,-1.53479510942568,0.0007208352908492088,0.012526780366897583,0.7704295516014099,-0.0,0.013239074498414993,0.8345494866371155,0.0,-0.020676497370004654
513.0,419.0,-2.0758,-0.3224,9.3194,-0.033,0.0191,-0.1151,-1.6115342579283656,-0.018807847052812576,1.9585285186767578,-2.0758249759674072,-0.0,1.901123285293579,5.332524764328756,-0.014209872111678123,0.21824957430362701,-1.5348556677447718,0.0006470036460086703,0.031645696610212326,0.7704172134399414,-0.0,-0.0024132677353918552,0.8346021175384521,0.0,-0.09777849912643433
513.0,419.0,-2.0758,-0.3224,9.3194,-0.033,0.0191,-0.1151,-1.6116615734496058,-0.019947387278079987,1.9321720600128174,-2.0757687091827393,-0.0,1.8814282417297363,5.332416999131002,-0.018471574410796165,0.2093571573495865,-1.534755055104391,0.0006767185986973345,0.024631010368466377,0.7704172134399414,-0.0,-0.007070811465382576,0.8345900774002075,0.0,-0.09469886869192123
498.0,444.0,-2.1685,-0.2411,9.3787,-0.0354,0.0199,-0.1179,-1.6117693386473597,-0.021354103460907936,1.9510107040405273,-2.075875997543335,-0.0,1.9180717468261719,5.332241701870718,-0.017505936324596405,0.21822583675384521,-1.5347755591021937,0.0007185130380094051,0.03252318501472473,0.7704495787620544,-0.0,0.01194160245358944,0.8345494270324707,0.0,-0.10874931514263153
498.0,444.0,-2.1685,-0.2411,9.3787,-0.0354,0.0199,-0.1179,-1.61198153118276,-0.022631900385022163,1.958120584487915,-2.075848340988159,-0.0,1.922913908958435,5.332122671395101,-0.017109956592321396,0.20957225561141968,-1.5347912947284144,0.0009309069137088954,0.03432334214448929,0.7704254388809204,-0.0,0.006484712474048138,0.8345453143119812,0.0,-0.15790589153766632
498.0,444.0,-2.1685,-0.2411,9.3787,-0.0354,0.0199,-0.1179,-1.612133642236227,-0.02412746474146843,1.9073554277420044,-2.075828790664673,-0.0,1.9593157768249512,5.331970798760214,-0.015460251830518246,0.2173486053943634,-1.534766976033346,0.0014709958340972662,0.03995726257562637,0.7703688740730286,-0.0,0.00122994149569422,0.8345540761947632,0.0,-0.15788201987743378
498.0,444.0,-2.1685,-0.2411,9.3787,-0.0354,0.0199,-0.1179,-1.6123773060240687,-0.024436088278889656,1.858992099761963,-2.0758402347564697,-0.0,1.923034906387329,5.331827151566305,-0.014632617123425007,0.1895848512649536,-1.5347793737994593,0.0060209366492927074,0.03833047300577164,0.7704012393951416,-0.0,0.006456523668020964,0.8345739841461182,0.0,-0.13422101736068726
498.0,444.0,-2.1685,-0.2411,9.3787,-0.0354,0.0199,-0.1179,-1.6125170193114222,-0.025463897734880447,1.8376834392547607,-2.075848340988159,-0.0,1.9028055667877197,5.331791925221243,-0.012972194701433182,0.1842445731163025,-1.5346511046039026,0.01825820654630661,0.06510181725025177,0.7703767418861389,-0.0,0.016554076224565506,0.8345739841461182,-0.0004399181925691664,-0.17327457666397095
498.0,444.0,-2.1685,-0.2411,9.3787,-0.0354,0.0199,-0.1179,-1.6127454243102015,-0.025288596749305725,1.864333987236023,-2.075800657272339,-0.0,1.9095375537872314,5.331640112191,-0.009771589189767838,0.19556403160095215,-1.5345724264727991,0.010713713243603706,0.045144543051719666,0.7704655528068542,-0.0,0.003344671567901969,0.8345457911491394,-0.00039306035614572465,-0.19168291985988617
498.0,444.0,-2.1685,-0.2411,9.3787,-0.0354,0.0199,-0.1179,-1.6129609547057093,-0.02673250064253807,1.9016038179397583,-2.0758402347564697,-0.0,1.9310426712036133,5.331604468613424,-0.008257129229605198,0.19621296226978302,-1.534527603779928,-0.0009994891006499529,0.04869280010461807,0.7704369425773621,-0.0,0.0019273324869573116,0.8344771862030029,-0.0004421102930791676,-0.16907969117164612
498.0,444.0,-2.1685,-0.2411,9.3787,-0.0354,0.0199,-0.1179,-1.613192697564596,-0.027433212846517563,1.8290514945983887,-2.0758883953094482,-0.0,1.9440847635269165,5.331472623139181,-0.006131685804575682,0.19193622469902039,-1.5345237890826624,-0.00037761253770440817,0.06586000323295593,0.7703931927680969,-0.0,0.0006362146232277155,0.8345136046409607,-0.0005069021717645228,-0.2063215672969818
498.0,444.0,-2.1685,-0.2411,9.3787,-0.0354,0.0199,-0.1179,-1.6133719883360804,-0.028215546160936356,1.8604044914245605,-2.075848340988159,-0.0,1.912442684173584,5.331484901696005,-0.004383352119475603,0.18612906336784363,-1.5345600287066858,-0.00020405955729074776,0.05061197653412819,0.7704135179519653,-0.0,0.004574047401547432,0.83453369140625,-0.0005490817711688578,-0.1689135879278183
498.0,444.0,-2.1685,-0.2411,9.3787,-0.0354,0.0199,-0.1179,-1.6135121784605921,-0.028264865279197693,1.8899279832839966,-2.0758163928985596,-0.0,1.9357956647872925,5.331497597485342,-0.0032483369577676058,0.18244969844818115,-1.534515682850973,-0.00015221601643133909,0.05549965053796768,0.770441472530365,-0.0,-0.017290331423282623,0.8345218300819397,-0.0005608543870039284,-0.18767759203910828
498.0,444.0,-2.1685,-0.2411,9.3787,-0.0354,0.0199,-0.1179,-1.6137196026244105,-0.028856707736849785,1.82918381690979,-2.0758402347564697,-0.0,1.960728645324707,5.33144103267745,-0.002715555252507329,0.19145123660564423,-1.5345361868487757,-0.00011372044536983594,0.05489572137594223,0.7704131603240967,-0.0,-0.015112018212676048,0.8345296382904053,-0.000513951585162431,-0.1796661913394928
532.0,404.0,-1.8873,-0.1543,9.4959,-0.0392,-0.0279,-0.1263,-1.6139680347838343,-0.029732627794146538,1.8286890983581543,-2.0758328437805176,-0.0,1.9266736507415771,5.33144103267745,-0.00270640617236495,0.19348350167274475,-1.5345361868487757,-9.077172580873594e-05,0.07866121828556061,0.7704295516014099,-0.0,-0.0005898859817534685,0.8344895243644714,-0.0004342517931945622,-0.17294427752494812
532.0,404.0,-1.8873,-0.1543,9.4959,-0.0392,-0.0279,-0.1263,-1.61423983196401,-0.030857423320412636,1.8693881034851074,-2.075859785079956,-0.0,1.9376237392425537,5.331437754421987,-0.002670762361958623,0.18867209553718567,-1.5345481077777308,-3.776666198973544e-05,0.07428785413503647,0.7704052925109863,-0.0,-0.017983391880989075,0.834534227848053,-0.00038898445200175047,-0.21030277013778687
532.0,404.0,-1.8873,-0.1543,9.4959,-0.0392,-0.0279,-0.1263,-1.6144596538939417,-0.030496986582875252,1.8515257835388184,-2.075848340988159,-0.0,1.9932266473770142,5.331421422749319,-0.002540166024118662,0.17945685982704163,-1.5345075766192835,-3.2337145967176184e-05,0.07414449751377106,0.7704373002052307,-0.0,0.0077613103203475475,0.8345337510108948,-0.00031987580587156117,-0.18330051004886627
532.0,404.0,-1.8873,-0.1543,9.4959,-0.0392,-0.0279,-0.1263,-1.614711423913473,-0.029940567910671234,1.8343391418457031,-2.0759079456329346,-0.0,1.960972547531128,5.331365573197164,-0.0021744228433817625,0.18781034648418427,-1.534543816243307,-2.8273227144381963e-05,0.053200945258140564,0.7703889608383179,-0.0,0.00486126309260726,0.834509551525116,-0.00023155570670496672,-0.17493928968906403
532.0,404.0,-1.8873,-0.1543,9.4959,-0.0392,-0.0279,-0.1263,-1.6150318584837855,-0.029717249795794487,1.8659486770629883,-2.075784683227539,-0.0,1.9727230072021484,5.331365573197164,-0.001334645668976009,0.19634053111076355,-1.5345400015460413,-2.5116778488154523e-05,0.06023664027452469,0.7704212665557861,-0.0,7.230514893308282e-05,0.8344933390617371,-0.00019166036508977413,-0.17417031526565552
532.0,404.0,-1.8873,-0.1543,9.4959,-0.0392,-0.0279,-0.1263,-1.6152516804137171,-0.033481404185295105,1.8828916549682617,-2.075808525085449,-0.0,1.9764033555984497,5.3313894150550745,-0.0008516527013853192,0.18935289978981018,-1.5345481077777308,-1.992998619471109e-07,0.07321108132600784,0.7703812122344971,-0.0,0.009144729003310204,0.8345499038696289,-0.00016375970153603703,-0.19344471395015717
532.0,404.0,-1.8873,-0.1543,9.4959,-0.0392,-0.0279,-0.1263,-1.6155315838255824,-0.03476439416408539,1.8369444608688354,-2.075824499130249,0.00018195192387793213,1.9509786367416382,5.331369447499075,-0.0006740600802004337,0.17708075046539307,-1.5345199743853968,-3.6221763435873022e-12,0.06520643830299377,0.7704012393951416,-0.0,-0.007649702951312065,0.8344853520393372,-0.00014295072469394654,-0.22657884657382965
532.0,404.0,-1.8873,-0.1543,9.4959,-0.0392,-0.0279,-0.1263,-1.6157828770079554,-0.03770748898386955,1.859915852546692,-2.075812339782715,0.0006053756223991513,1.9766950607299805,5.331389295845785,-0.0005400810623541474,0.17724867165088654,-1.5345361868487757,-6.583126831170621e-17,0.08035620301961899,0.7703365683555603,-0.0,0.004222535993903875,0.8345296382904053,-0.00015220088243950158,-0.22697730362415314
532.0,404.0,-1.8873,-0.1543,9.4959,-0.0392,-0.0279,-0.1263,-1.6159950695433558,-0.04082610458135605,1.8023377656936646,-2.0757925510406494,0.0006323275156319141,1.953231692314148,5.331337678223409,-0.00037801044527441263,0.1833769530057907,-1.5344794432269495,-1.83243737823481e-20,0.058831337839365005,0.7704373002052307,-0.0,-0.0002561318688094616,0.8345177173614502,-0.0001557113864691928,-0.21121764183044434
532.0,404.0,-1.8873,-0.1543,9.4959,-0.0392,-0.0279,-0.1263,-1.6163183651366175,-0.04611930251121521,1.822314977645874,-2.0757758617401123,0.0004994635237380862,1.9815142154693604,5.331369566708364,-0.0003948294906876981,0.1780574768781662,-1.5345562140094202,-3.330364651931623e-25,0.06676973402500153,0.7703652381896973,-0.0,0.0014530568150803447,0.8344974517822266,-0.00016920235066208988,-0.19002026319503784
532.0,404.0,-1.8873,-0.1543,9.4959,-0.0392,-0.0279,-0.1263,-1.6166941128172816,-0.050762444734573364,1.8281604051589966,-2.075772285461426,0.0004046875110361725,1.9370324611663818,5.33133755901412,-0.0005016551585868001,0.1761622130870819,-1.534515682850973,-6.052772756451825e-30,0.07644103467464447,0.7704053521156311,-0.0,0.0010319421999156475,0.8345540761947632,-0.00015525163325946778,-0.23468944430351257
532.0,404.0,-1.8873,-0.1543,9.4959,-0.0392,-0.0279,-0.1263,-1.6171661816039027,-0.05481506139039993,1.8356225490570068,-2.0758402347564697,0.0002895211218856275,1.962096929550171,5.331353890686788,-0.0005197601276449859,0.18202613294124603,-1.5345199743853968,-1.100061477838705e-34,0.07012400031089783,0.7703766822814941,-0.0,-0.002037337049841881,0.8345138430595398,-0.00016533632879145443,-0.19977009296417236
486.0,443.0,-2.1422,-0.3589,9.8979,-0.035,-0.0127,-0.1118,-1.617617746392721,-0.05890003964304924,1.7858355045318604,-2.075779676437378,0.00027606854564510286,1.94492769241333,5.331357943802633,-0.0006699559162370861,0.1855160892009735,-1.5345199743853968,-1.9993067878708257e-39,0.06829285621643066,0.7704218029975891,-0.0,0.006337293423712254,0.8344854116439819,-0.00014991591160651296,-0.26758816838264465
486.0,443.0,-2.1422,-0.3589,9.8979,-0.035,-0.0127,-0.1118,-1.618089338342184,-0.06192446127533913,1.8164310455322266,-2.0757558345794678,0.00022934950538910925,1.8914210796356201,5.331314015179434,-0.0007560370722785592,0.19124376773834229,-1.5344956556903284,-3.6433760072445244e-44,0.07607400417327881,0.7704415321350098,-0.0,0.000726829981431365,0.8345823884010315,-0.0001798726007109508,-0.19046247005462646
486.0,443.0,-2.1422,-0.3589,9.8979,-0.035,-0.0127,-0.1118,-1.6186448536314906,-0.0640362948179245,1.795577049255371,-2.075796604156494,0.00022739238920621574,2.0088155269622803,5.331313955574789,-0.0006919073639437556,0.19482547044754028,-1.5345361868487757,-0.0,0.056086063385009766,0.7704414129257202,-0.0,-0.001238244934938848,0.8344936370849609,-0.00033461421844549477,-0.2151307463645935
486.0,443.0,-2.1422,-0.3589,9.8979,-0.035,-0.0127,-0.1118,-1.6191722355284632,-0.06136145442724228,1.836706519126892,-2.075752019882202,0.00022819753212388605,1.9617652893066406,5.331317889481344,-0.0006699559162370861,0.1701868176460266,-1.5345080534564417,-0.0,0.07129867374897003,0.770449161529541,-0.0,0.005673136096447706,0.8344977498054504,-0.00031457722070626915,-0.24409684538841248
486.0,443.0,-2.1422,-0.3589,9.8979,-0.035,-0.0127,-0.1118,-1.6197086773314417,-0.05917564406991005,1.8281344175338745,-2.075780153274536,0.00020255893468856812,1.9779455661773682,5.3312896368797205,-0.0016797902062535286,0.17527331411838531,-1.534515682850973,-0.0,0.05352114140987396,0.7703529000282288,-0.0,0.011795413680374622,0.8344535231590271,-0.00029522943077608943,-0.1891811192035675
486.0,443.0,-2.1422,-0.3589,9.8979,-0.035,-0.0127,-0.1118,-1.620187898675436,-0.06136453151702881,1.8133070468902588,-2.0757558345794678,0.00018206995446234941,1.9544637203216553,5.331266212254324,-0.004559115972369909,0.19029206037521362,-1.5345199743853968,-0.0,0.06220372021198273,0.7704135179519653,-0.0,-0.001998704858124256,0.834469199180603,-0.0002568916243035346,-0.23480498790740967
486.0,443.0,-2.1422,-0.3589,9.8979,-0.035,-0.0127,-0.1118,-1.6206752262511195,-0.06715328991413116,1.7879912853240967,-2.075831890106201,0.00016534516180399805,1.9545247554779053,5.331182110100546,-0.008437922224402428,0.1713544726371765,-1.5345361868487757,-0.0,0.05689486116170883,0.7704052925109863,-0.0,0.0011399516370147467,0.8345179557800293,-0.00022480696497950703,-0.19274938106536865
486.0,443.0,-2.1422,-0.3589,9.8979,-0.035,-0.0127,-0.1118,-1.621054311791891,-0.07081285119056702,1.81943941116333,-2.0757882595062256,0.00015468828496523201,1.9243834018707275,5.331130432873525,-0.010563461109995842,0.17804427444934845,-1.5344918409930628,-0.0,0.07171323150396347,0.7704094648361206,-0.0,0.004307268187403679,0.8344696760177612,-0.00020555262744892389,-0.19034698605537415
486.0,443.0,-2.1422,-0.3589,9.8979,-0.035,-0.0127,-0.1118,-1.6216427288451136,-0.07645856589078903,1.8183705806732178,-2.075756311416626,0.00014562027354259044,1.9891109466552734,5.331074583321371,-0.01054477971047163,0.1860831081867218,-1.5345037619220179,-0.0,0.07215851545333862,0.7704250812530518,-0.0,0.0027014706283807755,0.8344936370849609,-0.00017865041445475072,-0.1752604842185974
486.0,443.0,-2.1422,-0.3589,9.8979,-0.035,-0.0127,-0.1118,-1.6222621403136195,-0.07965964823961258,1.8284530639648438,-2.075732469558716,0.0010357832070440054,1.9683074951171875,5.33104299285964,-0.010918762534856796,0.16902995109558105,-1.5344956556903284,-0.0,0.07726451009511948,0.7704052925109863,-0.0,0.0005985158495604992,0.8345097899436951,-0.00015412790526170284,-0.22044433653354645
486.0,443.0,-2.1422,-0.3589,9.8979,-0.035,-0.0127,-0.1118,-1.6229940853514613,-0.08949049562215805,1.827742338180542,-2.075784206390381,0.0012608804972842336,1.9351991415023804,5.33093141296462,-0.012808001600205898,0.16313961148262024,-1.5345361868487757,-0.0,0.07061971724033356,0.7704012393951416,-0.0,0.0017097557429224253,0.8344655632972717,-0.0001355559506919235,-0.19037683308124542
493.0,412.0,-2.0285,-0.4469,9.6706,-0.0397,-0.0551,-0.1205,-1.6237617931761683,-0.09747812896966934,1.8264079093933105,-2.0757603645324707,0.0010803580516949296,1.9689490795135498,5.330767977028646,-0.018846619874238968,0.17181354761123657,-1.5345242659198206,-0.0,0.0704355388879776,0.770441472530365,-0.0,-0.0012863720767199993,0.8344733715057373,-0.00012097863509552553,-0.278385192155838
493.0,412.0,-2.0285,-0.4469,9.6706,-0.0397,-0.0551,-0.1205,-1.6245442829527796,-0.09728658199310303,1.7902661561965942,-2.075772285461426,0.0007346167112700641,1.9396941661834717,5.330532836705007,-0.0320676751434803,0.18016743659973145,-1.534515682850973,-0.0,0.06872236728668213,0.7704295516014099,-0.0,0.00022355816327035427,0.8345180153846741,-0.0001310664665652439,-0.17546609044075012
493.0,412.0,-2.0285,-0.4469,9.6706,-0.0397,-0.0551,-0.1205,-1.6253639660277308,-0.09428921341896057,1.8201279640197754,-2.0757241249084473,0.000475637469207868,1.9409059286117554,5.33015404918746,-0.059628892689943314,0.16131587326526642,-1.5345519224749964,-0.0,0.05952275171875954,0.7704575061798096,-0.0,0.007801026105880737,0.8345218300819397,-0.00011947777966270223,-0.19546161592006683
493.0,412.0,-2.0285,-0.4469,9.6706,-0.0397,-0.0551,-0.1205,-1.626171728173727,-0.09647774696350098,1.831519365310669,-2.0757603645324707,0.00029307795921340585,1.952634572982788,5.3294861791427515,-0.0977000817656517,0.14258018136024475,-1.5345123449908655,-0.0,0.06712960451841354,0.7704172134399414,-0.0,0.001903018681332469,0.8344774842262268,-0.00012805749429389834,-0.23477789759635925
493.0,412.0,-2.0285,-0.4469,9.6706,-0.0397,-0.0551,-0.1205,-1.6269709072508753,-0.10710236430168152,1.8087043762207031,-2.07572865486145,0.00023249941295944154,1.9147672653198242,5.328652548580923,-0.1233113706111908,0.12128028273582458,-1.5345242659198206,-0.0,0.06601347029209137,0.7704213261604309,-0.0,0.0015646202955394983,0.8344815969467163,-0.00013534672325477004,-0.20995303988456726
493.0,412.0,-2.0285,-0.4469,9.6706,-0.0397,-0.0551,-0.1205,-1.6278182468810023,-0.11293796449899673,1.7889647483825684,-2.0757758617401123,0.00022664987773168832,1.9709618091583252,5.327548551350393,-0.12394623458385468,0.1325293630361557,-1.5344880262957972,-0.0,0.07484722882509232,0.7703807950019836,-0.0,-0.00014739390462636948,0.8345059752464294,-0.0001632491039345041,-0.20624065399169922
493.0,412.0,-2.0285,-0.4469,9.6706,-0.0397,-0.0551,-0.1205,-1.6285420856871546,-0.11810044199228287,1.7918537855148315,-2.0757808685302734,0.0002613978576846421,1.9200971126556396,5.3268399117286584,-0.1399393528699875,0.1344967484474182,-1.5344999472247522,-0.0,0.07569589465856552,0.770433247089386,-0.0,-0.00764019088819623,0.834510087966919,-0.00020045765268150717,-0.18894892930984497
493.0,412.0,-2.0285,-0.4469,9.6706,-0.0397,-0.0551,-0.1205,-1.6295095882811488,-0.1206798180937767,1.8164855241775513,-2.075765371322632,0.002157635288313031,1.949432611465454,5.3255008337791345,-0.17510585486888885,0.09826446324586868,-1.5345519224749964,-0.0,0.06549607217311859,0.7704172134399414,-0.0,0.004868094809353352,0.8345059752464294,-0.0005517143872566521,-0.22682087123394012
493.0,412.0,-2.0285,-0.4469,9.6706,-0.0397,-0.0551,-0.1205,-1.630416055718893,-0.11262420564889908,1.8530259132385254,-2.0757055282592773,0.002590733580291271,1.954941749572754,5.324039506703176,-0.16996319591999054,0.11192445456981659,-1.5345318953143519,-0.0,0.07010599225759506,0.7704696655273438,-0.0,-0.005703737027943134,0.8344820141792297,-0.00039161290624178946,-0.1878890097141266
493.0,412.0,-2.0285,-0.4469,9.6706,-0.0397,-0.0551,-0.1205,-1.6313673458495082,-0.11087328940629959,1.863147497177124,-2.0756683349609375,0.0004891862627118826,1.8958203792572021,5.322621214180746,-0.18474680185317993,0.11842576414346695,-1.5345242659198206,-0.0,0.0560898557305336,0.7703771591186523,-0.0,-0.0023391807917505503,0.8344573378562927,-0.0002530397614464164,-0.21346360445022583
493.0,412.0,-2.0285,-0.4469,9.6706,-0.0397,-0.0551,-0.1205,-1.632327219048971,-0.125560462474823,1.808944821357727,-2.0757529735565186,-0.0004573996120598167,1.962723731994629,5.32105843999938,-0.1978101283311844,0.09382147341966629,-1.5344679991351526,-0.0,0.06512835621833801,0.7703729867935181,-0.0,-0.0050180586986243725,0.8344977498054504,-0.00024780884268693626,-0.20104381442070007
493.0,412.0,-2.0285,-0.4469,9.6706,-0.0397,-0.0551,-0.1205,-1.633282323876852,-0.13445618748664856,1.7735059261322021,-2.0756847858428955,-0.00011915130016859621,1.9047293663024902,5.319542872696676,-0.21398510038852692,0.10288920998573303,-1.5345080534564417,-0.0,0.06227188557386398,0.7703889608383179,-0.0,-0.0006010758224874735,0.8344659209251404,-0.00024278015189338475,-0.26637113094329834
475.0,407.0,-2.9007,-0.4463,9.5246,-0.0202,-0.2054,-0.1281,-1.634249826470846,-0.13219282031059265,1.8098554611206055,-2.07566499710083,0.0037396657280623913,1.928969383239746,5.317734288960256,-0.23185989260673523,0.07796899229288101,-1.5345080534564417,-0.0,0.07327020168304443,0.7703729867935181,-0.0,-0.005878848023712635,0.8344617486000061,-0.0016483778599649668,-0.18047037720680237
475.0,407.0,-2.9007,-0.4463,9.5246,-0.0202,-0.2054,-0.1281,-1.635285039941305,-0.12361788004636765,1.7546775341033936,-2.0756008625030518,0.006289347540587187,1.9470617771148682,5.315944480686941,-0.23307162523269653,0.08354651182889938,-1.5344918409930628,-0.0,0.08336633443832397,0.7704052925109863,-0.0,0.0034468823578208685,0.8344335556030273,-0.0015692973975092173,-0.17147868871688843
475.0,407.0,-2.9007,-0.4463,9.5246,-0.0202,-0.2054,-0.1281,-1.6363402805724085,-0.1196221262216568,1.8271303176879883,-2.0756049156188965,0.0031942990608513355,1.8659820556640625,5.3139904020126245,-0.23890931904315948,0.07733239233493805,-1.5345280806170862,-0.0,0.06059110164642334,0.7703807950019836,-0.0,0.00021440722048282623,0.8344498872756958,-0.0009705354459583759,-0.22566109895706177
475.0,407.0,-2.9007,-0.4463,9.5246,-0.0202,-0.2054,-0.1281,-1.637355466882223,-0.125935897231102,1.8096346855163574,-2.0756213665008545,3.093638952123001e-05,1.9455115795135498,5.31204782703475,-0.2651984989643097,0.055592477321624756,-1.5345080534564417,-0.0,0.0704072117805481,0.7704135179519653,-0.0,-0.0005863066762685776,0.8344457149505615,-0.0006304167909547687,-0.23397764563560486
475.0,407.0,-2.9007,-0.4463,9.5246,-0.0202,-0.2054,-0.1281,-1.6383143864073695,-0.13116110861301422,1.829290509223938,-2.0755770206451416,1.0022998056524735e-12,1.9034535884857178,5.309764671116628,-0.27113255858421326,0.07603965699672699,-1.5345199743853968,-0.0,0.08800520747900009,0.770433247089386,-0.0,0.011525129899382591,0.8344335556030273,-0.00035592514905147254,-0.1811801791191101
475.0,407.0,-2.9007,-0.4463,9.5246,-0.0202,-0.2054,-0.1281,-1.6390778026976527,-0.13483858108520508,1.762668490409851,-2.075573205947876,2.4204361446534126e-18,1.9009525775909424,5.308082270413198,-0.2956971526145935,0.05197054147720337,-1.5345161596881312,-0.0,0.06517721712589264,0.7704415321350098,-0.0,0.006202003452926874,0.8344216346740723,-0.0003863605670630932,-0.2161274254322052
475.0,407.0,-2.9007,-0.4463,9.5246,-0.0202,-0.2054,-0.1281,-1.6400886974730433,-0.1292991191148758,1.838832974433899,-2.0755608081817627,0.001585518242791295,1.9038467407226562,5.305695342808523,-0.31285560131073,0.050219081342220306,-1.5345242659198206,-0.0,0.062540203332901,0.7704134583473206,-0.0,-0.00967334769666195,0.8344137072563171,-0.0009440981666557491,-0.22699609398841858
475.0,407.0,-2.9007,-0.4463,9.5246,-0.0202,-0.2054,-0.1281,-1.6411086521544398,-0.11580651253461838,1.7786624431610107,-2.075540781021118,0.004116274416446686,1.9507217407226562,5.303108322411337,-0.3211318552494049,0.04674745351076126,-1.5345199743853968,-0.0,0.06912519037723541,0.7704218029975891,-0.0,-0.006234313361346722,0.8344216346740723,-0.0006835772073827684,-0.15899750590324402
475.0,407.0,-2.9007,-0.4463,9.5246,-0.0202,-0.2054,-0.1281,-1.6420070133604945,-0.11474211513996124,1.8938580751419067,-2.075488805770874,0.0016505703097209334,1.886978030204773,5.300480174809255,-0.32918405532836914,0.037368856370449066,-1.5345519224749964,-0.0,0.061172109097242355,0.7703808546066284,-0.0,-0.003101638052612543,0.8343852162361145,-0.0003504047926981002,-0.1920570433139801
475.0,407.0,-2.9007,-0.4463,9.5246,-0.0202,-0.2054,-0.1281,-1.642998834649557,-0.12284044921398163,1.8272662162780762,-2.075573205947876,0.0004006109666079283,1.8836579322814941,5.297749328404226,-0.3535735011100769,0.03698302432894707,-1.5345161596881312,-0.0,0.07102969288825989,0.7704377770423889,-0.0,-0.003361127572134137,0.8344013690948486,-0.00024678886984474957,-0.23663941025733948
475.0,407.0,-2.9007,-0.4463,9.5246,-0.0202,-0.2054,-0.1281,-1.6439548931517542,-0.12365424633026123,1.8624136447906494,-2.0754690170288086,0.0003315107023809105,1.92765474319458,5.294849920063772,-0.3680393397808075,0.02363571710884571,-1.5345118681537073,-0.0,0.053969964385032654,0.7704054713249207,-0.0,-0.004456948488950729,0.8344417810440063,-0.00019367363711353391,-0.22811320424079895
437.0,390.0,-1.319,-0.7735,9.8626,-0.0655,-0.4065,-0.1388,-1.6448613605894984,-0.11851081997156143,1.8669559955596924,-2.0755250453948975,0.00013196421787142754,1.9287676811218262,5.2917741415794275,-0.3772169053554535,0.012955540791153908,-1.5345638434039515,-0.0,0.04203195124864578,0.770441472530365,-0.0,-0.013174974359571934,0.8344293832778931,-0.00015937392890919,-0.24004650115966797
437.0,390.0,-1.319,-0.7735,9.8626,-0.0655,-0.4065,-0.1388,-1.645796915093893,-0.10891630500555038,1.8835036754608154,-2.0755250453948975,0.0010144617408514023,1.9162211418151855,5.288734543114462,-0.3819617033004761,0.02405564859509468,-1.5345242659198206,-0.0,0.06416966766119003,0.7704094648361206,-0.0,0.014290963299572468,0.8344095945358276,-0.00010554296750342473,-0.23520687222480774
437.0,390.0,-1.319,-0.7735,9.8626,-0.0655,-0.4065,-0.1388,-1.6466442547240199,-0.10452151298522949,1.9180915355682373,-2.075493097305298,0.0013639432145282626,1.91798996925354,5.285582768708029,-0.39825788140296936,0.017961282283067703,-1.5345442930804651,-0.0,0.06516823172569275,0.7703889608383179,-0.0,-0.001484657172113657,0.8344133496284485,-8.826775592751801e-05,-0.1728319674730301
437.0,390.0,-1.319,-0.7735,9.8626,-0.0655,-0.4065,-0.1388,-1.6475478611388148,-0.11434054374694824,1.8661892414093018,-2.075460910797119,0.0007484682719223201,1.876448154449463,5.2822232125099084,-0.42159709334373474,0.011317264288663864,-1.5345199743853968,-0.0,0.06870455294847488,0.7704901695251465,-0.0,0.009803698398172855,0.8344457149505615,5.7662495237309486e-05,-0.16947922110557556
437.0,390.0,-1.319,-0.7735,9.8626,-0.0655,-0.4065,-0.1388,-1.6482192478575648,-0.12024924904108047,1.8810832500457764,-2.0754847526550293,0.0006253359606489539,1.9127793312072754,5.279655623226919,-0.43321529030799866,-0.0021120202727615833,-1.5344837347613733,-0.0,0.04731663316488266,0.7704331874847412,-0.0,0.0004052339936606586,0.8344335556030273,5.2606668759835884e-05,-0.20088106393814087
437.0,390.0,-1.319,-0.7735,9.8626,-0.0655,-0.4065,-0.1388,-1.6491018734373988,-0.1165952980518341,1.8531594276428223,-2.0754776000976562,0.0023432872258126736,1.9539909362792969,5.276145982533254,-0.4531707763671875,-0.01425924152135849,-1.534515682850973,-0.0,0.06368023157119751,0.7703770995140076,-0.0,0.007290638983249664,0.8344014286994934,2.44970233325148e-05,-0.17450731992721558
437.0,390.0,-1.319,-0.7735,9.8626,-0.0655,-0.4065,-0.1388,-1.650069376031393,-0.10923432558774948,1.8762249946594238,-2.0753729343414307,0.0058063846081495285,1.9162960052490234,5.272467481880941,-0.4644724726676941,-0.00836264155805111,-1.5345400015460413,-0.0,0.05394686758518219,0.7704575061798096,-0.0,0.00021239160560071468,0.8344216346740723,2.1318826838978566e-05,-0.18346604704856873
437.0,390.0,-1.319,-0.7735,9.8626,-0.0655,-0.4065,-0.1388,-1.650980611840719,-0.0990901067852974,1.9579057693481445,-2.0753536224365234,0.0063896216452121735,1.941455602645874,5.26868216970519,-0.47665858268737793,-0.017383791506290436,-1.5345037619220179,-0.0,0.05587897449731827,0.7703852653503418,-0.0,-0.009447582997381687,0.8344293832778931,4.715141039923765e-05,-0.10491733253002167
437.0,390.0,-1.319,-0.7735,9.8626,-0.0655,-0.4065,-0.1388,-1.6517955265440882,-0.10068611055612564,1.9161908626556396,-2.0753490924835205,0.0037011338863521814,1.9296598434448242,5.26474146822051,-0.49682238698005676,-0.023461569100618362,-1.5345199743853968,-0.0,0.04768354073166847,0.7704131603240967,-0.0,-0.008520559407770634,0.8344133496284485,7.959707727422938e-05,-0.21203434467315674
437.0,390.0,-1.319,-0.7735,9.8626,-0.0655,-0.4065,-0.1388,-1.6525947056212367,-0.10877524316310883,1.8898975849151611,-2.075289249420166,0.0014249490341171622,1.9335682392120361,5.260594236641683,-0.5235937237739563,-0.018168261274695396,-1.5345481077777308,-0.0,0.051596514880657196,0.770433247089386,-0.0,0.0019482991192489862,0.8344175219535828,0.00020314689027145505,-0.2530204653739929
437.0,390.0,-1.319,-0.7735,9.8626,-0.0655,-0.4065,-0.1388,-1.653445383111471,-0.11493305116891861,1.889087200164795,-2.0752735137939453,0.0008966905879788101,1.8848097324371338,5.256479549198904,-0.5424789786338806,-0.01925896666944027,-1.5345481077777308,-0.0,0.05608517676591873,0.7704172134399414,-0.0,0.005024461075663567,0.8344298601150513,7.003272185102105e-05,-0.2234954833984375
437.0,390.0,-1.319,-0.7735,9.8626,-0.0655,-0.4065,-0.1388,-1.654304643670553,-0.11164906620979309,1.9406373500823975,-2.075237512588501,0.006584345828741789,1.9065613746643066,5.252172577172079,-0.5512022376060486,-0.026196997612714767,-1.5345199743853968,-0.0,0.05983336269855499,0.7703972458839417,-0.0,-0.010681642219424248,0.8344376087188721,1.884555879405614e-11,-0.21707697212696075
422.0,391.0,-1.9143,-0.7364,9.2393,-0.0396,-0.5289,-0.1388,-1.6552630863585414,-0.10517921298742294,1.8944611549377441,-2.075153350830078,0.012101953849196434,1.9266166687011719,5.2476059077079675,-0.5527139902114868,-0.01913745328783989,-1.5345080534564417,-0.0,0.059057313948869705,0.7704213261604309,-0.0,0.013496281579136848,0.8344616889953613,6.105720988201713e-19,-0.1740727722644806
422.0,391.0,-1.9143,-0.7364,9.2393,-0.0396,-0.5289,-0.1388,-1.6561666927733363,-0.09698488563299179,1.9184443950653076,-2.075054168701172,0.014092785306274891,1.9456912279129028,5.242981660157003,-0.5733894109725952,-0.045719631016254425,-1.5345075766192835,-0.0,0.05824786424636841,0.770352840423584,-0.0,0.01556436624377966,0.8344175815582275,1.978176109695386e-26,-0.20194411277770996
422.0,391.0,-1.9143,-0.7364,9.2393,-0.0396,-0.5289,-0.1388,-1.656809469262594,-0.09797122329473495,1.9564406871795654,-2.075025796890259,0.012180970050394535,1.933559775352478,5.239458012371816,-0.5889962911605835,-0.029731297865509987,-1.5345118681537073,-0.0,0.04869849234819412,0.7703971266746521,-0.0,0.0036634625867009163,0.8344216346740723,4.777061811074336e-32,-0.17419569194316864
422.0,391.0,-1.9143,-0.7364,9.2393,-0.0396,-0.5289,-0.1388,-1.657633443871969,-0.10871922224760056,1.90791654586792,-2.0749056339263916,0.008434196934103966,1.9389592409133911,5.234593796520986,-0.6143971085548401,-0.0297728069126606,-1.534515682850973,-0.0,0.054836906492710114,0.7704295516014099,-0.0,-0.0040797083638608456,0.8344093561172485,1.5477075291759383e-39,-0.20828944444656372
422.0,391.0,-1.9143,-0.7364,9.2393,-0.0396,-0.5289,-0.1388,-1.6584040127196253,-0.1129736453294754,1.8821810483932495,-2.074862003326416,0.011287507601082325,1.9283795356750488,5.229738402157583,-0.6259819269180298,-0.03626316785812378,-1.5344956556903284,-0.0,0.06422635912895203,0.7703648209571838,-0.0,-0.009270410053431988,0.8344376683235168,0.0,-0.19818145036697388
422.0,391.0,-1.9143,-0.7364,9.2393,-0.0396,-0.5289,-0.1388,-1.6593195400633753,-0.10630184412002563,1.881840467453003,-2.0747106075286865,0.018696151673793793,1.915647268295288,5.224782514363088,-0.6347562670707703,-0.04336399585008621,-1.5344718138324183,-0.0,0.07300937920808792,0.7703729867935181,-0.0,-0.0017078163800761104,0.8344013690948486,-0.00016403599875047803,-0.2256728708744049
422.0,391.0,-1.9143,-0.7364,9.2393,-0.0396,-0.5289,-0.1388,-1.660170694390768,-0.10530870407819748,1.8927686214447021,-2.0745387077331543,0.026874404400587082,1.9462480545043945,5.219774591713705,-0.6387223601341248,-0.026067886501550674,-1.5345762411700647,-0.0,0.04642091318964958,0.7703767418861389,-0.0,-0.00984917301684618,0.8344014286994934,-0.00017595973622519523,-0.2300991415977478
422.0,391.0,-1.9143,-0.7364,9.2393,-0.0396,-0.5289,-0.1388,-1.6611219845213832,-0.10662535578012466,1.9293978214263916,-2.074286937713623,0.03398645669221878,1.9383561611175537,5.2145994184310815,-0.6500096321105957,-0.03065875917673111,-1.5344880262957972,-0.0,0.0603831484913826,0.7703935503959656,-0.0,-0.009290389716625214,0.8344335556030273,-0.00015851006901357323,-0.25299131870269775
422.0,391.0,-1.9143,-0.7364,9.2393,-0.0396,-0.5289,-0.1388,-1.6620203457274378,-0.10074587166309357,1.9499924182891846,-2.073996067047119,0.03846944123506546,1.9902310371398926,5.20934824922637,-0.6595938801765442,-0.01890002191066742,-1.5345080534564417,-0.0,0.05451003089547157,0.7703288197517395,-0.0,-0.004849683493375778,0.8344376087188721,-6.103382838773541e-05,-0.16367989778518677
422.0,391.0,-1.9143,-0.7364,9.2393,-0.0396,-0.5289,-0.1388,-1.662715574304098,-0.10151738673448563,1.9572266340255737,-2.073676586151123,0.041265666484832764,1.9534306526184082,5.203877585917272,-0.6746487617492676,-0.011972073465585709,-1.5345118681537073,-0.0,0.05816804617643356,0.7704373002052307,-0.0,0.005746771115809679,0.8344293832778931,-9.298739314544946e-05,-0.2117501199245453
422.0,391.0,-1.9143,-0.7364,9.2393,-0.0396,-0.5289,-0.1388,-1.663450380364889,-0.10220570117235184,1.9274972677230835,-2.0733368396759033,0.049700506031513214,1.9467999935150146,5.198411839991369,-0.6877772212028503,-0.03771655261516571,-1.5344842115985315,-0.0,0.061541542410850525,0.7704135179519653,-0.0,-0.0024003218859434128,0.8344616889953613,-0.00011505303700687364,-0.22503182291984558
468.0,542.0,-0.5809,-1.2245,8.9898,-0.0423,-0.7126,-0.1414,-1.6642095051207484,-0.09848131984472275,1.9232747554779053,-2.072894334793091,0.06293332576751709,1.9946037530899048,5.192944216519155,-0.6928020715713501,-0.027555253356695175,-1.5345519224749964,-0.0,0.05538547411561012,0.7704053521156311,-0.0,0.0007964069955050945,0.8344704508781433,-0.00013158189540263265,-0.23101669549942017
468.0,542.0,-0.5809,-1.2245,8.9898,-0.0423,-0.7126,-0.1414,-1.6649767361082972,-0.09394609183073044,1.919110655784607,-2.0722830295562744,0.07679826021194458,1.9935383796691895,5.187526511936941,-0.691453754901886,-0.03658955544233322,-1.5345280806170862,-0.0,0.06529627740383148,0.7703688740730286,-0.0,-0.004290212411433458,0.8344134092330933,-0.00011489949974929914,-0.21062391996383667
468.0,542.0,-0.5809,-1.2245,8.9898,-0.0423,-0.7126,-0.1414,-1.6655804119505824,-0.09220480918884277,1.9359533786773682,-2.0718321800231934,0.08838416635990143,2.0000600814819336,5.183275598078527,-0.6869370937347412,-0.023677146062254906,-1.5345318953143519,-0.0,0.04690463840961456,0.7704012989997864,-0.0,0.0008812383748590946,0.8344134092330933,-6.821203714935109e-05,-0.17699672281742096
468.0,542.0,-0.5809,-1.2245,8.9898,-0.0423,-0.7126,-0.1414,-1.6663481197752894,-0.09499585628509521,1.9132368564605713,-2.0710325241088867,0.0955551341176033,2.062598705291748,5.177798169642248,-0.6875539422035217,-0.017639311030507088,-1.5345037619220179,-0.0,0.06370583921670914,0.7704095244407654,-0.0,-0.003610557410866022,0.834389328956604,-5.9230285842204466e-05,-0.24143704771995544
468.0,542.0,-0.5809,-1.2245,8.9898,-0.0423,-0.7126,-0.1414,-1.6670905552306117,-0.09546869248151779,1.985291600227356,-2.0702080726623535,0.09596633911132812,2.0344016551971436,5.1723383543785,-0.6910744309425354,-0.013235004618763924,-1.53453237215151,-0.0,0.054859742522239685,0.7703209519386292,-0.0,-0.006578163709491491,0.8344417810440063,-5.2340812544571236e-05,-0.24564020335674286
468.0,542.0,-0.5809,-1.2245,8.9898,-0.0423,-0.7126,-0.1414,-1.6677776775755824,-0.09002259373664856,1.9526402950286865,-2.0694527626037598,0.1001228541135788,2.0363011360168457,5.166833448200979,-0.6869187951087952,-0.035175640136003494,-1.5345037619220179,-0.0,0.038327254354953766,0.7703935503959656,-0.0,-0.008493222296237946,0.8344376683235168,-7.031881250441074e-05,-0.2233528047800064
468.0,542.0,-0.5809,-1.2245,8.9898,-0.0423,-0.7126,-0.1414,-1.668469091454977,-0.08176293969154358,1.9738447666168213,-2.0685789585113525,0.10896602272987366,1.9836158752441406,5.1613303301628015,-0.6762986183166504,-0.011258118785917759,-1.5344918409930628,-0.0,0.05050213634967804,0.7704217433929443,-0.0,-0.011548512615263462,0.8344216346740723,-6.369520269799978e-05,-0.18204650282859802
468.0,542.0,-0.5809,-1.2245,8.9898,-0.0423,-0.7126,-0.1414,-1.669124265710348,-0.07711297273635864,1.9773870706558228,-2.067765235900879,0.11624260991811752,2.0305490493774414,5.155986475735464,-0.6742104887962341,-0.01655137538909912,-1.5345199743853968,-0.0,0.0524747408926487,0.7703329920768738,-0.0,-0.013511566445231438,0.8344258069992065,-7.760281005175784e-05,-0.22138789296150208
468.0,542.0,-0.5809,-1.2245,8.9898,-0.0423,-0.7126,-0.1414,-1.6697799168028773,-0.07676329463720322,1.9584603309631348,-2.0667195320129395,0.13104885816574097,2.054194211959839,5.150520670204916,-0.6700043678283691,-0.00990116223692894,-1.5344842115985315,-0.0,0.05222952365875244,0.7703849077224731,-0.0,-0.0002421371464151889,0.8344335556030273,-7.144283154048026e-05,-0.18885715305805206
468.0,542.0,-0.5809,-1.2245,8.9898,-0.0423,-0.7126,-0.1414,-1.670359273950094,-0.08191577345132828,1.9926700592041016,-2.065629005432129,0.14282551407814026,2.0876126289367676,5.145237642317571,-0.6673529744148254,-0.028683634474873543,-1.5345481077777308,-0.0,0.05830918997526169,0.7703365683555603,-0.0,-0.010587798431515694,0.8344095945358276,-6.618864426854998e-05,-0.22602629661560059
468.0,542.0,-0.5809,-1.2245,8.9898,-0.0423,-0.7126,-0.1414,-1.6709987125792445,-0.08253137022256851,2.0361292362213135,-2.0643844604492188,0.14187845587730408,2.0719878673553467,5.140026110201635,-0.6509531736373901,-0.005684900097548962,-1.5345161596881312,-0.0,0.052993327379226685,0.7703931927680969,-0.0,-0.01808321103453636,0.8344417214393616,-6.165447848616168e-05,-0.24624022841453552
468.0,542.0,-0.5809,-1.2245,8.9898,-0.0423,-0.7126,-0.1414,-1.671549459496969,-0.07445945590734482,1.9617509841918945,-2.06321382522583,0.15425682067871094,2.1072938442230225,5.134979086905279,-0.6384605169296265,-0.01462448388338089,-1.5345004240619105,-0.0,0.05196620523929596,0.7703611254692078,-0.0,-0.015509177930653095,0.8343652486801147,-5.770164716523141e-05,-0.21156045794487
775.0,925.0,0.6293,-0.9769,9.7519,-0.055,-0.7101,-0.1457,-1.6719972095885218,-0.06663759797811508,2.0427751541137695,-2.062300205230713,0.16461852192878723,2.0634562969207764,5.1310676513011835,-0.6265044808387756,-0.006471926812082529,-1.5345004240619105,-0.0,0.04555945843458176,0.7703935503959656,-0.0,0.00036287077818997204,0.8344257473945618,-5.505442459252663e-05,-0.22670304775238037
775.0,925.0,0.6293,-0.9769,9.7519,-0.055,-0.7101,-0.1457,-1.6724921665587367,-0.06466354429721832,1.983203649520874,-2.0609285831451416,0.16920289397239685,2.077167510986328,5.126128095179357,-0.6149405837059021,-0.008329908363521099,-1.534476105366842,-0.0,0.03649568930268288,0.770361065864563,-0.0,-0.004759041126817465,0.8344137072563171,-5.1880844694096595e-05,-0.26016175746917725
775.0,925.0,0.6293,-0.9769,9.7519,-0.055,-0.7101,-0.1457,-1.6730476818480433,-0.06994840502738953,2.026695489883423,-2.0595016479492188,0.17314234375953674,2.0790209770202637,5.121116298228063,-0.6105538606643677,-0.013065637089312077,-1.5345242659198206,-0.0,0.0584707111120224,0.7704418897628784,-0.0,-0.01737063005566597,0.8343852758407593,-3.368809848325327e-05,-0.2065950632095337
775.0,925.0,0.6293,-0.9769,9.7519,-0.055,-0.7101,-0.1457,-1.673575063745016,-0.07211494445800781,2.024911642074585,-2.058013439178467,0.18221811950206757,2.107361316680908,5.11623369434432,-0.6004819869995117,0.006208920851349831,-1.5345118681537073,-0.0,0.036850929260253906,0.7703569531440735,-0.0,-0.01743013970553875,0.8344417810440063,-4.700890713138506e-05,-0.21799132227897644
775.0,925.0,0.6293,-0.9769,9.7519,-0.055,-0.7101,-0.1457,-1.6740910015501917,-0.06623655557632446,2.0387260913848877,-2.0566017627716064,0.18989074230194092,2.14129638671875,5.111549901753225,-0.5863915085792542,-0.021991673856973648,-1.5345242659198206,-0.0,0.031887900084257126,0.7703971862792969,-0.0,-0.01688234508037567,0.8344095945358276,-5.801320367027074e-05,-0.1745409220457077
775.0,925.0,0.6293,-0.9769,9.7519,-0.055,-0.7101,-0.1457,-1.6746260128416957,-0.058901116251945496,2.070340633392334,-2.054980993270874,0.19995377957820892,2.1125447750091553,5.106950121908941,-0.5760969519615173,-0.006911353673785925,-1.5345199743853968,-0.0,0.04281925410032272,0.7703849077224731,-0.0,-0.008990846574306488,0.83436518907547,-5.5015851103235036e-05,-0.23791742324829102
775.0,925.0,0.6293,-0.9769,9.7519,-0.055,-0.7101,-0.1457,-1.6750813923277796,-0.05653805285692215,2.0576910972595215,-2.0532631874084473,0.20771794021129608,2.1299185752868652,5.1025012014205835,-0.5546736121177673,0.014815610833466053,-1.5345037619220179,-0.0,0.04349423944950104,0.7703288197517395,-0.0,-0.01203219685703516,0.8344700336456299,-3.9401482354151085e-05,-0.18866121768951416
775.0,925.0,0.6293,-0.9769,9.7519,-0.055,-0.7101,-0.1457,-1.675601144830221,-0.05991271883249283,2.074342727661133,-2.051647663116455,0.21887625753879547,2.1602611541748047,5.0981710133846185,-0.5456363558769226,-0.006192181259393692,-1.5345199743853968,-0.0,0.04603436961770058,0.7704012989997864,-0.0,-0.009137720800936222,0.8344093561172485,-3.676693086163141e-05,-0.2427668571472168
775.0,925.0,0.6293,-0.9769,9.7519,-0.055,-0.7101,-0.1457,-1.6760126552977503,-0.06110674887895584,2.0618138313293457,-2.049922227859497,0.22357819974422455,2.2082340717315674,5.0939010856445215,-0.5344566106796265,0.004474836867302656,-1.5344961325274866,-0.0,0.051920779049396515,0.770441472530365,-0.0,-0.027709979563951492,0.8344376683235168,-6.91287568770349e-05,-0.21946898102760315
775.0,925.0,0.6293,-0.9769,9.7519,-0.055,-0.7101,-0.1457,-1.6764675579466761,-0.05472349748015404,2.0817975997924805,-2.0480501651763916,0.23244443535804749,2.151892900466919,5.089715826302328,-0.5240894556045532,0.01380428671836853,-1.5344961325274866,-0.0,0.04562746360898018,0.7703894972801208,-0.0,-0.028189629316329956,0.8344095945358276,-6.001032670610584e-05,-0.22249910235404968
