ramyac6/ROB537/final_project/csv/all/good_53.csv
tof_0,tof_1,accelx,accely,accelz,gyrox,gyroy,gyroz,shoulder_lift_joint_position,shoulder_lift_joint_velocity,shoulder_lift_joint_effort,elbow_joint_position,elbow_joint_velocity,elbow_joint_effort,wrist_1_joint_position,wrist_1_joint_velocity,wrist_1_joint_effort,wrist_2_joint_position,wrist_2_joint_velocity,wrist_2_joint_effort,wrist_3_joint_position,wrist_3_joint_velocity,wrist_3_joint_effort,shoulder_pan_joint_position,shoulder_pan_joint_velocity,shoulder_pan_joint_effort
269.0,279.0,-0.7621,0.0012,9.67,-0.0351,0.025,-0.1112,-2.0255309544005335,0.0,3.935149669647217,-1.5170340538024902,-0.0,2.0322699546813965,5.0901448903377435,0.0,0.25806769728660583,-1.5417102018939417,0.0,-0.0011842251988127828,0.09959089756011963,0.0,0.008146067149937153,1.5195461511611938,0.0,-0.013303464278578758
269.0,279.0,-0.7621,0.0012,9.67,-0.0351,0.025,-0.1112,-2.025522848168844,0.0,3.952765941619873,-1.5170546770095825,-0.0,1.9852957725524902,5.090092855482855,0.0,0.25998371839523315,-1.5417102018939417,0.0,-0.004836105741560459,0.09961920976638794,0.0,-0.003102688118815422,1.5194981098175049,0.0,0.027728307992219925
269.0,279.0,-0.7621,0.0012,9.67,-0.0351,0.025,-0.1112,-2.025555273095602,0.0,3.9166147708892822,-1.516970157623291,-0.0,2.0146923065185547,5.090169119625845,0.0,0.27099931240081787,-1.5416739622699183,0.0,-0.010470137000083923,0.0995667353272438,0.0,0.008095864206552505,1.5194861888885498,0.0,-0.011394351720809937
269.0,279.0,-0.7621,0.0012,9.67,-0.0351,0.025,-0.1112,-2.025534769097799,0.0,3.9268746376037598,-1.516998291015625,-0.0,2.0062146186828613,5.090108859329977,0.0,0.2765533924102783,-1.5417020956622522,0.0,-0.00748113077133894,0.0995667576789856,0.0,0.0055157700553536415,1.51950204372406,0.0,0.01739000901579857
269.0,279.0,-0.7621,0.0012,9.67,-0.0351,0.025,-0.1112,-2.025534769097799,0.0,3.8802192211151123,-1.517009973526001,-0.0,2.0510571002960205,5.090116697340765,0.0,0.26922300457954407,-1.541666332875387,0.0,-0.006760512478649616,0.09960318356752396,0.0,-0.01326110027730465,1.5194703340530396,0.0,0.0013361014425754547
269.0,279.0,-0.7621,0.0012,9.67,-0.0351,0.025,-0.1112,-2.025595327416891,0.0,3.8912315368652344,-1.5170021057128906,-0.0,2.006326198577881,5.090149032860555,0.0,0.26976338028907776,-1.5416696707354944,0.0,-0.011779678985476494,0.09955855458974838,0.0,0.009915351867675781,1.5195060968399048,0.0,-0.05686691403388977
269.0,279.0,-0.7621,0.0012,9.67,-0.0351,0.025,-0.1112,-2.025510450402731,0.0,3.903332233428955,-1.5169939994812012,-0.0,2.0228922367095947,5.090140867024221,0.0,0.2866952419281006,-1.5417102018939417,0.0,-0.0047361417673528194,0.09957456588745117,0.0,0.011388816870748997,1.5195221900939941,0.0,0.0005188160575926304
270.0,284.0,-0.7322,0.003,9.6036,-0.0423,0.0186,-0.1095,-2.0255190334715785,0.0,3.953599691390991,-1.51698637008667,-0.0,2.0372300148010254,5.0900805471237085,0.0,0.2733447551727295,-1.5417102018939417,0.0,0.003270551096647978,0.0995507463812828,0.0,0.0066127292811870575,1.5194822549819946,0.0,-0.009660144336521626
270.0,284.0,-0.7322,0.003,9.6036,-0.0423,0.0186,-0.1095,-2.025539060632223,0.0,3.9056553840637207,-1.5170743465423584,-0.0,2.0078859329223633,5.090136784106054,0.0,0.2808302938938141,-1.5416658560382288,0.0,-0.006375236436724663,0.09953469783067703,0.0,0.005436279810965061,1.519510269165039,0.0,-0.014851408079266548
270.0,284.0,-0.7322,0.003,9.6036,-0.0423,0.0186,-0.1095,-2.0255071125426234,0.0,3.916006326675415,-1.5170705318450928,-0.0,2.028658151626587,5.090108859329977,0.0,0.2745329737663269,-1.5417383352862757,0.0,-0.014902730472385883,0.0995347648859024,0.0,0.00046448817010968924,1.5194703340530396,0.0,-0.031278930604457855
270.0,284.0,-0.7322,0.003,9.6036,-0.0423,0.0186,-0.1095,-2.025527139703268,0.0,3.8907084465026855,-1.5169942378997803,-0.0,2.0372164249420166,5.090116697340765,0.0,0.27202796936035156,-1.5417059103595179,0.0,-0.014063375070691109,0.09954296052455902,0.0,0.010653813369572163,1.5194861888885498,0.0,-0.016780493780970573
270.0,284.0,-0.7322,0.003,9.6036,-0.0423,0.0186,-0.1095,-2.025543352166647,0.0,3.895458936691284,-1.5170745849609375,-0.0,2.0224695205688477,5.09010477641181,0.0,0.268510103225708,-1.5416777769671839,0.0,-0.008727864362299442,0.09955479204654694,0.0,-0.007632792927324772,1.5194940567016602,0.0,-0.035609133541584015
270.0,284.0,-0.7322,0.003,9.6036,-0.0423,0.0186,-0.1095,-2.025543352166647,0.0,3.8898746967315674,-1.516982078552246,-0.0,2.0362906455993652,5.090112942248144,0.0,0.2845610976219177,-1.5417102018939417,0.0,0.007165045011788607,0.0995384007692337,0.0,-0.004187317565083504,1.5195342302322388,0.0,0.011651813052594662
270.0,284.0,-0.7322,0.003,9.6036,-0.0423,0.0186,-0.1095,-2.0254904232420863,0.0,3.939195156097412,-1.517030119895935,-0.0,2.058971881866455,5.090101021319189,0.0,0.2562159597873688,-1.541689697896139,0.0,-0.0077186268754303455,0.09953472763299942,0.0,-0.0012444609310477972,1.5195461511611938,0.0,-0.008795060217380524
270.0,284.0,-0.7322,0.003,9.6036,-0.0423,0.0186,-0.1095,-2.0255147419371546,0.0,3.8811726570129395,-1.5170021057128906,-0.0,2.066392660140991,5.090112942248144,0.0,0.2688635587692261,-1.5417221228228968,0.0,-0.014071022160351276,0.0995827466249466,0.0,0.007539303507655859,1.5195221900939941,0.0,0.07016319036483765
270.0,284.0,-0.7322,0.003,9.6036,-0.0423,0.0186,-0.1095,-2.025499006310934,0.0,3.8900868892669678,-1.517021894454956,-0.0,2.0310583114624023,5.090120780258932,0.0,0.24806536734104156,-1.5416939894305628,0.0,-0.006888051517307758,0.09957865625619888,0.0,-0.007532908581197262,1.51947820186615,0.0,0.037247829139232635
270.0,284.0,-0.7322,0.003,9.6036,-0.0423,0.0186,-0.1095,-2.02549471477651,0.0,3.919081211090088,-1.5170300006866455,-0.0,2.0044877529144287,5.09010477641181,0.0,0.27914735674858093,-1.5416815916644495,0.0,-0.008621040731668472,0.09957084059715271,0.0,-0.005237219855189323,1.51947820186615,0.0,0.03441910445690155
270.0,284.0,-0.7322,0.003,9.6036,-0.0423,0.0186,-0.1095,-2.0255466900267542,0.0,3.9424734115600586,-1.5170061588287354,-0.0,2.0411996841430664,5.090120780258932,0.0,0.25113123655319214,-1.5417140165912073,0.0,-0.010577714070677757,0.09950648993253708,0.0,0.0025095301680266857,1.5194822549819946,0.0,0.01032271794974804
270.0,284.0,-0.7322,0.003,9.6036,-0.0423,0.0186,-0.1095,-2.0255915127196253,0.0,3.886650323867798,-1.5170583724975586,-0.0,1.9976098537445068,5.090177196055212,0.0,0.24912816286087036,-1.5417102018939417,0.0,0.0021436065435409546,0.09955441206693649,0.0,-0.006748538929969072,1.519518256187439,0.0,-0.007056539878249168
267.0,275.0,-0.7214,-0.0138,9.597,-0.0359,0.025,-0.1148,-2.0255266628661097,0.0,3.929055690765381,-1.5169901847839355,-0.0,2.0872604846954346,5.090136784106054,0.0,0.26025015115737915,-1.5416935125934046,0.0,0.001081005553714931,0.09955855458974838,0.0,0.0033417902886867523,1.5195143222808838,0.0,-0.02207416668534279
267.0,275.0,-0.7214,-0.0138,9.597,-0.0359,0.025,-0.1148,-2.025527139703268,0.0,3.9129199981689453,-1.5170261859893799,-0.0,1.9725210666656494,5.090116697340765,0.0,0.257182240486145,-1.5417020956622522,0.0,-0.006389266811311245,0.09953472763299942,0.0,-0.00362536427564919,1.5194940567016602,0.0,0.02491760067641735
267.0,275.0,-0.7214,-0.0138,9.597,-0.0359,0.025,-0.1148,-2.025550981561178,0.0,3.9196877479553223,-1.5170300006866455,-0.0,2.0319886207580566,5.090108829527654,0.0,0.2697383761405945,-1.5417259375201624,0.0,-0.011229311116039753,0.09957083314657211,0.0,-0.0012883443851023912,1.5195461511611938,0.0,-0.015009726397693157
267.0,275.0,-0.7214,-0.0138,9.597,-0.0359,0.025,-0.1148,-2.0255266628661097,0.0,3.9460878372192383,-1.5170023441314697,-0.0,2.021315336227417,5.090165304928579,0.0,0.2548360824584961,-1.5416935125934046,0.0,-0.001091830781660974,0.09957865625619888,0.0,0.02056187577545643,1.5194822549819946,0.0,0.00023950450122356415
267.0,275.0,-0.7214,-0.0138,9.597,-0.0359,0.025,-0.1148,-2.025534769097799,0.0,3.9522085189819336,-1.5169782638549805,-0.0,2.0261991024017334,5.090084719448843,0.0,0.26426127552986145,-1.541717831288473,0.0,0.002228117547929287,0.0995667353272438,0.0,-0.010634027421474457,1.5195342302322388,0.0,-0.007016316056251526
267.0,275.0,-0.7214,-0.0138,9.597,-0.0359,0.025,-0.1148,-2.025539060632223,0.0,3.9864721298217773,-1.5170221328735352,-0.0,2.0511133670806885,5.090116697340765,0.0,0.265413761138916,-1.5417259375201624,0.0,0.004699619486927986,0.09952249377965927,0.0,0.011175195686519146,1.51950204372406,0.0,0.03408052772283554
267.0,275.0,-0.7214,-0.0138,9.597,-0.0359,0.025,-0.1148,-2.0255633793272914,0.0,3.886446952819824,-1.5170624256134033,-0.0,2.014207363128662,5.090144979744711,0.0,0.26568782329559326,-1.5417221228228968,0.0,-0.011343438178300858,0.09954661130905151,0.0,0.0024123855400830507,1.51950204372406,0.0,-0.01781618408858776
267.0,275.0,-0.7214,-0.0138,9.597,-0.0359,0.025,-0.1148,-2.0255028210081996,0.0,3.938563346862793,-1.516982078552246,-0.0,2.0395667552948,5.090124803572454,0.0,0.2701317369937897,-1.5416696707354944,0.0,-0.007113989908248186,0.0995749682188034,0.0,0.0032147583551704884,1.51951003074646,0.0,-0.03924448415637016
267.0,275.0,-0.7214,-0.0138,9.597,-0.0359,0.025,-0.1148,-2.025599618951315,0.0,3.949596881866455,-1.5170546770095825,-0.0,2.0018668174743652,5.090140747814932,0.0,0.2780350148677826,-1.5416820685016077,0.0,-0.01251397654414177,0.09955483675003052,0.0,0.011700398288667202,1.5195221900939941,0.0,0.02003011852502823
267.0,275.0,-0.7214,-0.0138,9.597,-0.0359,0.025,-0.1148,-2.025539060632223,0.0,3.945920944213867,-1.5170505046844482,-0.0,2.0209083557128906,5.090100693493643,0.0,0.27809789776802063,-1.541701618825094,0.0,-0.014304524287581444,0.09954296052455902,0.0,-0.000720923999324441,1.5194861888885498,0.0,0.0025311268400400877
267.0,275.0,-0.7214,-0.0138,9.597,-0.0359,0.025,-0.1148,-2.0255590877928675,0.0,3.9165563583374023,-1.5170421600341797,-0.0,2.0068633556365967,5.090084719448843,0.0,0.2703162133693695,-1.5416858831988733,0.0,0.002333755139261484,0.09953879565000534,0.0,-0.009845027700066566,1.5195063352584839,0.0,0.07509438693523407
267.0,275.0,-0.7214,-0.0138,9.597,-0.0359,0.025,-0.1148,-2.0255028210081996,0.0,3.9265739917755127,-1.5170021057128906,-0.0,2.024534225463867,5.090153056174078,0.0,0.27661630511283875,-1.5416739622699183,0.0,-0.008657289668917656,0.09957079589366913,0.0,0.006782866083085537,1.5195223093032837,0.0,0.012082134373486042
264.0,288.0,-0.7496,-0.0173,9.5689,-0.0333,0.0232,-0.1057,-2.025539060632223,0.0,3.940944194793701,-1.5169942378997803,-0.0,2.021576166152954,5.090136784106054,0.0,0.27290910482406616,-1.541701618825094,0.0,-0.011699952185153961,0.09960311651229858,0.0,-0.0027142339386045933,1.5195063352584839,0.0,0.010822245851159096
264.0,288.0,-0.7496,-0.0173,9.5689,-0.0333,0.0232,-0.1057,-2.025543352166647,0.0,3.9281513690948486,-1.5170543193817139,-0.0,2.021806001663208,5.090096491366186,0.0,0.2667667865753174,-1.5417140165912073,0.0,-0.019122783094644547,0.0995187982916832,0.0,0.005221063736826181,1.519538164138794,0.0,0.006272240541875362
264.0,288.0,-0.7496,-0.0173,9.5689,-0.0333,0.0232,-0.1057,-2.025550981561178,0.0,3.936178207397461,-1.5170546770095825,-0.0,2.0187764167785645,5.090108829527654,0.0,0.2792752981185913,-1.5417102018939417,0.0,-0.0044666375033557415,0.09953880310058594,0.0,0.0005141750443726778,1.5195499658584595,0.0,-0.023967210203409195
264.0,288.0,-0.7496,-0.0173,9.5689,-0.0333,0.0232,-0.1057,-2.025550981561178,0.0,3.8964996337890625,-1.516998291015625,-0.0,1.991437554359436,5.0900891599948785,0.0,0.2717892825603485,-1.541717831288473,0.0,-0.016543805599212646,0.09955895692110062,0.0,-0.00048461509868502617,1.5194981098175049,0.0,0.000276980921626091
264.0,288.0,-0.7496,-0.0173,9.5689,-0.0333,0.0232,-0.1057,-2.0255190334715785,0.0,3.945723533630371,-1.5170423984527588,-0.0,2.017706871032715,5.090104746609487,0.0,0.26209184527397156,-1.5416939894305628,0.0,-0.011836875230073929,0.09957456588745117,0.0,-0.010707402601838112,1.5194742679595947,0.0,0.020066147670149803
264.0,288.0,-0.7496,-0.0173,9.5689,-0.0333,0.0232,-0.1057,-2.025515218774313,0.0,3.9545438289642334,-1.5170061588287354,-0.0,2.043339252471924,5.0901289758975885,0.0,0.27501195669174194,-1.5417140165912073,0.0,-0.005631015636026859,0.09953470528125763,0.0,0.008858061395585537,1.5195059776306152,0.0,0.0011546746827661991
264.0,288.0,-0.7496,-0.0173,9.5689,-0.0333,0.0232,-0.1057,-2.0255314312376917,0.0,3.940541982650757,-1.5170423984527588,-0.0,2.0289700031280518,5.09008880236701,0.0,0.2682986855506897,-1.5416858831988733,0.0,-0.004993339069187641,0.09958682954311371,0.0,0.005421169102191925,1.5195143222808838,0.0,0.035880256444215775
264.0,288.0,-0.7496,-0.0173,9.5689,-0.0333,0.0232,-0.1057,-2.0255028210081996,0.0,3.913156509399414,-1.5170061588287354,-0.0,2.0307114124298096,5.090100693493643,0.0,0.27103251218795776,-1.5417059103595179,0.0,-0.0063669681549072266,0.09953471273183823,0.0,0.002888730028644204,1.5194822549819946,0.0,0.03211921453475952
264.0,288.0,-0.7496,-0.0173,9.5689,-0.0333,0.0232,-0.1057,-2.0255071125426234,0.0,3.942406177520752,-1.5170583724975586,-0.0,2.02189564704895,5.090140867024221,0.0,0.26921743154525757,-1.541689697896139,0.0,-0.014100367203354836,0.09955072402954102,0.0,0.006321239285171032,1.5195063352584839,0.0,-0.033366717398166656
264.0,288.0,-0.7496,-0.0173,9.5689,-0.0333,0.0232,-0.1057,-2.0255190334715785,0.0,3.9618496894836426,-1.5170098543167114,-0.0,2.0105814933776855,5.090112942248144,0.0,0.2580581605434418,-1.541689697896139,0.0,-0.018724866211414337,0.09961142390966415,0.0,0.00021096441196277738,1.519518256187439,0.0,-0.024065379053354263
264.0,288.0,-0.7496,-0.0173,9.5689,-0.0333,0.0232,-0.1057,-2.0255710087218226,0.0,3.9296507835388184,-1.5169942378997803,-0.0,2.065580129623413,5.090124833374777,0.0,0.2648417353630066,-1.5416820685016077,0.0,-0.006769646890461445,0.0995827466249466,0.0,-0.0037417327985167503,1.5194742679595947,0.0,-0.007965760305523872
264.0,288.0,-0.7496,-0.0173,9.5689,-0.0333,0.0232,-0.1057,-2.025555273095602,0.0,3.984933376312256,-1.5170706510543823,-0.0,2.0067365169525146,5.0900644836719415,0.0,0.2761935591697693,-1.5416696707354944,0.0,-0.006371743977069855,0.0995224192738533,0.0,-0.0074541522189974785,1.5194822549819946,0.0,0.011993806809186935
264.0,288.0,-0.7496,-0.0173,9.5689,-0.0333,0.0232,-0.1057,-2.025567194024557,0.0,3.891918659210205,-1.5170340538024902,-0.0,2.007286548614502,5.090060817986288,0.0,0.260429322719574,-1.5416815916644495,0.0,0.00020420830696821213,0.09956630319356918,0.0,-0.003999875858426094,1.5194940567016602,0.0,0.01072971522808075
269.0,275.0,-0.7137,-0.0012,9.588,-0.0382,0.0258,-0.1133,-2.025555273095602,0.0,3.944506883621216,-1.5170261859893799,-0.0,2.0392067432403564,5.090132701187887,0.0,0.2812303900718689,-1.5416939894305628,0.0,-0.011576131917536259,0.09952247887849808,0.0,0.003242665436118841,1.5194623470306396,0.0,0.02310524694621563
269.0,275.0,-0.7137,-0.0012,9.588,-0.0382,0.0258,-0.1133,-2.025543352166647,0.0,3.899721145629883,-1.5170061588287354,-0.0,2.0008416175842285,5.090084659844198,0.0,0.270180344581604,-1.5416620413409632,0.0,-0.001703444984741509,0.09951019287109375,0.0,0.014492996037006378,1.519510269165039,0.0,-0.010662876069545746
269.0,275.0,-0.7137,-0.0012,9.588,-0.0382,0.0258,-0.1133,-2.025550981561178,0.0,3.8803329467773438,-1.5170706510543823,-0.0,1.9835035800933838,5.090092855482855,0.0,0.2603837251663208,-1.5416620413409632,0.0,-0.006601362489163876,0.09961555898189545,0.0,-0.002749820239841938,1.5194742679595947,0.0,0.04191824048757553
269.0,275.0,-0.7137,-0.0012,9.588,-0.0382,0.0258,-0.1133,-2.0255633793272914,0.0,3.924389123916626,-1.5170546770095825,-0.0,2.042451858520508,5.090100693493643,0.0,0.27067601680755615,-1.5417102018939417,0.0,0.0005315113812685013,0.09954255074262619,0.0,0.0021829900797456503,1.5195341110229492,0.0,0.033696357160806656
269.0,275.0,-0.7137,-0.0012,9.588,-0.0382,0.0258,-0.1133,-2.025579114953512,0.0,3.884915828704834,-1.5170546770095825,-0.0,2.0094168186187744,5.090132999211111,0.0,0.2799464464187622,-1.5416820685016077,0.0,-0.011815653182566166,0.09961099177598953,0.0,0.002848206087946892,1.519490122795105,0.0,-0.006429704837501049
269.0,275.0,-0.7137,-0.0012,9.588,-0.0382,0.0258,-0.1133,-2.0255028210081996,0.0,3.956192970275879,-1.5170505046844482,-0.0,1.9784040451049805,5.090120780258932,0.0,0.27632540464401245,-1.5416815916644495,0.0,-0.013200147077441216,0.09960316121578217,0.0,-0.00082777114585042,1.51946222782135,0.0,0.013347554951906204
269.0,275.0,-0.7137,-0.0012,9.588,-0.0382,0.0258,-0.1133,-2.0255633793272914,0.0,3.8972816467285156,-1.51701021194458,-0.0,2.042628049850464,5.090149032860555,0.0,0.2705254554748535,-1.5417140165912073,0.0,-0.030980395153164864,0.09953880310058594,0.0,0.004279132932424545,1.5195460319519043,0.0,0.0007255575619637966
269.0,275.0,-0.7137,-0.0012,9.588,-0.0382,0.0258,-0.1133,-2.0255471668639125,0.0,3.940948486328125,-1.5170587301254272,-0.0,2.040879249572754,5.090124863177099,0.0,0.2728411853313446,-1.5416858831988733,0.0,-0.009606648236513138,0.09955442696809769,0.0,0.006415252573788166,1.5194822549819946,0.0,-0.014749391935765743
269.0,275.0,-0.7137,-0.0012,9.588,-0.0382,0.0258,-0.1133,-2.025534769097799,0.0,3.918670654296875,-1.517038106918335,-0.0,2.068235397338867,5.090144979744711,0.0,0.2720780372619629,-1.5417259375201624,0.0,-0.01665954664349556,0.09959501773118973,0.0,0.0002065428125206381,1.519518256187439,0.0,-0.017039641737937927
269.0,275.0,-0.7137,-0.0012,9.588,-0.0382,0.0258,-0.1133,-2.025543352166647,0.0,3.934566020965576,-1.51701021194458,-0.0,1.9751349687576294,5.090157168894567,0.0,0.2725527286529541,-1.541701618825094,0.0,-0.003390565747395158,0.09953880310058594,0.0,-0.007542715407907963,1.5195460319519043,0.0,-0.006621133536100388
269.0,275.0,-0.7137,-0.0012,9.588,-0.0382,0.0258,-0.1133,-2.0255586109557093,0.0,3.8985824584960938,-1.5170139074325562,-0.0,2.046325445175171,5.090169417649069,0.0,0.2582680881023407,-1.5417102018939417,0.0,-0.012114351615309715,0.09951025247573853,0.0,-0.002128707943484187,1.51947820186615,0.0,0.022724946960806847
269.0,275.0,-0.7137,-0.0012,9.588,-0.0382,0.0258,-0.1133,-2.025539060632223,0.0,3.9104197025299072,-1.5170098543167114,-0.0,2.03592586517334,5.090128528862753,0.0,0.24907541275024414,-1.5417059103595179,0.0,-0.010480746626853943,0.09953880310058594,0.0,0.0004499688511714339,1.5194822549819946,0.0,0.0028870271053165197
267.0,285.0,-0.6808,-0.003,9.5773,-0.0307,0.024,-0.1106,-2.0255633793272914,0.0,3.9198784828186035,-1.5169861316680908,-0.0,2.0309391021728516,5.090092855482855,0.0,0.269342303276062,-1.5416620413409632,0.0,-0.011962074786424637,0.09959907084703445,0.0,-0.0016605537384748459,1.51947820186615,0.0,0.05650310218334198
267.0,285.0,-0.6808,-0.003,9.5773,-0.0307,0.024,-0.1106,-2.0255266628661097,0.0,3.8900461196899414,-1.5170180797576904,-0.0,2.033738613128662,5.090096938401022,0.0,0.2720879018306732,-1.5416939894305628,0.0,-0.003679232904687524,0.09953881800174713,0.0,0.006899738218635321,1.51950204372406,0.0,-0.01642637699842453
267.0,285.0,-0.6808,-0.003,9.5773,-0.0307,0.024,-0.1106,-2.0255071125426234,0.0,3.9301884174346924,-1.5169979333877563,-0.0,2.07269024848938,5.090140867024221,0.0,0.27615851163864136,-1.5417383352862757,0.0,-0.002483800984919071,0.09953835606575012,0.0,0.0011778536718338728,1.519490122795105,0.0,-0.02573614940047264
267.0,285.0,-0.6808,-0.003,9.5773,-0.0307,0.024,-0.1106,-2.025534769097799,0.0,3.917116165161133,-1.5170061588287354,-0.0,2.040030002593994,5.090116846352377,0.0,0.26695218682289124,-1.5416815916644495,0.0,-0.013525029644370079,0.09953073412179947,0.0,0.0019445321522653103,1.5195342302322388,0.0,0.002738393610343337
267.0,285.0,-0.6808,-0.003,9.5773,-0.0307,0.024,-0.1106,-2.025579114953512,0.0,3.924675464630127,-1.517030119895935,-0.0,2.0852584838867188,5.090144920140066,0.0,0.2772137522697449,-1.5416939894305628,0.0,-0.016813481226563454,0.09956672787666321,0.0,-0.00336098694242537,1.5194981098175049,0.0,-0.025947410613298416
267.0,285.0,-0.6808,-0.003,9.5773,-0.0307,0.024,-0.1106,-2.025543352166647,0.0,3.8994345664978027,-1.5169861316680908,-0.0,2.0365564823150635,5.090104806214132,0.0,0.26687952876091003,-1.5416739622699183,0.0,-0.009400720708072186,0.0996030792593956,0.0,0.0011925665894523263,1.51947820186615,0.0,-0.002974958159029484
267.0,285.0,-0.6808,-0.003,9.5773,-0.0307,0.024,-0.1106,-2.0255309544005335,0.0,3.915349245071411,-1.5170261859893799,-0.0,2.0333635807037354,5.090124863177099,0.0,0.266525000333786,-1.5416739622699183,0.0,-0.008985992521047592,0.09951841086149216,0.0,-0.0061472696252167225,1.5194940567016602,0.0,-0.033432748168706894
267.0,285.0,-0.6808,-0.003,9.5773,-0.0307,0.024,-0.1106,-2.025522848168844,0.0,3.90971040725708,-1.5170340538024902,-0.0,2.031259536743164,5.090156781464376,0.0,0.2713358998298645,-1.5416739622699183,0.0,-0.008368320763111115,0.09952675551176071,0.0,-0.006842770613729954,1.51947021484375,0.0,-0.029580002650618553
267.0,285.0,-0.6808,-0.003,9.5773,-0.0307,0.024,-0.1106,-2.025555273095602,0.0,3.8875017166137695,-1.5170021057128906,-0.0,2.015030860900879,5.090132701187887,0.0,0.25840267539024353,-1.5417059103595179,0.0,-0.002177454764023423,0.09955481439828873,0.0,-0.003214848693460226,1.519490122795105,0.0,0.005624322220683098
267.0,285.0,-0.6808,-0.003,9.5773,-0.0307,0.024,-0.1106,-2.025579114953512,0.0,3.8701443672180176,-1.5170382261276245,-0.0,2.033968925476074,5.090072798519888,0.0,0.26310211420059204,-1.5417426268206995,0.0,-0.006053502671420574,0.09957903623580933,0.0,0.005294282920658588,1.519490122795105,0.0,0.04301071539521217
267.0,285.0,-0.6808,-0.003,9.5773,-0.0307,0.024,-0.1106,-2.025522848168844,0.0,3.9064126014709473,-1.5169979333877563,-0.0,2.0450387001037598,5.0901488838489435,0.0,0.26611921191215515,-1.5416701475726526,0.0,0.003114758525043726,0.09956672042608261,0.0,-0.004935483913868666,1.5194584131240845,0.0,0.0022502359934151173
267.0,285.0,-0.6808,-0.003,9.5773,-0.0307,0.024,-0.1106,-2.0255710087218226,0.0,3.893401622772217,-1.5170546770095825,-0.0,1.9825947284698486,5.09011276343421,0.0,0.28386828303337097,-1.5417221228228968,0.0,-0.027827318757772446,0.0995306521654129,0.0,0.0020901914685964584,1.519490122795105,0.0,0.06468866020441055
266.0,287.0,-0.719,-0.0084,9.6694,-0.0379,0.0231,-0.1101,-2.025522848168844,0.0,3.9201149940490723,-1.516989827156067,-0.0,2.068328380584717,5.090140539198675,0.0,0.28244972229003906,-1.5416815916644495,0.0,-0.010305890813469887,0.0995626449584961,0.0,0.00803958997130394,1.5195143222808838,0.0,-0.007135771214962006
266.0,287.0,-0.719,-0.0084,9.6694,-0.0379,0.0231,-0.1101,-2.025534769097799,0.0,3.9305953979492188,-1.5170382261276245,-0.0,2.0698561668395996,5.09015246012763,0.0,0.2738547921180725,-1.5417097250567835,0.0,-0.013404278084635735,0.09948227554559708,0.0,0.00047419779002666473,1.5194981098175049,0.0,0.017009245231747627
266.0,287.0,-0.719,-0.0084,9.6694,-0.0379,0.0231,-0.1101,-2.025510927239889,0.0,3.950925350189209,-1.5169901847839355,-0.0,2.0323832035064697,5.0900969980056665,0.0,0.2634039521217346,-1.5416777769671839,0.0,-0.008149133063852787,0.09951838105916977,0.0,0.008092637173831463,1.5194861888885498,0.0,0.01504584215581417
266.0,287.0,-0.719,-0.0084,9.6694,-0.0379,0.0231,-0.1101,-2.025539060632223,0.0,3.9347620010375977,-1.5170624256134033,-0.0,2.0442676544189453,5.090140539198675,0.0,0.27201196551322937,-1.5417020956622522,0.0,-0.013108225539326668,0.09957452863454819,0.0,0.0005487848538905382,1.5194741487503052,0.0,-0.022746484726667404
266.0,287.0,-0.719,-0.0084,9.6694,-0.0379,0.0231,-0.1101,-2.0255314312376917,0.0,3.9548020362854004,-1.5170259475708008,-0.0,2.021334409713745,5.090089010983267,0.0,0.2709731459617615,-1.5417383352862757,0.0,-0.01846349984407425,0.099558986723423,0.0,-0.0034031402319669724,1.5195063352584839,0.0,0.01744743064045906
266.0,287.0,-0.719,-0.0084,9.6694,-0.0379,0.0231,-0.1101,-2.0255190334715785,0.0,3.9027371406555176,-1.5170706510543823,-0.0,2.013742208480835,5.090152430325308,0.0,0.2704717218875885,-1.5416739622699183,0.0,-0.009205522015690804,0.09958682954311371,0.0,-0.002649303525686264,1.5195460319519043,0.0,-0.004102251026779413
266.0,287.0,-0.719,-0.0084,9.6694,-0.0379,0.0231,-0.1101,-2.025478025475973,0.0,3.855422019958496,-1.5170221328735352,-0.0,2.074693202972412,5.090128648072042,0.0,0.26106423139572144,-1.5416978041278284,0.0,-0.010261064395308495,0.09956672042608261,0.0,0.003957122564315796,1.5194742679595947,0.0,0.013500858098268509
266.0,287.0,-0.719,-0.0084,9.6694,-0.0379,0.0231,-0.1101,-2.025510927239889,0.0,3.9133925437927246,-1.517029881477356,-0.0,2.0335350036621094,5.090112793236532,0.0,0.26281124353408813,-1.5416777769671839,0.0,-0.02221463993191719,0.09952247887849808,0.0,0.011014416813850403,1.51947820186615,0.0,0.07890525460243225
266.0,287.0,-0.719,-0.0084,9.6694,-0.0379,0.0231,-0.1101,-2.0255028210081996,0.0,3.9073033332824707,-1.5170179605484009,-0.0,2.059288740158081,5.090120810061254,0.0,0.2695682942867279,-1.5416739622699183,0.0,8.358340710401535e-05,0.09951020777225494,0.0,0.014919309876859188,1.5194861888885498,0.0,-0.02207532711327076
266.0,287.0,-0.719,-0.0084,9.6694,-0.0379,0.0231,-0.1101,-2.025539060632223,0.0,3.8953018188476562,-1.5170382261276245,-0.0,2.007744312286377,5.090168702393331,0.0,0.2708069682121277,-1.5416696707354944,0.0,-0.014062918722629547,0.09955073893070221,0.0,0.006497965659946203,1.5194981098175049,0.0,0.016669675707817078
266.0,287.0,-0.719,-0.0084,9.6694,-0.0379,0.0231,-0.1101,-2.0255314312376917,0.0,3.917133331298828,-1.5170259475708008,-0.0,2.032648801803589,5.090152817755499,0.0,0.26588520407676697,-1.5416777769671839,0.0,-0.015198362059891224,0.09951432049274445,0.0,-0.005578686483204365,1.5195341110229492,0.0,0.0018248045817017555
266.0,287.0,-0.719,-0.0084,9.6694,-0.0379,0.0231,-0.1101,-2.025543352166647,0.0,3.9205100536346436,-1.5170021057128906,-0.0,2.059704542160034,5.090148854046621,0.0,0.2720801830291748,-1.5417059103595179,0.0,0.0012854295782744884,0.09955902397632599,0.0,0.005872265435755253,1.519510269165039,0.0,-0.012465969659388065
266.0,287.0,-0.719,-0.0084,9.6694,-0.0379,0.0231,-0.1101,-2.025510927239889,0.0,3.9063546657562256,-1.5170587301254272,-0.0,2.005404472351074,5.0900969980056665,0.0,0.27216172218322754,-1.5416939894305628,0.0,-0.0038696627598255873,0.09955478459596634,0.0,0.000993263442069292,1.5194623470306396,0.0,-0.018034612759947777
266.0,285.0,-0.6999,-0.0233,9.5761,-0.0389,0.0241,-0.1064,-2.0255190334715785,0.0,3.8492178916931152,-1.5170546770095825,-0.0,2.0121655464172363,5.090085166483679,0.0,0.26614195108413696,-1.5416982809649866,0.0,-0.0187392495572567,0.09953472763299942,0.0,0.005203103646636009,1.51943838596344,0.0,0.04344752058386803
266.0,285.0,-0.6999,-0.0233,9.5761,-0.0389,0.0241,-0.1064,-2.0255071125426234,0.0,3.921827793121338,-1.5169979333877563,-0.0,1.977111577987671,5.090112823038854,0.0,0.2667118310928345,-1.5417426268206995,0.0,-0.02617483213543892,0.09953880310058594,0.0,-0.00018995648133568466,1.5194981098175049,0.0,-0.0462336540222168
266.0,285.0,-0.6999,-0.0233,9.5761,-0.0389,0.0241,-0.1064,-2.025515218774313,0.0,3.8868043422698975,-1.5170179605484009,-0.0,2.04543399810791,5.090120780258932,0.0,0.2706370949745178,-1.5417102018939417,0.0,-0.004294338170439005,0.09957079589366913,0.0,-0.005673724226653576,1.51951003074646,0.0,-0.003867319319397211
266.0,285.0,-0.6999,-0.0233,9.5761,-0.0389,0.0241,-0.1064,-2.0255147419371546,0.0,3.9352641105651855,-1.51701021194458,-0.0,2.0246081352233887,5.090108889132299,0.0,0.2677680552005768,-1.5416982809649866,0.0,-0.002865651622414589,0.09953880310058594,0.0,-0.00039747601840645075,1.5195024013519287,0.0,-0.04516052082180977
266.0,285.0,-0.6999,-0.0233,9.5761,-0.0389,0.0241,-0.1064,-2.0255466900267542,0.0,3.933574676513672,-1.5170546770095825,-0.0,1.9929661750793457,5.090101021319189,0.0,0.2654513418674469,-1.5417059103595179,0.0,-0.020285695791244507,0.0995384082198143,0.0,-0.00033610500395298004,1.5194822549819946,0.0,-0.023445427417755127
266.0,285.0,-0.6999,-0.0233,9.5761,-0.0389,0.0241,-0.1064,-2.025534769097799,0.0,3.9203529357910156,-1.5169861316680908,-0.0,2.034306526184082,5.090061324625768,0.0,0.2711322605609894,-1.5416982809649866,0.0,-0.0009431869257241488,0.0995626449584961,0.0,0.011008836328983307,1.5194941759109497,0.0,0.027303937822580338
266.0,285.0,-0.6999,-0.0233,9.5761,-0.0389,0.0241,-0.1064,-2.0255471668639125,0.0,3.9472174644470215,-1.517066478729248,-0.0,1.9999120235443115,5.090120780258932,0.0,0.26667630672454834,-1.5416901747332972,0.0,-0.014488527551293373,0.09954297542572021,0.0,-0.00906296819448471,1.5194623470306396,0.0,0.02554873377084732
266.0,285.0,-0.6999,-0.0233,9.5761,-0.0389,0.0241,-0.1064,-2.025562902490133,0.0,3.905566692352295,-1.517046332359314,-0.0,2.064941644668579,5.090069311648168,0.0,0.26914894580841064,-1.5416901747332972,0.0,0.0019517531618475914,0.09952656924724579,0.0,0.0028224545530974865,1.519538164138794,0.0,-0.0237603597342968
266.0,285.0,-0.6999,-0.0233,9.5761,-0.0389,0.0241,-0.1064,-2.0255471668639125,0.0,3.9227352142333984,-1.5170464515686035,-0.0,1.993774652481079,5.090160715370931,0.0,0.2677379846572876,-1.5416939894305628,0.0,-0.003047267673537135,0.09949468076229095,0.0,0.0033996792044490576,1.5195060968399048,0.0,-0.04203648492693901
266.0,285.0,-0.6999,-0.0233,9.5761,-0.0389,0.0241,-0.1064,-2.025543352166647,0.0,3.899886131286621,-1.5170342922210693,-0.0,2.0382213592529297,5.090128677874365,0.0,0.2774243950843811,-1.5417102018939417,0.0,-0.006985869258642197,0.09953473508358002,0.0,-0.008620290085673332,1.5195221900939941,0.0,0.02159823291003704
266.0,285.0,-0.6999,-0.0233,9.5761,-0.0389,0.0241,-0.1064,-2.0255753002562464,0.0,3.892695903778076,-1.5170866250991821,-0.0,2.0244479179382324,5.090148496418752,0.0,0.2758612632751465,-1.5417135397540491,0.0,-0.007038838230073452,0.09950603544712067,0.0,0.0015820710686966777,1.519490122795105,0.0,0.012800673022866249
266.0,285.0,-0.6999,-0.0233,9.5761,-0.0389,0.0241,-0.1064,-2.0255071125426234,0.0,3.9251065254211426,-1.5169943571090698,-0.0,2.0207245349884033,5.090096938401022,0.0,0.27044910192489624,-1.5417097250567835,0.0,-0.014980779960751534,0.09953469783067703,0.0,0.006368173286318779,1.51950204372406,0.0,0.03393761068582535
264.0,290.0,-0.6843,0.0072,9.6515,-0.0421,0.0244,-0.1179,-2.025550981561178,0.0,3.891857147216797,-1.5170259475708008,-0.0,2.0338573455810547,5.090124714165487,0.0,0.27806413173675537,-1.5416939894305628,0.0,-0.009066618047654629,0.09955071657896042,0.0,-0.01196906715631485,1.51950204372406,0.0,0.008946968242526054
264.0,290.0,-0.6843,0.0072,9.6515,-0.0421,0.0244,-0.1179,-2.0255314312376917,0.0,3.961256980895996,-1.5170340538024902,-0.0,2.0380632877349854,5.090144532709875,0.0,0.27232611179351807,-1.5416939894305628,0.0,-0.010848760604858398,0.0995827466249466,0.0,0.00021095614647492766,1.519490122795105,0.0,0.008763222955167294
264.0,290.0,-0.6843,0.0072,9.6515,-0.0421,0.0244,-0.1179,-2.025543352166647,0.0,3.8987104892730713,-1.5170142650604248,-0.0,2.0642898082733154,5.090116876154699,0.0,0.26559123396873474,-1.541689697896139,0.0,-0.031229957938194275,0.09956668317317963,0.0,-0.007233785465359688,1.5194742679595947,0.0,0.0171223022043705
264.0,290.0,-0.6843,0.0072,9.6515,-0.0421,0.0244,-0.1179,-2.0255471668639125,0.0,3.9042904376983643,-1.5169860124588013,-0.0,2.0408387184143066,5.090100931912222,0.0,0.25614821910858154,-1.541701618825094,0.0,-0.013311609625816345,0.09953882545232773,0.0,-0.01407991535961628,1.51950204372406,0.0,0.004651498049497604
264.0,290.0,-0.6843,0.0072,9.6515,-0.0421,0.0244,-0.1179,-2.0255309544005335,0.0,3.904776096343994,-1.5170340538024902,-0.0,2.0235133171081543,5.090128677874365,0.0,0.2699943482875824,-1.5417102018939417,0.0,-0.005144589580595493,0.09953472763299942,0.0,0.009187388233840466,1.5194981098175049,0.0,0.022554738447070122
264.0,290.0,-0.6843,0.0072,9.6515,-0.0421,0.0244,-0.1179,-2.025543352166647,0.0,3.8987531661987305,-1.5170422792434692,-0.0,2.0114994049072266,5.090136635094442,0.0,0.2654218077659607,-1.5416982809649866,0.0,-0.007902933284640312,0.0995384082198143,0.0,-0.0035519348457455635,1.5194940567016602,0.0,0.03427920490503311
264.0,290.0,-0.6843,0.0072,9.6515,-0.0421,0.0244,-0.1179,-2.0255190334715785,0.0,3.9393091201782227,-1.5170142650604248,-0.0,2.049199104309082,5.0901366648967645,0.0,0.26733821630477905,-1.5417059103595179,0.0,-0.008892912417650223,0.09958682954311371,0.0,0.005483364686369896,1.5195143222808838,0.0,-0.013675959780812263
264.0,290.0,-0.6843,0.0072,9.6515,-0.0421,0.0244,-0.1179,-2.025543352166647,0.0,3.9283061027526855,-1.5170382261276245,-0.0,2.0531630516052246,5.090088981180944,0.0,0.2725064754486084,-1.5417340437518519,0.0,-0.011950322426855564,0.09951838105916977,0.0,0.0008054201025515795,1.5194861888885498,0.0,-0.004749176558107138
264.0,290.0,-0.6843,0.0072,9.6515,-0.0421,0.0244,-0.1179,-2.0255753002562464,0.0,3.93009614944458,-1.5170179605484009,-0.0,2.0187156200408936,5.090108859329977,0.0,0.27460965514183044,-1.541706387196676,0.0,-0.01709423027932644,0.09951025247573853,0.0,0.007767711766064167,1.5194505453109741,0.0,0.01783653162419796
264.0,290.0,-0.6843,0.0072,9.6515,-0.0421,0.0244,-0.1179,-2.025555273095602,0.0,3.973465919494629,-1.5170506238937378,-0.0,2.0708022117614746,5.090132701187887,0.0,0.27075380086898804,-1.5416858831988733,0.0,-0.00020147429313510656,0.09951025247573853,0.0,-0.008171455934643745,1.5195221900939941,0.0,0.04254653677344322
264.0,290.0,-0.6843,0.0072,9.6515,-0.0421,0.0244,-0.1179,-2.025566717187399,0.0,3.9032249450683594,-1.5170302391052246,-0.0,2.0468156337738037,5.090112852841177,0.0,0.2737772762775421,-1.5417221228228968,0.0,-0.023725111037492752,0.09952659904956818,0.0,-0.001119292457588017,1.5195380449295044,0.0,-0.035506583750247955
264.0,290.0,-0.6843,0.0072,9.6515,-0.0421,0.0244,-0.1179,-2.0255147419371546,0.0,3.9373443126678467,-1.51701021194458,-0.0,2.0447258949279785,5.0901488838489435,0.0,0.27206951379776,-1.5416620413409632,0.0,-0.015885645523667336,0.0995626449584961,0.0,-0.0019416322465986013,1.5194861888885498,0.0,-0.02043621800839901
271.0,283.0,-0.7101,0.0066,9.5091,-0.0406,0.0261,-0.1142,-2.025527139703268,0.0,3.9215688705444336,-1.517001986503601,-0.0,2.0647764205932617,5.090148854046621,0.0,0.2663079500198364,-1.5417059103595179,0.0,-0.016791105270385742,0.0995224118232727,0.0,0.009306990541517735,1.5195460319519043,0.0,-0.02731977216899395
271.0,283.0,-0.7101,0.0066,9.5091,-0.0406,0.0261,-0.1142,-2.025539060632223,0.0,3.9550533294677734,-1.5170302391052246,-0.0,2.0445797443389893,5.090124714165487,0.0,0.2674497961997986,-1.5416777769671839,0.0,-0.03330034762620926,0.09958275407552719,0.0,0.011067070998251438,1.5194664001464844,0.0,-0.046596623957157135
271.0,283.0,-0.7101,0.0066,9.5091,-0.0406,0.0261,-0.1142,-2.0255710087218226,0.0,3.9004361629486084,-1.51701021194458,-0.0,2.051215887069702,5.0901366648967645,0.0,0.267134428024292,-1.541706387196676,0.0,-0.014680270105600357,0.09955073893070221,0.0,0.0059246039018034935,1.5194822549819946,0.0,-0.007709226105362177
271.0,283.0,-0.7101,0.0066,9.5091,-0.0406,0.0261,-0.1142,-2.0255872211852015,0.0,3.949604034423828,-1.5170061588287354,-0.0,2.0307657718658447,5.090128707676687,0.0,0.26487427949905396,-1.5417059103595179,0.0,-0.003679291345179081,0.09958279132843018,0.0,0.005834339186549187,1.519530177116394,0.0,0.01963532529771328
271.0,283.0,-0.7101,0.0066,9.5091,-0.0406,0.0261,-0.1142,-2.02549471477651,0.0,3.9462947845458984,-1.51701021194458,-0.0,1.9967622756958008,5.090096938401022,0.0,0.2738972008228302,-1.5416658560382288,0.0,-0.00545661523938179,0.09955480694770813,0.0,0.0026171961799263954,1.5195059776306152,0.0,0.009352771565318108
271.0,283.0,-0.7101,0.0066,9.5091,-0.0406,0.0261,-0.1142,-2.0255872211852015,0.0,3.9356560707092285,-1.5170422792434692,-0.0,1.997745394706726,5.090120780258932,0.0,0.2641863226890564,-1.5417302290545862,0.0,-0.006837682798504829,0.09954258799552917,0.0,0.012272777035832405,1.5195419788360596,0.0,0.023209894075989723
271.0,283.0,-0.7101,0.0066,9.5091,-0.0406,0.0261,-0.1142,-2.0255309544005335,0.0,3.9120264053344727,-1.5170061588287354,-0.0,2.018868923187256,5.090089010983267,0.0,0.27649447321891785,-1.5416777769671839,0.0,-0.015886930748820305,0.09949006140232086,0.0,0.0032691434025764465,1.5194822549819946,0.0,-0.015196958556771278
271.0,283.0,-0.7101,0.0066,9.5091,-0.0406,0.0261,-0.1142,-2.0255190334715785,0.0,3.894587516784668,-1.5170061588287354,-0.0,2.0007052421569824,5.090088981180944,0.0,0.27165696024894714,-1.5417259375201624,0.0,-0.01686130091547966,0.09950240701436996,0.0,0.00461561419069767,1.5194822549819946,0.0,0.026074128225445747
271.0,283.0,-0.7101,0.0066,9.5091,-0.0406,0.0261,-0.1142,-2.0255633793272914,0.0,3.900937795639038,-1.5169942378997803,-0.0,2.0391483306884766,5.090073185950079,0.0,0.26865172386169434,-1.5417059103595179,0.0,-0.01838752254843712,0.09958677738904953,0.0,0.014413478784263134,1.5194822549819946,0.0,-0.002854675054550171
271.0,283.0,-0.7101,0.0066,9.5091,-0.0406,0.0261,-0.1142,-2.0255590877928675,0.0,3.920259475708008,-1.5170340538024902,-0.0,1.9814702272415161,5.090108829527654,0.0,0.2595626711845398,-1.5416858831988733,0.0,-0.006358728744089603,0.09956672042608261,0.0,0.005671603139489889,1.5194861888885498,0.0,-0.04358908161520958
271.0,283.0,-0.7101,0.0066,9.5091,-0.0406,0.0261,-0.1142,-2.025522848168844,0.0,3.9711928367614746,-1.517029881477356,-0.0,2.028648853302002,5.09013261178092,0.0,0.26457875967025757,-1.5416815916644495,0.0,-0.011842815205454826,0.09957865625619888,0.0,0.003952761646360159,1.5194703340530396,0.0,-0.0077216606587171555
271.0,283.0,-0.7101,0.0066,9.5091,-0.0406,0.0261,-0.1142,-2.025522848168844,0.0,3.9309306144714355,-1.5169901847839355,-0.0,2.04060697555542,5.0901488838489435,0.0,0.2604150176048279,-1.5416820685016077,0.0,-0.019376961514353752,0.0995466485619545,0.0,0.009320864453911781,1.519490122795105,0.0,-0.01619560457766056
271.0,283.0,-0.7101,0.0066,9.5091,-0.0406,0.0261,-0.1142,-2.025510927239889,0.0,3.9108083248138428,-1.5170462131500244,-0.0,1.999316692352295,5.090128677874365,0.0,0.26618117094039917,-1.5416935125934046,0.0,-0.003143657697364688,0.0995827168226242,0.0,-0.004438681993633509,1.5195341110229492,0.0,0.00204332172870636
275.0,280.0,-0.6993,-0.015,9.5707,-0.0339,0.0186,-0.1145,-2.0255590877928675,0.0,3.9215946197509766,-1.517029881477356,-0.0,2.05289888381958,5.09014059880332,0.0,0.27171921730041504,-1.5416420141803187,0.0,-0.01836041733622551,0.09953472763299942,0.0,0.009495753794908524,1.5194940567016602,0.0,0.0019064517691731453
275.0,280.0,-0.6993,-0.015,9.5707,-0.0339,0.0186,-0.1145,-2.025543352166647,0.0,3.929358959197998,-1.5170382261276245,-0.0,2.0026347637176514,5.090116816550054,0.0,0.2538333237171173,-1.5417097250567835,0.0,-0.010167161002755165,0.09957898408174515,0.0,-0.004136320669203997,1.519510269165039,0.0,0.01597505807876587
275.0,280.0,-0.6993,-0.015,9.5707,-0.0339,0.0186,-0.1145,-2.025527139703268,0.0,3.9033145904541016,-1.5170221328735352,-0.0,2.028120517730713,5.090116816550054,0.0,0.27372851967811584,-1.541689697896139,0.0,-0.00926637090742588,0.09955071657896042,0.0,-0.014236305840313435,1.5194861888885498,0.0,0.026217903941869736
275.0,280.0,-0.6993,-0.015,9.5707,-0.0339,0.0186,-0.1145,-2.0255590877928675,0.0,3.9247922897338867,-1.517110824584961,-0.0,1.9802725315093994,5.090144860535421,0.0,0.2698392868041992,-1.5417140165912073,0.0,-0.014756856486201286,0.09956671297550201,0.0,0.0031744218431413174,1.519530177116394,0.0,-0.03097103163599968
275.0,280.0,-0.6993,-0.015,9.5707,-0.0339,0.0186,-0.1145,-2.0255753002562464,0.0,3.884862184524536,-1.5170183181762695,-0.0,2.0153632164001465,5.0901488838489435,0.0,0.27595919370651245,-1.5416939894305628,0.0,-0.005211222916841507,0.09952248632907867,0.0,-0.00786188617348671,1.519510269165039,0.0,-0.006203719414770603
275.0,280.0,-0.6993,-0.015,9.5707,-0.0339,0.0186,-0.1145,-2.0255028210081996,0.0,3.924487829208374,-1.516969919204712,-0.0,2.0229272842407227,5.0900770900543115,0.0,0.25937479734420776,-1.5417102018939417,0.0,-0.01004899200052023,0.09951028972864151,0.0,-0.00507664168253541,1.5194664001464844,0.0,0.015749016776680946
275.0,280.0,-0.6993,-0.015,9.5707,-0.0339,0.0186,-0.1145,-2.0254985294737757,0.0,3.9055888652801514,-1.517054796218872,-0.0,2.0184643268585205,5.0901366648967645,0.0,0.2564089298248291,-1.5416939894305628,0.0,-0.014057962223887444,0.09952666610479355,0.0,0.001598704606294632,1.5195460319519043,0.0,0.011734465137124062
275.0,280.0,-0.6993,-0.015,9.5707,-0.0339,0.0186,-0.1145,-2.025539060632223,0.0,3.9323034286499023,-1.5169901847839355,-0.0,2.0680441856384277,5.090089070587911,0.0,0.2669118046760559,-1.5416620413409632,0.0,-0.013822373002767563,0.09958680719137192,0.0,0.00043721566908061504,1.5194861888885498,0.0,0.011806860566139221
275.0,280.0,-0.6993,-0.015,9.5707,-0.0339,0.0186,-0.1145,-2.025555273095602,0.0,3.911181926727295,-1.516969919204712,-0.0,2.0093047618865967,5.090100931912222,0.0,0.2711437940597534,-1.5417102018939417,0.0,-0.010765360668301582,0.0995306745171547,0.0,-0.0007822979241609573,1.5195221900939941,0.0,0.03586713969707489
275.0,280.0,-0.6993,-0.015,9.5707,-0.0339,0.0186,-0.1145,-2.025515218774313,0.0,3.892037868499756,-1.5170506238937378,-0.0,2.0857582092285156,5.090156811266699,0.0,0.2680840790271759,-1.541689697896139,0.0,-0.014373300597071648,0.09955478459596634,0.0,0.0064870682545006275,1.5194940567016602,0.0,-0.037043243646621704
275.0,280.0,-0.6993,-0.015,9.5707,-0.0339,0.0186,-0.1145,-2.025534769097799,0.0,3.892058849334717,-1.5170261859893799,-0.0,2.052009344100952,5.0901647982890985,0.0,0.27730271220207214,-1.5417259375201624,0.0,-0.015695564448833466,0.09959491342306137,0.0,-0.005662564653903246,1.5195143222808838,0.0,0.00853109359741211
275.0,280.0,-0.6993,-0.015,9.5707,-0.0339,0.0186,-0.1145,-2.0255071125426234,0.0,3.8958213329315186,-1.5170340538024902,-0.0,2.0556814670562744,5.090188580542364,0.0,0.2785184979438782,-1.5416620413409632,0.0,-0.009858328849077225,0.09959089010953903,0.0,-0.0037555075250566006,1.519490122795105,0.0,0.006618694867938757
272.0,290.0,-0.7759,0.0012,9.5438,-0.0457,0.0269,-0.1177,-2.0255590877928675,0.0,3.9157700538635254,-1.517001986503601,-0.0,2.0158915519714355,5.090069132834234,0.0,0.27210497856140137,-1.541717831288473,0.0,-0.0012790026376023889,0.09956703335046768,0.0,-0.0018784204730764031,1.51950204372406,0.0,0.002715296810492873
272.0,290.0,-0.7759,0.0012,9.5438,-0.0457,0.0269,-0.1177,-2.025539060632223,0.0,3.9257287979125977,-1.517054557800293,-0.0,2.004584550857544,5.090156811266699,0.0,0.2640420198440552,-1.541689697896139,0.0,-0.009136895649135113,0.099482461810112,0.0,0.0015824565198272467,1.5195499658584595,0.0,-0.05172933638095856
272.0,290.0,-0.7759,0.0012,9.5438,-0.0457,0.0269,-0.1177,-2.0255147419371546,0.0,3.889737606048584,-1.5170221328735352,-0.0,2.0197696685791016,5.090116816550054,0.0,0.26609715819358826,-1.5416858831988733,0.0,-0.01861221343278885,0.09955073148012161,0.0,0.010186141356825829,1.5195143222808838,0.0,0.03359100967645645
272.0,290.0,-0.7759,0.0012,9.5438,-0.0457,0.0269,-0.1177,-2.025555273095602,0.0,3.9665989875793457,-1.5170340538024902,-0.0,1.9767638444900513,5.090096908598699,0.0,0.26250356435775757,-1.5417059103595179,0.0,-0.01592046394944191,0.09952250868082047,0.0,0.0023571110796183348,1.519530177116394,0.0,-0.020721709355711937
272.0,290.0,-0.7759,0.0012,9.5438,-0.0457,0.0269,-0.1177,-2.025543352166647,0.0,3.9548559188842773,-1.517001986503601,-0.0,2.0359416007995605,5.09014059880332,0.0,0.25533920526504517,-1.5416820685016077,0.0,-0.018845997750759125,0.09952249377965927,0.0,-0.0009376212838105857,1.5195221900939941,0.0,-0.08772705495357513
272.0,290.0,-0.7759,0.0012,9.5438,-0.0457,0.0269,-0.1177,-2.0255633793272914,0.0,3.9667153358459473,-1.5170344114303589,-0.0,2.0097835063934326,5.090104895621099,0.0,0.26541927456855774,-1.5416696707354944,0.0,-0.02143128216266632,0.09956265240907669,0.0,-0.0057944306172430515,1.519518256187439,0.0,-0.05428043752908707
272.0,290.0,-0.7759,0.0012,9.5438,-0.0457,0.0269,-0.1177,-2.025539060632223,0.0,3.9102120399475098,-1.517038345336914,-0.0,2.005371570587158,5.090100961714544,0.0,0.26559799909591675,-1.5417259375201624,0.0,-0.007179358974099159,0.0995626449584961,0.0,-0.011821016669273376,1.5195059776306152,0.0,0.0331585519015789
272.0,290.0,-0.7759,0.0012,9.5438,-0.0457,0.0269,-0.1177,-2.025539537469381,0.0,3.9033360481262207,-1.5169777870178223,-0.0,1.9937880039215088,5.090128677874365,0.0,0.25986945629119873,-1.5416982809649866,0.0,-0.006492829881608486,0.09950248152017593,0.0,-0.010677395388484001,1.5195261240005493,0.0,-0.037392448633909225
272.0,290.0,-0.7759,0.0012,9.5438,-0.0457,0.0269,-0.1177,-2.025515218774313,0.0,3.933229923248291,-1.5170340538024902,-0.0,2.026991844177246,5.090140628605642,0.0,0.27112093567848206,-1.541701618825094,0.0,-0.002793892053887248,0.09955857694149017,0.0,-0.0056761582382023335,1.5195063352584839,0.0,-0.01659998670220375
272.0,290.0,-0.7759,0.0012,9.5438,-0.0457,0.0269,-0.1177,-2.025595327416891,0.0,3.900509834289551,-1.5170061588287354,-0.0,2.034280776977539,5.090100961714544,0.0,0.2643135190010071,-1.5416858831988733,0.0,-0.007511455565690994,0.09955104440450668,0.0,-0.0033268104307353497,1.519490122795105,0.0,0.005383494775742292
272.0,290.0,-0.7759,0.0012,9.5438,-0.0457,0.0269,-0.1177,-2.025499006310934,0.0,3.9110376834869385,-1.5170261859893799,-0.0,2.0506622791290283,5.0901247439678095,0.0,0.26044806838035583,-1.541689697896139,0.0,-0.016846254467964172,0.09952246397733688,0.0,0.011386875063180923,1.5195341110229492,0.0,0.011897515505552292
272.0,290.0,-0.7759,0.0012,9.5438,-0.0457,0.0269,-0.1177,-2.0255309544005335,0.0,3.875115394592285,-1.5170179605484009,-0.0,2.022616147994995,5.090120780258932,0.0,0.2623078227043152,-1.5416939894305628,0.0,-0.011569994501769543,0.09955894201993942,0.0,-0.011960572563111782,1.51950204372406,0.0,-0.0007797684520483017
274.0,274.0,-0.7555,0.0108,9.5641,-0.0362,0.0307,-0.1168,-2.0255352459349574,0.0,3.903593063354492,-1.5169901847839355,-0.0,2.021991014480591,5.090112823038854,0.0,0.26880204677581787,-1.5417059103595179,0.0,-0.013767294585704803,0.09960716962814331,0.0,0.00010012881830334663,1.519490122795105,0.0,-0.010843493044376373
274.0,274.0,-0.7555,0.0108,9.5641,-0.0362,0.0307,-0.1168,-2.025539060632223,0.0,3.922687530517578,-1.5170179605484009,-0.0,2.0755014419555664,5.0901366648967645,0.0,0.275716632604599,-1.5417221228228968,0.0,-0.025936322286725044,0.0995306745171547,0.0,-0.006370973773300648,1.5195221900939941,0.0,0.004836553707718849
274.0,274.0,-0.7555,0.0108,9.5641,-0.0362,0.0307,-0.1168,-2.0255590877928675,0.0,3.896735191345215,-1.5169777870178223,-0.0,2.072537660598755,5.090112793236532,0.0,0.269278347492218,-1.5417464415179651,0.0,-0.014436645433306694,0.0996350571513176,0.0,-0.0001583004486747086,1.5195059776306152,0.0,0.03344865143299103
274.0,274.0,-0.7555,0.0108,9.5641,-0.0362,0.0307,-0.1168,-2.0254985294737757,0.0,3.912710666656494,-1.5170788764953613,-0.0,2.025580406188965,5.090132671385565,0.0,0.26922112703323364,-1.541689697896139,0.0,-0.015912514179944992,0.09954668581485748,0.0,-0.006851030979305506,1.5194940567016602,0.0,0.023380206897854805
274.0,274.0,-0.7555,0.0108,9.5641,-0.0362,0.0307,-0.1168,-2.025543352166647,0.0,3.9268381595611572,-1.5170382261276245,-0.0,2.045217990875244,5.090096938401022,0.0,0.2678099274635315,-1.5416696707354944,0.0,-0.009442596696317196,0.09956672042608261,0.0,-0.002440878190100193,1.5194940567016602,0.0,0.03637608513236046
274.0,274.0,-0.7555,0.0108,9.5641,-0.0362,0.0307,-0.1168,-2.025550981561178,0.0,3.88181734085083,-1.5170061588287354,-0.0,2.043058395385742,5.090065198927679,0.0,0.2711632251739502,-1.5417259375201624,0.0,-0.022944923490285873,0.0995306521654129,0.0,-0.004500505514442921,1.5194861888885498,0.0,0.01706673949956894
274.0,274.0,-0.7555,0.0108,9.5641,-0.0362,0.0307,-0.1168,-2.02549471477651,0.0,3.891707181930542,-1.5170665979385376,-0.0,1.9894444942474365,5.090132671385565,0.0,0.27117210626602173,-1.5416577498065394,0.0,-0.006177470088005066,0.09951842576265335,0.0,0.009867860935628414,1.5194981098175049,0.0,0.0006608050316572189
274.0,274.0,-0.7555,0.0108,9.5641,-0.0362,0.0307,-0.1168,-2.025515218774313,0.0,3.9020299911499023,-1.5170226097106934,-0.0,2.052734375,5.090140628605642,0.0,0.2707974314689636,-1.541689697896139,0.0,-0.011833418160676956,0.09960725158452988,0.0,-0.004662389401346445,1.5194940567016602,0.0,0.031088024377822876
274.0,274.0,-0.7555,0.0108,9.5641,-0.0362,0.0307,-0.1168,-2.0255471668639125,0.0,3.962912082672119,-1.5169978141784668,-0.0,2.034127950668335,5.0901687918002985,0.0,0.27297401428222656,-1.541717831288473,0.0,-0.0014272339176386595,0.09957075119018555,0.0,-0.004146134946495295,1.519518256187439,0.0,-0.020916670560836792
274.0,274.0,-0.7555,0.0108,9.5641,-0.0362,0.0307,-0.1168,-2.0255471668639125,0.0,3.9384703636169434,-1.5170340538024902,-0.0,2.0111498832702637,5.0901366648967645,0.0,0.26874205470085144,-1.5416939894305628,0.0,-0.015159513801336288,0.09949834644794464,0.0,-0.004807787947356701,1.5194861888885498,0.0,0.027664316818118095
274.0,274.0,-0.7555,0.0108,9.5641,-0.0362,0.0307,-0.1168,-2.0255710087218226,0.0,3.9326672554016113,-1.5170179605484009,-0.0,2.032121181488037,5.090144800930776,0.0,0.2747214138507843,-1.5416939894305628,0.0,-0.0064680567011237144,0.09961096197366714,0.0,-0.004716668743640184,1.519510269165039,0.0,0.026865694671869278
274.0,274.0,-0.7555,0.0108,9.5641,-0.0362,0.0307,-0.1168,-2.0255872211852015,0.0,3.8956570625305176,-1.5170221328735352,-0.0,2.070019483566284,5.090128648072042,0.0,0.27518680691719055,-1.5417102018939417,0.0,-0.004678027704358101,0.09952664375305176,0.0,-0.016631174832582474,1.51947820186615,0.0,-0.015058610588312149
274.0,274.0,-0.7555,0.0108,9.5641,-0.0362,0.0307,-0.1168,-2.0255428753294886,0.0,3.912151336669922,-1.5170137882232666,-0.0,2.017141819000244,5.090100931912222,0.0,0.2641783058643341,-1.541689697896139,0.0,-0.005979951471090317,0.09950240701436996,0.0,-0.0041218772530555725,1.5194861888885498,0.0,0.027759764343500137
264.0,281.0,-0.7244,-0.0066,9.5952,-0.0414,0.0159,-0.1158,-2.0255190334715785,0.0,3.9145450592041016,-1.5170340538024902,-0.0,2.0620150566101074,5.090116786747732,0.0,0.2684461176395416,-1.5417259375201624,0.0,-0.0043311212211847305,0.09956672042608261,0.0,0.0001658645924180746,1.5195460319519043,0.0,-0.008690518327057362
264.0,281.0,-0.7244,-0.0066,9.5952,-0.0414,0.0159,-0.1158,-2.0255352459349574,0.0,3.9078643321990967,-1.517029881477356,-0.0,2.0321834087371826,5.090089010983267,0.0,0.2670736312866211,-1.5416858831988733,0.0,-0.025827564299106598,0.0995626449584961,0.0,-0.0033744159154593945,1.5194940567016602,0.0,-0.009872903116047382
264.0,281.0,-0.7244,-0.0066,9.5952,-0.0414,0.0159,-0.1158,-2.0255471668639125,0.0,3.914677143096924,-1.5169657468795776,-0.0,1.993596076965332,5.090128707676687,0.0,0.26638686656951904,-1.5416978041278284,0.0,-0.006563476752489805,0.09955072402954102,0.0,-0.006595239043235779,1.5195063352584839,0.0,0.0048434059135615826
264.0,281.0,-0.7244,-0.0066,9.5952,-0.0414,0.0159,-0.1158,-2.0255633793272914,0.0,3.9875102043151855,-1.5171027183532715,-0.0,2.055605411529541,5.090128648072042,0.0,0.26099300384521484,-1.5417502562152308,3.9521896155747527e-07,-0.002004863228648901,0.09955857694149017,0.0,0.008129973895847797,1.5195261240005493,0.0,-0.004451400600373745
264.0,281.0,-0.7244,-0.0066,9.5952,-0.0414,0.0159,-0.1158,-2.025534769097799,0.0,3.9378020763397217,-1.516981840133667,-0.0,2.0376815795898438,5.090128707676687,0.0,0.27374276518821716,-1.5417464415179651,1.100106394869016e-10,-0.004532246850430965,0.09956303983926773,0.0,0.00693014170974493,1.5194703340530396,0.0,0.03713199496269226
264.0,281.0,-0.7244,-0.0066,9.5952,-0.0414,0.0159,-0.1158,-2.0255748234190882,0.0,3.905374050140381,-1.516945242881775,-0.0,2.0025463104248047,5.090104895621099,0.0,0.26477137207984924,-1.5417426268206995,1.9993886612253067e-15,-0.012297316454350948,0.09951429814100266,0.0,-0.003569969441741705,1.5195618867874146,0.0,-0.011489294469356537
264.0,281.0,-0.7244,-0.0066,9.5952,-0.0414,0.0159,-0.1158,-2.025595327416891,0.0,3.9235260486602783,-1.51701021194458,-0.0,2.025731086730957,5.0900611756141565,4.967151134849246e-10,0.2704561650753021,-1.541701618825094,3.6337902137786723e-20,-0.004084431566298008,0.09957078099250793,0.0,0.010661289095878601,1.519569754600525,0.002892920048907399,-0.0332212820649147
264.0,281.0,-0.7244,-0.0066,9.5952,-0.0414,0.0159,-0.1158,-2.0255586109557093,0.0,3.9324951171875,-1.5170665979385376,-0.0,2.0362138748168945,5.090108859329977,1.3826247547039927e-13,0.2675568163394928,-1.541717831288473,1.0114790303961918e-23,-0.01873689703643322,0.09955479949712753,0.0,0.013813198544085026,1.5195896625518799,0.0030275925528258085,-0.021583572030067444
264.0,281.0,-0.7244,-0.0066,9.5952,-0.0414,0.0159,-0.1158,-2.025555273095602,0.0,3.925947666168213,-1.5170743465423584,-0.0,2.054396629333496,5.090140628605642,2.512851657819981e-18,0.255585253238678,-1.5416935125934046,1.8383133726859843e-28,-0.0008880496607162058,0.09953878819942474,0.0,-0.008665760047733784,1.5195579528808594,0.0020441338419914246,-0.001123419962823391
264.0,281.0,-0.7244,-0.0066,9.5952,-0.0414,0.0159,-0.1158,-2.025550981561178,0.0,3.9107320308685303,-1.5170302391052246,-0.0,1.9997670650482178,5.090108859329977,4.5669833619434883e-23,0.26787781715393066,-1.5416978041278284,3.341043308494877e-33,-0.005064169876277447,0.09953469783067703,0.0,-0.0010674945078790188,1.5195857286453247,0.001231736154295504,-0.01956227794289589
264.0,281.0,-0.7244,-0.0066,9.5952,-0.0414,0.0159,-0.1158,-2.0255590877928675,0.0,3.908501148223877,-1.5170137882232666,-0.0,2.033745765686035,5.090120780258932,1.2712366376260276e-26,0.2694854736328125,-1.5416978041278284,9.299916130769705e-37,-0.010173819027841091,0.09957496076822281,0.0,0.0031132232397794724,1.5195659399032593,0.0009158320026472211,-0.04718761891126633
264.0,281.0,-0.7244,-0.0066,9.5952,-0.0414,0.0159,-0.1158,-2.025539060632223,0.0,3.8624746799468994,-1.5170422792434692,-0.0,2.0267152786254883,5.090088861971655,2.310409696258709e-31,0.26355165243148804,-1.5417221228228968,1.6902462076685944e-41,-0.003349902806803584,0.09951065480709076,0.0,0.00025863933842629194,1.519609808921814,0.001804505824111402,0.006453239358961582
266.0,278.0,-0.5109,-0.4881,9.3763,-0.0648,0.014,-0.1016,-2.025550981561178,0.0,3.9321634769439697,-1.5170265436172485,3.1305912723267326e-12,1.9942693710327148,5.090104895621099,4.1990553753409996e-36,0.27038389444351196,-1.5416978041278284,0.0,-0.016641737893223763,0.09958270937204361,0.0,-0.007728671655058861,1.519609808921814,0.0022659730166196823,0.0042524635791778564
266.0,278.0,-0.5109,-0.4881,9.3763,-0.0648,0.014,-0.1016,-2.025515218774313,0.0,3.863461494445801,-1.5170106887817383,7.560009763802883e-18,2.0204930305480957,5.0901247439678095,1.1688216477948656e-39,0.26889193058013916,-1.541701618825094,0.0,-0.001756855403073132,0.09955483675003052,0.0,-0.009907223284244537,1.519661784172058,0.0017019039951264858,0.01881476677954197
266.0,278.0,-0.5109,-0.4881,9.3763,-0.0648,0.014,-0.1016,-2.0255147419371546,0.0,3.924558162689209,-1.5169295072555542,0.0026799789629876614,2.0047922134399414,5.090144681721487,2.1019476964872256e-44,0.2745215892791748,-1.5416777769671839,0.0,0.00030079716816544533,0.09956668317317963,0.0,0.00042590414523147047,1.5196418762207031,0.0007352565880864859,-0.016084345057606697
266.0,278.0,-0.5109,-0.4881,9.3763,-0.0648,0.014,-0.1016,-2.025522848168844,0.0,3.9202723503112793,-1.5169708728790283,0.0022894355934113264,2.0860395431518555,5.090100931912222,0.0,0.2619639039039612,-1.5416858831988733,0.0,-0.011405360884964466,0.09953891485929489,0.0,-0.00853770226240158,1.5196577310562134,0.0005876508075743914,-0.008043021894991398
266.0,278.0,-0.5109,-0.4881,9.3763,-0.0648,0.014,-0.1016,-2.025579114953512,0.0,3.932321071624756,-1.5169295072555542,0.0004664979060180485,2.039607286453247,5.0901247439678095,0.0,0.2537538707256317,-1.5416858831988733,0.0,0.0008914794307202101,0.09953880310058594,0.0,-0.011375759728252888,1.5196577310562134,0.0005403062677942216,-0.02352043427526951
266.0,278.0,-0.5109,-0.4881,9.3763,-0.0648,0.014,-0.1016,-2.025579114953512,0.0,3.9728212356567383,-1.516958475112915,-0.0002520355337765068,2.0160489082336426,5.090108859329977,0.0,0.277358740568161,-1.541717831288473,0.0,-0.009133532643318176,0.0995306521654129,0.0,0.013243131339550018,1.519661784172058,0.0004513884778134525,-0.006299106869846582
266.0,278.0,-0.5109,-0.4881,9.3763,-0.0648,0.014,-0.1016,-2.025539060632223,0.0,3.9283618927001953,-1.5169543027877808,-5.154800319928654e-08,2.0458011627197266,5.090112823038854,0.0,0.2712197005748749,-1.54173452058901,0.0,-0.01028590090572834,0.09964735060930252,0.0,-0.004324961453676224,1.519661784172058,0.0009968994418159127,0.026177987456321716
266.0,278.0,-0.5109,-0.4881,9.3763,-0.0648,0.014,-0.1016,-2.025534292260641,0.0,3.928978443145752,-1.5169707536697388,-1.6700895681453836e-15,2.011204242706299,5.090028214245596,1.0194123660767218e-06,0.2709313631057739,-1.541717831288473,0.0,-0.0029699024744331837,0.09953471273183823,0.0,0.00661194184795022,1.5196577310562134,0.0007203260902315378,0.05880583077669144
266.0,278.0,-0.5109,-0.4881,9.3763,-0.0648,0.014,-0.1016,-2.0255948505797328,0.0,3.8611702919006348,-1.5170024633407593,-5.410878990445063e-23,2.0445306301116943,5.090144651919164,-1.6738727936171927e-05,0.26592668890953064,-1.5417426268206995,0.0,0.0004176098736934364,0.09961503744125366,0.0,-0.008840702474117279,1.5196138620376587,0.0004578235384542495,0.03706429898738861
266.0,278.0,-0.5109,-0.4881,9.3763,-0.0648,0.014,-0.1016,-2.025607248345846,0.0,3.888120174407959,-1.5169419050216675,-1.3066637819152905e-28,2.0089781284332275,5.090092944889822,-1.5854424418648705e-05,0.26854217052459717,-1.5416858831988733,0.0,0.006892747711390257,0.0995466485619545,0.0,0.009675950743258,1.519609808921814,0.0001498048222856596,0.028068074956536293
266.0,278.0,-0.5109,-0.4881,9.3763,-0.0648,0.014,-0.1016,-2.0256153545775355,-0.0002026043221121654,3.921560049057007,-1.5169986486434937,-4.233423733580907e-36,2.0201869010925293,5.090104895621099,-1.4810785614827182e-05,0.26437342166900635,-1.5417745749102991,0.0,-0.004334727767854929,0.09957864135503769,0.0,-0.010305555537343025,1.519649863243103,1.0976649811311745e-08,0.05313984677195549
266.0,278.0,-0.5109,-0.4881,9.3763,-0.0648,0.014,-0.1016,-2.025602956811422,-0.0002520307316444814,3.9282171726226807,-1.5169944763183594,-1.3732724950383207e-43,2.0489354133605957,5.090128737479009,-1.3896070413466077e-05,0.2597705125808716,-1.541717831288473,0.0,-0.003960987087339163,0.0995347648859024,0.0,-0.004392193630337715,1.5195817947387695,-0.0018836413510143757,-0.007956239394843578
266.0,278.0,-0.5109,-0.4881,9.3763,-0.0648,0.014,-0.1016,-2.0256430111327113,-0.00026109153986908495,3.9007270336151123,-1.516966700553894,-0.0,1.9894824028015137,5.090029376536169,-3.64088082278613e-05,0.2729843258857727,-1.5416815916644495,0.0,-0.004152846522629261,0.09954257309436798,0.0,0.0022519442718476057,1.5195857286453247,-0.001542090903967619,-0.01986682042479515
266.0,282.0,-0.9362,0.0945,9.6796,-0.037,0.0078,-0.129,-2.0256229839720667,-0.000515755033120513,3.9221882820129395,-1.5170344114303589,-0.0,2.0068070888519287,5.090100931912222,-3.7621950468746945e-05,0.2728559374809265,-1.5416901747332972,0.0,-0.011382545344531536,0.09956672042608261,0.0,0.005801262333989143,1.5195698738098145,-0.0012274016626179218,0.030913805589079857
266.0,282.0,-0.9362,0.0945,9.6796,-0.037,0.0078,-0.129,-2.025630613366598,-0.0005975661333650351,3.9390578269958496,-1.5170061588287354,-0.0,2.0500190258026123,5.090104895621099,-3.563580321497284e-05,0.2733358144760132,-1.5416777769671839,0.0,-0.0014414205215871334,0.0995425432920456,0.0,0.007064781617373228,1.5195420980453491,-0.0012629583943635225,-0.017862804234027863
266.0,282.0,-0.9362,0.0945,9.6796,-0.037,0.0078,-0.129,-2.0256511173644007,-0.0005995768588036299,3.9476518630981445,-1.516961693763733,-0.0,2.0091612339019775,5.090085047274389,-4.532151433522813e-05,0.26461881399154663,-1.5417059103595179,0.0,0.011528551578521729,0.09957864135503769,0.0,0.0031679566018283367,1.5195103883743286,-0.0008791238069534302,0.01579389162361622
266.0,282.0,-0.9362,0.0945,9.6796,-0.037,0.0078,-0.129,-2.0256668529906214,-0.0005567689659073949,3.93719220161438,-1.5169821977615356,-8.879430242814124e-05,2.082610607147217,5.090041297465124,-4.349585287855007e-05,0.27289289236068726,-1.5417383352862757,0.0,0.004429674241691828,0.09954666346311569,0.0,0.003519295249134302,1.519518256187439,-0.0004933750024065375,-0.027871109545230865
266.0,282.0,-0.9362,0.0945,9.6796,-0.037,0.0078,-0.129,-2.025646825829977,-0.00048762219375930727,3.9405248165130615,-1.5169544219970703,-0.00014371446741279215,2.0139098167419434,5.090069252043524,-4.197446833131835e-05,0.26904770731925964,-1.5417097250567835,0.0,-0.02024763822555542,0.09952666610479355,0.0,-0.00167310971301049,1.5195618867874146,-0.00044541541137732565,0.0009465385228395462
266.0,282.0,-0.9362,0.0945,9.6796,-0.037,0.0078,-0.129,-2.025663038293356,-0.00035842813667841256,3.8831493854522705,-1.516969919204712,-5.4460677347378805e-05,2.0312862396240234,5.0900770900543115,-0.00011250445095356554,0.25712040066719055,-1.5416777769671839,0.0,-0.0025305908638983965,0.09953060746192932,0.0,0.002372258808463812,1.5195579528808594,-0.0005675799329765141,-0.043787576258182526
266.0,282.0,-0.9362,0.0945,9.6796,-0.037,0.0078,-0.129,-2.025670667687887,-0.00028322110301814973,3.9105591773986816,-1.5169739723205566,-1.7644565279348323e-12,2.0469837188720703,5.090104925423422,-0.00010234689398203045,0.27128469944000244,-1.5417059103595179,0.0,-0.005456679034978151,0.0994904562830925,0.0,-0.00104808050673455,1.5194861888885498,-0.0026168846525251865,-0.012374800629913807
266.0,282.0,-0.9362,0.0945,9.6796,-0.037,0.0078,-0.129,-2.0256267986693324,-0.00024471335927955806,3.9375739097595215,-1.5170425176620483,-4.260954986999986e-18,2.0285720825195312,5.090101021319189,-9.580950427334756e-05,0.2857012152671814,-1.5416939894305628,0.0,-0.008708341047167778,0.09957903623580933,0.0,-0.006647925823926926,1.5194822549819946,-0.003496253862977028,-0.04438302293419838
266.0,282.0,-0.9362,0.0945,9.6796,-0.037,0.0078,-0.129,-2.0256506405272425,-0.00020715930440928787,3.9295778274536133,-1.5169016122817993,-1.3804951210017417e-25,2.0231404304504395,5.090104925423422,-8.829017315292731e-05,0.2829757034778595,-1.541666332875387,0.0,-0.005924561992287636,0.09957041591405869,0.0,0.007465828210115433,1.5193864107131958,-0.006386471912264824,-0.021071523427963257
266.0,282.0,-0.9362,0.0945,9.6796,-0.037,0.0078,-0.129,-2.0256949863829554,-0.0002093894872814417,3.9051547050476074,-1.5169904232025146,-4.472628904552121e-33,2.0316526889801025,5.090112852841177,-8.186528430087492e-05,0.27007046341896057,-1.5417221228228968,0.0,-0.014216634444892406,0.09961096197366714,0.0,-0.005472440738230944,1.5194101333618164,-0.006789297331124544,-0.028192875906825066
266.0,282.0,-0.9362,0.0945,9.6796,-0.037,0.0078,-0.129,-2.0256387195982875,-0.00019052204152103513,3.93274188041687,-1.5169259309768677,-1.0800872251384252e-38,1.9915575981140137,5.090077119856634,-7.762845780234784e-05,0.27476394176483154,-1.541701618825094,0.0,-0.01885908469557762,0.09952651709318161,0.0,0.0034063830971717834,1.5193305015563965,-0.0031067191157490015,-0.008697323501110077
266.0,282.0,-0.9362,0.0945,9.6796,-0.037,0.0078,-0.129,-2.0256954632201136,-0.00019424188940320164,3.9197187423706055,-1.5169459581375122,-0.0,2.062472343444824,5.090108889132299,-7.261762220878154e-05,0.26298582553863525,-1.5416939894305628,0.0,-0.010426185093820095,0.09957864135503769,0.0,-0.005452430807054043,1.5193265676498413,-0.001397014013491571,-0.013444613665342331
260.0,289.0,-0.8171,0.2459,9.7735,-0.0111,0.0301,-0.1378,-2.0256830654540003,-0.00018216816533822566,3.947664976119995,-1.5169986486434937,-0.0,2.022616386413574,5.090021180897512,-6.821441638749093e-05,0.2664954364299774,-1.5416982809649866,0.0,-0.019716929644346237,0.09958675503730774,0.0,0.00817176979035139,1.519362211227417,-0.0012444898020476103,0.041034385561943054
260.0,289.0,-0.8171,0.2459,9.7735,-0.0111,0.0301,-0.1378,-2.025634904901022,-0.0007664395379833877,3.9426236152648926,-1.5169707536697388,-0.0,2.017874002456665,5.090097057610311,-6.52471644571051e-05,0.2703525424003601,-1.5416982809649866,0.0,-0.014410088770091534,0.09950648993253708,0.0,0.005603453144431114,1.5193262100219727,-0.0009895024122670293,-0.0027621565386652946
260.0,289.0,-0.8171,0.2459,9.7735,-0.0111,0.0301,-0.1378,-2.025703092614645,-0.0012089847587049007,3.897948741912842,-1.5169942378997803,-0.0,2.059600353240967,5.090085136681356,-6.167050014482811e-05,0.2661724090576172,-1.5416777769671839,0.0,-0.004648558795452118,0.09957040846347809,0.0,0.006696414668112993,1.5193582773208618,-0.0006662310915999115,-0.012328015640377998
260.0,289.0,-0.8171,0.2459,9.7735,-0.0111,0.0301,-0.1378,-2.02573885540151,-0.0012154016876593232,3.912280559539795,-1.5169544219970703,-0.0,2.047358989715576,5.090069103031912,-5.9235117078060284e-05,0.26711931824684143,-1.5416539351092737,0.0,-0.01758495345711708,0.0996273085474968,0.0,0.0024608890525996685,1.5193463563919067,-0.0005057227099314332,0.008169170469045639
260.0,289.0,-0.8171,0.2459,9.7735,-0.0111,0.0301,-0.1378,-2.0256949863829554,-0.0012547171209007502,3.923825740814209,-1.5169501304626465,0.00016924961528275162,2.0646049976348877,5.090033310442724,-5.62721979804337e-05,0.27173638343811035,-1.5417059103595179,0.0,-0.00362606905400753,0.09954296052455902,0.0,0.015521046705543995,1.5193305015563965,-0.0003827839682344347,-0.01621953956782818
260.0,289.0,-0.8171,0.2459,9.7735,-0.0111,0.0301,-0.1378,-2.0257188282408656,-0.0016154720215126872,3.897280693054199,-1.5169341564178467,0.00020062884141225368,1.999300479888916,5.090124833374777,-5.359158240025863e-05,0.2598106861114502,-1.5417464415179651,0.0,-0.016000203788280487,0.0995425432920456,0.0,0.012224197387695312,1.5192904472351074,-0.00033676682505756617,-0.04082227498292923
260.0,289.0,-0.8171,0.2459,9.7735,-0.0111,0.0301,-0.1378,-2.025694509545797,-0.0019286010647192597,3.915004253387451,-1.516966700553894,0.0006461842567659914,2.057659864425659,5.090077060251989,-5.17429543833714e-05,0.2577233910560608,-1.5416696707354944,0.0,-0.01957070827484131,0.09960728138685226,0.0,0.016320137307047844,1.519302487373352,-0.0003069172380492091,-0.023020019754767418
260.0,289.0,-0.8171,0.2459,9.7735,-0.0111,0.0301,-0.1378,-2.025738378564352,-0.0029096559155732393,3.889164924621582,-1.5169459581375122,0.001352794235572219,2.0477590560913086,5.090088951378622,-1.271009023184888e-05,0.2648276090621948,-1.5417102018939417,0.0,-0.016030779108405113,0.09960311651229858,0.0,0.008955597877502441,1.519362211227417,-0.000222211834625341,0.056484561413526535
260.0,289.0,-0.8171,0.2459,9.7735,-0.0111,0.0301,-0.1378,-2.0257746181883753,-0.0037370927166193724,3.9363815784454346,-1.5168818235397339,0.0025194864720106125,1.9706180095672607,5.0900770900543115,-2.309996083305066e-10,0.27087634801864624,-1.5416458288775843,0.0,-0.011989324353635311,0.09954257309436798,0.0,0.008152440190315247,1.519302487373352,-0.0005712268757633865,0.007682580500841141
260.0,289.0,-0.8171,0.2459,9.7735,-0.0111,0.0301,-0.1378,-2.025754591027731,-0.003741967026144266,3.9231157302856445,-1.516862154006958,0.004216430243104696,2.1183271408081055,5.090092974692144,-6.429959239747166e-14,0.2541334629058838,-1.5417259375201624,0.0,-0.006802689749747515,0.09961917251348495,0.0,0.003945309668779373,1.5193142890930176,-0.0005889484891667962,0.0399438738822937
260.0,289.0,-0.8171,0.2459,9.7735,-0.0111,0.0301,-0.1378,-2.02581848720693,-0.0038063591346144676,3.9247632026672363,-1.5168383121490479,0.005349162966012955,2.053661823272705,5.090100902109899,-1.1686132656595501e-18,0.2599567174911499,-1.5417183081256312,0.0,-0.011694656684994698,0.09957858175039291,0.0,0.0006675691111013293,1.5192584991455078,-0.0006822359282523394,0.01889844983816147
260.0,289.0,-0.8171,0.2459,9.7735,-0.0111,0.0301,-0.1378,-2.025890966454977,-0.0036874301731586456,3.9234678745269775,-1.516782283782959,0.0052857412956655025,1.984138011932373,5.090073066740789,-2.123896757919938e-23,0.2695842385292053,-1.5416939894305628,0.0,-0.01887163333594799,0.09953880310058594,0.0,0.00808973703533411,1.5192945003509521,-0.0006033036625012755,0.021296275779604912
273.0,285.0,-0.8692,0.1729,9.8231,-0.0305,0.0338,-0.1264,-2.025874753991598,-0.0036112547386437654,3.932443857192993,-1.516782283782959,0.004595798905938864,2.005495071411133,5.090069132834234,-5.911945105669867e-27,0.27057796716690063,-1.5417221228228968,0.0,-0.015100527554750443,0.0995466336607933,0.0,0.00968533381819725,1.5192866325378418,-0.0006588821415789425,0.016141679137945175
273.0,285.0,-0.8692,0.1729,9.8231,-0.0305,0.0338,-0.1264,-2.0259062252440394,-0.0032665343023836613,3.9041714668273926,-1.5167222023010254,0.0038006824906915426,2.046327590942383,5.090085166483679,-1.0744669590386063e-31,0.2650756239891052,-1.5417059103595179,0.0,-0.00854119099676609,0.09959495812654495,0.0,0.013350855559110641,1.519278645515442,-0.0007458790205419064,-0.00863067340105772
273.0,285.0,-0.8692,0.1729,9.8231,-0.0305,0.0338,-0.1264,-2.0259586773314417,-0.002312737749889493,3.941777229309082,-1.5167180299758911,0.0035688376519829035,2.0401113033294678,5.090104895621099,-1.9527905284021354e-36,0.278920441865921,-1.5417020956622522,0.0,-0.013860969804227352,0.09958673268556595,0.0,0.011476022191345692,1.5193222761154175,-0.000629219226539135,0.05206960439682007
273.0,285.0,-0.8692,0.1729,9.8231,-0.0305,0.0338,-0.1264,-2.025938173333639,-0.0017416905611753464,3.9291889667510986,-1.5166622400283813,0.004213920794427395,2.071249485015869,5.090104895621099,-5.435664769085252e-40,0.27602118253707886,-1.5416701475726526,0.0,-0.022636156529188156,0.09959457069635391,0.0,0.00922731589525938,1.519262433052063,-0.0005534691736102104,0.023379430174827576
273.0,285.0,-0.8692,0.1729,9.8231,-0.0305,0.0338,-0.1264,-2.025998731652731,-0.001410786178894341,3.9581491947174072,-1.5166263580322266,0.004417197313159704,2.0391125679016113,5.090077030449667,-9.80908925027372e-45,0.2799031138420105,-1.5416577498065394,0.0,-0.011170423589646816,0.09958263486623764,0.0,0.024173464626073837,1.5192747116088867,-0.00042335857870057225,-0.01184901874512434
273.0,285.0,-0.8692,0.1729,9.8231,-0.0305,0.0338,-0.1264,-2.0259462795653285,-0.0014973580837249756,3.904341697692871,-1.5166020393371582,0.004696367774158716,2.032200336456299,5.0900651691253564,-0.0,0.2779427170753479,-1.5417059103595179,0.0,-0.031788308173418045,0.09955032914876938,4.549568188849662e-07,0.01252229604870081,1.5192663669586182,-0.000297913997201249,0.04591108113527298
273.0,285.0,-0.8692,0.1729,9.8231,-0.0305,0.0338,-0.1264,-2.0260263882079066,-0.0023346554953604937,3.926875114440918,-1.5165740251541138,0.0037234709598124027,2.0503950119018555,5.090128767281332,-0.0,0.2741369605064392,-1.5416777769671839,0.0,-0.015172409825026989,0.09964331984519958,8.268614959394682e-12,0.021950438618659973,1.5192866325378418,-0.00023551328922621906,0.010205402038991451
273.0,285.0,-0.8692,0.1729,9.8231,-0.0305,0.0338,-0.1264,-2.0260139904417933,-0.0031293435022234917,3.940253734588623,-1.5165382623672485,0.0026800408959388733,2.0752980709075928,5.0900770900543115,-0.0,0.2659728527069092,-1.541689697896139,0.0,-0.00882012490183115,0.09963924437761307,0.0004585268907248974,0.015521889552474022,1.5192866325378418,-0.00019474163127597421,0.002043935237452388
273.0,285.0,-0.8692,0.1729,9.8231,-0.0305,0.0338,-0.1264,-2.0260468922057093,-0.0035850072745233774,3.922330856323242,-1.516587257385254,0.0019768376369029284,2.024674654006958,5.090073096543112,-0.0,0.27402880787849426,-1.5416982809649866,0.0,-0.01985861361026764,0.09961464256048203,0.0006078741862438619,0.023604141548275948,1.5192545652389526,-0.00017236276471521705,0.004876172170042992
273.0,285.0,-0.8692,0.1729,9.8231,-0.0305,0.0338,-0.1264,-2.02608646968984,-0.004688513930886984,3.848310947418213,-1.5165749788284302,0.0012553686974570155,1.9932713508605957,5.090096968203344,-0.0,0.26155588030815125,-1.5416858831988733,0.0,-0.001025833422318101,0.09963464736938477,0.0009299585944972932,0.03928210958838463,1.5192984342575073,-0.00017583371663931757,0.03722257539629936
273.0,285.0,-0.8692,0.1729,9.8231,-0.0305,0.0338,-0.1264,-2.0261508427061976,-0.005099455360323191,3.902728319168091,-1.5165222883224487,0.0008331697899848223,2.089752674102783,5.0900770900543115,-0.0,0.2597143054008484,-1.5416777769671839,0.0,-0.016059840098023415,0.09965065866708755,0.0015122855547815561,0.02796187624335289,1.519278645515442,-0.0001583207049407065,0.04369109123945236
273.0,285.0,-0.8692,0.1729,9.8231,-0.0305,0.0338,-0.1264,-2.026158472100729,-0.0064451564103364944,3.868913173675537,-1.5165185928344727,0.0005965150776319206,1.9549102783203125,5.090009110956945,-0.0,0.2693001329898834,-1.541689697896139,0.0,-0.022615395486354828,0.09968714416027069,0.00264290114864707,0.022501295432448387,1.5192465782165527,-0.00014552120410371572,0.017359495162963867
273.0,285.0,-0.8692,0.1729,9.8231,-0.0305,0.0338,-0.1264,-2.026214738885397,-0.009162473492324352,3.876143455505371,-1.5165987014770508,0.00047301509766839445,2.0421950817108154,5.090049254685201,-0.0,0.2747766077518463,-1.5416777769671839,0.0,-0.021476123481988907,0.09968665987253189,0.007879164069890976,0.04988627880811691,1.5192945003509521,-0.0001313611282967031,0.05478854104876518
277.0,279.0,-0.8447,0.0431,9.5707,-0.0278,0.0179,-0.1211,-2.0262943706908167,-0.012218388728797436,3.880192279815674,-1.5165066719055176,0.00038786325603723526,2.039261817932129,5.0900931535060785,-0.0,0.2754529118537903,-1.5416420141803187,0.0,-0.017446815967559814,0.09975814819335938,0.010844575241208076,0.029568128287792206,1.5192747116088867,-0.00011971262574661523,0.008988173678517342
277.0,279.0,-0.8447,0.0431,9.5707,-0.0278,0.0179,-0.1211,-2.026370187798971,-0.014090236276388168,3.8704092502593994,-1.5165386199951172,0.0002454578352626413,2.0284926891326904,5.0900611756141565,-0.0,0.285150945186615,-1.541666332875387,0.0,-0.016278741881251335,0.09973817318677902,0.003507616464048624,0.02668612450361252,1.519274353981018,-0.00011224727495573461,0.07002781331539154
277.0,279.0,-0.8447,0.0431,9.5707,-0.0278,0.0179,-0.1211,-2.026506086389059,-0.015775015577673912,3.904886245727539,-1.5165222883224487,0.00020120108092669398,2.0211048126220703,5.090017097979345,-0.0,0.27676308155059814,-1.5416901747332972,0.0,-0.016034284606575966,0.0997740849852562,0.0004990883753634989,0.02679947391152382,1.5192625522613525,-0.00010363099136156961,0.02303668111562729
277.0,279.0,-0.8447,0.0431,9.5707,-0.0278,0.0179,-0.1211,-2.026653905908102,-0.018889889121055603,3.8448352813720703,-1.5164984464645386,0.00022721696586813778,2.049628257751465,5.090073275357046,-0.0,0.272433340549469,-1.5416777769671839,0.0,-0.019543059170246124,0.0997781753540039,0.00028648445731960237,0.024387290701270103,1.5192747116088867,-0.00011228050425415859,0.012291310355067253
277.0,279.0,-0.8447,0.0431,9.5707,-0.0278,0.0179,-0.1211,-2.0268060169615687,-0.02151729352772236,3.834604263305664,-1.5165506601333618,0.00024575847783125937,2.002286672592163,5.0900611756141565,-0.0,0.2785170078277588,-1.5416982809649866,3.1630373320545857e-10,-0.030209524556994438,0.0997580736875534,0.00021724417456425726,0.035530176013708115,1.5192707777023315,-0.00010658468818292022,-0.024951044470071793
277.0,279.0,-0.8447,0.0431,9.5707,-0.0278,0.0179,-0.1211,-2.0269938908019007,-0.025967318564653397,3.8514795303344727,-1.5165226459503174,0.0004397491575218737,2.0269930362701416,5.090013074665823,-0.0,0.27435746788978577,-1.5416577498065394,5.748663111699746e-15,-0.03790926933288574,0.09973359107971191,0.00016432147822342813,0.02757624164223671,1.5192465782165527,-9.982904157368466e-05,0.01883695460855961
277.0,279.0,-0.8447,0.0431,9.5707,-0.0278,0.0179,-0.1211,-2.0270773373045863,-0.02970898523926735,3.8348822593688965,-1.5165108442306519,0.0008968705078586936,2.072777509689331,5.090069252043524,-0.0,0.27889198064804077,-1.5417140165912073,1.6001615596370136e-18,-0.02548244222998619,0.0997781977057457,0.0001389429235132411,0.04360344260931015,1.5193262100219727,-9.529884846415371e-05,0.04303818568587303
277.0,279.0,-0.8447,0.0431,9.5707,-0.0278,0.0179,-0.1211,-2.0273896656432093,-0.03501095622777939,3.822084426879883,-1.5164458751678467,0.0010277439141646028,1.963712453842163,5.090061145811834,-0.0,0.2626936435699463,-1.5417140165912073,2.908214613187782e-23,-0.035502348095178604,0.09983844310045242,0.00011521919805090874,0.04432453215122223,1.5192387104034424,-8.986164903035387e-05,0.060281381011009216
277.0,279.0,-0.8447,0.0431,9.5707,-0.0278,0.0179,-0.1211,-2.027701517144674,-0.03805743157863617,3.802056312561035,-1.5164589881896973,0.0010789638618007302,2.004742383956909,5.090049254685201,-0.0,0.2772570848464966,-1.5417140165912073,5.285536102368427e-28,-0.03858273848891258,0.09984248876571655,9.841663995757699e-05,0.030145950615406036,1.5192663669586182,-2.9650473152287304e-05,0.02496291510760784
277.0,279.0,-0.8447,0.0431,9.5707,-0.0278,0.0179,-0.1211,-2.027893205682272,-0.03916651010513306,3.8411316871643066,-1.516530990600586,0.0011508731404319406,2.0273666381835938,5.090009081154623,-0.0,0.27872931957244873,-1.5416982809649866,1.4712483768408698e-31,-0.03633902966976166,0.09982649981975555,8.87143614818342e-05,0.03327609971165657,1.5193103551864624,-4.2358700738986954e-05,0.05293985456228256
277.0,279.0,-0.8447,0.0431,9.5707,-0.0278,0.0179,-0.1211,-2.0282446346678675,-0.041052378714084625,3.807342052459717,-1.5164259672164917,0.0008415667107328773,1.9991366863250732,5.090028989105978,-2.3896375296317274e-06,0.27464747428894043,-1.5416982809649866,2.6739208698698103e-36,-0.03128742426633835,0.09979009628295898,7.840804028091952e-05,0.05027054250240326,1.5192945003509521,-3.987741729361005e-05,0.06815943121910095
277.0,279.0,-0.8447,0.0431,9.5707,-0.0278,0.0179,-0.1211,-2.0285641155638636,-0.04230309650301933,3.7978272438049316,-1.5164622068405151,0.00043227459536865354,2.0389695167541504,5.090049165278234,-4.343048143340411e-11,0.2664582431316376,-1.5417140165912073,4.859703074278466e-41,-0.041775695979595184,0.09979376196861267,8.760034688748419e-05,0.043331537395715714,1.519290566444397,-3.765301880775951e-05,0.045748308300971985
270.0,290.0,-0.7848,-0.1041,9.5539,-0.005,-0.013,-0.1245,-2.028855939904684,-0.043654024600982666,3.826575756072998,-1.5165226459503174,0.0003354497894179076,2.0224268436431885,5.09002115109519,-1.2089033794198192e-14,0.26859816908836365,-1.541717831288473,1.401298464324817e-44,-0.046048618853092194,0.0998220294713974,8.687984518473968e-05,0.045467063784599304,1.519270420074463,-3.614102388382889e-05,0.043978068977594376
270.0,290.0,-0.7848,-0.1041,9.5539,-0.005,-0.013,-0.1245,-2.0292393169798792,-0.04091901704668999,3.797628402709961,-1.5165185928344727,0.00020671325910370797,1.993410587310791,5.090001094132223,-0.0004685844178311527,0.26722270250320435,-1.5416939894305628,0.0,-0.029290135949850082,0.09982245415449142,7.923244265839458e-05,0.04601277410984039,1.5192984342575073,-3.4304335713386536e-05,0.043934695422649384
270.0,290.0,-0.7848,-0.1041,9.5539,-0.005,-0.013,-0.1245,-2.029510637322897,-0.0382399745285511,3.836684465408325,-1.5165061950683594,0.0001260741555597633,2.0540833473205566,5.090009230166235,-0.00046403935994021595,0.25281378626823425,-1.5417383352862757,0.0,-0.038265690207481384,0.09982240945100784,7.28212617104873e-05,0.030367359519004822,1.5192584991455078,-3.264528277213685e-05,0.021337054669857025
270.0,290.0,-0.7848,-0.1041,9.5539,-0.005,-0.013,-0.1245,-2.029807230035299,-0.03625762462615967,3.842282295227051,-1.5165066719055176,-8.571553917136043e-05,2.0219128131866455,5.09000118353919,-0.0005350145511329174,0.2722584903240204,-1.5417059103595179,0.0,-0.04325108230113983,0.0998380184173584,6.865489558549598e-05,0.03707130253314972,1.5192984342575073,-3.1502619094680995e-05,0.04886721819639206
270.0,290.0,-0.7848,-0.1041,9.5539,-0.005,-0.013,-0.1245,-2.0300985775389613,-0.03361428156495094,3.8201956748962402,-1.516562581062317,-0.00010850276885321364,2.0319573879241943,5.089989173203268,-0.00048006887664087117,0.26762181520462036,-1.541689697896139,0.0,-0.03532393276691437,0.09978186339139938,6.378866964951158e-05,0.03695590794086456,1.519278645515442,-3.0097953640506603e-05,0.039326511323451996
270.0,290.0,-0.7848,-0.1041,9.5539,-0.005,-0.013,-0.1245,-2.030245920220846,-0.03246200084686279,3.815692186355591,-1.5165189504623413,-9.72332782112062e-05,2.0596442222595215,5.090005087643423,-0.00042267644312232733,0.2772587537765503,-1.5417140165912073,0.0,-0.02599676325917244,0.09981010109186172,6.056906204321422e-05,0.042589426040649414,1.5192945003509521,-5.35780442234568e-09,0.040381431579589844
270.0,290.0,-0.7848,-0.1041,9.5539,-0.005,-0.013,-0.1245,-2.0304976902403773,-0.03256000205874443,3.823836326599121,-1.5164942741394043,-5.666029028361663e-05,2.039600133895874,5.089993136912145,-0.00034227975993417203,0.27069807052612305,-1.5417102018939417,0.0,-0.025279738008975983,0.09983433037996292,5.674976637237705e-05,0.04192212596535683,1.519262433052063,-1.735860617708496e-16,0.03513897582888603
270.0,290.0,-0.7848,-0.1041,9.5539,-0.005,-0.013,-0.1245,-2.030757566491598,-0.030568396672606468,3.817894697189331,-1.5165386199951172,-1.6473785668935648e-09,2.013115406036377,5.090021329909124,-0.0002875819045584649,0.26323288679122925,-1.5417140165912073,0.0,-0.03453264385461807,0.09983433037996292,5.338340997695923e-05,0.042684782296419144,1.5192945003509521,-5.623968859176531e-24,0.10527517646551132
270.0,290.0,-0.7848,-0.1041,9.5539,-0.005,-0.013,-0.1245,-2.0309258900084437,-0.028874121606349945,3.8069233894348145,-1.5164746046066284,-3.978226185567856e-15,2.028499126434326,5.090005206852712,-0.00022485140652861446,0.2596992254257202,-1.5417259375201624,0.0,-0.03205552697181702,0.09983061254024506,5.110969141242094e-05,0.046777576208114624,1.519290566444397,-1.35812246335813e-29,0.04182029142975807
270.0,290.0,-0.7848,-0.1041,9.5539,-0.005,-0.013,-0.1245,-2.0311647854247035,-0.027402644976973534,3.8744583129882812,-1.5164623260498047,0.001181698520667851,2.0447702407836914,5.090017068177023,-0.00019664525461848825,0.26096874475479126,-1.5416696707354944,0.0,-0.03962946683168411,0.09978602081537247,4.83632211398799e-05,0.05182806774973869,1.519302487373352,-4.400143991890705e-37,0.01918516680598259
270.0,290.0,-0.7848,-0.1041,9.5539,-0.005,-0.013,-0.1245,-2.0313970051207484,-0.028035996481776237,3.859804630279541,-1.5164663791656494,0.0016261431155726314,2.0333263874053955,5.0899929879005334,-0.0001748168288031593,0.27332788705825806,-1.541689697896139,0.0,-0.03771171346306801,0.09980201721191406,4.5896846131654456e-05,0.03159419447183609,1.5193341970443726,-1.401298464324817e-44,0.06176873296499252
270.0,290.0,-0.7848,-0.1041,9.5539,-0.005,-0.013,-0.1245,-2.0315405331053675,-0.029475433751940727,3.818234920501709,-1.5164424180984497,0.001527936547063291,2.0235679149627686,5.090037095337667,-0.00016168241563718766,0.27375006675720215,-1.5416939894305628,0.0,-0.036921944469213486,0.0997658222913742,4.420608456712216e-05,0.05132410302758217,1.519278645515442,0.0,0.013178064487874508
278.0,305.0,-0.7041,0.1819,9.4965,-0.0115,-0.0008,-0.1213,-2.0318128071227015,-0.03226481005549431,3.8258113861083984,-1.5164588689804077,0.001175547600723803,2.0443081855773926,5.089997160225668,-5.038642848376185e-05,0.2682146728038788,-1.541701618825094,0.0,-0.04377033933997154,0.09984619915485382,4.2136452975682914e-05,0.045984502881765366,1.519274353981018,0.0,0.0810294896364212
278.0,305.0,-0.7041,0.1819,9.4965,-0.0115,-0.0008,-0.1213,-2.0320879421629847,-0.03400317579507828,3.8730437755584717,-1.516434669494629,0.0013180082896724343,2.0302817821502686,5.09004111865119,-4.5310913264984265e-05,0.2676888406276703,-1.541689697896139,0.0,-0.04510819911956787,0.09977775067090988,4.025193629786372e-05,0.047803107649087906,1.5193262100219727,0.0,0.02662353217601776
278.0,305.0,-0.7041,0.1819,9.4965,-0.0115,-0.0008,-0.1213,-2.0322958431639613,-0.03535779193043709,3.8192317485809326,-1.516406774520874,0.0016270875930786133,1.974130392074585,5.090061354428091,-4.212919884594157e-05,0.2716383635997772,-1.541689697896139,0.0,-0.04751626029610634,0.09982616454362869,1.9378590877749957e-05,0.052346065640449524,1.519270420074463,0.0,0.05361829698085785
278.0,305.0,-0.7041,0.1819,9.4965,-0.0115,-0.0008,-0.1213,-2.0325800381102503,-0.037339817732572556,3.7885231971740723,-1.5163989067077637,0.0029582090210169554,2.0513789653778076,5.090009230166235,-3.852257941616699e-05,0.27608010172843933,-1.5417102018939417,0.0,-0.049676425755023956,0.09983844310045242,3.5219629990201895e-10,0.046633969992399216,1.5193222761154175,0.0,0.05743327736854553
278.0,305.0,-0.7041,0.1819,9.4965,-0.0115,-0.0008,-0.1213,-2.032887121240133,-0.03930848091840744,3.8078439235687256,-1.5163347721099854,0.0040136114694178104,2.0408051013946533,5.090077268868246,-1.7821141227614135e-05,0.27432599663734436,-1.5417140165912073,0.0,-0.04208698868751526,0.0998343750834465,6.400994524599331e-15,0.03842054307460785,1.5192387104034424,-3.55236952600535e-05,0.05624992027878761
278.0,305.0,-0.7041,0.1819,9.4965,-0.0115,-0.0008,-0.1213,-2.033131261865133,-0.04304250329732895,3.8038477897644043,-1.5163062810897827,0.004559410270303488,2.047092914581299,5.089977162867346,-1.675169733061921e-05,0.263776034116745,-1.5416739622699183,0.0,-0.02848966419696808,0.09977363795042038,1.781740008404015e-18,0.05285709351301193,1.5192188024520874,-5.691510523320176e-05,0.03610348701477051
278.0,305.0,-0.7041,0.1819,9.4965,-0.0115,-0.0008,-0.1213,-2.0334507427611292,-0.04495455324649811,3.8301336765289307,-1.516282558441162,0.005581090226769447,2.036708354949951,5.0900330124195,-1.5590880138915963e-05,0.26826968789100647,-1.541750733052389,0.0,-0.054202571511268616,0.09981019794940948,3.2382241599230435e-23,0.053706493228673935,1.519270420074463,-0.0005505654262378812,0.028867490589618683
278.0,305.0,-0.7041,0.1819,9.4965,-0.0115,-0.0008,-0.1213,-2.0337258778014125,-0.04733561351895332,3.815048933029175,-1.5162869691848755,0.005554294679313898,2.0478668212890625,5.090021180897512,-1.4820652722846717e-05,0.29381850361824036,-1.5417221228228968,0.0,-0.041453927755355835,0.09981419146060944,9.01371729604972e-27,0.038449760526418686,1.5192387104034424,-0.000553665857296437,0.020497454330325127
278.0,305.0,-0.7041,0.1819,9.4965,-0.0115,-0.0008,-0.1213,-2.034126421014303,-0.046674393117427826,3.7986903190612793,-1.5162267684936523,0.006289849989116192,2.065605878829956,5.089997100621023,-1.3904748811910395e-05,0.2636532783508301,-1.541689697896139,0.0,-0.04248322546482086,0.09978186339139938,1.6381984322141455e-31,0.05402568727731705,1.5192465782165527,-0.00042902911081910133,0.07906041294336319
278.0,305.0,-0.7041,0.1819,9.4965,-0.0115,-0.0008,-0.1213,-2.0345217190184535,-0.04080306366086006,3.7931079864501953,-1.5162107944488525,0.005748608149588108,2.0344040393829346,5.090033250838079,-1.3095457688905299e-05,0.2667267620563507,-1.5416982809649866,0.0,-0.038153961300849915,0.09983436018228531,2.977344452344796e-36,0.05094046890735626,1.519270420074463,-0.0004344746412243694,0.01769450306892395
278.0,305.0,-0.7041,0.1819,9.4965,-0.0115,-0.0008,-0.1213,-2.034764905969137,-0.03763558715581894,3.802849292755127,-1.516187310218811,0.004111624322831631,2.0317604541778564,5.090041237860479,-1.873046494438313e-05,0.2798902094364166,-1.5417221228228968,0.0,-0.03835778683423996,0.09981377422809601,8.28754536472519e-40,0.0520939901471138,1.519242525100708,-0.00036019584513269365,0.027906278148293495
278.0,305.0,-0.7041,0.1819,9.4965,-0.0115,-0.0008,-0.1213,-2.035092969933981,-0.034416232258081436,3.8308098316192627,-1.5161182880401611,0.0015162911731749773,2.076814889907837,5.089977013855734,-2.3769758627167903e-05,0.2691024839878082,-1.5417259375201624,0.0,-0.047712016850709915,0.09983841329813004,1.5414283107572988e-44,0.04673202335834503,1.5192948579788208,-0.00032060264493338764,0.05994544178247452
278.0,305.0,-0.7041,0.1819,9.4965,-0.0115,-0.0008,-0.1213,-2.0353805027403773,-0.0326409712433815,3.8267760276794434,-1.5161947011947632,3.5714808888087646e-08,2.025480031967163,5.089981066971578,-3.3853273635031655e-05,0.2743605971336365,-1.541689697896139,0.0,-0.04547034949064255,0.09979788213968277,0.0,0.04268105328083038,1.5192426443099976,-0.0002824505208991468,0.10346736013889313
293.0,315.0,-0.4331,0.3607,10.0271,-0.0002,-0.0148,-0.1173,-2.03556027034902,-0.031390316784381866,3.8127636909484863,-1.516146183013916,8.624704954125068e-14,2.0888595581054688,5.090017336397924,-3.263784310547635e-05,0.27805066108703613,-1.541701618825094,0.0,-0.05039012432098389,0.09980602562427521,0.0,0.05067853257060051,1.5192184448242188,-0.0002252038539154455,0.04800679162144661
293.0,315.0,-0.4331,0.3607,10.0271,-0.0002,-0.0148,-0.1173,-2.0358039341368617,-0.029290463775396347,3.8301138877868652,-1.5161184072494507,2.794294667128513e-21,2.0371546745300293,5.090021121292867,-3.1132527510635555e-05,0.2618240714073181,-1.5416978041278284,0.0,-0.049794331192970276,0.0998624935746193,0.0,0.05763011425733566,1.519250512123108,-0.00018739957886282355,0.10159491002559662
293.0,315.0,-0.4331,0.3607,10.0271,-0.0002,-0.0148,-0.1173,-2.035971780816549,-0.024515237659215927,3.8413803577423096,-1.5161709785461426,0.0010932859731838107,2.06070613861084,5.090021329909124,-1.5085007362358738e-05,0.2795361280441284,-1.541689697896139,0.0,-0.05541957914829254,0.09985440969467163,0.0,0.054008059203624725,1.5192101001739502,-0.00019271476776339114,0.11843714118003845
293.0,315.0,-0.4331,0.3607,10.0271,-0.0002,-0.0148,-0.1173,-2.0361434421935023,-0.021381184458732605,3.8729634284973145,-1.5160707235336304,0.001495829434134066,2.0809006690979004,5.089977073460378,-4.198967396007447e-09,0.2636065185070038,-1.5417059103595179,0.0,-0.04651547968387604,0.09983841329813004,0.0,0.04484729841351509,1.519250512123108,-0.00017411995213478804,0.07146986573934555
293.0,315.0,-0.4331,0.3607,10.0271,-0.0002,-0.0148,-0.1173,-2.036290784875387,-0.017754584550857544,3.831942081451416,-1.516122817993164,0.001307638012804091,2.026278257369995,5.090021180897512,-7.631415166681546e-14,0.26610344648361206,-1.5416858831988733,0.0,-0.05039415508508682,0.0998261496424675,0.0,0.06559299677610397,1.5192782878875732,-0.0001542276586405933,0.05700206011533737
293.0,315.0,-0.4331,0.3607,10.0271,-0.0002,-0.0148,-0.1173,-2.0364347896971644,-0.017426157370209694,3.8071722984313965,-1.5161187648773193,0.0008940363768488169,2.016125440597534,5.090049195080557,-1.3869718867734155e-18,0.2697969675064087,-1.541717831288473,0.0,-0.05034157633781433,0.0998220294713974,0.0,0.04843622073531151,1.519250512123108,-0.00011545426968950778,0.09120640158653259
293.0,315.0,-0.4331,0.3607,10.0271,-0.0002,-0.0148,-0.1173,-2.0365306339659632,-0.01737619750201702,3.8331003189086914,-1.51610267162323,0.0006971097900532186,2.0066769123077393,5.0900291977222345,-3.860687289635549e-22,0.24801005423069,-1.541701618825094,0.0,-0.05805962160229683,0.09983022511005402,1.1613040442171041e-05,0.05172152817249298,1.5192465782165527,-0.00010710913920775056,0.08143716305494308
293.0,315.0,-0.4331,0.3607,10.0271,-0.0002,-0.0148,-0.1173,-2.0366584263243617,-0.016827205196022987,3.823880195617676,-1.5160984992980957,0.0005767142283730209,2.0200064182281494,5.090013253479757,-7.01660883277782e-27,0.2802414894104004,-1.541717831288473,0.0,-0.04968330264091492,0.09985435009002686,6.843179289717227e-05,0.05399177968502045,1.5192663669586182,-9.779795072972775e-05,0.08956541121006012
293.0,315.0,-0.4331,0.3607,10.0271,-0.0002,-0.0148,-0.1173,-2.036790510217184,-0.015463205985724926,3.854675769805908,-1.5160788297653198,0.0011127324542030692,2.084785223007202,5.089969533472814,-1.953098722139825e-30,0.2518422305583954,-1.5417102018939417,0.0,-0.06552425771951675,0.09982609003782272,6.544706411659718e-05,0.06106948107481003,1.519270420074463,-9.181198402075097e-05,0.11415117979049683
293.0,315.0,-0.4331,0.3607,10.0271,-0.0002,-0.0148,-0.1173,-2.0369063816466273,-0.013777040876448154,3.81565523147583,-1.5160870552062988,0.001379767432808876,2.02305269241333,5.089997011214056,-3.5496606097815865e-35,0.2547990381717682,-1.5417426268206995,0.0,-0.05594446510076523,0.09986250102519989,6.18489139014855e-05,0.05069030076265335,1.5192545652389526,-0.00010185816790908575,0.1084083840250969
293.0,315.0,-0.4331,0.3607,10.0271,-0.0002,-0.0148,-0.1173,-2.0369864902892054,-0.012846162542700768,3.8361144065856934,-1.5161356925964355,0.0017342590726912022,2.073040008544922,5.0900291977222345,-6.4513399090125226e-40,0.2617173492908478,-1.5417302290545862,0.0,-0.06562342494726181,0.09985017776489258,5.8625890233088285e-05,0.053164295852184296,1.5192426443099976,-7.89291734690778e-05,0.09147536009550095
293.0,315.0,-0.4331,0.3607,10.0271,-0.0002,-0.0148,-0.1173,-2.037069936791891,-0.012623189948499203,3.839215040206909,-1.5160462856292725,0.0015096348943188787,2.104487895965576,5.090045141964712,-1.793662034335766e-43,0.2589557468891144,-1.5417059103595179,0.0,-0.05110890418291092,0.09981419891119003,6.769220635760576e-05,0.060937535017728806,1.5192183256149292,-7.498361810576171e-05,0.06736933439970016
305.0,330.0,-0.6305,0.1035,9.7561,-0.0292,0.0099,-0.135,-2.037170549432272,-0.01217989157885313,3.8797550201416016,-1.5160503387451172,0.0012467228807508945,2.0601885318756104,5.090009230166235,-0.0,0.2692350149154663,-1.541661564503805,0.0,-0.0523860901594162,0.09980602562427521,6.447149644372985e-05,0.05166220664978027,1.5192584991455078,-8.435775816906244e-05,0.11680500209331512
305.0,330.0,-0.6305,0.1035,9.7561,-0.0292,0.0099,-0.135,-2.037274023095602,-0.012533633969724178,3.8651835918426514,-1.5160627365112305,0.0010101068764925003,2.0113422870635986,5.090017336397924,-0.0,0.2592368423938751,-1.5417140165912073,0.0,-0.07192855328321457,0.09985014796257019,6.153291906230152e-05,0.05345975607633591,1.5192545652389526,-7.939663191791624e-05,0.07753266394138336
305.0,330.0,-0.6305,0.1035,9.7561,-0.0292,0.0099,-0.135,-2.0373174152769984,-0.01236292626708746,3.8592610359191895,-1.5160385370254517,0.001163833076134324,2.0792171955108643,5.090069430857458,-0.0,0.2589071989059448,-1.5416978041278284,0.0,-0.056085627526044846,0.09982611238956451,3.015871152456384e-05,0.043222568929195404,1.5192465782165527,-8.86960988282226e-05,0.10136135667562485
305.0,330.0,-0.6305,0.1035,9.7561,-0.0292,0.0099,-0.135,-2.037461896935934,-0.012690084055066109,3.8087849617004395,-1.5160105228424072,0.001658101798966527,2.096036911010742,5.089961427241125,-0.0,0.26708725094795227,-1.5417059103595179,0.0,-0.06151968240737915,0.09981786459684372,5.481197162815477e-10,0.05216659978032112,1.5192426443099976,-8.578266715630889e-05,0.05110762268304825
305.0,330.0,-0.6305,0.1035,9.7561,-0.0292,0.0099,-0.135,-2.0375377140440882,-0.01275977399200201,3.86629056930542,-1.5160269737243652,0.0021841672714799643,2.0536327362060547,5.090009230166235,-0.0,0.26671504974365234,-1.5417259375201624,0.0,-0.050237469375133514,0.09981786459684372,9.96180541485911e-15,0.05435631424188614,1.5192387104034424,-9.008048800751567e-05,0.08377385139465332
305.0,330.0,-0.6305,0.1035,9.7561,-0.0292,0.0099,-0.135,-2.0375734768309535,-0.013564744032919407,3.877779722213745,-1.516022801399231,0.0023869629949331284,2.045809268951416,5.090009230166235,-0.0,0.2563091516494751,-1.5417259375201624,0.0,-0.06297516822814941,0.09978149086236954,2.7729052482877707e-18,0.04503283649682999,1.5192066431045532,-0.00010001905320677906,0.12283840030431747
305.0,330.0,-0.6305,0.1035,9.7561,-0.0292,0.0099,-0.135,-2.037765165368551,-0.015258369036018848,3.8659937381744385,-1.5159224271774292,0.0027082073502242565,2.042353868484497,5.089997011214056,-0.0,0.26008984446525574,-1.5416939894305628,0.0,-0.05691917613148689,0.09974578768014908,5.0396180137096223e-23,0.042688556015491486,1.5192185640335083,-9.410556231159717e-05,0.11770959198474884
305.0,330.0,-0.6305,0.1035,9.7561,-0.0292,0.0099,-0.135,-2.037861486474508,-0.016550913453102112,3.8362340927124023,-1.5160197019577026,0.0024081626906991005,2.040328025817871,5.0900090513523,-0.0,0.2572736144065857,-1.5417102018939417,0.0,-0.06269357353448868,0.09980185329914093,1.4027962187923397e-26,0.04702984169125557,1.5192465782165527,-9.006943582789972e-05,0.11331216990947723
305.0,330.0,-0.6305,0.1035,9.7561,-0.0292,0.0099,-0.135,-2.037957330743307,-0.017828185111284256,3.8545844554901123,-1.5159471035003662,0.002363909501582384,2.033125638961792,5.089997011214056,-0.0,0.2658308744430542,-1.5417102018939417,0.0,-0.06133505702018738,0.0998380184173584,2.5495130054786777e-31,0.04441748559474945,1.5191669464111328,-9.734914056025445e-05,0.13010479509830475
305.0,330.0,-0.6305,0.1035,9.7561,-0.0292,0.0099,-0.135,-2.038161417047018,-0.018391676247119904,3.8510324954986572,-1.5159389972686768,0.002180244540795684,2.063750982284546,5.0899889943893335,-0.0,0.26460039615631104,-1.5417745749102991,0.0,-0.04832512140274048,0.09984209388494492,4.6336141272448835e-36,0.03872952610254288,1.519190788269043,-9.23718253034167e-05,0.11406104266643524
305.0,330.0,-0.6305,0.1035,9.7561,-0.0292,0.0099,-0.135,-2.0382286510863246,-0.01909358613193035,3.84417724609375,-1.515886664390564,0.0018145769136026502,2.118426561355591,5.089981066971578,-0.0,0.25317811965942383,-1.5417140165912073,0.0,-0.04785645008087158,0.09984209388494492,1.2897831325338481e-39,0.047994740307331085,1.5192584991455078,-8.894837810657918e-05,0.08797141909599304
305.0,330.0,-0.6305,0.1035,9.7561,-0.0292,0.0099,-0.135,-2.038384576837057,-0.020018508657813072,3.8521687984466553,-1.5159111022949219,0.0011896735522896051,2.057943344116211,5.0900213597114465,-0.0,0.2540215849876404,-1.541701618825094,0.0,-0.054859813302755356,0.0998503565788269,2.382207389352189e-44,0.05447782576084137,1.5192670822143555,-8.475993672618642e-05,0.06576614081859589
304.0,344.0,-0.6622,0.0939,9.5438,-0.0194,0.0055,-0.1179,-2.038576742211813,-0.021249620243906975,3.845372200012207,-1.515934705734253,0.0007977805216796696,2.0413384437561035,5.089953589230337,-0.0,0.2509717047214508,-1.5417059103595179,0.0,-0.06021120399236679,0.09978141635656357,0.0,0.054723747074604034,1.5192105770111084,-8.105824235826731e-05,0.08612219989299774
304.0,344.0,-0.6622,0.0939,9.5438,-0.0194,0.0055,-0.1179,-2.0387326679625453,-0.02258404716849327,3.8683881759643555,-1.515898585319519,0.0004974647308699787,2.083653211593628,5.0900291977222345,-0.0,0.2690201997756958,-1.5417259375201624,0.0,-0.060354650020599365,0.09977362304925919,0.0,0.046556271612644196,1.5191986560821533,-0.00012376259837765247,0.09115800261497498
304.0,344.0,-0.6622,0.0939,9.5438,-0.0194,0.0055,-0.1179,-2.0389162502684535,-0.022211074829101562,3.8314013481140137,-1.515894889831543,0.00034489206154830754,2.0914559364318848,5.089988964587011,-0.0,0.26147109270095825,-1.5417102018939417,0.0,-0.04780035465955734,0.09985437244176865,0.0,0.06366994231939316,1.5192224979400635,-0.00011149683996336535,0.0876716822385788
304.0,344.0,-0.6622,0.0939,9.5438,-0.0194,0.0055,-0.1179,-2.039079805413717,-0.02222497947514057,3.8459324836730957,-1.5159108638763428,0.00031665590358898044,2.069580554962158,5.089989173203268,-0.0,0.2668663561344147,-1.5416815916644495,0.0,-0.06008530780673027,0.09979378432035446,0.0,0.054774560034275055,1.5192387104034424,-0.00010144305997528136,0.1016991138458252
304.0,344.0,-0.6622,0.0939,9.5438,-0.0194,0.0055,-0.1179,-2.039219995538229,-0.02160523273050785,3.8270058631896973,-1.5158908367156982,0.0002987634507007897,2.0278234481811523,5.089957612543859,-4.151690546905229e-08,0.2711062431335449,-1.5416815916644495,0.0,-0.06137268245220184,0.09983804821968079,0.0,0.048267751932144165,1.5192264318466187,-9.501709428150207e-05,0.12090161442756653
