ramyac6/ROB537/final_project/csv/good/good_75.csv
tof_0,tof_1,accelx,accely,accelz,gyrox,gyroy,gyroz,shoulder_lift_joint_position,shoulder_lift_joint_velocity,shoulder_lift_joint_effort,elbow_joint_position,elbow_joint_velocity,elbow_joint_effort,wrist_1_joint_position,wrist_1_joint_velocity,wrist_1_joint_effort,wrist_2_joint_position,wrist_2_joint_velocity,wrist_2_joint_effort,wrist_3_joint_position,wrist_3_joint_velocity,wrist_3_joint_effort,shoulder_pan_joint_position,shoulder_pan_joint_velocity,shoulder_pan_joint_effort
175.0,230.0,2.4885,-0.8955,9.1131,-0.0377,0.0206,-0.1133,-1.7364784679808558,0.0,2.852084159851074,-1.650846004486084,-0.0,2.140990972518921,4.603703661555908,-0.0,0.3002176582813263,-1.6521456877337855,-0.0,-0.00567686976864934,1.2193453311920166,0.0,-0.0077444156631827354,0.883517324924469,0.0,-0.00019584046094678342
175.0,230.0,2.4885,-0.8955,9.1131,-0.0377,0.0206,-0.1133,-1.7364589176573695,0.0,2.898239850997925,-1.6508336067199707,-0.0,2.132702112197876,4.603736086482666,-0.0,0.29648253321647644,-1.652198616658346,-0.0,0.012716862373054028,1.219369888305664,0.0,-0.010351385921239853,0.883521556854248,0.0,0.0266106054186821
175.0,230.0,2.4885,-0.8955,9.1131,-0.0377,0.0206,-0.1133,-1.7364865742125453,0.0,2.845607042312622,-1.650801658630371,-0.0,2.1524648666381836,4.603711290950439,-0.0,0.28722962737083435,-1.6521661917315882,-0.0,0.010705150663852692,1.2193617820739746,0.0,-0.0012433533556759357,0.8835293650627136,0.0,-0.007947600446641445
175.0,230.0,2.4885,-0.8955,9.1131,-0.0377,0.0206,-0.1133,-1.7364307842650355,0.0,2.8714370727539062,-1.650818109512329,-0.0,2.1141695976257324,4.603719397182129,-0.0,0.29306620359420776,-1.6521661917315882,-0.0,0.014614535495638847,1.2193498611450195,0.0,-0.009175220504403114,0.883517324924469,0.0,-0.02094639278948307
175.0,230.0,2.4885,-0.8955,9.1131,-0.0377,0.0206,-0.1133,-1.7364589176573695,0.0,2.874134063720703,-1.650801658630371,-0.0,2.1810624599456787,4.603727503413818,-0.0,0.3047938942909241,-1.6521905104266565,-0.0,0.0010666733141988516,1.2193292379379272,0.0,-0.003553778398782015,0.8835452795028687,0.0,-0.004761787131428719
175.0,230.0,2.4885,-0.8955,9.1131,-0.0377,0.0206,-0.1133,-1.736462732354635,0.0,2.871170997619629,-1.6508376598358154,-0.0,2.1444191932678223,4.603727503413818,-0.0,0.3037106990814209,-1.6521342436419886,-0.0,-0.0023286757059395313,1.219297170639038,0.0,-0.008307931013405323,0.8835253715515137,0.0,-0.014019276015460491
175.0,230.0,2.4885,-0.8955,9.1131,-0.0377,0.0206,-0.1133,-1.7364746532835902,0.0,2.828991413116455,-1.6508065462112427,-0.0,2.1564226150512695,4.603776140803955,-0.0,0.30290520191192627,-1.6521580854998987,-0.0,0.0038254002574831247,1.2193853855133057,0.0,-0.005765735171735287,0.8835372924804688,0.0,0.004922320134937763
179.0,227.0,2.4586,-0.9111,9.0891,-0.0376,0.0257,-0.118,-1.7364503345885218,0.0,2.87605881690979,-1.6509027481079102,-0.0,2.1291098594665527,4.603715582484863,-0.0,0.29232341051101685,-1.652186695729391,-0.0,0.006814815104007721,1.2193292379379272,0.0,0.007357052527368069,0.8835175037384033,0.0,-0.006740564946085215
179.0,227.0,2.4586,-0.9111,9.0891,-0.0376,0.0257,-0.118,-1.736478944818014,0.0,2.8701424598693848,-1.6507902145385742,-0.0,2.149223566055298,4.6036998468586425,-0.0,0.2969793975353241,-1.6521905104266565,-0.0,-0.0003955550491809845,1.2193249464035034,0.0,0.0021930569782853127,0.8835493326187134,0.0,0.035275913774967194
179.0,227.0,2.4586,-0.9111,9.0891,-0.0376,0.0257,-0.118,-1.736422678033346,0.0,2.869492292404175,-1.6508221626281738,-0.0,2.150214195251465,4.603691740626953,-0.0,0.2877250611782074,-1.6521948019610804,-0.0,0.004391181282699108,1.219341516494751,0.0,-0.006618799176067114,0.8835134506225586,0.0,0.04188820719718933
179.0,227.0,2.4586,-0.9111,9.0891,-0.0376,0.0257,-0.118,-1.7364708385863246,0.0,2.8615922927856445,-1.6508221626281738,-0.0,2.1559417247772217,4.603695555324219,-0.0,0.290520042181015,-1.652186695729391,-0.0,0.008643515408039093,1.2193371057510376,0.0,-0.005150168668478727,0.8835092782974243,0.0,0.05353185161948204
179.0,227.0,2.4586,-0.9111,9.0891,-0.0376,0.0257,-0.118,-1.7364422283568324,0.0,2.8891782760620117,-1.6508221626281738,-0.0,2.13812255859375,4.603787584895752,-0.0,0.29229849576950073,-1.6521747748004358,-0.0,0.003195097902789712,1.2193818092346191,0.0,-0.002384955296292901,0.8835012912750244,0.0,0.013219326734542847
179.0,227.0,2.4586,-0.9111,9.0891,-0.0376,0.0257,-0.118,-1.7364264927306117,0.0,2.901498556137085,-1.6508221626281738,-0.0,2.1242384910583496,4.603727503413818,-0.0,0.29915302991867065,-1.652182404194967,-0.0,0.007162291556596756,1.2193937301635742,0.0,-0.003096043597906828,0.8835134506225586,0.0,0.01020200178027153
179.0,227.0,2.4586,-0.9111,9.0891,-0.0376,0.0257,-0.118,-1.7364183864989222,0.0,2.8547914028167725,-1.6508294343948364,-0.0,2.1481804847717285,4.603715105647705,-0.0,0.29707515239715576,-1.6521781126605433,-0.0,-0.007713427767157555,1.219369888305664,0.0,-0.002320569474250078,0.8835214972496033,0.0,-0.061181195080280304
179.0,227.0,2.4586,-0.9111,9.0891,-0.0376,0.0257,-0.118,-1.73638977626943,0.0,2.8866865634918213,-1.650857925415039,-0.0,2.138054132461548,4.603783293361328,-0.0,0.3001224994659424,-1.6521781126605433,-0.0,0.010789900086820126,1.219341516494751,0.0,-0.008156167343258858,0.8835452795028687,0.0,-0.024407491087913513
179.0,227.0,2.4586,-0.9111,9.0891,-0.0376,0.0257,-0.118,-1.736462255517477,0.0,2.871976375579834,-1.6508582830429077,-0.0,2.1476428508758545,4.603706999416016,-0.0,0.3045509457588196,-1.6521623770343226,-0.0,-0.005681656766682863,1.219341516494751,0.0,0.0014740264741703868,0.8835213780403137,0.0,0.028869591653347015
179.0,227.0,2.4586,-0.9111,9.0891,-0.0376,0.0257,-0.118,-1.7364503345885218,0.0,2.837935447692871,-1.650821328163147,-0.0,2.148519515991211,4.603723688716553,-0.0,0.2869477868080139,-1.6522305647479456,-0.0,0.0019416922004893422,1.2193248271942139,0.0,-0.013920729979872704,0.8835012912750244,0.0,-0.03492928668856621
179.0,227.0,2.4586,-0.9111,9.0891,-0.0376,0.0257,-0.118,-1.7364427051939906,0.0,2.860675096511841,-1.6508501768112183,-0.0,2.1647214889526367,4.6037279802509765,-0.0,0.299199640750885,-1.6521943251239222,-0.0,-0.010841554030776024,1.2193089723587036,0.0,0.010534941218793392,0.8835134506225586,0.0,0.03672650456428528
179.0,227.0,2.4586,-0.9111,9.0891,-0.0376,0.0257,-0.118,-1.7364865742125453,0.0,2.855652332305908,-1.6508057117462158,-0.0,2.1574594974517822,4.603704138393066,-0.0,0.3019874393939972,-1.6521943251239222,-0.0,0.00561621505767107,1.2193291187286377,0.0,0.0008978969417512417,0.8834892511367798,0.0,0.012483975850045681
171.0,230.0,2.3761,-0.9308,9.0754,-0.0339,0.0286,-0.118,-1.736462732354635,0.0,2.873587131500244,-1.650866150856018,-0.0,2.117677927017212,4.603706999416016,-0.0,0.3025563061237335,-1.6521623770343226,-0.0,0.0024395491927862167,1.2193248271942139,0.0,-0.0027682087384164333,0.8835175633430481,0.0,0.022590825334191322
171.0,230.0,2.3761,-0.9308,9.0754,-0.0339,0.0286,-0.118,-1.736495157281393,0.0,2.840578079223633,-1.650857925415039,-0.0,2.1185243129730225,4.603736086482666,-0.0,0.3062622547149658,-1.6522100607501429,-0.0,0.001600609626621008,1.2193539142608643,0.0,-0.010823436081409454,0.8834853768348694,0.0,-0.03246670588850975
171.0,230.0,2.3761,-0.9308,9.0754,-0.0339,0.0286,-0.118,-1.7364946804442347,0.0,2.8386244773864746,-1.6508702039718628,-0.0,2.1310181617736816,4.603736086482666,-0.0,0.3003033399581909,-1.6522186438189905,-0.0,0.0001541490200906992,1.2192727327346802,0.0,-0.011024132370948792,0.8834653496742249,0.0,0.0207050833851099
171.0,230.0,2.3761,-0.9308,9.0754,-0.0339,0.0286,-0.118,-1.7364422283568324,0.0,2.8727333545684814,-1.650821328163147,-0.0,2.1486167907714844,4.603759451503418,-0.0,0.3037925064563751,-1.652186695729391,-0.0,0.004486028105020523,1.2193937301635742,0.0,-0.0015430967323482037,0.8835737705230713,0.0,-0.029144486412405968
171.0,230.0,2.3761,-0.9308,9.0754,-0.0339,0.0286,-0.118,-1.7364140949644984,0.0,2.8615643978118896,-1.6508419513702393,-0.0,2.13150954246521,4.603715105647705,-0.0,0.29856443405151367,-1.652170483266012,-0.0,0.006277543026953936,1.2193249464035034,0.0,-0.0003982512280344963,0.8835452795028687,0.0,-0.00023774942383170128
171.0,230.0,2.3761,-0.9308,9.0754,-0.0339,0.0286,-0.118,-1.7364345989623011,0.0,2.8680930137634277,-1.6508302688598633,-0.0,2.1015331745147705,4.6037513452717285,-0.0,0.3089342713356018,-1.6521661917315882,-0.0,0.005858913995325565,1.2193981409072876,0.0,-0.007184206508100033,0.8835412859916687,0.0,-0.009662600234150887
171.0,230.0,2.3761,-0.9308,9.0754,-0.0339,0.0286,-0.118,-1.7365032635130824,0.0,2.8868675231933594,-1.650818109512329,-0.0,2.12406063079834,4.603738947505615,-0.0,0.30052679777145386,-1.6522143522845667,-0.0,-0.007050679065287113,1.2192810773849487,0.0,0.00369814271107316,0.8834972381591797,0.0,0.02027491107583046
171.0,230.0,2.3761,-0.9308,9.0754,-0.0339,0.0286,-0.118,-1.7365108929076136,0.0,2.8622751235961914,-1.6508619785308838,-0.0,2.176920175552368,4.603743239040039,-0.0,0.30057820677757263,-1.6522062460528772,-0.0,-0.012508336454629898,1.2193334102630615,0.0,-0.007323079276829958,0.8835452795028687,0.0,0.014161460101604462
171.0,230.0,2.3761,-0.9308,9.0754,-0.0339,0.0286,-0.118,-1.7364469967284144,0.0,2.8165745735168457,-1.6508501768112183,-0.0,2.167799234390259,4.603743239040039,-0.0,0.29852163791656494,-1.652198616658346,-0.0,0.0026879184879362583,1.2193052768707275,0.0,0.0005852519534528255,0.8834972381591797,0.0,-0.02092626690864563
171.0,230.0,2.3761,-0.9308,9.0754,-0.0339,0.0286,-0.118,-1.7364665470519007,0.0,2.8835763931274414,-1.6508742570877075,-0.0,2.143725872039795,4.603771849269531,-0.0,0.3018589913845062,-1.652182404194967,-0.0,0.010912368074059486,1.2193167209625244,0.0,0.011212952435016632,0.8835253715515137,0.0,-0.006931843236088753
171.0,230.0,2.3761,-0.9308,9.0754,-0.0339,0.0286,-0.118,-1.7364427051939906,0.0,2.898041248321533,-1.650846004486084,-0.0,2.1801130771636963,4.603787584895752,-0.0,0.2882936894893646,-1.652198616658346,-0.0,0.0013139349175617099,1.2192646265029907,0.0,-0.004198230803012848,0.8835134506225586,0.0,0.011638636700809002
171.0,230.0,2.3761,-0.9308,9.0754,-0.0339,0.0286,-0.118,-1.736462732354635,0.0,2.8909859657287598,-1.6508376598358154,-0.0,2.158508777618408,4.603712244624756,-0.0,0.29992687702178955,-1.6522262732135218,-0.0,0.00396950077265501,1.219401478767395,0.0,-0.00863832700997591,0.883525550365448,0.0,-0.05541817471385002
171.0,230.0,2.3761,-0.9308,9.0754,-0.0339,0.0286,-0.118,-1.7364264927306117,0.0,2.8755197525024414,-1.650818109512329,-0.0,2.1254239082336426,4.603736086482666,-0.0,0.28985998034477234,-1.652186695729391,-0.0,0.006711821537464857,1.2193126678466797,0.0,0.008654252626001835,0.8835012912750244,0.0,-0.03417395055294037
172.0,236.0,2.5035,-0.9159,9.0233,-0.0391,0.0255,-0.1239,-1.736478944818014,0.0,2.902975082397461,-1.6508253812789917,-0.0,2.1535263061523438,4.603747530574463,-0.0,0.3063141107559204,-1.652182404194967,-0.0,0.004030995536595583,1.2193331718444824,0.0,-0.010774148628115654,0.8835175037384033,0.0,-0.003347670193761587
172.0,236.0,2.5035,-0.9159,9.0233,-0.0391,0.0255,-0.1239,-1.7364264927306117,0.0,2.880939483642578,-1.650846004486084,-0.0,2.149008274078369,4.6037513452717285,-0.0,0.29892149567604065,-1.6521499792682093,-0.0,0.008414175361394882,1.2193126678466797,0.0,-0.005959297996014357,0.8834852576255798,0.0,-0.039319563657045364
172.0,236.0,2.5035,-0.9159,9.0233,-0.0391,0.0255,-0.1239,-1.7364465198912562,0.0,2.879196882247925,-1.6508419513702393,-0.0,2.21364164352417,4.603731794948242,-0.0,0.3023056089878082,-1.6521180311786097,-0.0,-0.0009111657273024321,1.219341516494751,0.0,0.005174226127564907,0.8835452795028687,0.0,0.0012190481647849083
172.0,236.0,2.5035,-0.9159,9.0233,-0.0391,0.0255,-0.1239,-1.7364746532835902,0.0,2.8624467849731445,-1.6508376598358154,-0.0,2.1405744552612305,4.603771849269531,-0.0,0.3029818534851074,-1.6522262732135218,-0.0,0.0011940193362534046,1.2193048000335693,0.0,-0.00034559168852865696,0.8835134506225586,0.0,0.006065329536795616
172.0,236.0,2.5035,-0.9159,9.0233,-0.0391,0.0255,-0.1239,-1.7364546261229457,0.0,2.815439224243164,-1.6508501768112183,-0.0,2.1365699768066406,4.603771849269531,-0.0,0.31534022092819214,-1.6521781126605433,-0.0,0.0024691896978765726,1.219297170639038,0.0,-0.005924030672758818,0.8835293650627136,0.0,-0.0010253656655550003
172.0,236.0,2.5035,-0.9159,9.0233,-0.0391,0.0255,-0.1239,-1.7364503345885218,0.0,2.8531997203826904,-1.650866150856018,-0.0,2.1816201210021973,4.603715105647705,-0.0,0.281634658575058,-1.6522024313556116,-0.0,0.0025846008211374283,1.2193254232406616,0.0,-0.00485704792663455,0.8835213780403137,0.0,0.0031289616599678993
172.0,236.0,2.5035,-0.9159,9.0233,-0.0391,0.0255,-0.1239,-1.7364465198912562,0.0,2.873136520385742,-1.6508742570877075,-0.0,2.0999486446380615,4.603683157558105,-0.0,0.311147540807724,-1.652198616658346,-0.0,0.012290524318814278,1.2192686796188354,0.0,-0.010664576664566994,0.8835175037384033,0.0,0.01121810358017683
172.0,236.0,2.5035,-0.9159,9.0233,-0.0391,0.0255,-0.1239,-1.7364469967284144,0.0,2.8734641075134277,-1.650846004486084,-0.0,2.1494452953338623,4.603715105647705,-0.0,0.3095778226852417,-1.6521623770343226,-0.0,-0.0005826661363244057,1.2193248271942139,0.0,-0.0019334229873493314,0.8835614919662476,0.0,0.0019061830826103687
172.0,236.0,2.5035,-0.9159,9.0233,-0.0391,0.0255,-0.1239,-1.7364589176573695,0.0,2.8661117553710938,-1.6508294343948364,-0.0,2.1072940826416016,4.603738947505615,-0.0,0.29357635974884033,-1.6521781126605433,-0.0,-0.005449769552797079,1.2193739414215088,0.0,-0.01613779179751873,0.8835054636001587,0.0,0.022668346762657166
172.0,236.0,2.5035,-0.9159,9.0233,-0.0391,0.0255,-0.1239,-1.736462732354635,0.0,2.8337135314941406,-1.650854229927063,-0.0,2.1001381874084473,4.603706999416016,-0.0,0.2965676188468933,-1.652198616658346,-0.0,0.0024374714121222496,1.219308853149414,0.0,0.0027515802066773176,0.8835372924804688,0.0,0.02276810072362423
172.0,236.0,2.5035,-0.9159,9.0233,-0.0391,0.0255,-0.1239,-1.7364589176573695,0.0,2.8596651554107666,-1.6508057117462158,-0.0,2.1560781002044678,4.603736086482666,-0.0,0.2919464707374573,-1.652182404194967,-0.0,0.01117681059986353,1.219308853149414,0.0,-0.015114989131689072,0.8834892511367798,0.0,0.005899291485548019
172.0,236.0,2.5035,-0.9159,9.0233,-0.0391,0.0255,-0.1239,-1.736467023889059,0.0,2.8571953773498535,-1.6508376598358154,-0.0,2.1393496990203857,4.603738947505615,-0.0,0.3053894639015198,-1.6522024313556116,-0.0,0.0014336863532662392,1.2192928791046143,0.0,-0.006468472070991993,0.8835334181785583,0.0,-0.02013760805130005
172.0,236.0,2.5035,-0.9159,9.0233,-0.0391,0.0255,-0.1239,-1.7364379368224085,0.0,2.849181890487671,-1.6508294343948364,-0.0,2.1305994987487793,4.603727503413818,-0.0,0.290024995803833,-1.652198616658346,-0.0,-0.015215982683002949,1.2193458080291748,0.0,-0.0012489946093410254,0.8835094571113586,0.0,0.008834488689899445
180.0,239.0,2.5089,-0.8931,8.9749,-0.0357,0.0203,-0.1104,-1.7364384136595667,0.0,2.86722993850708,-1.650854229927063,-0.0,2.140561819076538,4.603738947505615,-0.0,0.3024935722351074,-1.6522067228900355,-0.0,0.008323042653501034,1.2193171977996826,0.0,0.008470526896417141,0.8835493326187134,0.0,0.03129089996218681
180.0,239.0,2.5089,-0.8931,8.9749,-0.0357,0.0203,-0.1104,-1.7364345989623011,0.0,2.8855345249176025,-1.6508501768112183,-0.0,2.23795223236084,4.603731794948242,-0.0,0.30296942591667175,-1.6522224585162562,-0.0,0.007430541794747114,1.219353437423706,0.0,-0.0006752560148015618,0.8835334181785583,0.0,-0.020344242453575134
180.0,239.0,2.5089,-0.8931,8.9749,-0.0357,0.0203,-0.1104,-1.7364183864989222,0.0,2.868910074234009,-1.6508057117462158,-0.0,2.1127777099609375,4.603727503413818,-0.0,0.300400972366333,-1.6521661917315882,-0.0,-0.004247448872774839,1.2193334102630615,0.0,-0.001788436435163021,0.8835175037384033,0.0,-0.05149233341217041
180.0,239.0,2.5089,-0.8931,8.9749,-0.0357,0.0203,-0.1104,-1.7364260158934535,0.0,2.8525891304016113,-1.6509183645248413,-0.0,2.1659786701202393,4.603743239040039,-0.0,0.29624754190444946,-1.6522024313556116,-0.0,0.00943142082542181,1.219361662864685,0.0,0.0019008787348866463,0.8835412859916687,0.0,0.03764861449599266
180.0,239.0,2.5089,-0.8931,8.9749,-0.0357,0.0203,-0.1104,-1.7364465198912562,0.0,2.83267879486084,-1.650837779045105,-0.0,2.1490280628204346,4.6037513452717285,-0.0,0.29908353090286255,-1.6522100607501429,-0.0,0.002017898950725794,1.2194297313690186,0.0,-0.007742517162114382,0.8835254907608032,0.0,0.011107600294053555
180.0,239.0,2.5089,-0.8931,8.9749,-0.0357,0.0203,-0.1104,-1.7365395031371058,0.0,2.8222036361694336,-1.650846004486084,-0.0,2.1916701793670654,4.603739901179932,-0.0,0.3058083951473236,-1.652210537587301,-0.0,0.006699966732412577,1.2193207740783691,0.0,-0.005469226278364658,0.8834932446479797,0.0,-0.017183102667331696
180.0,239.0,2.5089,-0.8931,8.9749,-0.0357,0.0203,-0.1104,-1.7364102802672328,0.0,2.85555362701416,-1.6508619785308838,-0.0,2.156862258911133,4.603719397182129,-0.0,0.30461981892585754,-1.652198616658346,-0.0,0.007152628153562546,1.2193617820739746,0.0,-0.0058335731737315655,0.8835213780403137,0.0,-0.02135508880019188
180.0,239.0,2.5089,-0.8931,8.9749,-0.0357,0.0203,-0.1104,-1.7364708385863246,0.0,2.844829559326172,-1.6508017778396606,-0.0,2.1349215507507324,4.603715105647705,-0.0,0.3060459792613983,-1.6522224585162562,-0.0,0.002839886350557208,1.219397783279419,0.0,-0.0019513482693582773,0.8835054636001587,0.0,-0.0025058933533728123
180.0,239.0,2.5089,-0.8931,8.9749,-0.0357,0.0203,-0.1104,-1.7365032635130824,0.0,2.85353946685791,-1.6508619785308838,-0.0,2.1681878566741943,4.603743239040039,-0.0,0.2966521978378296,-1.6521943251239222,-0.0,-0.001969987526535988,1.2193818092346191,0.0,-0.017077092081308365,0.8834892511367798,0.0,0.009563824161887169
180.0,239.0,2.5089,-0.8931,8.9749,-0.0357,0.0203,-0.1104,-1.7364546261229457,0.0,2.871975898742676,-1.650866150856018,-0.0,2.1799912452697754,4.603715105647705,-0.0,0.3023710250854492,-1.6521747748004358,-0.0,-0.0038872486911714077,1.2193493843078613,0.0,-0.002515331609174609,0.8835334181785583,0.0,-0.0014155339449644089
180.0,239.0,2.5089,-0.8931,8.9749,-0.0357,0.0203,-0.1104,-1.7364345989623011,0.0,2.8706421852111816,-1.6508821249008179,-0.0,2.130218029022217,4.603683157558105,-0.0,0.29827097058296204,-1.6522024313556116,-0.0,-0.0002140591386705637,1.2193167209625244,0.0,-0.007463579066097736,0.8835094571113586,0.0,0.005445707589387894
180.0,239.0,2.5089,-0.8931,8.9749,-0.0357,0.0203,-0.1104,-1.736422678033346,0.0,2.8395743370056152,-1.6508058309555054,-0.0,2.2127490043640137,4.6036998468586425,-0.0,0.29906317591667175,-1.652170483266012,-0.0,0.007053518667817116,1.2193458080291748,0.0,-0.0038695340044796467,0.8835054636001587,0.0,0.014690211974084377
177.0,227.0,2.4784,-0.8812,9.0538,-0.0336,0.0237,-0.1139,-1.7364264927306117,0.0,2.883364677429199,-1.6508138179779053,-0.0,2.0938267707824707,4.603703661555908,-0.0,0.2913358211517334,-1.6522067228900355,-0.0,-0.0023118159733712673,1.219353437423706,0.0,-0.0052968719974160194,0.8835213780403137,0.0,-0.03344062343239784
177.0,227.0,2.4784,-0.8812,9.0538,-0.0336,0.0237,-0.1139,-1.7364465198912562,0.0,2.8772215843200684,-1.6508501768112183,-0.0,2.1263370513916016,4.603743239040039,-0.0,0.3004523515701294,-1.6521456877337855,-0.0,-0.006732107140123844,1.219273328781128,0.0,-0.006989418528974056,0.883533239364624,0.0,-0.030429057776927948
177.0,227.0,2.4784,-0.8812,9.0538,-0.0336,0.0237,-0.1139,-1.7364469967284144,0.0,2.8529608249664307,-1.65080988407135,-0.0,2.144172430038452,4.603743239040039,-0.0,0.3134247362613678,-1.652198616658346,-0.0,0.002587305149063468,1.2193456888198853,0.0,-0.009672719985246658,0.8834773302078247,0.0,-0.010895864106714725
177.0,227.0,2.4784,-0.8812,9.0538,-0.0336,0.0237,-0.1139,-1.7364264927306117,0.0,2.8094308376312256,-1.6508501768112183,-0.0,2.127661943435669,4.603744192714355,-0.0,0.3104800283908844,-1.6521580854998987,-0.0,0.007497797720134258,1.2193207740783691,0.0,-0.008281473070383072,0.8835134506225586,0.0,0.0002059577964246273
177.0,227.0,2.4784,-0.8812,9.0538,-0.0336,0.0237,-0.1139,-1.736495157281393,0.0,2.864314556121826,-1.6508221626281738,-0.0,2.1095731258392334,4.603768034572266,-0.0,0.29304227232933044,-1.652182404194967,-0.0,-0.00017864350229501724,1.2194139957427979,0.0,-0.007180074695497751,0.8835175037384033,0.0,0.009680448099970818
177.0,227.0,2.4784,-0.8812,9.0538,-0.0336,0.0237,-0.1139,-1.7364546261229457,0.0,2.9156980514526367,-1.650854229927063,-0.0,2.1505861282348633,4.603763743037842,-0.0,0.2926633059978485,-1.6521742979632776,-0.0,-0.0016931783175095916,1.219341516494751,0.0,-0.001609788741916418,0.8835253715515137,0.0,0.022484473884105682
177.0,227.0,2.4784,-0.8812,9.0538,-0.0336,0.0237,-0.1139,-1.7364345989623011,0.0,2.857933521270752,-1.6508702039718628,-0.0,2.1432766914367676,4.603715105647705,-0.0,0.28602227568626404,-1.652182404194967,-0.0,0.0008890616009011865,1.2193171977996826,0.0,0.006065544672310352,0.8835095167160034,0.0,0.0027761468663811684
177.0,227.0,2.4784,-0.8812,9.0538,-0.0336,0.0237,-0.1139,-1.7364427051939906,0.0,2.868224620819092,-1.650801658630371,-0.0,2.1417722702026367,4.603747530574463,-0.0,0.3112342059612274,-1.6522305647479456,-0.0,0.004389394074678421,1.2193048000335693,0.0,-0.012069784104824066,0.8835012912750244,0.0,0.008551973849534988
177.0,227.0,2.4784,-0.8812,9.0538,-0.0336,0.0237,-0.1139,-1.7364989719786585,0.0,2.849315643310547,-1.6508903503417969,-0.0,2.1851959228515625,4.603715105647705,-0.0,0.3067169785499573,-1.6521781126605433,-0.0,0.013799253851175308,1.2193498611450195,0.0,-0.011755150742828846,0.8835412263870239,0.0,0.03146624192595482
177.0,227.0,2.4784,-0.8812,9.0538,-0.0336,0.0237,-0.1139,-1.7364546261229457,0.0,2.82570219039917,-1.6508986949920654,-0.0,2.127758264541626,4.603727503413818,-0.0,0.30274587869644165,-1.6521499792682093,-0.0,0.0024605703074485064,1.2193458080291748,0.0,0.001586920814588666,0.8835175037384033,0.0,0.04004345089197159
177.0,227.0,2.4784,-0.8812,9.0538,-0.0336,0.0237,-0.1139,-1.73645081142568,0.0,2.8518800735473633,-1.6508376598358154,-0.0,2.168313503265381,4.603755636806152,-0.0,0.2887909710407257,-1.6522343794452112,-0.0,-0.001088766846805811,1.219297170639038,0.0,-0.0013857271987944841,0.8834972381591797,0.0,-0.019898392260074615
177.0,227.0,2.4784,-0.8812,9.0538,-0.0336,0.0237,-0.1139,-1.7364384136595667,0.0,2.878079414367676,-1.650866150856018,-0.0,2.1653642654418945,4.603727503413818,-0.0,0.2958413362503052,-1.652137581502096,-0.0,0.004945842549204826,1.219341516494751,0.0,0.002935588825494051,0.8834932446479797,0.0,0.020489748567342758
177.0,227.0,2.4784,-0.8812,9.0538,-0.0336,0.0237,-0.1139,-1.7364665470519007,0.0,2.810098648071289,-1.6508294343948364,-0.0,2.157363176345825,4.603711290950439,-0.0,0.30484890937805176,-1.6522019545184534,-0.0,-0.0022136527113616467,1.2193171977996826,0.0,-0.004320149775594473,0.8835452795028687,0.0,0.025782592594623566
176.0,233.0,2.4957,-0.9224,9.0162,-0.0389,0.0261,-0.1206,-1.7364546261229457,0.0,2.8879759311676025,-1.6508501768112183,-0.0,2.1810479164123535,4.6036998468586425,-0.0,0.2983134984970093,-1.6522143522845667,-0.0,-0.0016626244178041816,1.2193453311920166,0.0,0.0010007714154198766,0.8835134506225586,0.0,-0.03986746445298195
176.0,233.0,2.4957,-0.9224,9.0162,-0.0389,0.0261,-0.1206,-1.736405988732809,0.0,2.8610973358154297,-1.6508376598358154,-0.0,2.1482200622558594,4.603727503413818,-0.0,0.30410879850387573,-1.6522024313556116,-0.0,-0.0009730230085551739,1.2193853855133057,0.0,-0.005847813095897436,0.8835214972496033,0.0,0.00506200548261404
176.0,233.0,2.4957,-0.9224,9.0162,-0.0389,0.0261,-0.1206,-1.7364546261229457,0.0,2.865677833557129,-1.6508501768112183,-0.0,2.1332783699035645,4.603731794948242,-0.0,0.2967580258846283,-1.6522143522845667,-0.0,0.008981646038591862,1.2193777561187744,0.0,-0.001993736019358039,0.8835572600364685,0.0,-0.009082799777388573
176.0,233.0,2.4957,-0.9224,9.0162,-0.0389,0.0261,-0.1206,-1.7364746532835902,0.0,2.8902387619018555,-1.6508302688598633,-0.0,2.1395504474639893,4.603691740626953,-0.0,0.2940790057182312,-1.6521781126605433,-0.0,0.014285830780863762,1.2193249464035034,0.0,0.004118379205465317,0.8835414052009583,0.0,0.018635239452123642
176.0,233.0,2.4957,-0.9224,9.0162,-0.0389,0.0261,-0.1206,-1.7364865742125453,0.0,2.8616530895233154,-1.650854229927063,-0.0,2.127845287322998,4.603723688716553,-0.0,0.29652246832847595,-1.6521785894977015,-0.0,0.001129474607296288,1.2193574905395508,0.0,-0.0018511060625314713,0.8835213780403137,0.0,-0.02352333255112171
176.0,233.0,2.4957,-0.9224,9.0162,-0.0389,0.0261,-0.1206,-1.7364422283568324,0.0,2.8457369804382324,-1.6508294343948364,-0.0,2.1520862579345703,4.603755636806152,-0.0,0.29968497157096863,-1.6521661917315882,-0.0,-0.00449615390971303,1.2193574905395508,0.0,-0.0019742767326533794,0.8835253715515137,0.0,0.017012424767017365
176.0,233.0,2.4957,-0.9224,9.0162,-0.0389,0.0261,-0.1206,-1.7364708385863246,0.0,2.8044228553771973,-1.6508458852767944,-0.0,2.1880974769592285,4.603715105647705,-0.0,0.3072136342525482,-1.6521905104266565,-0.0,-0.0036380270030349493,1.2193694114685059,0.0,-0.00039051054045557976,0.8835775852203369,0.0,-0.00012124329805374146
176.0,233.0,2.4957,-0.9224,9.0162,-0.0389,0.0261,-0.1206,-1.7364589176573695,0.0,2.851884126663208,-1.6508376598358154,-0.0,2.1136984825134277,4.603723688716553,-0.0,0.30134811997413635,-1.6521623770343226,-0.0,0.012322353199124336,1.2193331718444824,0.0,-0.005295373499393463,0.8835412859916687,0.0,-0.05055403336882591
176.0,233.0,2.4957,-0.9224,9.0162,-0.0389,0.0261,-0.1206,-1.7364503345885218,0.0,2.8592002391815186,-1.650854229927063,-0.0,2.1522698402404785,4.603707953090332,-0.0,0.29637137055397034,-1.652170483266012,-0.0,0.0117254089564085,1.2193818092346191,0.0,-0.004953176248818636,0.8835175037384033,0.0,0.03467169776558876
176.0,233.0,2.4957,-0.9224,9.0162,-0.0389,0.0261,-0.1206,-1.736478944818014,0.0,2.846524238586426,-1.6508419513702393,-0.0,2.142101287841797,4.603727503413818,-0.0,0.29345786571502686,-1.6521580854998987,-0.0,0.011883793398737907,1.219308853149414,0.0,0.0019306789617985487,0.8834932446479797,0.0,-0.01850033923983574
176.0,233.0,2.4957,-0.9224,9.0162,-0.0389,0.0261,-0.1206,-1.7364345989623011,0.0,2.8334157466888428,-1.6508376598358154,-0.0,2.1577816009521484,4.603763743037842,-0.0,0.29435256123542786,-1.6522143522845667,-0.0,0.008356747217476368,1.2193167209625244,0.0,0.003298788331449032,0.8835334181785583,0.0,0.012114526703953743
176.0,233.0,2.4957,-0.9224,9.0162,-0.0389,0.0261,-0.1206,-1.7364784679808558,0.0,2.893204689025879,-1.6508337259292603,-0.0,2.1581408977508545,4.603755636806152,-0.0,0.29784536361694336,-1.6521499792682093,-0.0,-0.006609578151255846,1.2193694114685059,0.0,0.008381083607673645,0.8835094571113586,0.0,0.009020577184855938
176.0,233.0,2.4957,-0.9224,9.0162,-0.0389,0.0261,-0.1206,-1.7364427051939906,0.0,2.828380584716797,-1.6508619785308838,-0.0,2.1759986877441406,4.603739901179932,-0.0,0.3090260922908783,-1.652198616658346,-0.0,0.013061197474598885,1.2193331718444824,0.0,-0.008603060618042946,0.8835214972496033,0.0,0.03347798064351082
176.0,241.0,2.4724,-0.8937,9.0933,-0.0302,0.0206,-0.1132,-1.7364832363524378,0.0,2.831155300140381,-1.650854229927063,-0.0,2.1555278301239014,4.6036998468586425,-0.0,0.3051477074623108,-1.652198616658346,-0.0,-0.0030733002349734306,1.2193413972854614,0.0,-0.006139844655990601,0.8835452198982239,0.0,-0.017886776477098465
176.0,241.0,2.4724,-0.8937,9.0933,-0.0302,0.0206,-0.1132,-1.7364546261229457,0.0,2.888669013977051,-1.6508221626281738,-0.0,2.179265260696411,4.603731794948242,-0.0,0.2978723645210266,-1.6521623770343226,-0.0,-0.00029883324168622494,1.2193617820739746,0.0,-0.011980792507529259,0.8834932446479797,0.0,-0.019268175587058067
176.0,241.0,2.4724,-0.8937,9.0933,-0.0302,0.0206,-0.1132,-1.7364384136595667,0.0,2.846442699432373,-1.650846004486084,-0.0,2.1544318199157715,4.603719397182129,-0.0,0.3106280565261841,-1.652170483266012,-0.0,0.011341527104377747,1.2192893028259277,0.0,-0.005144977942109108,0.8835373520851135,0.0,0.01986721344292164
176.0,241.0,2.4724,-0.8937,9.0933,-0.0302,0.0206,-0.1132,-1.7364503345885218,0.0,2.8826379776000977,-1.6508294343948364,-0.0,2.197082281112671,4.60367934286084,-0.0,0.2944076955318451,-1.6521456877337855,-0.0,-0.0001476265606470406,1.2193291187286377,0.0,-0.0010089806746691465,0.8834695219993591,0.0,-0.0375368595123291
176.0,241.0,2.4724,-0.8937,9.0933,-0.0302,0.0206,-0.1132,-1.7364469967284144,0.0,2.8557815551757812,-1.6508302688598633,-0.0,2.1438639163970947,4.603731794948242,-0.0,0.3050850033760071,-1.652198616658346,-0.0,0.008471508510410786,1.219308853149414,0.0,-0.0006121830665506423,0.8835533857345581,0.0,0.0010171112371608615
176.0,241.0,2.4724,-0.8937,9.0933,-0.0302,0.0206,-0.1132,-1.7364503345885218,0.0,2.8639373779296875,-1.6508253812789917,-0.0,2.172231912612915,4.603731794948242,-0.0,0.310802161693573,-1.6521943251239222,-0.0,-0.0018947073258459568,1.2193207740783691,0.0,-0.010127495974302292,0.8834971785545349,0.0,0.022584382444620132
176.0,241.0,2.4724,-0.8937,9.0933,-0.0302,0.0206,-0.1132,-1.736422678033346,0.0,2.836132526397705,-1.6508336067199707,-0.0,2.108987808227539,4.6036998468586425,-0.0,0.2954387664794922,-1.6521580854998987,-0.0,0.0012388464529067278,1.2193858623504639,0.0,-0.00897891540080309,0.8835175037384033,0.0,-0.03411256521940231
176.0,241.0,2.4724,-0.8937,9.0933,-0.0302,0.0206,-0.1132,-1.736462732354635,0.0,2.8956708908081055,-1.650857925415039,-0.0,2.1221296787261963,4.603736086482666,-0.0,0.30104386806488037,-1.6521623770343226,-0.0,-0.004285889677703381,1.2193657159805298,0.0,0.002456673653796315,0.8834492564201355,0.0,-0.013410810381174088
176.0,241.0,2.4724,-0.8937,9.0933,-0.0302,0.0206,-0.1132,-1.7364384136595667,0.0,2.8643908500671387,-1.650854229927063,-0.0,2.145984649658203,4.603763743037842,-0.0,0.3041141927242279,-1.6521943251239222,-0.0,0.0024062988813966513,1.219305396080017,0.0,-0.006975085008889437,0.8835013508796692,0.0,0.020278211683034897
176.0,241.0,2.4724,-0.8937,9.0933,-0.0302,0.0206,-0.1132,-1.7364665470519007,0.0,2.8592910766601562,-1.650818109512329,-0.0,2.139993906021118,4.603736086482666,-0.0,0.28768500685691833,-1.6521905104266565,-0.0,0.012620409950613976,1.2193658351898193,0.0,-0.0034657418727874756,0.8835134506225586,0.0,0.018743939697742462
176.0,241.0,2.4724,-0.8937,9.0933,-0.0302,0.0206,-0.1132,-1.7365032635130824,0.0,2.8452160358428955,-1.6508378982543945,-0.0,2.120121479034424,4.603763743037842,-0.0,0.29933300614356995,-1.6521905104266565,-0.0,0.0014374770689755678,1.2193777561187744,0.0,-0.001496363547630608,0.8834972381591797,0.0,0.021134579554200172
176.0,241.0,2.4724,-0.8937,9.0933,-0.0302,0.0206,-0.1132,-1.7364708385863246,0.0,2.855797290802002,-1.6508378982543945,-0.0,2.1444125175476074,4.603767080897949,-0.0,0.2884488105773926,-1.652142349873678,-0.0,0.0019842516630887985,1.2193331718444824,0.0,-0.014878662303090096,0.8835293650627136,0.0,0.027024710550904274
176.0,234.0,2.4832,-0.8907,9.0885,-0.0392,0.0232,-0.1141,-1.736462255517477,0.0,2.871262550354004,-1.6508702039718628,-0.0,2.122591972351074,4.603727503413818,-0.0,0.2948228120803833,-1.6521499792682093,-0.0,0.009929239749908447,1.2192928791046143,0.0,-0.007666893769055605,0.8834972381591797,0.0,-0.0043544890359044075
176.0,234.0,2.4832,-0.8907,9.0885,-0.0392,0.0232,-0.1141,-1.7364384136595667,0.0,2.841315269470215,-1.65084969997406,-0.0,2.1824655532836914,4.6037513452717285,-0.0,0.28943565487861633,-1.652130428944723,-0.0,0.005234112963080406,1.2192811965942383,0.0,0.004215979017317295,0.8835054636001587,0.0,0.014895949512720108
176.0,234.0,2.4832,-0.8907,9.0885,-0.0392,0.0232,-0.1141,-1.7364384136595667,0.0,2.840883493423462,-1.6508419513702393,-0.0,2.1574697494506836,4.603755636806152,-0.0,0.2969508469104767,-1.652198616658346,-0.0,-0.0068852463737130165,1.219341516494751,0.0,-0.0010494847083464265,0.8835452795028687,0.0,-0.02742553874850273
176.0,234.0,2.4832,-0.8907,9.0885,-0.0392,0.0232,-0.1141,-1.7364708385863246,0.0,2.872948408126831,-1.6508336067199707,-0.0,2.1405553817749023,4.603691740626953,-0.0,0.29541248083114624,-1.6521785894977015,-0.0,0.01556491106748581,1.219313144683838,0.0,0.0019028272945433855,0.8835134506225586,0.0,0.007824133150279522
176.0,234.0,2.4832,-0.8907,9.0885,-0.0392,0.0232,-0.1141,-1.7364427051939906,0.0,2.8450794219970703,-1.650821328163147,-0.0,2.173758029937744,4.603736086482666,-0.0,0.29132115840911865,-1.652186695729391,-0.0,0.012132290750741959,1.2193818092346191,0.0,0.0032437057234346867,0.8835331797599792,0.0,-0.011671970598399639
176.0,234.0,2.4832,-0.8907,9.0885,-0.0392,0.0232,-0.1141,-1.7364865742125453,0.0,2.8709850311279297,-1.65080988407135,-0.0,2.165402412414551,4.603687449092529,-0.0,0.2937037944793701,-1.652198616658346,-0.0,0.004316195845603943,1.2193853855133057,0.0,0.0035684630274772644,0.8835293650627136,0.0,0.05595231056213379
176.0,234.0,2.4832,-0.8907,9.0885,-0.0392,0.0232,-0.1141,-1.7365113697447718,0.0,2.8663394451141357,-1.650846004486084,-0.0,2.1641244888305664,4.6036998468586425,-0.0,0.3002657890319824,-1.6521456877337855,-0.0,0.00983890425413847,1.2193458080291748,0.0,-0.008347381837666035,0.8834972381591797,0.0,0.017806611955165863
176.0,234.0,2.4832,-0.8907,9.0885,-0.0392,0.0232,-0.1141,-1.7364503345885218,0.0,2.883965015411377,-1.650785207748413,-0.0,2.1674020290374756,4.603739901179932,-0.0,0.2920612394809723,-1.652153793965475,-0.0,0.0056182993575930595,1.2194138765335083,0.0,0.0038319879677146673,0.8834773898124695,0.0,-0.011729894205927849
176.0,234.0,2.4832,-0.8907,9.0885,-0.0392,0.0232,-0.1141,-1.7364865742125453,0.0,2.8713338375091553,-1.6508253812789917,-0.0,2.1621651649475098,4.603683157558105,-0.0,0.29579395055770874,-1.652130428944723,-0.0,0.008138757199048996,1.2192847728729248,0.0,-0.014555457979440689,0.8834972381591797,0.0,-0.002271916251629591
176.0,234.0,2.4832,-0.8907,9.0885,-0.0392,0.0232,-0.1141,-1.7364264927306117,0.0,2.8828890323638916,-1.6508139371871948,-0.0,2.113189935684204,4.603727503413818,-0.0,0.2949602007865906,-1.652182404194967,-0.0,-0.009176365099847317,1.2192929983139038,0.0,-0.0032198652625083923,0.8834813237190247,0.0,-0.04066448286175728
176.0,234.0,2.4832,-0.8907,9.0885,-0.0392,0.0232,-0.1141,-1.7364865742125453,0.0,2.862121343612671,-1.650818109512329,-0.0,2.1622002124786377,4.603716059322021,-0.0,0.2972249388694763,-1.6521742979632776,-0.0,0.005576809402555227,1.2193617820739746,0.0,-0.018165098503232002,0.8835094571113586,0.0,0.03813718631863594
176.0,234.0,2.4832,-0.8907,9.0885,-0.0392,0.0232,-0.1141,-1.7364307842650355,0.0,2.8693761825561523,-1.6508221626281738,-0.0,2.1639034748077393,4.603703661555908,-0.0,0.2979724407196045,-1.6521781126605433,-0.0,0.0016450469847768545,1.2193126678466797,0.0,-0.002718467265367508,0.8834733963012695,0.0,0.0034097537863999605
176.0,234.0,2.4832,-0.8907,9.0885,-0.0392,0.0232,-0.1141,-1.7364589176573695,0.0,2.8589625358581543,-1.6508376598358154,-0.0,2.081955909729004,4.603768034572266,-0.0,0.30040442943573,-1.652130428944723,-0.0,-0.003853903152048588,1.2193331718444824,0.0,0.0015145777724683285,0.8834854364395142,0.0,-0.007070377003401518
178.0,236.0,2.4784,-0.9344,9.0855,-0.0382,0.0212,-0.1162,-1.7364503345885218,0.0,2.8641648292541504,-1.6508139371871948,-0.0,2.13314151763916,4.603715105647705,-0.0,0.30385324358940125,-1.652182404194967,-0.0,0.0017998800612986088,1.2193374633789062,0.0,0.005049285478889942,0.8835134506225586,0.0,0.03814949095249176
178.0,236.0,2.4784,-0.9344,9.0855,-0.0382,0.0212,-0.1162,-1.7364469967284144,0.0,2.8453736305236816,-1.650866150856018,-0.0,2.1607003211975098,4.603715105647705,-0.0,0.3009692430496216,-1.6521781126605433,-0.0,0.002230145502835512,1.2193334102630615,0.0,-0.0032438980415463448,0.8834932446479797,0.0,-0.004894547630101442
178.0,236.0,2.4784,-0.9344,9.0855,-0.0382,0.0212,-0.1162,-1.736495157281393,0.0,2.8628451824188232,-1.65080988407135,-0.0,2.117703437805176,4.603731794948242,-0.0,0.292263388633728,-1.6521943251239222,-0.0,0.0014884750125929713,1.219369888305664,0.0,0.009135137312114239,0.8834972381591797,0.0,-0.015203343704342842
178.0,236.0,2.4784,-0.9344,9.0855,-0.0382,0.0212,-0.1162,-1.7364708385863246,0.0,2.8264713287353516,-1.650846004486084,-0.0,2.148533821105957,4.603759928340576,-0.0,0.31248462200164795,-1.652186695729391,-0.0,0.0024863434955477715,1.2192966938018799,0.0,-0.0017470861785113811,0.8835012912750244,0.0,0.005058148875832558
178.0,236.0,2.4784,-0.9344,9.0855,-0.0382,0.0212,-0.1162,-1.7364422283568324,0.0,2.9172027111053467,-1.650801658630371,-0.0,2.197888135910034,4.603739901179932,-0.0,0.3003349304199219,-1.652198616658346,-0.0,-0.0041885897517204285,1.2193458080291748,0.0,-0.009430831298232079,0.8834972381591797,0.0,-0.01303541474044323
178.0,236.0,2.4784,-0.9344,9.0855,-0.0382,0.0212,-0.1162,-1.736462255517477,0.0,2.8840513229370117,-1.6508139371871948,-0.0,2.1581125259399414,4.603706999416016,-0.0,0.31226444244384766,-1.652154270802633,-0.0,0.00658098328858614,1.2193212509155273,0.0,-0.006934807635843754,0.8835173845291138,0.0,0.04222654551267624
178.0,236.0,2.4784,-0.9344,9.0855,-0.0382,0.0212,-0.1162,-1.736462732354635,0.0,2.889559268951416,-1.6508702039718628,-0.0,2.124098539352417,4.603739901179932,-0.0,0.2941861152648926,-1.6522186438189905,-0.0,0.013233683072030544,1.2193167209625244,0.0,0.008119885809719563,0.8835134506225586,0.0,0.040807534009218216
178.0,236.0,2.4784,-0.9344,9.0855,-0.0382,0.0212,-0.1162,-1.736462255517477,0.0,2.88205623626709,-1.6509027481079102,-0.0,2.1231753826141357,4.6037513452717285,-0.0,0.3078778088092804,-1.652153793965475,-0.0,0.0010286879260092974,1.2193334102630615,0.0,0.004589583724737167,0.8834894299507141,0.0,-0.0036779670044779778
178.0,236.0,2.4784,-0.9344,9.0855,-0.0382,0.0212,-0.1162,-1.736462255517477,0.0,2.8945813179016113,-1.6508294343948364,-0.0,2.1373188495635986,4.603715105647705,-0.0,0.29281094670295715,-1.6521943251239222,-0.0,0.00850746314972639,1.2193126678466797,0.0,-0.002061129081994295,0.8835134506225586,0.0,-0.0051800464279949665
178.0,236.0,2.4784,-0.9344,9.0855,-0.0382,0.0212,-0.1162,-1.736495157281393,0.0,2.8705456256866455,-1.6508294343948364,-0.0,2.14225697517395,4.603723688716553,-0.0,0.29869702458381653,-1.652153793965475,-0.0,0.0035817259922623634,1.21938955783844,0.0,-0.0013410047395154834,0.8835293650627136,0.0,0.011377488262951374
178.0,236.0,2.4784,-0.9344,9.0855,-0.0382,0.0212,-0.1162,-1.7364422283568324,0.0,2.891066312789917,-1.6507534980773926,-0.0,2.151745319366455,4.6037513452717285,-0.0,0.29253295063972473,-1.6521661917315882,-0.0,0.01015344075858593,1.2193453311920166,0.0,-0.004449373111128807,0.8835094571113586,0.0,-0.0038806952070444822
178.0,236.0,2.4784,-0.9344,9.0855,-0.0382,0.0212,-0.1162,-1.736462732354635,0.0,2.804197311401367,-1.6508221626281738,-0.0,2.100261926651001,4.603723688716553,-0.0,0.29175570607185364,-1.6521456877337855,-0.0,0.0009611169807612896,1.2193334102630615,0.0,0.00015578593593090773,0.883517324924469,0.0,0.024718133732676506
178.0,236.0,2.4784,-0.9344,9.0855,-0.0382,0.0212,-0.1162,-1.7363978825011195,0.0,2.820915699005127,-1.650818109512329,-0.0,2.179079055786133,4.603736086482666,-0.0,0.31015530228614807,-1.652170483266012,-0.0,-0.003496767021715641,1.219353437423706,0.0,-0.001996441977098584,0.8835014700889587,0.0,0.007368593476712704
177.0,236.0,2.5041,-0.9111,8.9833,-0.0365,0.0221,-0.109,-1.7364703617491664,0.0,2.878722906112671,-1.6508376598358154,-0.0,2.166386127471924,4.603736086482666,-0.0,0.2999778985977173,-1.652198616658346,-0.0,-0.002356857992708683,1.2192847728729248,0.0,-0.007570176385343075,0.8835293650627136,0.0,0.004430126398801804
177.0,236.0,2.5041,-0.9111,8.9833,-0.0365,0.0221,-0.109,-1.7364546261229457,0.0,2.878978967666626,-1.6507902145385742,-0.0,2.1352972984313965,4.603731794948242,-0.0,0.2981959581375122,-1.6521943251239222,-0.0,-0.004076564218848944,1.2193251848220825,0.0,-0.0004058926715515554,0.8835055232048035,0.0,0.009081840515136719
177.0,236.0,2.5041,-0.9111,8.9833,-0.0365,0.0221,-0.109,-1.7364427051939906,0.0,2.861457347869873,-1.6508302688598633,-0.0,2.145779609680176,4.603715105647705,-0.0,0.3050968050956726,-1.6521742979632776,-0.0,0.0061177718453109264,1.2192847728729248,0.0,-0.005551374051719904,0.8835214376449585,0.0,-0.020153848454356194
177.0,236.0,2.5041,-0.9111,8.9833,-0.0365,0.0221,-0.109,-1.7364546261229457,0.0,2.8461756706237793,-1.6508417129516602,-0.0,2.117184638977051,4.603763743037842,-0.0,0.30274420976638794,-1.6522024313556116,-0.0,0.000395016570109874,1.219341516494751,0.0,-0.014304427430033684,0.8835334181785583,0.0,-0.008540982380509377
177.0,236.0,2.5041,-0.9111,8.9833,-0.0365,0.0221,-0.109,-1.7364183864989222,0.0,2.8577721118927,-1.650818109512329,-0.0,2.163396120071411,4.603687449092529,-0.0,0.2967989444732666,-1.6521781126605433,-0.0,-0.010423022322356701,1.2193207740783691,0.0,0.0006743380799889565,0.8835213780403137,0.0,0.0007925126701593399
177.0,236.0,2.5041,-0.9111,8.9833,-0.0365,0.0221,-0.109,-1.736495157281393,0.0,2.884528160095215,-1.6508302688598633,-0.0,2.1851279735565186,4.603768034572266,-0.0,0.30340319871902466,-1.6521943251239222,-0.0,0.016861392185091972,1.219369888305664,0.0,0.0008445554412901402,0.8835614919662476,0.0,-0.026511529460549355
177.0,236.0,2.5041,-0.9111,8.9833,-0.0365,0.0221,-0.109,-1.7364102802672328,0.0,2.8702807426452637,-1.6508784294128418,-0.0,2.132031202316284,4.603771849269531,-0.0,0.29253262281417847,-1.652182404194967,-0.0,-0.0036437474191188812,1.2194257974624634,0.0,-0.0021675494499504566,0.8835374116897583,0.0,0.00896600354462862
177.0,236.0,2.5041,-0.9111,8.9833,-0.0365,0.0221,-0.109,-1.7364469967284144,0.0,2.868701457977295,-1.6508220434188843,-0.0,2.122441530227661,4.603739901179932,-0.0,0.3022778630256653,-1.6522186438189905,-0.0,0.009926977567374706,1.219341516494751,0.0,-0.01256685983389616,0.8835092782974243,0.0,-0.016707925125956535
177.0,236.0,2.5041,-0.9111,8.9833,-0.0365,0.0221,-0.109,-1.736462732354635,0.0,2.8796167373657227,-1.6508139371871948,-0.0,2.1372408866882324,4.603755636806152,-0.0,0.3013715147972107,-1.6521456877337855,-0.0,0.004547226708382368,1.2193292379379272,0.0,-0.0026717660948634148,0.8835095167160034,0.0,0.011189206503331661
177.0,236.0,2.5041,-0.9111,8.9833,-0.0365,0.0221,-0.109,-1.7364746532835902,0.0,2.8452606201171875,-1.6508262157440186,-0.0,2.155414342880249,4.603715105647705,-0.0,0.29023489356040955,-1.6521900335894983,-0.0,0.009626680985093117,1.2193374633789062,0.0,-0.0018298354698345065,0.8835213780403137,1.8536884249797936e-09,0.03248225897550583
177.0,236.0,2.5041,-0.9111,8.9833,-0.0365,0.0221,-0.109,-1.7364503345885218,0.0,2.8707990646362305,-1.6508302688598633,-0.0,2.1425366401672363,4.603743239040039,-0.0,0.3062424659729004,-1.6521781126605433,-0.0,-0.005813275929540396,1.2193734645843506,0.0,0.0010728018824011087,0.8834894299507141,4.476439530198047e-15,0.015375792048871517
177.0,236.0,2.5041,-0.9111,8.9833,-0.0365,0.0221,-0.109,-1.7364784679808558,0.0,2.8620193004608154,-1.6508417129516602,-0.0,2.190980911254883,4.603738947505615,-0.0,0.28747379779815674,-1.652186695729391,-0.0,-0.00600868184119463,1.219405174255371,0.0,-0.0010343855246901512,0.8835412859916687,1.4503095408695399e-22,-0.017938103526830673
176.0,231.0,2.5974,-0.8435,8.8822,-0.0371,0.0156,-0.1167,-1.7364546261229457,0.0,2.862940549850464,-1.6507902145385742,-1.3646342389428412e-10,2.140446424484253,4.603755636806152,-0.0,0.2829911708831787,-1.6522181669818323,-0.0,-0.005946496967226267,1.2193574905395508,0.0,0.01475654635578394,0.8835213780403137,4.69881767447414e-30,0.0031467019580304623
176.0,231.0,2.5974,-0.8435,8.8822,-0.0371,0.0156,-0.1167,-1.7364140949644984,0.0,2.8432655334472656,-1.6507498025894165,0.0010543640237301588,2.165332794189453,4.603731794948242,-0.0,0.2964211702346802,-1.652182404194967,-0.0,-0.003604746190831065,1.2193126678466797,0.0,-0.006710108835250139,0.8835697174072266,1.1347090590348216e-35,0.006487628910690546
176.0,231.0,2.5974,-0.8435,8.8822,-0.0371,0.0156,-0.1167,-1.7364665470519007,-0.00027972954558208585,2.8280460834503174,-1.650801658630371,0.0006921002059243619,2.1505560874938965,4.603736086482666,-0.0,0.3017711639404297,-1.652137581502096,-0.0,-0.0050728521309792995,1.2193574905395508,0.0,0.014216042123734951,0.8835815787315369,0.00015155348228290677,-0.021618343889713287
176.0,231.0,2.5974,-0.8435,8.8822,-0.0371,0.0156,-0.1167,-1.736462255517477,-0.00023577208048664033,2.8717455863952637,-1.6507736444473267,0.0005204855115152895,2.1319644451141357,4.6037513452717285,-0.0,0.30485305190086365,-1.6522143522845667,-0.0,0.005098643712699413,1.2193853855133057,0.0,0.0026352298445999622,0.8835656642913818,0.0002774706808850169,-0.048171110451221466
176.0,231.0,2.5974,-0.8435,8.8822,-0.0371,0.0156,-0.1167,-1.7364827595152796,-0.0001949178840732202,2.8692471981048584,-1.6507539749145508,0.00014898437075316906,2.200192451477051,4.603747530574463,-0.0,0.2966334819793701,-1.6521418730365198,-0.0,-0.00264462037011981,1.2193453311920166,0.0,0.0026402638759464025,0.8835536241531372,0.000736083893571049,-0.046661339700222015
176.0,231.0,2.5974,-0.8435,8.8822,-0.0371,0.0156,-0.1167,-1.7364465198912562,-0.00017250131350010633,2.9069275856018066,-1.6508138179779053,0.00011708718375302851,2.188800811767578,4.60373513280835,-0.0,0.3011992573738098,-1.6521742979632776,-0.0,-0.017341583967208862,1.2193617820739746,0.0,0.0003288500593043864,0.8835576176643372,0.0006976331351324916,-0.01904754340648651
176.0,231.0,2.5974,-0.8435,8.8822,-0.0371,0.0156,-0.1167,-1.7364989719786585,-0.0001495665346737951,2.8498971462249756,-1.6507902145385742,9.290931484429166e-05,2.144078254699707,4.603736086482666,-0.0,0.2988210618495941,-1.6521781126605433,-0.0,0.012088941410183907,1.2193574905395508,0.0,-0.015044723637402058,0.8835893869400024,0.0005013994523324072,-0.016676146537065506
176.0,231.0,2.5974,-0.8435,8.8822,-0.0371,0.0156,-0.1167,-1.736474176446432,-0.00013600516831502318,2.8418405055999756,-1.6508138179779053,8.045074355322868e-05,2.139575481414795,4.603771849269531,-0.0,0.30434948205947876,-1.652182404194967,-0.0,0.002762896241620183,1.2193374633789062,0.0,0.0008965740562416613,0.8835894465446472,0.0003757415688596666,0.0010241540148854256
176.0,231.0,2.5974,-0.8435,8.8822,-0.0371,0.0156,-0.1167,-1.7364784679808558,-0.00012133609561715275,2.894503593444824,-1.650866150856018,4.0292243284056894e-06,2.1423447132110596,4.603747530574463,-0.0,0.2947283387184143,-1.6521580854998987,-0.0,-0.004382664803415537,1.219308853149414,0.0,-0.0038615423254668713,0.8835092782974243,0.0002816499036271125,-0.04332996904850006
176.0,231.0,2.5974,-0.8435,8.8822,-0.0371,0.0156,-0.1167,-1.7364989719786585,-0.00011225551861571148,2.8494391441345215,-1.6508179903030396,9.730102140670382e-12,2.134089946746826,4.603739901179932,-0.0,0.3095158636569977,-1.652170483266012,-0.0,-0.0019152472959831357,1.21938955783844,0.0,0.01250715833157301,0.8835775256156921,0.00023712037364020944,-0.03687901049852371
176.0,231.0,2.5974,-0.8435,8.8822,-0.0371,0.0156,-0.1167,-1.7364541492857875,-0.00012247356062289327,2.8532986640930176,-1.6508221626281738,3.1524292584096303e-19,2.1714751720428467,4.603736086482666,-0.0,0.28743547201156616,-1.6522024313556116,-0.0,0.008816273882985115,1.219341516494751,0.0,0.0005699182511307299,0.8835616111755371,0.00015686001279391348,0.0020194933749735355
176.0,231.0,2.5974,-0.8435,8.8822,-0.0371,0.0156,-0.1167,-1.736474176446432,-0.00011229617666685954,2.8831090927124023,-1.6508097648620605,1.0213470732673882e-26,2.138296604156494,4.603759928340576,-0.0,0.28693705797195435,-1.6521456877337855,-0.0,-0.0055948225781321526,1.2193048000335693,0.0,-0.004021104425191879,0.883533239364624,0.00013344052422326058,0.012679534032940865
176.0,231.0,2.5974,-0.8435,8.8822,-0.0371,0.0156,-0.1167,-1.736462255517477,-8.80852821865119e-05,2.915980577468872,-1.6507974863052368,2.466432826344481e-32,2.135214328765869,4.603768034572266,-0.0,0.29734006524086,-1.6521456877337855,-0.0,0.006197433918714523,1.219313144683838,0.0,-0.0014608742203563452,0.8835535049438477,0.00012008651538053527,-0.00934220477938652
173.0,233.0,2.7829,-0.8824,9.0299,-0.0247,0.0055,-0.1191,-1.736474176446432,-8.168891508830711e-05,2.8321447372436523,-1.6508302688598633,7.990932518781556e-40,2.145503520965576,4.603723688716553,-0.0,0.29152029752731323,-1.652182404194967,-0.0,0.004182107746601105,1.2193291187286377,0.0,-0.011235203593969345,0.8835452795028687,8.25756142148748e-05,0.03137467801570892
173.0,233.0,2.7829,-0.8824,9.0299,-0.0247,0.0055,-0.1191,-1.736495157281393,-7.746995834168047e-05,2.825644016265869,-1.6508501768112183,1.401298464324817e-45,2.1395344734191895,4.603683157558105,-0.0,0.29645735025405884,-1.652170483266012,-0.0,-0.004186181351542473,1.2193498611450195,0.0,0.0010711157228797674,0.8835253715515137,7.301531877601519e-05,-0.03951801732182503
173.0,233.0,2.7829,-0.8824,9.0299,-0.0247,0.0055,-0.1191,-1.736495157281393,-7.247897883644328e-05,2.9083657264709473,-1.6508221626281738,-0.0,2.1571784019470215,4.603743239040039,-0.0,0.31058236956596375,-1.6521700064288538,-0.0,0.00993436574935913,1.2193498611450195,0.0,0.007578245364129543,0.8835856318473816,8.783866360317916e-05,0.021417688578367233
173.0,233.0,2.7829,-0.8824,9.0299,-0.0247,0.0055,-0.1191,-1.736495157281393,-8.290161349577829e-05,2.8503575325012207,-1.650801658630371,-0.0,2.1583125591278076,4.603743239040039,-0.0,0.30070286989212036,-1.6521781126605433,-0.0,0.005895846989005804,1.2193334102630615,0.0,-0.009939229115843773,0.8835735321044922,8.185805199900642e-05,-0.006214241497218609
173.0,233.0,2.7829,-0.8824,9.0299,-0.0247,0.0055,-0.1191,-1.7364465198912562,-7.816249126335606e-05,2.9104249477386475,-1.6508344411849976,-0.0,2.1486785411834717,4.603739901179932,-0.0,0.2953338921070099,-1.652182404194967,-0.0,0.0008554049418307841,1.2193372249603271,0.0,0.007775747217237949,0.8835211992263794,2.1299892978277057e-05,0.010390521958470345
173.0,233.0,2.7829,-0.8824,9.0299,-0.0247,0.0055,-0.1191,-1.7364827595152796,-6.259447400225326e-05,2.8320484161376953,-1.6508500576019287,-0.0,2.138993501663208,4.603768034572266,-0.0,0.29402679204940796,-1.6521623770343226,-0.0,0.0003840331919491291,1.219353437423706,0.0,-0.005007914733141661,0.8836215734481812,3.948543599108234e-05,-0.012806682847440243
173.0,233.0,2.7829,-0.8824,9.0299,-0.0247,0.0055,-0.1191,-1.7364546261229457,-5.9142999816685915e-05,2.8613815307617188,-1.6508221626281738,0.00013290347123984247,2.1435036659240723,4.603731794948242,-0.0,0.29001584649086,-1.652210537587301,-0.0,0.003908562008291483,1.2193937301635742,0.0,-0.009771759621798992,0.8836175799369812,0.000687570427544415,-0.009680576622486115
173.0,233.0,2.7829,-0.8824,9.0299,-0.0247,0.0055,-0.1191,-1.7364584408202113,-4.551980964606628e-05,2.8489089012145996,-1.65077805519104,0.0008948969189077616,2.124799966812134,4.603747530574463,-0.0,0.29120203852653503,-1.6522062460528772,-0.0,0.0005290831904858351,1.2193291187286377,0.0,-0.013446385972201824,0.8837016224861145,0.004366584122180939,0.0312601774930954
173.0,233.0,2.7829,-0.8824,9.0299,-0.0247,0.0055,-0.1191,-1.7364469967284144,-3.249575456720777e-05,2.8772411346435547,-1.6507539749145508,0.00099888164550066,2.12766170501709,4.603771372432373,-0.0,0.31802359223365784,-1.6522100607501429,-0.0,-0.010346051305532455,1.219353437423706,0.0,-0.0014151926152408123,0.8836773037910461,0.009533355943858624,0.03591369464993477
173.0,233.0,2.7829,-0.8824,9.0299,-0.0247,0.0055,-0.1191,-1.7364264927306117,-3.10036375594791e-05,2.850860118865967,-1.6508065462112427,0.0005337718175724149,2.131340503692627,4.603767080897949,-0.0,0.28735482692718506,-1.6522181669818323,-0.0,0.011076420545578003,1.219313144683838,0.0,-0.015452323481440544,0.8838176131248474,0.011669926345348358,0.0161543358117342
173.0,233.0,2.7829,-0.8824,9.0299,-0.0247,0.0055,-0.1191,-1.7364546261229457,-3.996087980340235e-05,2.87064266204834,-1.6507859230041504,0.00039113598177209496,2.135906219482422,4.603767080897949,-0.0,0.29935476183891296,-1.6522463003741663,-0.0,0.0013204984134063125,1.2193973064422607,0.0,-0.005402991082519293,0.8838576674461365,0.012657221406698227,0.0216683279722929
173.0,233.0,2.7829,-0.8824,9.0299,-0.0247,0.0055,-0.1191,-1.736474176446432,-3.325253783259541e-05,2.874082088470459,-1.6507821083068848,0.00017441385716665536,2.1203296184539795,4.603715582484863,-0.0,0.3031361699104309,-1.652193848286764,-0.0,0.0013123201206326485,1.2192929983139038,0.0,-0.010147042572498322,0.8840060830116272,0.012068073265254498,0.030453301966190338
173.0,233.0,2.7829,-0.8824,9.0299,-0.0247,0.0055,-0.1191,-1.7364984951415003,-0.0009449366480112076,2.876085042953491,-1.6508262157440186,-0.0001751063682604581,2.127451181411743,4.603719397182129,-0.0,0.2991686463356018,-1.6522181669818323,-0.0,0.017273474484682083,1.2193456888198853,0.0,-0.017628176137804985,0.8840458989143372,0.011364354752004147,0.024493442848324776
175.0,231.0,2.2385,-1.2467,9.3476,-0.0495,0.0241,-0.1132,-1.7365223369994105,-0.0020701130852103233,2.8592514991760254,-1.6508065462112427,-0.00018610034021548927,2.152841567993164,4.60373513280835,-0.0,0.3007108271121979,-1.6522381941424769,-0.0,-0.007718405686318874,1.2193207740783691,0.0,-0.009922368451952934,0.884085476398468,0.009781193919479847,0.04253789782524109
175.0,231.0,2.2385,-1.2467,9.3476,-0.0495,0.0241,-0.1132,-1.7365509472289027,-0.001664975774474442,2.8656809329986572,-1.6507333517074585,-0.00016111238801386207,2.1391172409057617,4.603791876430176,-0.0,0.2927987575531006,-1.6522100607501429,-0.0,0.015299873426556587,1.2193853855133057,0.0,-0.004692776594310999,0.8841738700866699,0.009641891345381737,0.02028122916817665
175.0,231.0,2.2385,-1.2467,9.3476,-0.0495,0.0241,-0.1132,-1.7365385494627894,-0.0008509595063515007,2.8673999309539795,-1.6508386135101318,-0.00013659412798006088,2.128509998321533,4.603775187129639,-0.0,0.30038386583328247,-1.6522300879107874,-0.0,-0.012501521967351437,1.2193776369094849,0.0,-0.0045446474105119705,0.8842337131500244,0.009428858757019043,-0.00036213360726833344
175.0,231.0,2.2385,-1.2467,9.3476,-0.0495,0.0241,-0.1132,-1.7365309200682582,-0.0005777141777798533,2.847832441329956,-1.6508138179779053,-0.00011126000026706606,2.17205810546875,4.603751822108887,-0.0,0.2999708354473114,-1.6522257963763636,-2.1647811365710368e-07,-0.005357342306524515,1.2193334102630615,0.0,-0.003621584502980113,0.8843300342559814,0.009871474467217922,0.05311994627118111
175.0,231.0,2.2385,-1.2467,9.3476,-0.0495,0.0241,-0.1132,-1.736502309838766,-0.00040452511166222394,2.8665835857391357,-1.6507657766342163,-8.920268737711012e-05,2.1281888484954834,4.6038476663776855,-0.0,0.30721142888069153,-1.6522257963763636,-3.934382767495359e-12,0.01117711327970028,1.21934974193573,0.0,0.002231365069746971,0.8844221830368042,0.010315237566828728,0.03291264921426773
175.0,231.0,2.2385,-1.2467,9.3476,-0.0495,0.0241,-0.1132,-1.7365671596922816,-0.0003112193080596626,2.851977586746216,-1.6507699489593506,-3.7222223909338936e-05,2.1448540687561035,4.603807135219238,-0.0,0.2951631546020508,-1.6522257963763636,-7.150547585091377e-17,-0.007134519051760435,1.21942138671875,0.0,0.005929336417466402,0.8844781517982483,0.010440604761242867,0.03920202702283859
175.0,231.0,2.2385,-1.2467,9.3476,-0.0495,0.0241,-0.1132,-1.73659147838735,-0.0003095506690442562,2.806997776031494,-1.6507859230041504,-3.311346881673671e-05,2.1497397422790527,4.603743239040039,-0.0,0.3022564947605133,-1.6522377173053187,-1.990381053853275e-20,0.007941034622490406,1.2192929983139038,0.0,-0.005513879936188459,0.8845500349998474,0.010832608677446842,0.07107064872980118
175.0,231.0,2.2385,-1.2467,9.3476,-0.0495,0.0241,-0.1132,-1.736575265923971,-0.00020847655832767487,2.848155975341797,-1.6507337093353271,-7.712740862642065e-11,2.1383328437805176,4.603743239040039,-0.0,0.30674368143081665,-1.6521981398211878,-3.6174195489470036e-25,-0.0009718001820147038,1.2193734645843506,0.0,-0.0022384668700397015,0.8846341967582703,0.010952780023217201,0.0003951592370867729
175.0,231.0,2.2385,-1.2467,9.3476,-0.0495,0.0241,-0.1132,-1.7365671596922816,-0.00025473616551607847,2.839841842651367,-1.6508105993270874,-1.8625362478549487e-16,2.1419730186462402,4.60375897466626,-0.0,0.2787722647190094,-1.652262036000387,-1.0069220963177584e-28,-0.009203548543155193,1.2193291187286377,0.0,0.0022174459882080555,0.8847423791885376,0.01044309139251709,0.03187476098537445
175.0,231.0,2.2385,-1.2467,9.3476,-0.0495,0.0241,-0.1132,-1.7365671596922816,-0.0008598322747275233,2.891049385070801,-1.6507539749145508,-6.034380844865909e-24,2.1432580947875977,4.60373513280835,-0.0,0.29751476645469666,-1.6522701422320765,-1.830031094866238e-33,0.00012316694483160973,1.2193738222122192,0.0,-0.006978796795010567,0.8847782015800476,0.00965211633592844,0.026736175641417503
175.0,231.0,2.2385,-1.2467,9.3476,-0.0495,0.0241,-0.1132,-1.73661532024526,-0.0009359739487990737,2.851428508758545,-1.6507940292358398,-1.4572318715392355e-29,2.118673086166382,4.603767080897949,-0.0,0.302110493183136,-1.6522181669818323,-5.093958474871277e-37,-0.014039911329746246,1.2193894386291504,0.0,-0.002228604629635811,0.8848345279693604,0.009468241594731808,0.004667549394071102
175.0,231.0,2.2385,-1.2467,9.3476,-0.0495,0.0241,-0.1132,-1.7365504703917445,-0.000747436482924968,2.8646128177642822,-1.6508499383926392,-4.721245369277493e-37,2.1332082748413086,4.603811426753662,-0.0,0.30201178789138794,-1.6522420088397425,-9.258378953794066e-42,0.0014352643629536033,1.2193537950515747,0.0,-0.0023268279619514942,0.8849102854728699,0.0075942338444292545,0.056824132800102234
172.0,235.0,2.5968,-0.3422,8.8768,0.0032,0.0228,-0.1122,-1.7366396389403285,-0.0007859093602746725,2.8592238426208496,-1.6507740020751953,-1.1406569499604011e-42,2.145280599594116,4.603767080897949,-0.0,0.3020472824573517,-1.6522224585162562,-2.802596928649634e-45,-0.008779140189290047,1.2193331718444824,0.0,-0.0038910163566470146,0.8849502205848694,0.006538278888911009,-0.013140769675374031
172.0,235.0,2.5968,-0.3422,8.8768,0.0032,0.0228,-0.1122,-1.736598630944723,-0.000875230529345572,2.8692171573638916,-1.6507337093353271,-0.0,2.191437244415283,4.6037913995930175,-0.0,0.29447799921035767,-1.6522544066058558,-0.0,0.002785594668239355,1.2193694114685059,0.0,-0.015480617061257362,0.8849865794181824,0.005321128759533167,0.015225999988615513
172.0,235.0,2.5968,-0.3422,8.8768,0.0032,0.0228,-0.1122,-1.7366229496397914,-0.001737886923365295,2.8635220527648926,-1.6507776975631714,-0.0,2.214247703552246,4.603828116054199,-0.0,0.299746036529541,-1.6522463003741663,-0.0,0.000355270691215992,1.2193008661270142,0.0,-0.009683070704340935,0.884990394115448,0.003979192115366459,0.0389404222369194
172.0,235.0,2.5968,-0.3422,8.8768,0.0032,0.0228,-0.1122,-1.7366343937315882,-0.0021418959368020296,2.8589067459106445,-1.6507699489593506,-0.0,2.157381057739258,4.603767080897949,-0.0,0.30733928084373474,-1.6522544066058558,-0.0,-0.003956351894885302,1.2193374633789062,0.0,-0.001207797322422266,0.8850225210189819,0.00291727134026587,-0.014219492673873901
172.0,235.0,2.5968,-0.3422,8.8768,0.0032,0.0228,-0.1122,-1.7366992435851039,-0.0026761218905448914,2.867624282836914,-1.6507982015609741,-0.0,2.1455624103546143,4.6037913995930175,-1.3152023914386746e-09,0.29079338908195496,-1.6522138754474085,-0.0,0.016241753473877907,1.2193331718444824,0.0,-0.0023629670031368732,0.8850264549255371,0.00189687788952142,-0.019521676003932953
172.0,235.0,2.5968,-0.3422,8.8768,0.0032,0.0228,-0.1122,-1.7366992435851039,-0.003151298500597477,2.867324113845825,-1.650730013847351,-0.0,2.1036477088928223,4.603795691127441,-3.660914345109123e-13,0.30764564871788025,-1.6522377173053187,-0.0,-0.007051910739392042,1.219353437423706,0.0,-0.008834978565573692,0.8850505352020264,0.0011994490632787347,-0.014245216734707355
172.0,235.0,2.5968,-0.3422,8.8768,0.0032,0.0228,-0.1122,-1.736706872979635,-0.002954732393845916,2.8612868785858154,-1.6507821083068848,-0.0,2.164337158203125,4.6038476663776855,-6.653530241056541e-18,0.30961596965789795,-1.652262036000387,-0.0,0.012334302999079227,1.2193249464035034,0.0,0.0008102771826088428,0.8850746154785156,0.0006808911566622555,0.010636502876877785
172.0,235.0,2.5968,-0.3422,8.8768,0.0032,0.0228,-0.1122,-1.7367025814452113,-0.0023677966091781855,2.877438545227051,-1.6507657766342163,-0.0,2.1753547191619873,4.603799505824707,-1.8520345713379627e-21,0.2889741361141205,-1.6522224585162562,-0.0,0.009861914440989494,1.2193089723587036,0.0,-2.6932917535305023e-05,0.8850465416908264,0.0005141193978488445,0.002643256913870573
172.0,235.0,2.5968,-0.3422,8.8768,0.0032,0.0228,-0.1122,-1.736723085443014,-0.0015289149014279246,2.8874406814575195,-1.6507501602172852,-0.0,2.108208656311035,4.603803797359131,-3.3659816601725933e-26,0.312176913022995,-1.6522539297686976,-0.0,6.403541192412376e-06,1.2193334102630615,0.0,0.0015785391442477703,0.8850746750831604,0.0003875751863233745,0.005694909952580929
172.0,235.0,2.5968,-0.3422,8.8768,0.0032,0.0228,-0.1122,-1.736763139764303,-0.0010160533711314201,2.826892375946045,-1.6507822275161743,0.0001982526882784441,2.148622989654541,4.603723688716553,-9.369332454246017e-30,0.2979568541049957,-1.652221981679098,-0.0,0.0014804338570684195,1.2193653583526611,0.0,0.00013146665878593922,0.8850425481796265,0.0003738959785550833,-0.013838917016983032
172.0,235.0,2.5968,-0.3422,8.8768,0.0032,0.0228,-0.1122,-1.7367550335326136,-0.0007737889536656439,2.8546245098114014,-1.6507624387741089,0.00034487375523895025,2.1576988697052,4.603771372432373,-1.7028299557676709e-34,0.2921365201473236,-1.652262036000387,-0.0,-0.006112176924943924,1.2193493843078613,0.0,-0.014320661313831806,0.8850986361503601,0.00021419295808300376,-0.02067474275827408
172.0,235.0,2.5968,-0.3422,8.8768,0.0032,0.0228,-0.1122,-1.7367269001402796,-0.0004970052395947278,2.8636648654937744,-1.6507340669631958,0.000739353708922863,2.1260182857513428,4.603799505824707,-4.739889813501151e-38,0.29049673676490784,-1.6522300879107874,-0.0,-0.003399154869839549,1.2193493843078613,0.0,0.0005760480416938663,0.8850505352020264,0.00022448641539085656,-0.03909730911254883
172.0,235.0,2.5968,-0.3422,8.8768,0.0032,0.0228,-0.1122,-1.7367507419981898,-0.0003446649934630841,2.865896701812744,-1.65073823928833,0.0009180483175441623,2.141996383666992,4.6037913995930175,-8.617985555597625e-43,0.2896658480167389,-1.6522296110736292,-0.0,0.011039355769753456,1.2193212509155273,0.0,-0.008444543927907944,0.8850667476654053,0.0005317354807630181,-0.012532932683825493
177.0,236.0,2.4162,-0.7675,9.2034,-0.0386,0.0275,-0.1124,-1.7367106876769007,-0.0002638218575157225,2.842747449874878,-1.650689721107483,0.001276318565942347,2.1160995960235596,4.603787584895752,2.625367051223293e-05,0.2979419231414795,-1.652250115071432,-0.0,0.008730567991733551,1.2193456888198853,0.0,-0.00611019367352128,0.8850626945495605,0.0005871501634828746,0.0316658616065979
177.0,236.0,2.4162,-0.7675,9.2034,-0.0386,0.0275,-0.1124,-1.7367426357665003,-0.00022435704886447638,2.8411319255828857,-1.6506860256195068,0.0016383313341066241,2.114079713821411,4.603767080897949,2.4147788280970417e-05,0.2974012494087219,-1.6522544066058558,-0.0,-0.00131127645727247,1.219313144683838,0.0,0.00037362705916166306,0.8851264715194702,0.0008231286192312837,0.04596488177776337
177.0,236.0,2.4162,-0.7675,9.2034,-0.0386,0.0275,-0.1124,-1.7367106876769007,-0.00018705028924159706,2.860183000564575,-1.6506978273391724,0.0017077168449759483,2.153927803039551,4.603762789363525,1.9204863122013194e-07,0.31351709365844727,-1.6522381941424769,-0.0,0.011427037417888641,1.219361662864685,0.0,0.00015628035180270672,0.8851106762886047,0.00078583974391222,0.07276815176010132
177.0,236.0,2.4162,-0.7675,9.2034,-0.0386,0.0275,-0.1124,-1.7367750606932582,-0.00016631039034109563,2.894805908203125,-1.6507267951965332,0.0014978896360844374,2.1599321365356445,4.6037513452717285,5.34574398636245e-11,0.30383118987083435,-1.6522181669818323,-0.0,-0.003976618405431509,1.2193456888198853,0.0,-0.008551442995667458,0.8851265907287598,0.0006380897248163819,0.07674653083086014
177.0,236.0,2.4162,-0.7675,9.2034,-0.0386,0.0275,-0.1124,-1.7367507419981898,-0.000173820968484506,2.846073627471924,-1.6506456136703491,0.0009388141916133463,2.207920551300049,4.6037794786640625,9.715626723684435e-16,0.2974357008934021,-1.6521900335894983,-0.0,-0.003309945808723569,1.2193374633789062,0.0,-0.006942084524780512,0.8850464820861816,0.00045406509889289737,0.007658808492124081
177.0,236.0,2.4162,-0.7675,9.2034,-0.0386,0.0275,-0.1124,-1.736763139764303,-0.0001849733671406284,2.8037285804748535,-1.650698184967041,0.0002590117510408163,2.1447525024414062,4.603759928340576,2.704380158777806e-19,0.29012852907180786,-1.6522100607501429,-0.0,0.0018704240210354328,1.219341516494751,0.0,0.004899111110717058,0.8850786089897156,0.0003733280173037201,0.04927115887403488
177.0,236.0,2.4162,-0.7675,9.2034,-0.0386,0.0275,-0.1124,-1.7367669544615687,-0.0002220141759607941,2.8670551776885986,-1.6506937742233276,0.0001635352527955547,2.1582627296447754,4.603768034572266,4.915077939361394e-24,0.29608839750289917,-1.6522463003741663,-0.0,-0.006446906831115484,1.2193291187286377,0.0,0.0011150813661515713,0.8850302696228027,0.0003017853887286037,-0.03136324882507324
177.0,236.0,2.4162,-0.7675,9.2034,-0.0386,0.0275,-0.1124,-1.7367831669249476,-0.0016991518205031753,2.8356714248657227,-1.6506900787353516,0.00012850010534748435,2.128823757171631,4.603736086482666,1.3681298842386577e-27,0.2957298457622528,-1.6522463003741663,-0.0,0.0038303048349916935,1.2193249464035034,0.0,-0.01680295541882515,0.8850787281990051,9.049993241205812e-05,-0.02115766331553459
177.0,236.0,2.4162,-0.7675,9.2034,-0.0386,0.0275,-0.1124,-1.7368151150145472,-0.002480550669133663,2.8383877277374268,-1.6507102251052856,4.997635187464766e-05,2.1607775688171387,4.603723688716553,2.486508800488587e-32,0.3058914840221405,-1.652193848286764,-0.0,-0.007162416819483042,1.2193334102630615,0.0,0.010051192715764046,0.8850505352020264,7.534481846960261e-05,-0.010874202474951744
177.0,236.0,2.4162,-0.7675,9.2034,-0.0386,0.0275,-0.1124,-1.7368108234801234,-0.0027103170286864042,2.8485231399536133,-1.6506781578063965,8.567563781980425e-05,2.16333270072937,4.60373513280835,6.92128835273944e-36,0.28916633129119873,-1.6522224585162562,-0.0,0.0007616397924721241,1.2193208932876587,0.0,-0.0025587878189980984,0.8850342631340027,6.693856994388625e-05,0.03351098299026489
177.0,236.0,2.4162,-0.7675,9.2034,-0.0386,0.0275,-0.1124,-1.7368189297118128,-0.0027839692775160074,2.8243813514709473,-1.6506900787353516,7.197394734248519e-05,2.1503560543060303,4.603759928340576,1.2579035924704585e-40,0.30622419714927673,-1.6522062460528772,-0.0,-0.01133695524185896,1.219341516494751,0.0,-0.0076957023702561855,0.88507080078125,5.8270434237783775e-05,-0.0152570940554142
177.0,236.0,2.4162,-0.7675,9.2034,-0.0386,0.0275,-0.1124,-1.7368389568724574,-0.002281254157423973,2.8749098777770996,-1.6506900787353516,9.305657295044512e-05,2.174351215362549,4.603727503413818,2.802596928649634e-45,0.29859477281570435,-1.6522257963763636,-0.0,0.0028323987498879433,1.2193008661270142,0.0,-0.011487390846014023,0.8850667476654053,5.158989370102063e-05,0.024809198454022408
177.0,236.0,2.4162,-0.7675,9.2034,-0.0386,0.0275,-0.1124,-1.7368751964964808,-0.0021501914598047733,2.8357229232788086,-1.6507670879364014,8.435047493549064e-05,2.151433229446411,4.603795214290283,0.0,0.29842984676361084,-1.6521781126605433,-0.0,-0.011581123806536198,1.2193374633789062,0.0,-0.012329409830272198,0.8850826621055603,4.7505243855994195e-05,-0.02100616693496704
175.0,234.0,2.4526,-0.5749,9.0018,-0.0379,0.0203,-0.1174,-1.7369076214232386,-0.002483680145815015,2.882472038269043,-1.650686502456665,5.948316174908541e-05,2.1711111068725586,4.603783293361328,0.0,0.30584636330604553,-1.6521742979632776,-0.0,0.004917304031550884,1.2193653583526611,0.0,0.00245338911190629,0.8850343227386475,4.296906627132557e-05,0.027951208874583244
175.0,234.0,2.4526,-0.5749,9.0018,-0.0379,0.0203,-0.1174,-1.7369147739806117,-0.0033701646607369184,2.875204086303711,-1.6506786346435547,0.00012595787120517343,2.157853126525879,4.603767080897949,0.0,0.2870635390281677,-1.652198616658346,-0.0,-0.0037860828451812267,1.2193291187286377,0.0,-0.0030424243304878473,0.8850505352020264,6.014499012962915e-05,0.010535355657339096
175.0,234.0,2.4526,-0.5749,9.0018,-0.0379,0.0203,-0.1174,-1.7369753322997035,-0.004630802199244499,2.818120241165161,-1.6506822109222412,0.0008193950052373111,2.1551272869110107,4.6037513452717285,0.0,0.2909074127674103,-1.6521943251239222,-0.0,0.006447230465710163,1.2193694114685059,0.0,-0.0074593438766896725,0.8850464820861816,5.522544597624801e-05,-0.02794037014245987
175.0,234.0,2.4526,-0.5749,9.0018,-0.0379,0.0203,-0.1174,-1.7369829616942347,-0.004814000800251961,2.8301010131835938,-1.6506662368774414,0.001469562528654933,2.153351068496704,4.6037794786640625,0.0,0.299793541431427,-1.6521781126605433,-0.0,-0.010100459679961205,1.219313144683838,0.0,-0.006840317510068417,0.8850746154785156,5.203258115216158e-05,0.0372440442442894
175.0,234.0,2.4526,-0.5749,9.0018,-0.0379,0.0203,-0.1174,-1.7371164760985316,-0.006364607717841864,2.831939220428467,-1.6506015062332153,0.001447378541342914,2.1698176860809326,4.603763743037842,0.0,0.30799299478530884,-1.6522224585162562,-0.0,-0.003415331244468689,1.219288945198059,0.0,0.006016334984451532,0.8850587010383606,4.830876787309535e-05,-0.04269116371870041
175.0,234.0,2.4526,-0.5749,9.0018,-0.0379,0.0203,-0.1174,-1.7370711765685023,-0.007128688506782055,2.796114921569824,-1.6506496667861938,0.0014778788900002837,2.1754884719848633,4.603719397182129,0.0,0.30903637409210205,-1.6522186438189905,-0.0,-0.000820433720946312,1.2193208932876587,0.0,0.007605778053402901,0.8850905299186707,4.584783528116532e-05,0.02065885439515114
175.0,234.0,2.4526,-0.5749,9.0018,-0.0379,0.0203,-0.1174,-1.7371555767455042,-0.007496560923755169,2.844886064529419,-1.650634527206421,0.0015069585060700774,2.1369881629943848,4.603747530574463,0.0,0.29728755354881287,-1.6521781126605433,-0.0,-0.005566156469285488,1.219373345375061,0.0,-0.006179545074701309,0.885034441947937,4.293183155823499e-05,-0.007114707492291927
175.0,234.0,2.4526,-0.5749,9.0018,-0.0379,0.0203,-0.1174,-1.7372318706908167,-0.007392123341560364,2.846797227859497,-1.650590181350708,0.0014131804928183556,2.1765365600585938,4.603715105647705,0.0,0.3168443441390991,-1.6521905104266565,-0.0,-0.007985865697264671,1.2192888259887695,0.0,-0.011603843420743942,0.8851027488708496,4.09771892009303e-05,0.008693421259522438
175.0,234.0,2.4526,-0.5749,9.0018,-0.0379,0.0203,-0.1174,-1.7373081646361292,-0.0074312579818069935,2.825728416442871,-1.6506056785583496,0.0011136899702250957,2.13750958442688,4.603747530574463,0.0,0.29456883668899536,-1.6521781126605433,-0.0,-7.06367427483201e-05,1.219341516494751,0.0,-0.009329869411885738,0.8850826025009155,3.8631991628790274e-05,0.028631936758756638
175.0,234.0,2.4526,-0.5749,9.0018,-0.0379,0.0203,-0.1174,-1.7373033962645472,-0.007352482061833143,2.843172550201416,-1.6505818367004395,0.001160317100584507,2.1576993465423584,4.603736086482666,0.0,0.3128602206707001,-1.652186695729391,-0.0,-0.0001497140619903803,1.2193249464035034,0.0,-0.007423670031130314,0.8850786089897156,3.654070314951241e-05,-0.0069758896715939045
175.0,234.0,2.4526,-0.5749,9.0018,-0.0379,0.0203,-0.1174,-1.737319131890768,-0.007318410556763411,2.880918025970459,-1.6505858898162842,0.0010660085827112198,2.136139392852783,4.603711290950439,0.0,0.31354379653930664,-1.6521661917315882,-5.314638951148254e-09,-0.0005522197461687028,1.219361662864685,0.0,0.0007580255623906851,0.8850786089897156,3.51150483766105e-05,0.0028563695959746838
175.0,234.0,2.4526,-0.5749,9.0018,-0.0379,0.0203,-0.1174,-1.7374521694579066,-0.00687657855451107,2.8277416229248047,-1.6505420207977295,0.0013965232064947486,2.1445493698120117,4.603747530574463,0.0,0.30811405181884766,-1.652153793965475,-9.659094813048441e-14,0.011890850961208344,1.2193493843078613,0.0,0.0007784662302583456,0.8850626945495605,3.3378644729964435e-05,-0.02269822172820568
178.0,239.0,2.5507,-0.7711,8.9055,-0.0392,0.0096,-0.1188,-1.7374197445311488,-0.006261218339204788,2.821200370788574,-1.6505457162857056,0.0016167571302503347,2.1672186851501465,4.603763743037842,0.0,0.3107330799102783,-1.6521905104266565,-2.6886448674213322e-17,0.007082912139594555,1.2193291187286377,0.0,0.020745810121297836,0.8850706219673157,3.218501296942122e-05,-0.026633448898792267
178.0,239.0,2.5507,-0.7711,8.9055,-0.0392,0.0096,-0.1188,-1.7374636135497035,-0.005755267571657896,2.840623378753662,-1.6505420207977295,0.0016413277480751276,2.1646347045898438,4.603727503413818,0.0,0.2961854338645935,-1.652130428944723,-4.886479096751709e-22,-0.00894460640847683,1.2193249464035034,0.0,-0.004943605046719313,0.8850667476654053,3.072023901040666e-05,-0.011146493256092072
178.0,239.0,2.5507,-0.7711,8.9055,-0.0392,0.0096,-0.1188,-1.7375480137267054,-0.005947446916252375,2.8166580200195312,-1.650578498840332,0.0016107980627566576,2.2045247554779053,4.603755636806152,0.0,0.3121851980686188,-1.6521623770343226,-1.3601692569621072e-25,-0.012661578133702278,1.2193772792816162,0.0,0.001672656275331974,0.8850826621055603,1.0137943718291353e-05,-0.023426782339811325
178.0,239.0,2.5507,-0.7711,8.9055,-0.0392,0.0096,-0.1188,-1.7376085720457972,-0.005959230475127697,2.7943108081817627,-1.650522232055664,0.0021362677216529846,2.16910719871521,4.6037513452717285,0.0,0.3057607412338257,-1.652170483266012,-2.4720405456549658e-30,0.004195418208837509,1.2193249464035034,0.0,-0.002433816436678171,0.8850746154785156,3.2845652738443254e-13,0.014968693256378174
178.0,239.0,2.5507,-0.7711,8.9055,-0.0392,0.0096,-0.1188,-1.7376281223692835,-0.0051282658241689205,2.814143419265747,-1.6504864692687988,0.0034874379634857178,2.176225423812866,4.603768034572266,0.0,0.30404579639434814,-1.6521623770343226,-6.881016076992387e-34,-0.010093708522617817,1.2193856239318848,0.0,0.004367220215499401,0.8850666284561157,7.931837995698279e-19,-0.011944368481636047
178.0,239.0,2.5507,-0.7711,8.9055,-0.0392,0.0096,-0.1188,-1.7376276455321253,-0.004337014630436897,2.819462776184082,-1.6504827737808228,0.004739292897284031,2.1984453201293945,4.603775187129639,0.0,0.3060722351074219,-1.6521905104266565,-1.2505906361746866e-38,-0.01377875916659832,1.2193772792816162,0.0,0.004884964320808649,0.8850944638252258,2.5698147011889496e-26,0.03515610471367836
178.0,239.0,2.5507,-0.7711,8.9055,-0.0392,0.0096,-0.1188,-1.7376600704588832,-0.0045967404730618,2.812445640563965,-1.6503612995147705,0.006423344835639,2.181635856628418,4.603747530574463,0.0,0.3113914430141449,-1.6521580854998987,-2.2701035122062037e-43,0.0022172897588461637,1.2193574905395508,0.0,-0.002586872549727559,0.8850626945495605,8.325873121595679e-34,-0.0017659901641309261
178.0,239.0,2.5507,-0.7711,8.9055,-0.0392,0.0096,-0.1188,-1.7376958332457484,-0.0051265801303088665,2.8302974700927734,-1.6503777503967285,0.007062220945954323,2.177042007446289,4.603799982661865,0.0,0.30614086985588074,-1.6522067228900355,-0.0,-0.012206285260617733,1.2194055318832397,0.0,-0.0032919608056545258,0.885082483291626,2.0106012534932838e-39,-0.006988000124692917
178.0,239.0,2.5507,-0.7711,8.9055,-0.0392,0.0096,-0.1188,-1.7377807102599085,-0.0060150814242661,2.8026366233825684,-1.6502865552902222,0.00814215000718832,2.1780576705932617,4.603715105647705,0.0,0.30298590660095215,-1.6521828810321253,-0.0,-0.008282029069960117,1.21941339969635,0.0,-0.005261947400867939,0.8850706815719604,0.0,-0.0058038798160851
178.0,239.0,2.5507,-0.7711,8.9055,-0.0392,0.0096,-0.1188,-1.7377602062621058,-0.006292009726166725,2.7762110233306885,-1.6502585411071777,0.00815526582300663,2.188018321990967,4.603768034572266,0.0,0.30723732709884644,-1.6521580854998987,-0.0,-0.0212654210627079,1.2193536758422852,0.0,0.00405659805983305,0.8850947618484497,1.1014375189688508e-08,0.021687626838684082
178.0,239.0,2.5507,-0.7711,8.9055,-0.0392,0.0096,-0.1188,-1.7379089794554652,-0.006593896076083183,2.76289439201355,-1.6501741409301758,0.00952987466007471,2.1787641048431396,4.603747530574463,0.0,0.3010227382183075,-1.6521905104266565,-0.0,0.0026963427662849426,1.21934974193573,0.0,-0.014985065907239914,0.885066568851471,3.568516984255661e-16,-0.030790861696004868
178.0,239.0,2.5507,-0.7711,8.9055,-0.0392,0.0096,-0.1188,-1.737880369225973,-0.006692524068057537,2.8110647201538086,-1.6500695943832397,0.010253218933939934,2.1534759998321533,4.603731794948242,0.0,0.3234071135520935,-1.6521905104266565,-0.0,-0.007692885585129261,1.2193454504013062,0.0,-0.010223706252872944,0.8850385546684265,8.61754884037701e-22,-0.004337070044130087
178.0,239.0,2.5507,-0.7711,8.9055,-0.0392,0.0096,-0.1188,-1.737936636010641,-0.006620451807975769,2.776202917098999,-1.6500349044799805,0.010839063674211502,2.13394832611084,4.603719397182129,0.0,0.2957285940647125,-1.652182404194967,-0.0,-0.03571990877389908,1.219313144683838,0.0,-0.008535012602806091,0.8850904703140259,2.791976103248212e-29,-0.015680989250540733
171.0,235.0,2.5167,-0.728,8.9994,-0.0356,0.0147,-0.1176,-1.7379442654051722,-0.007381313946098089,2.7680470943450928,-1.6499782800674438,0.011472710408270359,2.1758434772491455,4.603731794948242,0.0,0.3071610629558563,-1.6521218458758753,-0.0,-0.0048127491027116776,1.2193653583526611,0.0,-0.0037407083436846733,0.8850626349449158,6.742293509093453e-35,0.020842213183641434
171.0,235.0,2.5167,-0.728,8.9994,-0.0356,0.0147,-0.1176,-1.7380124531187953,-0.007465218659490347,2.806708812713623,-1.6498498916625977,0.013343657366931438,2.1806888580322266,4.603738947505615,0.0,0.2976307272911072,-1.652182404194967,-0.0,-0.010292351245880127,1.219313144683838,0.0,-0.009550598450005054,0.8850464820861816,2.1846243058823898e-42,-0.033789314329624176
171.0,235.0,2.5167,-0.728,8.9994,-0.0356,0.0147,-0.1176,-1.7381493053831996,-0.008487066254019737,2.823023557662964,-1.6497339010238647,0.012879105284810066,2.1159582138061523,4.603763743037842,0.0,0.30282485485076904,-1.6521781126605433,-0.0,-0.0070010097697377205,1.2193291187286377,0.0,0.00420753937214613,0.8850826621055603,0.0,0.012907210737466812
171.0,235.0,2.5167,-0.728,8.9994,-0.0356,0.0147,-0.1176,-1.7381202183165492,-0.008533542975783348,2.7735304832458496,-1.6496899127960205,0.014527943916618824,2.1099278926849365,4.603768034572266,0.0,0.2955755591392517,-1.6521428267108362,-0.0,-0.03339614346623421,1.2193171977996826,0.0,0.0008992752991616726,0.8850904703140259,0.0,0.028095128014683723
171.0,235.0,2.5167,-0.728,8.9994,-0.0356,0.0147,-0.1176,-1.7382084331908167,-0.008772531524300575,2.7877116203308105,-1.6494698524475098,0.01731775887310505,2.2202796936035156,4.603755636806152,0.0,0.30186012387275696,-1.6521785894977015,-0.0,-0.019074540585279465,1.2193411588668823,0.0,0.008248057216405869,0.8850746154785156,0.0,0.03479310870170593
171.0,235.0,2.5167,-0.728,8.9994,-0.0356,0.0147,-0.1176,-1.738248964349264,-0.008481612429022789,2.751725196838379,-1.6494220495224,0.019186412915587425,2.1535816192626953,4.6037913995930175,0.0,0.2985798716545105,-1.6521828810321253,-0.0,-0.011598479934036732,1.21938955783844,0.0,-0.0010062807705253363,0.8851027488708496,0.0,0.008814539760351181
171.0,235.0,2.5167,-0.728,8.9994,-0.0356,0.0147,-0.1176,-1.73838533977651,-0.010421328246593475,2.7572712898254395,-1.6492583751678467,0.02206527441740036,2.1842286586761475,4.603715105647705,0.0,0.3023008108139038,-1.6521466414081019,-0.0,-0.02115638740360737,1.2193331718444824,0.0,-0.0007841564947739244,0.8850986957550049,0.0,0.013234881684184074
171.0,235.0,2.5167,-0.728,8.9994,-0.0356,0.0147,-0.1176,-1.7384172878661097,-0.011867188848555088,2.7542309761047363,-1.6490496397018433,0.02449716441333294,2.1851162910461426,4.6037513452717285,0.0,0.3022761344909668,-1.6521385351764124,-0.0,-0.026463788002729416,1.2193615436553955,0.0,0.00020693335682153702,0.8850826025009155,0.0,0.027653872966766357
171.0,235.0,2.5167,-0.728,8.9994,-0.0356,0.0147,-0.1176,-1.7385016880431117,-0.012724753469228745,2.7583374977111816,-1.6489262580871582,0.026567034423351288,2.19169282913208,4.603747530574463,0.0,0.28415465354919434,-1.6521661917315882,-0.0,-0.019210686907172203,1.2193855047225952,0.0,-0.005562661215662956,0.8851106762886047,0.0,-0.022865552455186844
171.0,235.0,2.5167,-0.728,8.9994,-0.0356,0.0147,-0.1176,-1.738589426080221,-0.01292883325368166,2.7162067890167236,-1.6487386226654053,0.02811269648373127,2.2151410579681396,4.603695555324219,0.0,0.28839918971061707,-1.6521580854998987,-0.0,-0.026627875864505768,1.2193050384521484,0.0,-0.008764377795159817,0.8850986957550049,0.0,-0.03596537560224533
171.0,235.0,2.5167,-0.728,8.9994,-0.0356,0.0147,-0.1176,-1.7386414013304652,-0.013543516397476196,2.7466471195220947,-1.648445725440979,0.030465425923466682,2.1626272201538086,4.603695555324219,0.0,0.2748261094093323,-1.652170483266012,-0.0,-0.013183748349547386,1.2193456888198853,0.0,-0.012031580321490765,0.8850947618484497,0.0,0.019538065418601036
171.0,235.0,2.5167,-0.728,8.9994,-0.0356,0.0147,-0.1176,-1.7387615642943324,-0.013360257260501385,2.693284034729004,-1.6482735872268677,0.031836625188589096,2.1561059951782227,4.603727503413818,0.0,0.2935100793838501,-1.652130428944723,-0.0,-0.02062557451426983,1.2193132638931274,0.0,-0.00974039826542139,0.8850785493850708,0.0,-0.005082502029836178
171.0,235.0,2.5167,-0.728,8.9994,-0.0356,0.0147,-0.1176,-1.7388693294920863,-0.013375913724303246,2.644674777984619,-1.6480261087417603,0.03281376510858536,2.136686325073242,4.6036717134663085,0.0,0.28919118642807007,-1.652130428944723,-0.0,-0.013746362179517746,1.2193249464035034,0.0,-0.0022949252743273973,0.8850706815719604,0.0,-0.02035246416926384
178.0,233.0,2.4503,-0.795,9.1962,-0.0263,0.0391,-0.1252,-1.7389775715269984,-0.012792909517884254,2.733853816986084,-1.6477829217910767,0.034824784845113754,2.16074538230896,4.603691263789795,-9.319123637396842e-05,0.2817891240119934,-1.652186695729391,-0.0,-0.015339323319494724,1.2192972898483276,0.0,0.0022294074296951294,0.8850865364074707,0.0,-0.010656733065843582
178.0,233.0,2.4503,-0.795,9.1962,-0.0263,0.0391,-0.1252,-1.7390700779356898,-0.012062694877386093,2.7041475772857666,-1.647522211074829,0.03707500547170639,2.164987325668335,4.603667421931885,-0.00012063838948961347,0.28375157713890076,-1.6521623770343226,-0.0,-0.01580892875790596,1.2193291187286377,0.0,-0.004516610875725746,0.8850424885749817,0.0,-0.031302593648433685
178.0,233.0,2.4503,-0.795,9.1962,-0.0263,0.0391,-0.1252,-1.739150186578268,-0.01313859410583973,2.6883912086486816,-1.6472505331039429,0.0374981053173542,2.115276336669922,4.603679819697998,-0.00013037494500167668,0.2850085496902466,-1.652170483266012,-0.0,-0.008865595795214176,1.2193536758422852,0.0,-0.004441162571310997,0.8851304650306702,0.0,0.008281874470412731
178.0,233.0,2.4503,-0.795,9.1962,-0.0263,0.0391,-0.1252,-1.7392102680602015,-0.013908704742789268,2.646638870239258,-1.647013783454895,0.038863275200128555,2.1958999633789062,4.603639765376709,-0.00041490819421596825,0.2757755517959595,-1.6521342436419886,-0.0,-0.012527166865766048,1.2193013429641724,0.0,-0.015216751955449581,0.8851345181465149,0.0,0.0016541741788387299
178.0,233.0,2.4503,-0.795,9.1962,-0.0263,0.0391,-0.1252,-1.7393747768797816,-0.016893167048692703,2.6203043460845947,-1.646654486656189,0.04058535397052765,2.222221851348877,4.603692217464111,-0.0003758660168386996,0.269528865814209,-1.6521342436419886,-0.0,-0.03475772589445114,1.2193249464035034,0.0,-0.007676732260733843,0.885066568851471,0.0,-0.01987416110932827
178.0,233.0,2.4503,-0.795,9.1962,-0.0263,0.0391,-0.1252,-1.7394706211485804,-0.01936449110507965,2.6264796257019043,-1.646523118019104,0.041658878326416016,2.1799659729003906,4.603679819697998,-0.00034668983425945044,0.2752072215080261,-1.652170483266012,-0.0,-0.021100228652358055,1.2192655801773071,5.865505858793085e-10,-0.018053390085697174,0.8851146101951599,0.0,-0.012739952653646469
178.0,233.0,2.4503,-0.795,9.1962,-0.0263,0.0391,-0.1252,-1.7396265468993128,-0.022810718044638634,2.6400532722473145,-1.646066427230835,0.042998578399419785,2.179499626159668,4.6036717134663085,-0.0003200819483026862,0.2637695074081421,-1.6521623770343226,-0.0,-0.009968025609850883,1.2193211317062378,1.0660267936132058e-14,-0.028004290536046028,0.8851027488708496,0.0,-0.016376733779907227
178.0,233.0,2.4503,-0.795,9.1962,-0.0263,0.0391,-0.1252,-1.739786764184469,-0.027786094695329666,2.6218583583831787,-1.6459031105041504,0.041663963347673416,2.1419856548309326,4.603676005000732,-0.00026804328081198037,0.2630586326122284,-1.652170483266012,-0.0,-0.02722031995654106,1.2193372249603271,2.9673247454864686e-18,-0.010116822086274624,0.8851027488708496,0.0,-0.04162716865539551
178.0,233.0,2.4503,-0.795,9.1962,-0.0263,0.0391,-0.1252,-1.7399913273253382,-0.03327285125851631,2.5795326232910156,-1.6455187797546387,0.040862806141376495,2.163703203201294,4.603692217464111,-0.00025973652373068035,0.2649799585342407,-1.6521509329425257,-0.0,-0.021220816299319267,1.2192496061325073,5.392966799186753e-23,-0.034515514969825745,0.8851186633110046,0.0,-0.007108493708074093
178.0,233.0,2.4503,-0.795,9.1962,-0.0263,0.0391,-0.1252,-1.7402640781798304,-0.03763139247894287,2.576570510864258,-1.6451822519302368,0.040301501750946045,2.1901893615722656,4.603684111232422,-0.0002549373311921954,0.25899213552474976,-1.6522067228900355,-0.0,-0.015001006424427032,1.2192250490188599,1.5011520743826358e-26,-0.035349905490875244,0.8851027488708496,0.0,-0.01728123426437378
178.0,233.0,2.4503,-0.795,9.1962,-0.0263,0.0391,-0.1252,-1.740556379357809,-0.04266512766480446,2.5088870525360107,-1.6449309587478638,0.03841101750731468,2.137284994125366,4.6036316591450195,-0.0002266905503347516,0.2509639859199524,-1.6521499792682093,-0.0,-0.014059063047170639,1.2193291187286377,2.728270196309353e-31,-0.018148798495531082,0.8850706219673157,0.0,-0.04064610227942467
178.0,233.0,2.4503,-0.795,9.1962,-0.0263,0.0391,-0.1252,-1.7408400974669398,-0.05079874023795128,2.4948043823242188,-1.6445577144622803,0.03891174867749214,2.128446578979492,4.6036879259296875,-0.00022634572815150023,0.25883832573890686,-1.6521456877337855,-0.0,-0.021758319810032845,1.2193291187286377,4.958496185467645e-36,-0.03084808588027954,0.8850587010383606,0.0,-0.0400795117020607
177.0,225.0,2.4742,-0.8764,8.9539,-0.0212,0.0429,-0.1171,-1.7412330112852992,-0.057447876781225204,2.5049571990966797,-1.6443384885787964,0.04100433737039566,2.10097599029541,4.6036597925373535,-0.00021116188145242631,0.25328558683395386,-1.6521580854998987,-0.0,-0.014749884605407715,1.2192775011062622,1.3802159289290502e-39,-0.030688926577568054,0.8851027488708496,0.0,-0.05558766424655914
177.0,225.0,2.4742,-0.8764,8.9539,-0.0212,0.0429,-0.1171,-1.7417575321593226,-0.06550809741020203,2.4986534118652344,-1.6440714597702026,0.046186674386262894,2.162895441055298,4.603595419520996,-0.0002470489125698805,0.25409990549087524,-1.6521385351764124,-0.0,-0.00939987413585186,1.2192853689193726,2.5223372357846707e-44,-0.04194506257772446,0.8850826621055603,0.0,-0.07139765471220016
177.0,225.0,2.4742,-0.8764,8.9539,-0.0212,0.0429,-0.1171,-1.7421304188170375,-0.071825310587883,2.5587596893310547,-1.6437344551086426,0.05119206756353378,2.15615177154541,4.603619738216064,-0.00040687911678105593,0.23599696159362793,-1.6521266142474573,-0.0,-0.00964068342000246,1.2192773818969727,0.0,-0.03688695281744003,0.8850383758544922,0.0,-0.06915503740310669
177.0,225.0,2.4742,-0.8764,8.9539,-0.0212,0.0429,-0.1171,-1.7427507839598597,-0.07872891426086426,2.49261474609375,-1.6433308124542236,0.05479235574603081,2.131446361541748,4.603611631984375,-0.0005324212252162397,0.2508241534233093,-1.652186695729391,-0.0,-0.0344313383102417,1.2192330360412598,-0.00037628202699124813,-0.03816124424338341,0.8850826025009155,3.1760800586755344e-12,-0.06726159155368805
177.0,225.0,2.4742,-0.8764,8.9539,-0.0212,0.0429,-0.1171,-1.743295808831686,-0.0849541425704956,2.4965689182281494,-1.643007516860962,0.055862199515104294,2.1748900413513184,4.603592081660889,-0.00048726864042691886,0.243781179189682,-1.6521509329425257,-0.0,-0.022455429658293724,1.2192697525024414,-0.00036481450661085546,-0.04370143264532089,0.8850144147872925,7.66986100351115e-18,-0.04642561823129654
177.0,225.0,2.4742,-0.8764,8.9539,-0.0212,0.0429,-0.1171,-1.7439929447569789,-0.09025154262781143,2.4926390647888184,-1.6425389051437378,0.058566078543663025,2.1561264991760254,4.603635950679443,-0.00040952168637886643,0.2426322102546692,-1.6521385351764124,-0.0,-0.02118740603327751,1.2192615270614624,-0.00046019433648325503,-0.048329345881938934,0.8850866556167603,2.484937242906574e-25,-0.05548328533768654
177.0,225.0,2.4742,-0.8764,8.9539,-0.0212,0.0429,-0.1171,-1.7445250950255335,-0.09342030435800552,2.463265895843506,-1.6421312093734741,0.05958986282348633,2.1394238471984863,4.603624029750488,-0.00041713129030540586,0.24186009168624878,-1.6521623770343226,-0.0,-0.020520176738500595,1.2192370891571045,-0.0004916077596135437,-0.04850459843873978,0.8850425481796265,6.000831892868651e-31,-0.07059355825185776
177.0,225.0,2.4742,-0.8764,8.9539,-0.0212,0.0429,-0.1171,-1.7452980480589808,-0.09988059848546982,2.465169906616211,-1.641707420349121,0.06326780468225479,2.136991024017334,4.603635950679443,-0.00039993764949031174,0.23903024196624756,-1.6521385351764124,-0.0,-0.011843947693705559,1.2192456722259521,-0.0004731949302367866,-0.06008574366569519,0.8851027488708496,1.9441927383600056e-38,-0.07377969473600388
177.0,225.0,2.4742,-0.8764,8.9539,-0.0212,0.0429,-0.1171,-1.7459708652892054,-0.10686715692281723,2.4614784717559814,-1.6412992477416992,0.06652013957500458,2.1577093601226807,4.603595896358154,-0.00035380394547246397,0.23310105502605438,-1.6521747748004358,-0.0,-0.016490507870912552,1.219261646270752,-0.000464429147541523,-0.04506071284413338,0.8850464820861816,4.764414778704378e-44,-0.09696784615516663
177.0,225.0,2.4742,-0.8764,8.9539,-0.0212,0.0429,-0.1171,-1.7468887768187464,-0.11699192225933075,2.4180285930633545,-1.6407551765441895,0.06985919922590256,2.2042717933654785,4.603607340449951,-0.00026914518093690276,0.23987656831741333,-1.6520980040179651,-0.0,-0.02443254366517067,1.219245195388794,-0.00040491006802767515,-0.045897480100393295,0.884998619556427,0.0,-0.1257898211479187
177.0,225.0,2.4742,-0.8764,8.9539,-0.0212,0.0429,-0.1171,-1.747890134850973,-0.13075368106365204,2.4243903160095215,-1.6401636600494385,0.07183107733726501,2.1684303283691406,4.603624029750488,-0.00021716952323913574,0.23218363523483276,-1.6521428267108362,-0.0,-0.018760021775960922,1.219245195388794,-0.00036806886782869697,-0.060042597353458405,0.8850626945495605,0.0,-0.10946722328662872
177.0,225.0,2.4742,-0.8764,8.9539,-0.0212,0.0429,-0.1171,-1.7486382923521937,-0.130634143948555,2.4459335803985596,-1.6396995782852173,0.07321029901504517,2.1701650619506836,4.603643580073975,-0.00018969824304804206,0.23948663473129272,-1.6521385351764124,-0.0,-0.026335380971431732,1.2192174196243286,-0.00031913715065456927,-0.05190033093094826,0.8850505352020264,0.0,-0.08286212384700775
177.0,225.0,2.4742,-0.8764,8.9539,-0.0212,0.0429,-0.1171,-1.7497760258116664,-0.12482089549303055,2.448401927947998,-1.6390997171401978,0.07468337565660477,2.1925535202026367,4.60365550100293,-0.00012986826186534017,0.22900709509849548,-1.652170483266012,-0.0,-0.019047826528549194,1.2192410230636597,-0.0002494155487511307,-0.051080089062452316,0.8850826621055603,0.0,-0.12434347718954086
174.0,232.0,2.0052,-0.9051,9.0413,-0.0585,-0.0153,-0.115,-1.7505408726134242,-0.12381584942340851,2.4897005558013916,-1.6386511325836182,0.0752558633685112,2.1621437072753906,4.603599234218262,-4.894423909718171e-05,0.24472872912883759,-1.652198616658346,-0.0,-0.011111627332866192,1.2192617654800415,-0.0002137497504008934,-0.05769306421279907,0.8850826025009155,0.0,-0.0962476059794426
174.0,232.0,2.0052,-0.9051,9.0413,-0.0585,-0.0153,-0.115,-1.7516824207701625,-0.13959579169750214,2.4358739852905273,-1.6381440162658691,0.07236042618751526,2.207991600036621,4.603667898769043,-3.682061651488766e-05,0.25234198570251465,-1.6521509329425257,-0.0,-0.016832752153277397,1.2192332744598389,-0.00021490041399374604,-0.06198123097419739,0.8850746154785156,0.0,-0.05992460623383522
174.0,232.0,2.0052,-0.9051,9.0413,-0.0585,-0.0153,-0.115,-1.7525555096068324,-0.1537163108587265,2.4571619033813477,-1.637671709060669,0.07246479392051697,2.1681714057922363,4.603652163142822,-3.279478187323548e-05,0.237677663564682,-1.6521905104266565,-0.0,-0.027588093653321266,1.2192291021347046,-0.0001924851385410875,-0.06719543784856796,0.8850424885749817,0.0,-0.09269702434539795
174.0,232.0,2.0052,-0.9051,9.0413,-0.0585,-0.0153,-0.115,-1.7537890873351039,-0.16644872725009918,2.3663249015808105,-1.6369916200637817,0.08121439814567566,2.1509017944335938,4.603667421931885,-2.5560223093634704e-07,0.23519183695316315,-1.6521661917315882,-0.0,-0.021968336775898933,1.219281554222107,-0.00016846258949954063,-0.05938469618558884,0.8850343227386475,0.0,-0.0917787030339241
174.0,232.0,2.0052,-0.9051,9.0413,-0.0585,-0.0153,-0.115,-1.7547389469542445,-0.15837693214416504,2.497779369354248,-1.6365163326263428,0.09179658442735672,2.226071357727051,4.603676005000732,-7.114781680472859e-11,0.2288423776626587,-1.6521499792682093,-0.0,-0.009199812076985836,1.2192251682281494,-0.00017968805332202464,-0.06416023522615433,0.8850827813148499,0.0,-0.050498008728027344
174.0,232.0,2.0052,-0.9051,9.0413,-0.0585,-0.0153,-0.115,-1.7559753857054652,-0.13801416754722595,2.4640769958496094,-1.6356801986694336,0.10138404369354248,2.2172341346740723,4.603643580073975,-1.293076367992797e-15,0.23621997237205505,-1.6521580854998987,-0.0,-0.025709226727485657,1.219245195388794,-0.00016131033771671355,-0.06516430526971817,0.8850505352020264,0.0,-0.014535786584019661
174.0,232.0,2.0052,-0.9051,9.0413,-0.0585,-0.0153,-0.115,-1.757177015344137,-0.13843275606632233,2.482419013977051,-1.6349680423736572,0.09776800870895386,2.201925277709961,4.603627844447754,-2.3501023536482668e-20,0.2497144639492035,-1.6521747748004358,-0.0,-0.02379518374800682,1.2192213535308838,-0.0001463231456000358,-0.05808065086603165,0.8850785493850708,0.0,-0.0950022041797638
174.0,232.0,2.0052,-0.9051,9.0413,-0.0585,-0.0153,-0.115,-1.7580744228758753,-0.15747711062431335,2.4449374675750732,-1.634379506111145,0.09058164805173874,2.203296422958374,4.603680296535156,-6.541597107678579e-24,0.23617659509181976,-1.6521499792682093,-0.0,-0.02465328760445118,1.2192410230636597,-0.00013679155381396413,-0.054079338908195496,0.8850626945495605,0.0,-0.08361387997865677
174.0,232.0,2.0052,-0.9051,9.0413,-0.0585,-0.0153,-0.115,-1.7593041859068812,-0.17325280606746674,2.491398334503174,-1.6336802244186401,0.0873897448182106,2.180610179901123,4.603688402766846,-1.1889029158363545e-28,0.2650945484638214,-1.6521828810321253,-0.0,-0.031700052320957184,1.2192213535308838,-0.00012586003867909312,-0.06281596422195435,0.8850184679031372,0.0,-0.11927132308483124
174.0,232.0,2.0052,-0.9051,9.0413,-0.0585,-0.0153,-0.115,-1.7602855167784632,-0.1664089560508728,2.479588747024536,-1.633116602897644,0.09578795731067657,2.2167811393737793,4.603716059322021,-3.309355139937776e-32,0.2499496191740036,-1.652153793965475,-0.0,-0.026817239820957184,1.2192093133926392,-0.00011874319170601666,-0.05470625311136246,0.8850225210189819,0.0,-0.08989836275577545
174.0,232.0,2.0052,-0.9051,9.0413,-0.0585,-0.0153,-0.115,-1.7614661655821742,-0.14246660470962524,2.5244247913360596,-1.632244348526001,0.10951165109872818,2.2314443588256836,4.603684111232422,-6.014589593572761e-37,0.26682454347610474,-1.6521466414081019,-0.0,-0.024070672690868378,1.2192695140838623,-0.00012612278806045651,-0.05272378772497177,0.8850343227386475,0.0,-0.09249468147754669
174.0,232.0,2.0052,-0.9051,9.0413,-0.0585,-0.0153,-0.115,-1.762367387811178,-0.13407066464424133,2.5706796646118164,-1.6316367387771606,0.12230554223060608,2.2205617427825928,4.603684111232422,-1.674187327267432e-40,0.25788557529449463,-1.652153793965475,-0.0,-0.024476544931530952,1.2192617654800415,-0.0001198885656776838,-0.05300072580575943,0.8850106000900269,-5.359159331419505e-05,-0.06544219702482224
174.0,232.0,2.0052,-0.9051,9.0413,-0.0585,-0.0153,-0.115,-1.76356901744985,-0.14396658539772034,2.549071788787842,-1.6306047439575195,0.1309897005558014,2.2740046977996826,4.603599234218262,0.00010597301297821105,0.26248306035995483,-1.652153793965475,-0.0,-0.03369990363717079,1.2191976308822632,-0.00011240202002227306,-0.06124799698591232,0.8850665092468262,-5.92487704125233e-05,-0.11058683693408966
171.0,227.0,2.144,-0.8662,8.9868,-0.0215,-0.0038,-0.1326,-1.7644416294493617,-0.16163933277130127,2.5492749214172363,-1.6298326253890991,0.12865149974822998,2.282517910003662,4.6036035257526855,6.331092208711198e-06,0.2565985918045044,-1.652170483266012,-0.0,-0.03715623542666435,1.2192450761795044,-0.00010737328557297587,-0.054038241505622864,0.8850464820861816,-5.392377352109179e-05,-0.07435637712478638
171.0,227.0,2.144,-0.8662,8.9868,-0.0215,-0.0038,-0.1326,-1.7657276592650355,-0.1698540449142456,2.5656185150146484,-1.6287366151809692,0.12168382853269577,2.2381434440612793,4.6036316591450195,1.1506447183950996e-10,0.2481013834476471,-1.6521661917315882,-0.0,-0.028970614075660706,1.2191895246505737,-0.00010132887109648436,-0.06245921552181244,0.885014533996582,-7.219116378109902e-05,-0.06271174550056458
171.0,227.0,2.144,-0.8662,8.9868,-0.0215,-0.0038,-0.1326,-1.7666532001891078,-0.16354195773601532,2.56945538520813,-1.628017783164978,0.128350630402565,2.232758045196533,4.603692217464111,3.2028623053433417e-14,0.26060497760772705,-1.6521385351764124,-0.0,-0.010654732584953308,1.2192370891571045,-9.722400864120573e-05,-0.05773598700761795,0.885014533996582,-0.0001144263515016064,-0.11529494822025299
171.0,227.0,2.144,-0.8662,8.9868,-0.0215,-0.0038,-0.1326,-1.7678142986693324,-0.14421051740646362,2.588351249694824,-1.6269980669021606,0.1398041844367981,2.2541418075561523,4.603639765376709,5.821043161476409e-19,0.2574085593223572,-1.6521623770343226,-0.0,-0.013821613974869251,1.2192658185958862,-9.224176756106317e-05,-0.07206272333860397,0.8849983215332031,-0.0007517909980379045,-0.08967965841293335
171.0,227.0,2.144,-0.8662,8.9868,-0.0215,-0.0038,-0.1326,-1.7689601383604945,-0.13042829930782318,2.5724573135375977,-1.6257857084274292,0.14999529719352722,2.275763988494873,4.603639765376709,1.0579459353851492e-23,0.26796865463256836,-1.6521499792682093,-0.0,-0.022535288706421852,1.2192853689193726,-8.774524758337066e-05,-0.04575369134545326,0.8850023746490479,-0.0004341043531894684,-0.05025109648704529
171.0,227.0,2.144,-0.8662,8.9868,-0.0215,-0.0038,-0.1326,-1.7697926960387171,-0.13379888236522675,2.5910396575927734,-1.6248494386672974,0.1554589420557022,2.287778377532959,4.603643580073975,2.9448314332926422e-27,0.25592097640037537,-1.6521580854998987,-0.0,-0.034460924565792084,1.2191975116729736,-8.465041901217774e-05,-0.06769324094057083,0.8849983215332031,-0.0003178478800691664,-0.06432439386844635
171.0,227.0,2.144,-0.8662,8.9868,-0.0215,-0.0038,-0.1326,-1.7708732090392054,-0.13879261910915375,2.6032629013061523,-1.6235979795455933,0.15155528485774994,2.2985546588897705,4.603627844447754,5.352085729505767e-32,0.25631824135780334,-1.6521499792682093,-0.0,-0.018762439489364624,1.2192213535308838,-6.311965262284502e-05,-0.04847729206085205,0.884990394115448,-0.00023487521684728563,-0.08495792001485825
171.0,227.0,2.144,-0.8662,8.9868,-0.0215,-0.0038,-0.1326,-1.771630426446432,-0.14255912601947784,2.6194350719451904,-1.6226743459701538,0.15274377167224884,2.2823314666748047,4.603627844447754,1.4897727813234258e-35,0.2598457634449005,-1.6521785894977015,-0.0,-0.03894193470478058,1.2191777229309082,-5.9425841755000874e-05,-0.06510425359010696,0.8850066065788269,-0.00019642329425550997,-0.07360213994979858
