ramyac6/ROB537/final_project/csv/good/good_36.csv
tof_0,tof_1,accelx,accely,accelz,gyrox,gyroy,gyroz,shoulder_lift_joint_position,shoulder_lift_joint_velocity,shoulder_lift_joint_effort,elbow_joint_position,elbow_joint_velocity,elbow_joint_effort,wrist_1_joint_position,wrist_1_joint_velocity,wrist_1_joint_effort,wrist_2_joint_position,wrist_2_joint_velocity,wrist_2_joint_effort,wrist_3_joint_position,wrist_3_joint_velocity,wrist_3_joint_effort,shoulder_pan_joint_position,shoulder_pan_joint_velocity,shoulder_pan_joint_effort
312.0,447.0,0.2883,0.0849,9.4253,-0.0322,0.0308,-0.1185,-1.8061148128905238,0.0,2.9973578453063965,-1.798458456993103,-0.0,1.9986844062805176,5.0729232011135,0.0,0.2876805067062378,-1.525285545979635,0.0,-0.019515395164489746,0.3492002487182617,-0.0,0.011824999935925007,1.2070410251617432,0.0,-0.008017605170607567
312.0,447.0,0.2883,0.0849,9.4253,-0.0322,0.0308,-0.1185,-1.8060304127135218,0.0,3.0259571075439453,-1.7985389232635498,-0.0,2.0079383850097656,5.072919088393011,0.0,0.28339195251464844,-1.5253012816058558,0.0,-0.025877688080072403,0.3492085039615631,-0.0,0.0006593388970941305,1.2070810794830322,0.0,0.015053410083055496
312.0,447.0,0.2883,0.0849,9.4253,-0.0322,0.0308,-0.1185,-1.806070943871969,0.0,3.009645938873291,-1.7985029220581055,-0.0,2.0034918785095215,5.072955179005422,0.0,0.2823764383792877,-1.5252974669085901,0.0,-0.020063158124685287,0.3492002487182617,-0.0,-0.003657344961538911,1.2070327997207642,0.0,-0.018334586173295975
312.0,447.0,0.2883,0.0849,9.4253,-0.0322,0.0308,-0.1185,-1.8060137234129847,0.0,3.0109503269195557,-1.7984944581985474,-0.0,2.0027737617492676,5.072899031430044,0.0,0.2779894471168518,-1.525285545979635,0.0,-0.01833375170826912,0.3492002487182617,-0.0,0.02056761458516121,1.2070491313934326,0.0,0.026595108211040497
312.0,447.0,0.2883,0.0849,9.4253,-0.0322,0.0308,-0.1185,-1.8060461483397425,0.0,3.0117969512939453,-1.7984946966171265,-0.0,2.007723808288574,5.072951096087255,0.0,0.28410574793815613,-1.525285545979635,0.0,-0.018972711637616158,0.34918829798698425,-0.0,0.0038374741561710835,1.207029104232788,0.0,-0.010327799245715141
312.0,447.0,0.2883,0.0849,9.4253,-0.0322,0.0308,-0.1185,-1.8060184917845667,0.0,2.993623733520508,-1.7985029220581055,-0.0,1.9563579559326172,5.072959291725912,0.0,0.2711734473705292,-1.525285545979635,0.0,-0.023887235671281815,0.34916383028030396,-0.0,0.004003253765404224,1.2070491313934326,0.0,0.029825344681739807
312.0,447.0,0.2883,0.0849,9.4253,-0.0322,0.0308,-0.1185,-1.8060671291747035,0.0,2.9949378967285156,-1.7985585927963257,-0.0,2.0129613876342773,5.072971153050222,0.0,0.2771286368370056,-1.5252774397479456,0.0,-0.027834713459014893,0.3491519093513489,-0.0,0.0025662952102720737,1.2070810794830322,0.0,-0.009228812530636787
309.0,460.0,0.2865,0.1005,9.5958,-0.0389,0.0179,-0.1211,-1.8060947857298792,0.0,2.943885564804077,-1.7986030578613281,-0.0,1.9849505424499512,5.0729551492031,0.0,0.281719833612442,-1.5252817312823694,0.0,-0.013946140184998512,0.34911954402923584,-0.0,0.015790047124028206,1.2070331573486328,0.0,0.005938694812357426
309.0,460.0,0.2865,0.1005,9.5958,-0.0389,0.0179,-0.1211,-1.806087156335348,0.0,3.0240390300750732,-1.798510193824768,-0.0,2.0164060592651367,5.072951096087255,0.0,0.28348296880722046,-1.5253012816058558,0.0,-0.0248919315636158,0.3491559624671936,-0.0,0.0028486771043390036,1.2070491313934326,0.0,0.018894342705607414
309.0,460.0,0.2865,0.1005,9.5958,-0.0389,0.0179,-0.1211,-1.8060585461058558,0.0,3.0074543952941895,-1.798511028289795,-0.0,2.0061540603637695,5.0729551492031,0.0,0.27826327085494995,-1.5253012816058558,0.0,-0.020358406007289886,0.349151611328125,-0.0,-0.020134177058935165,1.2070729732513428,0.0,0.011250779964029789
309.0,460.0,0.2865,0.1005,9.5958,-0.0389,0.0179,-0.1211,-1.8061071834959925,0.0,2.981562614440918,-1.7985389232635498,-0.0,1.9594850540161133,5.072951066284933,0.0,0.2881659269332886,-1.5252893606769007,0.0,-0.01743142679333687,0.3491843342781067,-0.0,0.010673541575670242,1.2070934772491455,0.0,0.004412041045725346
309.0,460.0,0.2865,0.1005,9.5958,-0.0389,0.0179,-0.1211,-1.8060461483397425,0.0,3.0096070766448975,-1.798526644706726,-0.0,1.9930989742279053,5.072910922556677,0.0,0.27283740043640137,-1.5252936522113245,0.0,-0.02652614191174507,0.3491560220718384,-0.0,-0.010615834034979343,1.2070691585540771,0.0,-0.0027672345750033855
309.0,460.0,0.2865,0.1005,9.5958,-0.0389,0.0179,-0.1211,-1.8060461483397425,0.0,2.9909610748291016,-1.7984460592269897,-0.0,1.953798532485962,5.072899001627722,0.0,0.269350528717041,-1.5252655188189905,0.0,-0.021204441785812378,0.3491719961166382,-0.0,-0.0024545094929635525,1.2070491313934326,0.0,-0.003627510741353035
309.0,460.0,0.2865,0.1005,9.5958,-0.0389,0.0179,-0.1211,-1.8060504398741664,0.0,2.9924402236938477,-1.7984904050827026,-0.0,2.0434494018554688,5.0729551492031,0.0,0.28064417839050293,-1.5252698103534144,0.0,-0.011382470838725567,0.3492085039615631,-0.0,0.0022438885644078255,1.2070491313934326,0.0,0.017238449305295944
309.0,460.0,0.2865,0.1005,9.5958,-0.0389,0.0179,-0.1211,-1.8060628376402796,0.0,2.9806618690490723,-1.798486351966858,-0.0,1.990549087524414,5.072911280184545,0.0,0.2738618552684784,-1.52527362505068,0.0,-0.015864355489611626,0.3491925001144409,-0.0,-0.009978808462619781,1.2070331573486328,0.0,0.006382421590387821
309.0,460.0,0.2865,0.1005,9.5958,-0.0389,0.0179,-0.1211,-1.8060547314085902,0.0,2.9842934608459473,-1.7984944581985474,-0.0,2.010810613632202,5.072919088393011,0.0,0.28559666872024536,-1.525285545979635,0.0,-0.012384887784719467,0.3491154611110687,-0.0,0.005700192879885435,1.2070651054382324,0.0,-0.039834462106227875
309.0,460.0,0.2865,0.1005,9.5958,-0.0389,0.0179,-0.1211,-1.8060342274107875,0.0,2.984476327896118,-1.7985069751739502,-0.0,2.0102622509002686,5.072947013169088,0.0,0.27796730399131775,-1.5252698103534144,0.0,-0.01950814574956894,0.3491842746734619,-0.0,-0.001965004252269864,1.207045078277588,0.0,0.04606688395142555
309.0,460.0,0.2865,0.1005,9.5958,-0.0389,0.0179,-0.1211,-1.8060547314085902,0.0,3.0362143516540527,-1.7984904050827026,-0.0,2.009908676147461,5.0729470429714105,0.0,0.2787792980670929,-1.5252698103534144,0.0,-0.00367411645129323,0.3492166996002197,-0.0,0.010127151384949684,1.2070531845092773,0.0,-0.005249332170933485
309.0,460.0,0.2865,0.1005,9.5958,-0.0389,0.0179,-0.1211,-1.806103368798727,0.0,3.0053694248199463,-1.7985224723815918,-0.0,1.9489927291870117,5.072890835791387,0.0,0.27868348360061646,-1.5252578894244593,0.0,-0.007836857810616493,0.3492085039615631,-0.0,0.010250471532344818,1.207029104232788,0.0,0.004455233924090862
319.0,438.0,0.1585,0.0784,9.6174,-0.0269,0.0272,-0.1187,-1.8060304127135218,0.0,3.024564027786255,-1.7984904050827026,-0.0,2.0025110244750977,5.072915005474844,0.0,0.2764360308647156,-1.525261704121725,0.0,-0.019605904817581177,0.34917616844177246,-0.0,0.0003222067025490105,1.2070852518081665,0.0,0.021755395457148552
319.0,438.0,0.1585,0.0784,9.6174,-0.0269,0.0272,-0.1187,-1.8060223064818324,0.0,2.9331424236297607,-1.798518419265747,-0.0,2.0041277408599854,5.072923171311178,0.0,0.27873772382736206,-1.5253060499774378,0.0,-0.018533486872911453,0.3492240905761719,-0.0,-0.003737855236977339,1.2070691585540771,0.0,-0.00270826555788517
319.0,438.0,0.1585,0.0784,9.6174,-0.0269,0.0272,-0.1187,-1.806042333642477,0.0,3.001291275024414,-1.798579216003418,-0.0,1.9949495792388916,5.072955179005422,0.0,0.27949994802474976,-1.5252655188189905,0.0,-0.014780225232243538,0.34918829798698425,-0.0,-0.00639530923217535,1.2070573568344116,0.0,-0.00214360561221838
319.0,438.0,0.1585,0.0784,9.6174,-0.0269,0.0272,-0.1187,-1.806042333642477,0.0,2.978605270385742,-1.798511028289795,-0.0,1.9424240589141846,5.0729272840316675,0.0,0.28041234612464905,-1.5252936522113245,0.0,-0.02538333460688591,0.3491719961166382,-0.0,-0.008169128559529781,1.2070651054382324,0.0,0.010829491540789604
319.0,438.0,0.1585,0.0784,9.6174,-0.0269,0.0272,-0.1187,-1.806070943871969,0.0,3.0019443035125732,-1.798511028289795,-0.0,2.018993616104126,5.072894888907232,0.0,0.28266093134880066,-1.52527362505068,0.0,-0.02134033851325512,0.3492244780063629,-0.0,-0.007060009986162186,1.2070331573486328,0.0,0.01582559570670128
319.0,438.0,0.1585,0.0784,9.6174,-0.0269,0.0272,-0.1187,-1.8060628376402796,0.0,2.995023012161255,-1.7985224723815918,-0.0,2.0291011333465576,5.0729391751583,0.0,0.28374049067497253,-1.5252774397479456,0.0,-0.015000827610492706,0.34917616844177246,-0.0,0.006799135357141495,1.2070610523223877,0.0,-0.03588345646858215
319.0,438.0,0.1585,0.0784,9.6174,-0.0269,0.0272,-0.1187,-1.8060304127135218,0.0,2.9793267250061035,-1.7985306978225708,-0.0,2.02443790435791,5.07286291101531,0.0,0.2806868553161621,-1.5252893606769007,0.0,-0.018791668117046356,0.3491719961166382,-0.0,0.013543310575187206,1.2070614099502563,0.0,-0.021712414920330048
319.0,438.0,0.1585,0.0784,9.6174,-0.0269,0.0272,-0.1187,-1.806099077264303,0.0,2.996222496032715,-1.798474907875061,-0.0,1.983408808708191,5.072951096087255,0.0,0.2709299921989441,-1.5252655188189905,0.0,-0.01212706882506609,0.34916791319847107,-0.0,0.002532379701733589,1.2070852518081665,0.0,-0.00019423570483922958
319.0,438.0,0.1585,0.0784,9.6174,-0.0269,0.0272,-0.1187,-1.8060461483397425,0.0,2.9529900550842285,-1.7985503673553467,-0.0,1.9656360149383545,5.072915005474844,0.0,0.28340914845466614,-1.5252817312823694,0.0,-0.00834171287715435,0.349220335483551,-0.0,0.0005979060661047697,1.2070810794830322,0.0,0.03381577134132385
319.0,438.0,0.1585,0.0784,9.6174,-0.0269,0.0272,-0.1187,-1.8060304127135218,0.0,3.0395913124084473,-1.798474907875061,-0.0,2.0029003620147705,5.072891133814611,0.0,0.2828787863254547,-1.5253093878375452,0.0,-0.014350637793540955,0.34914419054985046,-0.0,0.0017373651498928666,1.207020878791809,0.0,0.0071582612581551075
319.0,438.0,0.1585,0.0784,9.6174,-0.0269,0.0272,-0.1187,-1.806099077264303,0.0,3.020148515701294,-1.7985029220581055,-0.0,1.9352850914001465,5.072935092240133,0.0,0.27616608142852783,-1.5253093878375452,0.0,-0.018318045884370804,0.3491842448711395,-0.0,-0.011047844775021076,1.207056999206543,0.0,-0.009751053526997566
319.0,438.0,0.1585,0.0784,9.6174,-0.0269,0.0272,-0.1187,-1.8060461483397425,0.0,2.977254867553711,-1.7985429763793945,-0.0,1.9527955055236816,5.072894948511877,0.0,0.2867506146430969,-1.5253179709063929,0.0,-0.004740179982036352,0.34911149740219116,-0.0,-0.007791187614202499,1.2070810794830322,0.0,-0.0490494966506958
317.0,455.0,0.2704,0.0646,9.5043,-0.0476,0.0296,-0.1274,-1.8060504398741664,0.0,3.002903938293457,-1.798506736755371,-0.0,1.9825704097747803,5.072975206166067,0.0,0.272919237613678,-1.5252655188189905,0.0,-0.021274682134389877,0.3491843342781067,-0.0,-0.004417345859110355,1.2070491313934326,0.0,-0.014750671572983265
317.0,455.0,0.2704,0.0646,9.5043,-0.0476,0.0296,-0.1274,-1.806042810479635,0.0,2.9778826236724854,-1.798510193824768,-0.0,2.00666880607605,5.072926926403799,0.0,0.2813921272754669,-1.5252535978900355,0.0,-0.016356047242879868,0.34918010234832764,-0.0,0.008161678910255432,1.207029104232788,0.0,0.01622849889099598
317.0,455.0,0.2704,0.0646,9.5043,-0.0476,0.0296,-0.1274,-1.8060628376402796,0.0,3.0223214626312256,-1.7985029220581055,-0.0,2.012151002883911,5.072935092240133,0.0,0.28022468090057373,-1.5252936522113245,0.0,-0.018107527866959572,0.34918832778930664,-0.0,-0.007762398570775986,1.2070729732513428,0.0,-0.024927962571382523
317.0,455.0,0.2704,0.0646,9.5043,-0.0476,0.0296,-0.1274,-1.806099077264303,0.0,2.9887921810150146,-1.798511028289795,-0.0,2.0049266815185547,5.072942930250921,0.0,0.2703094482421875,-1.525285545979635,0.0,-0.020158084109425545,0.3492085039615631,-0.0,-0.0017915426287800074,1.2071133852005005,0.0,-0.03114199824631214
317.0,455.0,0.2704,0.0646,9.5043,-0.0476,0.0296,-0.1274,-1.8060628376402796,0.0,2.9632346630096436,-1.798458456993103,-0.0,1.9934766292572021,5.072942930250921,0.0,0.2893350124359131,-1.5252774397479456,0.0,-0.008770972490310669,0.3491883873939514,-0.0,-0.0015844814479351044,1.2070610523223877,0.0,-0.01812659576535225
317.0,455.0,0.2704,0.0646,9.5043,-0.0476,0.0296,-0.1274,-1.8061191044249476,0.0,2.9993720054626465,-1.7985069751739502,-0.0,2.0278472900390625,5.0729272840316675,0.0,0.290744423866272,-1.5252893606769007,0.0,-0.025641312822699547,0.34913596510887146,-0.0,0.0020766709931194782,1.2070168256759644,0.0,-0.02303626388311386
317.0,455.0,0.2704,0.0646,9.5043,-0.0476,0.0296,-0.1274,-1.806038042108053,0.0,2.9947550296783447,-1.7984944581985474,-0.0,2.013782262802124,5.072911250382223,0.0,0.2883652448654175,-1.5253098646747034,0.0,-0.022244630381464958,0.34916794300079346,-0.0,0.0016967117553576827,1.2070733308792114,0.0,-0.03088948130607605
317.0,455.0,0.2704,0.0646,9.5043,-0.0476,0.0296,-0.1274,-1.8060337505736292,0.0,2.978024482727051,-1.7985552549362183,-0.0,1.9914205074310303,5.072883027582922,0.0,0.28678011894226074,-1.525261704121725,0.0,-0.023500904440879822,0.3491961658000946,-0.0,0.003668389515951276,1.207045078277588,0.0,0.017626311630010605
317.0,455.0,0.2704,0.0646,9.5043,-0.0476,0.0296,-0.1274,-1.8060671291747035,0.0,2.964003086090088,-1.7985224723815918,-0.0,1.9836251735687256,5.072931009321966,0.0,0.27087584137916565,-1.5252893606769007,0.0,-0.010654790326952934,0.34922078251838684,-0.0,-0.007859179750084877,1.2070810794830322,0.0,-0.00037589017301797867
317.0,455.0,0.2704,0.0646,9.5043,-0.0476,0.0296,-0.1274,-1.8060342274107875,0.0,2.9681200981140137,-1.7985308170318604,-0.0,1.9969371557235718,5.072919088393011,0.0,0.28600117564201355,-1.5252698103534144,0.0,-0.0146873127669096,0.34916797280311584,-0.0,0.0019322443986311555,1.2070810794830322,0.0,0.021094312891364098
317.0,455.0,0.2704,0.0646,9.5043,-0.0476,0.0296,-0.1274,-1.8060828648009242,0.0,2.9704642295837402,-1.798511028289795,-0.0,2.0447680950164795,5.072919088393011,0.0,0.27359509468078613,-1.5253055731402796,0.0,-0.024113763123750687,0.34918832778930664,-0.0,-0.0062837135046720505,1.2070250511169434,0.0,-0.01939002238214016
317.0,455.0,0.2704,0.0646,9.5043,-0.0476,0.0296,-0.1274,-1.8060666523375453,0.0,3.014719247817993,-1.7985026836395264,-0.0,2.0185532569885254,5.072975235968389,0.0,0.29282042384147644,-1.5253217856036585,0.0,-0.00825800932943821,0.3491400182247162,-0.0,-0.006417217198759317,1.2070413827896118,0.0,-0.0013119133654981852
317.0,455.0,0.2704,0.0646,9.5043,-0.0476,0.0296,-0.1274,-1.8060504398741664,0.0,2.9875898361206055,-1.7985315322875977,-0.0,1.9766632318496704,5.072915035277166,0.0,0.27715444564819336,-1.5253055731402796,0.0,-0.020044943317770958,0.3492002487182617,-0.0,0.002707561943680048,1.2070651054382324,0.0,0.07805977761745453
306.0,459.0,0.2213,0.0508,9.5127,-0.0377,0.02,-0.124,-1.8060223064818324,0.0,3.0170023441314697,-1.7985069751739502,-0.0,2.034020185470581,5.072923171311178,0.0,0.28155186772346497,-1.5253055731402796,0.0,-0.013388920575380325,0.3491560220718384,-0.0,0.009585784748196602,1.207045078277588,0.0,0.005603788886219263
306.0,459.0,0.2213,0.0508,9.5127,-0.0377,0.02,-0.124,-1.8060790501036585,0.0,3.007913589477539,-1.798511028289795,-0.0,2.014563798904419,5.072923171311178,0.0,0.2776217460632324,-1.5252893606769007,0.0,-0.007847905158996582,0.3491359055042267,-0.0,0.0026072293985635042,1.2070413827896118,0.0,-0.011076468043029308
306.0,459.0,0.2213,0.0508,9.5127,-0.0377,0.02,-0.124,-1.8060628376402796,0.0,2.9940733909606934,-1.79848313331604,-0.0,1.9968873262405396,5.072923171311178,0.0,0.2859155535697937,-1.5253012816058558,0.0,-0.009969029575586319,0.34920021891593933,-0.0,0.003050022991374135,1.207029104232788,0.0,-0.03654482588171959
306.0,459.0,0.2213,0.0508,9.5127,-0.0377,0.02,-0.124,-1.8060671291747035,0.0,2.9571304321289062,-1.7985584735870361,-0.0,1.9862892627716064,5.072931009321966,0.0,0.2764958143234253,-1.5252936522113245,0.0,-0.014934555627405643,0.3491077125072479,-0.0,0.002956549171358347,1.2070692777633667,0.0,0.03363063558936119
306.0,459.0,0.2213,0.0508,9.5127,-0.0377,0.02,-0.124,-1.8060585461058558,0.0,3.0039353370666504,-1.7984708547592163,-0.0,1.948263168334961,5.072927254229345,0.0,0.27796483039855957,-1.5252774397479456,0.0,-0.012237834744155407,0.34917616844177246,-0.0,-0.0006471273954957724,1.2070691585540771,0.0,0.020800570026040077
306.0,459.0,0.2213,0.0508,9.5127,-0.0377,0.02,-0.124,-1.806026121179098,0.0,3.009645938873291,-1.7985389232635498,-0.0,2.0290796756744385,5.072951096087255,0.0,0.28763291239738464,-1.5253055731402796,0.0,-0.021491974592208862,0.34918832778930664,-0.0,0.010345068760216236,1.2070651054382324,0.0,-0.014399414882063866
306.0,459.0,0.2213,0.0508,9.5127,-0.0377,0.02,-0.124,-1.806070467034811,0.0,2.983954429626465,-1.7985429763793945,-0.0,1.9828288555145264,5.072926956206121,0.0,0.28240904211997986,-1.525261704121725,0.0,-0.010440278798341751,0.3491719961166382,-0.0,-0.008042954839766026,1.2070372104644775,0.0,0.027810463681817055
306.0,459.0,0.2213,0.0508,9.5127,-0.0377,0.02,-0.124,-1.8060628376402796,0.0,2.978304386138916,-1.7985389232635498,-0.0,1.9940506219863892,5.072951096087255,0.0,0.28253987431526184,-1.5253256003009241,0.0,-0.013914545997977257,0.3491557538509369,-0.0,0.006523885764181614,1.2070893049240112,0.0,0.0003357790410518646
306.0,459.0,0.2213,0.0508,9.5127,-0.0377,0.02,-0.124,-1.8060785732665003,0.0,2.9900503158569336,-1.7985626459121704,-0.0,1.949068546295166,5.072942930250921,0.0,0.27267706394195557,-1.5253132025348108,0.0,-0.01617884635925293,0.3491925001144409,-0.0,-0.005337260197848082,1.2070410251617432,0.0,-0.012567376717925072
306.0,459.0,0.2213,0.0508,9.5127,-0.0377,0.02,-0.124,-1.8060342274107875,0.0,2.969013214111328,-1.7984944581985474,-0.0,1.9757765531539917,5.072954791575231,0.0,0.28212690353393555,-1.5252774397479456,0.0,-0.025195693597197533,0.34918835759162903,-0.0,-0.006531876046210527,1.2070651054382324,0.0,-0.03605272248387337
306.0,459.0,0.2213,0.0508,9.5127,-0.0377,0.02,-0.124,-1.8060461483397425,0.0,3.0509963035583496,-1.7985224723815918,-0.0,2.0084824562072754,5.072931337147512,0.0,0.2782975733280182,-1.5252416769610804,0.0,0.0001519797369837761,0.3491359353065491,-0.0,0.008906744420528412,1.2070491313934326,0.0,0.015359165146946907
306.0,459.0,0.2213,0.0508,9.5127,-0.0377,0.02,-0.124,-1.8060585461058558,0.0,2.9884767532348633,-1.798511028289795,-0.0,1.9614707231521606,5.072951096087255,0.0,0.27442818880081177,-1.5252655188189905,0.0,-0.009666006080806255,0.3491642475128174,-0.0,-0.014015225693583488,1.2070331573486328,0.0,-0.054058223962783813
307.0,463.0,0.2692,0.0646,9.5127,-0.033,0.0308,-0.1242,-1.8060671291747035,0.0,3.0127158164978027,-1.7984986305236816,-0.0,2.002209186553955,5.072971212654867,0.0,0.27085745334625244,-1.5253093878375452,0.0,-0.022376377135515213,0.34914419054985046,-0.0,-0.004658491816371679,1.207045078277588,0.0,0.03542160987854004
307.0,463.0,0.2692,0.0646,9.5127,-0.033,0.0308,-0.1242,-1.8060666523375453,0.0,3.000947952270508,-1.798511028289795,-0.0,2.0055482387542725,5.072942930250921,0.0,0.2679164707660675,-1.5252817312823694,0.0,-0.017191611230373383,0.3491843342781067,-0.0,-0.006505509838461876,1.2070372104644775,0.0,0.006672292482107878
307.0,463.0,0.2692,0.0646,9.5127,-0.033,0.0308,-0.1242,-1.8060547314085902,0.0,2.9902992248535156,-1.798519253730774,-0.0,1.976465106010437,5.072967099934377,0.0,0.2798617482185364,-1.5253012816058558,0.0,-0.01568327471613884,0.3491118550300598,-0.0,-0.0024175618309527636,1.2070573568344116,0.0,0.002755149034783244
307.0,463.0,0.2692,0.0646,9.5127,-0.033,0.0308,-0.1242,-1.806070943871969,0.0,2.9673824310302734,-1.798534870147705,-0.0,1.985672950744629,5.072923171311178,0.0,0.28294453024864197,-1.5253217856036585,0.0,-0.013439793139696121,0.34924864768981934,-8.498965420322691e-10,0.0013857416342943907,1.2070127725601196,0.0,-0.015165433287620544
307.0,463.0,0.2692,0.0646,9.5127,-0.033,0.0308,-0.1242,-1.8060304127135218,0.0,2.9626221656799316,-1.7985389232635498,-0.0,1.964059829711914,5.072958993702688,0.0,0.285427451133728,-1.525261704121725,0.0,-0.02326146326959133,0.3492002487182617,-1.5446453862613847e-14,0.005131477490067482,1.2070168256759644,0.0,-0.02202586829662323
307.0,463.0,0.2692,0.0646,9.5127,-0.033,0.0308,-0.1242,-1.8060628376402796,0.0,3.0051817893981934,-1.7984944581985474,-0.0,2.023703098297119,5.072922813683309,0.0,0.2738367021083832,-1.5252698103534144,0.0,-0.004375041462481022,0.3491441607475281,-2.807316582155436e-19,0.002718797419220209,1.2070934772491455,0.0,0.01731744222342968
307.0,463.0,0.2692,0.0646,9.5127,-0.033,0.0308,-0.1242,-1.8060223064818324,0.0,2.991309881210327,-1.7985265254974365,-0.0,1.9742639064788818,5.072923171311178,0.0,0.28580182790756226,-1.5252535978900355,0.0,-0.02486361376941204,0.3491523265838623,-7.814268693768262e-23,-0.011039335280656815,1.2071056365966797,0.0,0.03023848682641983
307.0,463.0,0.2692,0.0646,9.5127,-0.033,0.0308,-0.1242,-1.8060304127135218,0.0,3.0105371475219727,-1.7985152006149292,-0.0,2.016146183013916,5.072894888907232,0.0,0.2812477946281433,-1.5252497831927698,0.0,-0.016864605247974396,0.3491884768009186,-1.4202049114119498e-27,0.004090513568371534,1.2070372104644775,0.0,-0.02177949622273445
307.0,463.0,0.2692,0.0646,9.5127,-0.033,0.0308,-0.1242,-1.8060747585692347,0.0,2.978029727935791,-1.7984912395477295,-0.0,1.9522384405136108,5.072943258076467,0.0,0.27102428674697876,-1.5253012816058558,0.0,-0.016889678314328194,0.34916794300079346,-2.581152552650693e-32,-0.004625501111149788,1.2070770263671875,0.0,0.024979861453175545
307.0,463.0,0.2692,0.0646,9.5127,-0.033,0.0308,-0.1242,-1.8060828648009242,0.0,2.978020191192627,-1.7984904050827026,-0.0,1.9995622634887695,5.072947311192312,0.0,0.2860468029975891,-1.52527362505068,0.0,-0.021251460537314415,0.349119633436203,-7.18473425769454e-36,-0.0056471023708581924,1.2070491313934326,0.0,-0.014210277236998081
307.0,463.0,0.2692,0.0646,9.5127,-0.033,0.0308,-0.1242,-1.8060947857298792,0.0,3.0019960403442383,-1.798511028289795,-0.0,1.9816858768463135,5.072891163616934,0.0,0.2681114077568054,-1.5252817312823694,0.0,-0.02292352169752121,0.3491482436656952,-1.3057859609964375e-40,0.0011897556250914931,1.2070331573486328,0.0,0.02186891809105873
307.0,463.0,0.2692,0.0646,9.5127,-0.033,0.0308,-0.1242,-1.8060914478697718,0.0,3.0021567344665527,-1.7985224723815918,-0.0,1.959868311882019,5.072955179005422,0.0,0.2885925769805908,-1.5252698103534144,0.0,-0.019785201177001,0.34916016459465027,-2.802596928649634e-45,-0.0027413596399128437,1.207056999206543,0.0,0.019055340439081192
304.0,466.0,0.271,0.0329,9.5444,-0.0345,0.0301,-0.1231,-1.8060504398741664,0.0,3.0080008506774902,-1.7985152006149292,-0.0,1.9908363819122314,5.072955179005422,0.0,0.2767159342765808,-1.5252698103534144,0.0,-0.014423267915844917,0.3492445647716522,-0.0,0.007317292969673872,1.2070491313934326,0.0,0.006848199293017387
304.0,466.0,0.271,0.0329,9.5444,-0.0345,0.0301,-0.1231,-1.806103368798727,0.0,3.0383708477020264,-1.7984944581985474,-0.0,1.9260445833206177,5.072947013169088,0.0,0.2787391245365143,-1.5253055731402796,0.0,-0.015586641617119312,0.34915977716445923,-0.0,0.006106543820351362,1.2070372104644775,0.0,-0.004291792865842581
304.0,466.0,0.271,0.0329,9.5444,-0.0345,0.0301,-0.1231,-1.8059822521605433,0.0,3.0131850242614746,-1.7984789609909058,-0.0,1.9907078742980957,5.0729912398155115,0.0,0.27237915992736816,-1.5253179709063929,0.0,-0.02078627049922943,0.349220335483551,-0.0,0.005302248522639275,1.2070410251617432,0.0,-0.016476724296808243
304.0,466.0,0.271,0.0329,9.5444,-0.0345,0.0301,-0.1231,-1.8060628376402796,0.0,2.965280532836914,-1.7985544204711914,-0.0,1.9848310947418213,5.072919147997656,0.0,0.2727481424808502,-1.525285545979635,0.0,-0.021759971976280212,0.3491359353065491,-0.0,0.001020220573991537,1.2070651054382324,0.0,0.005168077535927296
304.0,466.0,0.271,0.0329,9.5444,-0.0345,0.0301,-0.1231,-1.806070467034811,0.0,3.0215771198272705,-1.7984822988510132,-0.0,1.9832866191864014,5.0729391751583,0.0,0.27472394704818726,-1.5253093878375452,0.0,-0.01101746316999197,0.3491683304309845,-0.0,-0.004498620983213186,1.2070331573486328,0.0,0.05678032338619232
304.0,466.0,0.271,0.0329,9.5444,-0.0345,0.0301,-0.1231,-1.8060585461058558,0.0,2.984595775604248,-1.7984789609909058,-0.0,1.9745750427246094,5.072971153050222,0.0,0.27691978216171265,-1.5252974669085901,0.0,-0.009984350763261318,0.3492121696472168,-0.0,0.0019834861159324646,1.2070733308792114,0.0,0.012328876182436943
304.0,466.0,0.271,0.0329,9.5444,-0.0345,0.0301,-0.1231,-1.8060385189452113,0.0,2.9839859008789062,-1.7985152006149292,-0.0,1.9628336429595947,5.072955208807745,0.0,0.2892249524593353,-1.525285545979635,0.0,-0.013451563194394112,0.3491843342781067,-0.0,-0.005013604182749987,1.207085132598877,0.0,-0.011164871975779533
304.0,466.0,0.271,0.0329,9.5444,-0.0345,0.0301,-0.1231,-1.8060461483397425,0.0,2.950455665588379,-1.7985306978225708,-0.0,1.9820914268493652,5.07294328787879,0.0,0.2814387083053589,-1.5252893606769007,0.0,-0.022679900750517845,0.3491560220718384,-0.0,-0.005813805386424065,1.2070651054382324,0.0,-0.04202960431575775
304.0,466.0,0.271,0.0329,9.5444,-0.0345,0.0301,-0.1231,-1.8061028919615687,0.0,3.0091447830200195,-1.7985152006149292,-0.0,1.9805433750152588,5.072887110501089,0.0,0.28999388217926025,-1.5252698103534144,0.0,-0.022136490792036057,0.3492404818534851,-0.0,-0.0019986291881650686,1.2070651054382324,0.0,0.009483974426984787
304.0,466.0,0.271,0.0329,9.5444,-0.0345,0.0301,-0.1231,-1.8060828648009242,0.0,3.003816843032837,-1.798534870147705,-0.0,1.9816689491271973,5.072919088393011,0.0,0.27751898765563965,-1.5252893606769007,0.0,-0.017504334449768066,0.3491683304309845,-0.0,0.0010601799003779888,1.2070810794830322,0.0,-0.023648440837860107
304.0,466.0,0.271,0.0329,9.5444,-0.0345,0.0301,-0.1231,-1.8061028919615687,0.0,2.9825377464294434,-1.798486351966858,-0.0,1.9859683513641357,5.072946953564443,0.0,0.28652894496917725,-1.5253217856036585,0.0,0.00015184283256530762,0.34921663999557495,-0.0,-0.004807849880307913,1.2070691585540771,0.0,0.003933129832148552
304.0,466.0,0.271,0.0329,9.5444,-0.0345,0.0301,-0.1231,-1.8060747585692347,0.0,2.9492623805999756,-1.7984944581985474,-0.0,1.9724695682525635,5.072915005474844,0.0,0.27153781056404114,-1.525261704121725,0.0,-0.013798268511891365,0.34916794300079346,-0.0,0.008617637678980827,1.207093358039856,0.0,-0.009853420779109001
304.0,466.0,0.271,0.0329,9.5444,-0.0345,0.0301,-0.1231,-1.8060547314085902,0.0,2.998535633087158,-1.798518419265747,-0.0,1.968584656715393,5.072942930250921,0.0,0.2843313217163086,-1.5252893606769007,0.0,-0.026528799906373024,0.3492286205291748,-0.0,0.013024522922933102,1.207045078277588,0.0,-0.00809243880212307
310.0,457.0,0.277,0.0945,9.5462,-0.04,0.024,-0.1171,-1.8060461483397425,0.0,2.960538864135742,-1.798511028289795,-0.0,1.9448152780532837,5.072919088393011,0.0,0.2877308130264282,-1.525285545979635,0.0,-0.020100174471735954,0.34914785623550415,-0.0,0.0009696906199678779,1.2070573568344116,0.0,-0.02092304639518261
310.0,457.0,0.277,0.0945,9.5462,-0.04,0.024,-0.1171,-1.8060671291747035,0.0,2.9989914894104004,-1.7985833883285522,-0.0,2.033496379852295,5.0729470429714105,0.0,0.27504488825798035,-1.5253055731402796,0.0,-0.015426410362124443,0.3491317927837372,-0.0,0.0019733626395463943,1.2070491313934326,0.0,-0.029331233352422714
310.0,457.0,0.277,0.0945,9.5462,-0.04,0.024,-0.1171,-1.806038042108053,0.0,3.008521556854248,-1.798511028289795,-0.0,2.002847671508789,5.072983133583822,0.0,0.26353418827056885,-1.525285545979635,0.0,-0.02142960950732231,0.3491519093513489,-0.0,-0.006333209574222565,1.2070691585540771,0.0,-0.04271407425403595
310.0,457.0,0.277,0.0945,9.5462,-0.04,0.024,-0.1171,-1.8060385189452113,0.0,3.026374340057373,-1.7985143661499023,-0.0,1.9680986404418945,5.072971212654867,0.0,0.2809560298919678,-1.5252698103534144,0.0,-0.0154982078820467,0.3491719961166382,-0.0,0.0026649674400687218,1.2070974111557007,0.0,0.013664736412465572
310.0,457.0,0.277,0.0945,9.5462,-0.04,0.024,-0.1171,-1.8060342274107875,0.0,2.990713357925415,-1.798511028289795,-0.0,1.9997695684432983,5.072911250382223,0.0,0.28655707836151123,-1.5253375212298792,0.0,-0.017580818384885788,0.34917619824409485,-0.0,0.001014029374346137,1.2070331573486328,0.0,0.020694788545370102
310.0,457.0,0.277,0.0945,9.5462,-0.04,0.024,-0.1171,-1.806070943871969,0.0,2.949967861175537,-1.7985152006149292,-0.0,2.003798723220825,5.072942930250921,0.0,0.28001442551612854,-1.525313679371969,0.0,-0.014280746690928936,0.34916386008262634,-0.0,-0.0031768649350851774,1.2070655822753906,0.0,-0.04644061252474785
310.0,457.0,0.277,0.0945,9.5462,-0.04,0.024,-0.1171,-1.806042333642477,0.0,3.011638641357422,-1.7985544204711914,-0.0,1.9851109981536865,5.072983073979177,0.0,0.28111696243286133,-1.5252655188189905,0.0,-0.017446592450141907,0.34918832778930664,-0.0,-0.0015428441110998392,1.2070531845092773,0.0,0.05759061872959137
310.0,457.0,0.277,0.0945,9.5462,-0.04,0.024,-0.1171,-1.8060585461058558,0.0,3.0205893516540527,-1.7985389232635498,-0.0,1.9719229936599731,5.072963374644079,0.0,0.27442461252212524,-1.5252774397479456,0.0,-0.023827753961086273,0.34922856092453003,-0.0,0.004958411678671837,1.2070531845092773,0.0,-0.029533352702856064
310.0,457.0,0.277,0.0945,9.5462,-0.04,0.024,-0.1171,-1.8060947857298792,0.0,3.001559019088745,-1.7985306978225708,-0.0,2.00518798828125,5.0729232011135,0.0,0.2801598310470581,-1.5252535978900355,0.0,-0.02071431651711464,0.3492084741592407,-0.0,-0.006123679690063,1.2070410251617432,0.0,0.03259053826332092
310.0,457.0,0.277,0.0945,9.5462,-0.04,0.024,-0.1171,-1.806014200250143,0.0,2.971994638442993,-1.7985512018203735,-0.0,1.957798719406128,5.072899031430044,0.0,0.2725645899772644,-1.525285545979635,0.0,-0.00503920391201973,0.3491118550300598,-0.0,-0.012507088482379913,1.2070691585540771,0.0,0.0022780699655413628
310.0,457.0,0.277,0.0945,9.5462,-0.04,0.024,-0.1171,-1.8060184917845667,0.0,2.985506057739258,-1.7985389232635498,-0.0,1.9902770519256592,5.0729190585906885,0.0,0.27793774008750916,-1.5252893606769007,0.0,-0.01904444582760334,0.34916016459465027,-0.0,-0.0019621513783931732,1.2070810794830322,0.0,0.008355759084224701
310.0,457.0,0.277,0.0945,9.5462,-0.04,0.024,-0.1171,-1.8060304127135218,0.0,2.9666895866394043,-1.7985265254974365,-0.0,1.9449390172958374,5.072947013169088,0.0,0.2769556939601898,-1.5252535978900355,0.0,-0.017869967967271805,0.34918832778930664,-0.0,-0.00020788016263395548,1.2070531845092773,0.0,-0.00814222265034914
304.0,457.0,0.1735,0.0796,9.6233,-0.0391,0.027,-0.1222,-1.8060342274107875,0.0,2.9701366424560547,-1.7985389232635498,-0.0,1.9730870723724365,5.072915005474844,0.0,0.27916237711906433,-1.5253055731402796,0.0,-0.01702507585287094,0.3491482436656952,-0.0,0.00026841089129447937,1.2070491313934326,0.0,-0.009009668603539467
304.0,457.0,0.1735,0.0796,9.6233,-0.0391,0.027,-0.1222,-1.8060461483397425,0.0,2.972574234008789,-1.798518419265747,-0.0,1.9962612390518188,5.072943258076467,0.0,0.2740452289581299,-1.5252817312823694,0.0,-0.009964877739548683,0.3491359353065491,-0.0,-0.00043766177259385586,1.2070610523223877,0.0,0.011243829503655434
304.0,457.0,0.1735,0.0796,9.6233,-0.0391,0.027,-0.1222,-1.806070943871969,0.0,2.994011402130127,-1.798511028289795,-0.0,1.9703304767608643,5.0729671297367,0.0,0.28276142477989197,-1.52527362505068,0.0,-0.029776103794574738,0.3491765558719635,-0.0,-0.004820802249014378,1.207008719444275,0.0,-0.0159924253821373
304.0,457.0,0.1735,0.0796,9.6233,-0.0391,0.027,-0.1222,-1.8060504398741664,0.0,3.031280517578125,-1.7985544204711914,-0.0,1.975087285041809,5.0729112205799005,0.0,0.28054115176200867,-1.5252655188189905,0.0,-0.015145083889365196,0.34915974736213684,-0.0,-0.0006800544215366244,1.207029104232788,0.0,-0.017731808125972748
304.0,457.0,0.1735,0.0796,9.6233,-0.0391,0.027,-0.1222,-1.8060585461058558,0.0,2.971104621887207,-1.7984708547592163,-0.0,1.9754655361175537,5.072951125889578,0.0,0.2668670415878296,-1.5253012816058558,0.0,-0.01626092568039894,0.34917202591896057,-0.0,0.0002486009616404772,1.2070008516311646,0.0,-0.0289682038128376
304.0,457.0,0.1735,0.0796,9.6233,-0.0391,0.027,-0.1222,-1.8060671291747035,0.0,3.022953510284424,-1.7985069751739502,-0.0,1.97981858253479,5.072959232121267,0.0,0.28478941321372986,-1.5252974669085901,0.0,-0.010155903175473213,0.3491683304309845,-0.0,0.0005402921233326197,1.2070531845092773,0.0,-0.01638043113052845
304.0,457.0,0.1735,0.0796,9.6233,-0.0391,0.027,-0.1222,-1.8060547314085902,0.0,3.0038318634033203,-1.7985472679138184,-0.0,1.976799488067627,5.072923171311178,0.0,0.2803129553794861,-1.52527362505068,0.0,-0.009330248460173607,0.3491961359977722,-0.0,0.0052544367499649525,1.2070331573486328,0.0,0.003945764619857073
304.0,457.0,0.1735,0.0796,9.6233,-0.0391,0.027,-0.1222,-1.806042333642477,0.0,3.02601957321167,-1.7984944581985474,-0.0,1.9648531675338745,5.0729033825691126,0.0,0.28530213236808777,-1.5252578894244593,0.0,-0.01794835366308689,0.3492162227630615,-0.0,-0.012435447424650192,1.2070331573486328,0.0,0.020304178819060326
304.0,457.0,0.1735,0.0796,9.6233,-0.0391,0.027,-0.1222,-1.8060828648009242,0.0,2.9759607315063477,-1.7985029220581055,-0.0,1.9823296070098877,5.072915005474844,0.0,0.28459247946739197,-1.5252974669085901,0.0,-0.02768547832965851,0.34921663999557495,-0.0,-0.007424484007060528,1.2070331573486328,0.0,0.006354866549372673
304.0,457.0,0.1735,0.0796,9.6233,-0.0391,0.027,-0.1222,-1.806042810479635,0.0,2.9869818687438965,-1.7985626459121704,-0.0,2.0247836112976074,5.072927254229345,0.0,0.28263550996780396,-1.5252774397479456,0.0,-0.020134247839450836,0.3491560220718384,-0.0,0.003294381545856595,1.206992745399475,0.0,-0.013384485617280006
304.0,457.0,0.1735,0.0796,9.6233,-0.0391,0.027,-0.1222,-1.8060947857298792,0.0,2.983060836791992,-1.798511028289795,-0.0,2.0164754390716553,5.072950976877966,0.0,0.27150917053222656,-1.5253132025348108,0.0,-0.019909122958779335,0.34912416338920593,-0.0,0.011313113383948803,1.207045078277588,0.0,-0.003254676703363657
304.0,457.0,0.1735,0.0796,9.6233,-0.0391,0.027,-0.1222,-1.8060265980162562,0.0,2.974094867706299,-1.798526644706726,-0.0,1.976892113685608,5.072946923762121,0.0,0.2704066336154938,-1.5252655188189905,0.0,-0.012741330079734325,0.3492002487182617,-0.0,0.007536772638559341,1.2070491313934326,0.0,-0.00692326482385397
312.0,475.0,0.2387,0.0957,9.5527,-0.0322,0.0226,-0.1194,-1.8060628376402796,0.0,3.0215249061584473,-1.798518419265747,-0.0,1.9723079204559326,5.072922873287954,0.0,0.2804507911205292,-1.5252936522113245,0.0,-0.03348880261182785,0.3491925001144409,-0.0,0.00763750309124589,1.2069685459136963,0.0,-0.023976054042577744
312.0,475.0,0.2387,0.0957,9.5527,-0.0322,0.0226,-0.1194,-1.8060461483397425,0.0,2.971499443054199,-1.7985143661499023,-0.0,1.995848298072815,5.072942989855566,0.0,0.2774643301963806,-1.5252698103534144,0.0,-0.015968116000294685,0.3492002487182617,-0.0,0.004170660860836506,1.2070331573486328,0.0,-0.0026308242231607437
312.0,475.0,0.2387,0.0957,9.5527,-0.0322,0.0226,-0.1194,-1.806038042108053,0.0,2.973996162414551,-1.7985224723815918,-0.0,2.0048038959503174,5.072939026146688,0.0,0.26267340779304504,-1.5252655188189905,0.0,-0.016845468431711197,0.34923264384269714,-0.0,-0.006860483903437853,1.2070531845092773,0.0,-0.00695940712466836
312.0,475.0,0.2387,0.0957,9.5527,-0.0322,0.0226,-0.1194,-1.806026121179098,0.0,2.9864282608032227,-1.7985265254974365,-0.0,2.00065016746521,5.072970765620031,0.0,0.2695937156677246,-1.5252497831927698,0.0,-0.018208123743534088,0.3491925597190857,-0.0,0.003449256531894207,1.2070413827896118,0.0,-0.00475221686065197
312.0,475.0,0.2387,0.0957,9.5527,-0.0322,0.0226,-0.1194,-1.8060547314085902,0.0,2.9880118370056152,-1.7985026836395264,-0.0,2.0023789405822754,5.072950947075643,0.0,0.276783287525177,-1.5252974669085901,0.0,-0.010568867437541485,0.34918832778930664,-0.0,-0.002588351722806692,1.2070531845092773,0.0,0.012236791662871838
312.0,475.0,0.2387,0.0957,9.5527,-0.0322,0.0226,-0.1194,-1.806042810479635,0.0,2.986309051513672,-1.7985224723815918,-0.0,2.0099937915802,5.0729470429714105,0.0,0.275671124458313,-1.5252535978900355,0.0,-0.020968202501535416,0.3491441607475281,-0.0,-0.003382911439985037,1.2070491313934326,0.0,0.013143736869096756
312.0,475.0,0.2387,0.0957,9.5527,-0.0322,0.0226,-0.1194,-1.805997987786764,0.0,3.0036396980285645,-1.7984912395477295,-0.0,1.9804577827453613,5.072911250382223,0.0,0.2804384231567383,-1.525261704121725,0.0,-0.014907781034708023,0.3491319417953491,-0.0,-0.0008573092054575682,1.2070168256759644,0.0,-0.029747746884822845
312.0,475.0,0.2387,0.0957,9.5527,-0.0322,0.0226,-0.1194,-1.8060385189452113,0.0,2.968919277191162,-1.7985152006149292,-0.0,1.9639644622802734,5.072919237404623,0.0,0.28610455989837646,-1.5253012816058558,0.0,-0.02176910825073719,0.3491802513599396,-0.0,-0.0024407024029642344,1.2070491313934326,0.0,0.004187487065792084
312.0,475.0,0.2387,0.0957,9.5527,-0.0322,0.0226,-0.1194,-1.8060342274107875,0.0,2.9416842460632324,-1.7984987497329712,-0.0,1.9998118877410889,5.072923171311178,0.0,0.2812454104423523,-1.5252817312823694,0.0,-0.028082914650440216,0.34920063614845276,-0.0,0.004087947309017181,1.2070491313934326,0.0,-0.03588524088263512
312.0,475.0,0.2387,0.0957,9.5527,-0.0322,0.0226,-0.1194,-1.8060304127135218,0.0,3.018404960632324,-1.7984944581985474,-0.0,2.01281476020813,5.072942989855566,0.0,0.2830814719200134,-1.5252817312823694,0.0,-0.007049122359603643,0.3492121398448944,-0.0,-0.0073629808612167835,1.2070852518081665,0.0,-0.001758624566718936
312.0,475.0,0.2387,0.0957,9.5527,-0.0322,0.0226,-0.1194,-1.806075235406393,0.0,2.9646739959716797,-1.7985471487045288,-0.0,1.9595823287963867,5.07290335276679,0.0,0.2985681891441345,-1.5252578894244593,0.0,-0.024940721690654755,0.3491477966308594,-0.0,-0.005044782999902964,1.2070614099502563,0.0,0.006874864920973778
312.0,475.0,0.2387,0.0957,9.5527,-0.0322,0.0226,-0.1194,-1.8059941730894984,0.0,2.997384548187256,-1.798511028289795,-0.0,1.9647808074951172,5.072939026146688,0.0,0.28508374094963074,-1.52527362505068,0.0,-0.012545534409582615,0.34920430183410645,-0.0,0.007379853632301092,1.2070127725601196,0.0,0.02497848868370056
312.0,475.0,0.2387,0.0957,9.5527,-0.0322,0.0226,-0.1194,-1.8060304127135218,0.0,3.0230793952941895,-1.7985061407089233,-0.0,1.9980231523513794,5.072911250382223,0.0,0.283960223197937,-1.5253055731402796,0.0,0.001617971807718277,0.3491278886795044,-0.0,0.0009191883727908134,1.2070413827896118,0.0,0.028736615553498268
319.0,459.0,0.2489,0.1143,9.5085,-0.0359,0.0237,-0.1184,-1.8060065708556117,0.0,2.948551654815674,-1.798466682434082,-0.0,1.9839850664138794,5.0729746399219415,0.0,0.2868342995643616,-1.5252893606769007,0.0,-0.0015652563888579607,0.3491154611110687,-0.0,0.000833668396808207,1.207045078277588,0.0,-0.014212427660822868
319.0,459.0,0.2489,0.1143,9.5085,-0.0359,0.0237,-0.1184,-1.8060628376402796,0.0,2.978097438812256,-1.7985029220581055,-0.0,1.9258556365966797,5.0729232011135,0.0,0.2664850950241089,-1.525261704121725,0.0,-0.012649355456233025,0.3491843044757843,-0.0,0.010401520878076553,1.2070974111557007,0.0,0.0072583588771522045
319.0,459.0,0.2489,0.1143,9.5085,-0.0359,0.0237,-0.1184,-1.8060504398741664,0.0,2.9991116523742676,-1.7985544204711914,-0.0,1.9999430179595947,5.0729351220424554,0.0,0.2762070298194885,-1.5252893606769007,0.0,-0.011482826434075832,0.34922075271606445,-0.0,-0.006302227266132832,1.2070491313934326,0.0,0.012736696749925613
319.0,459.0,0.2489,0.1143,9.5085,-0.0359,0.0237,-0.1184,-1.8060671291747035,0.0,2.9821057319641113,-1.7984904050827026,-0.0,2.0107219219207764,5.072947013169088,0.0,0.2842772901058197,-1.5252655188189905,0.0,-0.014068128541111946,0.34912368655204773,-0.0,0.003233822761103511,1.2070733308792114,0.0,0.02842932939529419
319.0,459.0,0.2489,0.1143,9.5085,-0.0359,0.0237,-0.1184,-1.8060504398741664,0.0,2.9790072441101074,-1.798486351966858,-0.0,2.0010690689086914,5.072950947075643,0.0,0.28783732652664185,-1.5252893606769007,0.0,-0.014801934361457825,0.3491760492324829,-0.0,0.008368109352886677,1.2070250511169434,0.0,0.001999789848923683
319.0,459.0,0.2489,0.1143,9.5085,-0.0359,0.0237,-0.1184,-1.8060461483397425,0.0,2.9571030139923096,-1.7985273599624634,-0.0,1.9975886344909668,5.072891431837835,0.0,0.2849915027618408,-1.5252698103534144,0.0,-0.016406862065196037,0.3491523265838623,-0.0,-0.002392473863437772,1.2070410251617432,0.0,-0.052349753677845
319.0,459.0,0.2489,0.1143,9.5085,-0.0359,0.0237,-0.1184,-1.806070943871969,0.0,2.9484643936157227,-1.7984542846679688,-0.0,1.986615538597107,5.072946893959799,0.0,0.2882794737815857,-1.5253012816058558,0.0,-0.014895283617079258,0.3491560220718384,-0.0,-0.010922359302639961,1.2070893049240112,0.0,-0.03615328669548035
319.0,459.0,0.2489,0.1143,9.5085,-0.0359,0.0237,-0.1184,-1.806026121179098,0.0,2.9760215282440186,-1.798518419265747,-0.0,2.001934051513672,5.072982686548986,0.0,0.2819545269012451,-1.5252698103534144,0.0,-0.02101222611963749,0.34920066595077515,-0.0,-0.013054972514510155,1.2070573568344116,0.0,0.009165646508336067
319.0,459.0,0.2489,0.1143,9.5085,-0.0359,0.0237,-0.1184,-1.8060547314085902,0.0,2.9934723377227783,-1.7985626459121704,-0.0,1.9940125942230225,5.072939055949011,0.0,0.2893342673778534,-1.5252578894244593,0.0,-0.02675386518239975,0.3491925001144409,-0.0,-0.004912572912871838,1.2070651054382324,0.0,-0.020788265392184258
319.0,459.0,0.2489,0.1143,9.5085,-0.0359,0.0237,-0.1184,-1.806042333642477,0.0,2.9638075828552246,-1.7985429763793945,-0.0,2.025041341781616,5.072915273695745,0.0,0.28999900817871094,-1.5252893606769007,0.0,-0.025196785107254982,0.34918832778930664,-0.0,-0.009601744823157787,1.2070651054382324,0.0,-0.005975411273539066
319.0,459.0,0.2489,0.1143,9.5085,-0.0359,0.0237,-0.1184,-1.8060461483397425,0.0,2.990157127380371,-1.7985265254974365,-0.0,1.9572298526763916,5.07288749793128,0.0,0.2799822688102722,-1.52527362505068,0.0,-0.015826117247343063,0.3491842448711395,-0.0,-0.007106676232069731,1.2070691585540771,0.0,0.016741236671805382
319.0,459.0,0.2489,0.1143,9.5085,-0.0359,0.0237,-0.1184,-1.806042810479635,0.0,2.976077079772949,-1.7985389232635498,-0.0,1.9774906635284424,5.072927105217733,0.0,0.2933845520019531,-1.5253055731402796,0.0,-0.017449351027607918,0.34919247031211853,-0.0,-0.004521558061242104,1.2070410251617432,0.0,-0.05662186071276665
305.0,451.0,0.2794,0.1053,9.4923,-0.0374,0.0284,-0.1196,-1.8060304127135218,0.0,3.0341925621032715,-1.798486351966858,-0.0,1.9578278064727783,5.0729073760803125,0.0,0.28827863931655884,-1.52527362505068,0.0,0.002135991584509611,0.34922024607658386,-0.0,0.008688041940331459,1.2070372104644775,0.0,-0.06211905553936958
305.0,451.0,0.2794,0.1053,9.4923,-0.0374,0.0284,-0.1196,-1.8060585461058558,0.0,3.023815631866455,-1.7985471487045288,-0.0,2.0020875930786133,5.0729470429714105,0.0,0.2791071832180023,-1.5253217856036585,0.0,-0.01710263267159462,0.34920060634613037,-0.0,0.0010354741243645549,1.2070852518081665,0.0,-0.03843427449464798
305.0,451.0,0.2794,0.1053,9.4923,-0.0374,0.0284,-0.1196,-1.8060304127135218,0.0,2.997091054916382,-1.7985503673553467,-0.0,1.9478517770767212,5.07291133978919,0.0,0.2713608145713806,-1.5253179709063929,0.0,-0.021151846274733543,0.3491961658000946,-0.0,0.010725736618041992,1.2070372104644775,0.0,-0.0006170738488435745
305.0,451.0,0.2794,0.1053,9.4923,-0.0374,0.0284,-0.1196,-1.8060504398741664,0.0,2.9750146865844727,-1.7985265254974365,-0.0,1.966221570968628,5.072923171311178,0.0,0.29147762060165405,-1.5252936522113245,0.0,-0.02080545201897621,0.34919247031211853,-0.0,0.010420087724924088,1.2070573568344116,0.0,-0.023206807672977448
305.0,451.0,0.2794,0.1053,9.4923,-0.0374,0.0284,-0.1196,-1.8060671291747035,0.0,2.9994709491729736,-1.7984904050827026,-0.0,1.9216969013214111,5.072915273695745,0.0,0.2846813499927521,-1.5252378622638147,0.0,-0.01867719553411007,0.34914788603782654,-0.0,-0.0065354472026228905,1.2070410251617432,0.0,-0.009130720980465412
305.0,451.0,0.2794,0.1053,9.4923,-0.0374,0.0284,-0.1196,-1.8060628376402796,0.0,2.9917306900024414,-1.798511028289795,-0.0,1.9815738201141357,5.072943079262533,0.0,0.2704644203186035,-1.525261704121725,0.0,-0.01670030504465103,0.34916794300079346,-0.0,0.0019972387235611677,1.2070691585540771,0.0,-0.04477205127477646
305.0,451.0,0.2794,0.1053,9.4923,-0.0374,0.0284,-0.1196,-1.8060184917845667,0.0,2.9917635917663574,-1.798526644706726,-0.0,1.960159420967102,5.072958934098043,0.0,0.27084511518478394,-1.5252698103534144,0.0,-0.018629178404808044,0.34922438859939575,-0.0,-0.006969531066715717,1.207008719444275,0.0,-0.018516579642891884
305.0,451.0,0.2794,0.1053,9.4923,-0.0374,0.0284,-0.1196,-1.806026121179098,0.0,3.028163194656372,-1.7985224723815918,-0.0,1.945441722869873,5.072950947075643,0.0,0.2786685824394226,-1.5252817312823694,0.0,-0.02238946035504341,0.34919652342796326,-0.0,-0.00953358318656683,1.2070491313934326,0.0,-0.0018200348131358624
305.0,451.0,0.2794,0.1053,9.4923,-0.0374,0.0284,-0.1196,-1.8060547314085902,0.0,2.979614019393921,-1.7984904050827026,-0.0,1.9837946891784668,5.072935092240133,0.0,0.28587743639945984,-1.5252893606769007,0.0,-0.019762760028243065,0.34910404682159424,-0.0,0.00419596815481782,1.2070531845092773,0.0,0.04566160961985588
305.0,451.0,0.2794,0.1053,9.4923,-0.0374,0.0284,-0.1196,-1.806070943871969,0.0,2.964822769165039,-1.7984544038772583,-0.0,1.9702962636947632,5.072907316475668,0.0,0.2846558094024658,-1.5253132025348108,0.0,-0.020032532513141632,0.3491842746734619,-0.0,-0.003636857494711876,1.2070331573486328,0.0,-0.012755229137837887
305.0,451.0,0.2794,0.1053,9.4923,-0.0374,0.0284,-0.1196,-1.8060022793211878,0.0,2.959364414215088,-1.798519253730774,-0.0,2.0087239742279053,5.072931158333578,0.0,0.28461509943008423,-1.52527362505068,0.0,-0.018221009522676468,0.34919247031211853,-0.0,0.0042784917168319225,1.2070810794830322,0.0,-0.01855522207915783
305.0,451.0,0.2794,0.1053,9.4923,-0.0374,0.0284,-0.1196,-1.8060385189452113,0.0,3.0296249389648438,-1.7985265254974365,-0.0,1.998668909072876,5.0729470429714105,0.0,0.27234840393066406,-1.5252974669085901,0.0,0.0022079364862293005,0.349172443151474,-0.0,0.005051332991570234,1.2070491313934326,0.0,0.0166308730840683
316.0,451.0,0.2489,0.1131,9.5342,-0.0296,0.0273,-0.1112,-1.8060461483397425,0.0,2.993868112564087,-1.7985347509384155,-0.0,2.0156681537628174,5.072950947075643,0.0,0.29267293214797974,-1.5253055731402796,0.0,-0.01267911959439516,0.34921252727508545,-0.0,-0.008509764447808266,1.207029104232788,0.0,-0.03929119557142258
316.0,451.0,0.2489,0.1131,9.5342,-0.0296,0.0273,-0.1112,-1.806026121179098,0.0,3.029360294342041,-1.7985429763793945,-0.0,2.0112946033477783,5.07288749793128,0.0,0.26310259103775024,-1.5252893606769007,0.0,-0.008646521717309952,0.34917202591896057,-0.0,-0.0008392950985580683,1.2071256637573242,0.0,0.030431220307946205
316.0,451.0,0.2489,0.1131,9.5342,-0.0296,0.0273,-0.1112,-1.806042810479635,0.0,3.027646064758301,-1.7985471487045288,-0.0,1.9704115390777588,5.07288749793128,0.0,0.2825278639793396,-1.5252774397479456,0.0,-0.010924501344561577,0.34912386536598206,-0.0,0.0031081726774573326,1.2070491313934326,0.0,-0.06561507284641266
316.0,451.0,0.2489,0.1131,9.5342,-0.0296,0.0273,-0.1112,-1.806042333642477,0.0,3.0039634704589844,-1.7985389232635498,-0.0,1.9544782638549805,5.0729548809821985,0.0,0.2756222188472748,-1.5253012816058558,0.0,-0.019398130476474762,0.3492325246334076,-0.0,-0.013256899081170559,1.2070331573486328,0.0,0.029520412907004356
316.0,451.0,0.2489,0.1131,9.5342,-0.0296,0.0273,-0.1112,-1.8060342274107875,0.0,2.984912872314453,-1.7984789609909058,-0.0,1.9712504148483276,5.072950976877966,0.0,0.28110259771347046,-1.5252497831927698,0.0,-0.00863062683492899,0.34916427731513977,-0.0,-0.005528754089027643,1.2070655822753906,0.0,0.015769075602293015
316.0,451.0,0.2489,0.1131,9.5342,-0.0296,0.0273,-0.1112,-1.8060547314085902,0.0,2.972299098968506,-1.7985265254974365,-0.0,1.9976422786712646,5.072899418860235,0.0,0.2884726822376251,-1.5253375212298792,0.0,-0.012229964137077332,0.34918826818466187,-0.0,0.018814977258443832,1.2069889307022095,0.0,-0.008064553141593933
316.0,451.0,0.2489,0.1131,9.5342,-0.0296,0.0273,-0.1112,-1.8060585461058558,0.0,3.043731689453125,-1.798474907875061,-0.0,2.0191879272460938,5.072931158333578,0.0,0.28203144669532776,-1.52527362505068,0.0,-0.021753692999482155,0.3491523265838623,-0.0,-2.881605178117752e-05,1.2070372104644775,0.0,0.03386126086115837
316.0,451.0,0.2489,0.1131,9.5342,-0.0296,0.0273,-0.1112,-1.8060947857298792,0.0,3.011044502258301,-1.7985265254974365,-0.0,1.9892749786376953,5.072903293162145,0.0,0.27986258268356323,-1.5252817312823694,0.0,-0.016542570665478706,0.34919652342796326,-0.0,-0.006376375909894705,1.207029104232788,0.0,-0.0021119602024555206
316.0,451.0,0.2489,0.1131,9.5342,-0.0296,0.0273,-0.1112,-1.8060628376402796,0.0,2.935274124145508,-1.7985069751739502,-0.0,1.986055612564087,5.072978663235464,0.0,0.2635776400566101,-1.5252774397479456,0.0,-0.009508904069662094,0.3491523563861847,-0.0,0.008418631739914417,1.207045078277588,0.0,-0.01651906780898571
316.0,451.0,0.2489,0.1131,9.5342,-0.0296,0.0273,-0.1112,-1.8060628376402796,0.0,3.0368804931640625,-1.7985471487045288,-0.0,1.9759800434112549,5.072939055949011,0.0,0.27799922227859497,-1.5253217856036585,0.0,-0.02006470412015915,0.3491682708263397,-0.0,-0.012729327194392681,1.2070331573486328,0.0,0.033191557973623276
316.0,451.0,0.2489,0.1131,9.5342,-0.0296,0.0273,-0.1112,-1.8060585461058558,0.0,2.9706811904907227,-1.798502802848816,-0.0,1.9976317882537842,5.072927105217733,0.0,0.29000768065452576,-1.5252698103534144,0.0,-0.021304475143551826,0.34919241070747375,-0.0,0.0028822559397667646,1.2070893049240112,0.0,0.006502263247966766
316.0,451.0,0.2489,0.1131,9.5342,-0.0296,0.0273,-0.1112,-1.8060671291747035,0.0,2.9793355464935303,-1.7985306978225708,-0.0,1.9663848876953125,5.072950947075643,0.0,0.28398242592811584,-1.5252774397479456,0.0,-0.027941908687353134,0.34917616844177246,-0.0,0.00148510723374784,1.2070691585540771,0.0,-0.00797819159924984
316.0,451.0,0.2489,0.1131,9.5342,-0.0296,0.0273,-0.1112,-1.8060504398741664,0.0,3.004573345184326,-1.798486351966858,-0.0,1.9909884929656982,5.072958963900366,0.0,0.2806692123413086,-1.5252774397479456,0.0,-0.0059098354540765285,0.3491360545158386,-0.0,-0.002478115726262331,1.2070810794830322,0.0,0.013696080073714256
309.0,455.0,0.2692,0.0562,9.591,-0.0406,0.0237,-0.119,-1.8060671291747035,0.0,3.009430408477783,-1.7985069751739502,-0.0,1.9850267171859741,5.072950976877966,0.0,0.2862536907196045,-1.525313679371969,0.0,-0.02102837525308132,0.3491319715976715,-0.0,-0.011406803503632545,1.2070410251617432,0.0,0.009265667758882046
309.0,455.0,0.2692,0.0562,9.591,-0.0406,0.0237,-0.119,-1.8060628376402796,0.0,2.9764466285705566,-1.798543095588684,-0.0,1.9804936647415161,5.072939055949011,0.0,0.2750358581542969,-1.5253055731402796,0.0,-0.01829025149345398,0.349200576543808,-0.0,-0.006223620381206274,1.2070372104644775,0.0,0.0075000738725066185
309.0,455.0,0.2692,0.0562,9.591,-0.0406,0.0237,-0.119,-1.8060342274107875,0.0,3.0242555141448975,-1.7985429763793945,-0.0,1.9552209377288818,5.072946923762121,0.0,0.28756430745124817,-1.525285545979635,0.0,-0.01596042513847351,0.3491801917552948,-0.0,-0.0037822620943188667,1.2070531845092773,0.0,-0.004093830473721027
309.0,455.0,0.2692,0.0562,9.591,-0.0406,0.0237,-0.119,-1.8060385189452113,0.0,3.009990930557251,-1.798511028289795,-0.0,1.9780977964401245,5.072883534222402,0.0,0.26256227493286133,-1.525313679371969,0.0,-0.017254117876291275,0.3491523265838623,-0.0,-0.0009908833308145404,1.2070491313934326,0.0,-0.0019570589065551758
309.0,455.0,0.2692,0.0562,9.591,-0.0406,0.0237,-0.119,-1.8060914478697718,0.0,3.02732515335083,-1.798511028289795,-0.0,1.9577741622924805,5.072915243893423,0.0,0.27752405405044556,-1.5252893606769007,0.0,-0.01491733081638813,0.3491198718547821,-0.0,-0.00200691819190979,1.2070651054382324,0.0,-0.025881420820951462
309.0,455.0,0.2692,0.0562,9.591,-0.0406,0.0237,-0.119,-1.806042810479635,0.0,2.9731717109680176,-1.79848313331604,-0.0,1.9738242626190186,5.072943019657888,0.0,0.2902693748474121,-1.5252774397479456,0.0,-0.017744775861501694,0.34915608167648315,-0.0,-0.00011051865294575691,1.2070410251617432,0.0,0.0445123054087162
309.0,455.0,0.2692,0.0562,9.591,-0.0406,0.0237,-0.119,-1.806075235406393,0.0,2.9875645637512207,-1.7985585927963257,-0.0,1.988765001296997,5.072962868004598,0.0,0.2768118381500244,-1.5252655188189905,0.0,-0.019455159083008766,0.3492046594619751,-0.0,-0.0004915024619549513,1.2070372104644775,0.0,0.00016684504225850105
309.0,455.0,0.2692,0.0562,9.591,-0.0406,0.0237,-0.119,-1.806087156335348,0.0,2.9979166984558105,-1.7985389232635498,-0.0,1.9838879108428955,5.072950947075643,0.0,0.28049299120903015,-1.5253093878375452,0.0,-0.010483480989933014,0.34917202591896057,-0.0,0.005324095021933317,1.2070410251617432,0.0,0.004674462601542473
309.0,455.0,0.2692,0.0562,9.591,-0.0406,0.0237,-0.119,-1.8060385189452113,0.0,2.992600440979004,-1.7984944581985474,1.1766873342367035e-07,1.9944292306900024,5.072935092240133,0.0,0.28444141149520874,-1.5252774397479456,0.0,-0.017033914104104042,0.3491842746734619,-0.0,-0.009752782061696053,1.2070770263671875,0.0,0.019646055996418
309.0,455.0,0.2692,0.0562,9.591,-0.0406,0.0237,-0.119,-1.8060628376402796,0.0,3.0052099227905273,-1.7985029220581055,3.812316995156209e-15,1.9825289249420166,5.072950976877966,0.0,0.2803032398223877,-1.5252936522113245,0.0,-0.017764819785952568,0.34914830327033997,-0.0,-0.01249736174941063,1.2070127725601196,0.0,0.04941066354513168
309.0,455.0,0.2692,0.0562,9.591,-0.0406,0.0237,-0.119,-1.8060184917845667,0.0,2.9758849143981934,-1.7985069751739502,1.2351422384986085e-22,2.0079751014709473,5.072958874493398,0.0,0.29089513421058655,-1.5252535978900355,0.0,-0.008340816013514996,0.34915605187416077,-0.0,0.0027571292594075203,1.207093358039856,0.0,0.020455550402402878
309.0,455.0,0.2692,0.0562,9.591,-0.0406,0.0237,-0.119,-1.806087156335348,0.0,2.992234230041504,-1.7985152006149292,4.0017040092952594e-30,1.9567358493804932,5.072950976877966,0.0,0.3000624179840088,-1.5252817312823694,0.0,-0.023629972711205482,0.3491842746734619,-0.0,0.0010175475617870688,1.2070250511169434,0.0,-0.033222489058971405
316.0,457.0,0.2459,0.1077,9.5611,-0.0394,0.0247,-0.1168,-1.8060547314085902,0.0,2.9837660789489746,-1.7985429763793945,9.663644065768687e-36,2.00226092338562,5.072947013169088,0.0,0.27873751521110535,-1.5253098646747034,0.0,-0.012791721150279045,0.34918421506881714,-0.0,-0.003270947840064764,1.207056999206543,0.0,0.027786104008555412
316.0,457.0,0.2459,0.1077,9.5611,-0.0394,0.0247,-0.1168,-1.8060628376402796,0.0,2.9868412017822266,-1.798511028289795,3.124895575444342e-43,2.0227251052856445,5.072903322964468,0.0,0.27457180619239807,-1.5252974669085901,0.0,-0.01591697707772255,0.3491361141204834,-0.0,-0.0009897281415760517,1.2070491313934326,0.0,0.03134516254067421
316.0,457.0,0.2459,0.1077,9.5611,-0.0394,0.0247,-0.1168,-1.8060461483397425,0.0,3.00819730758667,-1.798534870147705,-0.0,1.9324300289154053,5.072935092240133,0.0,0.27984583377838135,-1.5252936522113245,0.0,-0.02482239529490471,0.34920841455459595,-0.0,0.00855601392686367,1.2070331573486328,0.0,0.01648566499352455
316.0,457.0,0.2459,0.1077,9.5611,-0.0394,0.0247,-0.1168,-1.806087156335348,0.0,2.9615745544433594,-1.79848313331604,-0.0,1.9677774906158447,5.0728874681289575,0.0,0.27186742424964905,-1.5253456274615687,0.0,-0.009643558412790298,0.3491442799568176,-0.0,0.008490800857543945,1.2070852518081665,0.0,-0.017048735171556473
316.0,457.0,0.2459,0.1077,9.5611,-0.0394,0.0247,-0.1168,-1.8060747585692347,0.0,3.055037021636963,-1.798511028289795,-0.0,1.9669461250305176,5.072962897806921,0.0,0.2692396342754364,-1.5252655188189905,0.0,-0.022718073800206184,0.34917616844177246,-0.0,0.004502518568187952,1.2070531845092773,0.0,-0.03571080043911934
316.0,457.0,0.2459,0.1077,9.5611,-0.0394,0.0247,-0.1168,-1.806099077264303,0.0,3.0166735649108887,-1.798474907875061,-0.0,1.992611289024353,5.072899389057913,0.0,0.28547871112823486,-1.5252974669085901,0.0,-0.005231079645454884,0.3491640090942383,-0.0,-0.0010860298061743379,1.2070454359054565,0.0,0.004672638140618801
316.0,457.0,0.2459,0.1077,9.5611,-0.0394,0.0247,-0.1168,-1.8060223064818324,0.0,2.988320827484131,-1.7985152006149292,-0.0,1.9721004962921143,5.0729192076023,0.0,0.2741948962211609,-1.5252535978900355,0.0,-0.018922993913292885,0.34914830327033997,-0.0,-0.00499320263043046,1.2070974111557007,0.0,0.024418095126748085
316.0,457.0,0.2459,0.1077,9.5611,-0.0394,0.0247,-0.1168,-1.8060585461058558,0.0,2.983330249786377,-1.7985224723815918,-0.0,1.94572114944458,5.0729271350200555,0.0,0.2805384695529938,-1.5253217856036585,0.0,-0.011868000030517578,0.3492324650287628,-0.0,0.0023282566107809544,1.2070691585540771,0.0,0.01210902351886034
316.0,457.0,0.2459,0.1077,9.5611,-0.0394,0.0247,-0.1168,-1.806042333642477,0.0,2.9624080657958984,-1.7984708547592163,-0.0,1.949634313583374,5.072911309986868,0.0,0.28116747736930847,-1.5253093878375452,0.0,-0.014316214248538017,0.3491680324077606,-0.0,-0.006437276490032673,1.2070729732513428,0.0,0.050329435616731644
316.0,457.0,0.2459,0.1077,9.5611,-0.0394,0.0247,-0.1168,-1.8060547314085902,0.0,2.9865200519561768,-1.7985143661499023,-0.0,1.9596822261810303,5.072939055949011,0.0,0.28433847427368164,-1.5252893606769007,0.0,-0.016499314457178116,0.3491881489753723,-0.0,0.003951923921704292,1.207008719444275,0.0,-0.029363593086600304
316.0,457.0,0.2459,0.1077,9.5611,-0.0394,0.0247,-0.1168,-1.8060184917845667,0.0,2.9944396018981934,-1.798511028289795,-0.0,2.0116639137268066,5.072970825224676,0.0,0.2840748131275177,-1.5253098646747034,0.0,-0.005219930782914162,0.34918829798698425,-0.0,-0.0006140866316854954,1.2070891857147217,0.0,-0.005066916812211275
316.0,457.0,0.2459,0.1077,9.5611,-0.0394,0.0247,-0.1168,-1.8060628376402796,0.0,2.990906238555908,-1.7984986305236816,-0.0,1.947507381439209,5.072950976877966,0.0,0.28119176626205444,-1.5252893606769007,0.0,-0.019221821799874306,0.3492201864719391,-0.0,-0.005810166243463755,1.207056999206543,0.0,0.0061026681214571
316.0,457.0,0.2459,0.1077,9.5611,-0.0394,0.0247,-0.1168,-1.806070943871969,0.0,3.027539014816284,-1.7984625101089478,-0.0,1.9766132831573486,5.072935092240133,0.0,0.27778691053390503,-1.525261704121725,0.0,-0.023339489474892616,0.34912800788879395,-0.0,0.00585046736523509,1.2070932388305664,0.0,0.03313460201025009
309.0,458.0,-0.0508,0.4863,9.3817,-0.006,0.0493,-0.1141,-1.8060628376402796,0.0,2.9993138313293457,-1.798466682434082,-0.0,2.016139030456543,5.072966861515798,0.0,0.2873534858226776,-1.5252655188189905,0.0,-0.029080118983983994,0.3492283821105957,-0.0,0.017937403172254562,1.2070127725601196,0.0,-0.004811258986592293
309.0,458.0,-0.0508,0.4863,9.3817,-0.006,0.0493,-0.1141,-1.806014200250143,0.0,2.997310161590576,-1.7984944581985474,-0.0,2.0157837867736816,5.072978812247076,0.0,0.28182485699653625,-1.525261704121725,0.0,-0.012951459735631943,0.34918421506881714,-0.0,-0.001483773346990347,1.207045078277588,0.0,0.031287673860788345
309.0,458.0,-0.0508,0.4863,9.3817,-0.006,0.0493,-0.1141,-1.8060790501036585,0.0,2.9733476638793945,-1.7985026836395264,-0.0,1.994203805923462,5.07290734627799,0.0,0.27726471424102783,-1.5253532568561,0.0,-0.008187278173863888,0.34915995597839355,-0.0,-0.006304079666733742,1.2070610523223877,0.0,3.5857316106557846e-05
309.0,458.0,-0.0508,0.4863,9.3817,-0.006,0.0493,-0.1141,-1.8060304127135218,0.0,2.991086483001709,-1.7985306978225708,-0.0,2.0198004245758057,5.072935062437811,0.0,0.2716318964958191,-1.525341812764303,0.0,-0.0099354088306427,0.34920427203178406,-0.0,0.003967732656747103,1.2071170806884766,3.327284332499403e-07,-0.03670770674943924
309.0,458.0,-0.0508,0.4863,9.3817,-0.006,0.0493,-0.1141,-1.8060628376402796,1.0577869034023024e-06,2.9650497436523438,-1.7985503673553467,-0.0,1.941643238067627,5.072966861515798,0.0,0.2713382840156555,-1.5253613630877894,0.0,-0.014649827033281326,0.34918448328971863,-0.0,-0.008441914804279804,1.2071573734283447,0.0016541960649192333,-0.040314968675374985
309.0,458.0,-0.0508,0.4863,9.3817,-0.006,0.0493,-0.1141,-1.806075235406393,3.427095643404078e-14,2.9327540397644043,-1.7984665632247925,6.138985190773383e-05,1.9764103889465332,5.072946983366766,0.0,0.28345194458961487,-1.5252974669085901,0.0,-0.016247358173131943,0.34918028116226196,-0.0,0.007395303808152676,1.207097053527832,0.0034717684611678123,-0.02898308075964451
309.0,458.0,-0.0508,0.4863,9.3817,-0.006,0.0493,-0.1141,-1.8060466251769007,0.0008385426481254399,3.024550676345825,-1.7985512018203735,6.217770715011284e-05,1.9977083206176758,5.072958904295721,0.0,0.2760794460773468,-1.525301758443014,0.0,-0.010427403263747692,0.3492124080657959,-0.0,0.00797936413437128,1.2071369886398315,0.002822922309860587,0.0016096748877316713
309.0,458.0,-0.0508,0.4863,9.3817,-0.006,0.0493,-0.1141,-1.806103368798727,0.0007384413038380444,2.9313862323760986,-1.7984986305236816,6.010171273373999e-05,1.9931371212005615,5.072938996344366,0.0,0.275972843170166,-1.5252979437457483,0.0,-0.016168827190995216,0.3492123484611511,-0.0,0.008669515140354633,1.2071406841278076,0.0020763552747666836,0.004115535877645016
309.0,458.0,-0.0508,0.4863,9.3817,-0.006,0.0493,-0.1141,-1.8060146770873011,0.00044651603093370795,2.9640426635742188,-1.79848313331604,4.898514580076174e-11,1.9718904495239258,5.072943049460211,0.0,0.2856323719024658,-1.5253060499774378,0.0,-0.020885765552520752,0.34917202591896057,-0.0,-0.005806176457554102,1.207148790359497,0.0012147714151069522,-0.0010876432061195374
309.0,458.0,-0.0508,0.4863,9.3817,-0.006,0.0493,-0.1141,-1.8060265980162562,0.0002556936233304441,2.953744411468506,-1.798519253730774,1.5870563303971829e-18,1.9930598735809326,5.072943049460211,0.0,0.27802515029907227,-1.5253456274615687,0.0,-0.0186629556119442,0.34917616844177246,-0.0,0.0003354712389409542,1.2071726322174072,0.0007900706259533763,0.015887320041656494
309.0,458.0,-0.0508,0.4863,9.3817,-0.006,0.0493,-0.1141,-1.8060385189452113,0.00021077293786220253,2.996218204498291,-1.7985390424728394,3.8325544902714505e-24,2.029773235321045,5.072935092240133,0.0,0.27680593729019165,-1.5253098646747034,0.0,-0.01731138303875923,0.3491723835468292,-0.0,0.003570546628907323,1.2072049379348755,0.0009225714020431042,0.07347261905670166
309.0,458.0,-0.0508,0.4863,9.3817,-0.006,0.0493,-0.1141,-1.806042810479635,0.00017077480151783675,2.992070198059082,-1.7984789609909058,1.2416991330560794e-31,1.946277379989624,5.072962868004598,0.0,0.2799665331840515,-1.5253256003009241,0.0,-0.015786055475473404,0.3492283821105957,-0.0,-0.003999025095254183,1.2071725130081177,0.00291186710819602,0.0007232637144625187
312.0,447.0,0.1149,0.1077,9.7765,-0.0446,0.0102,-0.1188,-1.8060103855528773,0.00014353689039126039,2.995791435241699,-1.79848313331604,4.022947123574652e-39,2.010244369506836,5.072982775955953,0.0,0.276354044675827,-1.5252979437457483,0.0,-0.011741754598915577,0.34914812445640564,-0.0,-0.01433977484703064,1.207216501235962,0.00286093819886446,-0.009229992516338825
312.0,447.0,0.1149,0.1077,9.7765,-0.0446,0.0102,-0.1188,-1.8060146770873011,0.00012379285180941224,2.9670050144195557,-1.7985234260559082,4.204494325676933e-05,1.9764282703399658,5.072954970389166,0.0,0.2759973704814911,-1.5253256003009241,0.0,-0.0035689049400389194,0.34918028116226196,-0.0,0.009385286830365658,1.2072123289108276,0.0022204641718417406,-0.0008747151587158442
312.0,447.0,0.1149,0.1077,9.7765,-0.0446,0.0102,-0.1188,-1.806014200250143,0.00011221610475331545,2.974407196044922,-1.7984747886657715,0.00015683112724218518,1.9911212921142578,5.072931098728933,1.2985551300914722e-08,0.2746608853340149,-1.525341812764303,0.0,-0.010861868038773537,0.3491801619529724,-0.0,-0.0020166453905403614,1.2072525024414062,0.0017800569767132401,-0.012838972732424736
312.0,447.0,0.1149,0.1077,9.7765,-0.0446,0.0102,-0.1188,-1.8060790501036585,9.977554145734757e-05,3.011953592300415,-1.7984747886657715,0.00016404212510678917,1.9612423181533813,5.072954970389166,2.360059576152901e-13,0.2876664102077484,-1.5253012816058558,0.0,-0.022043243050575256,0.3492242991924286,-0.0,-0.0023023318499326706,1.2072885036468506,0.0016966428374871612,0.01128176786005497
312.0,447.0,0.1149,0.1077,9.7765,-0.0446,0.0102,-0.1188,-1.8060628376402796,-4.982409882359207e-05,2.996619462966919,-1.798430323600769,0.00016979232896119356,1.9696458578109741,5.072979050665655,0.0005620060837827623,0.28700128197669983,-1.5253217856036585,0.0,-0.011706564575433731,0.3491964638233185,-0.0,0.006257349159568548,1.2072606086730957,0.0017750938422977924,-0.022323111072182655
312.0,447.0,0.1149,0.1077,9.7765,-0.0446,0.0102,-0.1188,-1.8061353168883265,-9.446759213460609e-05,3.0025033950805664,-1.798466682434082,0.00013902394857723266,2.055255889892578,5.0729830143745325,0.00043504717177711427,0.28310710191726685,-1.5252698103534144,0.0,-0.02251312881708145,0.3491642475128174,-0.0,-0.004751628264784813,1.2072725296020508,0.0014398082857951522,0.012091703712940216
312.0,447.0,0.1149,0.1077,9.7765,-0.0446,0.0102,-0.1188,-1.8060785732665003,-0.0007925796089693904,2.990588665008545,-1.79848313331604,0.0001275182730751112,1.9631528854370117,5.072954970389166,0.0003289646119810641,0.27764904499053955,-1.5253098646747034,0.0,-0.006931578274816275,0.34917616844177246,-0.0,0.00920130219310522,1.2072806358337402,0.0010677106911316514,-0.033575087785720825
312.0,447.0,0.1149,0.1077,9.7765,-0.0446,0.0102,-0.1188,-1.8061062298216761,-0.0006824571173638105,3.0151286125183105,-1.798506736755371,0.00011796727631008253,1.9890862703323364,5.072947013169088,0.00018790106696542352,0.2816515266895294,-1.5252774397479456,0.0,-0.023070834577083588,0.34916824102401733,-0.0,0.0021608364768326283,1.2073209285736084,0.0006708317087031901,-0.0018288814462721348
312.0,447.0,0.1149,0.1077,9.7765,-0.0446,0.0102,-0.1188,-1.806127210656637,-0.00042465675505809486,2.9855408668518066,-1.7984870672225952,0.00010974732140311971,1.9690433740615845,5.072899329453268,0.00014743416977580637,0.28642356395721436,-1.5252817312823694,0.0,-0.012835588306188583,0.34918415546417236,-0.0,-0.014267321676015854,1.20729660987854,0.0004886611714027822,-0.0274041797965765
312.0,447.0,0.1149,0.1077,9.7765,-0.0446,0.0102,-0.1188,-1.8061062298216761,-0.00033093467936851084,2.969524621963501,-1.7984952926635742,0.00011919595272047445,2.0248117446899414,5.072939085751333,0.00013129954459145665,0.28597307205200195,-1.5252698103534144,0.0,-0.022165460512042046,0.3491801917552948,-0.0,-0.00994136743247509,1.207248330116272,0.0003552399866748601,0.012227794155478477
312.0,447.0,0.1149,0.1077,9.7765,-0.0446,0.0102,-0.1188,-1.8060547314085902,-0.00020456170022953302,3.0105738639831543,-1.7984583377838135,0.00018216973694507033,1.987670660018921,5.072947013169088,0.00011458134395070374,0.28010380268096924,-1.5252655188189905,0.0,-0.02184484340250492,0.34917208552360535,-0.0,-0.0025373203679919243,1.2072769403457642,5.3592015319736674e-05,0.0027851732447743416
312.0,447.0,0.1149,0.1077,9.7765,-0.0446,0.0102,-0.1188,-1.8060623608031214,-0.000166674391948618,2.957332134246826,-1.7984427213668823,0.0001952098828041926,1.9552597999572754,5.07289536574439,0.00010164008563151583,0.2928486466407776,-1.5252936522113245,0.0,-0.014893374405801296,0.3491843342781067,-0.0,-0.00594909954816103,1.207244634628296,3.1873950701033493e-10,-0.0259384885430336
317.0,444.0,0.4522,-0.2183,9.2782,-0.0368,0.0348,-0.1202,-1.8061105213561,-0.0001463458756916225,2.9723153114318848,-1.7984386682510376,0.0001579831587150693,2.003983497619629,5.072923171311178,9.370285260956734e-05,0.2754996716976166,-1.5252416769610804,0.0,-0.013577835634350777,0.34911999106407166,-0.0,0.0009601131314411759,1.2072205543518066,-0.0016496573807671666,0.019232481718063354
317.0,444.0,0.4522,-0.2183,9.2782,-0.0368,0.0348,-0.1202,-1.8061062298216761,-3.699213993968442e-05,2.9689412117004395,-1.7984747886657715,0.0001272012887056917,1.9963500499725342,5.072911250382223,6.367446621879935e-05,0.2858394980430603,-1.525261704121725,0.0,-0.012737731449306011,0.34913623332977295,-0.0,0.0020293989218771458,1.2072168588638306,-0.0008515520603395998,-0.035652440041303635
317.0,444.0,0.4522,-0.2183,9.2782,-0.0368,0.0348,-0.1202,-1.8061310253539027,-9.124977077590302e-05,3.0468671321868896,-1.7984986305236816,2.038415459537646e-06,1.9855294227600098,5.072887408524313,-8.988507033791393e-05,0.272090345621109,-1.5252416769610804,0.0,-0.019097505137324333,0.34917205572128296,-0.0,-0.007542114704847336,1.207176685333252,-0.0007717811386100948,0.02994321659207344
317.0,444.0,0.4522,-0.2183,9.2782,-0.0368,0.0348,-0.1202,-1.8061391315855921,-0.00011441756214480847,3.00051212310791,-1.7985397577285767,4.922532867435159e-12,1.951643943786621,5.072907286673345,-0.000657520373351872,0.2797221541404724,-1.5252893606769007,0.0,-0.0056105260737240314,0.34914430975914,-0.0,-0.002354503609240055,1.2072128057479858,-0.0007124757976271212,-0.00866758730262518
317.0,444.0,0.4522,-0.2183,9.2782,-0.0368,0.0348,-0.1202,-1.8061186275877894,-0.0003599989868234843,2.984754800796509,-1.7984986305236816,1.594837954461593e-19,1.9512853622436523,5.072907286673345,-0.0005195306148380041,0.2733163833618164,-1.5252774397479456,0.0,-0.019860614091157913,0.349168062210083,-0.0,-0.008106820285320282,1.2071967124938965,-0.0005614041001535952,-0.02876780554652214
317.0,444.0,0.4522,-0.2183,9.2782,-0.0368,0.0348,-0.1202,-1.8061548672118128,-0.00021820527035742998,3.004835844039917,-1.7984994649887085,5.167071670006682e-27,1.9766693115234375,5.072879481106558,-0.0003750731411855668,0.2785418927669525,-1.525285545979635,0.0,-0.00650259992107749,0.34918034076690674,-0.0,0.0042924173176288605,1.2072131633758545,-0.0004002259229309857,0.04406564310193062
317.0,444.0,0.4522,-0.2183,9.2782,-0.0368,0.0348,-0.1202,-1.8061510525145472,-0.00017559948901180178,3.0150227546691895,-1.7984271049499512,1.674065930427286e-34,1.9708514213562012,5.072935092240133,-0.00029349056421779096,0.2869924306869507,-1.5252936522113245,0.0,-0.017957668751478195,0.3491642475128174,-0.0,0.0013233619974926114,1.2071889638900757,-0.00029518327210098505,-0.030291847884655
317.0,444.0,0.4522,-0.2183,9.2782,-0.0368,0.0348,-0.1202,-1.8061396084227503,-0.00011490864562802017,2.983736991882324,-1.7984344959259033,4.042676004653881e-40,1.9618473052978516,5.072911250382223,-0.00025233396445401013,0.2697974443435669,-1.5252535978900355,0.0,-0.018318280577659607,0.34917208552360535,-0.0,0.00038135587237775326,1.2071644067764282,-0.0002466397709213197,-0.030714118853211403
317.0,444.0,0.4522,-0.2183,9.2782,-0.0368,0.0348,-0.1202,-1.8061186275877894,-9.817603131523356e-05,3.0192489624023438,-1.798474669456482,0.0,2.06028151512146,5.072899329453268,-0.00021258927881717682,0.2800820469856262,-1.5252936522113245,0.0,-0.018489107489585876,0.34919241070747375,-0.0,0.009007832035422325,1.2071926593780518,-0.00016183199477382004,-0.0565604493021965
317.0,444.0,0.4522,-0.2183,9.2782,-0.0368,0.0348,-0.1202,-1.8061105213561,-8.570954378228635e-05,2.9782443046569824,-1.7984066009521484,0.0005538039258681238,2.0130560398101807,5.07290734627799,-0.00018366255972068757,0.28219154477119446,-1.5253012816058558,0.0,-0.01804419234395027,0.34919241070747375,-0.0,-0.013062495738267899,1.2071845531463623,-0.00010289268539054319,-0.007309474982321262
317.0,444.0,0.4522,-0.2183,9.2782,-0.0368,0.0348,-0.1202,-1.806183477441305,-7.825673674233258e-05,2.980806350708008,-1.7984066009521484,0.0006200919160619378,1.9827899932861328,5.0729311285312555,-0.0001666558237047866,0.28482526540756226,-1.5252893606769007,0.0,-0.013963758014142513,0.3491521179676056,-0.0,-0.007652003783732653,1.2072045803070068,0.00011371197615517303,0.01406707800924778
317.0,444.0,0.4522,-0.2183,9.2782,-0.0368,0.0348,-0.1202,-1.8060699901976527,-7.012656715232879e-05,2.957291841506958,-1.798431158065796,0.0007559024961665273,1.9698325395584106,5.072911250382223,-0.00014834175817668438,0.28645989298820496,-1.5252535978900355,0.0,-0.028501290827989578,0.34919241070747375,-0.0,0.0029072649776935577,1.2071963548660278,0.00017970857152249664,-0.023276014253497124
317.0,444.0,0.4522,-0.2183,9.2782,-0.0368,0.0348,-0.1202,-1.8061353168883265,-8.222008909797296e-05,3.0047359466552734,-1.7984269857406616,0.0010206251172348857,1.9869352579116821,5.072935092240133,-0.00013365452468860894,0.27964723110198975,-1.5252655188189905,0.0,-0.017134906724095345,0.349148154258728,-0.0,0.013438280671834946,1.2072328329086304,0.0005915203946642578,-0.015579845756292343
311.0,439.0,0.1687,0.1155,9.4379,-0.0458,0.0399,-0.1173,-1.8061310253539027,-7.911756983958185e-05,2.985299587249756,-1.7984188795089722,0.0020509089808911085,1.9688681364059448,5.072875249176779,-0.0001424263755325228,0.28927016258239746,-1.5253093878375452,0.0,-0.02329924702644348,0.34918031096458435,-0.0,0.013891019858419895,1.207228660583496,0.00048016346408985555,0.030830107629299164
311.0,439.0,0.1687,0.1155,9.4379,-0.0458,0.0399,-0.1173,-1.8061024151244105,-7.272457150975242e-05,2.9518320560455322,-1.7983548641204834,0.006918567698448896,2.0283493995666504,5.072903293162145,-0.00013290306378621608,0.27710938453674316,-1.5253256003009241,0.0,-0.018159691244363785,0.3491680920124054,-5.098522493085511e-09,0.005458702798932791,1.207216501235962,0.00036796083441004157,-0.017919035628437996
311.0,439.0,0.1687,0.1155,9.4379,-0.0458,0.0399,-0.1173,-1.80613436321401,-2.089667941618245e-05,3.0360629558563232,-1.7982945442199707,0.010534304194152355,2.0216305255889893,5.072923260718145,-0.00013117534399498254,0.275522381067276,-1.5252974669085901,0.0,-0.01510576531291008,0.3492480218410492,-9.266314115758539e-14,0.011142998933792114,1.2072086334228516,0.00018466048641130328,0.00983049999922514
311.0,439.0,0.1687,0.1155,9.4379,-0.0458,0.0399,-0.1173,-1.8061472378172816,-1.8938504581456073e-05,3.010451316833496,-1.7982115745544434,0.00883447751402855,2.011568069458008,5.072931098728933,-0.0001299562572967261,0.28690508008003235,-1.5253093878375452,0.0,-0.013695009052753448,0.34923210740089417,-1.6841068467286154e-18,0.014600876718759537,1.207244634628296,9.768938616616651e-05,0.05067276954650879
311.0,439.0,0.1687,0.1155,9.4379,-0.0458,0.0399,-0.1173,-1.8061424694456996,-1.7813932572607882e-05,2.987947463989258,-1.7981711626052856,0.007936900481581688,1.9760208129882812,5.072879481106558,-0.0001232809736393392,0.28582027554512024,-1.5253012816058558,0.0,-0.016931723803281784,0.34913626313209534,-4.687772986444461e-22,0.021507628262043,1.207216501235962,8.400994556723163e-05,0.02377113699913025
311.0,439.0,0.1687,0.1155,9.4379,-0.0458,0.0399,-0.1173,-1.8061429462828578,-1.6507030522916466e-05,2.9907021522521973,-1.7980313301086426,0.007100772578269243,2.0005104541778564,5.0729271946247,-0.00010095684410771355,0.2808823585510254,-1.5252974669085901,0.0,-0.03250390663743019,0.3492240905761719,-8.51979638400008e-27,0.01987929455935955,1.2072045803070068,7.079275383148342e-05,-0.023946870118379593
311.0,439.0,0.1687,0.1155,9.4379,-0.0458,0.0399,-0.1173,-1.8061586819090785,-1.537878233648371e-05,3.009431838989258,-1.7979826927185059,0.0072425841353833675,1.9859652519226074,5.072935092240133,-9.487490024184808e-05,0.2863379418849945,-1.5252774397479456,0.0,-0.031164705753326416,0.34925204515457153,-1.5484308657181209e-31,0.021635493263602257,1.2072045803070068,6.116941221989691e-05,0.023639453575015068
311.0,439.0,0.1687,0.1155,9.4379,-0.0458,0.0399,-0.1173,-1.8060742817320765,-1.462888303649379e-05,3.018559455871582,-1.7979909181594849,0.007712714374065399,2.014986991882324,5.072911250382223,-9.077387221623212e-05,0.287932425737381,-1.5252893606769007,0.0,-0.039020389318466187,0.3491843342781067,-4.3101136192674486e-35,0.027069322764873505,1.2072045803070068,5.551005597226322e-05,-0.006175284273922443
311.0,439.0,0.1687,0.1155,9.4379,-0.0458,0.0399,-0.1173,-1.806166788140768,-1.373582927044481e-05,2.963385581970215,-1.7979161739349365,0.007980404421687126,2.015066146850586,5.072875487595358,-8.582724694861099e-05,0.29256248474121094,-1.5252578894244593,0.0,-0.03360174596309662,0.3492121696472168,-7.833412558406803e-40,0.02342996373772621,1.207188606262207,4.94143896503374e-05,0.02374187856912613
311.0,439.0,0.1687,0.1155,9.4379,-0.0458,0.0399,-0.1173,-1.806138654748434,-2.5890256438287906e-05,2.9680957794189453,-1.797819972038269,0.007626950275152922,2.032308578491211,5.072923260718145,-8.139198325807229e-05,0.2866416573524475,-1.525285545979635,0.0,-0.03421439975500107,0.3492121398448944,-1.401298464324817e-44,0.01905658096075058,1.2072205543518066,3.062584141844127e-07,0.026193704456090927
311.0,439.0,0.1687,0.1155,9.4379,-0.0458,0.0399,-0.1173,-1.806122442285055,-4.84774136566557e-05,3.041881799697876,-1.7977960109710693,0.007245504762977362,1.9746968746185303,5.072899329453268,-7.739257125649601e-05,0.29193371534347534,-1.5252974669085901,0.0,-0.03836023807525635,0.349251925945282,-0.0,0.03593552112579346,1.207200527191162,9.922382807428e-15,0.03651132434606552
311.0,439.0,0.1687,0.1155,9.4379,-0.0458,0.0399,-0.1173,-1.8061267338194789,-0.00013047675020061433,3.0505876541137695,-1.7977763414382935,0.006537625566124916,2.007361888885498,5.072859304934301,-7.46417572372593e-05,0.284731388092041,-1.525285545979635,0.0,-0.044135309755802155,0.3492480218410492,-0.0,0.041086528450250626,1.2071967124938965,2.3961385090285373e-20,0.035871267318725586
296.0,443.0,0.1208,0.1519,9.6748,-0.0321,0.0299,-0.1213,-1.806178709069723,-0.00011786261893576011,3.0235209465026855,-1.7976800203323364,0.006004949565976858,1.9987702369689941,5.072895425349035,-7.126446143956855e-05,0.29672807455062866,-1.5252893606769007,0.0,-0.03915102034807205,0.3492598533630371,-0.0,0.03959155082702637,1.2071284055709839,7.763184790511844e-28,-0.03927445039153099
296.0,443.0,0.1208,0.1519,9.6748,-0.0321,0.0299,-0.1213,-1.806166788140768,-0.00010668545291991904,2.9732298851013184,-1.797624111175537,0.006382244639098644,2.022575616836548,5.0728914616401575,-2.970903665300284e-07,0.3031425476074219,-1.525285545979635,0.0,-0.0452437549829483,0.3492080867290497,-0.0,0.02183116227388382,1.2071287631988525,-0.00043077178997918963,0.01083073578774929
296.0,443.0,0.1208,0.1519,9.6748,-0.0321,0.0299,-0.1213,-1.8061543903746546,-9.960144234355539e-05,2.9878149032592773,-1.7976561784744263,0.006718339864164591,2.0028293132781982,5.072871196060934,-8.269617629563797e-11,0.29308009147644043,-1.52527362505068,0.0,-0.04071465879678726,0.3492399752140045,-0.0,0.05145978555083275,1.2071889638900757,-0.00040074539720080793,0.02635645493865013
296.0,443.0,0.1208,0.1519,9.6748,-0.0321,0.0299,-0.1213,-1.806166788140768,-9.150050755124539e-05,2.977137327194214,-1.79758882522583,0.006730834487825632,1.9919096231460571,5.07289935925559,-1.5029622384764665e-15,0.276109904050827,-1.52527362505068,0.0,-0.05857855826616287,0.3492599427700043,-0.0,0.036375369876623154,1.207233190536499,-0.00040661636739969254,-0.03185918182134628
296.0,443.0,0.1208,0.1519,9.6748,-0.0321,0.0299,-0.1213,-1.8061586819090785,-0.00010154188930755481,2.9453091621398926,-1.7975484132766724,0.007429736200720072,2.0017988681793213,5.072867232352056,-2.73155976274265e-20,0.29703015089035034,-1.5252936522113245,0.0,-0.04805538058280945,0.3492598533630371,-0.0,0.04626721143722534,1.2071685791015625,-0.0003538583987392485,-0.09853629767894745
296.0,443.0,0.1208,0.1519,9.6748,-0.0321,0.0299,-0.1213,-1.8061868153014125,-0.00011206479393877089,2.9638187885284424,-1.797416090965271,0.007082702592015266,1.9685908555984497,5.0728711662586115,-7.603397180788366e-24,0.2925117015838623,-1.5253012816058558,0.0,-0.041549742221832275,0.34922802448272705,0.00017064230632968247,0.04860023409128189,1.2071930170059204,-0.00034356876858510077,-0.09647096693515778
296.0,443.0,0.1208,0.1519,9.6748,-0.0321,0.0299,-0.1213,-1.8061663113036097,-0.00011992968939011917,3.005096197128296,-1.7974169254302979,0.006918252911418676,1.951453685760498,5.072879421501913,-3.220544385840185e-05,0.28708159923553467,-1.5252779165851038,0.0,-0.045325905084609985,0.34926384687423706,0.0002037878439296037,0.04179384559392929,1.2071447372436523,-0.0003654574684333056,-0.07196912914514542
296.0,443.0,0.1208,0.1519,9.6748,-0.0321,0.0299,-0.1213,-1.8061543903746546,-0.00017400387150701135,2.963334560394287,-1.7974176406860352,0.0067438529804348946,2.000093936920166,5.072867232352056,-5.853181272996721e-10,0.283663809299469,-1.5253260771380823,0.0,-0.0391535647213459,0.34923598170280457,0.00018400249246042222,0.05013595521450043,1.2071324586868286,-0.00048351072473451495,-0.06531575322151184
296.0,443.0,0.1208,0.1519,9.6748,-0.0321,0.0299,-0.1213,-1.806138654748434,-0.00019671082554850727,2.991800308227539,-1.797309160232544,0.007129658479243517,2.0324034690856934,5.0728633282478235,-1.0637867302808971e-14,0.2935963571071625,-1.525233570729391,0.0,-0.017001574859023094,0.3492201268672943,0.0001619292888790369,0.043050140142440796,1.207148790359497,-0.0007578106597065926,-0.14527717232704163
296.0,443.0,0.1208,0.1519,9.6748,-0.0321,0.0299,-0.1213,-1.8061782322325648,-0.00018930668011307716,2.9486045837402344,-1.797248125076294,0.006737387273460627,2.034520149230957,5.072943109064855,-2.96108987161935e-18,0.28745412826538086,-1.5252378622638147,0.0,-0.024614812806248665,0.34926384687423706,0.0001733090466586873,0.05775967240333557,1.207096815109253,-0.0007937636692076921,-0.1148640587925911
296.0,443.0,0.1208,0.1519,9.6748,-0.0321,0.0299,-0.1213,-1.8061782322325648,-0.0003576032759156078,2.9190056324005127,-1.7972004413604736,0.006859774701297283,2.045917272567749,5.072871196060934,-5.381634970055434e-23,0.28764721751213074,-1.5252659956561487,0.0,-0.01839318871498108,0.34928378462791443,0.00017695243877824396,0.05397854372859001,1.2071164846420288,-0.0006509873201139271,-0.11989367008209229
296.0,443.0,0.1208,0.1519,9.6748,-0.0321,0.0299,-0.1213,-1.8061462841429652,-0.0003765214642044157,2.925692558288574,-1.7971724271774292,0.0061675612814724445,2.0502004623413086,5.072875278979101,-0.00013102062803227454,0.2792107164859772,-1.5252936522113245,0.0,-0.020525401458144188,0.34922805428504944,0.00017705575737636536,0.06824250519275665,1.2071247100830078,-0.0004663193831220269,-0.1647232174873352
299.0,455.0,0.1831,0.1005,9.5707,-0.0373,0.0301,-0.1184,-1.8061868153014125,-0.0005090190097689629,2.950338840484619,-1.7971577644348145,0.005750883370637894,2.0197834968566895,5.072851437121191,-0.0002059832913801074,0.26908448338508606,-1.5252779165851038,0.0,-0.008695702999830246,0.3492041230201721,0.00017103103164117783,0.053866468369960785,1.2071685791015625,-0.0003815704840235412,-0.18382883071899414
299.0,455.0,0.1831,0.1005,9.5707,-0.0373,0.0301,-0.1184,-1.8062144718565882,-0.0007002800120972097,2.949972152709961,-1.7970211505889893,0.0053477538749575615,2.028897762298584,5.072875249176779,-0.0002089029730996117,0.2732459008693695,-1.525257412587301,0.0,-0.024407044053077698,0.34924396872520447,0.0001781490573193878,0.06659109890460968,1.2071406841278076,-0.0003071491955779493,-0.20157945156097412
299.0,455.0,0.1831,0.1005,9.5707,-0.0373,0.0301,-0.1184,-1.8062478504576625,-0.0007093516178429127,2.916769027709961,-1.7969932556152344,0.005315751302987337,2.0204107761383057,5.072867202549734,-0.00021082244347780943,0.2805478572845459,-1.525257412587301,0.0,-0.003322636941447854,0.34930798411369324,0.00018361253023613244,0.07212606817483902,1.2071406841278076,-9.27604123717174e-05,-0.13616439700126648
299.0,455.0,0.1831,0.1005,9.5707,-0.0373,0.0301,-0.1184,-1.806206842462057,-0.0008449054439552128,2.8921151161193848,-1.7969404458999634,0.0055732447654008865,2.014260768890381,5.072855460434713,-0.00018614204600453377,0.26973822712898254,-1.525261704121725,0.0,-0.021316932514309883,0.3492518365383148,0.0001879322953755036,0.07962233573198318,1.2071685791015625,-7.689854828640819e-05,-0.16667062044143677
299.0,455.0,0.1831,0.1005,9.5707,-0.0373,0.0301,-0.1184,-1.8062554798521937,-0.0010592425242066383,2.93820858001709,-1.7969775199890137,0.0052194599993526936,2.041243076324463,5.072843271284857,-0.00019535530009306967,0.2646973729133606,-1.525261704121725,0.0,-0.015145480632781982,0.3492799401283264,0.0002482525596860796,0.06912402808666229,1.2071406841278076,-6.81621313560754e-05,-0.16870583593845367
299.0,455.0,0.1831,0.1005,9.5707,-0.0373,0.0301,-0.1184,-1.806223054925436,-0.0011801169021055102,2.9507055282592773,-1.7968937158584595,0.005767373833805323,2.042217493057251,5.072855460434713,-0.0001762735191732645,0.2685326933860779,-1.5252979437457483,0.0,-0.013273200951516628,0.34932368993759155,0.0002442031109239906,0.06968128681182861,1.2071644067764282,-5.9195324865868315e-05,-0.14235250651836395
299.0,455.0,0.1831,0.1005,9.5707,-0.0373,0.0301,-0.1184,-1.8062063656248988,-0.0011669840896502137,2.8957462310791016,-1.7968573570251465,0.006040654610842466,1.9840155839920044,5.072883176594534,-0.0001605501602170989,0.2612587511539459,-1.5252693335162562,0.0,-0.030425798147916794,0.34931984543800354,0.00024125087657012045,0.062049705535173416,1.2071726322174072,-5.231361137703061e-05,-0.1608823537826538
299.0,455.0,0.1831,0.1005,9.5707,-0.0373,0.0301,-0.1184,-1.806234975854391,-0.001364748110063374,2.8693997859954834,-1.7968459129333496,0.006495132111012936,2.0006797313690186,5.0728593347366235,-0.00015491679369006306,0.2592565417289734,-1.5253055731402796,0.0,-0.023612596094608307,0.34932777285575867,0.0002472336345817894,0.06129071116447449,1.2071447372436523,-4.811817780137062e-05,-0.1220032349228859
299.0,455.0,0.1831,0.1005,9.5707,-0.0373,0.0301,-0.1184,-1.8062550030150355,-0.0014448881847783923,2.901272773742676,-1.7967817783355713,0.0059054517187178135,1.9956393241882324,5.072815316706457,-0.00013619459059555084,0.26185378432273865,-1.5252655188189905,0.0,-0.026458337903022766,0.34925180673599243,0.0002585215261206031,0.08059893548488617,1.207184910774231,-2.1734998881584033e-05,-0.13434180617332458
299.0,455.0,0.1831,0.1005,9.5707,-0.0373,0.0301,-0.1184,-1.8062306843199671,-0.00146905065048486,2.9381113052368164,-1.7968024015426636,0.005738787818700075,2.021937370300293,5.072871374874868,-0.00014576900866813958,0.2632533013820648,-1.52527362505068,0.0,-0.012052951380610466,0.3492998480796814,0.00021249533165246248,0.07496689260005951,1.2071406841278076,-1.982033245440107e-05,-0.13302727043628693
299.0,455.0,0.1831,0.1005,9.5707,-0.0373,0.0301,-0.1184,-1.8062826595702113,-0.001761724939569831,2.8726887702941895,-1.7967504262924194,0.005676706321537495,2.0166821479797363,5.072823333531179,-0.00013486025272868574,0.2664511501789093,-1.525257412587301,0.0,-0.018496867269277573,0.34935590624809265,0.00021363374253269285,0.059761397540569305,1.2071726322174072,-1.8591985281091183e-05,-0.11966569721698761
299.0,455.0,0.1831,0.1005,9.5707,-0.0373,0.0301,-0.1184,-1.806319376031393,-0.002007431350648403,2.859288454055786,-1.7966978549957275,0.005234930198639631,2.0416512489318848,5.072827237635412,-0.00014235226262826473,0.266376793384552,-1.5253055731402796,0.0,-0.014164740219712257,0.34929588437080383,0.00019163647084496915,0.07103323191404343,1.2072008848190308,-1.7172998923342675e-05,-0.14582762122154236
299.0,455.0,0.1831,0.1005,9.5707,-0.0373,0.0301,-0.1184,-1.8063389263548792,-0.0017683325568214059,2.839888572692871,-1.796626329421997,0.00522720767185092,2.0402660369873047,5.0728792426879785,-0.00013113579188939184,0.2582473158836365,-1.5252655188189905,0.0,-0.03226828575134277,0.3492799401283264,0.00019208164303563535,0.07250416278839111,1.2071807384490967,-1.5955238268361427e-05,-0.12763798236846924
305.0,436.0,0.2919,-0.0162,9.5384,-0.0476,0.0247,-0.0896,-1.8062988720335902,-0.0011484345886856318,2.8798577785491943,-1.796581745147705,0.005472190212458372,2.07174015045166,5.072807270079412,-0.00012105640780646354,0.2676873803138733,-1.52527362505068,0.0,-0.0238655973225832,0.3493196964263916,0.0001741330634104088,0.07850749045610428,1.2071443796157837,-1.4898738299962133e-05,-0.12638267874717712
305.0,436.0,0.2919,-0.0162,9.5384,-0.0476,0.0247,-0.0896,-1.8063513241209925,-0.0008569633937440813,2.8734636306762695,-1.7965662479400635,0.005429164040833712,2.015899896621704,5.0728474138076685,-0.00011445819109212607,0.25074371695518494,-1.5252779165851038,0.0,-0.03353630006313324,0.3492799699306488,0.0001607989106560126,0.08001372963190079,1.207188606262207,-1.4193858987709973e-05,-0.13899008929729462
305.0,436.0,0.2919,-0.0162,9.5384,-0.0476,0.0247,-0.0896,-1.8063270054259242,-0.0007246574969030917,2.8460612297058105,-1.7964576482772827,0.004987572785466909,2.022219181060791,5.072887259512701,-0.00012143311323598027,0.25468361377716064,-1.5252693335162562,0.0,-0.016282059252262115,0.34930381178855896,0.00016672130732331425,0.0716267079114914,1.207120656967163,-1.3351596862776205e-05,-0.20100852847099304
305.0,436.0,0.2919,-0.0162,9.5384,-0.0476,0.0247,-0.0896,-1.8063799343504847,-0.0005766424583271146,2.856564998626709,-1.7965102195739746,0.004313163924962282,1.979048490524292,5.072867202549734,-0.00011420953524066135,0.2452722191810608,-1.525257412587301,0.0,-0.02293992042541504,0.34927991032600403,0.00015260785585269332,0.09339030086994171,1.2071726322174072,-2.5207424187101424e-05,-0.1229797750711441
305.0,436.0,0.2919,-0.0162,9.5384,-0.0476,0.0247,-0.0896,-1.806298395196432,-0.0005084453150629997,2.8414251804351807,-1.796494483947754,0.0038311744574457407,1.9948021173477173,5.0728312013442896,-0.00010902151552727446,0.2576543092727661,-1.5252535978900355,0.0,-0.018330108374357224,0.34933966398239136,0.00014348396507557482,0.0704137310385704,1.2071045637130737,-3.487612048047595e-05,-0.13737741112709045
305.0,436.0,0.2919,-0.0162,9.5384,-0.0476,0.0247,-0.0896,-1.8063069782652796,-0.00038494911859743297,2.85434627532959,-1.796450138092041,0.0033284733071923256,1.9985249042510986,5.072871374874868,-0.00010279545676894486,0.24332818388938904,-1.5252817312823694,0.0,-0.020475979894399643,0.3492879271507263,0.00013289063645061105,0.08155585825443268,1.2071607112884521,-3.4435492125339806e-05,-0.14443768560886383
305.0,436.0,0.2919,-0.0162,9.5384,-0.0476,0.0247,-0.0896,-1.8063465557494105,-0.00030933445668779314,2.890700340270996,-1.7964272499084473,0.0030524455942213535,2.0031251907348633,5.072895514756002,-9.724214032758027e-05,0.24451801180839539,-1.525245491658346,0.0,-0.01754235476255417,0.3492719829082489,0.00012375395454000682,0.08158470690250397,1.2071685791015625,-3.276404822827317e-05,-0.1752212643623352
305.0,436.0,0.2919,-0.0162,9.5384,-0.0476,0.0247,-0.0896,-1.8063270054259242,-0.00029548563179560006,2.840846300125122,-1.7964396476745605,0.0027085395995527506,1.9782809019088745,5.072867321759023,-9.22580438782461e-05,0.25768715143203735,-1.5252297560321253,0.0,-0.006309535354375839,0.3492960035800934,0.0001157928491011262,0.08140020072460175,1.2071607112884521,-3.12473566737026e-05,-0.17515549063682556
305.0,436.0,0.2919,-0.0162,9.5384,-0.0476,0.0247,-0.0896,-1.806343217889303,-0.0002630925446283072,2.831603527069092,-1.7963744401931763,0.0025170468725264072,1.9700658321380615,5.072871374874868,-8.619332948001102e-05,0.2467908263206482,-1.52527362505068,0.0,-0.017694560810923576,0.34934383630752563,0.00011046323925256729,0.08068639039993286,1.2072008848190308,-3.909263250534423e-05,-0.1675119400024414
305.0,436.0,0.2919,-0.0162,9.5384,-0.0476,0.0247,-0.0896,-1.8063427410521449,-0.0002295410231454298,2.800693988800049,-1.7963589429855347,0.0025054821744561195,1.985534906387329,5.0728633282478235,-7.778865256113932e-05,0.242696151137352,-1.5252378622638147,0.0,-0.019859489053487778,0.3492717742919922,0.0001040763090713881,0.08348459005355835,1.2071689367294312,-2.817170108304623e-10,-0.14163506031036377
305.0,436.0,0.2919,-0.0162,9.5384,-0.0476,0.0247,-0.0896,-1.8063675365843714,-0.00015197639004327357,2.8388376235961914,-1.796310305595398,0.0021192552521824837,1.9840903282165527,5.072847205191412,-7.275769166881219e-05,0.24723538756370544,-1.5252812544452112,0.0,-0.012038550339639187,0.3492799699306488,9.838749974733219e-05,0.06133866682648659,1.2071566581726074,-9.127273006310168e-18,-0.17727813124656677
305.0,436.0,0.2919,-0.0162,9.5384,-0.0476,0.0247,-0.0896,-1.8063427410521449,-0.00016553897876292467,2.8157286643981934,-1.796290636062622,0.0016011561965569854,2.000736951828003,5.0728351948554895,-6.939185550436378e-05,0.24425315856933594,-1.525257412587301,0.0,0.000732754822820425,0.34932762384414673,9.451301593799144e-05,0.07624924182891846,1.207176685333252,-2.2041288029185274e-23,-0.20856434106826782
306.0,449.0,0.2064,0.0544,9.539,-0.0342,0.0269,-0.1271,-1.8063632450499476,-0.0004571319150272757,2.803882360458374,-1.7963144779205322,0.001210481976158917,2.0930142402648926,5.072826790600576,-8.487214654451236e-05,0.24787715077400208,-1.5252254644977015,0.0,-0.004792175721377134,0.34929585456848145,8.02522772573866e-05,0.08297096192836761,1.207136631011963,-7.141097148194535e-31,-0.1582183837890625
306.0,449.0,0.2064,0.0544,9.539,-0.0342,0.0269,-0.1271,-1.8064037762083949,-0.0012016615364700556,2.80941104888916,-1.796394944190979,0.0008310515549965203,2.032223701477051,5.072851407318868,-9.86238446785137e-05,0.2413131296634674,-1.5252216498004358,0.0,-0.006801438517868519,0.34928393363952637,6.62268212181516e-05,0.08242659270763397,1.2072012424468994,-2.3136251800410503e-38,-0.16111841797828674
306.0,449.0,0.2064,0.0544,9.539,-0.0342,0.0269,-0.1271,-1.8063508472838343,-0.00166622968390584,2.825716495513916,-1.796335220336914,0.000641572754830122,2.0397958755493164,5.072859453945913,-0.00020302706980146468,0.2462957203388214,-1.5252535978900355,0.0,-0.016050927340984344,0.3492799699306488,6.342626147670671e-05,0.0794784426689148,1.2071647644042969,-5.605193857299268e-44,-0.13905110955238342
306.0,449.0,0.2064,0.0544,9.539,-0.0342,0.0269,-0.1271,-1.8063909016051234,-0.0026018312200903893,2.7743258476257324,-1.7963474988937378,0.0005062395357526839,2.0393965244293213,5.072803693800726,-0.00023948076704982668,0.24037322402000427,-1.5252779165851038,0.0,0.00472183246165514,0.3492799401283264,7.202278356999159e-05,0.0932639092206955,1.2071647644042969,0.0,-0.19511929154396057
306.0,449.0,0.2064,0.0544,9.539,-0.0342,0.0269,-0.1271,-1.806483884850973,-0.0035659081768244505,2.766781806945801,-1.796310305595398,0.0003836862451862544,2.0285935401916504,5.072815406113424,-0.00023951521143317223,0.22104883193969727,-1.5252817312823694,0.0,-0.0016088041011244059,0.3493318557739258,6.839907291578129e-05,0.09715888649225235,1.2071447372436523,-2.312229071321781e-06,-0.2036651372909546
306.0,449.0,0.2064,0.0544,9.539,-0.0342,0.0269,-0.1271,-1.8064633808531703,-0.004226536490023136,2.792556047439575,-1.7963030338287354,0.00035258993739262223,2.037580966949463,5.072791862278738,-0.0003967554366681725,0.22239600121974945,-1.525261704121725,0.0,-0.002924833446741104,0.34935975074768066,7.595003262395039e-05,0.08178965747356415,1.2071247100830078,-7.491328792106483e-14,-0.17108049988746643
306.0,449.0,0.2064,0.0544,9.539,-0.0342,0.0269,-0.1271,-1.8064953289427699,-0.004825875163078308,2.776840925216675,-1.796315312385559,0.0002774423046503216,2.05446720123291,5.072843301087179,-0.00035234401002526283,0.2225961685180664,-1.5252135435687464,0.0,-0.02127464860677719,0.3493478298187256,7.329981599468738e-05,0.09707878530025482,1.2071526050567627,-1.8090677810960824e-19,-0.18510402739048004
306.0,449.0,0.2064,0.0544,9.539,-0.0342,0.0269,-0.1271,-1.8065391979613246,-0.005626463796943426,2.723344087600708,-1.7963474988937378,0.0005887123406864703,2.0742907524108887,5.072839307575979,-0.00030626062653027475,0.21791669726371765,-1.5252540747271937,0.0,-0.0009546112269163132,0.34929975867271423,7.971101149450988e-05,0.09866922348737717,1.207148790359497,-5.861150629316598e-27,-0.20088930428028107
306.0,449.0,0.2064,0.0544,9.539,-0.0342,0.0269,-0.1271,-1.806591650048727,-0.006594291888177395,2.728156089782715,-1.7963391542434692,0.0007274997769854963,1.9732298851013184,5.072807448893347,-0.0002929969923570752,0.2222634255886078,-1.5252817312823694,1.713486312837631e-06,-0.008968651294708252,0.3492799401283264,5.6558047134558365e-09,0.10759291052818298,1.207176685333252,-1.8989383441227003e-34,-0.2233060896396637
306.0,449.0,0.2064,0.0544,9.539,-0.0342,0.0269,-0.1271,-1.8066112003722132,-0.007267797831445932,2.707075595855713,-1.796290397644043,0.0010032200952991843,2.0032639503479004,5.0727796135242365,-0.0002611324016470462,0.21908465027809143,-1.5252297560321253,4.769552530703436e-10,0.004038604907691479,0.34928789734840393,1.574314138254318e-12,0.100544273853302,1.2071607112884521,-4.585707185549034e-40,-0.2131449282169342
306.0,449.0,0.2064,0.0544,9.539,-0.0342,0.0269,-0.1271,-1.8066755733885707,-0.006926653441041708,2.7403292655944824,-1.7962430715560913,0.0014661649474874139,1.9778273105621338,5.0727796135242365,-0.0002280449989484623,0.21561866998672485,-1.5252779165851038,8.668425914950314e-15,0.002756464295089245,0.34934380650520325,2.861238252900114e-17,0.09928318113088608,1.207136869430542,-0.0003069609228987247,-0.2225307822227478
306.0,449.0,0.2064,0.0544,9.539,-0.0342,0.0269,-0.1271,-1.806784292260641,-0.006912783719599247,2.739129066467285,-1.7962265014648438,0.0019112008158117533,2.0149216651916504,5.072803723603048,-0.00020240014418959618,0.22724197804927826,-1.5252378622638147,1.5754438002714923e-19,0.011702727526426315,0.3493318557739258,0.00010921285138465464,0.0890607088804245,1.2071689367294312,-0.0012648999691009521,-0.24181406199932098
307.0,464.0,0.0826,0.0802,9.5312,-0.0354,0.0142,-0.1332,-1.8067761860289515,-0.007204091176390648,2.7420620918273926,-1.7962429523468018,0.0020384930539876223,1.9920377731323242,5.0728351948554895,-0.00018665764946490526,0.2213221937417984,-1.525245491658346,4.3853058555718305e-23,-0.0026929674204438925,0.3493798077106476,0.00010180588287767023,0.10145126283168793,1.207108974456787,-0.0022209694143384695,-0.2659531235694885
307.0,464.0,0.0826,0.0802,9.5312,-0.0354,0.0142,-0.1332,-1.8068238697447718,-0.008951729163527489,2.7081968784332275,-1.796194314956665,0.002208265010267496,2.0188260078430176,5.072835254460134,-0.00016911907005123794,0.20897415280342102,-1.5252659956561487,7.970076370340184e-28,0.003832681570202112,0.34938374161720276,9.335730283055454e-05,0.09528909623622894,1.2070647478103638,-0.006180341821163893,-0.2553165853023529
307.0,464.0,0.0826,0.0802,9.5312,-0.0354,0.0142,-0.1332,-1.8069197140135707,-0.010032177902758121,2.7175498008728027,-1.7962594032287598,0.0026210553478449583,2.0492401123046875,5.072803723603048,-0.00015459371206816286,0.2003672569990158,-1.5252178351031702,1.4485220155839646e-32,0.008679188787937164,0.34936362504959106,0.00010336790728615597,0.10341715812683105,1.2069724798202515,-0.008716757409274578,-0.27024978399276733
307.0,464.0,0.0826,0.0802,9.5312,-0.0354,0.0142,-0.1332,-1.8069879017271937,-0.010770833119750023,2.7036588191986084,-1.7962149381637573,0.003957710228860378,2.0207905769348145,5.072839277773657,-0.00014236627612262964,0.2113191932439804,-1.5252578894244593,2.632617407057245e-37,0.011461377143859863,0.3492918610572815,9.608189429854974e-05,0.1149538904428482,1.206985354423523,-0.00561720784753561,-0.23406773805618286
307.0,464.0,0.0826,0.0802,9.5312,-0.0354,0.0142,-0.1332,-1.8070680103697718,-0.011819176375865936,2.739961624145508,-1.7961424589157104,0.005086835008114576,1.9740970134735107,5.072823303728857,-0.00013439386384561658,0.21979689598083496,-1.5252741018878382,7.327950189340198e-41,0.012223873287439346,0.34924787282943726,9.121299808612093e-05,0.10685449838638306,1.2069332599639893,-0.005049023311585188,-0.297494500875473
307.0,464.0,0.0826,0.0802,9.5312,-0.0354,0.0142,-0.1332,-1.807188173333639,-0.013631410896778107,2.7036776542663574,-1.7961113452911377,0.006904380861669779,2.040431022644043,5.072847234993734,-0.00012505655467975885,0.2265835702419281,-1.5252540747271937,1.401298464324817e-45,-0.001006667036563158,0.3493199646472931,8.544012234779075e-05,0.09832727909088135,1.2069534063339233,-0.004875024780631065,-0.26893940567970276
