ramyac6/ROB537/final_project/csv/good/good_90.csv
tof_0,tof_1,accelx,accely,accelz,gyrox,gyroy,gyroz,shoulder_lift_joint_position,shoulder_lift_joint_velocity,shoulder_lift_joint_effort,elbow_joint_position,elbow_joint_velocity,elbow_joint_effort,wrist_1_joint_position,wrist_1_joint_velocity,wrist_1_joint_effort,wrist_2_joint_position,wrist_2_joint_velocity,wrist_2_joint_effort,wrist_3_joint_position,wrist_3_joint_velocity,wrist_3_joint_effort,shoulder_pan_joint_position,shoulder_pan_joint_velocity,shoulder_pan_joint_effort
203.0,213.0,-0.8315,-0.0945,9.6323,-0.0394,0.0295,-0.1136,-2.045180936852926,0.0,3.985396385192871,-1.5110893249511719,-0.0,2.032348155975342,5.104679184942999,0.0,0.2794187664985657,-1.5314777533160608,-0.0,-0.02022651769220829,0.08328231424093246,-0.0,-0.007065124809741974,1.0746042728424072,0.0,-0.016506696119904518
203.0,213.0,-0.8315,-0.0945,9.6323,-0.0394,0.0295,-0.1136,-2.0452214680113734,0.0,3.9634907245635986,-1.5111415386199951,-0.0,1.9719197750091553,5.104735779553213,0.0,0.26020878553390503,-1.5314620176898401,-0.0,-0.02379365637898445,0.08337526023387909,-0.0,-0.001673491089604795,1.0746452808380127,0.0,0.004197314847260714
203.0,213.0,-0.8315,-0.0945,9.6323,-0.0394,0.0295,-0.1136,-2.0451771221556605,0.0,4.01101541519165,-1.511137843132019,-0.0,2.0220720767974854,5.104683267861166,0.0,0.26659050583839417,-1.5314739386187952,-0.0,-0.013510685414075851,0.0833105593919754,-0.0,-9.784603025764227e-05,1.0746452808380127,0.0,0.005629481747746468
203.0,213.0,-0.8315,-0.0945,9.6323,-0.0394,0.0295,-0.1136,-2.045157094995016,0.0,3.967884063720703,-1.5111336708068848,-0.0,2.0524938106536865,5.104719775706091,0.0,0.27984821796417236,-1.5315139929400843,-0.0,-0.023026296868920326,0.08328636735677719,-0.0,0.004136654548346996,1.0746002197265625,0.0,-0.017953192815184593
203.0,213.0,-0.8315,-0.0945,9.6323,-0.0394,0.0295,-0.1136,-2.045201440850729,0.0,4.010145664215088,-1.511190414428711,-0.0,2.0203287601470947,5.104683267861166,0.0,0.25973615050315857,-1.5314577261554163,-0.0,-0.007347366772592068,0.0832904651761055,-0.0,0.001569843734614551,1.074652910232544,0.0,0.013300069607794285
203.0,213.0,-0.8315,-0.0945,9.6323,-0.0394,0.0295,-0.1136,-2.045157094995016,0.0,3.9847793579101562,-1.511121392250061,-0.0,1.9522162675857544,5.104715603380956,0.0,0.26399046182632446,-1.5314658323871058,-0.0,-0.015447674319148064,0.08335480839014053,-0.0,0.001915487227961421,1.0746533870697021,0.0,0.025398697704076767
203.0,213.0,-0.8315,-0.0945,9.6323,-0.0394,0.0295,-0.1136,-2.045197149316305,0.0,4.009860992431641,-1.5111496448516846,-0.0,2.0491983890533447,5.1047037718589685,0.0,0.2736012637615204,-1.5314620176898401,-0.0,-0.006489231716841459,0.08329867571592331,-0.0,0.0071900347247719765,1.0746084451675415,0.0,0.020731106400489807
200.0,204.0,-0.7759,-0.0634,9.4451,-0.0325,0.0163,-0.1126,-2.0451775989928187,0.0,3.9932332038879395,-1.5110934972763062,-0.0,2.01784348487854,5.104723441391744,0.0,0.2669753134250641,-1.5314458052264612,-0.0,-0.011769427917897701,0.08333472907543182,-0.0,-0.002593334997072816,1.0746288299560547,0.0,0.017943207174539566
200.0,204.0,-0.7759,-0.0634,9.4451,-0.0325,0.0163,-0.1126,-2.045152803460592,0.0,3.9861764907836914,-1.5111336708068848,-0.0,2.038299560546875,5.104699599533834,0.0,0.26515692472457886,-1.5314539114581507,-0.0,-0.005932276602834463,0.08335108309984207,-0.0,-0.0029970891773700714,1.0746570825576782,0.0,-0.04065033048391342
200.0,204.0,-0.7759,-0.0634,9.4451,-0.0325,0.0163,-0.1126,-2.045225282708639,0.0,3.999307870864868,-1.511157512664795,-0.0,1.9888126850128174,5.104667264014044,0.0,0.2627253830432892,-1.531426254902975,-0.0,-0.014086481183767319,0.08326654881238937,-0.0,-0.003897868562489748,1.0745841264724731,0.0,0.02029619738459587
200.0,204.0,-0.7759,-0.0634,9.4451,-0.0325,0.0163,-0.1126,-2.045169015923971,0.0,4.035802841186523,-1.5110656023025513,-0.0,2.0384302139282227,5.1046631810958765,0.0,0.26744869351387024,-1.5314577261554163,-0.0,-0.006494213826954365,0.0833510011434555,-0.0,-0.002961272606626153,1.0746042728424072,0.0,-0.02710665576159954
200.0,204.0,-0.7759,-0.0634,9.4451,-0.0325,0.0163,-0.1126,-2.045197149316305,0.0,3.9546380043029785,-1.5111336708068848,-0.0,2.054316520690918,5.104679184942999,0.0,0.2720257639884949,-1.5314300696002405,-0.0,-0.0020680432207882404,0.08326996862888336,-0.0,0.0018082379829138517,1.0746448040008545,0.0,-0.016259804368019104
200.0,204.0,-0.7759,-0.0634,9.4451,-0.0325,0.0163,-0.1126,-2.045189519921774,0.0,3.988924264907837,-1.5111016035079956,-0.0,1.9995592832565308,5.104711937695303,0.0,0.2721186876296997,-1.5314739386187952,-0.0,-0.020254841074347496,0.08331099152565002,-0.0,-0.0047468217089772224,1.0746206045150757,0.0,0.019475717097520828
200.0,204.0,-0.7759,-0.0634,9.4451,-0.0325,0.0163,-0.1126,-2.045180936852926,0.0,4.011772632598877,-1.5111373662948608,-0.0,1.977987289428711,5.1046874401863,0.0,0.26905491948127747,-1.531489674245016,-0.0,-0.018312925472855568,0.08335894346237183,-0.0,-0.007750003598630428,1.0746452808380127,0.0,0.02148638665676117
200.0,204.0,-0.7759,-0.0634,9.4451,-0.0325,0.0163,-0.1126,-2.0452052555479945,0.0,3.9893712997436523,-1.5111173391342163,-0.0,2.0030462741851807,5.104623126774587,0.0,0.26302510499954224,-1.5314696470843714,-0.0,-0.011073898524045944,0.08333882689476013,-0.0,0.009488385170698166,1.0746206045150757,0.0,-0.014801258221268654
200.0,204.0,-0.7759,-0.0634,9.4451,-0.0325,0.0163,-0.1126,-2.0451489887633265,0.0,3.9921822547912598,-1.5110893249511719,-0.0,2.045703887939453,5.104675519257345,0.0,0.2723940908908844,-1.5314815680133265,-0.0,-0.014321775175631046,0.08330271393060684,-0.0,0.006467265076935291,1.0746126174926758,0.0,0.01969456486403942
200.0,204.0,-0.7759,-0.0634,9.4451,-0.0325,0.0163,-0.1126,-2.0452047787108363,0.0,3.9615015983581543,-1.5111615657806396,-0.0,2.0297977924346924,5.104723858624258,0.0,0.26652055978775024,-1.531501595173971,-0.0,-0.017607443034648895,0.08327479660511017,-0.0,-0.006642110180109739,1.0746690034866333,0.0,-0.026041250675916672
200.0,204.0,-0.7759,-0.0634,9.4451,-0.0325,0.0163,-0.1126,-2.0451652012267054,0.0,3.9948716163635254,-1.5111697912216187,-0.0,2.0459775924682617,5.104699599533834,0.0,0.27904078364372253,-1.5314620176898401,-0.0,-0.022092752158641815,0.08332693576812744,-0.0,-0.005446539726108313,1.0746289491653442,0.0,0.06322429329156876
200.0,204.0,-0.7759,-0.0634,9.4451,-0.0325,0.0163,-0.1126,-2.045180936852926,0.0,3.986849308013916,-1.5111781358718872,-0.0,2.010775089263916,5.104711520462789,0.0,0.26683372259140015,-1.5314419905291956,-0.0,-0.012483557686209679,0.08334662765264511,-0.0,0.002151159569621086,1.0746042728424072,0.0,-0.004477528855204582
200.0,204.0,-0.7759,-0.0634,9.4451,-0.0325,0.0163,-0.1126,-2.04518522838735,0.0,3.9762959480285645,-1.5111212730407715,-0.0,2.0148537158966064,5.104731607228079,0.0,0.260759174823761,-1.5314934889422815,-0.0,-0.01008742768317461,0.08329863846302032,-0.0,-0.012266861274838448,1.07462477684021,0.0,0.00917723961174488
200.0,204.0,-0.7759,-0.0634,9.4451,-0.0325,0.0163,-0.1126,-2.04520907024526,0.0,3.9566454887390137,-1.5111336708068848,-0.0,1.9974358081817627,5.1047275243099115,0.0,0.272911012172699,-1.5314858595477503,-0.0,-0.027226360514760017,0.08326695114374161,-0.0,-0.0016866340301930904,1.074616551399231,0.0,-0.015650887042284012
198.0,212.0,-0.8387,-0.1155,9.4427,-0.0418,0.0203,-0.1083,-2.0452214680113734,0.0,3.970158576965332,-1.511121392250061,-0.0,2.0425400733947754,5.104699599533834,0.0,0.26585647463798523,-1.5314977804767054,-0.0,-0.005405294708907604,0.08332694321870804,-0.0,-0.003803553059697151,1.074633002281189,0.0,0.016002299264073372
198.0,212.0,-0.8387,-0.1155,9.4427,-0.0418,0.0203,-0.1083,-2.045157094995016,0.0,3.9726030826568604,-1.5111171007156372,-0.0,2.040682315826416,5.104683297663488,0.0,0.2672348916530609,-1.5314577261554163,-0.0,-0.008139907382428646,0.08332694321870804,-0.0,-0.007267189212143421,1.0745806694030762,0.0,0.030029144138097763
198.0,212.0,-0.8387,-0.1155,9.4427,-0.0418,0.0203,-0.1083,-2.045180936852926,0.0,4.007968902587891,-1.511137843132019,-0.0,2.019766092300415,5.104711520462789,0.0,0.2618041932582855,-1.5314815680133265,-0.0,-0.006659735459834337,0.08330678939819336,-0.0,-0.0008860251400619745,1.0746289491653442,0.0,0.013180920854210854
198.0,212.0,-0.8387,-0.1155,9.4427,-0.0418,0.0203,-0.1083,-2.04520907024526,0.0,4.000787734985352,-1.511182188987732,-0.0,2.0372304916381836,5.104683267861166,0.0,0.2634330987930298,-1.5314458052264612,-0.0,-0.025498632341623306,0.08326256275177002,-0.0,-0.0021958965808153152,1.074576497077942,0.0,0.021340297535061836
198.0,212.0,-0.8387,-0.1155,9.4427,-0.0418,0.0203,-0.1083,-2.045201440850729,0.0,4.019790172576904,-1.5111697912216187,-0.0,2.047764539718628,5.104683297663488,0.0,0.2681816518306732,-1.5314858595477503,-0.0,-0.018417173996567726,0.08328639715909958,-0.0,-0.0024003256112337112,1.0746612548828125,0.0,0.027051465585827827
198.0,212.0,-0.8387,-0.1155,9.4427,-0.0418,0.0203,-0.1083,-2.0451771221556605,0.0,3.9363341331481934,-1.5110975503921509,-0.0,2.0231823921203613,5.10472388842658,0.0,0.2621404528617859,-1.5314777533160608,-0.0,-0.011881304904818535,0.08331094682216644,-0.0,-0.008744285441935062,1.0746248960494995,0.0,0.0030683353543281555
198.0,212.0,-0.8387,-0.1155,9.4427,-0.0418,0.0203,-0.1083,-2.0451771221556605,0.0,3.96382999420166,-1.5111212730407715,-0.0,2.0195364952087402,5.104655432492056,0.0,0.2641586661338806,-1.5314977804767054,-0.0,-0.023336535319685936,0.08328639715909958,-0.0,-0.0050358097068965435,1.0746772289276123,0.0,-0.01494140736758709
198.0,212.0,-0.8387,-0.1155,9.4427,-0.0418,0.0203,-0.1083,-2.045201440850729,0.0,4.01317024230957,-1.5111615657806396,-0.0,2.0674047470092773,5.104695635824957,0.0,0.26656532287597656,-1.5314419905291956,-0.0,-0.02624082937836647,0.08331098407506943,-0.0,0.0030562584288418293,1.0746042728424072,0.0,-0.031203288584947586
198.0,212.0,-0.8387,-0.1155,9.4427,-0.0418,0.0203,-0.1083,-2.045173307458395,0.0,3.9562859535217285,-1.5110893249511719,-0.0,1.9823349714279175,5.1046874401863,0.0,0.26217931509017944,-1.5314539114581507,-0.0,-0.016727406531572342,0.08332279324531555,-0.0,-0.0020207816269248724,1.074596643447876,0.0,-0.005973738618195057
198.0,212.0,-0.8387,-0.1155,9.4427,-0.0418,0.0203,-0.1083,-2.045213361779684,0.0,4.009471893310547,-1.5111336708068848,-0.0,2.0493509769439697,5.1047275243099115,0.0,0.2642764151096344,-1.5314777533160608,-0.0,-0.006680114194750786,0.08331871777772903,-0.0,0.0006545708747580647,1.0745882987976074,0.0,0.016185274347662926
198.0,212.0,-0.8387,-0.1155,9.4427,-0.0418,0.0203,-0.1083,-2.045201440850729,0.0,3.9877028465270996,-1.5111255645751953,-0.0,1.9925806522369385,5.104695665627279,0.0,0.2667611539363861,-1.5314977804767054,-0.0,-0.007150935474783182,0.08327412605285645,-0.0,-0.014546312391757965,1.0746124982833862,0.0,0.0013420928735285997
198.0,212.0,-0.8387,-0.1155,9.4427,-0.0418,0.0203,-0.1083,-2.045145174066061,0.0,3.994184970855713,-1.5111373662948608,-0.0,2.0042943954467773,5.104695516615667,0.0,0.25700223445892334,-1.5314577261554163,-0.0,-0.017194291576743126,0.08330675959587097,-0.0,-0.005572046618908644,1.0746166706085205,0.0,0.029975220561027527
198.0,212.0,-0.8387,-0.1155,9.4427,-0.0418,0.0203,-0.1083,-2.045192857781881,0.0,3.985818386077881,-1.5111455917358398,-0.0,2.001859664916992,5.104719775706091,0.0,0.27142322063446045,-1.5314620176898401,-0.0,-0.015366542153060436,0.08327071368694305,-0.0,0.003658140543848276,1.0746126174926758,0.0,0.008187114261090755
198.0,212.0,-0.8387,-0.1155,9.4427,-0.0418,0.0203,-0.1083,-2.045180936852926,0.0,3.9601259231567383,-1.5111697912216187,-0.0,2.0576767921447754,5.104699599533834,0.0,0.271240234375,-1.5314658323871058,-0.0,-0.018545472994446754,0.08334294706583023,-0.0,-0.002926148707047105,1.0746288299560547,0.0,0.008491639979183674
202.0,213.0,-0.8411,-0.0843,9.5043,-0.0368,0.0305,-0.1179,-2.045173307458395,0.0,3.9987330436706543,-1.5111171007156372,-0.0,2.073272943496704,5.104639041214742,0.0,0.263496458530426,-1.5314181486712855,-0.0,-0.010147122666239738,0.08333062380552292,-0.0,-0.006222117226570845,1.0746126174926758,0.0,0.024876326322555542
202.0,213.0,-0.8411,-0.0843,9.5043,-0.0368,0.0305,-0.1179,-2.0452095470824183,0.0,3.9619839191436768,-1.5111500024795532,-0.0,2.0176491737365723,5.104723441391744,0.0,0.26424145698547363,-1.5314658323871058,-0.0,-0.010933630168437958,0.08327066153287888,-0.0,-0.008341032080352306,1.07462477684021,0.0,0.024069081991910934
202.0,213.0,-0.8411,-0.0843,9.5043,-0.0368,0.0305,-0.1179,-2.0452052555479945,0.0,3.977959394454956,-1.5110572576522827,-0.0,2.031118154525757,5.104667264014044,0.0,0.26737746596336365,-1.5314376989947718,-0.0,-0.013293550349771976,0.08330269157886505,-0.0,0.01523872371762991,1.0746289491653442,0.0,-0.01217028871178627
202.0,213.0,-0.8411,-0.0843,9.5043,-0.0368,0.0305,-0.1179,-2.04518522838735,0.0,3.980445146560669,-1.5111253261566162,-0.0,2.0411720275878906,5.104747581272878,0.0,0.27791136503219604,-1.5314696470843714,-0.0,-0.013366511091589928,0.08328234404325485,-0.0,0.007582699414342642,1.074616551399231,0.0,-0.02137780375778675
202.0,213.0,-0.8411,-0.0843,9.5043,-0.0368,0.0305,-0.1179,-2.045201440850729,0.0,3.959024429321289,-1.5111615657806396,-0.0,2.029676675796509,5.10475172379569,0.0,0.2663021385669708,-1.5314539114581507,-0.0,-0.01463201642036438,0.08331869542598724,-0.0,0.0005178668070584536,1.0746328830718994,0.0,0.04391711950302124
202.0,213.0,-0.8411,-0.0843,9.5043,-0.0368,0.0305,-0.1179,-2.045140882531637,0.0,3.9683642387390137,-1.5111697912216187,-0.0,2.0290539264678955,5.104747581272878,0.0,0.26723164319992065,-1.5314815680133265,-0.0,-0.005464895162731409,0.08331463485956192,-0.0,-0.004987135995179415,1.0746289491653442,0.0,0.014523986726999283
202.0,213.0,-0.8411,-0.0843,9.5043,-0.0368,0.0305,-0.1179,-2.045169015923971,0.0,3.9904263019561768,-1.51112961769104,-0.0,2.0565717220306396,5.1047357497508905,0.0,0.26222994923591614,-1.5314858595477503,-0.0,-0.015326771885156631,0.08335070312023163,-0.0,-0.011826615780591965,1.0746124982833862,0.0,-0.016246674582362175
202.0,213.0,-0.8411,-0.0843,9.5043,-0.0368,0.0305,-0.1179,-2.045189519921774,0.0,3.9505012035369873,-1.5111171007156372,-0.0,2.0107944011688232,5.104683238058843,0.0,0.26781561970710754,-1.5315101782428187,-0.0,-0.015722712501883507,0.08327475190162659,-0.0,0.0041013676673173904,1.0746126174926758,0.0,-0.007610664702951908
202.0,213.0,-0.8411,-0.0843,9.5043,-0.0368,0.0305,-0.1179,-2.0451775989928187,0.0,3.9508206844329834,-1.5111780166625977,-0.0,2.0113697052001953,5.1046874401863,0.0,0.2724781036376953,-1.5314777533160608,-0.0,-0.020236585289239883,0.08326663821935654,-0.0,-0.0023454101756215096,1.07462477684021,0.0,0.02399652637541294
202.0,213.0,-0.8411,-0.0843,9.5043,-0.0368,0.0305,-0.1179,-2.0451532802977503,0.0,4.017856121063232,-1.5111016035079956,-0.0,1.9930219650268555,5.104695606022634,0.0,0.270305335521698,-1.5314977804767054,-0.0,-0.007093590684235096,0.08330678939819336,-0.0,-0.0021044528111815453,1.0746288299560547,0.0,0.014429912902414799
202.0,213.0,-0.8411,-0.0843,9.5043,-0.0368,0.0305,-0.1179,-2.045189519921774,0.0,3.9967048168182373,-1.511149287223816,-0.0,2.0477373600006104,5.104679602175512,0.0,0.2681148946285248,-1.5314777533160608,-0.0,-0.01590227335691452,0.08337894827127457,-0.0,0.0073216636665165424,1.0745842456817627,0.0,-0.004021475091576576
202.0,213.0,-0.8411,-0.0843,9.5043,-0.0368,0.0305,-0.1179,-2.0451771221556605,0.0,3.9902565479278564,-1.5111697912216187,-0.0,2.012557029724121,5.104679602175512,0.0,0.27710598707199097,-1.5314777533160608,-0.0,-0.0037219098303467035,0.083326555788517,-0.0,-0.005717923864722252,1.0746042728424072,0.0,-0.0017955191433429718
202.0,213.0,-0.8411,-0.0843,9.5043,-0.0368,0.0305,-0.1179,-2.0452052555479945,0.0,3.993368625640869,-1.5111130475997925,-0.0,1.9886001348495483,5.104707824974813,0.0,0.2600541114807129,-1.5314658323871058,-0.0,-0.007603464648127556,0.08331902325153351,-0.0,-0.006116560194641352,1.0745805501937866,0.0,-0.058030419051647186
196.0,211.0,-0.8381,-0.0891,9.5874,-0.0385,0.0273,-0.1142,-2.045213361779684,0.0,3.976165294647217,-1.5111615657806396,-0.0,2.0146164894104004,5.104667293816366,0.0,0.26672080159187317,-1.5314658323871058,-0.0,-0.022364100441336632,0.08331095427274704,-0.0,-0.00546167092397809,1.0746042728424072,0.0,0.006567526608705521
196.0,211.0,-0.8381,-0.0891,9.5874,-0.0385,0.0273,-0.1142,-2.045197149316305,0.0,3.9730076789855957,-1.5111130475997925,-0.0,2.0047550201416016,5.104683267861166,0.0,0.27217257022857666,-1.5314338842975062,-0.0,-0.017404600977897644,0.0833105742931366,-0.0,-0.011618640273809433,1.0745478868484497,0.0,0.009834530763328075
196.0,211.0,-0.8381,-0.0891,9.5874,-0.0385,0.0273,-0.1142,-2.0452052555479945,0.0,3.9627902507781982,-1.5111016035079956,-0.0,2.0723929405212402,5.104739892273702,0.0,0.2734677195549011,-1.5314300696002405,-0.0,-0.01761270873248577,0.08328231424093246,-0.0,0.004308030474931002,1.0746084451675415,0.0,0.030600130558013916
196.0,211.0,-0.8381,-0.0891,9.5874,-0.0385,0.0273,-0.1142,-2.045201440850729,0.0,3.990682601928711,-1.5111455917358398,-0.0,2.0504961013793945,5.104723828821935,0.0,0.2633501887321472,-1.5315216223346155,-0.0,-0.0037159398198127747,0.08331466466188431,-0.0,-0.010699768550693989,1.0746570825576782,0.0,0.03118101693689823
196.0,211.0,-0.8381,-0.0891,9.5874,-0.0385,0.0273,-0.1142,-2.045201440850729,0.0,3.987452745437622,-1.5111538171768188,-0.0,1.9971668720245361,5.104739892273702,0.0,0.25928133726119995,-1.5314181486712855,-0.0,-0.02103608474135399,0.083342544734478,-0.0,-0.0020039728842675686,1.0746533870697021,0.0,0.007640168536454439
196.0,211.0,-0.8381,-0.0891,9.5874,-0.0385,0.0273,-0.1142,-2.045189519921774,0.0,3.977418899536133,-1.5111496448516846,-0.0,2.004117488861084,5.1047037718589685,0.0,0.2774764597415924,-1.5314858595477503,-0.0,-0.01696876809000969,0.08332695066928864,-0.0,0.011385892517864704,1.0746452808380127,0.0,0.006370205897837877
196.0,211.0,-0.8381,-0.0891,9.5874,-0.0385,0.0273,-0.1142,-2.045173307458395,0.0,3.975865602493286,-1.5111697912216187,-0.0,2.0189876556396484,5.104691523104467,0.0,0.266835480928421,-1.5314658323871058,-0.0,-0.009744079783558846,0.08330271393060684,-0.0,0.009357836097478867,1.0746126174926758,0.0,-0.0005662788171321154
196.0,211.0,-0.8381,-0.0891,9.5874,-0.0385,0.0273,-0.1142,-2.0452052555479945,0.0,3.970122814178467,-1.5111615657806396,-0.0,1.9866113662719727,5.10472788193778,0.0,0.27236437797546387,-1.5314257780658167,-0.0,-0.008730806410312653,0.08325870335102081,-0.0,0.002580505795776844,1.0746166706085205,0.0,0.02397901937365532
196.0,211.0,-0.8381,-0.0891,9.5874,-0.0385,0.0273,-0.1142,-2.045197149316305,0.0,4.009649276733398,-1.5111455917358398,-0.0,2.0407607555389404,5.1047037718589685,0.0,0.2677956521511078,-1.5314620176898401,-0.0,-0.021238822489976883,0.08337535709142685,-0.0,-0.0067640747874975204,1.0746206045150757,0.0,0.013762707822024822
196.0,211.0,-0.8381,-0.0891,9.5874,-0.0385,0.0273,-0.1142,-2.0451489887633265,0.0,3.9851479530334473,-1.5111533403396606,-0.0,2.061034679412842,5.1047518132026575,0.0,0.25900742411613464,-1.5315101782428187,-0.0,-0.010719090700149536,0.08331871032714844,-0.0,0.007149179931730032,1.0746289491653442,0.0,-0.001501685124821961
196.0,211.0,-0.8381,-0.0891,9.5874,-0.0385,0.0273,-0.1142,-2.0452171764769496,0.0,3.974442958831787,-1.511137843132019,-0.0,2.0202245712280273,5.10471190789298,0.0,0.25882914662361145,-1.5314696470843714,-0.0,-0.02758653461933136,0.08331871032714844,-0.0,-0.003684620838612318,1.0746690034866333,0.0,0.020450524985790253
196.0,211.0,-0.8381,-0.0891,9.5874,-0.0385,0.0273,-0.1142,-2.0451771221556605,0.0,3.980947971343994,-1.5111336708068848,-0.0,2.045403480529785,5.104739832669058,0.0,0.2745724022388458,-1.5314977804767054,-0.0,-0.015001638792455196,0.08329863101243973,-0.0,-0.01388908363878727,1.0746411085128784,0.0,0.004567106254398823
196.0,211.0,-0.8381,-0.0891,9.5874,-0.0385,0.0273,-0.1142,-2.045201440850729,0.0,3.9832940101623535,-1.51112961769104,-0.0,2.024486541748047,5.104691523104467,0.0,0.2627931833267212,-1.5314977804767054,-0.0,-0.016255918890237808,0.08331463485956192,-0.0,-0.013990083709359169,1.0746206045150757,0.0,-0.037167664617300034
196.0,211.0,-0.8381,-0.0891,9.5874,-0.0385,0.0273,-0.1142,-2.045189519921774,0.0,3.968733310699463,-1.511157512664795,-0.0,1.9836409091949463,5.1047037718589685,0.0,0.26744478940963745,-1.5314858595477503,-0.0,-0.018108800053596497,0.08329865336418152,-0.0,-0.001609808998182416,1.0746488571166992,0.0,-0.00854797475039959
197.0,216.0,-0.9428,-0.2028,9.6814,-0.0405,0.0191,-0.1121,-2.0451814136900843,0.0,3.992704391479492,-1.511137843132019,-0.0,2.035184621810913,5.104691523104467,0.0,0.26973721385002136,-1.53143817583193,-0.0,-0.013042494654655457,0.08333064615726471,-0.0,-0.001932426355779171,1.0746126174926758,0.0,-0.0197977926582098
197.0,216.0,-0.9428,-0.2028,9.6814,-0.0405,0.0191,-0.1121,-2.045173307458395,0.0,3.9405252933502197,-1.5111697912216187,-0.0,2.0185763835906982,5.104683297663488,0.0,0.27290400862693787,-1.531518284474508,-0.0,-0.017756998538970947,0.0833149403333664,-0.0,0.002377765718847513,1.0746452808380127,0.0,-0.042834289371967316
197.0,216.0,-0.9428,-0.2028,9.6814,-0.0405,0.0191,-0.1121,-2.045213361779684,0.0,3.96016263961792,-1.511129379272461,-0.0,2.043091058731079,5.104727554112234,0.0,0.2665266990661621,-1.5314815680133265,-0.0,-0.005192001350224018,0.08333472907543182,-0.0,-0.0047063035890460014,1.0746207237243652,0.0,0.0038781098555773497
197.0,216.0,-0.9428,-0.2028,9.6814,-0.0405,0.0191,-0.1121,-2.045173307458395,0.0,3.9917984008789062,-1.5110975503921509,-0.0,2.028447151184082,5.104723828821935,0.0,0.2795170545578003,-1.5314458052264612,-0.0,-0.014090253040194511,0.08326295763254166,-0.0,0.0020563157740980387,1.0745806694030762,0.0,0.014687435701489449
197.0,216.0,-0.9428,-0.2028,9.6814,-0.0405,0.0191,-0.1121,-2.0452214680113734,0.0,4.002161979675293,-1.5111496448516846,-0.0,2.0010342597961426,5.104679184942999,0.0,0.26705461740493774,-1.5314934889422815,-0.0,-0.03014349192380905,0.08329863846302032,-0.0,0.002334920223802328,1.074616551399231,0.0,0.004374613985419273
197.0,216.0,-0.9428,-0.2028,9.6814,-0.0405,0.0191,-0.1121,-2.045197149316305,0.0,3.9676084518432617,-1.511137843132019,-0.0,2.023534059524536,5.104711550265112,0.0,0.2654430568218231,-1.5314658323871058,-0.0,-0.007668076083064079,0.08332657814025879,-0.0,-0.0005688623059540987,1.0746411085128784,0.0,0.005616249516606331
197.0,216.0,-0.9428,-0.2028,9.6814,-0.0405,0.0191,-0.1121,-2.045133253137106,0.0,4.012694358825684,-1.511182188987732,-0.0,1.9779539108276367,5.1047357497508905,0.0,0.26842519640922546,-1.5314977804767054,-0.0,-0.02598796971142292,0.08332278579473495,-0.0,-0.005157854408025742,1.0746452808380127,0.0,-0.030431926250457764
197.0,216.0,-0.9428,-0.2028,9.6814,-0.0405,0.0191,-0.1121,-2.045192857781881,0.0,4.001845359802246,-1.5110934972763062,-0.0,2.006166934967041,5.104675489455023,0.0,0.26189273595809937,-1.5314815680133265,-0.0,-0.022505171597003937,0.08330272138118744,-0.0,-0.01703600585460663,1.0746166706085205,0.0,0.023402124643325806
197.0,216.0,-0.9428,-0.2028,9.6814,-0.0405,0.0191,-0.1121,-2.0452333889403285,0.0,4.004136562347412,-1.51112961769104,-0.0,2.0164906978607178,5.104671436339178,0.0,0.27792009711265564,-1.5314577261554163,-0.0,-0.014838548377156258,0.08331094682216644,-0.0,0.0008670937968418002,1.0746042728424072,0.0,0.000952166854403913
197.0,216.0,-0.9428,-0.2028,9.6814,-0.0405,0.0191,-0.1121,-2.04518522838735,0.0,3.956709861755371,-1.5111538171768188,-0.0,2.0325613021850586,5.104715633183279,0.0,0.2671791911125183,-1.5314739386187952,-0.0,-0.011914368718862534,0.08331871032714844,-0.0,0.0018898984417319298,1.0746653079986572,0.0,0.0040803165175020695
197.0,216.0,-0.9428,-0.2028,9.6814,-0.0405,0.0191,-0.1121,-2.0452171764769496,0.0,3.957395553588867,-1.5110975503921509,-0.0,2.017503261566162,5.104723858624258,0.0,0.26507940888404846,-1.5314977804767054,-0.0,-0.02658657543361187,0.08328639715909958,-0.0,0.010656819678843021,1.07462477684021,0.0,0.026588281616568565
197.0,216.0,-0.9428,-0.2028,9.6814,-0.0405,0.0191,-0.1121,-2.045145174066061,0.0,3.9840312004089355,-1.5111253261566162,-0.0,2.0413706302642822,5.1046874401863,0.0,0.2694140076637268,-1.5314696470843714,-0.0,-0.018424171954393387,0.08328698575496674,-0.0,-0.007928336039185524,1.0746452808380127,0.0,0.019795289263129234
197.0,216.0,-0.9428,-0.2028,9.6814,-0.0405,0.0191,-0.1121,-2.0452052555479945,0.0,3.951524496078491,-1.5111336708068848,-0.0,2.0259604454040527,5.104663151293554,0.0,0.25500690937042236,-1.5314419905291956,-0.0,-0.00698385713621974,0.08334287256002426,-0.0,-0.011065390892326832,1.0746002197265625,0.0,0.003993432968854904
197.0,216.0,-0.9428,-0.2028,9.6814,-0.0405,0.0191,-0.1121,-2.045173307458395,0.0,3.978268623352051,-1.5111373662948608,-0.0,2.0372519493103027,5.104695606022634,0.0,0.2607603371143341,-1.53143817583193,-0.0,-0.00871806126087904,0.0833105593919754,-0.0,-0.0003622892836574465,1.0746369361877441,0.0,0.01003864873200655
202.0,216.0,-0.9637,-0.2716,9.8877,-0.0278,0.0179,-0.1075,-2.045192857781881,0.0,4.006861209869385,-1.5111455917358398,-0.0,2.0349204540252686,5.104691463499822,0.0,0.2685006856918335,-1.5314458052264612,-0.0,-0.023550717160105705,0.08330272138118744,-0.0,-0.0026183719746768475,1.074616551399231,0.0,0.031499188393354416
202.0,216.0,-0.9637,-0.2716,9.8877,-0.0278,0.0179,-0.1075,-2.045189519921774,0.0,3.986156940460205,-1.5111496448516846,-0.0,2.0155351161956787,5.1046955464179895,0.0,0.26712673902511597,-1.5314977804767054,-0.0,-0.012276066467165947,0.08331098407506943,-0.0,-0.00990710873156786,1.0746488571166992,0.0,0.020758720114827156
202.0,216.0,-0.9637,-0.2716,9.8877,-0.0278,0.0179,-0.1075,-2.0451933346190394,0.0,4.020212650299072,-1.5111048221588135,-0.0,1.9880019426345825,5.1046955464179895,0.0,0.28390413522720337,-1.5314858595477503,-0.0,-0.020422687754034996,0.0833309218287468,-0.0,-0.012351654469966888,1.0746607780456543,0.0,0.01201957743614912
202.0,216.0,-0.9637,-0.2716,9.8877,-0.0278,0.0179,-0.1075,-2.045180936852926,0.0,3.999703884124756,-1.5111976861953735,-0.0,1.9990960359573364,5.104747700482168,0.0,0.25559940934181213,-1.5314658323871058,-0.0,-0.016155710443854332,0.08335478603839874,-0.0,0.0009572573471814394,1.074652910232544,0.0,-0.00916548352688551
202.0,216.0,-0.9637,-0.2716,9.8877,-0.0278,0.0179,-0.1075,-2.0452214680113734,0.0,3.992701530456543,-1.511129379272461,-0.0,2.0310168266296387,5.104679184942999,0.0,0.2695423364639282,-1.5314620176898401,-0.0,-0.005610023159533739,0.08331462740898132,-0.0,-0.012235560454428196,1.0746369361877441,0.0,-0.013135241344571114
202.0,216.0,-0.9637,-0.2716,9.8877,-0.0278,0.0179,-0.1075,-2.04518522838735,0.0,3.972165107727051,-1.5111212730407715,-0.0,1.986781120300293,5.104699599533834,0.0,0.2845781147480011,-1.5314696470843714,-0.0,-0.023019269108772278,0.08331461995840073,-0.0,-0.0008670242968946695,1.0746772289276123,0.0,0.009160425513982773
202.0,216.0,-0.9637,-0.2716,9.8877,-0.0278,0.0179,-0.1075,-2.045180936852926,0.0,3.938286304473877,-1.5111538171768188,-0.0,1.9918274879455566,5.10465498545722,0.0,0.2807852327823639,-1.5314539114581507,-0.0,-0.012055606581270695,0.08332280814647675,-0.0,-0.010450968518853188,1.0746289491653442,0.0,0.06116442754864693
202.0,216.0,-0.9637,-0.2716,9.8877,-0.0278,0.0179,-0.1075,-2.045173307458395,0.0,3.9675192832946777,-1.5111615657806396,-0.0,1.9993810653686523,5.10471602061347,0.0,0.2657569646835327,-1.5314815680133265,-0.0,-0.0009116074070334435,0.08326251059770584,-0.0,-0.0033082650043070316,1.074652910232544,0.0,-0.003082054201513529
202.0,216.0,-0.9637,-0.2716,9.8877,-0.0278,0.0179,-0.1075,-2.045189519921774,0.0,3.9628357887268066,-1.5111496448516846,-0.0,2.0089759826660156,5.104711550265112,0.0,0.27711182832717896,-1.531421963368551,-0.0,-0.01787467673420906,0.08327895402908325,-0.0,0.0024293800815939903,1.0746206045150757,0.0,0.016466151922941208
202.0,216.0,-0.9637,-0.2716,9.8877,-0.0278,0.0179,-0.1075,-2.0452095470824183,0.0,3.9929776191711426,-1.511129379272461,-0.0,1.9916329383850098,5.1046874401863,0.0,0.2695175111293793,-1.5314658323871058,-0.0,-0.012568596750497818,0.08335070312023163,-0.0,-0.008283780887722969,1.0746126174926758,0.0,0.03273353353142738
202.0,216.0,-0.9637,-0.2716,9.8877,-0.0278,0.0179,-0.1075,-2.0452171764769496,0.0,3.952732563018799,-1.5111171007156372,-0.0,2.021238327026367,5.104695606022634,0.0,0.2812999188899994,-1.5315220991717737,-0.0,-0.013961674645543098,0.08331871032714844,-0.0,-0.004050954710692167,1.0746328830718994,0.0,-0.009771281853318214
202.0,216.0,-0.9637,-0.2716,9.8877,-0.0278,0.0179,-0.1075,-2.045192857781881,0.0,3.986298084259033,-1.5110654830932617,-0.0,1.9954874515533447,5.104667234211721,0.0,0.26168933510780334,-1.5314338842975062,-0.0,-0.007351530250161886,0.08328639715909958,-0.0,-0.005097807385027409,1.074596643447876,0.0,0.0036964090541005135
202.0,216.0,-0.9637,-0.2716,9.8877,-0.0278,0.0179,-0.1075,-2.045173307458395,0.0,3.9605352878570557,-1.5111212730407715,-0.0,1.9841880798339844,5.104651230364599,0.0,0.279079794883728,-1.5314977804767054,-0.0,-0.004296827130019665,0.083371102809906,-0.0,0.011967289261519909,1.074693202972412,0.0,0.028303470462560654
202.0,216.0,-0.9637,-0.2716,9.8877,-0.0278,0.0179,-0.1075,-2.0451933346190394,0.0,3.989309549331665,-1.5111171007156372,-0.0,1.9955518245697021,5.104715573578634,0.0,0.26740479469299316,-1.531450096760885,-0.0,-0.01558846514672041,0.08333063125610352,-0.0,0.0010586029384285212,1.0746126174926758,0.0,0.007133164443075657
202.0,214.0,-0.7394,-0.1095,9.3924,-0.0386,0.0261,-0.1182,-2.045201440850729,0.0,4.02846622467041,-1.5111538171768188,-0.0,2.024568796157837,5.104707854777136,0.0,0.2728443741798401,-1.5314696470843714,-0.0,-0.016835276037454605,0.08330271393060684,-0.0,0.005476795136928558,1.074664831161499,0.0,0.008248871192336082
202.0,214.0,-0.7394,-0.1095,9.3924,-0.0386,0.0261,-0.1182,-2.0451652012267054,0.0,3.972890853881836,-1.5112018585205078,-0.0,2.0242679119110107,5.1046631810958765,0.0,0.2671905755996704,-1.5315058867083948,-0.0,-0.014829570427536964,0.08327894657850266,-0.0,0.008878020569682121,1.0746809244155884,0.0,-0.006301631219685078
202.0,214.0,-0.7394,-0.1095,9.3924,-0.0386,0.0261,-0.1182,-2.045201440850729,0.0,3.979975700378418,-1.5111089944839478,-0.0,2.0485973358154297,5.104699629336157,0.0,0.28378424048423767,-1.5315373579608362,-0.0,-0.010479241609573364,0.08332278579473495,-0.0,-0.0012377456296235323,1.0746328830718994,0.0,-0.030859552323818207
202.0,214.0,-0.7394,-0.1095,9.3924,-0.0386,0.0261,-0.1182,-2.045197149316305,0.0,3.938626289367676,-1.5111255645751953,-0.0,2.0297865867614746,5.104687410383978,0.0,0.2617015242576599,-1.5314658323871058,-0.0,-0.020955383777618408,0.08330680429935455,-0.0,0.004386754706501961,1.0746328830718994,0.0,0.02020956203341484
202.0,214.0,-0.7394,-0.1095,9.3924,-0.0386,0.0261,-0.1182,-2.0451771221556605,0.0,3.994015693664551,-1.5111336708068848,-0.0,2.048987865447998,5.1046714065368555,0.0,0.27416616678237915,-1.5314934889422815,-0.0,-0.003147144801914692,0.08326662331819534,-0.0,-0.009166260249912739,1.0746452808380127,0.0,-0.010563421063125134
202.0,214.0,-0.7394,-0.1095,9.3924,-0.0386,0.0261,-0.1182,-2.045180936852926,0.0,4.007855415344238,-1.5111415386199951,-0.0,2.021419048309326,5.104659068375387,0.0,0.2641909718513489,-1.531450096760885,-0.0,-0.026346266269683838,0.08331871032714844,-0.0,0.0014289396349340677,1.0746328830718994,0.0,0.013505908660590649
202.0,214.0,-0.7394,-0.1095,9.3924,-0.0386,0.0261,-0.1182,-2.0451370678343714,0.0,3.977673053741455,-1.5111336708068848,-0.0,2.0603702068328857,5.1046714065368555,0.0,0.2644256055355072,-1.5314458052264612,-0.0,-0.01619831472635269,0.08331494778394699,-0.0,-0.0024443422444164753,1.0745924711227417,0.0,-0.011853626929223537
202.0,214.0,-0.7394,-0.1095,9.3924,-0.0386,0.0261,-0.1182,-2.0451251469054164,0.0,4.000206470489502,-1.5111171007156372,-0.0,2.0183680057525635,5.104711967497625,0.0,0.2561882734298706,-1.5314658323871058,-0.0,-0.009509134106338024,0.0833309218287468,-0.0,-0.007886899635195732,1.074652910232544,0.0,-0.048427678644657135
202.0,214.0,-0.7394,-0.1095,9.3924,-0.0386,0.0261,-0.1182,-2.0451532802977503,0.0,4.005671501159668,-1.5110769271850586,-0.0,2.0446906089782715,5.1046714065368555,0.0,0.2794996500015259,-1.5314815680133265,-0.0,-0.0172087661921978,0.08330271393060684,-0.0,0.003477802500128746,1.074652910232544,0.0,-0.0055583142675459385
202.0,214.0,-0.7394,-0.1095,9.3924,-0.0386,0.0261,-0.1182,-2.045213361779684,0.0,3.989171266555786,-1.5111336708068848,-0.0,2.0480399131774902,5.104699718743124,0.0,0.26584553718566895,-1.5314620176898401,-0.0,-0.01836381107568741,0.08325088024139404,-0.0,-0.0055763390846550465,1.0746084451675415,-4.2784620291058673e-10,-0.0062116337940096855
202.0,214.0,-0.7394,-0.1095,9.3924,-0.0386,0.0261,-0.1182,-2.045197149316305,0.0,4.024860858917236,-1.5111579895019531,-0.0,2.0121612548828125,5.104695457011022,0.0,0.26685675978660583,-1.5314620176898401,-0.0,-0.017845137044787407,0.08328231424093246,-0.0,0.015619087964296341,1.0746288299560547,-1.0331982953248236e-15,0.03267554193735123
202.0,214.0,-0.7394,-0.1095,9.3924,-0.0386,0.0261,-0.1182,-2.0452214680113734,0.0,3.9957804679870605,-1.5111253261566162,-0.0,2.071920156478882,5.104699629336157,0.0,0.26716551184654236,-1.5314658323871058,-0.0,-0.015510240569710732,0.08333878219127655,-0.0,0.0012004305608570576,1.0746690034866333,-2.4950525889630436e-21,-0.05601067841053009
202.0,214.0,-0.7394,-0.1095,9.3924,-0.0386,0.0261,-0.1182,-2.04518522838735,0.0,3.9340672492980957,-1.5111579895019531,-0.0,1.9798762798309326,5.104699629336157,0.0,0.27265724539756775,-1.5314777533160608,-0.0,-0.01558641716837883,0.08331871032714844,-0.0,0.004658821504563093,1.0746726989746094,0.0016528666019439697,-0.0019018332241103053
198.0,215.0,-1.1408,-0.3159,9.9194,-0.0374,0.0197,-0.1051,-2.0452009640135707,0.0,3.974942207336426,-1.5110851526260376,-0.0,2.0024313926696777,5.104723471194067,1.3580048197070482e-08,0.2593522071838379,-1.5314577261554163,-0.0,-0.006611131597310305,0.0833306536078453,-0.0,0.0049818153493106365,1.0746725797653198,0.003042777068912983,0.05230773240327835
198.0,215.0,-1.1408,-0.3159,9.9194,-0.0374,0.0197,-0.1051,-2.0451976261534632,0.0,3.9773812294006348,-1.5111500024795532,-0.0,1.9873089790344238,5.1047595022018335,3.7800556955402964e-12,0.27299705147743225,-1.5314739386187952,-0.0,-0.008091548457741737,0.08335894346237183,-0.0,-2.251937985420227e-06,1.0747648477554321,0.005628310143947601,-0.0274363923817873
198.0,215.0,-1.1408,-0.3159,9.9194,-0.0374,0.0197,-0.1051,-2.0452052555479945,0.0,3.9458532333374023,-1.5111212730407715,-0.0,2.0321757793426514,5.104699599533834,1.0521923738922908e-15,0.2607755661010742,-1.5314539114581507,-0.0,-0.012179928831756115,0.0833466425538063,-0.0,-0.007676935754716396,1.0748045444488525,0.008394659496843815,0.04798594117164612
198.0,215.0,-1.1408,-0.3159,9.9194,-0.0374,0.0197,-0.1051,-2.045201440850729,0.0,3.9877374172210693,-1.5110859870910645,-0.0,2.1099460124969482,5.1047275243099115,1.9123076440492003e-20,0.261735200881958,-1.5314539114581507,-0.0,-0.01488472893834114,0.08326256275177002,-0.0,-0.005254021845757961,1.0748485326766968,0.008137693628668785,0.03485048562288284
198.0,215.0,-1.1408,-0.3159,9.9194,-0.0374,0.0197,-0.1051,-2.045197149316305,0.0,3.971702814102173,-1.5111057758331299,-0.0,1.978996992111206,5.104663210898199,5.322978586359001e-24,0.26594892144203186,-1.5314777533160608,-0.0,-0.00924618635326624,0.08331093192100525,-0.0,0.0059328870847821236,1.0749448537826538,0.00599604332819581,-0.010587991215288639
198.0,215.0,-1.1408,-0.3159,9.9194,-0.0374,0.0197,-0.1051,-2.045196672479147,0.0,3.984004020690918,-1.5111541748046875,-0.0,2.043182849884033,5.104719745903768,1.4816706766975768e-27,0.27302882075309753,-1.5314858595477503,-0.0,-0.022700447589159012,0.08330269157886505,-0.0,0.004691048990935087,1.0749406814575195,0.004139433614909649,0.027777915820479393
198.0,215.0,-1.1408,-0.3159,9.9194,-0.0374,0.0197,-0.1051,-2.0452329121031703,0.0,3.986166477203369,-1.5110851526260376,-0.0,2.03177547454834,5.1046594856079,4.1242844661594595e-31,0.2649577856063843,-1.5314777533160608,-0.0,-0.010111493989825249,0.08336297422647476,-0.0,0.0006139561301097274,1.074944257736206,0.002805119613185525,-0.027723954990506172
198.0,215.0,-1.1408,-0.3159,9.9194,-0.0374,0.0197,-0.1051,-2.045265337029928,-0.0005210840608924627,3.9864628314971924,-1.5111459493637085,-0.0,2.011399030685425,5.104655432492056,7.495683507966989e-36,0.2665708065032959,-1.5314977804767054,-0.0,-0.011178418062627316,0.08332278579473495,-0.0,-0.004683779552578926,1.0749608278274536,0.0015886644832789898,0.01412513293325901
198.0,215.0,-1.1408,-0.3159,9.9194,-0.0374,0.0197,-0.1051,-2.0452734432616175,-0.00046410152572207153,3.968017578125,-1.5111254453659058,3.771325196577635e-10,2.0022788047790527,5.104671436339178,2.0864507367702575e-39,0.25208795070648193,-1.5315020720111292,-0.0,-0.01645967736840248,0.08334694057703018,-0.0,-0.0036046598106622696,1.074960708618164,0.0009831141214817762,0.03560319170355797
198.0,215.0,-1.1408,-0.3159,9.9194,-0.0374,0.0197,-0.1051,-2.045252939263815,-0.00036894745426252484,3.96616268157959,-1.5111620426177979,9.107305660416526e-16,2.02813458442688,5.104659902840414,5.801375642304743e-43,0.27268365025520325,-1.5314977804767054,-0.0,-0.0017936513759195805,0.0832904726266861,-0.0,0.00026290820096619427,1.0749526023864746,0.000712071021553129,-0.01361001469194889
198.0,215.0,-1.1408,-0.3159,9.9194,-0.0374,0.0197,-0.1051,-2.045249124566549,-0.0003061791358049959,3.9666848182678223,-1.5111048221588135,2.1993068433037096e-21,2.0127406120300293,5.104647207051077,0.0,0.2694801390171051,-1.531489674245016,-0.0,-0.012544475495815277,0.08328231424093246,-0.0,0.019263416528701782,1.0749726295471191,0.0004252648213878274,0.06643000990152359
198.0,215.0,-1.1408,-0.3159,9.9194,-0.0374,0.0197,-0.1051,-2.04520907024526,-0.00020799916819669306,3.9985640048980713,-1.511137843132019,7.125474959927474e-29,1.9811620712280273,5.104683267861166,0.0,0.27191323041915894,-1.5314458052264612,-0.0,-0.0071067227981984615,0.08335477113723755,-0.0,-0.0008415366755798459,1.0748845338821411,0.000185206881724298,0.060235388576984406
198.0,215.0,-1.1408,-0.3159,9.9194,-0.0374,0.0197,-0.1051,-2.045225282708639,-0.00018264930986333638,3.9862821102142334,-1.5111496448516846,1.7207183624755456e-34,2.0150089263916016,5.104675519257345,0.0,0.27534812688827515,-1.531450096760885,-0.0,-0.010993747040629387,0.08335072547197342,-0.0,0.006859699264168739,1.0749529600143433,-0.0002533135120756924,-0.003201119601726532
198.0,215.0,-1.1408,-0.3159,9.9194,-0.0374,0.0197,-0.1051,-2.0452047787108363,-0.0001628219470148906,3.9853763580322266,-1.5111171007156372,4.155326388200953e-40,2.048762798309326,5.104719805508413,0.0,0.2713501751422882,-1.5314458052264612,-0.0,-0.006223827600479126,0.08334296196699142,-0.0,-0.010014723986387253,1.0749447345733643,-0.0011748982360586524,-0.008952020667493343
202.0,212.0,-1.1677,0.1244,9.8698,-0.0166,0.0409,-0.1151,-2.0452009640135707,-0.00014687828661408275,3.9987473487854004,-1.5111336708068848,1.401298464324817e-45,1.969731330871582,5.104727971344747,0.0,0.2677111029624939,-1.5314777533160608,-0.0,-0.01983405277132988,0.08330680429935455,-0.0,0.006589625962078571,1.0749210119247437,-0.0014918942470103502,-0.032095301896333694
202.0,212.0,-1.1677,0.1244,9.8698,-0.0166,0.0409,-0.1151,-2.0452290974059046,-0.00012991628318559378,3.983142852783203,-1.5111418962478638,-0.0,1.973299503326416,5.104655402689733,0.0,0.26250314712524414,-1.5314739386187952,-0.0,-0.010712086223065853,0.0833466649055481,-0.0,-0.009392117150127888,1.0748845338821411,-0.001091343816369772,-0.054997920989990234
202.0,212.0,-1.1677,0.1244,9.8698,-0.0166,0.0409,-0.1151,-2.0451890430846156,-0.00011956098751397803,3.9841971397399902,-1.5111336708068848,-0.0,1.9661945104599,5.104679602175512,0.0,0.2725162208080292,-1.5314858595477503,-0.0,-0.01186700351536274,0.08327823877334595,-0.0,-0.009217914193868637,1.0748732089996338,-0.00098998355679214,0.01916128396987915
202.0,212.0,-1.1677,0.1244,9.8698,-0.0166,0.0409,-0.1151,-2.0452290974059046,-0.00011073441419284791,3.981832981109619,-1.5111863613128662,-0.0,1.9804177284240723,5.104651647597112,0.0,0.2658032476902008,-1.5314815680133265,-0.0,-0.011792590841650963,0.08331500738859177,-0.0,-0.002337136073037982,1.0749255418777466,-0.0010205477010458708,-0.032830435782670975
202.0,212.0,-1.1677,0.1244,9.8698,-0.0166,0.0409,-0.1151,-2.045225282708639,-0.0001031217398121953,3.9688234329223633,-1.51112961769104,-0.0,1.981552004814148,5.104671436339178,0.0,0.2550066113471985,-1.531489674245016,-0.0,-0.005625498481094837,0.08333064615726471,-0.0,-0.011804373934864998,1.0748485326766968,-0.0010510054416954517,0.018149010837078094
202.0,212.0,-1.1677,0.1244,9.8698,-0.0166,0.0409,-0.1151,-2.045208593408102,-9.446301555726677e-05,3.9882712364196777,-1.5111057758331299,-0.0,2.0288379192352295,5.104707824974813,0.0,0.27565598487854004,-1.5314934889422815,-0.0,-0.020187366753816605,0.08333088457584381,-0.0,-0.005562589969485998,1.0748449563980103,-0.0009129442623816431,-0.008221972733736038
202.0,212.0,-1.1677,0.1244,9.8698,-0.0166,0.0409,-0.1151,-2.045201440850729,-8.88665672391653e-05,3.9683499336242676,-1.5111255645751953,-0.0,2.0232560634613037,5.104683297663488,0.0,0.2534014880657196,-1.531489674245016,-0.0,-0.010365910828113556,0.0833309218287468,-0.0,-0.012418221682310104,1.07486093044281,-0.0008651578100398183,-0.05648341029882431
202.0,212.0,-1.1677,0.1244,9.8698,-0.0166,0.0409,-0.1151,-2.0452610454955042,-8.389622962567955e-05,3.981487989425659,-1.5110975503921509,-0.0,2.0564897060394287,5.104667174607076,0.0,0.25966230034828186,-1.5314815680133265,-0.0,-0.006806272082030773,0.08333095163106918,-0.0,-0.012621217407286167,1.074828863143921,-0.0009057314600795507,-0.02530723437666893
202.0,212.0,-1.1677,0.1244,9.8698,-0.0166,0.0409,-0.1151,-2.045192857781881,-6.358730024658144e-05,4.031641006469727,-1.5111697912216187,-0.0,2.033097743988037,5.104683267861166,0.0,0.2815181314945221,-1.5314977804767054,-0.0,-0.012603956274688244,0.08336293697357178,-0.0,-0.004349544644355774,1.074840784072876,-0.0011801227228716016,0.006087444256991148
202.0,212.0,-1.1677,0.1244,9.8698,-0.0166,0.0409,-0.1151,-2.045213361779684,-5.936912202741951e-05,4.003171920776367,-1.5111336708068848,-0.0,2.006913185119629,5.104715603380956,0.0,0.25156038999557495,-1.5315292517291468,-0.0,-0.01066364161670208,0.08334294706583023,-0.0,0.0036495199892669916,1.0748372077941895,-0.0025410056114196777,0.06430967152118683
202.0,212.0,-1.1677,0.1244,9.8698,-0.0166,0.0409,-0.1151,-2.0452610454955042,-5.657035580952652e-05,4.001238822937012,-1.5111455917358398,-0.0,2.0431628227233887,5.104715633183279,0.0,0.265889048576355,-1.5314977804767054,-0.0,-0.0226734708994627,0.08330270648002625,-0.0,0.005593539215624332,1.0747523307800293,-0.004078620579093695,-0.022273054346442223
202.0,212.0,-1.1677,0.1244,9.8698,-0.0166,0.0409,-0.1151,-2.0452047787108363,-1.5539053492830135e-05,3.9671285152435303,-1.5110892057418823,-0.0,2.0423214435577393,5.104683267861166,0.0,0.2622225284576416,-1.5315058867083948,-0.0,-0.017601311206817627,0.08335478603839874,-0.0,0.003514243755489588,1.0747406482696533,-0.005406516138464212,-0.039529044181108475
202.0,212.0,-1.1677,0.1244,9.8698,-0.0166,0.0409,-0.1151,-2.045237203637594,-1.4292932974058203e-05,3.9667704105377197,-1.511137843132019,-0.0,2.0420217514038086,5.1046754596527,0.0,0.2615947723388672,-1.5315101782428187,-0.0,-0.015044414438307285,0.08335894346237183,-0.0,-0.012648265808820724,1.0747770071029663,-0.00494630541652441,0.021919410675764084
202.0,212.0,-1.1677,0.1244,9.8698,-0.0166,0.0409,-0.1151,-2.045269628564352,-2.6875986804952845e-05,3.9968204498291016,-1.5110809803009033,-0.0,2.0477328300476074,5.104667293816366,0.0,0.2659153342247009,-1.5314815680133265,-0.0,-0.01962222531437874,0.08325471729040146,-0.0,0.003927451092749834,1.074668526649475,-0.00314460601657629,0.030373621731996536
200.0,220.0,-0.8548,-0.3093,9.8237,-0.047,0.027,-0.1156,-2.045208593408102,-2.572602534200996e-05,3.974358558654785,-1.5111656188964844,-0.0,1.9965747594833374,5.104667293816366,0.0,0.269594669342041,-1.5314577261554163,-0.0,-0.012309913523495197,0.08326663821935654,-0.0,-0.001347993267700076,1.0746808052062988,-0.0021843337453901768,0.011720526032149792
200.0,220.0,-0.8548,-0.3093,9.8237,-0.047,0.027,-0.1156,-2.0452448330321253,-3.68347427865956e-05,3.985666275024414,-1.5111656188964844,-0.0,2.012028694152832,5.104655432492056,0.0,0.2734639346599579,-1.5315020720111292,-0.0,-0.01569337025284767,0.08335894346237183,-0.0,-0.0011951334308832884,1.0746567249298096,-0.001873355358839035,0.012008844874799252
200.0,220.0,-0.8548,-0.3093,9.8237,-0.047,0.027,-0.1156,-2.0452405414977015,-3.554131762939505e-05,3.9550485610961914,-1.5111455917358398,-0.0,2.004905939102173,5.104711967497625,0.0,0.24973705410957336,-1.5314739386187952,-0.0,-0.009108472615480423,0.08331094682216644,-0.0,-0.005991504527628422,1.0746365785598755,-0.0013936199247837067,0.004753135144710541
200.0,220.0,-0.8548,-0.3093,9.8237,-0.047,0.027,-0.1156,-2.045252939263815,-3.376356835360639e-05,3.9924840927124023,-1.5111538171768188,-0.0,2.0067169666290283,5.104647534876623,0.0,0.26130208373069763,-1.5315139929400843,-0.0,-0.02053423598408699,0.08341940492391586,-0.0,-0.013859182596206665,1.074664831161499,-0.000808246957603842,0.0014567039906978607
200.0,220.0,-0.8548,-0.3093,9.8237,-0.047,0.027,-0.1156,-2.0452615223326625,-3.254274997743778e-05,3.99080491065979,-1.5111016035079956,-0.0,2.0312345027923584,5.104663628130712,0.0,0.266567587852478,-1.5315335432635706,-0.0,-0.004611632786691189,0.08329861611127853,-0.0,-0.008417364209890366,1.074701189994812,-0.0005835220799781382,-0.017864644527435303
200.0,220.0,-0.8548,-0.3093,9.8237,-0.047,0.027,-0.1156,-2.045224805871481,-3.1407136702910066e-05,3.995534658432007,-1.5111057758331299,-0.0,1.9944941997528076,5.104707824974813,0.0,0.2706397473812103,-1.5315216223346155,-0.0,-0.0202025193721056,0.08329863846302032,-0.0,0.002806276548653841,1.0746283531188965,-0.0004566051356960088,0.007598881609737873
200.0,220.0,-0.8548,-0.3093,9.8237,-0.047,0.027,-0.1156,-2.045249124566549,-3.034809560631402e-05,3.961991786956787,-1.5110974311828613,-0.0,2.0096025466918945,5.104695635824957,0.0,0.2808840274810791,-1.5315340201007288,-0.0,-0.0191898662596941,0.08332694321870804,-0.0,0.0022414533887058496,1.074709177017212,-0.00037504141801036894,-0.043314576148986816
200.0,220.0,-0.8548,-0.3093,9.8237,-0.047,0.027,-0.1156,-2.0452405414977015,-1.8232301224330172e-09,3.9960615634918213,-1.511137843132019,-0.0,2.0266923904418945,5.104675519257345,0.0,0.2636203467845917,-1.531489674245016,-0.0,-0.010582039132714272,0.08331872522830963,-0.0,0.004907452035695314,1.0747050046920776,-9.85054939519614e-05,-0.03537224233150482
200.0,220.0,-0.8548,-0.3093,9.8237,-0.047,0.027,-0.1156,-2.0452572307982386,-4.402886577190273e-15,3.9733457565307617,-1.511137843132019,-0.0,2.0225651264190674,5.104659515410223,0.0,0.2646159529685974,-1.5314658323871058,-0.0,-0.017704186961054802,0.08329863846302032,-0.0,-0.0022664754651486874,1.0747050046920776,-4.290181823307648e-05,0.012417122721672058
200.0,220.0,-0.8548,-0.3093,9.8237,-0.047,0.027,-0.1156,-2.0452286205687464,-1.0632452770166607e-20,3.9884424209594727,-1.511117935180664,-0.0,2.012850284576416,5.104683655291357,0.0,0.265656441450119,-1.5315058867083948,-0.0,-0.009620352648198605,0.08333062380552292,-0.0,0.015738509595394135,1.0746365785598755,-3.707729047164321e-05,-0.0039557539857923985
200.0,220.0,-0.8548,-0.3093,9.8237,-0.047,0.027,-0.1156,-2.0452448330321253,-2.5676122077045484e-26,4.048110008239746,-1.5111823081970215,-0.0,2.0039093494415283,5.104687469988622,0.0,0.254180371761322,-1.5315173308001917,-0.0,-0.015137868002057076,0.08325879275798798,-0.0,0.007477139122784138,1.0746808052062988,-3.299863965366967e-05,-0.05428300425410271
200.0,220.0,-0.8548,-0.3093,9.8237,-0.047,0.027,-0.1156,-2.0452448330321253,-8.31873566683428e-34,4.025693416595459,-1.5110933780670166,-0.0,2.012744188308716,5.10463114359931,5.05794872651677e-09,0.2651236951351166,-1.5314815680133265,-0.0,-0.01923399791121483,0.08331870287656784,-0.0,-0.0012184805236756802,1.0746726989746094,-5.7156907132593915e-05,0.008127671666443348
200.0,220.0,-0.8548,-0.3093,9.8237,-0.047,0.027,-0.1156,-2.045249124566549,-3.6091212678002194e-05,3.9788577556610107,-1.5111253261566162,-0.0,2.0333800315856934,5.104671436339178,1.4078988625973454e-12,0.27234897017478943,-1.5315459410296839,-0.0,-0.004700949881225824,0.08333881944417953,-0.0,-0.004200971219688654,1.074673056602478,-7.841384649509564e-05,0.006207919213920832
201.0,220.0,-0.8058,0.0,9.5348,-0.0226,0.0328,-0.1151,-2.0452410183348597,-3.404359449632466e-05,4.007415771484375,-1.51112961769104,-0.0,2.02783465385437,5.1046915529067896,3.9189382203039095e-16,0.2665884494781494,-1.5315058867083948,-0.0,-0.004916336387395859,0.08333094418048859,-0.0,-5.6265853345394135e-06,1.0746328830718994,-8.302951027872041e-05,0.0354827381670475
201.0,220.0,-0.8058,0.0,9.5348,-0.0226,0.0328,-0.1151,-2.0452286205687464,-3.22157284244895e-05,3.9830760955810547,-1.5110933780670166,-0.0,2.0022525787353516,5.104687499790945,1.0908508951528408e-19,0.2713468074798584,-1.5314777533160608,-0.0,-0.007582624908536673,0.0833265408873558,-0.0,-0.01739323139190674,1.0746612548828125,-0.0015572636621072888,0.013169150799512863
201.0,220.0,-0.8058,0.0,9.5348,-0.0226,0.0328,-0.1151,-2.0452453098692835,-3.0063498343224637e-05,3.974724292755127,-1.5111212730407715,-0.0,2.037527084350586,5.104675549059667,1.9825673963689362e-24,0.2721007764339447,-1.5314815680133265,-0.0,-0.008038278669118881,0.08335073292255402,-0.0,-0.0013909947592765093,1.0745487213134766,-0.005578882526606321,-0.01209738478064537
201.0,220.0,-0.8058,0.0,9.5348,-0.0226,0.0328,-0.1151,-2.045249124566549,-2.862903602363076e-05,3.9911463260650635,-1.511137843132019,-0.0,2.0147461891174316,5.104675906687536,5.5185490700324915e-28,0.26625901460647583,-1.5314815680133265,-0.0,-0.0005720262415707111,0.08333063125610352,-0.0,-0.002817857079207897,1.074528694152832,-0.006072850897908211,-0.02754862606525421
201.0,220.0,-0.8058,0.0,9.5348,-0.0226,0.0328,-0.1151,-2.045220514337057,-4.098531280760653e-05,3.988922595977783,-1.5111418962478638,-0.0,2.040233612060547,5.104583638697424,1.5361080408890157e-31,0.27329397201538086,-1.5315054098712366,-0.0,-0.01983935758471489,0.08334662765264511,-0.0,0.007367591839283705,1.07444429397583,-0.008666548877954483,0.027309760451316833
201.0,220.0,-0.8058,0.0,9.5348,-0.0226,0.0328,-0.1151,-2.045224805871481,-3.920251037925482e-05,3.9736084938049316,-1.511190414428711,-0.0,2.0538840293884277,5.104643600970068,4.2758127744665134e-35,0.27503374218940735,-1.5314658323871058,-0.0,-0.010468551889061928,0.08337898552417755,-0.0,0.002045152010396123,1.0743600130081177,-0.010102913714945316,-0.046849325299263
201.0,220.0,-0.8058,0.0,9.5348,-0.0226,0.0328,-0.1151,-2.0452286205687464,-4.9398655391996726e-05,3.9984209537506104,-1.5111138820648193,-0.0,1.9904865026474,5.1046878574188135,-0.0001631241902941838,0.26224738359451294,-1.531450096760885,-0.0,-0.024191077798604965,0.0833425521850586,-0.0,-0.005602858029305935,1.0743327140808105,-0.012272153981029987,-0.05066855251789093
201.0,220.0,-0.8058,0.0,9.5348,-0.0226,0.0328,-0.1151,-2.045236726800436,-4.744770922116004e-05,3.9847707748413086,-1.5110737085342407,-0.0,1.9890780448913574,5.104647564678945,-0.00017660202865954489,0.28194689750671387,-1.5314620176898401,-0.0,-0.009709294885396957,0.08336297422647476,-0.0,-0.0068172854371368885,1.07430899143219,-0.013538363389670849,-0.010786104016005993
201.0,220.0,-0.8058,0.0,9.5348,-0.0226,0.0328,-0.1151,-2.045265337029928,-4.564303162624128e-05,3.988785982131958,-1.5111171007156372,3.9281090380427486e-08,2.0519964694976807,5.104611593275823,-0.00016085051174741238,0.27930134534835815,-1.531489674245016,-0.0,-0.011570433154702187,0.08339902013540268,-0.0,-0.0022890728432685137,1.0742170810699463,-0.014995980076491833,-0.05510491132736206
201.0,220.0,-0.8058,0.0,9.5348,-0.0226,0.0328,-0.1151,-2.045220991174215,-4.397061638883315e-05,3.9584426879882812,-1.5111212730407715,9.485920621048194e-14,2.0505588054656982,5.104627597122946,-0.0001718357962090522,0.26808375120162964,-1.5314696470843714,-0.0,-0.021938692778348923,0.08334662765264511,-0.0,-0.0014836215414106846,1.074028491973877,-0.016258202493190765,-0.058151498436927795
201.0,220.0,-0.8058,0.0,9.5348,-0.0226,0.0328,-0.1151,-2.045220991174215,-4.192245614831336e-05,3.997272491455078,-1.5110859870910645,0.0005629642982967198,2.0708351135253906,5.104647713690557,-0.0001552793983137235,0.2525218427181244,-1.5314658323871058,-0.0,-0.010392356663942337,0.0833105593919754,-0.0,-0.0010759178549051285,1.0739243030548096,-0.017948443070054054,-0.036162346601486206
201.0,220.0,-0.8058,0.0,9.5348,-0.0226,0.0328,-0.1151,-2.0452405414977015,-4.050736242788844e-05,4.003043174743652,-1.5110735893249512,0.0006457151612266898,2.038416624069214,5.104607480555334,-0.0001445877132937312,0.2813306152820587,-1.53143817583193,-0.0,-0.013674965128302574,0.08331463485956192,-0.0,0.004137811716645956,1.0738489627838135,-0.01809566281735897,-0.026309378445148468
201.0,220.0,-0.8058,0.0,9.5348,-0.0226,0.0328,-0.1151,-2.0452166996397914,-1.8138575796911027e-07,3.968137502670288,-1.511069416999817,0.000771649181842804,2.0233869552612305,5.104647713690557,-0.00013527362898457795,0.266035795211792,-1.5314458052264612,-0.0,-0.02427089959383011,0.08335066586732864,-0.0,-0.0035844892263412476,1.0737565755844116,-0.01832270622253418,-0.01662518084049225
201.0,220.0,-0.8058,0.0,9.5348,-0.0226,0.0328,-0.1151,-2.0452615223326625,-4.3802521288924257e-13,4.016663551330566,-1.5109971761703491,0.0006394679076038301,2.0212464332580566,5.1046235142047784,-0.00012708695430774242,0.26082754135131836,-1.5314539114581507,-0.0,-0.02180689014494419,0.08332237601280212,-0.0,0.0028437315486371517,1.0736370086669922,-0.018058864399790764,-0.0039545148611068726
194.0,220.0,-0.8913,0.0209,9.5539,-0.0359,0.0153,-0.1298,-2.045281072656149,-1.419145794019353e-20,4.011941432952881,-1.511049747467041,0.0005197630380280316,2.0365209579467773,5.104647534876623,-0.00011759778863051906,0.27049025893211365,-1.5314620176898401,-0.0,-0.01067153736948967,0.08337486535310745,-2.1190829091466412e-09,-0.005218821577727795,1.0734689235687256,-0.01765323244035244,-0.01490127295255661
194.0,220.0,-0.8913,0.0209,9.5539,-0.0359,0.0153,-0.1298,-2.0452615223326625,-3.42707030911581e-26,3.974410057067871,-1.5110214948654175,0.0004272229562047869,2.03084135055542,5.1046235142047784,-0.00012316883658058941,0.2735764682292938,-1.5314539114581507,-0.0,-0.009016077034175396,0.08326593041419983,-5.898543914591159e-13,0.008919618092477322,1.0733764171600342,-0.01727183349430561,-0.02000211738049984
194.0,220.0,-0.8913,0.0209,9.5539,-0.0359,0.0153,-0.1298,-2.045293470422262,-8.275970998680372e-32,3.952928066253662,-1.511085867881775,0.00036265773815102875,2.050790548324585,5.104627597122946,-0.00012085997150279582,0.2594790458679199,-1.5314143339740198,-0.0,-0.009636440314352512,0.08336294442415237,-1.6418816504661413e-16,0.010137226432561874,1.0732768774032593,-0.01715748943388462,-0.017489995807409286
194.0,220.0,-0.8913,0.0209,9.5539,-0.0359,0.0153,-0.1298,-2.045224805871481,-2.9638556952704675e-05,3.9631330966949463,-1.5110176801681519,0.0003150471020489931,2.0191924571990967,5.1046639559562585,-0.00011934570648008958,0.27810436487197876,-1.5314658323871058,-0.0,-0.01078159548342228,0.08334255963563919,-4.570238154075687e-20,0.0017429785802960396,1.0731728076934814,-0.017154280096292496,-0.004101535305380821
194.0,220.0,-0.8913,0.0209,9.5539,-0.0359,0.0153,-0.1298,-2.0452448330321253,-5.087075987830758e-05,3.9505701065063477,-1.5110297203063965,0.00026811796124093235,2.0649759769439697,5.104623842030325,-0.00014550281048286706,0.26992666721343994,-1.5314858595477503,7.695470412727445e-05,-0.019670922309160233,0.08335471153259277,-8.306182711627545e-25,0.014404360204935074,1.0730044841766357,-0.017914842814207077,-0.024997500702738762
194.0,220.0,-0.8913,0.0209,9.5539,-0.0359,0.0153,-0.1298,-2.045293470422262,-6.489657971542329e-05,3.954580068588257,-1.5110538005828857,0.00024117404245771468,2.0057601928710938,5.104631680041113,-0.00015843928849790245,0.2595236003398895,-1.5314305464373987,8.044626156333834e-05,-0.02197999507188797,0.08337070047855377,-2.312056027818787e-28,0.0170892346650362,1.0728803873062134,-0.01828453131020069,0.025547562167048454
194.0,220.0,-0.8913,0.0209,9.5539,-0.0359,0.0153,-0.1298,-2.0452691517271937,-6.362877320498228e-05,3.9815359115600586,-1.5110942125320435,0.0001631592313060537,2.017317771911621,5.10461966970519,-0.00015099065785761923,0.2683570683002472,-1.53143817583193,9.68263266258873e-05,-0.016416184604167938,0.08335886150598526,-6.435693450165802e-32,0.0063558719120919704,1.0727930068969727,-0.018827395513653755,-0.008801081217825413
194.0,220.0,-0.8913,0.0209,9.5539,-0.0359,0.0153,-0.1298,-2.0453092060484828,-0.00030765755218453705,3.978999137878418,-1.5109930038452148,0.00014715216821059585,2.01077938079834,5.104608166008749,-0.000300372252240777,0.26862987875938416,-1.53143817583193,9.340628457721323e-05,-0.028082117438316345,0.08344697207212448,-1.7913991503132478e-35,0.008065218105912209,1.0726163387298584,-0.0188419409096241,-0.051740970462560654
194.0,220.0,-0.8913,0.0209,9.5539,-0.0359,0.0153,-0.1298,-2.04526486019277,-0.00024158190353773534,3.9672131538391113,-1.511077642440796,0.00013013053103350103,2.030369997024536,5.10459183433608,-0.0002842810354195535,0.26604124903678894,-1.5314300696002405,8.817713387543336e-05,-0.027906879782676697,0.08330193161964417,-3.25577685201228e-40,0.009724073112010956,1.0724923610687256,-0.018061723560094833,0.03186696395277977
194.0,220.0,-0.8913,0.0209,9.5539,-0.0359,0.0153,-0.1298,-2.0452734432616175,-0.00020806827524211258,3.9863781929016113,-1.5110337734222412,0.00011974265362368897,2.0696909427642822,5.1046319780643366,-0.00024566613137722015,0.26184555888175964,-1.5314181486712855,8.46238253870979e-05,-0.02832784503698349,0.08339894562959671,-9.10844001811131e-44,0.016385246068239212,1.0723810195922852,-0.016789544373750687,0.022006286308169365
194.0,220.0,-0.8913,0.0209,9.5539,-0.0359,0.0153,-0.1298,-2.0452734432616175,-0.0001827210799092427,3.9466185569763184,-1.5110052824020386,0.00014765183732379228,2.023010492324829,5.10461966970519,-0.0002161576849175617,0.2651129364967346,-1.531381909047262,9.28664521779865e-05,-0.020325858145952225,0.08338265120983124,-0.0,0.027067037299275398,1.0722603797912598,-0.015041816048324108,-0.018379127606749535
194.0,220.0,-0.8913,0.0209,9.5539,-0.0359,0.0153,-0.1298,-2.045236726800436,-0.0001628793397685513,3.940141201019287,-1.5110697746276855,0.00016565124678891152,2.0150437355041504,5.104623842030325,-0.00022403102775570005,0.26677098870277405,-1.5314019362079065,8.949985931394622e-05,-0.016050618141889572,0.08333026617765427,-0.0,0.030121665447950363,1.0722050666809082,-0.014254244975745678,0.03223763778805733
194.0,220.0,-0.8913,0.0209,9.5539,-0.0359,0.0153,-0.1298,-2.045252939263815,-0.00014692466356791556,3.936429262161255,-1.5109775066375732,0.0003254462208133191,1.9796379804611206,5.104623842030325,-0.0002033391792792827,0.2598823010921478,-1.5313900152789515,8.628231444163248e-05,-0.03129841387271881,0.08337898552417755,-0.0,0.024379679933190346,1.0721209049224854,-0.012932668440043926,-0.010379651561379433
194.0,220.0,-0.8913,0.0209,9.5539,-0.0359,0.0153,-0.1298,-2.0453092060484828,-0.000155928690219298,3.9397964477539062,-1.5110176801681519,0.001223186613060534,1.9900989532470703,5.104619699507513,-0.00018008709594141692,0.2604345381259918,-1.531421963368551,8.233557309722528e-05,-0.012470060959458351,0.08333832025527954,-0.0,0.02445221319794655,1.071996808052063,-0.012280870229005814,-0.025360360741615295
198.0,213.0,-0.8177,-0.0586,9.6114,-0.0302,0.0189,-0.1513,-2.0452124081053675,-0.0001435099693480879,3.9195122718811035,-1.510981559753418,0.0012820615665987134,2.019007682800293,5.1046000001724146,-0.00018952952814288437,0.25338229537010193,-1.5314181486712855,0.00010428726818645373,-0.025935759767889977,0.08341092616319656,-0.0,0.02236352488398552,1.0719083547592163,-0.010895870625972748,0.014888201840221882
198.0,213.0,-0.8177,-0.0586,9.6114,-0.0302,0.0189,-0.1513,-2.0452691517271937,-0.00013291300274431705,3.9468252658843994,-1.5110104084014893,0.0012746794382110238,2.0263988971710205,5.104623871832647,-0.00017568074690643698,0.25163447856903076,-1.5314057509051722,0.00011983335571130738,-0.011337078176438808,0.08338664472103119,0.0004975905176252127,0.035100314766168594,1.0718729496002197,-0.010419798083603382,-0.05450175702571869
198.0,213.0,-0.8177,-0.0586,9.6114,-0.0302,0.0189,-0.1513,-2.0452734432616175,-0.00016261401469819248,3.9421167373657227,-1.5109729766845703,0.0015589715912938118,2.0543289184570312,5.1046237526233575,-0.00014168352936394513,0.25277429819107056,-1.5314181486712855,0.0001109739241655916,-0.013100016862154007,0.08336623758077621,0.0006989332032389939,0.026913341134786606,1.0718250274658203,-0.009668249636888504,-0.04273190721869469
198.0,213.0,-0.8177,-0.0586,9.6114,-0.0302,0.0189,-0.1513,-2.045249124566549,-0.00014796340838074684,3.88238525390625,-1.5110104084014893,0.0013773413375020027,2.075266122817993,5.104616331845083,-0.00015075744886416942,0.25172460079193115,-1.5314019362079065,0.00010100949293700978,-0.017017517238855362,0.08339894562959671,0.0012085704365745187,0.03694245219230652,1.071724534034729,-0.008675065822899342,-0.036833759397268295
198.0,213.0,-0.8177,-0.0586,9.6114,-0.0302,0.0189,-0.1513,-2.045281072656149,-0.00017768882389646024,3.9291443824768066,-1.5109453201293945,0.0013283889275044203,2.0708651542663574,5.1046122191245935,-0.0001392958511132747,0.24433746933937073,-1.5314338842975062,9.463653987040743e-05,-0.0319344662129879,0.08341047912836075,0.001770578557625413,0.04106516391038895,1.0716605186462402,-0.007551597431302071,-0.029789432883262634
198.0,213.0,-0.8177,-0.0586,9.6114,-0.0302,0.0189,-0.1513,-2.0452567539610804,-0.0005778252962045372,3.9337892532348633,-1.510998010635376,0.0012205351376906037,2.0745317935943604,5.10458396652297,-0.00015064854233060032,0.2515299618244171,-1.5314181486712855,8.901995897758752e-05,-0.034033823758363724,0.08346699178218842,0.0031614569015800953,0.04619826376438141,1.0716848373413086,-0.006811412982642651,-0.02531486377120018
198.0,213.0,-0.8177,-0.0586,9.6114,-0.0302,0.0189,-0.1513,-2.045277257958883,-0.0005784903769381344,3.883913278579712,-1.5108811855316162,0.0008973015937954187,2.027575969696045,5.104583668499746,-0.00014072937483433634,0.24896061420440674,-1.5314057509051722,8.403282845392823e-05,-0.03228709101676941,0.0834505558013916,0.005036386661231518,0.04514259845018387,1.071601152420044,-0.0059801023453474045,-0.05180961638689041
198.0,213.0,-0.8177,-0.0586,9.6114,-0.0302,0.0189,-0.1513,-2.045304914514059,-0.0005320670315995812,3.870485782623291,-1.5109336376190186,0.0007989494479261339,2.029268741607666,5.104608285218038,-0.00014762027421966195,0.24574366211891174,-1.53143817583193,7.819214806659147e-05,-0.014718127436935902,0.08345387130975723,0.008369961753487587,0.052784621715545654,1.0716054439544678,-0.0043196529150009155,3.245752304792404e-05
198.0,213.0,-0.8177,-0.0586,9.6114,-0.0302,0.0189,-0.1513,-2.0452891788878382,-0.00048811218584887683,3.857382297515869,-1.5109854936599731,0.0008007196593098342,2.046694278717041,5.1046122191245935,-0.00013908500841353089,0.2326633334159851,-1.5314019362079065,7.431804988300428e-05,-0.016294097527861595,0.083501897752285,0.0044084638357162476,0.03971124440431595,1.071548581123352,-0.003847522661089897,-0.07123428583145142
198.0,213.0,-0.8177,-0.0586,9.6114,-0.0302,0.0189,-0.1513,-2.045276781121725,-0.0005116653628647327,3.8747458457946777,-1.510953426361084,0.000913851719815284,2.0508458614349365,5.104543822794714,-0.0001769351656548679,0.2500322461128235,-1.5314143339740198,7.080974319251254e-05,-0.03728214651346207,0.0836067870259285,0.0016614848282188177,0.04644229635596275,1.0715608596801758,-0.002869537565857172,-0.036009207367897034
198.0,213.0,-0.8177,-0.0586,9.6114,-0.0302,0.0189,-0.1513,-2.0452567539610804,-0.0005883615813218057,3.8546085357666016,-1.5109740495681763,0.0008512806962244213,2.0545928478240967,5.104579913407125,-0.00020545189909171313,0.23788295686244965,-1.5313542524920862,6.761770782759413e-05,-0.01982555165886879,0.08355400711297989,0.000979502801783383,0.04812325909733772,1.071488380432129,-0.0028372262604534626,-0.03219303488731384
198.0,213.0,-0.8177,-0.0586,9.6114,-0.0302,0.0189,-0.1513,-2.0453535519041957,-0.0009302711114287376,3.8542258739471436,-1.5109217166900635,0.001035200315527618,2.0893380641937256,5.10459183433608,-0.0004900419735349715,0.2207939326763153,-1.531410042439596,6.378402758855373e-05,-0.0330674909055233,0.08359045535326004,0.0006339089013636112,0.04859716817736626,1.071516990661621,-0.0027777047362178564,-0.010292910039424896
198.0,213.0,-0.8177,-0.0586,9.6114,-0.0302,0.0189,-0.1513,-2.045345445672506,-0.001316498382948339,3.800541877746582,-1.5109658241271973,0.0008987525943666697,2.092613458633423,5.104556071549215,-0.0005681479233317077,0.22821256518363953,-1.531426254902975,6.11823343206197e-05,-0.034758422523736954,0.08359039574861526,0.0003312157350592315,0.0606536865234375,1.0715293884277344,-0.002445526886731386,-0.03862958028912544
195.0,217.0,-0.7047,-0.3147,9.6215,-0.0356,0.0165,-0.1329,-2.045328756371969,-0.0016238595126196742,3.807036876678467,-1.510909914970398,0.0007289136992767453,2.0426321029663086,5.104511874705114,-0.0010453228605911136,0.21191462874412537,-1.531410042439596,5.299016265780665e-05,-0.040320441126823425,0.08362636715173721,0.0003776290686801076,0.06749766319990158,1.071456789970398,-0.0023164248559623957,0.0037940293550491333
195.0,217.0,-0.7047,-0.3147,9.6215,-0.0356,0.0165,-0.1329,-2.0453130207457484,-0.0024079119320958853,3.805622100830078,-1.510913610458374,0.0006754862843081355,2.0729010105133057,5.104560243874349,-0.0010427843080833554,0.22440756857395172,-1.5314338842975062,4.525590702542104e-05,-0.03834492340683937,0.0835699737071991,0.000620409264229238,0.05052856355905533,1.071476936340332,-0.0020091277547180653,-0.019446343183517456
195.0,217.0,-0.7047,-0.3147,9.6215,-0.0356,0.0165,-0.1329,-2.045352121392721,-0.002903982065618038,3.808448553085327,-1.5109258890151978,0.0006819340633228421,2.043929100036621,5.104560243874349,-0.0008413255563937128,0.18723303079605103,-1.5314143339740198,4.3087686208309606e-05,-0.03921113908290863,0.08366662263870239,0.0008053351775743067,0.06065109372138977,1.0714772939682007,-0.0016613733023405075,-0.008490403182804585
195.0,217.0,-0.7047,-0.3147,9.6215,-0.0356,0.0165,-0.1329,-2.0453931293883265,-0.0032663517631590366,3.7875490188598633,-1.5109258890151978,0.0006673303432762623,2.056365489959717,5.104515540390768,-0.0008166383486241102,0.20024588704109192,-1.531426254902975,4.1594223148422316e-05,-0.03129210323095322,0.0836424008011818,0.0010390911484137177,0.06783707439899445,1.0714772939682007,-0.0019594982732087374,-0.049240440130233765
195.0,217.0,-0.7047,-0.3147,9.6215,-0.0356,0.0165,-0.1329,-2.045412679711813,-0.003879288677126169,3.7908692359924316,-1.5108777284622192,0.0008261598995886743,2.0615625381469727,5.104520070343771,-0.0007658571121282876,0.22071722149848938,-1.5314577261554163,1.6370080629712902e-05,-0.025694770738482475,0.08363008499145508,0.001064670505002141,0.05651799589395523,1.0714691877365112,-0.0022195347119122744,-0.02656356617808342
195.0,217.0,-0.7047,-0.3147,9.6215,-0.0356,0.0165,-0.1329,-2.045433660546774,-0.003656909568235278,3.7466535568237305,-1.5109056234359741,0.000896212353836745,2.0817737579345703,5.1045438823993585,-0.000712739652954042,0.19737869501113892,-1.5313900152789515,1.5510986486333422e-05,-0.03266347572207451,0.0836341604590416,0.001024071709252894,0.06707187741994858,1.0714128017425537,-0.002136140363290906,-0.07047814130783081
195.0,217.0,-0.7047,-0.3147,9.6215,-0.0356,0.0165,-0.1329,-2.0454570255675257,-0.0041815489530563354,3.7437164783477783,-1.5109015703201294,0.0007212131167761981,2.1249263286590576,5.104527938156881,-0.0007104257238097489,0.20943477749824524,-1.531410042439596,5.552852067047809e-10,-0.031870950013399124,0.08363008499145508,0.0009425962343811989,0.07485315948724747,1.0714330673217773,-0.0020381188951432705,-0.07392911612987518
195.0,217.0,-0.7047,-0.3147,9.6215,-0.0356,0.0165,-0.1329,-2.0454327068724574,-0.00416345102712512,3.7524871826171875,-1.510918140411377,0.0005168422940187156,2.0902137756347656,5.104568409710684,-0.0007985662086866796,0.20123063027858734,-1.5314458052264612,1.5456567774817243e-13,-0.03439362719655037,0.08364200592041016,0.0008170740329660475,0.060787804424762726,1.0713927745819092,-0.002200381364673376,-0.09334243834018707
195.0,217.0,-0.7047,-0.3147,9.6215,-0.0356,0.0165,-0.1329,-2.045525213281149,-0.0048648458905518055,3.77272367477417,-1.5108859539031982,0.00046121387276798487,2.0398974418640137,5.104488062649526,-0.0009650421561673284,0.19837310910224915,-1.5314143339740198,4.3023923516316464e-17,-0.02251814305782318,0.08362600207328796,0.0008240544120781124,0.08128295838832855,1.0713768005371094,-0.0024071447551250458,-0.07913978397846222
195.0,217.0,-0.7047,-0.3147,9.6215,-0.0356,0.0165,-0.1329,-2.045577188531393,-0.005195597652345896,3.763230800628662,-1.5108132362365723,0.00042829493759199977,2.070943593978882,5.104472029000082,-0.0017279282910749316,0.19436612725257874,-1.5314181486712855,1.1975865978580182e-20,-0.030616071075201035,0.08362602442502975,0.0009119432652369142,0.07908759266138077,1.0713406801223755,-0.0026154599618166685,-0.02291419543325901
195.0,217.0,-0.7047,-0.3147,9.6215,-0.0356,0.0165,-0.1329,-2.0456015072264613,-0.005511456169188023,3.693527936935425,-1.5109217166900635,0.0003848265914712101,2.040012836456299,5.10447238662795,-0.0059594931080937386,0.1952643245458603,-1.531421963368551,2.1765542587233788e-25,-0.038215272128582,0.08363369852304459,0.0010763914324343204,0.08366070687770844,1.0713287591934204,-0.003239978104829788,-0.07969933748245239
195.0,217.0,-0.7047,-0.3147,9.6215,-0.0356,0.0165,-0.1329,-2.045580049554342,-0.005419190041720867,3.691612720489502,-1.5108613967895508,0.00034198694629594684,2.0911824703216553,5.104395854264059,-0.007978376001119614,0.18925175070762634,-1.5314143339740198,6.058518196680452e-29,-0.05223594605922699,0.08364569395780563,0.0009935093112289906,0.08679112792015076,1.0713050365447998,-0.0033774012699723244,-0.05065464973449707
195.0,217.0,-0.7047,-0.3147,9.6215,-0.0356,0.0165,-0.1329,-2.045656820336813,-0.005044390447437763,3.703141450881958,-1.5108859539031982,0.0006392205250449479,2.101619005203247,5.1044205007846735,-0.0052896165288984776,0.18927618861198425,-1.5313738028155726,1.6864106277165111e-32,-0.04759128391742706,0.08364976942539215,0.0010805348865687847,0.09312163293361664,1.0713045597076416,-0.0033978477586060762,-0.08511781692504883
195.0,217.0,-0.7047,-0.3147,9.6215,-0.0356,0.0165,-0.1329,-2.0456682644286097,-0.00507111893966794,3.699707508087158,-1.510873556137085,0.0007888711406849325,2.0551862716674805,5.104336339026251,-0.0023752376437187195,0.18260030448436737,-1.5314419905291956,4.694186452876809e-36,-0.047724369913339615,0.08368992805480957,0.0012117082951590419,0.08032241463661194,1.071240782737732,-0.0037659339141100645,-0.053843654692173004
200.0,216.0,-0.749,-0.2351,9.4762,-0.0281,0.0241,-0.122,-2.0457736454405726,-0.005705547984689474,3.6561806201934814,-1.5108540058135986,0.00087993178749457,2.0685644149780273,5.104404467135229,-0.0008650397066958249,0.19009780883789062,-1.531421963368551,8.531385310502351e-41,-0.05324337258934975,0.08363749086856842,0.0011334511218592525,0.08696326613426208,1.0712649822235107,-0.004085609223693609,-0.09681421518325806
200.0,216.0,-0.749,-0.2351,9.4762,-0.0281,0.0241,-0.122,-2.045748373071188,-0.006031991448253393,3.6828689575195312,-1.5108662843704224,0.0009155524312518537,2.099635362625122,5.104360449105062,-0.0006807312020100653,0.1781315803527832,-1.5314057509051722,2.382207389352189e-44,-0.04103204980492592,0.08366577327251434,0.0009474804974161088,0.08222251385450363,1.0712131261825562,-0.005129937548190355,-0.07716543972492218
200.0,216.0,-0.749,-0.2351,9.4762,-0.0281,0.0241,-0.122,-2.0458013019957484,-0.005232402589172125,3.672853946685791,-1.5108901262283325,0.0010041065979748964,2.057990550994873,5.104380923300543,-0.0005140790017321706,0.17322731018066406,-1.5314057509051722,0.0,-0.04780701547861099,0.0836820974946022,0.000740275252610445,0.08025986701250076,1.0712089538574219,-0.005805119406431913,-0.05390584468841553
200.0,216.0,-0.749,-0.2351,9.4762,-0.0281,0.0241,-0.122,-2.045805116693014,-0.005253939889371395,3.7183923721313477,-1.51084566116333,0.0009792674100026488,2.078908920288086,5.10434444525794,-0.0004129198205191642,0.18929415941238403,-1.5314620176898401,0.0,-0.04540453851222992,0.08369776606559753,0.0006989413523115218,0.07812944054603577,1.071152925491333,-0.00673650112003088,-0.06707442551851273
200.0,216.0,-0.749,-0.2351,9.4762,-0.0281,0.0241,-0.122,-2.045811792413229,-0.0048029157333076,3.7076447010040283,-1.5107934474945068,0.0009781597182154655,2.0575051307678223,5.104404467135229,-0.00032712018582969904,0.16647760570049286,-1.5314181486712855,0.0,-0.027902457863092422,0.0836862325668335,0.0006689053261652589,0.08102497458457947,1.0710606575012207,-0.008105364628136158,-0.08779985457658768
200.0,216.0,-0.749,-0.2351,9.4762,-0.0281,0.0241,-0.122,-2.045868536035055,-0.004504885524511337,3.693765163421631,-1.510833740234375,0.0010474235750734806,2.063138008117676,5.10438438036994,-0.0002830210723914206,0.1843559741973877,-1.5314181486712855,0.0,-0.029193144291639328,0.08369377255439758,0.0006705939304083586,0.09359615296125412,1.0710244178771973,-0.009669476188719273,-0.08479833602905273
200.0,216.0,-0.749,-0.2351,9.4762,-0.0281,0.0241,-0.122,-2.045920511285299,-0.004528133664280176,3.703800916671753,-1.5107293128967285,0.0010391910327598453,2.0781009197235107,5.104372787266531,-0.00024940105504356325,0.1902197003364563,-1.531421963368551,0.0,-0.02951155975461006,0.08369369804859161,0.0006470327498391271,0.09490133821964264,1.070996642112732,-0.011029920540750027,-0.09293509274721146
200.0,216.0,-0.749,-0.2351,9.4762,-0.0281,0.0241,-0.122,-2.0459119282164515,-0.004821627400815487,3.688295364379883,-1.5108258724212646,0.0009852166986092925,2.0790202617645264,5.104376780777731,-0.0002229220699518919,0.17939725518226624,-1.5314057509051722,0.0,-0.042657773941755295,0.08368587493896484,0.0005649082595482469,0.08816289901733398,1.0708926916122437,-0.012206632643938065,-0.13773538172245026
200.0,216.0,-0.749,-0.2351,9.4762,-0.0281,0.0241,-0.122,-2.0458995304503382,-0.005092686973512173,3.731050968170166,-1.5108264684677124,0.000999313429929316,2.056647300720215,5.104404467135229,-0.00019527936819940805,0.180575430393219,-1.531369988118307,0.0,-0.03668232262134552,0.0836980789899826,0.000396538496715948,0.08494602143764496,1.0707646608352661,-0.01502652931958437,-0.16147421300411224
200.0,216.0,-0.749,-0.2351,9.4762,-0.0281,0.0241,-0.122,-2.0460010967650355,-0.004227045923471451,3.6904244422912598,-1.5107494592666626,0.0012425530003383756,2.081061363220215,5.104384350567617,-0.0001786638458725065,0.1779593527317047,-1.531450096760885,0.0,-0.047828175127506256,0.08372192084789276,0.00037596255424432456,0.0913582518696785,1.0707170963287354,-0.017063966020941734,-0.13108474016189575
200.0,216.0,-0.749,-0.2351,9.4762,-0.0281,0.0241,-0.122,-2.0460125408568324,-0.003423417452722788,3.73411226272583,-1.5107660293579102,0.0013862780760973692,2.0770375728607178,5.104392456799307,-0.00016465432418044657,0.17989325523376465,-1.531450096760885,0.0,-0.04374004900455475,0.08366985619068146,0.0003111870610155165,0.08703134953975677,1.0705928802490234,-0.01906457729637623,-0.169053852558136
200.0,216.0,-0.749,-0.2351,9.4762,-0.0281,0.0241,-0.122,-2.046032568017477,-0.002619730308651924,3.683964252471924,-1.5107535123825073,0.0015326417051255703,2.0936713218688965,5.104376780777731,-0.0001526824926258996,0.1824216991662979,-1.53143817583193,0.0,-0.033372290432453156,0.08371784538030624,0.0003095073043368757,0.08167482912540436,1.0704282522201538,-0.021174684166908264,-0.1193857491016388
200.0,216.0,-0.749,-0.2351,9.4762,-0.0281,0.0241,-0.122,-2.0460320911803187,-0.0022881089244037867,3.6757168769836426,-1.5107698440551758,0.0019539929926395416,2.0805280208587646,5.104360449105062,-0.00013918866170570254,0.18354758620262146,-1.5314181486712855,0.0,-0.04151363670825958,0.0836896151304245,0.00025867350632324815,0.09139347821474075,1.0702805519104004,-0.023134835064411163,-0.18294307589530945
200.0,216.0,-0.749,-0.2351,9.4762,-0.0281,0.0241,-0.122,-2.046084543267721,-0.0019515041494742036,3.67995285987854,-1.5107215642929077,0.0018680752255022526,2.060276746749878,5.104360449105062,-0.0001305363985011354,0.17923153936862946,-1.531426254902975,0.0,-0.03624531626701355,0.08364569395780563,0.00023030040028970689,0.09094488620758057,1.0701085329055786,-0.023958297446370125,-0.15036097168922424
198.0,219.0,-0.9135,0.073,9.6688,-0.0302,0.0197,-0.1193,-2.046095987359518,-0.0015725174453109503,3.7065017223358154,-1.5107461214065552,0.0018361128168180585,2.08596134185791,5.104356455593862,-0.0001228968903888017,0.1764635443687439,-1.5314181486712855,0.0,-0.043668460100889206,0.08368177711963654,0.0002075366210192442,0.0845157727599144,1.0700008869171143,-0.024428024888038635,-0.11344869434833527
198.0,219.0,-0.9135,0.073,9.6688,-0.0302,0.0197,-0.1193,-2.0460645161070765,-0.0013701287098228931,3.686077833175659,-1.5107301473617554,0.0016289998311549425,2.0634350776672363,5.104420470982351,-0.00011610228102654219,0.18437303602695465,-1.531369988118307,0.0,-0.024733547121286392,0.08369777351617813,0.0001888695260277018,0.08457767963409424,1.069852590560913,-0.024714618921279907,-0.11852298676967621
198.0,219.0,-0.9135,0.073,9.6688,-0.0302,0.0197,-0.1193,-2.046084066430563,-0.0015545014757663012,3.6852834224700928,-1.510697603225708,0.0011324255028739572,2.0359625816345215,5.104392456799307,-0.00010813107655849308,0.18223905563354492,-1.5314062277423304,0.0,-0.04466579854488373,0.08374984562397003,0.00016864456119947135,0.07469914108514786,1.069596529006958,-0.025046752765774727,-0.09250907599925995
198.0,219.0,-0.9135,0.073,9.6688,-0.0302,0.0197,-0.1193,-2.046067853967184,-0.0015871296636760235,3.722884178161621,-1.5106697082519531,0.0008757181349210441,2.071969747543335,5.104389118939199,-0.000102836056612432,0.18522222340106964,-1.531426254902975,0.0,-0.026989858597517014,0.083757683634758,0.0001561072131153196,0.0783843919634819,1.0694926977157593,-0.025647331029176712,-0.1533711701631546
198.0,219.0,-0.9135,0.073,9.6688,-0.0302,0.0197,-0.1193,-2.0460521183409632,-0.0018564776983112097,3.7299652099609375,-1.5106821060180664,0.0007886855746619403,2.0913729667663574,5.104385036021032,-9.80351833277382e-05,0.18138432502746582,-1.5314338842975062,0.0,-0.02934582158923149,0.08373007923364639,0.00014530488988384604,0.06921882927417755,1.0693609714508057,-0.02586638741195202,-0.14063650369644165
198.0,219.0,-0.9135,0.073,9.6688,-0.0302,0.0197,-0.1193,-2.0461045704283656,-0.001900829840451479,3.70992374420166,-1.5106534957885742,0.0007701763533987105,2.093867063522339,5.104388433485784,-9.366268932353705e-05,0.18010112643241882,-1.531410042439596,0.0,-0.03334837406873703,0.08369777351617813,0.0001359011948807165,0.0771658644080162,1.0691604614257812,-0.026340890675783157,-0.1601456105709076
198.0,219.0,-0.9135,0.073,9.6688,-0.0302,0.0197,-0.1193,-2.046136518517965,-0.0022493174765259027,3.713611125946045,-1.5107139348983765,0.0008251399267464876,2.0658631324768066,5.104396629124441,-8.84054388734512e-05,0.1831352412700653,-1.5314019362079065,0.0,-0.01862563006579876,0.08370999991893768,0.00012510571104940027,0.07399536669254303,1.0689891576766968,-0.028060298413038254,-0.1205214262008667
198.0,219.0,-0.9135,0.073,9.6688,-0.0302,0.0197,-0.1193,-2.046159883538717,-0.002350857714191079,3.7376651763916016,-1.5107097625732422,0.000756674911826849,2.0514936447143555,5.104392456799307,-8.48341005621478e-05,0.18342730402946472,-1.5314300696002405,0.0,-0.039493903517723083,0.08375392109155655,0.00013464957010000944,0.07797765731811523,1.068816900253296,-0.029315676540136337,-0.1514061540365219
198.0,219.0,-0.9135,0.073,9.6688,-0.0302,0.0197,-0.1193,-2.0461160145201625,-0.0027389025781303644,3.6835880279541016,-1.5106415748596191,0.0008177595445886254,2.097163200378418,5.104368674546041,-8.154011447913945e-05,0.1828625500202179,-1.5314338842975062,0.0,-0.033573050051927567,0.08370184898376465,0.00012775571667589247,0.06605708599090576,1.0686490535736084,-0.03090873546898365,-0.13897402584552765
198.0,219.0,-0.9135,0.073,9.6688,-0.0302,0.0197,-0.1193,-2.0462004146971644,-0.002711949171498418,3.6927103996276855,-1.5106494426727295,0.0010854883585125208,2.0495762825012207,5.104368674546041,-8.969916234491393e-05,0.18062293529510498,-1.5314338842975062,0.0,-0.032105088233947754,0.08370184898376465,0.00012129874085076153,0.06432189047336578,1.0683965682983398,-0.032110463827848434,-0.11289680004119873
198.0,219.0,-0.9135,0.073,9.6688,-0.0302,0.0197,-0.1193,-2.046175619164938,-0.002512399572879076,3.6695241928100586,-1.5106576681137085,0.001562975230626762,2.0921614170074463,5.104356455593862,-8.544722368242219e-05,0.18359696865081787,-1.5314057509051722,0.0,-0.046183593571186066,0.0836697667837143,0.00011364060628693551,0.07613727450370789,1.0681405067443848,-0.03420761972665787,-0.10618957132101059
198.0,219.0,-0.9135,0.073,9.6688,-0.0302,0.0197,-0.1193,-2.0462118587889613,-0.0025985261891037226,3.72430419921875,-1.5106580257415771,0.0017880185041576624,2.0801784992218018,5.104356455593862,-5.2637966291513294e-05,0.1799505054950714,-1.5314019362079065,0.0,-0.04881651699542999,0.08378630876541138,0.00010850302351173013,0.0715412050485611,1.0679326057434082,-0.034561142325401306,-0.10421380400657654
198.0,219.0,-0.9135,0.073,9.6688,-0.0302,0.0197,-0.1193,-2.046232362786764,-0.002409897278994322,3.6955385208129883,-1.5106415748596191,0.0022281839046627283,2.06842303276062,5.104380953102865,-6.571258563781157e-05,0.1748942732810974,-1.5314458052264612,0.0,-0.04338385909795761,0.08365382254123688,0.00010380969615653157,0.09216183423995972,1.0677127838134766,-0.034460779279470444,-0.08481209725141525
198.0,219.0,-0.9135,0.073,9.6688,-0.0302,0.0197,-0.1193,-2.0462118587889613,-0.0025318022817373276,3.705624580383301,-1.5106456279754639,0.0027685947716236115,2.0734195709228516,5.104376780777731,-1.1610961792030139e-06,0.17124485969543457,-1.5313900152789515,0.0,-0.04483173415064812,0.08369366824626923,9.950568346539512e-05,0.07063505053520203,1.0675086975097656,-0.035032425075769424,-0.12358445674180984
194.0,217.0,-0.7376,-0.1208,9.2662,-0.0334,0.0202,-0.1403,-2.046272417108053,-0.0030611904803663492,3.7099356651306152,-1.510634183883667,0.0034434860572218895,2.0661730766296387,5.10434444525794,-0.0005281624034978449,0.16737380623817444,-1.5313857237445276,0.0,-0.04326791316270828,0.083733931183815,9.429299097973853e-05,0.08721937239170074,1.067220687866211,-0.035013459622859955,-0.11736010015010834
194.0,217.0,-0.7376,-0.1208,9.2662,-0.0334,0.0202,-0.1403,-2.0462967358031214,-0.0032792442943900824,3.6445395946502686,-1.5105819702148438,0.0036882474087178707,2.066246747970581,5.104360955744543,-0.0004895255551673472,0.1632755696773529,-1.531421963368551,0.0,-0.038762643933296204,0.08369366824626923,9.072841930901632e-05,0.07929152995347977,1.0670411586761475,-0.03455705568194389,-0.09113609790802002
194.0,217.0,-0.7376,-0.1208,9.2662,-0.0334,0.0202,-0.1403,-2.0462924442686976,-0.00368138263002038,3.671933174133301,-1.5105379819869995,0.004833400249481201,2.093810558319092,5.104356783419409,-0.00046265937271527946,0.1739732325077057,-1.5313976446734827,0.0,-0.05385294556617737,0.08368959277868271,8.742354839341715e-05,0.08180016279220581,1.0668087005615234,-0.03446537256240845,-0.09291144460439682
194.0,217.0,-0.7376,-0.1208,9.2662,-0.0334,0.0202,-0.1403,-2.04628386119985,-0.0042252494022250175,3.6692004203796387,-1.5104939937591553,0.004521374125033617,2.081188440322876,5.10434444525794,-0.0003553401620592922,0.16719388961791992,-1.531426254902975,0.0,-0.03249861299991608,0.08373796939849854,8.435093332082033e-05,0.08857816457748413,1.0665723085403442,-0.034357085824012756,-0.11123357713222504
194.0,217.0,-0.7376,-0.1208,9.2662,-0.0334,0.0202,-0.1403,-2.0463272533812464,-0.003862627549096942,3.6494734287261963,-1.510506272315979,0.005623667500913143,2.0756070613861084,5.104348647385397,-0.0003239931829739362,0.18238207697868347,-1.5313738028155726,0.0,-0.04172937572002411,0.08371379971504211,5.614145629806444e-05,0.07358187437057495,1.0664092302322388,-0.033737149089574814,-0.1313830018043518
194.0,217.0,-0.7376,-0.1208,9.2662,-0.0334,0.0202,-0.1403,-2.0463882885374964,-0.0038106252904981375,3.6876072883605957,-1.5104942321777344,0.006530295126140118,2.0684242248535156,5.1043527005012415,-0.00027456178213469684,0.17607355117797852,-1.531381909047262,0.0,-0.04492998123168945,0.08370596170425415,5.411521851783618e-05,0.09562978148460388,1.0661931037902832,-0.03544875979423523,-0.11847177147865295
194.0,217.0,-0.7376,-0.1208,9.2662,-0.0334,0.0202,-0.1403,-2.04636349300527,-0.0034810248762369156,3.6454720497131348,-1.5104063749313354,0.006716663483530283,2.0708987712860107,5.1043284116084955,-0.00023821536160539836,0.1705363392829895,-1.5314181486712855,0.0,-0.040102358907461166,0.08371375501155853,5.2230847359169275e-05,0.07714913785457611,1.0659406185150146,-0.03515661507844925,-0.08101072162389755
194.0,217.0,-0.7376,-0.1208,9.2662,-0.0334,0.0202,-0.1403,-2.0464045010008753,-0.0032759467139840126,3.6781983375549316,-1.5103824138641357,0.007971031591296196,2.0672366619110107,5.104392426996984,-0.0002103689475916326,0.18202224373817444,-1.531393829976217,0.0,-0.0383794791996479,0.08376166224479675,5.9253092331346124e-05,0.08080131560564041,1.0657728910446167,-0.035394955426454544,-0.08036482334136963
194.0,217.0,-0.7376,-0.1208,9.2662,-0.0334,0.0202,-0.1403,-2.04638733486318,-0.004008193034678698,3.68915057182312,-1.51028573513031,0.008976323530077934,2.0994713306427,5.104368704348364,-0.00018200317572336644,0.17489328980445862,-1.5314458052264612,0.0,-0.05195370689034462,0.0836855098605156,3.286630700927162e-08,0.077641561627388,1.0654484033584595,-0.035442084074020386,-0.11843464523553848
194.0,217.0,-0.7376,-0.1208,9.2662,-0.0334,0.0202,-0.1403,-2.0464350185790003,-0.0036499719135463238,3.709322452545166,-1.5102580785751343,0.009687376208603382,2.085144519805908,5.104340779572286,-0.00016528858395759016,0.18049994111061096,-1.5314620176898401,0.0,-0.034711360931396484,0.08369369804859161,9.148457165431001e-12,0.07876543700695038,1.0653049945831299,-0.03348511457443237,-0.034468576312065125
194.0,217.0,-0.7376,-0.1208,9.2662,-0.0334,0.0202,-0.1403,-2.046422620812887,-0.0029969781171530485,3.7016377449035645,-1.5101944208145142,0.011184163391590118,2.0924296379089355,5.104372787266531,-0.00015138609160203487,0.17255043983459473,-1.5314062277423304,0.0,-0.04704216122627258,0.08369369804859161,2.5465071471311197e-15,0.08158658444881439,1.065064787864685,-0.03185194730758667,-0.033466238528490067
194.0,217.0,-0.7376,-0.1208,9.2662,-0.0334,0.0202,-0.1403,-2.0464755497374476,-0.0031976057216525078,3.7174205780029297,-1.5101301670074463,0.012905999086797237,2.1247637271881104,5.104420918017187,-0.00016290749772451818,0.17308548092842102,-1.5313933531390589,0.0,-0.05689087510108948,0.08371750265359879,7.088296267616836e-19,0.07595284283161163,1.0648486614227295,-0.029454991221427917,-0.06880288571119308
194.0,217.0,-0.7376,-0.1208,9.2662,-0.0334,0.0202,-0.1403,-2.0465604267516078,-0.00308516644872725,3.6886987686157227,-1.5099655389785767,0.014523828402161598,2.0898056030273438,5.104316282063284,-0.00013676367234438658,0.17469368875026703,-1.531426254902975,0.0,-0.05795998126268387,0.08370561897754669,1.2882629485648337e-23,0.09756259620189667,1.0646449327468872,-0.026375090703368187,-0.05207936465740204
193.0,216.0,-0.8668,-0.149,9.7089,-0.0417,0.0232,-0.1561,-2.0465604267516078,-0.003401385387405753,3.7070834636688232,-1.5098698139190674,0.016751766204833984,2.140687942504883,5.104312646179952,-0.00018092436948791146,0.16558274626731873,-1.5314305464373987,0.0,-0.04941839352250099,0.08370969444513321,3.585927482053482e-27,0.07303575426340103,1.0644283294677734,-0.023719098418951035,-0.031978145241737366
193.0,216.0,-0.8668,-0.149,9.7089,-0.0417,0.0232,-0.1561,-2.046584268609518,-0.004107348155230284,3.690856456756592,-1.5097981691360474,0.019210251048207283,2.0845582485198975,5.104353117733755,-0.0010862372582778335,0.18417368829250336,-1.5313895384417933,0.0,-0.06422732770442963,0.08378215879201889,9.98156075712603e-31,0.07984068244695663,1.0643566846847534,-0.020994866266846657,-0.02899743616580963
193.0,216.0,-0.8668,-0.149,9.7089,-0.0417,0.0232,-0.1561,-2.046596189538473,-0.005288881715387106,3.6987428665161133,-1.5096904039382935,0.02294396422803402,2.1120803356170654,5.104253101139822,-0.0023752006236463785,0.17625868320465088,-1.5314014593707483,0.0,-0.05846305936574936,0.08371337503194809,2.7784039577333282e-34,0.07347585260868073,1.0643008947372437,-0.017563998699188232,-0.04349290207028389
193.0,216.0,-0.8668,-0.149,9.7089,-0.0417,0.0232,-0.1561,-2.0466190777220667,-0.006754620466381311,3.6463770866394043,-1.5094584226608276,0.028508257120847702,2.116497039794922,5.104321139841833,-0.0028218203224241734,0.1633288860321045,-1.5313614050494593,0.0,-0.05839056521654129,0.08370561897754669,5.049612647357622e-39,0.0893559455871582,1.064132809638977,-0.012634987942874432,-0.04807879403233528
193.0,216.0,-0.8668,-0.149,9.7089,-0.0417,0.0232,-0.1561,-2.0467196903624476,-0.007500120904296637,3.6810269355773926,-1.509258508682251,0.03486106917262077,2.1629881858825684,5.104237067490377,-0.0029432885348796844,0.16743990778923035,-1.5314706007586878,0.0,-0.05248476564884186,0.08372976630926132,1.4055023597177915e-42,0.0744645893573761,1.0640971660614014,-0.009615783579647541,0.01762194186449051
193.0,216.0,-0.8668,-0.149,9.7089,-0.0417,0.0232,-0.1561,-2.0467478237547816,-0.008961692452430725,3.6383466720581055,-1.5090585947036743,0.040289971977472305,2.1192729473114014,5.1042410908038995,-0.0033668179530650377,0.1812722384929657,-1.5313618818866175,0.0,-0.060530196875333786,0.08368177711963654,0.0,0.08073295652866364,1.0640692710876465,-0.006833208724856377,0.0012084958143532276
193.0,216.0,-0.8668,-0.149,9.7089,-0.0417,0.0232,-0.1561,-2.046779295007223,-0.01000296976417303,3.6485443115234375,-1.508806824684143,0.04716882482171059,2.180663585662842,5.104241180210867,-0.0038248905912041664,0.17474618554115295,-1.5314014593707483,0.0,-0.036389462649822235,0.0836896151304245,0.0,0.08461016416549683,1.0639681816101074,-0.004629199393093586,-0.032266516238451004
193.0,216.0,-0.8668,-0.149,9.7089,-0.0417,0.0232,-0.1561,-2.046887537042135,-0.011162328533828259,3.6356208324432373,-1.508366584777832,0.056590769439935684,2.1292998790740967,5.104144799500265,-0.003809261368587613,0.16758480668067932,-1.5314424673663538,0.0,-0.06450868397951126,0.08366169780492783,0.0,0.0726524144411087,1.0640007257461548,-0.002809724537655711,-0.031774505972862244
193.0,216.0,-0.8668,-0.149,9.7089,-0.0417,0.0232,-0.1561,-2.0469876728453578,-0.012807806953787804,3.6176540851593018,-1.5079745054244995,0.0648871585726738,2.1787314414978027,5.104177254229345,-0.004234833177179098,0.1689392477273941,-1.531450096760885,0.0,-0.04665043577551842,0.08372195810079575,0.0,0.08249787986278534,1.063981056213379,-0.00182625325396657,-0.02162311226129532
193.0,216.0,-0.8668,-0.149,9.7089,-0.0417,0.0232,-0.1561,-2.0470639667906703,-0.015103890560567379,3.6277413368225098,-1.5075668096542358,0.0747196152806282,2.1909589767456055,5.104185449868002,-0.0046730018220841885,0.17458194494247437,-1.5314343611346644,0.0,-0.041050128638744354,0.08375398069620132,0.0,0.08030997216701508,1.0639691352844238,-0.0010165031999349594,-0.03393568843603134
193.0,216.0,-0.8668,-0.149,9.7089,-0.0417,0.0232,-0.1561,-2.047114988366598,-0.016047878190875053,3.6167712211608887,-1.5071030855178833,0.08582231402397156,2.2216851711273193,5.104057478695669,-0.006456122733652592,0.1699422299861908,-1.5314181486712855,0.0,-0.046463966369628906,0.08368585258722305,0.0,0.07333836704492569,1.063965082168579,-0.0006054848781786859,-0.035460542887449265
193.0,216.0,-0.8668,-0.149,9.7089,-0.0417,0.0232,-0.1561,-2.0472260914244593,-0.017501547932624817,3.6216444969177246,-1.506583571434021,0.09627257287502289,2.2268989086151123,5.104041564255514,-0.0077313631772994995,0.17345589399337769,-1.5314181486712855,0.0,-0.043060846626758575,0.08369369804859161,0.0,0.058943554759025574,1.063981056213379,-0.0004312775272410363,-0.028583446517586708
193.0,216.0,-0.8668,-0.149,9.7089,-0.0417,0.0232,-0.1561,-2.047382970849508,-0.02033575065433979,3.6282103061676025,-1.5057398080825806,0.1044570729136467,2.198129892349243,5.103957879334249,-0.00865871924906969,0.17726066708564758,-1.5313857237445276,0.0,-0.04290347546339035,0.08368585258722305,0.0,0.0794045478105545,1.0640254020690918,-0.00031173336901701987,-0.013431280851364136
193.0,216.0,-0.8668,-0.149,9.7089,-0.0417,0.0232,-0.1561,-2.04752316097402,-0.02147657983005047,3.6345958709716797,-1.5051206350326538,0.10984809696674347,2.229591131210327,5.103897917061605,-0.008757558651268482,0.1713070124387741,-1.5314224402057093,0.0,-0.04274307191371918,0.08374200016260147,0.0,0.07294033467769623,1.0639286041259766,-0.0003035486734006554,-0.025333188474178314
196.0,212.0,-0.8752,-0.3667,9.9727,-0.0438,0.0635,-0.1378,-2.047655244866842,-0.02142724022269249,3.6011924743652344,-1.504404067993164,0.11237253993749619,2.2722437381744385,5.10384218671874,-0.007182322908192873,0.18794402480125427,-1.5313814322101038,0.0,-0.04294724017381668,0.08372192084789276,0.0,0.060082484036684036,1.064009428024292,-0.0002642354229465127,-0.05668121203780174
196.0,212.0,-0.8752,-0.3667,9.9727,-0.0438,0.0635,-0.1378,-2.0477305851378382,-0.020640728995203972,3.637659788131714,-1.5037169456481934,0.11945578455924988,2.2419071197509766,5.103846686869421,-0.0061326096765697,0.17707470059394836,-1.5314181486712855,0.0,-0.03989187255501747,0.08371784538030624,0.0,0.07047184556722641,1.063981056213379,-0.00023040878295432776,-0.06361891329288483
196.0,212.0,-0.8752,-0.3667,9.9727,-0.0438,0.0635,-0.1378,-2.047894140283102,-0.02033131942152977,3.604583740234375,-1.5027053356170654,0.13029435276985168,2.2805886268615723,5.103750306158819,-0.0054849423468112946,0.17493829131126404,-1.5313895384417933,0.0,-0.0458369217813015,0.08373792469501495,0.0,0.08104228228330612,1.063965082168579,-0.00016401357424911112,-0.013868098147213459
196.0,212.0,-0.8752,-0.3667,9.9727,-0.0438,0.0635,-0.1378,-2.0480381451048792,-0.02208327129483223,3.643692970275879,-1.5018935203552246,0.137456476688385,2.293473720550537,5.103742408543386,-0.005695928353816271,0.184070885181427,-1.5314863363849085,0.0,-0.034002721309661865,0.08362969011068344,2.0536286683636717e-05,0.07072798907756805,1.064037561416626,-0.00014784716768190265,0.00441943621262908
196.0,212.0,-0.8752,-0.3667,9.9727,-0.0438,0.0635,-0.1378,-2.048190256158346,-0.02522418461740017,3.640385866165161,-1.5009053945541382,0.15048342943191528,2.293025255203247,5.103706824570455,-0.005387000739574432,0.1774733066558838,-1.5313695112811487,0.0,-0.03832382336258888,0.08373384177684784,1.9884311768691987e-05,0.06129303574562073,1.063981056213379,-0.00010766713239718229,0.005533201619982719
196.0,212.0,-0.8752,-0.3667,9.9727,-0.0438,0.0635,-0.1378,-2.0483581028380335,-0.028206778690218925,3.6204910278320312,-1.5000866651535034,0.15236417949199677,2.278599739074707,5.103658783226766,-0.004892024677246809,0.17826023697853088,-1.5314138571368616,0.0,-0.04299871623516083,0.08368177711963654,5.534870339829467e-09,0.04644937068223953,1.0639970302581787,-9.880080324364826e-05,-0.056712061166763306
196.0,212.0,-0.8752,-0.3667,9.9727,-0.0438,0.0635,-0.1378,-2.048626562158102,-0.029935993254184723,3.597506523132324,-1.4987348318099976,0.15682895481586456,2.2529592514038086,5.103667396097936,-0.002935157623142004,0.1821288764476776,-1.5314014593707483,0.0,-0.03877534717321396,0.08371784538030624,1.0059350406691273e-13,0.05567541718482971,1.0639970302581787,-2.4345446945517324e-05,-0.0718722939491272
196.0,212.0,-0.8752,-0.3667,9.9727,-0.0438,0.0635,-0.1378,-2.0487858257689417,-0.028280939906835556,3.6174416542053223,-1.4978033304214478,0.16230355203151703,2.2614002227783203,5.103659140854635,-0.0015546295326203108,0.18157623708248138,-1.5314582029925745,0.0,-0.029511548578739166,0.08373792469501495,2.800056996945487e-17,0.0634353756904602,1.063965082168579,-2.2428530428442173e-05,-0.0805758684873581
196.0,212.0,-0.8752,-0.3667,9.9727,-0.0438,0.0635,-0.1378,-2.0488726101317347,-0.02627476118505001,3.642770767211914,-1.4968363046646118,0.16866452991962433,2.317309856414795,5.1036149738128564,-0.0008327090763486922,0.18268120288848877,-1.5313695112811487,0.0,-0.025194406509399414,0.0837140828371048,7.79406246975402e-21,0.04817669838666916,1.0639971494674683,-4.173627894488163e-05,-0.0715237408876419
196.0,212.0,-0.8752,-0.3667,9.9727,-0.0438,0.0635,-0.1378,-2.0490733585753382,-0.02579806186258793,3.640538215637207,-1.4957528114318848,0.17691174149513245,2.334545135498047,5.1036515710647485,-0.0007159674423746765,0.18850767612457275,-1.5313895384417933,0.0,-0.021465104073286057,0.08365385234355927,2.1695057372314224e-24,0.04807744175195694,1.0639889240264893,-5.85321758990176e-05,-0.113986536860466
196.0,212.0,-0.8752,-0.3667,9.9727,-0.0438,0.0635,-0.1378,-2.049305101434225,-0.027652688324451447,3.663804769515991,-1.494313359260559,0.18423323333263397,2.315640687942505,5.103619533568182,-0.0017226999625563622,0.1784268170595169,-1.531341854725973,0.0,-0.011905383318662643,0.08368177711963654,3.942970217765463e-29,0.03485636040568352,1.064013123512268,-7.18135925126262e-05,-0.06300502270460129
196.0,212.0,-0.8752,-0.3667,9.9727,-0.0438,0.0635,-0.1378,-2.049448152581686,-0.031099988147616386,3.6327028274536133,-1.4931410551071167,0.18660175800323486,2.32594895362854,5.103607165604391,-0.002669223351404071,0.1925443410873413,-1.5313575903521937,0.0,-0.02926422283053398,0.08364976942539215,1.0975401205163628e-32,0.04814813286066055,1.0639487504959106,-0.000192045554285869,-0.09694220870733261
196.0,212.0,-0.8752,-0.3667,9.9727,-0.0438,0.0635,-0.1378,-2.049648424188131,-0.03162621334195137,3.6239399909973145,-1.492055058479309,0.18976032733917236,2.326554298400879,5.103563535004415,-0.003700897330418229,0.16937148571014404,-1.531393829976217,0.0,-0.016011083498597145,0.08370227366685867,3.0550433805453734e-36,0.032596006989479065,1.0639691352844238,-0.00026383259682916105,-0.07644365727901459
196.0,212.0,-0.8752,-0.3667,9.9727,-0.0438,0.0635,-0.1378,-2.049852510491842,-0.03233588486909866,3.6422677040100098,-1.4908595085144043,0.19589298963546753,2.3141872882843018,5.1035398719604395,-0.00443052314221859,0.1810968816280365,-1.5313857237445276,0.0,-0.03306485712528229,0.08366608619689941,8.503821769709082e-40,0.03774583339691162,1.063981533050537,-0.0003064826305489987,-0.09666313230991364
196.0,191.0,-1.1019,0.2704,10.0851,-0.0973,0.1213,-0.1269,-2.050084253350729,-0.0298647228628397,3.6622109413146973,-1.4893004894256592,0.1958369016647339,2.3049752712249756,5.103495615511694,-0.0066461460664868355,0.17971837520599365,-1.5313776175128382,0.0,-0.025873053818941116,0.08369401842355728,1.5414283107572988e-44,0.04205513745546341,1.0639652013778687,-0.0007016879389993846,-0.12694168090820312
