ramyac6/ROB537/final_project/csv/good/good_188.csv
tof_0,tof_1,accelx,accely,accelz,gyrox,gyroy,gyroz,shoulder_lift_joint_position,shoulder_lift_joint_velocity,shoulder_lift_joint_effort,elbow_joint_position,elbow_joint_velocity,elbow_joint_effort,wrist_1_joint_position,wrist_1_joint_velocity,wrist_1_joint_effort,wrist_2_joint_position,wrist_2_joint_velocity,wrist_2_joint_effort,wrist_3_joint_position,wrist_3_joint_velocity,wrist_3_joint_effort,shoulder_pan_joint_position,shoulder_pan_joint_velocity,shoulder_pan_joint_effort
965.0,1007.0,3.4606,0.1842,8.7159,-0.0363,0.0286,-0.1275,-1.4617953833988686,0.0,1.7014704942703247,-1.8535897731781006,-0.0,2.1095962524414062,4.4480787950703125,0.0,0.2840507924556732,-1.5968378225909632,-0.0,-0.0014987812610343099,0.7881277203559875,0.0,-0.004615451209247112,0.7846032977104187,0.0,0.0355781689286232
965.0,1007.0,3.4606,0.1842,8.7159,-0.0363,0.0286,-0.1275,-1.4617231351188202,0.0,1.7184653282165527,-1.8535857200622559,-0.0,2.1939711570739746,4.448067350978516,0.0,0.29118800163269043,-1.5967620054828089,-0.0,-0.020566802471876144,0.7880993485450745,0.0,0.0063597094267606735,0.7846071720123291,0.0,-0.03436899185180664
965.0,1007.0,3.4606,0.1842,8.7159,-0.0363,0.0286,-0.1275,-1.4617107671550293,0.0,1.6937483549118042,-1.8536014556884766,-0.0,2.1703858375549316,4.448018713588379,0.0,0.28677093982696533,-1.5967896620379847,-0.0,-0.00965152308344841,0.7881317734718323,0.0,0.004583786241710186,0.7846634984016418,0.0,-0.002401546575129032
965.0,1007.0,3.4606,0.1842,8.7159,-0.0363,0.0286,-0.1275,-1.4617548745921631,0.0,1.6809372901916504,-1.8535579442977905,-0.0,2.1673240661621094,4.448014898891113,0.0,0.29800722002983093,-1.596773926411764,-0.0,-0.01412937231361866,0.7881481051445007,0.0,-0.015505621209740639,0.7846153378486633,0.0,-0.010237623006105423
965.0,1007.0,3.4606,0.1842,8.7159,-0.0363,0.0286,-0.1275,-1.4616825965097924,0.0,1.7478611469268799,-1.8535858392715454,-0.0,2.158334493637085,4.448046846980713,0.0,0.3043517470359802,-1.5967701117144983,-0.0,-0.014427948743104935,0.7880952954292297,0.0,-0.01388905942440033,0.7846112847328186,0.0,0.012199712917208672
965.0,1007.0,3.4606,0.1842,8.7159,-0.0363,0.0286,-0.1275,-1.4617511493018647,0.0,1.7081832885742188,-1.8536137342453003,-0.0,2.197044849395752,4.44806353628125,0.0,0.3003356158733368,-1.5967620054828089,-0.0,-0.022039206698536873,0.7881276607513428,0.0,0.00031317188404500484,0.784591019153595,0.0,-0.030963174998760223
965.0,1007.0,3.4606,0.1842,8.7159,-0.0363,0.0286,-0.1275,-1.461694636648037,0.0,1.709650993347168,-1.853642463684082,-0.0,2.139500141143799,4.448039217586182,0.0,0.2754829525947571,-1.5967333952533167,-0.0,0.0019319995772093534,0.7881677746772766,0.0,-0.00929063931107521,0.7846032977104187,0.0,0.008557954803109169
1007.0,8190.0,3.4319,0.1932,8.8187,-0.0409,0.0199,-0.1263,-1.4617309135249634,0.0,1.6983208656311035,-1.853549599647522,-0.0,2.1731574535369873,4.4480787950703125,0.0,0.30315878987312317,-1.5967939535724085,-0.0,-0.005155930295586586,0.788115382194519,0.0,0.001350492238998413,0.7846354246139526,0.0,0.039070166647434235
1007.0,8190.0,3.4319,0.1932,8.8187,-0.0409,0.0199,-0.1263,-1.4617347207716485,0.0,1.6930413246154785,-1.8536014556884766,-0.0,2.190995454788208,4.448014898891113,0.0,0.29414212703704834,-1.5967620054828089,-0.0,0.0032107692677527666,0.7880957126617432,0.0,0.004280990920960903,0.7846272587776184,0.0,0.025499889627099037
1007.0,8190.0,3.4319,0.1932,8.8187,-0.0409,0.0199,-0.1263,-1.461730883722641,0.0,1.716123342514038,-1.8536179065704346,-0.0,2.1691699028015137,4.448070688838623,0.0,0.30408555269241333,-1.596729580556051,-0.0,-0.007582445628941059,0.7881520986557007,0.0,-0.01040681079030037,0.7846515774726868,0.0,-0.018472351133823395
1007.0,8190.0,3.4319,0.1932,8.8187,-0.0409,0.0199,-0.1263,-1.4616825965097924,0.0,1.7115989923477173,-1.8536179065704346,-0.0,2.2384705543518066,4.448067350978516,0.0,0.3047868609428406,-1.5967777411090296,-0.0,-0.0075980317778885365,0.7880993485450745,0.0,-0.00018859782721847296,0.784647524356842,0.0,0.04296098276972771
1007.0,8190.0,3.4319,0.1932,8.8187,-0.0409,0.0199,-0.1263,-1.46173910916362,0.0,1.6910585165023804,-1.8536466360092163,-0.0,2.1237220764160156,4.448067350978516,0.0,0.31020280718803406,-1.5967977682696741,-0.0,-0.0023595336824655533,0.7880957126617432,0.0,-0.006467709317803383,0.7846194505691528,0.0,-0.011698108166456223
1007.0,8190.0,3.4319,0.1932,8.8187,-0.0409,0.0199,-0.1263,-1.46173910916362,0.0,1.690983772277832,-1.8536179065704346,-0.0,2.186586380004883,4.448071642512939,0.0,0.29703450202941895,-1.5967701117144983,-0.0,-0.0034267862793058157,0.7881640791893005,0.0,-0.010599518194794655,0.7845789194107056,0.0,0.007437054067850113
1007.0,8190.0,3.4319,0.1932,8.8187,-0.0409,0.0199,-0.1263,-1.4617227178863068,0.0,1.725308895111084,-1.8536014556884766,-0.0,2.1876988410949707,4.448091192836426,0.0,0.30072447657585144,-1.5967538992511194,-0.0,-0.0018291237065568566,0.7881559133529663,0.0,0.0018037015106528997,0.7846272587776184,0.0,-0.020046085119247437
1007.0,8190.0,3.4319,0.1932,8.8187,-0.0409,0.0199,-0.1263,-1.46173910916362,0.0,1.7069075107574463,-1.8536219596862793,-0.0,2.1411757469177246,4.448091192836426,0.0,0.2866896390914917,-1.5967701117144983,-0.0,-0.013305341824889183,0.788103461265564,0.0,-0.00449262885376811,0.7846313714981079,0.0,0.01557000633329153
1007.0,8190.0,3.4319,0.1932,8.8187,-0.0409,0.0199,-0.1263,-1.4617470738342782,0.0,1.686458706855774,-1.8536219596862793,-0.0,2.2177305221557617,4.448086901302002,0.0,0.290263295173645,-1.5967534224139612,-0.0,0.005551654379814863,0.7881439924240112,0.0,-0.007651662454009056,0.7846194505691528,0.0,-0.020429236814379692
1007.0,8190.0,3.4319,0.1932,8.8187,-0.0409,0.0199,-0.1263,-1.4617309284261246,0.0,1.7364110946655273,-1.8535981178283691,-0.0,2.1513586044311523,4.448091192836426,0.0,0.29391011595726013,-1.5967701117144983,-0.0,-0.009943359531462193,0.7880874872207642,0.0,0.001258817850612104,0.7846393585205078,0.0,0.013722287490963936
1007.0,8190.0,3.4319,0.1932,8.8187,-0.0409,0.0199,-0.1263,-1.461722695534565,0.0,1.6872820854187012,-1.8536055088043213,-0.0,2.198328971862793,4.4480787950703125,0.0,0.2891498804092407,-1.596773926411764,-0.0,-0.010552547872066498,0.788103461265564,0.0,-0.006055803503841162,0.7846153974533081,0.0,0.03618280217051506
1007.0,8190.0,3.4319,0.1932,8.8187,-0.0409,0.0199,-0.1263,-1.4617149245790024,0.0,1.6955255270004272,-1.8536301851272583,-0.0,2.171962261199951,4.448010607356689,0.0,0.2961924970149994,-1.596729580556051,-0.0,-0.0023346839006990194,0.7881600260734558,0.0,-0.0031003851909190416,0.784647524356842,0.0,-0.018292898312211037
1007.0,8190.0,3.4319,0.1932,8.8187,-0.0409,0.0199,-0.1263,-1.461726800804474,0.0,1.694127082824707,-1.8535734415054321,-0.0,2.207749843597412,4.448086901302002,0.0,0.2937147617340088,-1.5967538992511194,-0.0,-0.004716517403721809,0.788111686706543,0.0,-0.004607966169714928,0.7845953702926636,0.0,0.011613738723099232
1007.0,8190.0,3.4319,0.1932,8.8187,-0.0409,0.0199,-0.1263,-1.4617552694729348,0.0,1.7232304811477661,-1.8536943197250366,-0.0,2.1843068599700928,4.448030634517334,0.0,0.2932778596878052,-1.5967581907855433,-0.0,-0.009353824891149998,0.7881602644920349,0.0,0.00024304678663611412,0.784591019153595,0.0,0.001971891149878502
1004.0,983.0,3.4756,0.2028,8.6614,-0.0461,0.024,-0.1184,-1.4617227178863068,0.0,1.7378884553909302,-1.8536138534545898,-0.0,2.1383183002471924,4.448011084193848,0.0,0.30207741260528564,-1.5968096891986292,-0.0,-0.012571903876960278,0.7881559133529663,0.0,0.0010670898482203484,0.7846593856811523,0.0,-0.006080786231905222
1004.0,983.0,3.4756,0.2028,8.6614,-0.0461,0.024,-0.1184,-1.4617107969573517,0.0,1.708052635192871,-1.8536384105682373,-0.0,2.11954402923584,4.448031111354492,0.0,0.29480624198913574,-1.5967581907855433,-0.0,-0.003247554413974285,0.7881476879119873,0.0,-0.009269066154956818,0.7846194505691528,0.0,0.04910256713628769
1004.0,983.0,3.4756,0.2028,8.6614,-0.0461,0.024,-0.1184,-1.4617671456984063,0.0,1.7061121463775635,-1.8535898923873901,-0.0,2.1683554649353027,4.448046846980713,0.0,0.28734177350997925,-1.5967581907855433,-0.0,-0.0007975333137437701,0.7881072163581848,0.0,-0.003327381331473589,0.7846635580062866,0.0,0.025293173268437386
1004.0,983.0,3.4756,0.2028,8.6614,-0.0461,0.024,-0.1184,-1.4617309135249634,0.0,1.7161602973937988,-1.8536384105682373,-0.0,2.1858928203582764,4.448075457210205,0.0,0.2978000044822693,-1.596785847340719,-0.0,0.00028370809741318226,0.788159966468811,0.0,0.0014384156093001366,0.7846232056617737,0.0,0.038127023726701736
1004.0,983.0,3.4756,0.2028,8.6614,-0.0461,0.024,-0.1184,-1.4617671382478257,0.0,1.6785132884979248,-1.8536343574523926,-0.0,2.1400184631347656,4.44806353628125,0.0,0.3001592457294464,-1.5967896620379847,-0.0,-0.008676460012793541,0.7881481051445007,0.0,-0.021428197622299194,0.7846553325653076,0.0,0.0366651676595211
1004.0,983.0,3.4756,0.2028,8.6614,-0.0461,0.024,-0.1184,-1.4617309135249634,0.0,1.671550989151001,-1.8536425828933716,-0.0,2.2320284843444824,4.4480506616779785,0.0,0.291734904050827,-1.5968058745013636,-0.0,-0.00909949466586113,0.7880915999412537,0.0,-0.006014904007315636,0.7845871448516846,0.0,0.006332957185804844
1004.0,983.0,3.4756,0.2028,8.6614,-0.0461,0.024,-0.1184,-1.4617350038937111,0.0,1.727259635925293,-1.8535898923873901,-0.0,2.1794443130493164,4.448034926051758,0.0,0.2915746569633484,-1.5967620054828089,-0.0,0.00012312515173107386,0.7881481051445007,0.0,-0.0009577319724485278,0.7845669984817505,0.0,-0.03285897523164749
1004.0,983.0,3.4756,0.2028,8.6614,-0.0461,0.024,-0.1184,-1.4617028322866936,0.0,1.697916030883789,-1.8535652160644531,-0.0,2.1906187534332275,4.448082609767578,0.0,0.28533729910850525,-1.5967581907855433,-0.0,-0.0007271992508322,0.7881398797035217,0.0,-0.010261560790240765,0.784591019153595,0.0,-0.0028689661994576454
1004.0,983.0,3.4756,0.2028,8.6614,-0.0461,0.024,-0.1184,-1.4617432367852707,0.0,1.712526559829712,-1.8536137342453003,-0.0,2.1976351737976074,4.448086901302002,0.0,0.3018413186073303,-1.5967453161822718,-0.0,-0.003014713991433382,0.7881079316139221,0.0,-0.006616941187530756,0.7846235632896423,0.0,-0.0028855744749307632
1004.0,983.0,3.4756,0.2028,8.6614,-0.0461,0.024,-0.1184,-1.4617267933538933,0.0,1.7120156288146973,-1.8535857200622559,-0.0,2.201381206512451,4.448058767909668,0.0,0.28269803524017334,-1.5967376867877405,-0.0,-0.01605938747525215,0.7881194949150085,0.0,-0.011892566457390785,0.784655749797821,0.0,0.008732221089303493
1004.0,983.0,3.4756,0.2028,8.6614,-0.0461,0.024,-0.1184,-1.4617309135249634,0.0,1.7254626750946045,-1.8536137342453003,-0.0,2.1640818119049072,4.448075457210205,0.0,0.30237674713134766,-1.5967820326434534,-0.0,-0.0101759172976017,0.7881558537483215,0.0,-0.012931923381984234,0.7845830917358398,0.0,0.01798059046268463
1004.0,983.0,3.4756,0.2028,8.6614,-0.0461,0.024,-0.1184,-1.4617834624699135,0.0,1.7132853269577026,-1.8535979986190796,-0.0,2.1931631565093994,4.448046846980713,0.0,0.29821401834487915,-1.5967977682696741,-0.0,0.002367705572396517,0.7881481647491455,0.0,-0.013701671734452248,0.7846272587776184,0.0,0.019552791491150856
1004.0,983.0,3.4756,0.2028,8.6614,-0.0461,0.024,-0.1184,-1.4617149394801636,0.0,1.689361333847046,-1.8536055088043213,-0.0,2.1440720558166504,4.448030634517334,0.0,0.31030842661857605,-1.596729580556051,-0.0,-0.008676080033183098,0.7881677746772766,0.0,-0.0048710680566728115,0.7846194505691528,0.0,0.05818088352680206
960.0,978.0,3.4403,0.2016,8.744,-0.0466,0.0224,-0.124,-1.461706930106022,0.0,1.7261232137680054,-1.8535733222961426,-0.0,2.148704767227173,4.448095007533691,0.0,0.30335885286331177,-1.596729580556051,-0.0,-0.0047890678979456425,0.788151741027832,0.0,-0.0033335755579173565,0.784599244594574,0.0,-0.01476662140339613
960.0,978.0,3.4403,0.2016,8.744,-0.0466,0.0224,-0.124,-1.4617511493018647,0.0,1.6806472539901733,-1.8535773754119873,-0.0,2.1945343017578125,4.448063059444092,0.0,0.2892415523529053,-1.5967538992511194,-0.0,-0.015098988078534603,0.7881357669830322,0.0,0.0016674709040671587,0.7846395373344421,0.0,0.023856811225414276
960.0,978.0,3.4403,0.2016,8.744,-0.0466,0.0224,-0.124,-1.4617309135249634,0.0,1.7015886306762695,-1.8536508083343506,-0.0,2.1699750423431396,4.448082609767578,0.0,0.29584312438964844,-1.596773926411764,-0.0,-0.020834606140851974,0.7881481051445007,0.0,0.00296586100012064,0.7846115231513977,0.0,0.0029613664373755455
960.0,978.0,3.4403,0.2016,8.744,-0.0466,0.0224,-0.124,-1.4617470738342782,0.0,1.7122306823730469,-1.8536301851272583,-0.0,2.227818727493286,4.448039217586182,0.0,0.2998667359352112,-1.596729580556051,-0.0,-0.0007000323385000229,0.7880874276161194,0.0,-0.003047414356842637,0.7846515774726868,0.0,-0.006978357210755348
960.0,978.0,3.4403,0.2016,8.744,-0.0466,0.0224,-0.124,-1.4617470812848588,0.0,1.7482904195785522,-1.8535939455032349,-0.0,2.166839361190796,4.448071642512939,0.0,0.2755853533744812,-1.5967415014850062,-0.0,-0.014087716117501259,0.7880911231040955,0.0,-0.007546299137175083,0.7846716642379761,0.0,-0.0002366369590163231
960.0,978.0,3.4403,0.2016,8.744,-0.0466,0.0224,-0.124,-1.46173498899255,0.0,1.7215123176574707,-1.8535898923873901,-0.0,2.2150514125823975,4.448067350978516,0.0,0.3042662739753723,-1.5967538992511194,-0.0,-0.02443663775920868,0.7881399393081665,0.0,-0.005079505033791065,0.7845830917358398,0.0,-0.012670904397964478
960.0,978.0,3.4403,0.2016,8.744,-0.0466,0.0224,-0.124,-1.4617511493018647,0.0,1.7429598569869995,-1.8536622524261475,-0.0,2.1994049549102783,4.448067350978516,0.0,0.2975608706474304,-1.596729580556051,-0.0,-0.004206374287605286,0.7881399393081665,0.0,-0.013770355843007565,0.7846474647521973,0.0,0.0178508497774601
960.0,978.0,3.4403,0.2016,8.744,-0.0466,0.0224,-0.124,-1.4617309135249634,0.0,1.7415506839752197,-1.8536860942840576,-0.0,2.1847803592681885,4.448023005122803,0.0,0.2858964800834656,-1.5967977682696741,-0.0,-0.010264532640576363,0.7881357669830322,0.0,-0.005817278288304806,0.7846194505691528,0.0,-0.026029597967863083
960.0,978.0,3.4403,0.2016,8.744,-0.0466,0.0224,-0.124,-1.4617227178863068,0.0,1.683992862701416,-1.853609561920166,-0.0,2.1719632148742676,4.448046846980713,0.0,0.2928796708583832,-1.5967701117144983,-0.0,0.00023228558711707592,0.788115382194519,0.0,-0.002111224690452218,0.7846675515174866,0.0,0.03718866780400276
960.0,978.0,3.4403,0.2016,8.744,-0.0466,0.0224,-0.124,-1.461775266831257,0.0,1.724060297012329,-1.8535815477371216,-0.0,2.138002634048462,4.448034926051758,0.0,0.29323744773864746,-1.5967820326434534,-0.0,0.0031363144516944885,0.7881317138671875,0.0,-0.005124654620885849,0.784599244594574,0.0,-0.06712529063224792
960.0,978.0,3.4403,0.2016,8.744,-0.0466,0.0224,-0.124,-1.4617712658694764,0.0,1.6883448362350464,-1.8535981178283691,-0.0,2.2175755500793457,4.448071642512939,0.0,0.299186646938324,-1.5968058745013636,-0.0,-0.01145137194544077,0.7881235480308533,0.0,-0.0055207619443535805,0.7846313714981079,0.0,0.0002462943084537983
960.0,978.0,3.4403,0.2016,8.744,-0.0466,0.0224,-0.124,-1.4617630329779168,0.0,1.708160161972046,-1.8536261320114136,-0.0,2.1508376598358154,4.448018713588379,0.0,0.28373539447784424,-1.596785847340719,-0.0,0.003684598719701171,0.788148045539856,0.0,-0.009464466013014317,0.784655749797821,0.0,-0.023873567581176758
960.0,978.0,3.4403,0.2016,8.744,-0.0466,0.0224,-0.124,-1.4617470738342782,0.0,1.6887476444244385,-1.8536021709442139,-0.0,2.1809005737304688,4.44806353628125,0.0,0.30222728848457336,-1.5967581907855433,-0.0,-0.010106690227985382,0.7881640195846558,0.0,-0.0004956860793754458,0.7845706939697266,0.0,0.03805254027247429
960.0,978.0,3.4403,0.2016,8.744,-0.0466,0.0224,-0.124,-1.4617309135249634,0.0,1.7063159942626953,-1.8536301851272583,-0.0,2.128774404525757,4.4480787950703125,0.0,0.2899443805217743,-1.5967538992511194,-0.0,0.0004438473843038082,0.7881317734718323,0.0,-0.01560477539896965,0.784647524356842,0.0,-0.05188954621553421
952.0,8190.0,3.2267,0.1005,9.0933,-0.0321,0.0076,-0.1145,-1.4617028322866936,0.0,1.7066271305084229,-1.853601336479187,-0.0,2.1794464588165283,4.4480787950703125,0.0,0.30492377281188965,-1.5967581907855433,-0.0,-0.007127665914595127,0.788123607635498,0.0,-0.005491404328495264,0.7846194505691528,0.0,0.01993241161108017
952.0,8190.0,3.2267,0.1005,9.0933,-0.0321,0.0076,-0.1145,-1.461742953663208,0.0,1.73153817653656,-1.853601336479187,-0.0,2.136564016342163,4.448023005122803,0.0,0.2818838953971863,-1.5967257658587855,-0.0,-0.011547884903848171,0.7881399393081665,0.0,0.0013401161413639784,0.7846313714981079,0.0,0.04344962537288666
952.0,8190.0,3.2267,0.1005,9.0933,-0.0321,0.0076,-0.1145,-1.4617712658694764,0.0,1.7051502466201782,-1.8535287380218506,-0.0,2.205765724182129,4.448086901302002,0.0,0.29643726348876953,-1.5967662970172327,-0.0,-0.003846968524158001,0.7880717515945435,0.0,-0.0008078680839389563,0.7846272587776184,0.0,0.0049687158316373825
952.0,8190.0,3.2267,0.1005,9.0933,-0.0321,0.0076,-0.1145,-1.4617671456984063,0.0,1.6614103317260742,-1.8535816669464111,-0.0,2.19191312789917,4.448039217586182,0.0,0.29950571060180664,-1.5967701117144983,-0.0,-0.01943754404783249,0.788103461265564,0.0,-0.006611221469938755,0.7846032977104187,0.0,0.05762710049748421
952.0,8190.0,3.2267,0.1005,9.0933,-0.0321,0.0076,-0.1145,-1.4617227178863068,0.0,1.6567864418029785,-1.853617787361145,-0.0,2.1632509231567383,4.448030634517334,0.0,0.29164108633995056,-1.5967820326434534,-0.0,-0.0006493197288364172,0.7881600260734558,0.0,-0.0001826261868700385,0.7846634984016418,0.0,0.012506337836384773
952.0,8190.0,3.2267,0.1005,9.0933,-0.0321,0.0076,-0.1145,-1.46173910916362,0.0,1.7487149238586426,-1.8535939455032349,-0.0,2.2408132553100586,4.448082609767578,0.0,0.3067966401576996,-1.5967257658587855,-0.0,-0.010342209599912167,0.7881481051445007,0.0,0.0028950590640306473,0.7846434116363525,0.0,-0.037855155766010284
952.0,8190.0,3.2267,0.1005,9.0933,-0.0321,0.0076,-0.1145,-1.4617470738342782,0.0,1.7195241451263428,-1.8535702228546143,-0.0,2.10966157913208,4.448071642512939,0.0,0.2908288836479187,-1.596773926411764,-0.0,-0.013790176250040531,0.7880759239196777,0.0,0.0005012110341340303,0.7846194505691528,0.0,0.03909875079989433
952.0,8190.0,3.2267,0.1005,9.0933,-0.0321,0.0076,-0.1145,-1.4617309135249634,0.0,1.7171915769577026,-1.8535816669464111,-0.0,2.1831741333007812,4.4480787950703125,0.0,0.2894274890422821,-1.5967620054828089,-0.0,-0.01926378533244133,0.7880436182022095,0.0,-0.013155834749341011,0.7846313714981079,0.0,0.012986356392502785
952.0,8190.0,3.2267,0.1005,9.0933,-0.0321,0.0076,-0.1145,-1.4617432293346901,0.0,1.6791810989379883,-1.8536301851272583,-0.0,2.1772878170013428,4.448026819820068,0.0,0.28918278217315674,-1.5967415014850062,-0.0,-0.002953982213512063,0.7881399393081665,0.0,-0.008048884570598602,0.7846680879592896,0.0,0.04273427277803421
952.0,8190.0,3.2267,0.1005,9.0933,-0.0321,0.0076,-0.1145,-1.4617548745921631,0.0,1.7398452758789062,-1.8536580801010132,-0.0,2.1859819889068604,4.448046846980713,0.0,0.30128705501556396,-1.5967581907855433,-0.0,-0.0136029664427042,0.7880677580833435,0.0,0.0037146112881600857,0.7846351861953735,0.0,-0.02341991476714611
952.0,8190.0,3.2267,0.1005,9.0933,-0.0321,0.0076,-0.1145,-1.4617589500597497,0.0,1.6971721649169922,-1.8535981178283691,-0.0,2.1863646507263184,4.448058767909668,0.0,0.2991025447845459,-1.596729580556051,-0.0,0.007017031777650118,0.7881399393081665,0.0,-0.009102088399231434,0.7846354246139526,0.0,-0.006294566672295332
952.0,8190.0,3.2267,0.1005,9.0933,-0.0321,0.0076,-0.1145,-1.4617630702308197,0.0,1.696446418762207,-1.8536219596862793,-0.0,2.1742007732391357,4.448074503535889,0.0,0.30050748586654663,-1.5967534224139612,-0.0,0.004304142203181982,0.7881760001182556,0.0,-0.012855036184191704,0.784647524356842,0.0,-0.029029350727796555
952.0,8190.0,3.2267,0.1005,9.0933,-0.0321,0.0076,-0.1145,-1.461722658281662,0.0,1.7083004713058472,-1.8536467552185059,-0.0,2.1925208568573,4.44809548437085,0.0,0.28659456968307495,-1.5967777411090296,-0.0,-0.0051016975194215775,0.7881559133529663,0.0,-0.009774121455848217,0.7846194505691528,0.0,0.025690866634249687
937.0,996.0,3.3757,0.1974,8.7326,-0.0425,0.022,-0.1135,-1.4617711913636704,0.0,1.7244482040405273,-1.8535939455032349,-0.0,2.182549238204956,4.448054953212402,0.0,0.28839465975761414,-1.5967581907855433,-0.0,-0.015534385107457638,0.7881439924240112,0.0,0.0013207932934165,0.7846276760101318,0.0,0.007382446900010109
937.0,996.0,3.3757,0.1974,8.7326,-0.0425,0.022,-0.1135,-1.4617267933538933,0.0,1.6649707555770874,-1.853617787361145,-0.0,2.196446418762207,4.448054953212402,0.0,0.2886248528957367,-1.5967658201800745,-0.0,-0.005489367991685867,0.7880957722663879,0.0,-0.00032114284113049507,0.7846032977104187,0.0,-0.04517945274710655
937.0,996.0,3.3757,0.1974,8.7326,-0.0425,0.022,-0.1135,-1.46173498899255,0.0,1.7178770303726196,-1.8535702228546143,-0.0,2.149521589279175,4.448034926051758,0.0,0.2971176505088806,-1.596813980733053,-0.0,-0.010158979333937168,0.7880834341049194,0.0,-0.00895487330853939,0.7846354246139526,0.0,0.015245509333908558
937.0,996.0,3.3757,0.1974,8.7326,-0.0425,0.022,-0.1135,-1.4617309135249634,0.0,1.7414333820343018,-1.8536219596862793,-0.0,2.1730542182922363,4.448039217586182,0.0,0.30690592527389526,-1.5967701117144983,-0.0,-0.008533941581845284,0.788123607635498,0.0,6.339570973068476e-05,0.7846354842185974,0.0,0.029763061553239822
937.0,996.0,3.3757,0.1974,8.7326,-0.0425,0.022,-0.1135,-1.4616987270167847,0.0,1.7158252000808716,-1.8535939455032349,-0.0,2.149989604949951,4.448086901302002,0.0,0.2919042110443115,-1.5967901388751429,-0.0,-0.013122737407684326,0.7882000803947449,0.0,0.005430656485259533,0.7846276760101318,0.0,-0.028351731598377228
937.0,996.0,3.3757,0.1974,8.7326,-0.0425,0.022,-0.1135,-1.4617069524577637,0.0,1.6932713985443115,-1.8535734415054321,-0.0,2.1531200408935547,4.448074980373047,0.0,0.2911241948604584,-1.5967820326434534,-0.0,-0.010603181086480618,0.7881157398223877,0.0,0.000185128184966743,0.7846232056617737,0.0,0.0036027871537953615
937.0,996.0,3.3757,0.1974,8.7326,-0.0425,0.022,-0.1135,-1.461742953663208,0.0,1.7065136432647705,-1.8535898923873901,-0.0,2.158601760864258,4.448067350978516,0.0,0.2920951843261719,-1.5967896620379847,-0.0,0.0021346171852201223,0.7881357669830322,0.0,-0.008053340017795563,0.7846029996871948,0.0,-0.03221411257982254
937.0,996.0,3.3757,0.1974,8.7326,-0.0425,0.022,-0.1135,-1.461698756819107,0.0,1.7547006607055664,-1.8536498546600342,-0.0,2.19230055809021,4.44806353628125,0.0,0.2966850996017456,-1.5967896620379847,-0.0,-0.009697481989860535,0.7880759239196777,0.0,-0.006419130600988865,0.7846276760101318,0.0,-0.019967226311564445
937.0,996.0,3.3757,0.1974,8.7326,-0.0425,0.022,-0.1135,-1.4617189925960083,0.0,1.6998255252838135,-1.8535858392715454,-0.0,2.1334428787231445,4.448082609767578,0.0,0.28815704584121704,-1.5967701117144983,-0.0,-0.013048585504293442,0.7880957126617432,0.0,-0.0037263832055032253,0.7846354246139526,0.0,0.004246260970830917
937.0,996.0,3.3757,0.1974,8.7326,-0.0425,0.022,-0.1135,-1.461775266831257,0.0,1.7052557468414307,-1.853642463684082,-0.0,2.223235607147217,4.448002977962158,0.0,0.3053872883319855,-1.5967939535724085,-0.0,-0.014041278511285782,0.788115382194519,0.0,-0.006664693355560303,0.7846112847328186,0.0,0.024356812238693237
937.0,996.0,3.3757,0.1974,8.7326,-0.0425,0.022,-0.1135,-1.4617548447898407,0.0,1.6519794464111328,-1.853634238243103,-0.0,2.1310510635375977,4.448099299068115,0.0,0.3121007978916168,-1.5967620054828089,-0.0,-0.0035934930201619864,0.7882000803947449,0.0,0.002345744054764509,0.7846032977104187,0.0,0.005968875251710415
937.0,996.0,3.3757,0.1974,8.7326,-0.0425,0.022,-0.1135,-1.4616702434471627,0.0,1.7485575675964355,-1.8535693883895874,-0.0,2.157315492630005,4.448086901302002,0.0,0.3022201359272003,-1.5967581907855433,-0.0,-0.005604225676506758,0.788103461265564,0.0,0.008235389366745949,0.7846434116363525,0.0,-0.0549885630607605
937.0,996.0,3.3757,0.1974,8.7326,-0.0425,0.022,-0.1135,-1.461690792148449,0.0,1.7150951623916626,-1.853609561920166,-0.0,2.1844890117645264,4.448091192836426,0.0,0.2821275293827057,-1.596773926411764,-0.0,-0.00501179089769721,0.7881317138671875,0.0,-0.015783600509166718,0.7846194505691528,0.0,0.016641847789287567
937.0,996.0,3.3757,0.1974,8.7326,-0.0425,0.022,-0.1135,-1.4617267933538933,0.0,1.7230638265609741,-1.8536179065704346,-0.0,2.2055881023406982,4.4480787950703125,0.0,0.2750171422958374,-1.5967820326434534,-0.0,-0.001300613395869732,0.7881436347961426,0.0,-0.008656904101371765,0.7846354246139526,0.0,-0.012604796327650547
8190.0,982.0,3.2501,0.3948,8.8032,-0.0278,0.0234,-0.1194,-1.46173910916362,0.0,1.745189905166626,-1.853662133216858,-0.0,2.2098045349121094,4.448023005122803,0.0,0.2830452024936676,-1.5967658201800745,-0.0,-0.0100325345993042,0.7881112694740295,0.0,-0.0045669288374483585,0.7846395373344421,0.0,0.031336188316345215
8190.0,982.0,3.2501,0.3948,8.8032,-0.0278,0.0234,-0.1194,-1.4617552396706124,0.0,1.7290250062942505,-1.8536580801010132,-0.0,2.170958995819092,4.448058767909668,0.0,0.29606106877326965,-1.5967777411090296,-0.0,-0.006192819215357304,0.7881076335906982,0.0,0.003132635960355401,0.7846354246139526,0.0,-0.006190363317728043
8190.0,982.0,3.2501,0.3948,8.8032,-0.0278,0.0234,-0.1194,-1.4617231351188202,0.0,1.7152478694915771,-1.8536021709442139,-0.0,2.1836671829223633,4.448075457210205,0.0,0.3027515709400177,-1.5967777411090296,-0.0,0.004197527188807726,0.78817218542099,0.0,-0.019517088308930397,0.7846153974533081,0.0,0.02673429064452648
8190.0,982.0,3.2501,0.3948,8.8032,-0.0278,0.0234,-0.1194,-1.4617511493018647,0.0,1.6847989559173584,-1.8535981178283691,-0.0,2.177140474319458,4.448046846980713,0.0,0.29115328192710876,-1.5967777411090296,-0.0,-0.0014597742119804025,0.7880957126617432,0.0,0.0032279568258672953,0.7846112847328186,0.0,-0.03421100974082947
8190.0,982.0,3.2501,0.3948,8.8032,-0.0278,0.0234,-0.1194,-1.4617028322866936,0.0,1.7335548400878906,-1.8535981178283691,-0.0,2.2169363498687744,4.4480506616779785,0.0,0.2916439175605774,-1.5967701117144983,-0.0,-0.016994602978229523,0.7881194949150085,0.0,-0.010529051534831524,0.7846354246139526,0.0,-0.012613964267075062
8190.0,982.0,3.2501,0.3948,8.8032,-0.0278,0.0234,-0.1194,-1.4617267561009903,0.0,1.7166084051132202,-1.8535329103469849,-0.0,2.140136957168579,4.448099299068115,0.0,0.28341636061668396,-1.5967658201800745,-0.0,-0.01462739147245884,0.7880915999412537,0.0,-0.004575181286782026,0.7846153974533081,0.0,0.045444391667842865
8190.0,982.0,3.2501,0.3948,8.8032,-0.0278,0.0234,-0.1194,-1.4617429611137887,0.0,1.7478160858154297,-1.8535289764404297,-0.0,2.190835475921631,4.448082609767578,0.0,0.2909870147705078,-1.5967257658587855,-0.0,0.001341809518635273,0.788071870803833,0.0,-0.01319494005292654,0.7846029996871948,0.0,0.053917549550533295
8190.0,982.0,3.2501,0.3948,8.8032,-0.0278,0.0234,-0.1194,-1.46173498899255,0.0,1.7316758632659912,-1.8536787033081055,-0.0,2.174435615539551,4.448043032283447,0.0,0.29850298166275024,-1.5967500845538538,-0.0,-0.003929621074348688,0.7881194949150085,0.0,-0.007661965675652027,0.7846715450286865,0.0,-0.019585078582167625
8190.0,982.0,3.2501,0.3948,8.8032,-0.0278,0.0234,-0.1194,-1.4617149171284218,0.0,1.699861764907837,-1.853626012802124,-0.0,2.1723480224609375,4.448054953212402,0.0,0.29045066237449646,-1.5967777411090296,-0.0,-0.006530274637043476,0.7881520986557007,0.0,-0.0035640241112560034,0.7846634984016418,0.0,-0.02055935189127922
8190.0,982.0,3.2501,0.3948,8.8032,-0.0278,0.0234,-0.1194,-1.4617470738342782,0.0,1.733661413192749,-1.8536301851272583,-0.0,2.172477960586548,4.448103590602539,0.0,0.3112601339817047,-1.5967538992511194,-0.0,-0.00956003088504076,0.788115382194519,0.0,0.0014125469606369734,0.7846313714981079,0.0,-0.018441414460539818
8190.0,982.0,3.2501,0.3948,8.8032,-0.0278,0.0234,-0.1194,-1.4617312786034127,0.0,1.6788026094436646,-1.8536014556884766,-0.0,2.1780335903167725,4.448054953212402,0.0,0.30082041025161743,-1.5967977682696741,-0.0,-0.010334298945963383,0.788103461265564,0.0,-0.012296324595808983,0.784692108631134,0.0,0.02853170968592167
8190.0,982.0,3.2501,0.3948,8.8032,-0.0278,0.0234,-0.1194,-1.461694912319519,3.230937295484182e-08,1.6481585502624512,-1.8535537719726562,-0.0,2.213965654373169,4.448082609767578,0.0,0.3016047477722168,-1.596785847340719,-0.0,-0.008866625837981701,0.7880952954292297,0.0,-0.008777418173849583,0.7846511602401733,0.0,0.020133987069129944
8190.0,982.0,3.2501,0.3948,8.8032,-0.0278,0.0234,-0.1194,-1.4617511493018647,1.0467826920955328e-15,1.7031742334365845,-1.8536219596862793,-0.0,2.1698551177978516,4.448082609767578,0.0,0.30233263969421387,-1.596785847340719,-0.0,-0.007980960421264172,0.7881317734718323,0.0,-0.003146546892821789,0.7846112847328186,0.0,0.02079065330326557
8190.0,8190.0,3.7872,0.4403,8.5161,-0.0156,0.0014,-0.1529,-1.461739146416523,2.5278572876651253e-21,1.6379847526550293,-1.8535939455032349,5.47482725821169e-10,2.2031478881835938,4.448014898891113,0.0,0.2962886095046997,-1.5967701117144983,-0.0,-0.004218843299895525,0.7881399393081665,0.0,0.009701723232865334,0.7846393585205078,0.0,-0.0008138157427310944
8190.0,8190.0,3.7872,0.4403,8.5161,-0.0156,0.0014,-0.1529,-1.4616829392364998,8.189935838337192e-29,1.6890201568603516,-1.8536137342453003,1.773774838131558e-17,2.1711273193359375,4.448095007533691,0.0,0.30143359303474426,-1.5967333952533167,-0.0,-0.004901665262877941,0.788103461265564,0.0,0.010050254873931408,0.7846232056617737,0.0,0.015241426415741444
8190.0,8190.0,3.7872,0.4403,8.5161,-0.0156,0.0014,-0.1529,-1.46173498899255,1.977772918678345e-34,1.6816823482513428,-1.8535981178283691,4.283457601820556e-23,2.171229362487793,4.448086901302002,0.0,0.29533785581588745,-1.5968015829669397,-0.0,-0.015161126852035522,0.7881357669830322,0.0,-0.007204863242805004,0.7846797704696655,0.0,0.054085828363895416
8190.0,8190.0,3.7872,0.4403,8.5161,-0.0156,0.0014,-0.1529,-1.4617192831686516,4.776087594912204e-40,1.762259840965271,-1.853549599647522,1.0344048156976104e-28,2.20810604095459,4.448074503535889,0.0,0.28875842690467834,-1.5968177954303187,-1.4871010201034096e-08,-0.0014963827561587095,0.7881481051445007,0.0,-0.0019477199530228972,0.7846393585205078,0.0,0.0011706147342920303
8190.0,8190.0,3.7872,0.4403,8.5161,-0.0156,0.0014,-0.1529,-1.4617192906192322,0.0,1.6740331649780273,-1.8536301851272583,3.35134056439174e-36,2.146165609359741,4.4480787950703125,0.0,0.3141527771949768,-1.5967939535724085,-2.7027325147886694e-13,-0.00045462208800017834,0.788127601146698,0.0,-0.010608457028865814,0.7846112847328186,0.0,0.012588463723659515
8190.0,8190.0,3.7872,0.4403,8.5161,-0.0156,0.0014,-0.1529,-1.4617272105864068,0.0,1.7353229522705078,-1.8535618782043457,8.092498631475819e-42,2.157536506652832,4.448074980373047,0.0,0.2900797724723816,-1.5967777411090296,-7.523155393355073e-17,-0.005349704995751381,0.788031280040741,0.0,-0.007971848361194134,0.7846716642379761,0.0,0.009515905752778053
8190.0,8190.0,3.7872,0.4403,8.5161,-0.0156,0.0014,-0.1529,-1.461739071910717,0.0,1.7036690711975098,-1.8535579442977905,0.0,2.1835365295410156,4.4481188493916015,0.0,0.2997254729270935,-1.5967538992511194,-2.0940978704400608e-20,-0.017161687836050987,0.7880957126617432,0.0,-0.002995105693116784,0.7846757173538208,0.0,-0.03224022313952446
8190.0,8190.0,3.7872,0.4403,8.5161,-0.0156,0.0014,-0.1529,-1.4617231351188202,0.0,1.66059410572052,-1.85356605052948,0.0002077235112665221,2.1711764335632324,4.448059244746826,0.0,0.2882538139820099,-1.596802059804098,-3.8059195878827946e-25,0.0006965671782381833,0.7881276607513428,0.0,-0.005117502994835377,0.7846634984016418,0.0,0.019235119223594666
8190.0,8190.0,3.7872,0.4403,8.5161,-0.0156,0.0014,-0.1529,-1.4617231649211426,0.0,1.7094883918762207,-1.8535939455032349,0.00018662077491171658,2.1721057891845703,4.448023005122803,0.0,0.29516202211380005,-1.5967777411090296,-1.059391710425469e-28,0.00036086494219489396,0.7880997657775879,0.0,-0.003801134880632162,0.7845748662948608,0.0,-0.02203993685543537
8190.0,8190.0,3.7872,0.4403,8.5161,-0.0156,0.0014,-0.1529,-1.4617593821934243,0.0,1.6774685382843018,-1.8535701036453247,0.00016395561397075653,2.12141752243042,4.448071642512939,0.0,0.3086394667625427,-1.596773926411764,-1.9253921557217347e-33,-0.0096692880615592,0.788115382194519,0.0,0.006158681120723486,0.784647524356842,0.0,-0.010643172077834606
8190.0,8190.0,3.7872,0.4403,8.5161,-0.0156,0.0014,-0.1529,-1.4617553067258378,0.0,1.702383279800415,-1.8536021709442139,0.00015026812616270036,2.1934123039245605,4.44809548437085,0.0,0.2931055724620819,-1.5967939535724085,-5.359400725670592e-37,-0.008760141208767891,0.7881076335906982,0.0,-0.016545044258236885,0.7846552729606628,0.0,-0.058542169630527496
8190.0,8190.0,3.7872,0.4403,8.5161,-0.0156,0.0014,-0.1529,-1.4617028173855324,0.0,1.6528582572937012,-1.8536105155944824,0.0001386899093631655,2.189002275466919,4.448063059444092,0.0,0.30164486169815063,-1.5967538992511194,-1.491808332135557e-40,-0.01826760545372963,0.7881559133529663,0.0,0.0013911122223362327,0.7846593856811523,0.0,-0.0025241668336093426
8190.0,8190.0,3.7872,0.4403,8.5161,-0.0156,0.0014,-0.1529,-1.4617712286165734,0.0,1.6723682880401611,-1.8536548614501953,0.0001257711264770478,2.150613307952881,4.448071642512939,0.0,0.29369431734085083,-1.5967977682696741,-2.802596928649634e-45,0.006914501078426838,0.7881481051445007,0.0,-0.00775483064353466,0.7846634984016418,0.0,-0.03556376323103905
8190.0,8190.0,3.7872,0.4403,8.5161,-0.0156,0.0014,-0.1529,-1.4617231127670784,0.0,1.7252662181854248,-1.8535661697387695,0.00011755697778426111,2.199583053588867,4.448083086604736,0.0,0.2972768545150757,-1.5967701117144983,-0.0,-0.0043470412492752075,0.788148045539856,0.0,-0.00788932479918003,0.784647524356842,0.0,-0.043906062841415405
967.0,8190.0,3.1585,0.1346,8.7972,-0.0362,0.0397,-0.1324,-1.4617391017130394,0.0,1.709632396697998,-1.85356605052948,0.00011035014176741242,2.1444735527038574,4.448067350978516,0.0,0.29925772547721863,-1.596729580556051,-0.0,-0.008944995701313019,0.7881317734718323,0.0,-0.009166696108877659,0.7846393585205078,0.0,0.005141530651599169
967.0,8190.0,3.1585,0.1346,8.7972,-0.0362,0.0397,-0.1324,-1.4617108342102547,0.0,1.728515863418579,-1.8536063432693481,0.00010201176337432116,2.2130069732666016,4.44809548437085,0.0,0.28693896532058716,-1.5967538992511194,-0.0,-0.014697982929646969,0.7881317734718323,0.0,-0.011389482766389847,0.7846272587776184,0.0,-0.002123655751347542
967.0,8190.0,3.1585,0.1346,8.7972,-0.0362,0.0397,-0.1324,-1.4617107969573517,0.0,1.7114217281341553,-1.853617787361145,9.6540643426124e-05,2.174386501312256,4.448107405299805,0.0,0.29687100648880005,-1.5967581907855433,-0.0,0.0003431101213209331,0.788103461265564,0.0,-0.0020675272680819035,0.7846593856811523,0.0,-0.004984421655535698
967.0,8190.0,3.1585,0.1346,8.7972,-0.0362,0.0397,-0.1324,-1.4617107969573517,0.0,1.711340308189392,-1.8536343574523926,9.009769564727321e-05,2.135155200958252,4.448018713588379,0.0,0.29164499044418335,-1.5968177954303187,-0.0,-0.011726322583854198,0.7881357669830322,0.0,0.0003581827331800014,0.7846916317939758,0.0,-0.03613295778632164
967.0,8190.0,3.1585,0.1346,8.7972,-0.0362,0.0397,-0.1324,-1.4617066842368622,0.0,1.7129497528076172,-1.8535373210906982,8.580296707805246e-05,2.1824593544006348,4.448034926051758,0.0,0.29448202252388,-1.5967939535724085,-0.0,-0.021246710792183876,0.7880717515945435,0.0,-0.01121116615831852,0.7846434116363525,0.0,-0.0013491269201040268
967.0,8190.0,3.1585,0.1346,8.7972,-0.0362,0.0397,-0.1324,-1.4617432367852707,0.0,1.7076191902160645,-1.8535972833633423,8.189902291633189e-05,2.1351027488708496,4.448086901302002,0.0,0.29205894470214844,-1.5967939535724085,-0.0,-0.016609061509370804,0.788123607635498,0.0,-0.004329885356128216,0.7846516370773315,0.0,-0.0006419584387913346
967.0,8190.0,3.1585,0.1346,8.7972,-0.0362,0.0397,-0.1324,-1.461706743841507,0.0,1.7073750495910645,-1.8536622524261475,7.72148123360239e-05,2.1844120025634766,4.448043032283447,0.0,0.2988370656967163,-1.5967658201800745,-0.0,0.0020073354244232178,0.7880874276161194,0.0,-0.014974796213209629,0.784647524356842,0.0,-0.01561430562287569
967.0,8190.0,3.1585,0.1346,8.7972,-0.0362,0.0397,-0.1324,-1.4617308986238022,0.0,1.746610164642334,-1.8536425828933716,7.403886411339045e-05,2.1481287479400635,4.448026819820068,0.0,0.2913363575935364,-1.596785847340719,-0.0,-0.00994983222335577,0.7881076335906982,0.0,-0.008964118547737598,0.7846313714981079,0.0,-0.0023485622368752956
967.0,8190.0,3.1585,0.1346,8.7972,-0.0362,0.0397,-0.1324,-1.4617309284261246,-2.1950834707240574e-05,1.6932196617126465,-1.8536261320114136,7.111383456503972e-05,2.194855213165283,4.448054953212402,0.0,0.29970473051071167,-1.5967939535724085,-0.0,-0.0012387980241328478,0.7881357669830322,0.0,-0.0016336438711732626,0.7846396565437317,0.0,0.030829301103949547
967.0,8190.0,3.1585,0.1346,8.7972,-0.0362,0.0397,-0.1324,-1.46173498899255,-2.0930052414769307e-05,1.730714201927185,-1.853609561920166,6.755531649105251e-05,2.1320385932922363,4.448095007533691,0.0,0.2989477515220642,-1.5967620054828089,-0.0,-0.0026326514780521393,0.7881481051445007,0.0,-0.0019346859771758318,0.7846875786781311,0.0,-0.022583510726690292
967.0,8190.0,3.1585,0.1346,8.7972,-0.0362,0.0397,-0.1324,-1.4617589649609108,-3.033679058717098e-05,1.7188949584960938,-1.8536219596862793,6.511165702249855e-05,2.143916130065918,4.448054953212402,0.0,0.2817334532737732,-1.5967939535724085,-0.0,0.003790835849940777,0.7881157994270325,0.0,-0.006208872888237238,0.7846675515174866,0.0,-0.00571404630318284
967.0,8190.0,3.1585,0.1346,8.7972,-0.0362,0.0397,-0.1324,-1.4617548894933243,-1.8225679854211307e-09,1.706772804260254,-1.853617787361145,6.211587606230751e-05,2.188659191131592,4.448075457210205,0.0,0.2901621460914612,-1.5967939535724085,-0.0,0.0010004709474742413,0.7881357669830322,0.0,-0.006488829385489225,0.7846313714981079,0.0,-0.017085542902350426
967.0,8190.0,3.1585,0.1346,8.7972,-0.0362,0.0397,-0.1324,-1.4617589649609108,-4.401286955469383e-15,1.7083585262298584,-1.8535774946212769,6.0043887060601264e-05,2.154279947280884,4.448067350978516,0.0,0.29062631726264954,-1.5967701117144983,-0.0,-0.0032459921203553677,0.7880793213844299,0.0,0.003660582471638918,0.7847037315368652,0.0,0.029505819082260132
959.0,1019.0,3.3637,0.2088,8.464,-0.0396,0.0177,-0.1165,-1.4617712062648316,-1.0628590709123037e-20,1.7151085138320923,-1.8536063432693481,3.6476865972190353e-09,2.139827013015747,4.4480506616779785,0.0,0.29478058218955994,-1.596813980733053,-0.0,-0.0020151659846305847,0.7881357669830322,0.0,0.008099847473204136,0.7846393585205078,4.206889934721403e-05,0.01677301898598671
959.0,1019.0,3.3637,0.2088,8.464,-0.0396,0.0177,-0.1165,-1.461762936120369,-0.00021313656179700047,1.7141263484954834,-1.853626012802124,1.1818043231597394e-16,2.1850035190582275,4.4480506616779785,0.0,0.2889767289161682,-1.5967777411090296,-0.0,-0.0032278504222631454,0.7881559133529663,0.0,-0.003411564277485013,0.7846351861953735,1.9545484519767342e-06,0.03755537047982216
959.0,1019.0,3.3637,0.2088,8.464,-0.0396,0.0177,-0.1165,-1.461767041390278,-0.0002345864340895787,1.6966302394866943,-1.8535898923873901,2.853917758843527e-22,2.1752099990844727,4.448063059444092,0.0,0.3012697696685791,-1.596785847340719,-0.0,-0.0036826825235038996,0.7881357073783875,0.0,0.00603629881516099,0.7846670746803284,4.7200043352957355e-12,-0.012178164906799793
959.0,1019.0,3.3637,0.2088,8.464,-0.0396,0.0177,-0.1165,-1.4618111339262505,-0.0005761900101788342,1.6827915906906128,-1.8536343574523926,6.891873861406642e-28,2.164457321166992,4.448046846980713,0.0,0.2850651741027832,-1.5967939535724085,-0.0,-0.007221969775855541,0.7881194353103638,0.0,-0.004020022228360176,0.7846674919128418,0.0005098109832033515,0.015082541853189468
959.0,1019.0,3.3637,0.2088,8.464,-0.0396,0.0177,-0.1165,-1.461770774131157,-0.0010971780866384506,1.7411130666732788,-1.853601336479187,2.232879357021708e-35,2.1348695755004883,4.448063059444092,0.0,0.29161742329597473,-1.5967977682696741,-0.0,-0.008809007704257965,0.7881481051445007,0.0,-0.008306191302835941,0.7846834659576416,0.000997179071418941,0.027983594685792923
959.0,1019.0,3.3637,0.2088,8.464,-0.0396,0.0177,-0.1165,-1.4618029457381745,-0.0017595291137695312,1.7023394107818604,-1.8536787033081055,5.392196490721896e-41,2.1331727504730225,4.448014898891113,0.0,0.285026878118515,-1.5967896620379847,-0.0,0.0019867317751049995,0.7881152629852295,0.0,-0.012985137291252613,0.7847318053245544,0.001410940894857049,-0.01949402503669262
959.0,1019.0,3.3637,0.2088,8.464,-0.0396,0.0177,-0.1165,-1.4618430447629471,-0.004795676562935114,1.6935091018676758,-1.8536466360092163,-0.0,2.1920104026794434,4.4480787950703125,0.0,0.29713112115859985,-1.596785847340719,-0.0,-0.008423049002885818,0.788151741027832,0.0,-0.007473636418581009,0.7846951484680176,0.0023272838443517685,0.019021334126591682
959.0,1019.0,3.3637,0.2088,8.464,-0.0396,0.0177,-0.1165,-1.4618828308633347,-0.007304586470127106,1.6731317043304443,-1.8536343574523926,-0.0,2.1509876251220703,4.448079748744629,0.0,0.30602553486824036,-1.5967820326434534,-0.0,-0.0039276606403291225,0.7881677746772766,0.0,-0.013446037657558918,0.7847110033035278,0.003712615231052041,0.0012470005312934518
959.0,1019.0,3.3637,0.2088,8.464,-0.0396,0.0177,-0.1165,-1.461947039966919,-0.008268194273114204,1.7075221538543701,-1.8536343574523926,-0.0,2.167828321456909,4.448039217586182,0.0,0.29682815074920654,-1.596773926411764,-0.0,-0.011660355143249035,0.7881357669830322,0.0,-0.00769288232550025,0.7847713828086853,0.005144753027707338,0.03946859389543533
959.0,1019.0,3.3637,0.2088,8.464,-0.0396,0.0177,-0.1165,-1.4619949621013184,-0.006894076243042946,1.6894738674163818,-1.8535981178283691,-0.0,2.1687769889831543,4.448047323817871,0.0,0.3106650114059448,-1.596785847340719,-0.0,-0.0083021754398942,0.7881677746772766,0.0,0.0040656267665326595,0.7848073840141296,0.005924598779529333,-0.03744247555732727
959.0,1019.0,3.3637,0.2088,8.464,-0.0396,0.0177,-0.1165,-1.4620389130762597,-0.006234456785023212,1.7180023193359375,-1.8536301851272583,-0.0,2.1862666606903076,4.448023005122803,0.0,0.28901979327201843,-1.596773926411764,-0.0,-0.013365578837692738,0.7881436347961426,0.0,-0.004937813617289066,0.784831166267395,0.006094124633818865,0.022723015397787094
959.0,1019.0,3.3637,0.2088,8.464,-0.0396,0.0177,-0.1165,-1.4621153113297005,-0.005788613110780716,1.7573256492614746,-1.8536425828933716,-0.0,2.1786653995513916,4.448043032283447,0.0,0.3061103820800781,-1.5967896620379847,-0.0,-0.0068832095712423325,0.7881194353103638,0.0,-0.007488606963306665,0.7848915457725525,0.005704652983695269,-0.04776329547166824
959.0,1019.0,3.3637,0.2088,8.464,-0.0396,0.0177,-0.1165,-1.4621629279902955,-0.006826935801655054,1.668393611907959,-1.8536105155944824,-0.0,2.157851219177246,4.448047323817871,0.0,0.30048584938049316,-1.5967896620379847,-0.0,0.0022711060009896755,0.7881399393081665,0.0,0.0017872580792754889,0.784963846206665,0.005170842166990042,-0.007847808301448822
959.0,1019.0,3.3637,0.2088,8.464,-0.0396,0.0177,-0.1165,-1.462223009472229,-0.007600017823278904,1.6720155477523804,-1.8535981178283691,-0.0,2.160731792449951,4.448063059444092,0.0,0.31251969933509827,-1.5968015829669397,-0.0,-0.011774186976253986,0.7881357669830322,0.0,-0.010400653816759586,0.7849714756011963,0.004708275198936462,0.00583501486107707
973.0,945.0,3.4965,0.0473,8.7864,-0.0425,0.0131,-0.1231,-1.4622469705394288,-0.00792202539741993,1.6849098205566406,-1.853557825088501,-0.0,2.187962055206299,4.448059244746826,0.0,0.29852133989334106,-1.5967939535724085,-0.0,-0.000950574700254947,0.788123607635498,0.0,-0.008720742538571358,0.7850242853164673,0.003920644987374544,-0.007767029106616974
973.0,945.0,3.4965,0.0473,8.7864,-0.0425,0.0131,-0.1231,-1.4623631921461602,-0.008521330542862415,1.716969609260559,-1.8535816669464111,-0.0,2.1910037994384766,4.448031111354492,0.0,0.2898150384426117,-1.5967977682696741,-0.0,-0.008667688816785812,0.7882160544395447,0.0,-0.009056820534169674,0.7850236296653748,0.0036396265495568514,-0.018096085637807846
973.0,945.0,3.4965,0.0473,8.7864,-0.0425,0.0131,-0.1231,-1.4624434125474473,-0.009369909763336182,1.7385730743408203,-1.85356605052948,-0.0,2.209205150604248,4.448011084193848,0.0,0.298725426197052,-1.596773926411764,-0.0,-0.00515808816999197,0.7881760001182556,0.0,0.0006451276130974293,0.785043478012085,0.0036599235609173775,0.03965788707137108
973.0,945.0,3.4965,0.0473,8.7864,-0.0425,0.0131,-0.1231,-1.4624750179103394,-0.012009983882308006,1.7654924392700195,-1.8536137342453003,-0.0,2.173121929168701,4.4480506616779785,0.0,0.30421847105026245,-1.5967939535724085,-0.0,-0.0119180204346776,0.788127601146698,0.0,-0.004999494645744562,0.7850596308708191,0.002786425407975912,0.07360278815031052
973.0,945.0,3.4965,0.0473,8.7864,-0.0425,0.0131,-0.1231,-1.4625467521003266,-0.013089560903608799,1.6811048984527588,-1.8535857200622559,-0.0,2.218594551086426,4.448030634517334,0.0,0.2880434989929199,-1.5967896620379847,-0.0,-0.009413598105311394,0.7881719470024109,0.0,-0.009623845107853413,0.7850717306137085,0.002539651934057474,-0.008333209902048111
973.0,945.0,3.4965,0.0473,8.7864,-0.0425,0.0131,-0.1231,-1.462634765808918,-0.014172868803143501,1.6808358430862427,-1.8535494804382324,-0.0,2.160555839538574,4.448035402888916,0.0,0.2936842143535614,-1.596785847340719,-0.0,-0.0025040858890861273,0.788151741027832,0.0,0.006474369205534458,0.7851279377937317,0.0020353817380964756,0.01421807799488306
973.0,945.0,3.4965,0.0473,8.7864,-0.0425,0.0131,-0.1231,-1.4627911162427445,-0.013875165022909641,1.7008414268493652,-1.8535816669464111,-0.0,2.2128021717071533,4.448043032283447,0.0,0.3026818037033081,-1.5967820326434534,-0.0,-0.0038590217009186745,0.7881472706794739,0.0,0.006298854015767574,0.7850956916809082,0.0011606247862800956,-0.011581114493310452
973.0,945.0,3.4965,0.0473,8.7864,-0.0425,0.0131,-0.1231,-1.4628469359925766,-0.013343533501029015,1.66322922706604,-1.8535826206207275,-0.0,2.1800408363342285,4.448011084193848,0.0,0.300945520401001,-1.5967376867877405,-0.0,-0.010204536840319633,0.7881637215614319,0.0,-0.0069809164851903915,0.7850795388221741,0.0007842993945814669,0.05697915330529213
973.0,945.0,3.4965,0.0473,8.7864,-0.0425,0.0131,-0.1231,-1.4629590448788186,-0.013164508156478405,1.7170284986495972,-1.853642463684082,-0.0,2.191300392150879,4.448019190425537,1.3507331919626608e-09,0.298317551612854,-1.5967939535724085,-0.0,0.0003272281028330326,0.7881636619567871,0.0,0.008526039309799671,0.785111665725708,0.0005461473483592272,0.019027115777134895
973.0,945.0,3.4965,0.0473,8.7864,-0.0425,0.0131,-0.1231,-1.4631238144687195,-0.013215350918471813,1.7275735139846802,-1.8536105155944824,-0.0,2.1514806747436523,4.448075457210205,2.454890708303379e-14,0.29122355580329895,-1.5967820326434534,-0.0,-0.011620653793215752,0.7881637215614319,0.0,-0.012345847673714161,0.7850835919380188,0.00045359923387877643,0.049100492149591446
973.0,945.0,3.4965,0.0473,8.7864,-0.0425,0.0131,-0.1231,-1.463110738699772,-0.013676121830940247,1.7018805742263794,-1.8535939455032349,-0.0,2.1547677516937256,4.4479991632648925,6.8332790697061515e-18,0.28233078122138977,-1.596785847340719,-0.0,0.00027058133855462074,0.7881113290786743,0.0,-0.010141272097826004,0.7850997447967529,0.0003730144235305488,-0.019721724092960358
973.0,945.0,3.4965,0.0473,8.7864,-0.0425,0.0131,-0.1231,-1.4632791441730042,-0.01413616444915533,1.6901003122329712,-1.8536301851272583,-0.0,2.1330978870391846,4.4479991632648925,1.2419145778154947e-22,0.30166861414909363,-1.5968096891986292,-0.0,-0.005822394974529743,0.7881596088409424,0.0,-0.0033278982155025005,0.7851157188415527,0.00034466388751752675,0.014937089756131172
973.0,945.0,3.4965,0.0473,8.7864,-0.0425,0.0131,-0.1231,-1.4633668598583718,-0.013868184760212898,1.7024400234222412,-1.8535618782043457,-0.0,2.1417396068573,4.4479991632648925,3.4569145195340344e-26,0.295713871717453,-1.5967453161822718,-0.0,-0.011585352942347527,0.7882000803947449,0.0,0.011143546551465988,0.7850795388221741,0.00030137947760522366,-0.008196104317903519
1032.0,986.0,2.5711,0.341,8.3557,-0.0345,-0.0145,-0.1249,-1.4634145137718697,-0.013545145280659199,1.6643178462982178,-1.8536382913589478,-0.0,2.1834614276885986,4.448002977962158,9.622450054136263e-30,0.2810960114002228,-1.5967538992511194,-0.0,-0.016559813171625137,0.7881755828857422,0.0,0.0015311810420826077,0.7851157188415527,0.00018922673189081252,0.040177203714847565
1032.0,986.0,2.5711,0.341,8.3557,-0.0345,-0.0145,-0.1249,-1.4635669228485604,-0.013231119140982628,1.6800494194030762,-1.8536021709442139,-0.0,2.1636807918548584,4.448031111354492,1.7488326516806126e-34,0.2927427887916565,-1.596813980733053,-0.0,-0.020391318947076797,0.7881317138671875,0.0,0.002134899375960231,0.785103440284729,0.00022627552971243858,-0.01654273085296154
1032.0,986.0,2.5711,0.341,8.3557,-0.0345,-0.0145,-0.1249,-1.4636629235795517,-0.013087061233818531,1.66567862033844,-1.8536021709442139,-0.0,2.22836971282959,4.448034926051758,4.867939906651767e-38,0.2911117970943451,-1.5968058745013636,-0.0,-0.012446662411093712,0.7880952954292297,0.0,0.0036531290970742702,0.785111665725708,0.0005020261742174625,0.034165143966674805
1032.0,986.0,2.5711,0.341,8.3557,-0.0345,-0.0145,-0.1249,-1.4636902448586007,-0.012972244061529636,1.6701998710632324,-1.8535618782043457,-0.0,2.1907551288604736,4.448043032283447,1.355055615002098e-41,0.29001736640930176,-1.5967977682696741,-0.0,-0.0058271512389183044,0.7881559133529663,0.0,0.01057521067559719,0.7851157188415527,0.0009918382856994867,-0.005736547522246838
1032.0,986.0,2.5711,0.341,8.3557,-0.0345,-0.0145,-0.1249,-1.4638264638236542,-0.013082816265523434,1.6473177671432495,-1.853574275970459,-0.0,2.2029902935028076,4.448030634517334,0.0,0.2938383221626282,-1.5968058745013636,-0.0,-0.0028340385761111975,0.7881317138671875,0.0,-0.002695067785680294,0.7851559519767761,0.002017291495576501,0.028917180374264717
1032.0,986.0,2.5711,0.341,8.3557,-0.0345,-0.0145,-0.1249,-1.4638902780464669,-0.013537183403968811,1.666125774383545,-1.8535248041152954,-0.0,2.118274450302124,4.448063059444092,0.0,0.2716980576515198,-1.5967658201800745,-0.0,-0.03290897607803345,0.788151741027832,0.0,-0.004760927055031061,0.7851316332817078,0.003163033165037632,0.039029717445373535
1032.0,986.0,2.5711,0.341,8.3557,-0.0345,-0.0145,-0.1249,-1.4640303340605278,-0.013925261795520782,1.6168525218963623,-1.8535618782043457,-0.0,2.1736366748809814,4.448063059444092,0.0,0.2903146743774414,-1.5968135038958948,-0.0,-0.026897942647337914,0.7881997227668762,0.0,0.007672792300581932,0.7852161526679993,0.0044719381257891655,0.08075080811977386
1032.0,986.0,2.5711,0.341,8.3557,-0.0345,-0.0145,-0.1249,-1.4641221848181267,-0.015750445425510406,1.6602977514266968,-1.853549599647522,-0.0,2.1107921600341797,4.448038740749023,0.0,0.28962090611457825,-1.596785847340719,-0.0,-0.020303819328546524,0.7881030440330505,0.0,-0.00011982768774032593,0.7852479815483093,0.006596344523131847,0.05849848687648773
1032.0,986.0,2.5711,0.341,8.3557,-0.0345,-0.0145,-0.1249,-1.4642260682633896,-0.01861356757581234,1.6113213300704956,-1.8536301851272583,-0.0,2.1606831550598145,4.448107405299805,0.0,0.2760408818721771,-1.5967376867877405,-0.0,-0.02707754820585251,0.7880997061729431,0.0,0.006394082680344582,0.7852798700332642,0.008157958276569843,0.07289865612983704
1032.0,986.0,2.5711,0.341,8.3557,-0.0345,-0.0145,-0.1249,-1.4644061264446755,-0.022845391184091568,1.5769505500793457,-1.8535816669464111,2.977253927838319e-07,2.1263740062713623,4.448099299068115,0.0,0.29425832629203796,-1.5967415014850062,-0.0,-0.013081568293273449,0.788123607635498,0.0,-0.008749505504965782,0.7853519916534424,0.01101004984229803,0.09145785123109818
1032.0,986.0,2.5711,0.341,8.3557,-0.0345,-0.0145,-0.1249,-1.4645662170699616,-0.02475317381322384,1.6141104698181152,-1.8535702228546143,7.189717029197629e-13,2.1373298168182373,4.4480787950703125,0.0,0.2884059548377991,-1.596773926411764,-0.0,-0.03142832964658737,0.7881235480308533,0.0,0.005355299916118383,0.785412073135376,0.012292714789509773,0.10846398770809174
1032.0,986.0,2.5711,0.341,8.3557,-0.0345,-0.0145,-0.1249,-1.4646893751672287,-0.027346758171916008,1.6000938415527344,-1.8536145687103271,1.7362320466189507e-18,2.1256628036499023,4.448091192836426,0.0,0.28275585174560547,-1.5967658201800745,-0.0,-0.021365471184253693,0.788127601146698,0.0,0.008233029395341873,0.7855725288391113,0.014084426686167717,0.16252124309539795
1032.0,986.0,2.5711,0.341,8.3557,-0.0345,-0.0145,-0.1249,-1.4649977695992966,-0.03382856026291847,1.5553851127624512,-1.853590726852417,0.00041292989044450223,2.131596565246582,4.4480787950703125,0.0,0.2697649598121643,-1.5967453161822718,-0.0,-0.03135347738862038,0.7881399393081665,0.0,0.014613411389291286,0.785656213760376,0.015794916078448296,0.06871651113033295
1032.0,986.0,2.5711,0.341,8.3557,-0.0345,-0.0145,-0.1249,-1.4652094778469582,-0.04001687839627266,1.5783251523971558,-1.853513240814209,0.0003885356418322772,2.121523380279541,4.448067350978516,0.0,0.2892330288887024,-1.5967333952533167,-0.0,-0.0399114266037941,0.7881596088409424,0.0,0.002913970500230789,0.7857485413551331,0.01610853336751461,0.14484065771102905
8190.0,950.0,1.8485,0.6981,9.472,0.0015,-0.0799,-0.113,-1.4655730885318299,-0.05029972642660141,1.5661497116088867,-1.8535453081130981,0.00030169199453666806,2.1209230422973633,4.448083086604736,0.0,0.2848707139492035,-1.5967534224139612,-0.0,-0.04554179683327675,0.7881677150726318,0.0,0.011953391134738922,0.7858926653862,0.017272399738430977,0.15888124704360962
8190.0,950.0,1.8485,0.6981,9.472,0.0015,-0.0799,-0.113,-1.4658849400332947,-0.058118753135204315,1.540452003479004,-1.8536103963851929,0.00030142010655254126,2.106837272644043,4.448086901302002,0.0,0.27411073446273804,-1.596717659627096,-0.0,-0.024110613390803337,0.788115382194519,0.0,-0.0023088217712938786,0.7859524488449097,0.016358710825443268,0.11518831551074982
8190.0,950.0,1.8485,0.6981,9.472,0.0015,-0.0799,-0.113,-1.4662931200912972,-0.06888506561517715,1.557629108428955,-1.8535618782043457,0.00026360261836089194,2.123258113861084,4.448054953212402,0.0,0.261703222990036,-1.5967496077166956,-0.0,-0.02506721019744873,0.7881555557250977,0.0,0.0049692378379404545,0.786036491394043,0.015943201258778572,0.12657763063907623
8190.0,950.0,1.8485,0.6981,9.472,0.0015,-0.0799,-0.113,-1.466908448641636,-0.08467850089073181,1.476749300956726,-1.8535215854644775,0.00023015278566163033,2.1234917640686035,4.4480787950703125,0.0,0.26500973105430603,-1.5967415014850062,-0.0,-0.026581276208162308,0.7881636619567871,0.0,0.0022109076380729675,0.7862412929534912,0.01645987294614315,0.16432172060012817
8190.0,950.0,1.8485,0.6981,9.472,0.0015,-0.0799,-0.113,-1.4675161030939599,-0.09854176640510559,1.5332190990447998,-1.8535339832305908,0.0003143215144518763,2.1335790157318115,4.448074503535889,0.0,0.27624911069869995,-1.596729580556051,-0.0,-0.011760657653212547,0.7881677150726318,0.0,-0.004804070107638836,0.7863006591796875,0.018347449600696564,0.17336997389793396
8190.0,950.0,1.8485,0.6981,9.472,0.0015,-0.0799,-0.113,-1.4680912655643006,-0.10793489217758179,1.47874915599823,-1.8535059690475464,0.001760348561219871,2.128300428390503,4.448127432460449,0.0,0.27520301938056946,-1.5967376867877405,-0.0,-0.011107709258794785,0.7881357669830322,0.0,0.0029738328885287046,0.7864452004432678,0.01807560957968235,0.1305985152721405
8190.0,950.0,1.8485,0.6981,9.472,0.0015,-0.0799,-0.113,-1.46905072153125,-0.11299577355384827,1.48992919921875,-1.853501796722412,0.005113284103572369,2.1035542488098145,4.448110743159912,0.0,0.27414166927337646,-1.596785847340719,-0.0,-0.02264276146888733,0.7881555557250977,0.0,-0.0038104872219264507,0.7865085601806641,0.01892271637916565,0.14214985072612762
8190.0,950.0,1.8485,0.6981,9.472,0.0015,-0.0799,-0.113,-1.4697458159974595,-0.11295569688081741,1.495242953300476,-1.8534541130065918,0.005310116335749626,2.1872780323028564,4.448107405299805,0.0,0.2731683552265167,-1.596729580556051,-0.0,-0.028411373496055603,0.7881677150726318,0.0,0.00838856864720583,0.7866529226303101,0.018959810957312584,0.15980836749076843
8190.0,950.0,1.8485,0.6981,9.472,0.0015,-0.0799,-0.113,-1.4707651299289246,-0.12194577604532242,1.4533222913742065,-1.853417992591858,0.0020862570963799953,2.0865368843078613,4.448059244746826,0.0,0.2690974473953247,-1.5967581907855433,-0.0,-0.030001219362020493,0.7881837487220764,0.0,-0.0022256451193243265,0.7868654727935791,0.01925678923726082,0.1559293121099472
8190.0,950.0,1.8485,0.6981,9.472,0.0015,-0.0799,-0.113,-1.4715446394732972,-0.13843919336795807,1.4371373653411865,-1.8534457683563232,0.0001868884137365967,2.1176600456237793,4.448086901302002,0.0,0.26664069294929504,-1.5967376867877405,-0.0,-0.031492140144109726,0.7881755828857422,0.0,0.008863665163516998,0.7869008183479309,0.01874229684472084,0.08471961319446564
8190.0,950.0,1.8485,0.6981,9.472,0.0015,-0.0799,-0.113,-1.4724120137146492,-0.15220287442207336,1.4523756504058838,-1.8534696102142334,1.2419493211623944e-09,2.0626275539398193,4.4480506616779785,0.0,0.2608470916748047,-1.5967496077166956,-0.0,-0.019345082342624664,0.7881919145584106,0.0,0.0225413478910923,0.7870372533798218,0.016443096101284027,0.12013588845729828
8190.0,950.0,1.8485,0.6981,9.472,0.0015,-0.0799,-0.113,-1.473614902501442,-0.1632290780544281,1.4474799633026123,-1.8533817529678345,4.023758216654384e-17,2.1545207500457764,4.4481188493916015,0.0,0.24633175134658813,-1.5967615286456507,-0.0,-0.013586634770035744,0.7881112694740295,0.0,-0.00039574853144586086,0.7871132493019104,0.013008780777454376,0.12845474481582642
8190.0,950.0,1.8485,0.6981,9.472,0.0015,-0.0799,-0.113,-1.4745863539031525,-0.16444624960422516,1.3987480401992798,-1.8533577919006348,0.0018566594226285815,2.115410327911377,4.448066397304199,0.0,0.2505190968513489,-1.5967100302325647,-0.0,-0.012935420498251915,0.7881436347961426,0.0,0.010488278232514858,0.7872174382209778,0.011751995421946049,0.1413542628288269
986.0,8190.0,2.6399,0.652,8.7111,-0.0108,-0.2334,-0.1188,-1.475577065055706,-0.159758523106575,1.4371548891067505,-1.8534259796142578,0.0038747438229620457,2.1080262660980225,4.448074980373047,0.0,0.25658220052719116,-1.596733872090475,-0.0,-0.007013022433966398,0.7881153225898743,0.0,0.015328282490372658,0.7873744368553162,0.011296581476926804,0.14755357801914215
986.0,8190.0,2.6399,0.652,8.7111,-0.0108,-0.2334,-0.1188,-1.4768964064172287,-0.16477841138839722,1.4397022724151611,-1.853413701057434,0.001675560139119625,2.0539300441741943,4.448038740749023,0.0,0.25639399886131287,-1.5967701117144983,-0.0,-0.005340575706213713,0.7881354689598083,0.0,-0.0017234571278095245,0.787405788898468,0.011937769129872322,0.10459789633750916
986.0,8190.0,2.6399,0.652,8.7111,-0.0108,-0.2334,-0.1188,-1.4780074071935196,-0.1822802871465683,1.4638755321502686,-1.8534014225006104,0.0004400700854603201,2.0773673057556152,4.448083086604736,0.0,0.2732335925102234,-1.5967415014850062,-0.0,-0.013303441926836967,0.7881395220756531,0.0,0.002035290002822876,0.7874817252159119,0.013536559417843819,0.12846043705940247
986.0,8190.0,2.6399,0.652,8.7111,-0.0108,-0.2334,-0.1188,-1.4791145858219643,-0.19970260560512543,1.4311416149139404,-1.8533661365509033,-0.000228525314014405,2.106888771057129,4.448018713588379,0.0,0.2671411335468292,-1.5967701117144983,-0.0,-0.0248274989426136,0.7881357669830322,0.0,-0.009312206879258156,0.7875860929489136,0.01423890795558691,0.12458345293998718
986.0,8190.0,2.6399,0.652,8.7111,-0.0108,-0.2334,-0.1188,-1.480660819714405,-0.2040482461452484,1.4244853258132935,-1.8533825874328613,-7.294641557464843e-10,2.108275890350342,4.448014898891113,0.0,0.2565022110939026,-1.5967496077166956,-0.0,-0.028157684952020645,0.7881718277931213,0.0,-0.007074505556374788,0.7876861095428467,0.013710208237171173,0.10603586584329605
986.0,8190.0,2.6399,0.652,8.7111,-0.0108,-0.2334,-0.1188,-1.481831581597664,-0.2008594423532486,1.4243781566619873,-1.8532977104187012,0.0024333312176167965,2.1470842361450195,4.448106928462646,0.0,0.2657565176486969,-1.59674579301943,-0.0,-0.015344810672104359,0.7881636619567871,0.0,0.005661805626004934,0.7877297401428223,0.012727882713079453,0.10777315497398376
986.0,8190.0,2.6399,0.652,8.7111,-0.0108,-0.2334,-0.1188,-1.4835630145720025,-0.20799268782138824,1.4041790962219238,-1.8533298969268799,0.004070785827934742,2.088021755218506,4.448054953212402,0.0,0.26523709297180176,-1.5967701117144983,-0.0,-0.010418341495096684,0.7881276607513428,0.0,-0.0018620395567268133,0.7878456115722656,0.01297028735280037,0.09300237894058228
986.0,8190.0,2.6399,0.652,8.7111,-0.0108,-0.2334,-0.1188,-1.4848658677986641,-0.21749691665172577,1.4715101718902588,-1.8533133268356323,0.0021201528143137693,2.1390442848205566,4.448066397304199,0.0,0.2610251307487488,-1.5967620054828089,-0.0,-0.01865825243294239,0.7881194949150085,0.0,0.008283460512757301,0.7879661321640015,0.014854160137474537,0.14406076073646545
986.0,8190.0,2.6399,0.652,8.7111,-0.0108,-0.2334,-0.1188,-1.4861726251295586,-0.22763726115226746,1.4601409435272217,-1.8533504009246826,0.0004762051103170961,2.114032745361328,4.448074503535889,0.0,0.26830893754959106,-1.5967777411090296,-0.0,-0.04026467353105545,0.7881436347961426,0.0,-0.00170466722920537,0.7880581021308899,0.017141027376055717,0.12232940644025803
986.0,8190.0,2.6399,0.652,8.7111,-0.0108,-0.2334,-0.1188,-1.4880029273084183,-0.237635999917984,1.3810698986053467,-1.8533141613006592,0.0003345207078382373,2.1738734245300293,4.448059244746826,0.0,0.2643105387687683,-1.5967534224139612,-0.0,-0.013561788946390152,0.7881755828857422,0.0,-0.005041144322603941,0.7881579995155334,0.01727859489619732,0.15562891960144043
986.0,8190.0,2.6399,0.652,8.7111,-0.0108,-0.2334,-0.1188,-1.489477665429451,-0.2419901341199875,1.467106819152832,-1.8532729148864746,0.00032549380557611585,2.1097350120544434,4.448063059444092,0.0,0.25963079929351807,-1.5967534224139612,-0.0,-0.017250720411539078,0.7881636619567871,0.0,-0.0057526566088199615,0.7883185744285583,0.017465006560087204,0.13037507236003876
986.0,8190.0,2.6399,0.652,8.7111,-0.0108,-0.2334,-0.1188,-1.4909005475095292,-0.2423263043165207,1.4735443592071533,-1.8533297777175903,0.0002495111257303506,2.131844997406006,4.448110743159912,0.0,0.2624093294143677,-1.5967534224139612,-0.0,-0.017700497061014175,0.7881836891174316,0.0,0.0021286392584443092,0.788414716720581,0.016747822985053062,0.10888385772705078
986.0,8190.0,2.6399,0.652,8.7111,-0.0108,-0.2334,-0.1188,-1.4929149609855195,-0.2534998953342438,1.4716839790344238,-1.853293538093567,0.0008196061826311052,2.1035077571868896,4.448074503535889,0.0,0.2793319523334503,-1.5967219511615198,-0.0,-0.0052403733134269714,0.7881194949150085,0.0,-0.0057049281895160675,0.7885547280311584,0.018796393647789955,0.11925923824310303
986.0,8190.0,2.6399,0.652,8.7111,-0.0108,-0.2334,-0.1188,-1.4944813710502167,-0.259912371635437,1.5224261283874512,-1.8532934188842773,0.0013070637360215187,2.152491569519043,4.448070688838623,0.0,0.2748744487762451,-1.5967615286456507,-0.0,-0.016795989125967026,0.7880991101264954,0.0,0.0039515383541584015,0.7886345982551575,0.01872544176876545,0.08114182204008102
1000.0,930.0,4.1264,0.0718,8.2349,-0.0235,-0.2712,-0.1182,-1.4966029238751908,-0.2616190016269684,1.5185869932174683,-1.8532975912094116,0.0029589415062218904,2.1316332817077637,4.448074503535889,0.0,0.26464608311653137,-1.5967496077166956,-0.0,-0.018253758549690247,0.7881357669830322,0.0,-0.004343670792877674,0.7888188362121582,0.020136859267950058,0.13416242599487305
1000.0,930.0,4.1264,0.0718,8.2349,-0.0235,-0.2712,-0.1182,-1.498298430149891,-0.2723797857761383,1.5340871810913086,-1.8532624244689941,0.003106585005298257,2.1137027740478516,4.448127432460449,0.0,0.2811914384365082,-1.5967534224139612,-0.0,-0.016966182738542557,0.7881636619567871,0.0,0.00011450052261352539,0.7889183163642883,0.022035745903849602,0.11236337572336197
1000.0,930.0,4.1264,0.0718,8.2349,-0.0235,-0.2712,-0.1182,-1.5000043374351044,-0.2853044867515564,1.5129956007003784,-1.8532416820526123,0.002652078168466687,2.143941879272461,4.448106928462646,0.0,0.2880793809890747,-1.596785847340719,-0.0,-0.040336038917303085,0.7881112694740295,0.0,0.0010467853862792253,0.7890991568565369,0.02363627590239048,0.16484767198562622
1000.0,930.0,4.1264,0.0718,8.2349,-0.0235,-0.2712,-0.1182,-1.5022908684662362,-0.2804868221282959,1.5620324611663818,-1.853166103363037,0.0052023278549313545,2.1836302280426025,4.448123140926025,0.0,0.2842073142528534,-1.5967701117144983,-0.0,-0.011510482989251614,0.788099467754364,0.0,-0.008415685966610909,0.7892710566520691,0.024795865640044212,0.13887283205986023
1000.0,930.0,4.1264,0.0718,8.2349,-0.0235,-0.2712,-0.1182,-1.5040086966804047,-0.2871794104576111,1.4994804859161377,-1.853134036064148,0.007364934775978327,2.120079517364502,4.448091192836426,0.0,0.29541146755218506,-1.596785847340719,-0.0,-0.01801701821386814,0.7881276607513428,0.0,-0.004730869084596634,0.7894436717033386,0.024216869845986366,0.09331388771533966
1000.0,930.0,4.1264,0.0718,8.2349,-0.0235,-0.2712,-0.1182,-1.5057312336615105,-0.2948581874370575,1.5556014776229858,-1.8530977964401245,0.007969378493726254,2.235358953475952,4.44809548437085,0.0,0.2908055782318115,-1.5967376867877405,-0.0,-0.018947169184684753,0.7881636619567871,0.0,-0.01029963418841362,0.7895675301551819,0.02464493177831173,0.11139541864395142
1000.0,930.0,4.1264,0.0718,8.2349,-0.0235,-0.2712,-0.1182,-1.5080245968750496,-0.2928958833217621,1.5670228004455566,-1.8530417680740356,0.007046421058475971,2.167459487915039,4.448102636928223,0.0,0.3027927279472351,-1.5967376867877405,-0.0,-0.025929506868124008,0.7881073951721191,0.0,-0.015888581052422523,0.7897635102272034,0.025407763198018074,0.11658266186714172
1000.0,930.0,4.1264,0.0718,8.2349,-0.0235,-0.2712,-0.1182,-1.5098241095295926,-0.3007395267486572,1.56968092918396,-1.85304594039917,0.0057467748410999775,2.2404472827911377,4.448127432460449,0.0,0.3089587986469269,-1.5967496077166956,-0.0,-0.014642706140875816,0.788151741027832,0.0,-0.003793102689087391,0.7899357676506042,0.025282852351665497,0.11698099970817566
1000.0,930.0,4.1264,0.0718,8.2349,-0.0235,-0.2712,-0.1182,-1.5121290509453793,-0.30058276653289795,1.5894474983215332,-1.853010654449463,0.006846054922789335,2.204310417175293,4.448115034694336,0.0,0.30703815817832947,-1.5967376867877405,-0.0,0.005696305073797703,0.7881236672401428,0.0,0.0024818438105285168,0.7900997996330261,0.02452612668275833,0.07596920430660248
1000.0,930.0,4.1264,0.0718,8.2349,-0.0235,-0.2712,-0.1182,-1.5138916496983548,-0.29425710439682007,1.6356070041656494,-1.8529143333435059,0.008306720294058323,2.210141181945801,4.448138876552246,0.0002580436412245035,0.30714818835258484,-1.5966938177691858,-0.0,-0.008484901860356331,0.7881398797035217,0.0,0.004575708881020546,0.7903041839599609,0.022650733590126038,0.07892714440822601
1000.0,930.0,4.1264,0.0718,8.2349,-0.0235,-0.2712,-0.1182,-1.5156340350261708,-0.29705485701560974,1.6419953107833862,-1.85289466381073,0.008852441795170307,2.2059290409088135,4.448102636928223,0.0002234963612863794,0.312359094619751,-1.596729580556051,-0.0,-0.01497689075767994,0.7881958484649658,0.0,0.000357091601472348,0.7904402017593384,0.021062038838863373,0.09268281608819962
1000.0,930.0,4.1264,0.0718,8.2349,-0.0235,-0.2712,-0.1182,-1.5180126887610932,-0.29798173904418945,1.6980327367782593,-1.852806568145752,0.008759604766964912,2.2563858032226562,4.448122664088867,0.00018644746160134673,0.3014991879463196,-1.596729580556051,-0.0,-0.014077894389629364,0.7881317138671875,0.0,0.00280213775113225,0.7906363606452942,0.02244742400944233,0.08921217918395996
1000.0,930.0,4.1264,0.0718,8.2349,-0.0235,-0.2712,-0.1182,-1.5197749708643933,-0.30171722173690796,1.710543155670166,-1.8527299165725708,0.008046941831707954,2.192883014678955,4.4480859476276855,0.00019898755999747664,0.2995520234107971,-1.5967534224139612,-0.0,0.0013350576627999544,0.7881073951721191,0.0,0.0029456361662596464,0.790764331817627,0.021337656304240227,0.06847503036260605
934.0,835.0,4.8102,0.5091,8.927,-0.0047,-0.2211,-0.1294,-1.5215566244772454,-0.3016112744808197,1.7011950016021729,-1.8527225255966187,0.008375460281968117,2.23732852935791,4.448138876552246,0.00019382726168259978,0.31382274627685547,-1.5967376867877405,-0.0,-0.007730595767498016,0.7881519198417664,0.0,-0.008093209005892277,0.790908932685852,0.022195862606167793,0.04193628951907158
934.0,835.0,4.8102,0.5091,8.927,-0.0047,-0.2211,-0.1294,-1.5239591983011742,-0.30022236704826355,1.6589295864105225,-1.8526057004928589,0.010868459939956665,2.2584500312805176,4.448163195247314,0.00018455139070283622,0.32172662019729614,-1.5967534224139612,-0.0,0.002311698393896222,0.7880795001983643,0.0,0.0001230873167514801,0.7910768985748291,0.02252490632236004,0.025884611532092094
934.0,835.0,4.8102,0.5091,8.927,-0.0047,-0.2211,-0.1294,-1.525853269999363,-0.2999804615974426,1.6999459266662598,-1.8525620698928833,0.013309276662766933,2.2676894664764404,4.448146505946777,0.00019386211351957172,0.3208749294281006,-1.596757713948385,-0.0,-0.0013742344453930855,0.7880872488021851,0.0,-0.01053494494408369,0.7911725640296936,0.022821012884378433,0.06682281941175461
934.0,835.0,4.8102,0.5091,8.927,-0.0047,-0.2211,-0.1294,-1.5282669079354783,-0.2887391448020935,1.7475759983062744,-1.8524625301361084,0.01713697798550129,2.2141671180725098,4.448191328639648,0.00017670344095677137,0.32328227162361145,-1.5967496077166956,-0.0,-0.0001454339362680912,0.7881317138671875,0.0,-0.011164085939526558,0.7913767695426941,0.023039210587739944,0.03938707336783409
934.0,835.0,4.8102,0.5091,8.927,-0.0047,-0.2211,-0.1294,-1.5300974448076268,-0.29771649837493896,1.7626440525054932,-1.8523424863815308,0.01846013404428959,2.3312909603118896,4.448114557857178,0.0001580789830768481,0.3193601369857788,-1.596733872090475,-0.0,0.0008743465878069401,0.7881035208702087,0.0,-0.0018814385402947664,0.7915089130401611,0.02509588561952114,0.030040312558412552
934.0,835.0,4.8102,0.5091,8.927,-0.0047,-0.2211,-0.1294,-1.5319321800819417,-0.2990920841693878,1.7859245538711548,-1.8521736860275269,0.019241154193878174,2.2628848552703857,4.448110743159912,0.00014300658949650824,0.32436928153038025,-1.596729580556051,-0.0,-0.005363088566809893,0.7881194949150085,0.0,-0.005997564643621445,0.7916411757469177,0.02686574123799801,0.023491637781262398
934.0,835.0,4.8102,0.5091,8.927,-0.0047,-0.2211,-0.1294,-1.5343496960452576,-0.2967834770679474,1.7866737842559814,-1.852054476737976,0.021901607513427734,2.363128185272217,4.44819895803418,0.00012687701382674277,0.3354860842227936,-1.5967219511615198,3.523563663065943e-08,-0.007460836786776781,0.7881154417991638,0.0,-0.002714226022362709,0.7918932437896729,0.028300588950514793,0.06274810433387756
934.0,835.0,4.8102,0.5091,8.927,-0.0047,-0.2211,-0.1294,-1.5361436058631917,-0.3028707504272461,1.79334557056427,-1.8519301414489746,0.024942832067608833,2.2883050441741943,4.448187513942383,0.00011698132584569976,0.3375130593776703,-1.596773926411764,9.807969540698291e-12,0.00040686759166419506,0.7880917191505432,0.0,-0.007393019273877144,0.7920452952384949,0.02831123396754265,0.06711642444133759
934.0,835.0,4.8102,0.5091,8.927,-0.0047,-0.2211,-0.1294,-1.537958824341633,-0.2961006164550781,1.72434663772583,-1.8517416715621948,0.028261981904506683,2.3762285709381104,4.448170824641846,0.0001085179828805849,0.325625479221344,-1.596705738698141,2.7300843860313074e-15,-0.0034080769401043653,0.7881918549537659,0.0,-0.0011530781630426645,0.7922455072402954,0.028708433732390404,0.04921146109700203
934.0,835.0,4.8102,0.5091,8.927,-0.0047,-0.2211,-0.1294,-1.5402643096498032,-0.2944314479827881,1.802579641342163,-1.8514899015426636,0.031572382897138596,2.2662363052368164,4.448114557857178,9.897082054521888e-05,0.33668696880340576,-1.5967496077166956,4.961794113667893e-20,-0.002900336869060993,0.7881718277931213,0.0,-0.008477848954498768,0.7924898862838745,0.02807582914829254,0.08414357900619507
934.0,835.0,4.8102,0.5091,8.927,-0.0047,-0.2211,-0.1294,-1.542030819957592,-0.2984449863433838,1.8107964992523193,-1.8513344526290894,0.03556353598833084,2.328465461730957,4.44808213293042,9.28447479964234e-05,0.32589757442474365,-1.5967534224139612,1.3811335707842403e-23,-0.008704761043190956,0.7881439328193665,0.0,-0.00180013757199049,0.7926337122917175,0.029135901480913162,0.09251697361469269
934.0,835.0,4.8102,0.5091,8.927,-0.0047,-0.2211,-0.1294,-1.5443485894105216,-0.2909906506538391,1.8345389366149902,-1.8509501218795776,0.04373598098754883,2.329298973083496,4.448158903712891,0.00010262494470225647,0.32862240076065063,-1.596717659627096,2.510142015200146e-28,-0.008974902331829071,0.7880516648292542,0.0,-0.00018738838844001293,0.7928697466850281,0.026915576308965683,0.07397155463695526
934.0,835.0,4.8102,0.5091,8.927,-0.0047,-0.2211,-0.1294,-1.5460630983910342,-0.29035794734954834,1.772362232208252,-1.8507139682769775,0.04958111047744751,2.3837313652038574,4.4481751161762695,9.735303319757804e-05,0.32039886713027954,-1.5967019240008753,6.987073769098382e-32,-0.01722569949924946,0.7880995273590088,0.0,0.004093177616596222,0.7930663228034973,0.025546381250023842,0.09595315903425217
934.0,835.0,4.8102,0.5091,8.927,-0.0047,-0.2211,-0.1294,-1.5477973383716126,-0.2901760935783386,1.8890516757965088,-1.8504019975662231,0.05542147159576416,2.3425559997558594,4.4480859476276855,9.235791367245838e-05,0.3449708819389343,-1.5967257658587855,1.9448776448447004e-35,0.0014989975607022643,0.7881596088409424,0.0,-0.0011396881891414523,0.7931981682777405,0.022999271750450134,0.047906018793582916
902.0,810.0,4.949,0.2728,8.2534,-0.0371,-0.1353,-0.1315,-1.5500914224288245,-0.2916022539138794,1.8187769651412964,-1.8498862981796265,0.0638481080532074,2.3876962661743164,4.448114557857178,8.64439134602435e-05,0.3384125530719757,-1.596757713948385,3.534719324320778e-40,-0.014175944030284882,0.7880954742431641,0.0,-0.007437329739332199,0.7933461666107178,0.019846457988023758,0.02736872062087059
902.0,810.0,4.949,0.2728,8.2534,-0.0371,-0.1353,-0.1315,-1.5519022283009072,-0.29227927327156067,1.8874346017837524,-1.8495224714279175,0.07447782903909683,2.3993520736694336,4.448138876552246,8.248274389188737e-05,0.3325233459472656,-1.596773926411764,9.80908925027372e-44,0.002410027664154768,0.7881357669830322,0.0,-0.008157863281667233,0.7934702634811401,0.016880841925740242,0.0763135626912117
902.0,810.0,4.949,0.2728,8.2534,-0.0371,-0.1353,-0.1315,-1.5536327187768002,-0.28841111063957214,1.8644328117370605,-1.8490220308303833,0.08435604721307755,2.3831610679626465,4.448158903712891,7.8868746641092e-05,0.3373531103134155,-1.5967415014850062,0.0,-0.009722118265926838,0.7881719470024109,0.0,-0.005538708996027708,0.7936388254165649,0.013783877715468407,0.039402738213539124
902.0,810.0,4.949,0.2728,8.2534,-0.0371,-0.1353,-0.1315,-1.5560111890411754,-0.29602348804473877,1.9339087009429932,-1.8482502698898315,0.09568455815315247,2.4845407009124756,4.448170824641846,7.451548299286515e-05,0.3435097932815552,-1.596757713948385,0.0,-0.008141017518937588,0.788083553314209,0.0,-0.000432486180216074,0.7936380505561829,0.010523720644414425,0.08085554093122482
902.0,810.0,4.949,0.2728,8.2534,-0.0371,-0.1353,-0.1315,-1.5577368701672931,-0.29056039452552795,1.9377408027648926,-1.8476382493972778,0.09910061955451965,2.423002243041992,4.448183222407959,7.155333150876686e-05,0.3310806155204773,-1.596785847340719,0.0,-0.0074967737309634686,0.7881357669830322,0.0,-0.004777682013809681,0.7937387228012085,0.008128313347697258,0.08749722689390182
902.0,810.0,4.949,0.2728,8.2534,-0.0371,-0.1353,-0.1315,-1.5595074624619265,-0.2865764796733856,1.9466192722320557,-1.847025752067566,0.10013005137443542,2.3851122856140137,4.448190374965332,9.164092625724152e-05,0.3334748148918152,-1.5967415014850062,0.0,-0.008126944303512573,0.7880516648292542,0.0,0.0004943328676745296,0.7937667369842529,0.006107754539698362,0.04647965729236603
902.0,810.0,4.949,0.2728,8.2534,-0.0371,-0.1353,-0.1315,-1.5618615246242662,-0.2946021556854248,1.864145040512085,-1.8462072610855103,0.11030590534210205,2.444171190261841,4.4481822687336425,8.930271724238992e-05,0.34387558698654175,-1.5967581907855433,0.0,-0.009100962430238724,0.7881476879119873,0.0,-0.016202811151742935,0.793818473815918,0.0044235181994736195,0.09000399708747864
902.0,810.0,4.949,0.2728,8.2534,-0.0371,-0.1353,-0.1315,-1.563631890607514,-0.2862352728843689,1.9462956190109253,-1.845541000366211,0.11617963016033173,2.403608798980713,4.448158426875732,8.50834185257554e-05,0.34542137384414673,-1.5967100302325647,0.0,-0.019518574699759483,0.7881357669830322,0.0,-0.006307677365839481,0.793818473815918,0.002753905486315489,0.03104565665125847
902.0,810.0,4.949,0.2728,8.2534,-0.0371,-0.1353,-0.1315,-1.565941571523883,-0.2854735255241394,1.957895278930664,-1.8445172309875488,0.12253549695014954,2.4656906127929688,4.448171301479004,8.003896800801158e-05,0.3471236228942871,-1.5967415014850062,0.0,-0.0021494512911885977,0.7881355881690979,0.0,-0.010642151348292828,0.793810248374939,0.00099543749820441,0.028215082362294197
902.0,810.0,4.949,0.2728,8.2534,-0.0371,-0.1353,-0.1315,-1.567664557868131,-0.2914345860481262,1.9011783599853516,-1.8437070846557617,0.1301151067018509,2.4905924797058105,4.448162718410156,7.66315424698405e-05,0.35654324293136597,-1.59674579301943,0.0,-0.020341698080301285,0.7881758213043213,0.0,-0.0049552153795957565,0.7938382625579834,0.0005976028623990715,0.00909945834428072
902.0,810.0,4.949,0.2728,8.2534,-0.0371,-0.1353,-0.1315,-1.569386644904018,-0.2866164743900299,1.9674277305603027,-1.842940330505371,0.1381959319114685,2.4937450885772705,4.448154612178467,7.350231317104772e-05,0.33804023265838623,-1.596717659627096,0.0,-0.007112544029951096,0.7880638241767883,0.0,-0.005720727611333132,0.7938464879989624,0.0005683833733201027,0.030750274658203125
902.0,810.0,4.949,0.2728,8.2534,-0.0371,-0.1353,-0.1315,-1.571664949456686,-0.2892873287200928,1.9564530849456787,-1.8417624235153198,0.1396101713180542,2.5094852447509766,4.44816700994458,5.811500523122959e-05,0.34211593866348267,-1.5967376867877405,0.0,-0.007510682567954063,0.7880478501319885,0.0,-0.0012057528365403414,0.7938424348831177,0.0004334848781581968,0.06842157989740372
902.0,810.0,4.949,0.2728,8.2534,-0.0371,-0.1353,-0.1315,-1.5733267269530238,-0.29090484976768494,1.9587359428405762,-1.8408764600753784,0.1431814432144165,2.4945931434631348,4.448179407710693,6.710502930218354e-05,0.3321513831615448,-1.5966976324664515,0.0,-0.004636198282241821,0.7881114482879639,0.0,0.003306281054392457,0.7938424348831177,0.0003593025612644851,0.048986781388521194
863.0,769.0,4.9896,0.2818,9.0371,-0.0327,0.0136,-0.1289,-1.5749737224974574,-0.2806280851364136,1.936889410018921,-1.8399935960769653,0.15300226211547852,2.4932122230529785,4.448138399715088,7.546678534708917e-05,0.33989906311035156,-1.5967019240008753,0.0,-0.01548725739121437,0.7881396412849426,0.0,-0.0047716302797198296,0.7938705682754517,0.00030680454801768064,0.05298321321606636
863.0,769.0,4.9896,0.2818,9.0371,-0.0327,0.0136,-0.1289,-1.5771872005858363,-0.273147851228714,1.942363977432251,-1.8386757373809814,0.16383375227451324,2.502440929412842,4.448158426875732,7.202725828392431e-05,0.34564274549484253,-1.5967376867877405,0.0,-0.00029822924989275634,0.7881598472595215,0.0,0.007910791784524918,0.79380202293396,8.510304178344086e-05,0.07110881060361862
863.0,769.0,4.9896,0.2818,9.0371,-0.0327,0.0136,-0.1289,-1.578817983666891,-0.2709624767303467,2.027686834335327,-1.8377224206924438,0.16801762580871582,2.5544722080230713,4.448171301479004,6.96386705385521e-05,0.34425437450408936,-1.59674579301943,0.0,0.0055715604685246944,0.7880801558494568,0.0,-0.013433743268251419,0.7938587665557861,0.00013608926383312792,0.04956420138478279
863.0,769.0,4.9896,0.2818,9.0371,-0.0327,0.0136,-0.1289,-1.581064840356344,-0.27505818009376526,2.042938470840454,-1.8363525867462158,0.1712065041065216,2.543266534805298,4.448154612178467,1.2656482528683455e-09,0.3402547240257263,-1.5967658201800745,0.0,-0.009261264465749264,0.7881316542625427,0.0,0.0009773250203579664,0.7938788533210754,0.0004132938920520246,0.04620644822716713
863.0,769.0,4.9896,0.2818,9.0371,-0.0327,0.0136,-0.1289,-1.5825702152647914,-0.2756609320640564,2.002073287963867,-1.8352707624435425,0.17664048075675964,2.5496976375579834,4.448186560268066,3.5229788921189997e-13,0.3490998148918152,-1.5967615286456507,0.0,-0.01028742641210556,0.7881114482879639,0.0,0.001180616207420826,0.7938143610954285,0.0009197011240758002,0.013793903402984142
863.0,769.0,4.9896,0.2818,9.0371,-0.0327,0.0136,-0.1289,-1.5842329464354457,-0.27376440167427063,2.0456929206848145,-1.8341641426086426,0.18335874378681183,2.5097367763519287,4.448146505946777,9.80633998186843e-17,0.32868531346321106,-1.5967376867877405,0.0,0.003293111454695463,0.7881479263305664,0.0,-0.005858021322637796,0.7938747406005859,0.000550406111869961,0.03352503105998039
863.0,769.0,4.9896,0.2818,9.0371,-0.0327,0.0136,-0.1289,-1.586362978021139,-0.2694667875766754,2.057530641555786,-1.8326668739318848,0.19587573409080505,2.5302839279174805,4.4482032495686035,1.7822537279540887e-21,0.35046064853668213,-1.59674579301943,0.0,-0.0012443041196092963,0.7880876064300537,0.0,-0.01790447160601616,0.7938705682754517,0.0003529367095325142,0.012311767786741257
863.0,769.0,4.9896,0.2818,9.0371,-0.0327,0.0136,-0.1289,-1.588046213189596,-0.26812633872032166,2.0267252922058105,-1.831469178199768,0.20156776905059814,2.5575883388519287,4.448211355800293,4.9609697253074e-25,0.33857375383377075,-1.5967415014850062,0.0,0.0015815072692930698,0.7880880832672119,0.0,-0.003940083086490631,0.7938264608383179,0.00034280435647815466,0.0055579389445483685
863.0,769.0,4.9896,0.2818,9.0371,-0.0327,0.0136,-0.1289,-1.5896765194334925,-0.25808995962142944,2.0891947746276855,-1.830179214477539,0.2131701558828354,2.488546133041382,4.448234243983887,8.262173651019111e-05,0.3397124111652374,-1.5967701117144983,0.0,-0.015115803107619286,0.7881557941436768,0.0,-0.011460341513156891,0.7938665151596069,0.0002879803068935871,0.020098865032196045
863.0,769.0,4.9896,0.2818,9.0371,-0.0327,0.0136,-0.1289,-1.5918199024596156,-0.2642797827720642,2.0181615352630615,-1.8284907341003418,0.22578883171081543,2.6348438262939453,4.4482032495686035,8.563196024624631e-05,0.349137544631958,-1.596717659627096,0.0,-0.006807703524827957,0.7880957722663879,0.0,-0.005082293879240751,0.7938342094421387,0.0003159022598993033,-0.0051588574424386024
863.0,769.0,4.9896,0.2818,9.0371,-0.0327,0.0136,-0.1289,-1.5934702358641566,-0.274262934923172,2.0761775970458984,-1.8271089792251587,0.23176325857639313,2.601020097732544,4.448218508357666,7.391107646981254e-05,0.33886611461639404,-1.596733872090475,0.0,-0.001693501602858305,0.7881518602371216,0.0,0.003668552963063121,0.7938464879989624,0.00020665314514189959,0.02542048506438732
863.0,769.0,4.9896,0.2818,9.0371,-0.0327,0.0136,-0.1289,-1.5956922970213832,-0.26958200335502625,2.0757603645324707,-1.825204849243164,0.23667673766613007,2.5225958824157715,4.44824664175,9.615813178243116e-05,0.3453328609466553,-1.596757713948385,0.0,-0.016973072662949562,0.7881114482879639,0.0,-0.0017698195297271013,0.7938464283943176,0.00020949411555193365,0.04169229790568352
863.0,769.0,4.9896,0.2818,9.0371,-0.0327,0.0136,-0.1289,-1.5973559818663539,-0.2703423500061035,2.0707850456237793,-1.823718547821045,0.25293633341789246,2.63839054107666,4.448242350215576,0.0002895106445066631,0.3431151509284973,-1.5967415014850062,0.0,-0.0017204888863489032,0.7880761623382568,0.0,-0.009090514853596687,0.7938264608383179,0.00015638352488167584,-0.0040081581100821495
863.0,769.0,4.9896,0.2818,9.0371,-0.0327,0.0136,-0.1289,-1.5989495716490687,-0.2733476758003235,2.0717287063598633,-1.8221852779388428,0.2664200961589813,2.646697521209717,4.4482146936604,0.00024395741638727486,0.3475959897041321,-1.5967376867877405,0.0,0.0006438998971134424,0.7880841493606567,0.0,-0.012965324334800243,0.7938422560691833,0.00011329622793709859,-0.03282002732157707
878.0,783.0,4.1821,0.2495,8.6046,-0.0411,0.1242,-0.1295,-1.6011282406248988,-0.2613583505153656,2.10891056060791,-1.820112705230713,0.2713664174079895,2.5997564792633057,4.448242350215576,0.00020047169527970254,0.33676809072494507,-1.596717659627096,0.0,-0.0015151435509324074,0.788131594657898,0.0,-0.006555434316396713,0.7938587665557861,0.00010062415094580501,0.03161431476473808
878.0,783.0,4.1821,0.2495,8.6046,-0.0411,0.1242,-0.1295,-1.6026979885497035,-0.26762279868125916,2.1368274688720703,-1.8183960914611816,0.2815130650997162,2.630646228790283,4.448282881374023,0.00017683312762528658,0.3448718190193176,-1.596729580556051,0.0,-0.006695280317217112,0.7880721092224121,0.0,-0.01330573670566082,0.7938587665557861,4.664529114961624e-05,0.023079566657543182
878.0,783.0,4.1821,0.2495,8.6046,-0.0411,0.1242,-0.1295,-1.6042934856810511,-0.2744521498680115,2.1006245613098145,-1.8167227506637573,0.2908545434474945,2.6489415168762207,4.4481703478046875,0.0001581822580192238,0.35139650106430054,-1.5967376867877405,0.0,-0.002869775053113699,0.7880997657775879,0.0,-0.01897631213068962,0.7938505411148071,8.071570482570678e-05,0.010849273763597012
878.0,783.0,4.1821,0.2495,8.6046,-0.0411,0.1242,-0.1295,-1.6064397297301234,-0.27001139521598816,2.1382389068603516,-1.814367413520813,0.2887103855609894,2.633854627609253,4.448242350215576,6.457169365603477e-05,0.3456231951713562,-1.596757713948385,0.0,-0.0028817052952945232,0.7881478667259216,0.0,-0.0038080699741840363,0.7938143610954285,3.427884803386405e-05,0.010794502682983875
878.0,783.0,4.1821,0.2495,8.6046,-0.0411,0.1242,-0.1295,-1.6080628834166468,-0.2665357291698456,2.0544328689575195,-1.812583088874817,0.29637035727500916,2.6263411045074463,4.448262854213379,8.318366599269211e-05,0.32643988728523254,-1.5967615286456507,0.0,0.010925283655524254,0.7881557941436768,0.0,0.002834226470440626,0.7938305139541626,3.071819446631707e-05,0.04344230145215988
878.0,783.0,4.1821,0.2495,8.6046,-0.0411,0.1242,-0.1295,-1.6101447544493617,-0.26404398679733276,2.1268348693847656,-1.810099482536316,0.3080297112464905,2.685619831085205,4.448286696071289,7.033967995084822e-05,0.34723323583602905,-1.5967534224139612,0.0,-0.013739170506596565,0.7881197929382324,0.0,-0.01789930649101734,0.7938665151596069,7.173237004387545e-11,0.01660763844847679
878.0,783.0,4.1821,0.2495,8.6046,-0.0411,0.1242,-0.1295,-1.6116639576353968,-0.2616530954837799,2.1761796474456787,-1.8081978559494019,0.3126034438610077,2.6202611923217773,4.448218508357666,9.38826851779595e-05,0.33594048023223877,-1.596757713948385,0.0,-0.012963317334651947,0.7880358695983887,0.0,-0.006873059552162886,0.7938341498374939,1.7322521250042947e-16,-0.0012091174721717834
878.0,783.0,4.1821,0.2495,8.6046,-0.0411,0.1242,-0.1295,-1.6132427654662074,-0.26166588068008423,2.097536087036133,-1.8063256740570068,0.31689566373825073,2.7150228023529053,4.448206110591553,0.0001338189613306895,0.33523914217948914,-1.5967376867877405,0.0,-0.009703472256660461,0.7881917357444763,0.0,0.004117751959711313,0.7938788533210754,4.183184987286934e-22,0.03334692865610123
878.0,783.0,4.1821,0.2495,8.6046,-0.0411,0.1242,-0.1295,-1.615321775475973,-0.25977930426597595,2.182736873626709,-1.8037697076797485,0.32085198163986206,2.676156997680664,4.448229952449463,0.00010345183545723557,0.33217641711235046,-1.5967415014850062,0.0,-0.0009864629246294498,0.7881035804748535,0.0,-0.005640886723995209,0.7938665151596069,1.3552985685771722e-29,0.004122648388147354
878.0,783.0,4.1821,0.2495,8.6046,-0.0411,0.1242,-0.1295,-1.616831441918844,-0.2640869617462158,2.174661636352539,-1.801842212677002,0.32810071110725403,2.6804206371307373,4.448254271144531,0.00013229470641817898,0.33312445878982544,-1.5967257658587855,0.0,-0.0014597875997424126,0.7880679368972778,0.0,-0.010653716512024403,0.7938545942306519,3.272886504474707e-35,0.04280237480998039
878.0,783.0,4.1821,0.2495,8.6046,-0.0411,0.1242,-0.1295,-1.6184188328185023,-0.2661133408546448,2.1303982734680176,-1.799869179725647,0.3331284523010254,2.650829792022705,4.4482104021259765,0.00013500313798431307,0.3411506414413452,-1.5967376867877405,0.0,-0.022998305037617683,0.7881118059158325,0.0,-0.0035091969184577465,0.7938747406005859,7.903603598484833e-41,0.031954266130924225
878.0,783.0,4.1821,0.2495,8.6046,-0.0411,0.1242,-0.1295,-1.6205607853331507,-0.2586897015571594,2.183772087097168,-1.7971699237823486,0.34379830956459045,2.6656599044799805,4.448242350215576,0.00012701614468824118,0.33718544244766235,-1.596733872090475,0.0,-0.0024356339126825333,0.7881558537483215,0.0,0.004590846598148346,0.7938710451126099,0.0,0.029994472861289978
878.0,783.0,4.1821,0.2495,8.6046,-0.0411,0.1242,-0.1295,-1.6222168407835902,-0.2597012519836426,2.227869987487793,-1.7950407266616821,0.3485226333141327,2.6699211597442627,4.448226137752197,0.0001184105349238962,0.33021944761276245,-1.5967534224139612,0.0,0.00031582731753587723,0.7881558537483215,0.0,-0.01279530767351389,0.7938747406005859,0.0,0.04168318584561348
878.0,783.0,4.1821,0.2495,8.6046,-0.0411,0.1242,-0.1295,-1.6238113842406214,-0.2697046399116516,2.2042901515960693,-1.7929819822311401,0.35423529148101807,2.690218687057495,4.448250456447266,0.0001077756896847859,0.3338877856731415,-1.5967896620379847,0.0,-0.0009930829983204603,0.7880997657775879,0.0,-0.013824922032654285,0.7938867211341858,0.0,0.045919451862573624
882.0,800.0,3.8895,0.1083,7.5673,-0.0386,0.0942,-0.1184,-1.6260415516295375,-0.27091193199157715,2.1935524940490723,-1.7901419401168823,0.3634105622768402,2.6709837913513184,4.448221846217773,9.62488993536681e-05,0.3457690179347992,-1.5967658201800745,0.0,0.00890716165304184,0.7880761623382568,0.0,0.003394479863345623,0.7938665151596069,0.00014418082719203085,0.0387287400662899
882.0,800.0,3.8895,0.1083,7.5673,-0.0386,0.0942,-0.1184,-1.6276680431761683,-0.2712536156177521,2.2302629947662354,-1.787989854812622,0.3650955855846405,2.6930298805236816,4.44824664175,8.910183532861993e-05,0.3406415581703186,-1.5967257658587855,0.0,-0.004479376599192619,0.7881717085838318,0.0,0.0068763974122703075,0.7938582301139832,0.0001347910292679444,0.04389446601271629
882.0,800.0,3.8895,0.1083,7.5673,-0.0386,0.0942,-0.1184,-1.629918714562887,-0.28235509991645813,2.228832721710205,-1.785063624382019,0.3701839745044708,2.700685977935791,4.448234243983887,2.772182233456988e-05,0.31854936480522156,-1.5967534224139612,0.0,0.007688563317060471,0.7880997657775879,0.0,-0.006825776770710945,0.7938582301139832,0.0001203688298119232,-0.027598660439252853
882.0,800.0,3.8895,0.1083,7.5673,-0.0386,0.0942,-0.1184,-1.6315857372679652,-0.2753961682319641,2.2360291481018066,-1.782743215560913,0.36618301272392273,2.668485164642334,4.448242350215576,2.527078140701633e-05,0.31496936082839966,-1.5967658201800745,0.0,0.000822609756141901,0.788139820098877,0.0,-0.007944191806018353,0.7938665151596069,0.00011142705625388771,0.04196395352482796
882.0,800.0,3.8895,0.1083,7.5673,-0.0386,0.0942,-0.1184,-1.633219381371969,-0.2779032289981842,2.214707136154175,-1.7806262969970703,0.3669326603412628,2.6762123107910156,4.448274775142334,1.2208865882712416e-05,0.3165941834449768,-1.596785847340719,0.0,0.006675848737359047,0.788123607635498,0.0,-0.00296060461550951,0.7938300371170044,0.00010372218821430579,0.016834765672683716
882.0,800.0,3.8895,0.1083,7.5673,-0.0386,0.0942,-0.1184,-1.6354457340636195,-0.2849125862121582,2.1808745861053467,-1.7776299715042114,0.3616279065608978,2.647026538848877,4.448250933284424,2.2189006188000349e-10,0.31714704632759094,-1.5967376867877405,0.0,-0.003018583171069622,0.7881438136100769,0.0,0.003366326680406928,0.7938624024391174,9.496648272033781e-05,0.024058014154434204
882.0,800.0,3.8895,0.1083,7.5673,-0.0386,0.0942,-0.1184,-1.6371165714659632,-0.28014519810676575,2.2287676334381104,-1.77545166015625,0.36368516087532043,2.6817915439605713,4.448258562678955,6.176392134283476e-14,0.3136317729949951,-1.5967376867877405,0.0,-0.004833945073187351,0.7881036400794983,0.0,-0.004080172628164291,0.7938747406005859,8.931206684792414e-05,0.02801494486629963
882.0,800.0,3.8895,0.1083,7.5673,-0.0386,0.0942,-0.1184,-1.638747354547018,-0.27633845806121826,2.1708412170410156,-1.7732940912246704,0.3614139258861542,2.6259090900421143,4.44827048360791,1.7192212841169508e-17,0.30764061212539673,-1.5967219511615198,0.0,-0.0008838683133944869,0.7880996465682983,0.0,-0.010142084211111069,0.7938628196716309,6.743562698829919e-05,0.03156725689768791
882.0,800.0,3.8895,0.1083,7.5673,-0.0386,0.0942,-0.1184,-1.6409055195250453,-0.27430853247642517,2.162393093109131,-1.7704006433486938,0.36086100339889526,2.691883087158203,4.44829432546582,3.12459979057863e-22,0.31292155385017395,-1.5967376867877405,0.0,-0.01066551636904478,0.7880841493606567,0.0,0.002869165502488613,0.7939149141311646,6.276497151702642e-05,-0.02161172404885292
882.0,800.0,3.8895,0.1083,7.5673,-0.0386,0.0942,-0.1184,-1.6425773106017054,-0.27522218227386475,2.1757969856262207,-1.7682384252548218,0.35850444436073303,2.605189323425293,4.44830243169751,8.697437999094537e-26,0.3123582601547241,-1.5967257658587855,0.0,-0.00735490070655942,0.7881195545196533,0.0,-0.00933800544589758,0.7938988208770752,5.742966823163442e-05,0.05204521864652634
882.0,800.0,3.8895,0.1083,7.5673,-0.0386,0.0942,-0.1184,-1.644783159295553,-0.28016409277915955,2.1821303367614746,-1.7654582262039185,0.3584061563014984,2.5817089080810547,4.448226137752197,1.5807164058106304e-30,0.3054567873477936,-1.596733872090475,0.0,-0.004928494803607464,0.788091778755188,0.0,-0.006015190854668617,0.7938826680183411,5.185888221603818e-05,0.012806027196347713
882.0,800.0,3.8895,0.1083,7.5673,-0.0386,0.0942,-0.1184,-1.6463777027525843,-0.28035807609558105,2.196851968765259,-1.7633317708969116,0.3498228192329407,2.588582992553711,4.4482948023029785,4.399982802658327e-34,0.2986186146736145,-1.5967496077166956,0.0,0.002135733375325799,0.7881317734718323,0.0,-0.0016358498251065612,0.7938988208770752,4.773317778017372e-05,0.0002451683394610882
882.0,800.0,3.8895,0.1083,7.5673,-0.0386,0.0942,-0.1184,-1.64813294033193,-0.2831543982028961,2.239612579345703,-1.7612725496292114,0.35144922137260437,2.5577075481414795,4.448319120998047,1.2247513370898306e-37,0.29748842120170593,-1.5967257658587855,0.0,-0.01828697882592678,0.7881557941436768,0.0,-0.006023864261806011,0.7938785552978516,4.42155433120206e-05,0.008082833141088486
916.0,820.0,3.9906,0.2339,8.0734,-0.0357,0.0316,-0.1159,-1.650463720361227,-0.28749993443489075,2.140441417694092,-1.7584726810455322,0.3530978858470917,2.5529747009277344,4.448298617000244,2.2252619613478095e-42,0.2914886474609375,-1.5967620054828089,0.0,0.00035260291770100594,0.7880200743675232,0.0,-0.004946954548358917,0.7938988208770752,6.029511132510379e-05,0.008997125551104546
916.0,820.0,3.9906,0.2339,8.0734,-0.0357,0.0316,-0.1159,-1.6521526775755824,-0.28064030408859253,2.2246222496032715,-1.7563825845718384,0.35477206110954285,2.5740463733673096,4.448258085841797,0.0,0.30924510955810547,-1.5967376867877405,0.0,-0.0018621287308633327,0.7881478071212769,0.0,-0.018314599990844727,0.7938826680183411,5.659238013322465e-05,0.02141443081200123
916.0,820.0,3.9906,0.2339,8.0734,-0.0357,0.0316,-0.1159,-1.6538955173888148,-0.2847123146057129,2.23826265335083,-1.7542622089385986,0.3579447865486145,2.58469295501709,4.4483229356953125,0.0,0.30477607250213623,-1.5967376867877405,0.0,0.008790332823991776,0.7881395816802979,0.0,-0.00528629869222641,0.793882429599762,5.32443737029098e-05,0.0434749498963356
916.0,820.0,3.9906,0.2339,8.0734,-0.0357,0.0316,-0.1159,-1.656320711175436,-0.29392868280410767,2.2139453887939453,-1.751446008682251,0.34441715478897095,2.545712947845459,4.448298617000244,0.0,0.31246834993362427,-1.596729580556051,0.0,-0.0022096182219684124,0.788123607635498,0.0,-0.004098745062947273,0.7939146757125854,0.0001322795869782567,-0.017783520743250847
916.0,820.0,3.9906,0.2339,8.0734,-0.0357,0.0316,-0.1159,-1.6580988369383753,-0.29288071393966675,2.2596468925476074,-1.7493361234664917,0.3459855020046234,2.559377908706665,4.448313875789307,0.0,0.2928634285926819,-1.596717659627096,0.0,-0.012835757806897163,0.7881835699081421,0.0,-0.008834244683384895,0.7938947081565857,0.0001804720377549529,-0.06401585042476654
916.0,820.0,3.9906,0.2339,8.0734,-0.0357,0.0316,-0.1159,-1.6604958973326625,-0.30518877506256104,2.1828675270080566,-1.7465105056762695,0.3377440571784973,2.510202407836914,4.448322458858154,0.0,0.29069244861602783,-1.5967415014850062,0.0,-0.0049676718190312386,0.7881876230239868,0.0,-0.011946959421038628,0.793906569480896,0.0002129175263689831,0.006541583687067032
916.0,820.0,3.9906,0.2339,8.0734,-0.0357,0.0316,-0.1159,-1.662325998345846,-0.30002009868621826,2.2094640731811523,-1.7445359230041504,0.33626264333724976,2.5539376735687256,4.44830243169751,0.0,0.28702566027641296,-1.596785847340719,0.0,-0.002053273608908057,0.7881195545196533,0.0,-0.011836872436106205,0.7938865423202515,0.0005305323284119368,-0.03838711231946945
916.0,820.0,3.9906,0.2339,8.0734,-0.0357,0.0316,-0.1159,-1.664112230340475,-0.2951628863811493,2.2300078868865967,-1.7424774169921875,0.3308531641960144,2.5756750106811523,4.448278113002441,0.0,0.2928706109523773,-1.596729580556051,0.0,-0.007550635375082493,0.7881115674972534,0.0,-0.0029381976928561926,0.793898344039917,0.00041051305015571415,0.017677025869488716
916.0,820.0,3.9906,0.2339,8.0734,-0.0357,0.0316,-0.1159,-1.6664415798582972,-0.30047187209129333,2.2118539810180664,-1.739832878112793,0.3252303898334503,2.5431289672851562,4.448298617000244,0.0,0.2979324758052826,-1.5967415014850062,0.0,-0.006107310298830271,0.788155734539032,0.0,-0.007257702760398388,0.7938785552978516,0.0003147753013763577,-0.005076515022665262
916.0,820.0,3.9906,0.2339,8.0734,-0.0357,0.0316,-0.1159,-1.6681834659972132,-0.2988717555999756,2.2652831077575684,-1.7378371953964233,0.32232582569122314,2.5391106605529785,4.448305769557617,0.00014229297812562436,0.30072033405303955,-1.5967496077166956,0.0,-0.006436909083276987,0.788139820098877,0.0,-0.009168189950287342,0.7938823699951172,0.00031254469649866223,-0.005816717632114887
916.0,820.0,3.9906,0.2339,8.0734,-0.0357,0.0316,-0.1159,-1.6699496708311976,-0.2947360873222351,2.2708165645599365,-1.7359862327575684,0.32044148445129395,2.5036849975585938,4.448342486018799,0.00018238136544823647,0.293398916721344,-1.596785847340719,0.0,-0.005849319510161877,0.7881438136100769,0.0,-0.0037704729475080967,0.7938541769981384,0.0002720711927395314,0.003292534500360489
916.0,820.0,3.9906,0.2339,8.0734,-0.0357,0.0316,-0.1159,-1.6722871265807093,-0.2954333424568176,2.28604793548584,-1.7334611415863037,0.3135530352592468,2.5040712356567383,4.44832627355542,0.0001662569702602923,0.27692943811416626,-1.5967376867877405,0.0,-0.01422143541276455,0.7881795763969421,0.0,-0.006408812012523413,0.793927013874054,0.00026511630858294666,-0.008444341830909252
916.0,820.0,3.9906,0.2339,8.0734,-0.0357,0.0316,-0.1159,-1.6740695438780726,-0.2953566610813141,2.279648542404175,-1.7316101789474487,0.3074566423892975,2.495615243911743,4.448354406947754,0.00040550134144723415,0.3004896640777588,-1.596733872090475,0.0,-0.0070875221863389015,0.7881356477737427,0.0,-0.007889390923082829,0.793898344039917,0.00023875794431660324,-0.022561825811862946
916.0,820.0,3.9906,0.2339,8.0734,-0.0357,0.0316,-0.1159,-1.676366468469137,-0.2977110743522644,2.2775075435638428,-1.7291687726974487,0.31138262152671814,2.5583109855651855,4.448334379787109,0.0025087217800319195,0.3000211715698242,-1.596733872090475,0.0,-0.013523036614060402,0.7881036400794983,0.0,-0.007023663260042667,0.7939348220825195,0.00021079654106870294,0.023154962807893753
910.0,761.0,4.4333,0.4959,8.1398,-0.0156,-0.0403,-0.1416,-1.6781207523741664,-0.2949252128601074,2.2930636405944824,-1.7273852825164795,0.30279114842414856,2.454967975616455,4.448374434108398,0.009069159626960754,0.3000221848487854,-1.596773926411764,0.0,0.004167088307440281,0.788155734539032,0.0,-0.005918948445469141,0.7938823699951172,0.00014985275629442185,-0.025215744972229004
