ramyac6/ROB537/final_project/csv/good/good_97.csv
tof_0,tof_1,accelx,accely,accelz,gyrox,gyroy,gyroz,shoulder_lift_joint_position,shoulder_lift_joint_velocity,shoulder_lift_joint_effort,elbow_joint_position,elbow_joint_velocity,elbow_joint_effort,wrist_1_joint_position,wrist_1_joint_velocity,wrist_1_joint_effort,wrist_2_joint_position,wrist_2_joint_velocity,wrist_2_joint_effort,wrist_3_joint_position,wrist_3_joint_velocity,wrist_3_joint_effort,shoulder_pan_joint_position,shoulder_pan_joint_velocity,shoulder_pan_joint_effort
99.0,144.0,0.8369,0.2859,9.6341,-0.0376,0.0209,-0.1167,-2.2270575962462367,0.0,4.7979230880737305,-1.0826812982559204,-0.0,2.1053359508514404,4.714376828843289,0.0,0.28805968165397644,-1.5984976927386683,-0.0,-0.011532427743077278,0.6569945216178894,0.0,-0.016513869166374207,1.3589402437210083,0.0,-0.009622971527278423
99.0,144.0,0.8369,0.2859,9.6341,-0.0376,0.0209,-0.1167,-2.227154394189352,0.0,4.7771782875061035,-1.0826369524002075,-0.0,2.1576108932495117,4.714384591416948,0.0,0.29642510414123535,-1.5985220114337366,-0.0,-0.00332772103138268,0.6570184230804443,0.0,-0.037089571356773376,1.3589364290237427,0.0,-0.06516963988542557
99.0,144.0,0.8369,0.2859,9.6341,-0.0376,0.0209,-0.1167,-2.2271224460997523,0.0,4.792030334472656,-1.082605004310608,-0.0,2.1503844261169434,4.714308440429651,0.0,0.28481385111808777,-1.598506275807516,-0.0,0.0031086266972124577,0.6570307612419128,0.0,-0.020075377076864243,1.3589844703674316,0.0,-0.0025886930525302887
99.0,144.0,0.8369,0.2859,9.6341,-0.0376,0.0209,-0.1167,-2.22709383587026,0.0,4.825028896331787,-1.0826369524002075,-0.0,2.160400629043579,4.7143362777778215,0.0,0.29034560918807983,-1.5985220114337366,-0.0,-0.0017228652723133564,0.6569581627845764,0.0,-0.01637749746441841,1.3590046167373657,0.0,-0.0032095233909785748
99.0,144.0,0.8369,0.2859,9.6341,-0.0376,0.0209,-0.1167,-2.2270895443358363,0.0,4.865084171295166,-1.0826009511947632,-0.0,2.1494140625,4.7143404362495325,0.0,0.2866567373275757,-1.5984938780414026,-0.0,-0.019581183791160583,0.6569507122039795,0.0,-0.016168680042028427,1.3589524030685425,0.0,-0.02969445288181305
99.0,144.0,0.8369,0.2859,9.6341,-0.0376,0.0209,-0.1167,-2.2270976505675257,0.0,4.782022476196289,-1.08261239528656,-0.0,2.129469394683838,4.714340364770525,0.0,0.2912790775299072,-1.5984695593463343,-0.0,0.0008041290566325188,0.6569225192070007,0.0,-0.025000307708978653,1.359000563621521,0.0,0.004501406569033861
99.0,144.0,0.8369,0.2859,9.6341,-0.0376,0.0209,-0.1167,-2.2271181545653285,0.0,4.7844319343566895,-1.0826328992843628,-0.0,2.155722141265869,4.714372751978718,0.0,0.2876671552658081,-1.5984976927386683,-0.0,-0.008690944872796535,0.6570065021514893,0.0,-0.025282522663474083,1.3590165376663208,0.0,-0.024145880714058876
99.0,144.0,0.8369,0.2859,9.6341,-0.0376,0.0209,-0.1167,-2.22709383587026,0.0,4.759551048278809,-1.0827052593231201,-0.0,2.147169828414917,4.714356754185193,0.0,0.2774659991264343,-1.5984733740436,-0.0,-0.014705122448503971,0.6569987535476685,0.0,-0.027330219745635986,1.359012484550476,0.0,0.004247181583195925
98.0,149.0,0.8417,0.2734,9.5719,-0.0336,0.0281,-0.1213,-2.2271181545653285,0.0,4.784463405609131,-1.0826646089553833,-0.0,2.1513748168945312,4.714348526881569,0.0,0.28204530477523804,-1.5984976927386683,-0.0,0.010126670822501183,0.657058596611023,0.0,-0.01763055846095085,1.3589763641357422,0.0,-0.013577021658420563
98.0,149.0,0.8417,0.2734,9.5719,-0.0336,0.0281,-0.1213,-2.227105756799215,0.0,4.807529449462891,-1.082628846168518,-0.0,2.1769492626190186,4.714368593390592,0.0,0.2805505394935608,-1.5984733740436,-0.0,-0.00789726059883833,0.656974196434021,0.0,-0.021481454372406006,1.359012484550476,0.0,-0.05059953033924103
98.0,149.0,0.8417,0.2734,9.5719,-0.0336,0.0281,-0.1213,-2.2270738087096156,0.0,4.789719104766846,-1.0826164484024048,-0.0,2.189150333404541,4.71435636256405,0.0,0.2739311158657074,-1.5984895865069788,-0.0,-0.0075723412446677685,0.6569865345954895,0.0,-0.027250468730926514,1.358964443206787,0.0,-0.02928491309285164
98.0,149.0,0.8417,0.2734,9.5719,-0.0336,0.0281,-0.1213,-2.227150102654928,0.0,4.798810005187988,-1.0825843811035156,-0.0,2.167469024658203,4.714360439661451,0.0,0.290166974067688,-1.5984938780414026,-0.0,0.0006426905747503042,0.6569782495498657,0.0,-0.022396650165319443,1.358992338180542,0.0,-0.017584538087248802
98.0,149.0,0.8417,0.2734,9.5719,-0.0336,0.0281,-0.1213,-2.2270895443358363,0.0,4.774764060974121,-1.0826328992843628,-0.0,2.1768460273742676,4.714320279867881,0.0,0.27719855308532715,-1.5984652678119105,-0.0,-0.007436202839016914,0.6570470333099365,0.0,-0.025504939258098602,1.3589446544647217,0.0,-0.02307114750146866
98.0,149.0,0.8417,0.2734,9.5719,-0.0336,0.0281,-0.1213,-2.2270895443358363,0.0,4.7878737449646,-1.082620620727539,-0.0,2.185370922088623,4.714344513114103,0.0,0.28547751903533936,-1.5985100905047815,-0.0,-0.00824830774217844,0.6570028066635132,0.0,-0.022285111248493195,1.3589926958084106,0.0,0.003153837751597166
98.0,149.0,0.8417,0.2734,9.5719,-0.0336,0.0281,-0.1213,-2.2271181545653285,0.0,4.783977508544922,-1.082676887512207,-0.0,2.1879146099090576,4.714320296282441,0.0,0.28011342883110046,-1.5984695593463343,-0.0,-0.018964514136314392,0.6569986939430237,0.0,-0.022880371659994125,1.3590004444122314,0.0,-0.009523015469312668
98.0,149.0,0.8417,0.2734,9.5719,-0.0336,0.0281,-0.1213,-2.227142473260397,0.0,4.7894463539123535,-1.0826205015182495,-0.0,2.1543641090393066,4.714324418199741,0.0,0.3015674948692322,-1.5984938780414026,-0.0,-0.010420494712889194,0.6570065021514893,0.0,-0.02031741663813591,1.3589643239974976,0.0,-0.05085645243525505
98.0,149.0,0.8417,0.2734,9.5719,-0.0336,0.0281,-0.1213,-2.2271224460997523,0.0,4.809924602508545,-1.0826568603515625,-0.0,2.2277119159698486,4.714356754185193,0.0,0.283041775226593,-1.5984695593463343,-0.0,-0.00713151041418314,0.6570347547531128,0.0,-0.02598828822374344,1.3589524030685425,0.0,0.016282806172966957
98.0,149.0,0.8417,0.2734,9.5719,-0.0336,0.0281,-0.1213,-2.227110048333639,0.0,4.786461353302002,-1.0826572179794312,-0.0,2.1685216426849365,4.714332168316961,0.0,0.28363490104675293,-1.5984733740436,-0.0,-0.01745608076453209,0.6569621562957764,0.0,-0.020874204114079475,1.358980417251587,0.0,-0.0006374154472723603
98.0,149.0,0.8417,0.2734,9.5719,-0.0336,0.0281,-0.1213,-2.227154394189352,0.0,4.788235664367676,-1.082688808441162,-0.0,2.1910176277160645,4.714316202886895,0.0,0.30128830671310425,-1.598530117665426,-0.0,-0.005444185342639685,0.6569905281066895,0.0,-0.029726728796958923,1.3590004444122314,0.0,0.0033862031996250153
98.0,149.0,0.8417,0.2734,9.5719,-0.0336,0.0281,-0.1213,-2.2271343670287074,0.0,4.799543380737305,-1.0826693773269653,-0.0,2.1874117851257324,4.714319869387456,0.0,0.28798365592956543,-1.5984814802752894,-0.0,-0.014101158827543259,0.6570504307746887,0.0,-0.02634405717253685,1.3589245080947876,0.0,-0.037782974541187286
98.0,149.0,0.8417,0.2734,9.5719,-0.0336,0.0281,-0.1213,-2.2270895443358363,0.0,4.816429138183594,-1.0826449394226074,-0.0,2.1764628887176514,4.714312061411821,0.0,0.28126996755599976,-1.598530117665426,-0.0,-0.006104875821620226,0.657002866268158,0.0,-0.0351426899433136,1.3589723110198975,0.0,-0.038399383425712585
98.0,149.0,0.8417,0.2734,9.5719,-0.0336,0.0281,-0.1213,-2.2271300754942835,0.0,4.791403770446777,-1.0827051401138306,-0.0,2.1386635303497314,4.714356395393171,0.0,0.2903710603713989,-1.5985100905047815,-0.0,-0.022255435585975647,0.656974196434021,0.0,-0.03476686403155327,1.358980417251587,0.0,0.003016193863004446
98.0,149.0,0.8417,0.2734,9.5719,-0.0336,0.0281,-0.1213,-2.227110048333639,0.0,4.8264689445495605,-1.0826928615570068,-0.0,2.2068445682525635,4.714340419718557,0.0,0.28963950276374817,-1.5985100905047815,-0.0,-0.017351126298308372,0.6569904685020447,0.0,-0.02501198649406433,1.3590205907821655,0.0,-0.03630487620830536
96.0,146.0,0.8249,0.3135,9.4714,-0.0365,0.0284,-0.1245,-2.2270738087096156,0.0,4.83071231842041,-1.0826205015182495,-0.0,2.1594161987304688,4.714380550873958,0.0,0.3012465834617615,-1.598485294972555,-0.0,-0.023332703858613968,0.6569822430610657,0.0,-0.0317680798470974,1.3589684963226318,0.0,-0.0046624671667814255
96.0,146.0,0.8249,0.3135,9.4714,-0.0365,0.0284,-0.1245,-2.227081438104147,0.0,4.7922043800354,-1.0826328992843628,-0.0,2.192901611328125,4.714316166914561,0.0,0.28713589906692505,-1.598518196736471,-0.0,-0.0004969915607944131,0.6569905281066895,0.0,-0.02781619131565094,1.3589725494384766,0.0,-0.04309537634253502
96.0,146.0,0.8249,0.3135,9.4714,-0.0365,0.0284,-0.1245,-2.227105756799215,0.0,4.816157817840576,-1.082628846168518,-0.0,2.148467540740967,4.714388761180945,0.0,0.27928751707077026,-1.5984695593463343,-0.0,-0.024442952126264572,0.6570307612419128,0.0,-0.014664899557828903,1.3589763641357422,0.0,0.01264520175755024
96.0,146.0,0.8249,0.3135,9.4714,-0.0365,0.0284,-0.1245,-2.2271014652647914,0.0,4.797117233276367,-1.082664966583252,-0.0,2.198639392852783,4.714372743596815,0.0,0.2885807156562805,-1.598506275807516,-0.0,-0.009544296190142632,0.656965970993042,0.0,-0.01470137108117342,1.358932375907898,0.0,-0.019993217661976814
96.0,146.0,0.8249,0.3135,9.4714,-0.0365,0.0284,-0.1245,-2.227126260797018,0.0,4.808955192565918,-1.0826568603515625,-0.0,2.1601402759552,4.71435260397897,0.0,0.28961536288261414,-1.5984776655780237,-0.0,-0.011683322489261627,0.6570109128952026,0.0,-0.031997933983802795,1.3589684963226318,0.0,-0.04712875559926033
96.0,146.0,0.8249,0.3135,9.4714,-0.0365,0.0284,-0.1245,-2.227110048333639,0.0,4.795605182647705,-1.0826572179794312,-0.0,2.129865884780884,4.714344496815958,0.0,0.29712989926338196,-1.5985143820392054,-0.0,-0.005622209049761295,0.6570428609848022,0.0,-0.024914473295211792,1.3589766025543213,0.0,-0.03884696960449219
96.0,146.0,0.8249,0.3135,9.4714,-0.0365,0.0284,-0.1245,-2.227105756799215,0.0,4.824658393859863,-1.0826369524002075,-0.0,2.1610732078552246,4.714364533056997,0.0,0.28932106494903564,-1.5984776655780237,-0.0,-0.028782980516552925,0.656974196434021,0.0,-0.017609281465411186,1.3589885234832764,0.0,-0.03851320594549179
96.0,146.0,0.8249,0.3135,9.4714,-0.0365,0.0284,-0.1245,-2.2270895443358363,0.0,4.779265403747559,-1.0826287269592285,-0.0,2.1346447467803955,4.714328063047052,0.0,0.2933882176876068,-1.598501984273092,-0.0,-0.0015999387251213193,0.6569986939430237,0.0,-0.017474528402090073,1.358952522277832,0.0,-0.00537322461605072
96.0,146.0,0.8249,0.3135,9.4714,-0.0365,0.0284,-0.1245,-2.2270575962462367,0.0,4.774344444274902,-1.082664966583252,-0.0,2.1682469844818115,4.714336286043309,0.0,0.28466182947158813,-1.5984533468829554,-0.0,-0.022791985422372818,0.657010555267334,0.0,-0.02194437012076378,1.3589885234832764,0.0,-0.026021748781204224
96.0,146.0,0.8249,0.3135,9.4714,-0.0365,0.0284,-0.1245,-2.2270857296385707,0.0,4.814715385437012,-1.0826369524002075,-0.0,2.1531834602355957,4.7143280794616125,0.0,0.28186744451522827,-1.5984695593463343,-0.0,-0.0072998348623514175,0.6569622755050659,0.0,-0.028049813583493233,1.3590086698532104,0.0,-0.009115133434534073
96.0,146.0,0.8249,0.3135,9.4714,-0.0365,0.0284,-0.1245,-2.2271014652647914,0.0,4.799302101135254,-1.0826164484024048,-0.0,2.1632957458496094,4.714388741856002,0.0,0.27980613708496094,-1.5985100905047815,-0.0,-0.008127979934215546,0.6570147275924683,0.0,-0.016301842406392097,1.3589963912963867,0.0,-0.001938265049830079
96.0,146.0,0.8249,0.3135,9.4714,-0.0365,0.0284,-0.1245,-2.2270857296385707,0.0,4.800840377807617,-1.0826205015182495,-0.0,2.149766445159912,4.7143404196021415,0.0,0.2885960042476654,-1.598501984273092,-0.0,-0.003062829840928316,0.6570510268211365,0.0,-0.02137541025876999,1.3590086698532104,0.0,0.003096190746873617
96.0,146.0,0.8249,0.3135,9.4714,-0.0365,0.0284,-0.1245,-2.2271181545653285,0.0,4.798252105712891,-1.0827175378799438,-0.0,2.1882166862487793,4.7143362777778215,0.0,0.28617769479751587,-1.598506275807516,-0.0,-0.016342250630259514,0.6569663882255554,0.0,-0.02419271320104599,1.3590004444122314,0.0,-0.02907102182507515
96.0,146.0,0.8249,0.3135,9.4714,-0.0365,0.0284,-0.1245,-2.2271138630309046,0.0,4.813667297363281,-1.08261239528656,-0.0,2.1419756412506104,4.71436085503132,0.0,0.2920343577861786,-1.598501984273092,-0.0,-0.012190843001008034,0.6569782495498657,0.0,-0.014752650633454323,1.3589684963226318,0.0,0.02353612147271633
96.0,146.0,0.8249,0.3135,9.4714,-0.0365,0.0284,-0.1245,-2.2271138630309046,0.0,4.808130264282227,-1.0826091766357422,-0.0,2.251006603240967,4.71435636256405,0.0,0.2922897934913635,-1.5985305945025843,-0.0,0.005076114553958178,0.6570228338241577,0.0,-0.02599974349141121,1.3589603900909424,0.0,0.013818655163049698
98.0,145.0,0.8955,0.3147,9.4355,-0.0417,0.0234,-0.1133,-2.227077623406881,0.0,4.805811882019043,-1.0827051401138306,-0.0,2.1802468299865723,4.714332143753328,0.0,0.2977789640426636,-1.5984533468829554,-0.0,-0.01571335643529892,0.656965970993042,0.0,-0.012352664023637772,1.358980417251587,0.0,-0.007988670840859413
98.0,145.0,0.8955,0.3147,9.4355,-0.0417,0.0234,-0.1133,-2.227098127404684,0.0,4.8251729011535645,-1.0826728343963623,-0.0,2.1984169483184814,4.714364508376949,0.0,0.28238487243652344,-1.598506275807516,-0.0,-0.019793400540947914,0.656982421875,0.0,-0.025310762226581573,1.3589565753936768,0.0,-0.048580002039670944
98.0,145.0,0.8955,0.3147,9.4355,-0.0417,0.0234,-0.1133,-2.2271462879576625,0.0,4.793421268463135,-1.0826082229614258,-0.0,2.1724932193756104,4.714380551106789,0.0,0.30450552701950073,-1.598546330128805,-0.0,0.0009353459463454783,0.6569387912750244,0.0,-0.021594274789094925,1.3590083122253418,0.0,0.011329779401421547
98.0,145.0,0.8955,0.3147,9.4355,-0.0417,0.0234,-0.1133,-2.227110048333639,0.0,4.797516822814941,-1.0826449394226074,-0.0,2.1871237754821777,4.714340403187581,0.0,0.28342241048812866,-1.5984819571124476,-0.0,-0.021161388605833054,0.6569782495498657,0.0,-0.031613949686288834,1.358980417251587,0.0,-0.013960176147520542
98.0,145.0,0.8955,0.3147,9.4355,-0.0417,0.0234,-0.1133,-2.2271181545653285,0.0,4.823629856109619,-1.0827217102050781,-0.0,2.174025535583496,4.7143404196021415,0.0,0.2762914299964905,-1.598530117665426,-0.0,-0.0046559711918234825,0.6570188999176025,0.0,-0.01818210259079933,1.358980417251587,0.0,0.011946412734687328
98.0,145.0,0.8955,0.3147,9.4355,-0.0417,0.0234,-0.1133,-2.227086206475729,0.0,4.754825592041016,-1.082673192024231,-0.0,2.172365188598633,4.714352595597067,0.0,0.28026118874549866,-1.5984819571124476,-0.0,-0.002038633916527033,0.6569905281066895,0.0,-0.026288550347089767,1.3589684963226318,0.0,-0.016783885657787323
98.0,145.0,0.8955,0.3147,9.4355,-0.0417,0.0234,-0.1133,-2.2270738087096156,0.0,4.7701287269592285,-1.0826891660690308,-0.0,2.1845107078552246,4.71439656892375,0.0,0.2927153706550598,-1.5984895865069788,-0.0,-0.014002250507473946,0.6570147275924683,0.0,-0.03276243060827255,1.3589286804199219,0.0,-0.012067275121808052
98.0,145.0,0.8955,0.3147,9.4355,-0.0417,0.0234,-0.1133,-2.2270976505675257,0.0,4.876914978027344,-1.0826449394226074,-0.0,2.168693780899048,4.71433218426586,0.0,0.2939581871032715,-1.5985139052020472,-0.0,-0.00980837270617485,0.6569864153862,0.0,-0.02023189142346382,1.3589963912963867,0.0,-0.09246215969324112
98.0,145.0,0.8955,0.3147,9.4355,-0.0417,0.0234,-0.1133,-2.2271744213499964,0.0,4.800695896148682,-1.082724928855896,-0.0,2.138601303100586,4.71432812381585,0.0,0.2793402373790741,-1.5985100905047815,-0.0,-0.008377023041248322,0.6569822430610657,0.0,-0.024915946647524834,1.3589402437210083,0.0,-0.06206284090876579
98.0,145.0,0.8955,0.3147,9.4355,-0.0417,0.0234,-0.1133,-2.2271224460997523,0.0,4.76785945892334,-1.0826451778411865,-0.0,2.202881097793579,4.714372751978718,0.0,0.2865533232688904,-1.5984733740436,-0.0,-0.028036192059516907,0.6569987535476685,0.0,-0.0290819238871336,1.3589725494384766,0.0,-0.052425939589738846
98.0,145.0,0.8955,0.3147,9.4355,-0.0417,0.0234,-0.1133,-2.227142473260397,0.0,4.836870193481445,-1.0826492309570312,-0.0,2.181039333343506,4.71432812381585,0.0,0.27654433250427246,-1.598485294972555,-0.0,0.011829463765025139,0.6570224761962891,0.0,-0.010749096982181072,1.358952522277832,0.0,-0.0023070485331118107
98.0,145.0,0.8955,0.3147,9.4355,-0.0417,0.0234,-0.1133,-2.227098127404684,0.0,4.814841270446777,-1.082664966583252,-0.0,2.163715124130249,4.714328515320577,0.0,0.2759983539581299,-1.5984895865069788,-0.0,-0.02585618756711483,0.6569864153862,0.0,-0.02003518119454384,1.3589565753936768,0.0,-0.00843824539333582
98.0,145.0,0.8955,0.3147,9.4355,-0.0417,0.0234,-0.1133,-2.2270895443358363,0.0,4.784453392028809,-1.0826246738433838,-0.0,2.180253028869629,4.7143042459856055,0.0,0.2766520380973816,-1.598501984273092,-0.0,-0.011820784769952297,0.6569987535476685,0.0,-0.020645875483751297,1.3589283227920532,0.0,0.0011161435395479202
98.0,145.0,0.8955,0.3147,9.4355,-0.0417,0.0234,-0.1133,-2.227105756799215,0.0,4.808229446411133,-1.0825929641723633,-0.0,2.1637988090515137,4.714316227450528,0.0,0.2810044288635254,-1.5984457174884241,-0.0,-0.00023644301109015942,0.6569507122039795,0.0,-0.03739120811223984,1.358956217765808,0.0,0.01578924059867859
98.0,145.0,0.8955,0.3147,9.4355,-0.0417,0.0234,-0.1133,-2.2270332775511683,0.0,4.7729315757751465,-1.0827010869979858,-0.0,2.19952392578125,4.714400589210474,0.0,0.2937072813510895,-1.5985143820392054,-0.0,-0.02237863466143608,0.6569782495498657,0.0,-0.010882221162319183,1.3589885234832764,0.0,-0.01816103607416153
97.0,146.0,0.8465,0.3356,9.4134,-0.0487,0.0244,-0.1213,-2.2270695171751917,0.0,4.783291339874268,-1.0826574563980103,-0.0,2.132625102996826,4.71434441788637,0.0,0.29038774967193604,-1.5985143820392054,-0.0,-0.01554849836975336,0.6570824384689331,0.0,-0.02614409476518631,1.3589844703674316,0.0,-0.04093780368566513
97.0,146.0,0.8465,0.3356,9.4134,-0.0487,0.0244,-0.1213,-2.2270695171751917,0.0,4.812261581420898,-1.0826891660690308,-0.0,2.197544574737549,4.714300204976954,0.0,0.29154741764068604,-1.5984814802752894,-0.0,-0.00036836322396993637,0.656930685043335,0.0,-0.017207827419042587,1.3589606285095215,0.0,-0.06260835379362106
97.0,146.0,0.8465,0.3356,9.4134,-0.0487,0.0244,-0.1213,-2.227065225640768,0.0,4.809501647949219,-1.082664966583252,-0.0,2.1793739795684814,4.714400589210474,0.0,0.2849067449569702,-1.5985339323626917,-0.0,-0.00572345731779933,0.6570348143577576,0.0,-0.013496854342520237,1.3589725494384766,0.0,0.0050306906923651695
97.0,146.0,0.8465,0.3356,9.4134,-0.0487,0.0244,-0.1213,-2.2271348438658656,0.0,4.807041645050049,-1.0826690196990967,-0.0,2.142942428588867,4.71436858524152,0.0,0.2809044122695923,-1.598518196736471,-0.0,-0.012860583141446114,0.6569741368293762,0.0,-0.026949502527713776,1.358964443206787,0.0,-0.02674996852874756
97.0,146.0,0.8465,0.3356,9.4134,-0.0487,0.0244,-0.1213,-2.227110048333639,0.0,4.793210506439209,-1.0827051401138306,-0.0,2.169327735900879,4.714364867168971,0.0,0.29835695028305054,-1.5984976927386683,-0.0,-0.0011953548528254032,0.6569705009460449,0.0,-0.01933683268725872,1.358944296836853,0.0,0.007735889405012131
97.0,146.0,0.8465,0.3356,9.4134,-0.0487,0.0244,-0.1213,-2.227110048333639,0.0,4.793828964233398,-1.0826369524002075,-0.0,2.2105872631073,4.7143280794616125,0.0,0.2921808660030365,-1.5985339323626917,-0.0,-0.005926793906837702,0.6569782495498657,0.0,-0.02791052684187889,1.3589763641357422,0.0,-0.06514435261487961
97.0,146.0,0.8465,0.3356,9.4134,-0.0487,0.0244,-0.1213,-2.2270895443358363,0.0,4.809964179992676,-1.0827174186706543,-0.0,2.1584982872009277,4.714372751978718,0.0,0.29744023084640503,-1.598518196736471,-0.0,0.0011641094461083412,0.6569622755050659,0.0,-0.02062287926673889,1.358944296836853,0.0,-0.03130422160029411
97.0,146.0,0.8465,0.3356,9.4134,-0.0487,0.0244,-0.1213,-2.2271138630309046,0.0,4.803067684173584,-1.0826411247253418,-0.0,2.20346736907959,4.714388757921316,0.0,0.28114721179008484,-1.598501984273092,-0.0,0.0013087280094623566,0.657066822052002,0.0,-0.02864518016576767,1.3589885234832764,0.0,-0.027424130588769913
97.0,146.0,0.8465,0.3356,9.4134,-0.0487,0.0244,-0.1213,-2.2271181545653285,0.0,4.8076276779174805,-1.0826530456542969,-0.0,2.1804051399230957,4.714356754185193,0.0,0.26924824714660645,-1.598506275807516,-0.0,-0.01435212790966034,0.6569945812225342,0.0,-0.02980608120560646,1.3589882850646973,0.0,-0.005130033474415541
97.0,146.0,0.8465,0.3356,9.4134,-0.0487,0.0244,-0.1213,-2.227065702477926,0.0,4.753833770751953,-1.082664966583252,-0.0,2.143125057220459,4.714372751978718,0.0,0.2928677201271057,-1.598506275807516,-0.0,-0.0072603607550263405,0.6569864153862,0.0,-0.031081879511475563,1.3589723110198975,0.0,-0.008824504911899567
97.0,146.0,0.8465,0.3356,9.4134,-0.0487,0.0244,-0.1213,-2.2270895443358363,0.0,4.793061256408691,-1.082668662071228,-0.0,2.1609952449798584,4.714340364770525,0.0,0.2958870828151703,-1.5984733740436,-0.0,-0.0006556459702551365,0.6569987535476685,0.0,-0.03415496274828911,1.359000563621521,0.0,-0.10406453162431717
97.0,146.0,0.8465,0.3356,9.4134,-0.0487,0.0244,-0.1213,-2.2271014652647914,0.0,4.770903587341309,-1.0826690196990967,-0.0,2.179368495941162,4.714384591416948,0.0,0.2833102345466614,-1.5984976927386683,-0.0,-0.011563665233552456,0.6569987535476685,0.0,-0.015577426180243492,1.3590086698532104,0.0,0.0030266158282756805
97.0,146.0,0.8465,0.3356,9.4134,-0.0487,0.0244,-0.1213,-2.2271305523314417,0.0,4.838228702545166,-1.0826411247253418,-0.0,2.159788131713867,4.714368593390592,0.0,0.2976020872592926,-1.5985143820392054,-0.0,-0.01189327146857977,0.657010555267334,0.0,-0.022683778777718544,1.3589365482330322,0.0,0.012483115307986736
97.0,146.0,0.8465,0.3356,9.4134,-0.0487,0.0244,-0.1213,-2.2270895443358363,0.0,4.760144233703613,-1.0826009511947632,-0.0,2.183651924133301,4.714368593390592,0.0,0.27987340092658997,-1.5984771887408655,-0.0,-0.0009283851250074804,0.6570147275924683,0.0,-0.00479680672287941,1.358952522277832,0.0,-0.012573791667819023
97.0,146.0,0.8465,0.3356,9.4134,-0.0487,0.0244,-0.1213,-2.227081914941305,0.0,4.78495979309082,-1.0826328992843628,-0.0,2.154449939727783,4.714348590211504,0.0,0.28525039553642273,-1.5985100905047815,-0.0,-0.018550705164670944,0.6570668816566467,0.0,-0.0316171757876873,1.3589365482330322,0.0,-0.04263691604137421
100.0,149.0,0.8602,0.3284,9.5169,-0.0341,0.0237,-0.119,-2.22709383587026,0.0,4.814367294311523,-1.082673192024231,-0.0,2.189871072769165,4.714360439661451,0.0,0.29365798830986023,-1.5985263029681605,-0.0,-0.014076083898544312,0.6569782495498657,0.0,-0.033128753304481506,1.3589725494384766,0.0,-0.055212415754795074
100.0,149.0,0.8602,0.3284,9.5169,-0.0341,0.0237,-0.119,-2.2271062336363734,0.0,4.838037967681885,-1.0826369524002075,-0.0,2.1661314964294434,4.714412901760571,0.0,0.28092294931411743,-1.598506275807516,-0.0,-0.01075233519077301,0.6570224761962891,0.0,-0.024378640577197075,1.359048843383789,0.0,-0.013705664314329624
100.0,149.0,0.8602,0.3284,9.5169,-0.0341,0.0237,-0.119,-2.2270895443358363,0.0,4.784980773925781,-1.0827010869979858,-0.0,2.1740505695343018,4.714364516526022,0.0,0.29200851917266846,-1.5984814802752894,-0.0,-0.00028381572337821126,0.6570106148719788,0.0,-0.024218620732426643,1.3589926958084106,0.0,-0.006166025530546904
100.0,149.0,0.8602,0.3284,9.5169,-0.0341,0.0237,-0.119,-2.227110048333639,0.0,4.751203536987305,-1.0826690196990967,-0.0,2.1509618759155273,4.714368593390592,0.0,0.29865214228630066,-1.598506275807516,-0.0,-0.007565400097519159,0.657078742980957,0.0,-0.020409993827342987,1.3590046167373657,0.0,0.00691573042422533
100.0,149.0,0.8602,0.3284,9.5169,-0.0341,0.0237,-0.119,-2.227086206475729,0.0,4.799703598022461,-1.082664966583252,-0.0,2.1968061923980713,4.7142924426361255,0.0,0.29499420523643494,-1.5984614531146448,-0.0,-0.008137174881994724,0.6569987535476685,0.0,-0.023221129551529884,1.3590004444122314,0.0,0.02491498552262783
100.0,149.0,0.8602,0.3284,9.5169,-0.0341,0.0237,-0.119,-2.22709383587026,0.0,4.830418586730957,-1.0826928615570068,-0.0,2.1300759315490723,4.714320279867881,0.0,0.2854437530040741,-1.5985382238971155,-0.0,-0.006780424155294895,0.6570028066635132,0.0,-0.01201479323208332,1.3590127229690552,0.0,0.023178987205028534
100.0,149.0,0.8602,0.3284,9.5169,-0.0341,0.0237,-0.119,-2.227154394189352,0.0,4.791489124298096,-1.082620620727539,-0.0,2.200146198272705,4.714360398450427,0.0,0.2806859612464905,-1.5984895865069788,-0.0,-0.005760606378316879,0.657010555267334,0.0,-0.02882872335612774,1.358952522277832,0.0,-0.01332944631576538
100.0,149.0,0.8602,0.3284,9.5169,-0.0341,0.0237,-0.119,-2.2270738087096156,0.0,4.809261322021484,-1.0826653242111206,-0.0,2.1449825763702393,4.714348518732496,0.0,0.2747017741203308,-1.5984819571124476,-0.0,-0.010613887570798397,0.6569499373435974,0.0,-0.01970338448882103,1.3590086698532104,0.0,0.019734591245651245
100.0,149.0,0.8602,0.3284,9.5169,-0.0341,0.0237,-0.119,-2.227077623406881,0.0,4.82942008972168,-1.0826568603515625,-0.0,2.2121105194091797,4.714372751978718,0.0,0.2865241467952728,-1.5984895865069788,-0.0,-0.00992122944444418,0.6569424867630005,0.0,-0.01559778768569231,1.3589882850646973,0.0,-0.027084840461611748
100.0,149.0,0.8602,0.3284,9.5169,-0.0341,0.0237,-0.119,-2.2270738087096156,0.0,4.814216136932373,-1.0827093124389648,-0.0,2.141714572906494,4.7144047477986,0.0,0.2973918914794922,-1.5985100905047815,-0.0,-0.010201201774179935,0.6570627093315125,0.0,-0.01550241932272911,1.3589603900909424,0.0,-0.009324582293629646
100.0,149.0,0.8602,0.3284,9.5169,-0.0341,0.0237,-0.119,-2.227081438104147,0.0,4.825563907623291,-1.0826325416564941,-0.0,2.154146194458008,4.714388749772244,0.0,0.28771698474884033,-1.5984819571124476,-0.0,-0.0044816043227910995,0.6569384336471558,0.0,-0.020741591230034828,1.35904061794281,0.0,-0.024611789733171463
100.0,149.0,0.8602,0.3284,9.5169,-0.0341,0.0237,-0.119,-2.227126260797018,0.0,4.80601167678833,-1.0826448202133179,-0.0,2.168267011642456,4.714348518732496,0.0,0.2968883216381073,-1.598518196736471,-0.0,-0.004350030794739723,0.6570068001747131,0.0,-0.008062433451414108,1.3589763641357422,0.0,0.026611316949129105
100.0,149.0,0.8602,0.3284,9.5169,-0.0341,0.0237,-0.119,-2.227126260797018,0.0,4.82951021194458,-1.0826530456542969,-0.0,2.1608686447143555,4.714324438339592,0.0,0.2928425073623657,-1.5985339323626917,-0.0,-0.019615866243839264,0.6570065021514893,0.0,-0.02972215786576271,1.358944296836853,0.0,-0.03633628785610199
100.0,149.0,0.8602,0.3284,9.5169,-0.0341,0.0237,-0.119,-2.227142473260397,0.0,4.766510009765625,-1.0826247930526733,-0.0,2.1994380950927734,4.714324438339592,0.0,0.2873404026031494,-1.598429028187887,-0.0,0.0016557492781430483,0.656982421875,0.0,-0.020231526345014572,1.3589725494384766,0.0,-0.01643424853682518
100.0,149.0,0.8602,0.3284,9.5169,-0.0341,0.0237,-0.119,-2.227110048333639,0.0,4.780686378479004,-1.0826451778411865,-0.0,2.1603333950042725,4.714372751978718,0.0,0.2881720960140228,-1.5984652678119105,-0.0,-0.014153921976685524,0.6570065021514893,0.0,-0.02744128555059433,1.3589684963226318,0.0,0.02381962537765503
101.0,141.0,0.8758,0.3206,9.4433,-0.036,0.0174,-0.1177,-2.2270575962462367,0.0,4.770674705505371,-1.0826488733291626,-0.0,2.20056414604187,4.714384199795806,0.0,0.29649171233177185,-1.5984976927386683,-0.0,-0.01362119521945715,0.656974196434021,0.0,-0.013475186191499233,1.3589926958084106,0.0,-0.06823442876338959
101.0,141.0,0.8758,0.3206,9.4433,-0.036,0.0174,-0.1177,-2.2270738087096156,0.0,4.777744293212891,-1.082580327987671,-0.0,2.1327991485595703,4.714364516526022,0.0,0.28594350814819336,-1.5984934012042444,-0.0,-0.00709494948387146,0.6569782495498657,0.0,-0.03265910968184471,1.358944296836853,0.0,-0.033070482313632965
101.0,141.0,0.8758,0.3206,9.4433,-0.036,0.0174,-0.1177,-2.227105756799215,0.0,4.781314373016357,-1.08261239528656,-0.0,2.1850266456604004,4.714380514319547,0.0,0.2858845293521881,-1.5984733740436,-0.0,-0.022704368457198143,0.6570027470588684,0.0,-0.02043527364730835,1.3589963912963867,0.0,-0.000440752599388361
101.0,141.0,0.8758,0.3206,9.4433,-0.036,0.0174,-0.1177,-2.227081914941305,0.0,4.810616493225098,-1.0826489925384521,-0.0,2.1875503063201904,4.714388749772244,0.0,0.29149335622787476,-1.598501984273092,-0.0,-0.006743079051375389,0.6570227742195129,0.0,-0.019065894186496735,1.359000563621521,0.0,-0.009152424521744251
101.0,141.0,0.8758,0.3206,9.4433,-0.036,0.0174,-0.1177,-2.2270895443358363,0.0,4.794989585876465,-1.0826489925384521,-0.0,2.1413047313690186,4.714352159970932,0.0,0.28827589750289917,-1.5984895865069788,-0.0,-0.020028268918395042,0.6569622755050659,0.0,-0.01427776925265789,1.3590165376663208,0.0,-0.051104988902807236
101.0,141.0,0.8758,0.3206,9.4433,-0.036,0.0174,-0.1177,-2.227105756799215,0.0,4.768613338470459,-1.0826163291931152,-0.0,2.1785635948181152,4.714368593390592,0.0,0.2870108187198639,-1.598506275807516,-0.0,-0.0035125447902828455,0.6569864749908447,0.0,-0.011535897850990295,1.3589682579040527,0.0,-0.010250793769955635
101.0,141.0,0.8758,0.3206,9.4433,-0.036,0.0174,-0.1177,-2.227110048333639,0.0,4.760642051696777,-1.0826172828674316,-0.0,2.1691198348999023,4.7143404362495325,0.0,0.28368452191352844,-1.5984733740436,-0.0,-0.012317926622927189,0.6569864749908447,0.0,-0.03311295062303543,1.3589885234832764,0.0,-0.006184181198477745
101.0,141.0,0.8758,0.3206,9.4433,-0.036,0.0174,-0.1177,-2.2271343670287074,0.0,4.809720516204834,-1.0826568603515625,-0.0,2.150040864944458,4.71432027963505,0.0,0.2861432731151581,-1.5984776655780237,-0.0,-0.00958186760544777,0.6569700837135315,0.0,-0.018835753202438354,1.3589603900909424,0.0,-0.018157286569476128
101.0,141.0,0.8758,0.3206,9.4433,-0.036,0.0174,-0.1177,-2.227110048333639,0.0,4.803385257720947,-1.0826690196990967,-0.0,2.1502315998077393,4.714360439661451,0.0,0.2781356871128082,-1.598485294972555,-0.0,-0.0009351738262921572,0.6570024490356445,0.0,-0.010933054611086845,1.358964443206787,0.0,0.0018944244366139174
101.0,141.0,0.8758,0.3206,9.4433,-0.036,0.0174,-0.1177,-2.2271224460997523,0.0,4.809476375579834,-1.0827052593231201,-0.0,2.1723525524139404,4.714312125905909,0.0,0.28258809447288513,-1.5984895865069788,-0.0,0.008219851180911064,0.6569578051567078,0.0,-0.010209321975708008,1.3589763641357422,0.0,-0.03593333810567856
101.0,141.0,0.8758,0.3206,9.4433,-0.036,0.0174,-0.1177,-2.227105756799215,0.0,4.845670700073242,-1.082693338394165,-0.0,2.1264405250549316,4.7143404362495325,0.0,0.2807505428791046,-1.5985220114337366,-0.0,0.0003726319409906864,0.6570265889167786,0.0,-0.007886989042162895,1.3589684963226318,0.0,0.042824532836675644
101.0,141.0,0.8758,0.3206,9.4433,-0.036,0.0174,-0.1177,-2.227105756799215,0.0,4.792489528656006,-1.0826489925384521,-0.0,2.2005128860473633,4.714348606509649,0.0,0.3038400411605835,-1.5984895865069788,-0.0,-0.003983689937740564,0.6570388078689575,0.0,-0.01983838528394699,1.3589483499526978,0.0,0.01308352593332529
101.0,141.0,0.8758,0.3206,9.4433,-0.036,0.0174,-0.1177,-2.227053304711813,0.0,4.848572254180908,-1.082628846168518,-0.0,2.178718090057373,4.714348506625303,0.0,0.2865954637527466,-1.5984695593463343,-0.0,0.009389538317918777,0.6569507122039795,0.0,-0.012782333418726921,1.358956217765808,0.0,-0.050397805869579315
101.0,141.0,0.8758,0.3206,9.4433,-0.036,0.0174,-0.1177,-2.2270695171751917,0.0,4.821518421173096,-1.082664966583252,-0.0,2.2002105712890625,4.714368601539665,0.0,0.28933170437812805,-1.5984976927386683,-0.0,-0.018576860427856445,0.6569499373435974,0.0,-0.015118854120373726,1.3589643239974976,0.0,-0.03831837698817253
101.0,141.0,0.8758,0.3206,9.4433,-0.036,0.0174,-0.1177,-2.2271224460997523,0.0,4.809961318969727,-1.0827052593231201,-0.0,2.131484031677246,4.714356754185193,0.0,0.2920103967189789,-1.5984895865069788,-0.0,-0.0011993283405900002,0.6569384336471558,0.0,-0.01150435023009777,1.3589603900909424,0.0,0.024196824058890343
102.0,145.0,0.8722,0.3344,9.4995,-0.0357,0.0168,-0.1115,-2.2271181545653285,0.0,4.799397945404053,-1.0826849937438965,-0.0,2.202029228210449,4.71443290493966,0.0,0.2823982834815979,-1.5984733740436,-0.0,-0.01664917916059494,0.6570265889167786,0.0,-0.0009471839293837547,1.3590084314346313,0.0,0.04777785390615463
102.0,145.0,0.8722,0.3344,9.4995,-0.0357,0.0168,-0.1115,-2.227077623406881,0.0,4.811528205871582,-1.0827175378799438,-0.0,2.1577415466308594,4.714348518732496,0.0,0.2944643199443817,-1.5984976927386683,-0.0,-0.019711269065737724,0.6569987535476685,0.0,-0.023346202448010445,1.3589524030685425,0.0,-0.006849681958556175
102.0,145.0,0.8722,0.3344,9.4995,-0.0357,0.0168,-0.1115,-2.227126260797018,0.0,4.760669708251953,-1.0826246738433838,-0.0,2.198418378829956,4.714352595597067,0.0,0.29225894808769226,-1.5985143820392054,-0.0,0.0023578761611133814,0.6569424867630005,0.0,-0.018325921148061752,1.3589963912963867,0.0,-0.039076779037714005
102.0,145.0,0.8722,0.3344,9.4995,-0.0357,0.0168,-0.1115,-2.227077146569723,0.0,4.768190383911133,-1.082693338394165,-0.0,2.1846160888671875,4.714392826869645,0.0,0.2933540642261505,-1.5984976927386683,-0.0,-0.00872008316218853,0.657010555267334,0.0,-0.01825585588812828,1.358992338180542,0.0,0.010335204191505909
102.0,145.0,0.8722,0.3344,9.4995,-0.0357,0.0168,-0.1115,-2.22709383587026,0.0,4.830089569091797,-1.082664966583252,-0.0,2.183595895767212,4.714368593390592,0.0,0.2833036780357361,-1.598506275807516,-0.0,-0.00922446046024561,0.6569622755050659,0.0,-0.023090988397598267,1.3589164018630981,0.0,-0.004292777739465237
102.0,145.0,0.8722,0.3344,9.4995,-0.0357,0.0168,-0.1115,-2.227077623406881,0.0,4.8383893966674805,-1.0826928615570068,-0.0,2.129059076309204,4.714352579298922,0.0,0.2849201261997223,-1.5984495321856897,-0.0,-0.017751242965459824,0.6570265889167786,0.0,-0.029348088428378105,1.3589763641357422,0.0,0.004173681605607271
102.0,145.0,0.8722,0.3344,9.4995,-0.0357,0.0168,-0.1115,-2.227105756799215,0.0,4.839466094970703,-1.082664966583252,-0.0,2.2106640338897705,4.714332200913251,0.0,0.28994131088256836,-1.5984733740436,-0.0,-0.021540027111768723,0.6569499373435974,0.0,-0.014706458896398544,1.3589763641357422,0.0,-0.001962892711162567
102.0,145.0,0.8722,0.3344,9.4995,-0.0357,0.0168,-0.1115,-2.2270738087096156,0.0,4.809859275817871,-1.0826369524002075,-0.0,2.136708974838257,4.714360431512379,0.0,0.2912854254245758,-1.5985263029681605,-0.0,0.00059702736325562,0.6569905281066895,0.0,-0.024189665913581848,1.3589684963226318,0.0,-0.010334288701415062
102.0,145.0,0.8722,0.3344,9.4995,-0.0357,0.0168,-0.1115,-2.2271224460997523,0.0,4.808701992034912,-1.082688808441162,-0.0,2.1765618324279785,4.714364508376949,0.0,0.2893736958503723,-1.5985220114337366,-0.0,-0.00888687465339899,0.657010555267334,0.0,-0.012987108901143074,1.358956217765808,0.0,-0.0249351616948843
102.0,145.0,0.8722,0.3344,9.4995,-0.0357,0.0168,-0.1115,-2.2270857296385707,0.0,4.802379608154297,-1.0826411247253418,-0.0,2.172109365463257,4.714352595597067,0.0,0.2877824902534485,-1.5984814802752894,-0.0,-0.017346924170851707,0.6569864749908447,0.0,-0.008376718498766422,1.359012484550476,0.0,0.004068597219884396
102.0,145.0,0.8722,0.3344,9.4995,-0.0357,0.0168,-0.1115,-2.227105756799215,0.0,4.754596710205078,-1.082676887512207,-0.0,2.1719658374786377,4.714356721356072,0.0,0.28779253363609314,-1.598506275807516,-0.0,-0.016037994995713234,0.6569742560386658,0.0,-0.003089174162596464,1.359048843383789,0.0,-0.011287222616374493
102.0,145.0,0.8722,0.3344,9.4995,-0.0357,0.0168,-0.1115,-2.2271014652647914,0.0,4.821959495544434,-1.0826568603515625,-0.0,2.153047561645508,4.714316243748673,0.0,0.2885726988315582,-1.5984938780414026,-0.0,0.006064166314899921,0.657014787197113,0.0,-0.017474744468927383,1.3589684963226318,0.0,-0.030208919197320938
102.0,145.0,0.8722,0.3344,9.4995,-0.0357,0.0168,-0.1115,-2.2271224460997523,0.0,4.812345504760742,-1.0826572179794312,-0.0,2.187723398208618,4.714372751978718,0.0,0.2774432301521301,-1.598506275807516,-0.0,-0.02352275885641575,0.6569864749908447,0.0,-0.009909984655678272,1.3589963912963867,0.0,0.009820578619837761
102.0,145.0,0.8722,0.3344,9.4995,-0.0357,0.0168,-0.1115,-2.227098127404684,0.0,4.819350719451904,-1.0826411247253418,-0.0,2.136874198913574,4.714332200796836,0.0,0.2782191038131714,-1.5984814802752894,-0.0,-0.005682937800884247,0.6569987535476685,0.0,-0.01922117918729782,1.358992338180542,0.0,-0.0426751971244812
98.0,146.0,0.8423,0.3045,9.5073,-0.0336,0.0244,-0.1185,-2.2271305523314417,0.0,4.808759689331055,-1.0826612710952759,-0.0,2.1494994163513184,4.714320222824373,0.0,0.28499704599380493,-1.5984814802752894,-0.0,-0.005701430141925812,0.6569905281066895,0.0,-0.03050914779305458,1.3589963912963867,0.0,0.003000854980200529
98.0,146.0,0.8423,0.3045,9.5073,-0.0336,0.0244,-0.1185,-2.2271014652647914,0.0,4.802951812744141,-1.0825679302215576,-0.0,2.133781909942627,4.714348514774375,0.0,0.28350019454956055,-1.5985263029681605,-0.0,-0.014813868328928947,0.6569945812225342,0.0,-0.03415839374065399,1.3589725494384766,0.0,0.029620444402098656
98.0,146.0,0.8423,0.3045,9.5073,-0.0336,0.0244,-0.1185,-2.2270738087096156,0.0,4.796708106994629,-1.0826449394226074,-0.0,2.1711244583129883,4.714332217211396,0.0,0.2915167808532715,-1.598461929951803,-0.0,-0.012660440988838673,0.6569622755050659,0.0,-0.01769968867301941,1.358964443206787,0.0,0.00600810069590807
98.0,146.0,0.8423,0.3045,9.5073,-0.0336,0.0244,-0.1185,-2.2271224460997523,0.0,4.799071311950684,-1.082673192024231,-0.0,2.141964912414551,4.714340419834972,0.0,0.29859691858291626,-1.598530117665426,-0.0,-0.011142557486891747,0.657042920589447,0.0,-0.02272947132587433,1.3589603900909424,0.0,-0.023949382826685905
98.0,146.0,0.8423,0.3045,9.5073,-0.0336,0.0244,-0.1185,-2.227154394189352,0.0,4.829911231994629,-1.0826407670974731,-0.0,2.2346901893615723,4.714368630177834,0.0,0.2862178087234497,-1.5984895865069788,-0.0,-0.007784641347825527,0.6569943428039551,0.0,-0.019460473209619522,1.3589283227920532,0.0,-0.0003872113302350044
98.0,146.0,0.8423,0.3045,9.5073,-0.0336,0.0244,-0.1185,-2.2271181545653285,0.0,4.766712188720703,-1.082673192024231,-0.0,2.1477906703948975,4.714388810541042,0.0,0.2912851572036743,-1.5984895865069788,-0.0,0.004617572296410799,0.6569986939430237,0.0,-0.0007408889941871166,1.358980417251587,0.0,-0.00857125036418438
98.0,146.0,0.8423,0.3045,9.5073,-0.0336,0.0244,-0.1185,-2.2271224460997523,0.0,4.800205707550049,-1.0826287269592285,-0.0,2.1795504093170166,4.714368593390592,0.0,0.29899558424949646,-1.598506275807516,-0.0,-0.017100267112255096,0.6570184826850891,0.0,-0.015146857127547264,1.358952522277832,0.0,-0.027039501816034317
98.0,146.0,0.8423,0.3045,9.5073,-0.0336,0.0244,-0.1185,-2.227077623406881,0.0,4.788738250732422,-1.082685112953186,-0.0,2.166821002960205,4.714364533056997,0.0,0.28693729639053345,-1.598485294972555,-0.0,-0.015611190348863602,0.6569782495498657,0.0,-0.01941087283194065,1.358952522277832,0.0,0.02923736535012722
98.0,146.0,0.8423,0.3045,9.5073,-0.0336,0.0244,-0.1185,-2.22709383587026,0.0,4.829410552978516,-1.0826369524002075,-0.0,2.188403367996216,4.7143362738197006,0.0,0.2799617052078247,-1.5985263029681605,-0.0,-0.013546058908104897,0.6569904685020447,0.0,-0.02061808481812477,1.358964443206787,0.0,0.020007213577628136
98.0,146.0,0.8423,0.3045,9.5073,-0.0336,0.0244,-0.1185,-2.2271181545653285,0.0,4.824186325073242,-1.0827176570892334,-0.0,2.1769707202911377,4.714372775960275,0.0,0.2866348326206207,-1.5984938780414026,-0.0,-0.012635876424610615,0.6570225358009338,0.0,-0.010074560530483723,1.3589603900909424,0.0,-0.05661411210894585
98.0,146.0,0.8423,0.3045,9.5073,-0.0336,0.0244,-0.1185,-2.227105756799215,0.0,4.771307945251465,-1.0826327800750732,-0.0,2.1917166709899902,4.714364532824167,0.0,0.2853783369064331,-1.5985263029681605,-0.0,0.00029675220139324665,0.6570024490356445,0.0,-0.02499447390437126,1.3589684963226318,0.0,0.014235970564186573
98.0,146.0,0.8423,0.3045,9.5073,-0.0336,0.0244,-0.1185,-2.2270695171751917,0.0,4.77450704574585,-1.0826163291931152,-0.0,2.226612091064453,4.71436454120607,0.0,0.2894720435142517,-1.598501984273092,-0.0,-0.012094028294086456,0.6569507122039795,0.0,-0.016277775168418884,1.3589844703674316,0.0,-0.0069243451580405235
98.0,146.0,0.8423,0.3045,9.5073,-0.0336,0.0244,-0.1185,-2.227065702477926,0.0,4.800577163696289,-1.0826246738433838,-0.0,2.1552913188934326,4.714340353478239,0.0,0.28902265429496765,-1.598485294972555,-0.0,-0.004534230567514896,0.657058596611023,0.0,-0.0040375348180532455,1.3589565753936768,0.0,-0.00012729549780488014
98.0,146.0,0.8423,0.3045,9.5073,-0.0336,0.0244,-0.1185,-2.227110048333639,0.0,4.760556221008301,-1.0826407670974731,-0.0,2.1811580657958984,4.714380514319547,0.0,0.2746140658855438,-1.5984776655780237,-0.0,-0.003334279637783766,0.6569540500640869,0.0,-0.013162572868168354,1.3589723110198975,0.0,-0.012567447498440742
98.0,146.0,0.8423,0.3045,9.5073,-0.0336,0.0244,-0.1185,-2.2270976505675257,0.0,4.7569427490234375,-1.0826530456542969,-0.0,2.1783785820007324,4.714332576003418,0.0,0.29199206829071045,-1.5984938780414026,-0.0,-0.015948984771966934,0.6569904685020447,0.0,-0.01966729573905468,1.3589766025543213,0.0,-0.0323137566447258
98.0,147.0,0.932,0.323,9.3553,-0.0342,0.022,-0.1174,-2.2271181545653285,0.0,4.814756393432617,-1.082701563835144,-0.0,2.155789613723755,4.714348522457787,0.0,0.29684871435165405,-1.598473850880758,-0.0,-0.0218165572732687,0.6569864153862,0.0,-0.02471703477203846,1.358992338180542,0.0,0.022214431315660477
98.0,147.0,0.932,0.323,9.3553,-0.0342,0.022,-0.1174,-2.2271181545653285,0.0,4.8321967124938965,-1.0826451778411865,-0.0,2.1615166664123535,4.714328184351817,0.0,0.3012203574180603,-1.5985263029681605,-0.0,-0.011258049868047237,0.6570024490356445,0.0,-0.013777058571577072,1.3589565753936768,0.0,-0.028967341408133507
98.0,147.0,0.932,0.323,9.3553,-0.0342,0.022,-0.1174,-2.2271138630309046,0.0,4.817290306091309,-1.0826530456542969,-0.0,2.1152029037475586,4.714324385254205,0.0,0.2839075028896332,-1.5984733740436,-0.0,-0.017269091680645943,0.656965970993042,0.0,-0.004665653686970472,1.3589684963226318,0.0,-0.03671909496188164
98.0,147.0,0.932,0.323,9.3553,-0.0342,0.022,-0.1174,-2.2270857296385707,0.0,4.812760829925537,-1.0827010869979858,-0.0,2.129361152648926,4.714348538755932,0.0,0.28283268213272095,-1.598501984273092,-0.0,-0.014835501089692116,0.6570308208465576,0.0,-0.008453221060335636,1.3589766025543213,0.0,-0.0255685243755579
98.0,147.0,0.932,0.323,9.3553,-0.0342,0.022,-0.1174,-2.2270857296385707,0.0,4.746862411499023,-1.082676887512207,-0.0,2.1940107345581055,4.714348530606859,0.0,0.2874721884727478,-1.5985220114337366,-0.0,-0.0009954480919986963,0.6570106148719788,0.0,-0.008498582057654858,1.3590004444122314,0.0,-0.004208470694720745
98.0,147.0,0.932,0.323,9.3553,-0.0342,0.022,-0.1174,-2.227081438104147,0.0,4.777878761291504,-1.0826530456542969,-0.0,2.1612541675567627,4.714348522457787,0.0,0.2887604236602783,-1.5984695593463343,-0.0,-0.009981943294405937,0.6570065021514893,0.0,-0.01038077101111412,1.358964443206787,0.0,0.03565973415970802
98.0,147.0,0.932,0.323,9.3553,-0.0342,0.022,-0.1174,-2.2271014652647914,0.0,4.834524631500244,-1.082673192024231,-0.0,2.182292938232422,4.714400553587385,0.0,0.29012301564216614,-1.5984652678119105,-0.0,-0.007909891195595264,0.6569986939430237,0.0,-0.01495721098035574,1.358952522277832,0.0,-0.019708171486854553
98.0,147.0,0.932,0.323,9.3553,-0.0342,0.022,-0.1174,-2.227105756799215,0.0,4.816845893859863,-1.082685112953186,-0.0,2.1911935806274414,4.714392778906532,0.0,0.29020392894744873,-1.5984938780414026,-0.0,-0.005023789592087269,0.65694659948349,0.0,-0.0031456463038921356,1.358952522277832,0.0,0.018504470586776733
98.0,147.0,0.932,0.323,9.3553,-0.0342,0.022,-0.1174,-2.2270738087096156,0.0,4.7574591636657715,-1.0826048851013184,-0.0,2.1796491146087646,4.7143404362495325,0.0,0.2971857786178589,-1.598506275807516,-0.0,2.2940803319215775e-06,0.6570307016372681,0.0,-0.015043672174215317,1.3589684963226318,0.0,-0.0235451553016901
98.0,147.0,0.932,0.323,9.3553,-0.0342,0.022,-0.1174,-2.2270738087096156,0.0,4.812527656555176,-1.0826612710952759,-0.0,2.1701290607452393,4.714348506625303,0.0,0.29311543703079224,-1.5984776655780237,-0.0,0.008912072516977787,0.6570388078689575,0.0,-0.007250149734318256,1.3589885234832764,0.0,-0.027452126145362854
98.0,147.0,0.932,0.323,9.3553,-0.0342,0.022,-0.1174,-2.227126260797018,0.0,4.808671951293945,-1.0826327800750732,-0.0,2.1494193077087402,4.714356766292386,0.0,0.291262686252594,-1.5984538237201136,-0.0,0.0013759033754467964,0.6569905281066895,0.0,-0.011446371674537659,1.3589844703674316,0.0,-0.014529095962643623
98.0,147.0,0.932,0.323,9.3553,-0.0342,0.022,-0.1174,-2.2270575962462367,0.0,4.817928314208984,-1.0826411247253418,-0.0,2.1626973152160645,4.714336265554213,0.0,0.2925466299057007,-1.5984733740436,-0.0,0.003802104387432337,0.6570147275924683,0.0,-0.019236033782362938,1.3589725494384766,0.0,-0.018358174711465836
98.0,147.0,0.932,0.323,9.3553,-0.0342,0.022,-0.1174,-2.2271014652647914,0.0,4.787257671356201,-1.082673192024231,-0.0,2.1786999702453613,4.714400553587385,0.0,0.2907383441925049,-1.598501984273092,-0.0,-0.009457671083509922,0.6569905281066895,0.0,-0.019150124862790108,1.3589963912963867,0.0,-0.012136567384004593
98.0,147.0,0.932,0.323,9.3553,-0.0342,0.022,-0.1174,-2.2271014652647914,0.0,4.774068832397461,-1.0826369524002075,-0.0,2.2033157348632812,4.71432445033037,0.0,0.28685447573661804,-1.5984895865069788,-0.0,-0.0005042045377194881,0.6570224761962891,0.0,-0.013352256268262863,1.3590123653411865,0.0,-0.015997862443327904
98.0,147.0,0.932,0.323,9.3553,-0.0342,0.022,-0.1174,-2.2270738087096156,0.0,4.801148891448975,-1.0826812982559204,-0.0,2.123490810394287,4.714356741845169,0.0,0.2803567051887512,-1.5984776655780237,-0.0,0.006622880231589079,0.6569945812225342,0.0,-0.023006191477179527,1.3589763641357422,0.0,-0.01133546233177185
96.0,146.0,0.7944,0.3009,9.6078,-0.0319,0.0217,-0.1266,-2.2271014652647914,0.0,4.828559875488281,-1.0826530456542969,-0.0,2.1542160511016846,4.714336302108624,0.0,0.2909448742866516,-1.5984976927386683,-0.0,-0.01013992540538311,0.6570024490356445,0.0,-0.007417268119752407,1.3589365482330322,0.0,-0.009546594694256783
96.0,146.0,0.7944,0.3009,9.6078,-0.0319,0.0217,-0.1266,-2.227065702477926,0.0,4.802076816558838,-1.0826328992843628,-0.0,2.1892967224121094,4.714352595597067,0.0,0.2922176420688629,-1.5984733740436,-0.0,-0.004066071473062038,0.6570265293121338,0.0,-0.020292924717068672,1.3589844703674316,0.0,-0.024253543466329575
96.0,146.0,0.7944,0.3009,9.6078,-0.0319,0.0217,-0.1266,-2.2271014652647914,0.0,4.8169331550598145,-1.0826728343963623,-0.0,2.1645915508270264,4.714356386545607,0.0,0.28538841009140015,-1.5984819571124476,-0.0,-0.014159583486616611,0.6569905281066895,0.0,-0.015942994505167007,1.3589763641357422,0.0,-0.0408487543463707
96.0,146.0,0.7944,0.3009,9.6078,-0.0319,0.0217,-0.1266,-2.227105756799215,0.0,4.840309143066406,-1.0826448202133179,-0.0,2.183716297149658,4.714336289885015,0.0,0.2920505404472351,-1.5985139052020472,-0.0,-0.002037025522440672,0.656982421875,0.0,-0.024569593369960785,1.3589844703674316,0.0,0.016336748376488686
96.0,146.0,0.7944,0.3009,9.6078,-0.0319,0.0217,-0.1266,-2.2271138630309046,0.0,4.845806121826172,-1.0826772451400757,-0.0,2.129838705062866,4.71432445405566,0.0,0.27740970253944397,-1.5984695593463343,-0.0,-0.007437045685946941,0.6569622755050659,0.0,-0.017529236152768135,1.358944296836853,0.0,0.0038563618436455727
96.0,146.0,0.7944,0.3009,9.6078,-0.0319,0.0217,-0.1266,-2.2270895443358363,0.0,4.776176452636719,-1.0826369524002075,-0.0,2.2231383323669434,4.714364835969665,0.0,0.2838444411754608,-1.5984814802752894,-0.0,-0.003908176906406879,0.656982421875,0.0,-0.014089593663811684,1.3589361906051636,0.0,0.01098458468914032
96.0,146.0,0.7944,0.3009,9.6078,-0.0319,0.0217,-0.1266,-2.227110048333639,0.0,4.765021800994873,-1.0827136039733887,-0.0,2.1355133056640625,4.714332248992779,0.0,0.28463825583457947,-1.598485294972555,-0.0,-0.005365108139812946,0.656982421875,0.0,-0.02253088727593422,1.3590165376663208,0.0,0.05835607647895813
96.0,146.0,0.7944,0.3009,9.6078,-0.0319,0.0217,-0.1266,-2.227081914941305,0.0,4.779073238372803,-1.082676887512207,-0.0,2.1740503311157227,4.714340485376798,0.0,0.29483938217163086,-1.5985143820392054,-0.0,-0.0007578765507787466,0.6570307016372681,0.0,-0.02938740700483322,1.358932375907898,0.0,-0.021234361454844475
96.0,146.0,0.7944,0.3009,9.6078,-0.0319,0.0217,-0.1266,-2.227065702477926,0.0,4.788693428039551,-1.082664966583252,-0.0,2.152022123336792,4.714356410294332,0.0,0.28198349475860596,-1.5984814802752894,-0.0,-0.010525735095143318,0.657018780708313,0.0,-0.018624350428581238,1.3589565753936768,0.0,-0.012257745489478111
96.0,146.0,0.7944,0.3009,9.6078,-0.0319,0.0217,-0.1266,-2.227081438104147,0.0,4.808291912078857,-1.0826530456542969,-0.0,2.15153169631958,4.714364516526022,0.0,0.2923285663127899,-1.5984614531146448,-0.0,-0.0019340573344379663,0.657010555267334,0.0,-0.01661941595375538,1.3589766025543213,0.0,0.00295951496809721
96.0,146.0,0.7944,0.3009,9.6078,-0.0319,0.0217,-0.1266,-2.227065702477926,0.0,4.82509183883667,-1.0826247930526733,-0.0,2.231985092163086,4.714388677827575,0.0,0.294513463973999,-1.5984771887408655,-0.0,-0.008431152440607548,0.6569541692733765,0.0,-0.03354385495185852,1.3589885234832764,0.0,0.01270584762096405
96.0,146.0,0.7944,0.3009,9.6078,-0.0319,0.0217,-0.1266,-2.2270895443358363,0.0,4.798064231872559,-1.0826449394226074,-0.0,2.1647584438323975,4.714364516526022,0.0,0.27923911809921265,-1.5985220114337366,-0.0,-0.02775515802204609,0.6569701433181763,0.0,-0.016716357320547104,1.358956217765808,0.0,-0.028644496574997902
96.0,146.0,0.7944,0.3009,9.6078,-0.0319,0.0217,-0.1266,-2.2271224460997523,0.0,4.823507785797119,-1.082628846168518,-0.0,2.1357333660125732,4.714392747474395,0.0,0.28948429226875305,-1.5984895865069788,-0.0,-0.0006051798118278384,0.6570184826850891,0.0,-0.02863943763077259,1.358964443206787,0.0,-0.048548050224781036
96.0,146.0,0.7944,0.3009,9.6078,-0.0319,0.0217,-0.1266,-2.2270976505675257,0.0,4.799289703369141,-1.0826691389083862,-0.0,2.1739816665649414,4.714360451535814,0.0,0.2951411306858063,-1.5984733740436,-0.0,-0.009913853369653225,0.656974196434021,0.0,-0.015586964786052704,1.3590004444122314,0.0,0.01307692565023899
96.0,146.0,0.7944,0.3009,9.6078,-0.0319,0.0217,-0.1266,-2.227065702477926,0.0,4.781855583190918,-1.0826849937438965,-0.0,2.1990513801574707,4.714368594089084,0.0,0.30050933361053467,-1.5984695593463343,-0.0,-0.006969823502004147,0.6569582223892212,0.0,-0.023899633437395096,1.358992338180542,0.0,-0.009856823831796646
96.0,148.0,0.7442,-0.1645,9.3847,-0.036,0.0321,-0.1151,-2.2270695171751917,0.0,4.832159519195557,-1.0827217102050781,-0.0,2.1286919116973877,4.714364516526022,0.0,0.2850291132926941,-1.5984938780414026,-0.0,-0.0022498643957078457,0.6570227742195129,0.0,-0.0183059461414814,1.3589763641357422,0.0,-0.06074928492307663
96.0,148.0,0.7442,-0.1645,9.3847,-0.036,0.0321,-0.1151,-2.2270575962462367,0.0,4.785359859466553,-1.0826849937438965,-0.0,2.1514716148376465,4.714404651872375,0.0,0.2947652041912079,-1.5985100905047815,-0.0,-0.0024499238934367895,0.656950056552887,0.0,-0.01381215825676918,1.3589844703674316,0.0,-0.05432679504156113
96.0,148.0,0.7442,-0.1645,9.3847,-0.036,0.0321,-0.1151,-2.227081914941305,0.0,4.775101661682129,-1.0826530456542969,-0.0,2.1518335342407227,4.714324462204733,0.0,0.2931317985057831,-1.5984895865069788,-0.0,-0.002569488249719143,0.6570147275924683,0.0,-0.010554574429988861,1.358980417251587,0.0,-0.061678484082221985
96.0,148.0,0.7442,-0.1645,9.3847,-0.036,0.0321,-0.1151,-2.227110048333639,0.0,4.81294584274292,-1.0826091766357422,3.6613963061427057e-07,2.1716713905334473,4.714348542481222,0.0,0.2905738353729248,-1.5985096136676233,-0.0,-0.011942213401198387,0.6569344401359558,0.0,-0.0035737985745072365,1.3589725494384766,0.0,-0.01537536270916462
96.0,148.0,0.7442,-0.1645,9.3847,-0.036,0.0321,-0.1151,-2.2271625004210414,0.0,4.814032554626465,-1.0825766324996948,8.841840020562541e-13,2.1518704891204834,4.714316274947979,6.978254418754659e-07,0.2833384573459625,-1.5984733740436,-0.0,-0.010552644729614258,0.6570265293121338,0.0,-0.007022850215435028,1.3589681386947632,0.0,-0.010159045457839966
96.0,148.0,0.7442,-0.1645,9.3847,-0.036,0.0321,-0.1151,-2.227110048333639,0.0,4.768681526184082,-1.082685112953186,0.00015947624342516065,2.2135040760040283,4.714332248992779,1.9424226116449006e-10,0.2822097837924957,-1.5985220114337366,-0.0,0.006116538308560848,0.6570510268211365,0.0,-0.017214708030223846,1.359004259109497,0.0,-0.010333046317100525
96.0,148.0,0.7442,-0.1645,9.3847,-0.036,0.0321,-0.1151,-2.227081438104147,1.680015675187274e-11,4.801770210266113,-1.0827014446258545,1.026969287387658e-09,2.1435954570770264,4.714360807068207,5.406804087022994e-14,0.28772246837615967,-1.5984895865069788,-0.0,-0.0018456619000062346,0.6570305824279785,0.0,-0.012829642742872238,1.3590284585952759,0.0,-0.0027749170549213886
96.0,148.0,0.7442,-0.1645,9.3847,-0.036,0.0321,-0.1151,-2.227065702477926,4.057040986653313e-17,4.817559719085693,-1.0826572179794312,2.4800099785739736e-15,2.1583521366119385,4.714380526892402,1.5050038393422556e-17,0.27443942427635193,-1.5984976927386683,-0.0,-0.011311710812151432,0.6569783091545105,0.0,-0.007781114429235458,1.3589723110198975,0.0,0.02341397851705551
96.0,148.0,0.7442,-0.1645,9.3847,-0.036,0.0321,-0.1151,-2.2270895443358363,9.797276313965357e-23,4.793969631195068,-1.0826492309570312,5.98893182603562e-21,2.1446642875671387,4.714376437454977,4.189233594054934e-21,0.30023160576820374,-1.5984376112567347,-0.0,-0.004952609073370695,0.6570065021514893,0.0,-0.011817746795713902,1.3589844703674316,0.0,-0.02224542945623398
96.0,148.0,0.7442,-0.1645,9.3847,-0.036,0.0321,-0.1151,-2.2271343670287074,2.3659271772582146e-28,4.812318801879883,-1.082673192024231,1.4462565998429865e-26,2.1743011474609375,4.71436078285382,1.1660883722485236e-24,0.29121655225753784,-1.5984895865069788,-0.0,-0.013055144809186459,0.6570027470588684,0.0,-0.010253413580358028,1.3590247631072998,0.0,-0.029759926721453667
96.0,148.0,0.7442,-0.1645,9.3847,-0.036,0.0321,-0.1151,-2.227126260797018,5.713435190874034e-34,4.789999961853027,-1.082664966583252,3.492539477592518e-32,2.180419445037842,4.7143685696418665,3.2458501428509868e-28,0.28956684470176697,-1.5985100905047815,-0.0,-0.013991783373057842,0.6570227146148682,0.0,-0.016267698258161545,1.358964443206787,0.0,0.012923557311296463
96.0,148.0,0.7442,-0.1645,9.3847,-0.036,0.0321,-0.1151,-2.2271138630309046,1.3797268757650008e-39,4.774471282958984,-1.0826691389083862,6.945289351278916e-05,2.2274603843688965,4.714352595597067,9.034943032220992e-32,0.2910204529762268,-1.598506275807516,-0.0,-0.0033920235000550747,0.6570428013801575,0.0,-0.013800641521811485,1.3589963912963867,0.0,-0.04025324434041977
96.0,148.0,0.7442,-0.1645,9.3847,-0.036,0.0321,-0.1151,-2.2270895443358363,2.802596928649634e-45,4.788402080535889,-1.0826728343963623,7.594427734147757e-05,2.1847519874572754,4.714340457669952,2.5149098965399304e-35,0.290272057056427,-1.5984776655780237,-0.0,-0.007718635257333517,0.6569664478302002,0.0,-0.019507650285959244,1.3589882850646973,0.0,0.01895396038889885
96.0,148.0,0.7442,-0.1645,9.3847,-0.036,0.0321,-0.1151,-2.2271138630309046,0.0,4.775827884674072,-1.0826690196990967,4.7514786274405196e-05,2.172006368637085,4.714360774239086,7.000344825261092e-39,0.28620272874832153,-1.5985186735736292,-0.0,-0.0008441238896921277,0.6570265293121338,0.0,-0.02736104093492031,1.358944296836853,0.0,-0.05552136152982712
96.0,148.0,0.7442,-0.1645,9.3847,-0.036,0.0321,-0.1151,-2.2270857296385707,0.0,4.774352550506592,-1.0826728343963623,4.10177162848413e-05,2.1813154220581055,4.71433630618316,1.9492061638758205e-42,0.29215186834335327,-1.598501984273092,-0.0,-0.002902121050283313,0.6569986939430237,0.0,-0.016946222633123398,1.3589963912963867,0.0,0.02143246866762638
98.0,145.0,0.6891,0.2136,9.7071,-0.0345,0.0234,-0.1104,-2.22709383587026,0.0,4.791377067565918,-1.0827175378799438,3.60838785127271e-05,2.158989906311035,4.714356386545607,0.0,0.2848500609397888,-1.5984457174884241,-0.0,-0.006733005866408348,0.656918466091156,0.0,-0.007313221227377653,1.3589284420013428,0.0,-0.02145310863852501
98.0,145.0,0.6891,0.2136,9.7071,-0.0345,0.0234,-0.1104,-2.227105756799215,0.0,4.841930389404297,-1.08268141746521,3.220950748072937e-05,2.2076475620269775,4.7143362980340875,0.0,0.29466795921325684,-1.5984614531146448,-0.0,-0.001558288000524044,0.6569664478302002,0.0,-0.01634872704744339,1.3589844703674316,0.0,-0.0077901012264192104
98.0,145.0,0.6891,0.2136,9.7071,-0.0345,0.0234,-0.1104,-2.227081914941305,0.0,4.8159894943237305,-1.0826773643493652,2.8175929401186295e-05,2.1340689659118652,4.714384551835739,0.0,0.28449612855911255,-1.5984333197223108,-0.0,-0.0024060404393821955,0.6570103168487549,0.0,-0.013288311660289764,1.3589766025543213,0.0,-0.023861926048994064
98.0,145.0,0.6891,0.2136,9.7071,-0.0345,0.0234,-0.1104,-2.2270895443358363,0.0,4.763319969177246,-1.0826572179794312,2.5756846298463643e-05,2.1954452991485596,4.714332224894807,0.0,0.2925685942173004,-1.598501984273092,-0.0,0.007337101269513369,0.6569905281066895,0.0,-0.01745164953172207,1.3589484691619873,0.0,-0.03357134014368057
98.0,145.0,0.6891,0.2136,9.7071,-0.0345,0.0234,-0.1104,-2.22709383587026,0.0,4.839110851287842,-1.0826247930526733,2.37203057622537e-05,2.155658721923828,4.714348530606859,0.0,0.2784937918186188,-1.5984895865069788,-0.0,-0.011204870417714119,0.6570584774017334,0.0,-0.02111421339213848,1.3589684963226318,0.0,-0.014062992297112942
98.0,145.0,0.6891,0.2136,9.7071,-0.0345,0.0234,-0.1104,-2.2271224460997523,0.0,4.804094314575195,-1.0826369524002075,2.1982204998494126e-05,2.1819584369659424,4.714372727997162,0.0,0.28852352499961853,-1.5984371344195765,-0.0,-0.013533689081668854,0.6570184230804443,0.0,-0.01313890889286995,1.358944296836853,0.0,-0.022196879610419273
98.0,145.0,0.6891,0.2136,9.7071,-0.0345,0.0234,-0.1104,-2.227105756799215,0.0,4.803859710693359,-1.0826247930526733,2.048144961008802e-05,2.169612169265747,4.714372372464769,0.0,0.2834300398826599,-1.5984976927386683,-0.0,-0.009638287127017975,0.6569664478302002,0.0,-0.013318940065801144,1.359012484550476,0.0,-0.006537345703691244
98.0,145.0,0.6891,0.2136,9.7071,-0.0345,0.0234,-0.1104,-2.227121969262594,0.0,4.812215328216553,-1.0826534032821655,3.6100344004807994e-05,2.1457226276397705,4.714388738363542,0.0,0.27908089756965637,-1.5984938780414026,-0.0,-0.007661583833396435,0.6570227742195129,0.0,-0.02310691401362419,1.3589684963226318,0.0,-0.050999801605939865
98.0,145.0,0.6891,0.2136,9.7071,-0.0345,0.0234,-0.1104,-2.227053781548971,0.0,4.8128662109375,-1.0826489925384521,3.604170342441648e-05,2.1636743545532227,4.71436454120607,0.0,0.2912862002849579,-1.5984695593463343,-0.0,-0.0029509845189750195,0.6570227146148682,0.0,-0.002678623888641596,1.3589725494384766,0.0,0.005326886661350727
98.0,145.0,0.6891,0.2136,9.7071,-0.0345,0.0234,-0.1104,-2.227081914941305,0.0,4.8302106857299805,-1.0826164484024048,1.7026894056471065e-05,2.1799168586730957,4.714352595597067,-6.954931450309232e-06,0.2813512682914734,-1.598518196736471,-0.0,-0.0040207416750490665,0.6569507122039795,0.0,-0.01181026827543974,1.358992338180542,0.0,-0.020742714405059814
98.0,145.0,0.6891,0.2136,9.7071,-0.0345,0.0234,-0.1104,-2.2270900211729945,0.0,4.828739166259766,-1.0826609134674072,4.276390609447844e-05,2.161388874053955,4.714396488364347,-1.8324111579204327e-06,0.2847820520401001,-1.5984895865069788,-0.0,-0.013606675900518894,0.6569785475730896,0.0,-0.009262166917324066,1.3589885234832764,0.0,-0.015732266008853912
98.0,145.0,0.6891,0.2136,9.7071,-0.0345,0.0234,-0.1104,-2.2270499668517054,0.0,4.784880638122559,-1.0826164484024048,4.580769382300787e-05,2.158937454223633,4.714384583733537,-5.100583844175333e-10,0.2928118109703064,-1.5984776655780237,-0.0,-0.013654787093400955,0.6569865345954895,0.0,-0.019446533173322678,1.358940601348877,0.0,0.009266325272619724
98.0,145.0,0.6891,0.2136,9.7071,-0.0345,0.0234,-0.1104,-2.2271181545653285,0.0,4.738914489746094,-1.0826809406280518,4.358917794888839e-05,2.1568539142608643,4.714348530606859,-1.4197665395773718e-13,0.2931283116340637,-1.5985263029681605,-0.0,-0.006549253594130278,0.6569987535476685,0.0,-0.012989620678126812,1.3590084314346313,0.0,-0.04756349325180054
98.0,145.0,0.6891,0.2136,9.7071,-0.0345,0.0234,-0.1104,-2.2270294628539027,0.0,4.786756992340088,-1.082628846168518,3.345574077684432e-05,2.1773886680603027,4.7143444656166515,-3.951972174374582e-17,0.29538121819496155,-1.5985143820392054,-0.0,-0.011531047523021698,0.6570388078689575,0.0,-0.00924003031104803,1.3589842319488525,0.0,0.016360413283109665
98.0,145.0,0.6891,0.2136,9.7071,-0.0345,0.0234,-0.1104,-2.227126260797018,0.0,4.805949687957764,-1.0826973915100098,4.7507870476692915e-05,2.1622910499572754,4.714328228356809,-1.1000460901047474e-20,0.28993329405784607,-1.5984938780414026,-0.0,0.005877832882106304,0.6569945216178894,0.0,-0.014006086625158787,1.358992338180542,0.0,0.007526157423853874
102.0,147.0,0.9266,0.4875,9.3135,-0.0209,0.0276,-0.13,-2.227077623406881,0.0,4.790187835693359,-1.0825929641723633,4.514865577220917e-05,2.2151927947998047,4.714368581516229,-3.0620188238787228e-24,0.2960384488105774,-1.598485294972555,-0.0,-0.017948348075151443,0.6570265293121338,0.0,-0.015713563188910484,1.3590284585952759,0.0,-0.023899484425783157
102.0,147.0,0.9266,0.4875,9.3135,-0.0209,0.0276,-0.13,-2.2270738087096156,0.0,4.811668395996094,-1.082673192024231,-7.661891868337989e-05,2.1556034088134766,4.714364516526022,-8.523242450449572e-28,0.28792455792427063,-1.598518196736471,-0.0,-0.012957459315657616,0.6569905281066895,0.0,-0.02929867058992386,1.3589484691619873,0.0,-0.015356054529547691
102.0,147.0,0.9266,0.4875,9.3135,-0.0209,0.0276,-0.13,-2.22709383587026,0.0,4.780820846557617,-1.0826728343963623,-6.107331137172878e-05,2.1686947345733643,4.7143444656166515,-2.3724757979821258e-31,0.29198649525642395,-1.5985096136676233,-0.0,-0.02038354054093361,0.6570067405700684,0.0,-0.016663651913404465,1.3589842319488525,0.0,-0.038928404450416565
102.0,147.0,0.9266,0.4875,9.3135,-0.0209,0.0276,-0.13,-2.2270738087096156,0.0,4.8450775146484375,-1.0826653242111206,-3.559969874444846e-09,2.122438669204712,4.714380498719894,-6.603873309565618e-35,0.2831372618675232,-1.5984895865069788,-0.0,-0.0036137972492724657,0.656982421875,0.0,-0.02153991535305977,1.3590123653411865,0.0,0.01131435576826334
102.0,147.0,0.9266,0.4875,9.3135,-0.0209,0.0276,-0.13,-2.2270618877806605,0.0,4.79004430770874,-1.0826369524002075,-8.596910076180686e-15,2.104619026184082,4.714376437454977,-1.8382125355031197e-38,0.28310826420783997,-1.5985263029681605,-0.0,-0.013835129328072071,0.6569664478302002,0.0,-0.0033652428537607193,1.3589963912963867,0.0,0.022830870002508163
102.0,147.0,0.9266,0.4875,9.3135,-0.0209,0.0276,-0.13,-2.227081914941305,0.0,4.746702194213867,-1.0826328992843628,-2.076052569948047e-20,2.17195987701416,4.714372727997162,-5.116140693249907e-42,0.30032971501350403,-1.5984976927386683,-0.0,-0.0010061857756227255,0.6570146679878235,0.0,-0.010706435889005661,1.3589603900909424,0.0,-0.024229422211647034
102.0,147.0,0.9266,0.4875,9.3135,-0.0209,0.0276,-0.13,-2.2270857296385707,0.0,4.782705307006836,-1.0826854705810547,-5.013423059047808e-26,2.2132530212402344,4.714376437454977,-1.401298464324817e-45,0.2927650213241577,-1.5985220114337366,-0.0,-0.010614713653922081,0.6570265889167786,0.0,-0.022578921169042587,1.359012484550476,0.0,0.005307771265506744
102.0,147.0,0.9266,0.4875,9.3135,-0.0209,0.0276,-0.13,-2.227058073083395,0.0,4.7848615646362305,-1.082596778869629,-1.2106826566647176e-31,2.2275402545928955,4.714360426855766,-0.0,0.29900938272476196,-1.5984895865069788,-0.0,-0.008738220669329166,0.6569499969482422,0.0,-0.01345103606581688,1.3589402437210083,0.0,0.0016334258252754807
102.0,147.0,0.9266,0.4875,9.3135,-0.0209,0.0276,-0.13,-2.227086206475729,0.0,4.803502082824707,-1.0826246738433838,-2.923655663502041e-37,2.198258876800537,4.714364516526022,-0.0,0.28844237327575684,-1.598501984273092,-0.0,-0.00645627174526453,0.6569742560386658,0.0,-0.015153301879763603,1.3590123653411865,0.0,0.027978260070085526
102.0,147.0,0.9266,0.4875,9.3135,-0.0209,0.0276,-0.13,-2.2271019421019496,0.0,4.85490608215332,-1.082673192024231,-9.80908925027372e-45,2.165008306503296,4.714360451535814,-0.0,0.2833660840988159,-1.5985139052020472,-0.0,-0.007470797747373581,0.6570147275924683,0.0,-0.008807392790913582,1.3589882850646973,0.0,-0.028993790969252586
102.0,147.0,0.9266,0.4875,9.3135,-0.0209,0.0276,-0.13,-2.227086206475729,0.0,4.815011024475098,-1.0826328992843628,-0.0,2.1737966537475586,4.714332248992779,-0.0,0.285022109746933,-1.5985263029681605,-0.0,-0.0060118865221738815,0.6569742560386658,0.0,-0.012388154864311218,1.3590123653411865,0.0,-0.002514891093596816
102.0,147.0,0.9266,0.4875,9.3135,-0.0209,0.0276,-0.13,-2.227126260797018,0.0,4.793773651123047,-1.0826534032821655,-0.0,2.205435276031494,4.7143404362495325,-0.0,0.27342504262924194,-1.5984771887408655,-0.0,-0.00045350706204771996,0.656954824924469,0.0,-0.0060954224318265915,1.3589364290237427,0.0,-0.003378862515091896
102.0,147.0,0.9266,0.4875,9.3135,-0.0209,0.0276,-0.13,-2.227081914941305,0.0,4.832159996032715,-1.0826891660690308,-0.0,2.155808925628662,4.714352595597067,-0.0,0.28650593757629395,-1.5984695593463343,-0.0,-0.005800134968012571,0.6569578647613525,0.0,-0.01970115676522255,1.3589200973510742,0.0,-0.00819934532046318
102.0,147.0,0.9266,0.4875,9.3135,-0.0209,0.0276,-0.13,-2.22709383587026,0.0,4.786943435668945,-1.082673192024231,-0.0,2.1764650344848633,4.714384559286319,-0.0,0.2919843792915344,-1.5984938780414026,-0.0,-0.015240672044456005,0.6569905281066895,0.0,-0.007209815084934235,1.358980417251587,0.0,-0.003657130291685462
102.0,147.0,0.9266,0.4875,9.3135,-0.0209,0.0276,-0.13,-2.2270738087096156,0.0,4.803377151489258,-1.0826451778411865,-0.0,2.1549971103668213,4.714348530606859,-0.0,0.282414048910141,-1.598506275807516,-0.0,-0.009585987776517868,0.6569864153862,0.0,-0.012103404849767685,1.3590083122253418,0.0,-0.002164173871278763
97.0,147.0,0.7167,0.2136,9.3721,-0.0392,0.024,-0.119,-2.2271019421019496,0.0,4.818472385406494,-1.0826691389083862,-0.0,2.193786382675171,4.714376437454977,-0.0,0.28307417035102844,-1.5984695593463343,-0.0,-0.004375020042061806,0.6570745706558228,0.0,-0.01915619894862175,1.358932375907898,0.0,0.026805337518453598
97.0,147.0,0.7167,0.2136,9.3721,-0.0392,0.024,-0.119,-2.2270738087096156,0.0,4.823135852813721,-1.0826448202133179,-0.0,2.125023603439331,4.714348522457787,-0.0,0.28443896770477295,-1.5984576384173792,-0.0,-0.011037318035960197,0.6570024490356445,0.0,-0.017362229526042938,1.358992338180542,0.0,-0.044236090034246445
97.0,147.0,0.7167,0.2136,9.3721,-0.0392,0.024,-0.119,-2.227065702477926,0.0,4.810818672180176,-1.0826328992843628,-0.0,2.1673238277435303,4.714332224894807,-0.0,0.29108160734176636,-1.5985100905047815,-0.0,0.00403020903468132,0.6569987535476685,0.0,-0.01583901047706604,1.3590123653411865,0.0,-0.01633649878203869
97.0,147.0,0.7167,0.2136,9.3721,-0.0392,0.024,-0.119,-2.2270618877806605,0.0,4.830322265625,-1.0826369524002075,-0.0,2.1486639976501465,4.714400553587385,-0.0,0.289620041847229,-1.5985425154315394,-0.0,-0.013170044869184494,0.6569622755050659,0.0,-0.008165024220943451,1.3590083122253418,0.0,0.024328529834747314
97.0,147.0,0.7167,0.2136,9.3721,-0.0392,0.024,-0.119,-2.227086206475729,0.0,4.733095169067383,-1.0826530456542969,-0.0,2.175802707672119,4.714356741845169,-0.0,0.2870918810367584,-1.5985100905047815,-0.0,-0.0032260993029922247,0.6570028066635132,0.0,-0.016977865248918533,1.3590083122253418,0.0,-0.031537823379039764
97.0,147.0,0.7167,0.2136,9.3721,-0.0392,0.024,-0.119,-2.2270900211729945,0.0,4.791370391845703,-1.0826205015182495,-0.0,2.1854472160339355,4.71432445033037,-0.0,0.2858024835586548,-1.598485294972555,-0.0,-0.005357334855943918,0.6570388078689575,0.0,-0.007481697015464306,1.3589885234832764,0.0,-0.03238499537110329
97.0,147.0,0.7167,0.2136,9.3721,-0.0392,0.024,-0.119,-2.2271014652647914,0.0,4.809074401855469,-1.0826530456542969,-0.0,2.129711389541626,4.714324094797977,-0.0,0.27928945422172546,-1.5984938780414026,-0.0,-0.001878382288850844,0.6569663882255554,0.0,-0.020226767286658287,1.3590123653411865,0.0,-0.00960441492497921
97.0,147.0,0.7167,0.2136,9.3721,-0.0392,0.024,-0.119,-2.2271348438658656,0.0,4.812316417694092,-1.0826448202133179,-0.0,2.1636319160461426,4.714352595597067,-0.0,0.28700336813926697,-1.5984733740436,-0.0,-0.014790686778724194,0.6569864749908447,0.0,-0.02534407190978527,1.3590165376663208,0.0,-0.007148947566747665
97.0,147.0,0.7167,0.2136,9.3721,-0.0392,0.024,-0.119,-2.227086206475729,0.0,4.813775062561035,-1.0825847387313843,-0.0,2.1378586292266846,4.714372768509694,-0.0,0.28787070512771606,-1.598506275807516,-0.0,0.009379098191857338,0.6569622159004211,0.0,-0.021690983325242996,1.3590284585952759,0.0,-0.022823790088295937
97.0,147.0,0.7167,0.2136,9.3721,-0.0392,0.024,-0.119,-2.227105756799215,0.0,4.791388511657715,-1.0826090574264526,-0.0,2.1512789726257324,4.7143404362495325,-0.0,0.2911800444126129,-1.5984614531146448,-0.0,-0.020465467125177383,0.6569700837135315,0.0,-0.02920440584421158,1.358992338180542,0.0,-0.06831113249063492
97.0,147.0,0.7167,0.2136,9.3721,-0.0392,0.024,-0.119,-2.227110048333639,0.0,4.809736251831055,-1.0826612710952759,-0.0,2.1541175842285156,4.714316594391622,-0.0,0.294922411441803,-1.5985100905047815,-0.0,-0.004839771427214146,0.6569905281066895,0.0,-0.013333611190319061,1.358996033668518,0.0,-0.035658787935972214
97.0,147.0,0.7167,0.2136,9.3721,-0.0392,0.024,-0.119,-2.2271138630309046,0.0,4.825524806976318,-1.0826172828674316,-0.0,2.2035772800445557,4.714360447810524,-0.0,0.28925204277038574,-1.5984733740436,-0.0,-0.010161860845983028,0.6570065021514893,0.0,-0.010915189981460571,1.35904061794281,0.0,0.002410284010693431
97.0,147.0,0.7167,0.2136,9.3721,-0.0392,0.024,-0.119,-2.2271181545653285,0.0,4.801126480102539,-1.0826048851013184,0.0007769704679958522,2.1446940898895264,4.714364532824167,-0.0,0.28903722763061523,-1.5985100905047815,-0.0,0.009658598341047764,0.6570188403129578,0.0,-0.021101893857121468,1.3589842319488525,0.0,0.03854707255959511
97.0,147.0,0.7167,0.2136,9.3721,-0.0392,0.024,-0.119,-2.2270738087096156,0.0,4.753936767578125,-1.0826172828674316,0.0016034431755542755,2.1903576850891113,4.714368557301842,-0.0,0.2823967933654785,-1.5984938780414026,-0.0,-0.012208439409732819,0.6570028066635132,0.0,-0.014437001198530197,1.3590161800384521,0.000323758227750659,-0.02393849566578865
97.0,147.0,0.7167,0.2136,9.3721,-0.0392,0.024,-0.119,-2.2270900211729945,0.0,4.824739933013916,-1.082568645477295,0.0018009565537795424,2.167848587036133,4.714352595597067,-0.0,0.2817475497722626,-1.5984490553485315,-0.0,-0.006617520935833454,0.6569945812225342,0.0,-0.02296733297407627,1.3590037822723389,0.0003673626924864948,-0.024361830204725266
100.0,144.0,0.9392,-0.1035,9.6287,-0.0473,0.0296,-0.1124,-2.2270575962462367,0.0,4.8002400398254395,-1.0825443267822266,0.0016827831277623773,2.159661293029785,4.714408802311429,-0.0,0.2919694781303406,-1.5984333197223108,-0.0,-0.003130702069029212,0.657058596611023,0.0,-0.02756844088435173,1.3590443134307861,0.0006439653225243092,-0.0018009771592915058
100.0,144.0,0.9392,-0.1035,9.6287,-0.0473,0.0296,-0.1124,-2.2270499668517054,0.0,4.808165550231934,-1.0825810432434082,0.0014556081732735038,2.1914916038513184,4.714372405061059,-0.0,0.2892933189868927,-1.5984976927386683,-0.0,-0.008190576918423176,0.6570184230804443,0.0,-0.009240994229912758,1.3589998483657837,0.000580524152610451,0.057519298046827316
100.0,144.0,0.9392,-0.1035,9.6287,-0.0473,0.0296,-0.1124,-2.227098127404684,0.0,4.791398048400879,-1.0825484991073608,0.0013460268964990973,2.1766955852508545,4.714380122931235,-0.0,0.28106603026390076,-1.5985377470599573,-0.0,-0.0013139258371666074,0.6570827960968018,0.0,-0.011085417121648788,1.3590681552886963,0.0007380869938060641,0.017527105286717415
100.0,144.0,0.9392,-0.1035,9.6287,-0.0473,0.0296,-0.1124,-2.2270695171751917,0.0,4.759023189544678,-1.082585096359253,0.0012375874212011695,2.196117401123047,4.714416490844943,-0.0,0.29300904273986816,-1.5985057989703577,-0.0,-0.0021865202579647303,0.6570307612419128,0.0,-0.021047426387667656,1.3590518236160278,0.0019819564186036587,0.006087657529860735
100.0,144.0,0.9392,-0.1035,9.6287,-0.0473,0.0296,-0.1124,-2.227065702477926,0.0,4.762625217437744,-1.0825169086456299,0.0014249735977500677,2.1384198665618896,4.714384203986757,-0.0,0.28138452768325806,-1.5985420385943812,-0.0,0.0010259381961077452,0.6569700837135315,0.0,-0.006825662218034267,1.3590917587280273,0.003082381095737219,-0.0021882238797843456
100.0,144.0,0.9392,-0.1035,9.6287,-0.0473,0.0296,-0.1124,-2.227065702477926,0.0,4.720686435699463,-1.082520604133606,0.0022372223902493715,2.150925636291504,4.714412438660421,-0.0,0.27369681000709534,-1.5985458532916468,-0.0,-0.005044950172305107,0.656974196434021,0.0,-0.013114837929606438,1.359063982963562,0.003142014844343066,-0.015120286494493484
100.0,144.0,0.9392,-0.1035,9.6287,-0.0473,0.0296,-0.1124,-2.227086206475729,0.0,4.802822589874268,-1.082533359527588,0.0022812853567302227,2.155905246734619,4.71436412513771,-0.0,0.28772130608558655,-1.5985377470599573,-0.0,-0.022007975727319717,0.6570388078689575,0.0,-0.015216352418065071,1.3591399192810059,0.0022364137694239616,-0.049724847078323364
100.0,144.0,0.9392,-0.1035,9.6287,-0.0473,0.0296,-0.1124,-2.227081914941305,0.0,4.819028377532959,-1.082504391670227,0.0017264169873669744,2.1785483360290527,4.714468987635829,-0.0,0.2906337380409241,-1.5985377470599573,-0.0,-0.013326769694685936,0.6570347547531128,0.0,-0.015258921310305595,1.3591201305389404,0.001773740048520267,0.007568218745291233
100.0,144.0,0.9392,-0.1035,9.6287,-0.0473,0.0296,-0.1124,-2.227065702477926,0.0,4.804779052734375,-1.0824929475784302,0.0011581123108044267,2.1551156044006348,4.714384558820658,-0.0,0.29191842675209045,-1.5985215345965784,-0.0,-0.010867999866604805,0.6569982767105103,0.0,-0.0034716278314590454,1.359188199043274,0.0016460772603750229,-0.02400803007185459
100.0,144.0,0.9392,-0.1035,9.6287,-0.0473,0.0296,-0.1124,-2.227077623406881,0.0,4.845259666442871,-1.0825369358062744,0.000705489597748965,2.1660587787628174,4.714388358383932,-0.0,0.2916995584964752,-1.5984938780414026,-0.0,0.013574765995144844,0.6569945216178894,0.0,-0.014775658957660198,1.3591755628585815,0.0021061410661786795,0.04205809161067009
100.0,144.0,0.9392,-0.1035,9.6287,-0.0473,0.0296,-0.1124,-2.2271014652647914,0.0,4.8339009284973145,-1.0824692249298096,0.0005067463498562574,2.168095350265503,4.714376453753122,-0.0,0.2892271876335144,-1.5985177198993128,-0.0,-0.005093136802315712,0.6569783091545105,0.0,-0.018270837143063545,1.3591878414154053,0.0031381393782794476,0.02825155109167099
100.0,144.0,0.9392,-0.1035,9.6287,-0.0473,0.0296,-0.1124,-2.2270575962462367,0.0,4.818551540374756,-1.0825003385543823,0.0003953958221245557,2.1742615699768066,4.714360423130476,-0.0,0.29033809900283813,-1.5985177198993128,-0.0,-0.01814686879515648,0.6570388674736023,0.0,0.000551035103853792,1.359147310256958,0.003342779353260994,0.011108677834272385
100.0,144.0,0.9392,-0.1035,9.6287,-0.0473,0.0296,-0.1124,-2.2270575962462367,0.0,4.814899921417236,-1.082520842552185,0.0004257760301697999,2.1891274452209473,4.714364524675094,-0.0,0.2820945382118225,-1.5985177198993128,-0.0,-0.0048255412839353085,0.6570228338241577,0.0,-0.0065948679111897945,1.3591915369033813,0.0022089125122874975,0.04426167160272598
100.0,144.0,0.9392,-0.1035,9.6287,-0.0473,0.0296,-0.1124,-2.227077623406881,0.0,4.790705680847168,-1.082505226135254,0.0003169340780004859,2.145268440246582,4.714388358383932,4.1790201066760346e-05,0.29690447449684143,-1.5985420385943812,-0.0,-0.004760225303471088,0.6569982767105103,0.0,-0.0005026860162615776,1.359212040901184,0.0010769296204671264,0.021319909021258354
100.0,144.0,0.9392,-0.1035,9.6287,-0.0473,0.0296,-0.1124,-2.2270456753172816,0.0,4.763274669647217,-1.0824764966964722,0.0010401770705357194,2.1784262657165527,4.714392435248502,4.2899853724520653e-05,0.2808314561843872,-1.5985420385943812,-0.0,-0.0142979696393013,0.657078742980957,0.0,-0.0071900514885783195,1.3591997623443604,0.0005629177903756499,0.016920052468776703
99.0,148.0,0.7238,-0.1029,9.4816,-0.071,0.0171,-0.1161,-2.227053781548971,0.0,4.77729606628418,-1.0824486017227173,0.0018724764231592417,2.1682627201080322,4.714352228655972,4.003812500741333e-05,0.2733196020126343,-1.5985496679889124,-0.0,-0.009467030875384808,0.6569864749908447,0.0,-0.01038716733455658,1.3591957092285156,0.0004083375388290733,0.014000123366713524
99.0,148.0,0.7238,-0.1029,9.4816,-0.071,0.0171,-0.1161,-2.227098127404684,0.0,4.809950828552246,-1.082387924194336,0.0035333868581801653,2.2072367668151855,4.71436445086778,3.7533423892455176e-05,0.2900029122829437,-1.598530117665426,-0.0,-0.021844839677214622,0.6570024490356445,0.0,-0.01551442127674818,1.3591837882995605,0.0002567538758739829,-0.010603304021060467
99.0,148.0,0.7238,-0.1029,9.4816,-0.071,0.0171,-0.1161,-2.2271224460997523,0.0,4.80333948135376,-1.082376480102539,0.004170177038758993,2.1512131690979004,4.714388692263075,3.5323697375133634e-05,0.29707539081573486,-1.5985458532916468,-0.0,-0.021572886034846306,0.6569865345954895,0.0,0.004410128109157085,1.3591837882995605,-8.522615826223046e-05,0.004339603707194328
99.0,148.0,0.7238,-0.1029,9.4816,-0.071,0.0171,-0.1161,-2.2270618877806605,0.0,4.811895370483398,-1.0823971033096313,0.005465138703584671,2.2036240100860596,4.714392398926922,3.3359669032506645e-05,0.2998959422111511,-1.5985057989703577,-0.0,-0.01596471667289734,0.6569459438323975,0.0,-0.010605302639305592,1.3591599464416504,-0.00014836022455710918,0.027209263294935226
99.0,148.0,0.7238,-0.1029,9.4816,-0.071,0.0171,-0.1161,-2.2271019421019496,0.0,4.829346179962158,-1.0823603868484497,0.005821016617119312,2.188633918762207,4.714360439661451,3.160254345857538e-05,0.2861974239349365,-1.5984938780414026,-0.0,0.004140022676438093,0.6570065021514893,0.0,-0.0016414443962275982,1.359151840209961,-0.0006288592703640461,0.052752964198589325
99.0,148.0,0.7238,-0.1029,9.4816,-0.071,0.0171,-0.1161,-2.2270895443358363,0.0,4.810212135314941,-1.0822962522506714,0.005809773225337267,2.1444334983825684,4.714396512345903,3.002127050422132e-05,0.30139222741127014,-1.5985258261310022,-0.0,-0.008723346516489983,0.6569659113883972,0.0,-0.018184185028076172,1.3591681718826294,-0.0007555397460237145,0.042517948895692825
99.0,148.0,0.7238,-0.1029,9.4816,-0.071,0.0171,-0.1161,-2.227110048333639,0.0,4.801886558532715,-1.082268238067627,0.004896553698927164,2.197974920272827,4.714380514319547,1.4419374565477483e-05,0.2964180111885071,-1.598530117665426,-0.0,-0.013286324217915535,0.6570065021514893,0.0,-0.007907772436738014,1.3591358661651611,-0.0009161518537439406,0.010189834982156754
99.0,148.0,0.7238,-0.1029,9.4816,-0.071,0.0171,-0.1161,-2.227105756799215,0.0,4.787835121154785,-1.082240343093872,0.004025421105325222,2.187065362930298,4.714340364770525,1.3645186299982015e-05,0.28103798627853394,-1.5985382238971155,-0.0,-0.0004365917993709445,0.6569905281066895,0.0,-0.013081071898341179,1.3591324090957642,-0.0007657799869775772,-0.03177915886044502
99.0,148.0,0.7238,-0.1029,9.4816,-0.071,0.0171,-0.1161,-2.227105756799215,0.0,4.836781978607178,-1.0822690725326538,0.002375692827627063,2.19348406791687,4.7143166190716705,9.63227386741039e-10,0.29883766174316406,-1.5984938780414026,-0.0,0.004402069840580225,0.6569622755050659,0.0,-0.006886230781674385,1.3590960502624512,-0.0007201542612165213,-0.043456900864839554
99.0,148.0,0.7238,-0.1029,9.4816,-0.071,0.0171,-0.1161,-2.227105756799215,0.0,4.822213172912598,-1.08225679397583,0.0017951774643734097,2.178335189819336,4.714348518732496,2.6811788466502007e-13,0.2944965958595276,-1.5985057989703577,-0.0,-0.01531949546188116,0.657010555267334,0.0,-0.014845739118754864,1.3591160774230957,-0.0006026343326084316,-0.010759391821920872
99.0,148.0,0.7238,-0.1029,9.4816,-0.071,0.0171,-0.1161,-2.227105756799215,0.0,4.791097164154053,-1.0822490453720093,0.0019495985470712185,2.176741123199463,4.71438090594069,7.463159652654357e-17,0.2805456519126892,-1.5985258261310022,-0.0,-0.008056792430579662,0.6569904685020447,0.0,-0.01757718250155449,1.3590960502624512,-0.0005158366402611136,-0.006651443429291248
99.0,148.0,0.7238,-0.1029,9.4816,-0.071,0.0171,-0.1161,-2.227138181725973,0.0,4.808319568634033,-1.0822091102600098,0.0027890659403055906,2.151991605758667,4.7143362777778215,2.077397707795726e-20,0.27220356464385986,-1.5984976927386683,-0.0,-0.008859378285706043,0.6570024490356445,0.0,-0.004631476942449808,1.3591722249984741,-0.00040090843685902655,-0.033077042549848557
99.0,148.0,0.7238,-0.1029,9.4816,-0.071,0.0171,-0.1161,-2.227110048333639,0.0,4.804352760314941,-1.0821480751037598,0.003978824708610773,2.2202539443969727,4.7143404362495325,5.78251412390785e-24,0.2895384430885315,-1.5984976927386683,-0.0,-0.014198558405041695,0.656974196434021,0.0,-0.00876651518046856,1.3591439723968506,-0.00032786710653454065,-0.010536004789173603
99.0,148.0,0.7238,-0.1029,9.4816,-0.071,0.0171,-0.1161,-2.2270976505675257,0.0,4.773787975311279,-1.082160472869873,0.0058428626507520676,2.1739282608032227,4.71431658624255,1.6095841065524744e-27,0.275294691324234,-1.5985577742206019,-0.0,-0.011639893054962158,0.6570028066635132,0.0,-0.016412433236837387,1.3591078519821167,-0.0002311203716089949,-0.038041796535253525
99.0,148.0,0.7238,-0.1029,9.4816,-0.071,0.0171,-0.1161,-2.2271014652647914,0.0,4.7715606689453125,-1.0820446014404297,0.007950786501169205,2.1652212142944336,4.714352595597067,4.480337473243867e-31,0.2873897850513458,-1.5985096136676233,-0.0,-0.011051922105252743,0.6569864153862,0.0,-0.011961806565523148,1.3591481447219849,-0.00020026034326292574,-0.050917524844408035
97.0,142.0,0.8752,0.4493,9.5827,-0.0308,0.0315,-0.1219,-2.227126260797018,0.0,4.766430377960205,-1.0820527076721191,0.009454086422920227,2.1706295013427734,4.714384591416948,1.2471184613970876e-34,0.2721867561340332,-1.5985215345965784,-0.0,-0.011883769184350967,0.6569864749908447,0.0,-0.012827014550566673,1.3591119050979614,-0.00014133781951386482,0.004514493513852358
97.0,142.0,0.8752,0.4493,9.5827,-0.0308,0.0315,-0.1219,-2.2271181545653285,0.0,4.746113300323486,-1.0819605588912964,0.011223332956433296,2.1976406574249268,4.714316247008302,3.47140053217149e-38,0.28315725922584534,-1.5985215345965784,-0.0,0.004870784468948841,0.6569904685020447,0.0,-0.01552748866379261,1.3591283559799194,-9.485107148066163e-05,0.04782562330365181
97.0,142.0,0.8752,0.4493,9.5827,-0.0308,0.0315,-0.1219,-2.2271224460997523,0.0,4.752554416656494,-1.081880807876587,0.013548900373280048,2.221298933029175,4.714356754185193,9.663354209983939e-42,0.2682093381881714,-1.5985377470599573,-0.0,0.0029548443853855133,0.6569581627845764,0.0,-0.016382697969675064,1.3591395616531372,6.941122410353273e-05,-0.0029131867922842503
97.0,142.0,0.8752,0.4493,9.5827,-0.0308,0.0315,-0.1219,-2.2270738087096156,0.0,4.7835893630981445,-1.0818568468093872,0.01365168858319521,2.184239387512207,4.714256089390748,2.802596928649634e-45,0.2800253927707672,-1.598530117665426,-0.0,-0.00952732004225254,0.657051146030426,0.0,-0.0240958109498024,1.3591318130493164,6.241882510948926e-05,0.05554063618183136
97.0,142.0,0.8752,0.4493,9.5827,-0.0308,0.0315,-0.1219,-2.2270695171751917,0.0,4.7839460372924805,-1.0816963911056519,0.014305603690445423,2.2304420471191406,4.714332572278128,0.0,0.28901049494743347,-1.5985377470599573,-0.0,-0.008791226893663406,0.6570024490356445,0.0,-0.011606171727180481,1.3591283559799194,5.653700645780191e-05,0.030339084565639496
97.0,142.0,0.8752,0.4493,9.5827,-0.0308,0.0315,-0.1219,-2.2271138630309046,0.0,4.756928443908691,-1.0816237926483154,0.01465483196079731,2.204054832458496,4.714360831049763,0.0,0.2876081168651581,-1.598457161580221,-0.0,-0.019330020993947983,0.6570149660110474,0.0,-0.008350246585905552,1.3591358661651611,2.595649493741803e-05,-0.008839444257318974
97.0,142.0,0.8752,0.4493,9.5827,-0.0308,0.0315,-0.1219,-2.227138181725973,0.0,4.813296794891357,-1.0815564393997192,0.015475595369935036,2.2048401832580566,4.714276205259868,0.0,0.27715829014778137,-1.5985057989703577,-0.0,0.0029318316373974085,0.6570184230804443,0.0,-0.018828049302101135,1.3590878248214722,2.3785858502378687e-05,0.018541239202022552
97.0,142.0,0.8752,0.4493,9.5827,-0.0308,0.0315,-0.1219,-2.2271181545653285,0.0,4.801338195800781,-1.0813753604888916,0.01591198332607746,2.183229446411133,4.714316594391622,0.0,0.2926288843154907,-1.5985258261310022,-0.0,0.00045349658466875553,0.6569864153862,0.0,-0.007376519963145256,1.3591923713684082,2.2038500901544467e-05,0.011725693009793758
97.0,142.0,0.8752,0.4493,9.5827,-0.0308,0.0315,-0.1219,-2.2270895443358363,0.0,4.797523021697998,-1.0813803672790527,0.01671050302684307,2.1832690238952637,4.71434450123974,0.0,0.2949433922767639,-1.5984614531146448,-0.0,-0.0074753109365701675,0.6570224761962891,0.0,-0.015528220683336258,1.3591641187667847,2.0530284018605016e-05,-0.03067619726061821
97.0,142.0,0.8752,0.4493,9.5827,-0.0308,0.0315,-0.1219,-2.2270857296385707,0.0,4.81099796295166,-1.0812323093414307,0.01785491406917572,2.1613242626190186,4.714328515320577,0.0,0.29382553696632385,-1.598506275807516,-0.0,-0.010398540645837784,0.6569465398788452,0.0,-0.013804314658045769,1.3591358661651611,1.9226052245358005e-05,0.0075867087580263615
97.0,142.0,0.8752,0.4493,9.5827,-0.0308,0.0315,-0.1219,-2.2271014652647914,0.0,4.7866387367248535,-1.0811161994934082,0.018863307312130928,2.1563634872436523,4.714348590211504,0.0,0.2919394373893738,-1.5985057989703577,-0.0,-0.003996624611318111,0.6569306254386902,0.0,-0.01603858545422554,1.3591160774230957,3.525641659507528e-05,0.022412313148379326
97.0,142.0,0.8752,0.4493,9.5827,-0.0308,0.0315,-0.1219,-2.22709383587026,0.0,4.781519412994385,-1.0810565948486328,0.019279662519693375,2.2354893684387207,4.714352595597067,0.0,0.28868725895881653,-1.598501984273092,-0.0,-0.02834784984588623,0.656982421875,0.0,-0.014143116772174835,1.3591477870941162,3.1548690458294004e-05,-0.0126065444201231
97.0,142.0,0.8752,0.4493,9.5827,-0.0308,0.0315,-0.1219,-2.2270895443358363,0.0,4.76950216293335,-1.0808552503585815,0.018742330372333527,2.209665536880493,4.714320279867881,-3.543662023730576e-05,0.28268563747406006,-1.598501984273092,-0.0,-0.0018768745940178633,0.6569864749908447,0.0,-0.014903693459928036,1.3591641187667847,1.357131651502641e-07,0.0020520691759884357
97.0,142.0,0.8752,0.4493,9.5827,-0.0308,0.0315,-0.1219,-2.2270976505675257,0.0,4.771494388580322,-1.080819845199585,0.017586620524525642,2.206037759780884,4.7143362777778215,-3.383879811735824e-05,0.29965531826019287,-1.5985339323626917,-0.0,-0.01374902669340372,0.6569945812225342,0.0,-0.02374213933944702,1.3591681718826294,3.27731304551257e-13,-0.013905821368098259
97.0,142.0,0.8752,0.4493,9.5827,-0.0308,0.0315,-0.1219,-2.227138181725973,0.0,4.868762016296387,-1.0806676149368286,0.01524487603455782,2.1791510581970215,4.714320279867881,-3.1472223781747743e-05,0.2856425642967224,-1.598485294972555,-0.0,-0.0002495604567229748,0.6570228338241577,0.0,-0.018523331731557846,1.3591842651367188,1.0618076468055664e-20,0.005118756089359522
98.0,148.0,0.7926,0.3039,9.5133,-0.0373,0.0238,-0.1197,-2.2271419964232386,0.0,4.783877849578857,-1.0805796384811401,0.012387488037347794,2.2054624557495117,4.71430428195794,-4.386272848933004e-05,0.28258463740348816,-1.598485294972555,-0.0,-0.004630316514521837,0.6570068001747131,0.0,-0.01991877146065235,1.3591318130493164,2.5641406034239937e-26,0.047258410602808
98.0,148.0,0.7926,0.3039,9.5133,-0.0373,0.0238,-0.1197,-2.2271462879576625,0.0,4.76608419418335,-1.0804837942123413,0.010122391395270824,2.18215274810791,4.714356754185193,-4.27257691626437e-05,0.28445228934288025,-1.598518196736471,-0.0,-0.02411166951060295,0.6570544838905334,0.0,-0.01923961564898491,1.3591681718826294,6.192097519086426e-32,-0.023969413712620735
98.0,148.0,0.7926,0.3039,9.5133,-0.0373,0.0238,-0.1197,-2.2271014652647914,0.0,4.775008201599121,-1.0804924964904785,0.0079194949939847,2.1576297283172607,4.714372751978718,-4.078959682374261e-05,0.28488391637802124,-1.598518196736471,-0.0,-0.004474657122045755,0.657010555267334,0.0,-0.02104155719280243,1.3591395616531372,1.4953187529445064e-37,-0.011221110820770264
98.0,148.0,0.7926,0.3039,9.5133,-0.0373,0.0238,-0.1197,-2.2271467647948207,0.0,4.769447326660156,-1.0804076194763184,0.0058394079096615314,2.198073625564575,4.71438090594069,-3.9021109841996804e-05,0.3037194013595581,-1.5984733740436,-0.0,-0.008665453642606735,0.6569905281066895,0.0,-0.024533268064260483,1.3591641187667847,3.615350037958028e-43,0.005191181320697069
98.0,148.0,0.7926,0.3039,9.5133,-0.0373,0.0238,-0.1197,-2.2271014652647914,0.0,4.763585090637207,-1.0804003477096558,0.004771496169269085,2.1434073448181152,4.714364907914334,-3.739958265214227e-05,0.2954571545124054,-1.598501984273092,-0.0,-0.007874827831983566,0.656974196434021,0.0,-0.020084170624613762,1.3591160774230957,0.0,0.013327853754162788
98.0,148.0,0.7926,0.3039,9.5133,-0.0373,0.0238,-0.1197,-2.2271787128844203,0.0,4.779493808746338,-1.0803521871566772,0.003954316023737192,2.1876890659332275,4.714364907914334,-3.590743654058315e-05,0.2987080216407776,-1.5984776655780237,-0.0,-0.0023096411023288965,0.6569987535476685,0.0,-0.01797623187303543,1.3591558933258057,0.0,0.002937678713351488
98.0,148.0,0.7926,0.3039,9.5133,-0.0373,0.0238,-0.1197,-2.227121969262594,0.0,4.835317611694336,-1.0803401470184326,0.0028967526741325855,2.132453441619873,4.7143404362495325,-3.452982127782889e-05,0.2872421145439148,-1.598501984273092,-0.0,-0.008186334744095802,0.6569864153862,0.0,-0.012926348485052586,1.3591477870941162,0.0,-0.04775016009807587
98.0,148.0,0.7926,0.3039,9.5133,-0.0373,0.0238,-0.1197,-2.2270976505675257,0.0,4.806343078613281,-1.080308198928833,0.0020381943322718143,2.1740424633026123,4.714376828843289,-3.3253978472203016e-05,0.29614630341529846,-1.5984771887408655,-0.0,-0.006660279352217913,0.6569986939430237,0.0,-0.015099245123565197,1.3591718673706055,0.0,-0.003798126708716154
98.0,148.0,0.7926,0.3039,9.5133,-0.0373,0.0238,-0.1197,-2.2271181545653285,0.0,4.846647262573242,-1.0803401470184326,0.001361938426271081,2.146885395050049,4.714368593390592,2.6357678507338278e-05,0.29030942916870117,-1.5984981695758265,-0.0,-0.031243562698364258,0.6569582223892212,0.0,-0.025182627141475677,1.35919988155365,0.0,-0.0027703093364834785
98.0,148.0,0.7926,0.3039,9.5133,-0.0373,0.0238,-0.1197,-2.2271181545653285,0.0,4.814205169677734,-1.080283761024475,0.0007844610372558236,2.1737449169158936,4.714344513114103,2.425756974844262e-05,0.27779072523117065,-1.5985139052020472,-0.0,-0.016115883365273476,0.6570228338241577,0.0,-0.012240840122103691,1.3591837882995605,0.0,-0.011457088403403759
98.0,148.0,0.7926,0.3039,9.5133,-0.0373,0.0238,-0.1197,-2.227110048333639,0.0,4.777536392211914,-1.080344319343567,0.0005462217377498746,2.1401360034942627,4.714324438339592,2.607338700499895e-08,0.28421148657798767,-1.5984733740436,-0.0,-0.008252615109086037,0.6569823026657104,0.0,-0.014207595959305763,1.3591599464416504,0.00012615557352546602,-0.0034789838828146458
98.0,148.0,0.7926,0.3039,9.5133,-0.0373,0.0238,-0.1197,-2.227150102654928,0.0,4.801267623901367,-1.0803040266036987,0.00041901817894540727,2.1653177738189697,4.714328515320577,7.257623755446696e-12,0.29285991191864014,-1.5984695593463343,-0.0,-0.003982423804700375,0.6570023894309998,0.0,-0.02655847743153572,1.3591636419296265,0.000125147940707393,-0.047278448939323425
98.0,148.0,0.7926,0.3039,9.5133,-0.0373,0.0238,-0.1197,-2.227110048333639,0.0,4.768396377563477,-1.080283522605896,0.0003398799162823707,2.1577811241149902,4.714296519500696,2.0201860729374783e-15,0.29459288716316223,-1.5984414259540003,-0.0,-0.013636059127748013,0.6569628715515137,0.0,-0.011302931234240532,1.3591800928115845,0.00011551041825441644,-0.03669105842709541
98.0,148.0,0.7926,0.3039,9.5133,-0.0373,0.0238,-0.1197,-2.2271176777281703,0.0,4.77841854095459,-1.080348253250122,0.0002858895459212363,2.175527572631836,4.714268280752496,5.623262209063449e-19,0.3028148114681244,-1.598506275807516,-0.0,-0.0161114688962698,0.6569945216178894,0.0,-0.030545007437467575,1.359135389328003,0.00010725147876655683,-0.01949601247906685
98.0,148.0,0.7926,0.3039,9.5133,-0.0373,0.0238,-0.1197,-2.2271582088866175,0.0,4.782674789428711,-1.0803277492523193,0.00024670278071425855,2.1930582523345947,4.7143005964816815,1.5652555362201246e-22,0.2961312234401703,-1.5985305945025843,-0.0,-0.016123080626130104,0.6570388078689575,0.0,-0.0033237463794648647,1.3592160940170288,0.00012011332728434354,0.014630429446697235
97.0,139.0,0.8363,0.4169,9.4636,-0.0279,0.0174,-0.1177,-2.2271582088866175,0.0,4.777515888214111,-1.080291748046875,0.00021696444309782237,2.1087646484375,4.7143005964816815,-0.0004953520838171244,0.2844344973564148,-1.5985096136676233,-0.0,-0.020427605137228966,0.6570504307746887,0.0,-0.01506807841360569,1.3592238426208496,0.00013136633788235486,-0.0053886305540800095
97.0,139.0,0.8363,0.4169,9.4636,-0.0279,0.0174,-0.1177,-2.2271982632079066,0.0,4.856590270996094,-1.0803236961364746,0.00019362459715921432,2.143747091293335,4.714292514115133,-0.0005355316679924726,0.28214091062545776,-1.598485294972555,-0.0,-0.020838657394051552,0.6569864749908447,0.0,-0.01546303741633892,1.3591837882995605,0.00014121169806458056,0.027556132525205612
97.0,139.0,0.8363,0.4169,9.4636,-0.0279,0.0174,-0.1177,-2.2271257839598597,0.0,4.802414417266846,-1.080336093902588,0.0001748188369674608,2.147400140762329,4.714292514115133,-0.0007074298337101936,0.28459763526916504,-1.5985220114337366,-0.0,-0.03255897015333176,0.656974196434021,0.0,-0.009876823052763939,1.3591678142547607,0.00020992153440602124,0.00892080832272768
97.0,139.0,0.8363,0.4169,9.4636,-0.0279,0.0174,-0.1177,-2.2271539173521937,0.0,4.786738872528076,-1.080359935760498,0.00015934302064124495,2.1439948081970215,4.714268672257223,-0.0007150438032113016,0.28417664766311646,-1.598506275807516,-0.0,-0.026563454419374466,0.6570068001747131,0.0,-0.011569986119866371,1.3591874837875366,0.00025350021314807236,0.08097232133150101
97.0,139.0,0.8363,0.4169,9.4636,-0.0279,0.0174,-0.1177,-2.2271539173521937,0.0,4.749715805053711,-1.0803204774856567,0.00014638423454016447,2.1638855934143066,4.714280593186178,-0.0006387297762557864,0.2812061011791229,-1.5984976927386683,-0.0,-0.03025086596608162,0.6569664478302002,0.0,-0.015598688274621964,1.3591797351837158,0.0005643393378704786,0.102088063955307
97.0,139.0,0.8363,0.4169,9.4636,-0.0279,0.0174,-0.1177,-2.227133890191549,-0.00013080019562039524,4.747646331787109,-1.0803204774856567,0.00013537502672988921,2.175520896911621,4.71426420377151,-0.0006238226778805256,0.2914302945137024,-1.5985100905047815,-0.0,-0.02403978258371353,0.6570224761962891,0.0,-0.01191837526857853,1.3592522144317627,0.0005745062371715903,0.04209057241678238
97.0,139.0,0.8363,0.4169,9.4636,-0.0279,0.0174,-0.1177,-2.2271939716734828,-0.00011717701272573322,4.767522811889648,-1.0803521871566772,0.00012303698167670518,2.1617085933685303,4.714248277456992,-0.0006486464408226311,0.28368905186653137,-1.5985339323626917,-0.0,-0.025985635817050934,0.6570108532905579,0.0,-0.018402647227048874,1.3592078685760498,0.0005740697379224002,0.10153451561927795
97.0,139.0,0.8363,0.4169,9.4636,-0.0279,0.0174,-0.1177,-2.2271458111205042,-0.00013041985221207142,4.7370195388793945,-1.0803277492523193,0.00011516515223775059,2.1350722312927246,4.714256512909689,-0.000803721253760159,0.2792484760284424,-1.5984776655780237,-0.0,-0.02020128071308136,0.656965970993042,0.0,0.005686791613698006,1.3592280149459839,0.0005526888417080045,0.07754337042570114
97.0,139.0,0.8363,0.4169,9.4636,-0.0279,0.0174,-0.1177,-2.2271415195860804,-0.00014186961925588548,4.755349636077881,-1.0803163051605225,0.00010823995398823172,2.1949520111083984,4.714264738350668,-0.0009519242448732257,0.26657596230506897,-1.598485294972555,-0.0,-0.03246423974633217,0.6570462584495544,0.0,-0.024622948840260506,1.3592280149459839,0.0004554487532004714,0.04847213253378868
97.0,139.0,0.8363,0.4169,9.4636,-0.0279,0.0174,-0.1177,-2.2271372280516566,-0.00015188416000455618,4.692065715789795,-1.0802876949310303,0.00010210035543423146,2.139657735824585,4.714204360708155,-0.0013340463628992438,0.2818860113620758,-1.598518196736471,-0.0,-0.015131544321775436,0.6570429801940918,0.0,-0.010703513398766518,1.3591957092285156,0.0004277288680896163,0.09955264627933502
97.0,139.0,0.8363,0.4169,9.4636,-0.0279,0.0174,-0.1177,-2.2271295986571253,-0.0002874036435969174,4.71065616607666,-1.0804002285003662,8.239860471803695e-05,2.15846586227417,4.714208590775289,-0.0021150601096451283,0.27986815571784973,-1.5984695593463343,-0.0,-0.021932732313871384,0.6569945812225342,0.0,-0.017621390521526337,1.359203815460205,0.00033905127202160656,0.06292330473661423
97.0,139.0,0.8363,0.4169,9.4636,-0.0279,0.0174,-0.1177,-2.227189680139059,-0.0002908442111220211,4.707400798797607,-1.0803319215774536,7.641492993570864e-05,2.2147974967956543,4.714192557125845,-0.002847357653081417,0.2760731875896454,-1.5984695593463343,-0.0,-0.02631351724267006,0.6569466590881348,0.0,-0.008154627867043018,1.3592197895050049,0.0002760284405667335,0.0481996014714241
97.0,139.0,0.8363,0.4169,9.4636,-0.0279,0.0174,-0.1177,-2.2272221050658167,-0.0002928137837443501,4.703539848327637,-1.0802958011627197,7.271084905369207e-05,2.135967493057251,4.7141363633335835,-0.0042524319142103195,0.25906500220298767,-1.598485294972555,-0.0,-0.03322418034076691,0.6570429801940918,0.0,-0.011978710070252419,1.3592280149459839,0.00023312316625379026,0.0752219632267952
97.0,139.0,0.8363,0.4169,9.4636,-0.0279,0.0174,-0.1177,-2.2271815739073695,-0.0003907386271748692,4.690303325653076,-1.080308198928833,6.93492402206175e-05,2.1601967811584473,4.71413682678298,-0.005848441272974014,0.2753230035305023,-1.598501984273092,-0.0,-0.028472883626818657,0.6570388078689575,0.0,-0.01340256817638874,1.359195590019226,0.00020176310499664396,0.028521232306957245
97.0,139.0,0.8363,0.4169,9.4636,-0.0279,0.0174,-0.1177,-2.22723450283193,-0.00037107011303305626,4.729335784912109,-1.0803685188293457,6.628471601288766e-05,2.1085400581359863,4.714129100880147,-0.006877444684505463,0.2600802183151245,-1.5984938780414026,-0.0,-0.031192239373922348,0.656941831111908,0.0,-0.01403287798166275,1.3591957092285156,0.00017784028023015708,0.05012175068259239
99.0,145.0,0.8453,0.4193,9.5366,-0.0324,0.0203,-0.1223,-2.227202077905172,-0.00030825386056676507,4.722721576690674,-1.080368161201477,6.347964517772198e-05,2.1801609992980957,4.714060711651602,-0.005630637053400278,0.25809764862060547,-1.5984771887408655,-0.0,-0.03208277001976967,0.6569507718086243,0.0,-0.022748446092009544,1.3592197895050049,0.00019034568686038256,0.03753042593598366
99.0,145.0,0.8453,0.4193,9.5366,-0.0324,0.0203,-0.1223,-2.2271815739073695,-0.00026317828451283276,4.668350696563721,-1.0803402662277222,7.302618178073317e-05,2.150179386138916,4.714032912021995,-0.0032803486101329327,0.26228559017181396,-1.598485294972555,-0.0,-0.03668191283941269,0.6570065021514893,0.0,-0.012339351698756218,1.3592280149459839,0.00017250307428184897,0.06849289685487747
99.0,145.0,0.8453,0.4193,9.5366,-0.0324,0.0203,-0.1223,-2.2271939716734828,-0.000229605459026061,4.624146461486816,-1.0803319215774536,7.023137004580349e-05,2.175081253051758,4.71406113074676,-0.0015875425888225436,0.2634064257144928,-1.598518196736471,-0.0,-0.033187128603458405,0.6569905281066895,0.0,-0.012470660731196404,1.35923171043396,0.00015741694369353354,0.053301531821489334
99.0,145.0,0.8453,0.4193,9.5366,-0.0324,0.0203,-0.1223,-2.2272221050658167,-0.00020362914074212313,4.604228496551514,-1.0803196430206299,7.885356899350882e-05,2.1505486965179443,4.714056980424122,-0.0003400073910597712,0.26818954944610596,-1.5984819571124476,-0.0,-0.027292076498270035,0.6569622755050659,0.0,-0.014797581359744072,1.3592522144317627,0.0001447571412427351,-0.006728848442435265
