ramyac6/ROB537/final_project/csv/good/good_66.csv
tof_0,tof_1,accelx,accely,accelz,gyrox,gyroy,gyroz,shoulder_lift_joint_position,shoulder_lift_joint_velocity,shoulder_lift_joint_effort,elbow_joint_position,elbow_joint_velocity,elbow_joint_effort,wrist_1_joint_position,wrist_1_joint_velocity,wrist_1_joint_effort,wrist_2_joint_position,wrist_2_joint_velocity,wrist_2_joint_effort,wrist_3_joint_position,wrist_3_joint_velocity,wrist_3_joint_effort,shoulder_pan_joint_position,shoulder_pan_joint_velocity,shoulder_pan_joint_effort
209.0,215.0,-5.9043,0.0891,8.0411,-0.0476,0.0215,-0.1153,-2.3510548077025355,0.0,4.9164252281188965,-1.2841289043426514,-0.0,1.9037578105926514,5.733248340874471,0.0,0.1836155354976654,-1.6249812285052698,-0.0,-0.008372955024242401,0.6709168553352356,-0.0,0.012102809734642506,1.0023905038833618,0.0,-0.017135776579380035
209.0,215.0,-5.9043,0.0891,8.0411,-0.0476,0.0215,-0.1153,-2.3510428867735804,0.0,4.908627986907959,-1.2841005325317383,-0.0,1.9115993976593018,5.7332204459007166,0.0,0.18662206828594208,-1.6249688307391565,-0.0,-0.0006391224451363087,0.671005368232727,-0.0,0.01030375249683857,1.0023987293243408,0.0,0.016105394810438156
209.0,215.0,-5.9043,0.0891,8.0411,-0.0476,0.0215,-0.1153,-2.3510786495604457,0.0,4.8959760665893555,-1.2841495275497437,-0.0,1.9098155498504639,5.733232366829672,0.0,0.17501458525657654,-1.6249521414386194,-0.0,-0.005876757670193911,0.670981228351593,-0.0,0.002725333673879504,1.0023787021636963,0.0,0.025979340076446533
209.0,215.0,-5.9043,0.0891,8.0411,-0.0476,0.0215,-0.1153,-2.35105099300527,0.0,4.896201133728027,-1.2841169834136963,-0.0,1.8715900182724,5.733216273575582,0.0,0.17879532277584076,-1.624988857899801,-0.0,-0.0021281784866005182,0.6709332466125488,-0.0,0.011847533285617828,1.0024027824401855,0.0,-0.03893709555268288
209.0,215.0,-5.9043,0.0891,8.0411,-0.0476,0.0215,-0.1153,-2.351030489007467,0.0,4.9288859367370605,-1.2841047048568726,-0.0,1.8862977027893066,5.733216273575582,0.0,0.18425755202770233,-1.6249969641314905,-0.0,-0.0032362393103539944,0.6709532737731934,-0.0,0.008541112765669823,1.002458930015564,0.0,0.0386250764131546
209.0,215.0,-5.9043,0.0891,8.0411,-0.0476,0.0215,-0.1153,-2.3509985409178675,0.0,4.8896989822387695,-1.284144639968872,-0.0,1.8785114288330078,5.733199941902914,0.0,0.18187610805034637,-1.6249449888812464,-0.0,-0.0010573838371783495,0.6709086894989014,-0.0,0.009514576755464077,1.0024147033691406,0.0,-0.03404231369495392
209.0,215.0,-5.9043,0.0891,8.0411,-0.0476,0.0215,-0.1153,-2.3510223827757777,0.0,4.933600425720215,-1.2841206789016724,-0.0,1.8534471988677979,5.7332122204597376,0.0,0.19496960937976837,-1.6249564329730433,-0.0,-0.008644036948680878,0.670933187007904,-0.0,0.01272219605743885,1.002394676208496,0.0,0.005141670349985361
209.0,215.0,-5.9043,0.0891,8.0411,-0.0476,0.0215,-0.1153,-2.351030489007467,0.0,4.932754039764404,-1.2841129302978516,-0.0,1.8896749019622803,5.733240115433492,0.0,0.179487943649292,-1.6249688307391565,-0.0,-0.013098787516355515,0.6709853410720825,-0.0,0.017329806461930275,1.002410650253296,0.0,-0.00948476605117321
202.0,218.0,-5.9139,0.0927,8.1009,-0.0339,0.0315,-0.1199,-2.351018568078512,0.0,4.892892837524414,-1.2840927839279175,-0.0,1.8629686832427979,5.7332520363624475,0.0,0.18426008522510529,-1.624976936970846,-0.0,0.006519141141325235,0.6709491610527039,-0.0,0.006800883449614048,1.002394676208496,0.0,0.01854756847023964
202.0,218.0,-5.9139,0.0927,8.1009,-0.0339,0.0315,-0.1199,-2.351046701470846,0.0,4.94273567199707,-1.284132957458496,-0.0,1.8618671894073486,5.733236062317648,0.0,0.1784130334854126,-1.6249521414386194,-0.0,-0.007156411185860634,0.6709688901901245,-0.0,0.0011054109781980515,1.0024147033691406,0.0,-0.01045240554958582
202.0,218.0,-5.9139,0.0927,8.1009,-0.0339,0.0315,-0.1199,-2.35107483486318,0.0,4.942135334014893,-1.2841206789016724,-0.0,1.8634557723999023,5.733176219254293,0.0,0.1780010163784027,-1.6249406973468226,-0.0,-0.0036305272951722145,0.6709651947021484,-0.0,0.009721510112285614,1.0023987293243408,0.0,-0.006520985625684261
202.0,218.0,-5.9139,0.0927,8.1009,-0.0339,0.0315,-0.1199,-2.351086755792135,0.0,4.897907257080078,-1.2841169834136963,-0.0,1.845033884048462,5.733188140183248,0.0,0.176908940076828,-1.6249521414386194,-0.0,-0.0001677568070590496,0.6709250807762146,-0.0,0.008050595410168171,1.0024429559707642,0.0,-0.04020792618393898
202.0,218.0,-5.9139,0.0927,8.1009,-0.0339,0.0315,-0.1199,-2.351039072076315,0.0,4.83086633682251,-1.2841047048568726,-0.0,1.8365731239318848,5.733232366829672,0.0,0.18016406893730164,-1.624993149434225,-0.0,-0.007432056590914726,0.6709410548210144,-0.0,-0.003468976588919759,1.0024147033691406,0.0,-0.0213618241250515
202.0,218.0,-5.9139,0.0927,8.1009,-0.0339,0.0315,-0.1199,-2.351086755792135,0.0,4.859849452972412,-1.2840887308120728,-0.0,1.86985445022583,5.733196246414938,0.0,0.1787036955356598,-1.6249449888812464,-0.0,-0.00466788187623024,0.6709492206573486,-0.0,0.015846574679017067,1.0024229288101196,0.0,0.022687338292598724
202.0,218.0,-5.9139,0.0927,8.1009,-0.0339,0.0315,-0.1199,-2.3510548077025355,0.0,4.893805503845215,-1.2841088771820068,-0.0,1.9002606868743896,5.733196246414938,0.0,0.19362610578536987,-1.6249688307391565,-0.0,-0.015356678515672684,0.6709935069084167,-0.0,0.00041091477032750845,1.0023664236068726,0.0,-0.005519458558410406
202.0,218.0,-5.9139,0.0927,8.1009,-0.0339,0.0315,-0.1199,-2.3510548077025355,0.0,4.90806770324707,-1.2841495275497437,-0.0,1.9127118587493896,5.733164179116049,0.0,0.16633078455924988,-1.6249483267413538,-0.0,-0.0010793713154271245,0.6709332466125488,-0.0,0.004980492405593395,1.0023987293243408,0.0,0.03963246941566467
202.0,218.0,-5.9139,0.0927,8.1009,-0.0339,0.0315,-0.1199,-2.3510667286314906,0.0,4.8956146240234375,-1.2841050624847412,-0.0,1.8801506757736206,5.733192193299093,0.0,0.17072245478630066,-1.624960724507467,-0.0,-0.012857194989919662,0.6709771156311035,-0.0,-0.001803662977181375,1.002422571182251,0.0,-0.03364253416657448
202.0,218.0,-5.9139,0.0927,8.1009,-0.0339,0.0315,-0.1199,-2.351086755792135,0.0,4.913002967834473,-1.2841931581497192,-0.0,1.9056882858276367,5.733208167343893,0.0,0.1770564764738083,-1.6249850432025355,-0.0,-0.006391642149537802,0.6709332466125488,-0.0,0.001617002417333424,1.0024027824401855,0.0,-0.010359223932027817
202.0,218.0,-5.9139,0.0927,8.1009,-0.0339,0.0315,-0.1199,-2.3509942493834437,0.0,4.87633752822876,-1.2842166423797607,-0.0,1.8761571645736694,5.733216273575582,0.0,0.18224087357521057,-1.6249564329730433,-0.0,0.005614978261291981,0.6709730625152588,-0.0,0.010568831115961075,1.0023987293243408,0.0,-0.03550898656249046
202.0,218.0,-5.9139,0.0927,8.1009,-0.0339,0.0315,-0.1199,-2.351039072076315,0.0,4.902183532714844,-1.2841169834136963,-0.0,1.9080839157104492,5.733224141388693,0.0,0.1843889206647873,-1.6249764601336878,-0.0,0.00694719422608614,0.6709771156311035,-0.0,0.017364023253321648,1.002410650253296,0.0,0.025780335068702698
202.0,218.0,-5.9139,0.0927,8.1009,-0.0339,0.0315,-0.1199,-2.3510548077025355,0.0,4.904721736907959,-1.2840969562530518,-0.0,1.8685307502746582,5.733208167343893,0.0,0.17337653040885925,-1.6249521414386194,-0.0,-0.01059640571475029,0.6709328293800354,-0.0,-0.008882440626621246,1.0024429559707642,0.0,-0.03248653560876846
202.0,218.0,-5.9139,0.0927,8.1009,-0.0339,0.0315,-0.1199,-2.3510428867735804,0.0,4.883785724639893,-1.2841289043426514,-0.0,1.8886501789093018,5.7332122204597376,0.0,0.1712527573108673,-1.6249521414386194,-0.0,-0.004090831149369478,0.6709291338920593,-0.0,0.012274857610464096,1.0024147033691406,0.0,-0.044483691453933716
197.0,220.0,-5.863,0.0993,8.0399,-0.0368,0.0224,-0.1167,-2.351006647149557,0.0,4.893221378326416,-1.284092903137207,-0.0,1.9184643030166626,5.733220088272848,0.0,0.17881157994270325,-1.6250007788287562,-0.0,-0.0021863277070224285,0.6709574460983276,-0.0,0.008412395603954792,1.0024230480194092,0.0,0.032909031957387924
197.0,220.0,-5.863,0.0993,8.0399,-0.0368,0.0224,-0.1167,-2.3510266743102015,0.0,4.916171550750732,-1.28413724899292,-0.0,1.8825459480285645,5.733216273575582,0.0,0.17485877871513367,-1.6249688307391565,-0.0,0.009846477769315243,0.6709091663360596,-0.0,-0.0031015691347420216,1.0024187564849854,0.0,0.04611305519938469
197.0,220.0,-5.863,0.0993,8.0399,-0.0368,0.0224,-0.1167,-2.3510667286314906,0.0,4.924895286560059,-1.2841206789016724,-0.0,1.8737337589263916,5.733208167343893,0.0,0.18522852659225464,-1.624932591115133,-0.0,0.003327705664560199,0.6709771752357483,-0.0,0.013396358117461205,1.0024510622024536,0.0,-0.021452859044075012
197.0,220.0,-5.863,0.0993,8.0399,-0.0368,0.0224,-0.1167,-2.351018568078512,0.0,4.9269208908081055,-1.28416109085083,-0.0,1.8795053958892822,5.733204471855917,0.0,0.18067458271980286,-1.6249564329730433,-1.4235004641705018e-07,-0.013931918889284134,0.6709895133972168,-0.0,0.0019406998762860894,1.0024064779281616,0.0,0.04895945265889168
197.0,220.0,-5.863,0.0993,8.0399,-0.0368,0.0224,-0.1167,-2.351034780541891,0.0,4.924835681915283,-1.28413724899292,-0.0,1.8912714719772339,5.733148324280538,0.0,0.19004464149475098,-1.624936882649557,-3.962366545984253e-11,0.0063351416029036045,0.6709369421005249,-0.0,0.0011383364908397198,1.0023906230926514,0.0,-0.0053143734112381935
197.0,220.0,-5.863,0.0993,8.0399,-0.0368,0.0224,-0.1167,-2.351062913934225,0.0,4.910217761993408,-1.28413724899292,-0.0,1.89884614944458,5.733192193299093,0.0,0.17849652469158173,-1.6249688307391565,-1.1029392189051274e-14,0.00139239605050534,0.6709611415863037,-0.0,0.011653135530650616,1.002410650253296,0.0,-0.012827446684241295
197.0,220.0,-5.863,0.0993,8.0399,-0.0368,0.0224,-0.1167,-2.351058622399801,0.0,4.940610408782959,-1.2841088771820068,-0.0,1.8519362211227417,5.733208167343893,0.0,0.1740451157093048,-1.6249449888812464,-3.0700721580941304e-18,-0.012712828814983368,0.6709091663360596,-0.0,0.009362033568322659,1.0023868083953857,0.0,-0.004431684967130423
197.0,220.0,-5.863,0.0993,8.0399,-0.0368,0.0224,-0.1167,-2.3510428867735804,0.0,4.903428077697754,-1.284080982208252,-0.0,1.8077657222747803,5.733240115433492,0.0,0.1707521677017212,-1.6249645392047327,-5.579703428315774e-23,-0.0036276988685131073,0.6709895133972168,-0.0,0.0022459332831203938,1.002394676208496,0.0,0.03651956468820572
197.0,220.0,-5.863,0.0993,8.0399,-0.0368,0.0224,-0.1167,-2.3510548077025355,0.0,4.887097358703613,-1.2841129302978516,-0.0,1.880981206893921,5.733199941902914,0.0,0.17644956707954407,-1.624960724507467,-1.5531309206145052e-26,-0.013313980773091316,0.6709410548210144,-0.0,-0.0028348364867269993,1.0024266242980957,0.0,-0.012421993538737297
197.0,220.0,-5.863,0.0993,8.0399,-0.0368,0.0224,-0.1167,-2.3510710201659144,0.0,4.900606155395508,-1.2841129302978516,-0.0,1.9366644620895386,5.733224141388693,0.0,0.18090343475341797,-1.6249645392047327,-4.323197012267752e-30,-0.0006276280037127435,0.6709451079368591,-0.0,0.014585232362151146,1.0024266242980957,0.0,-0.07597627490758896
197.0,220.0,-5.863,0.0993,8.0399,-0.0368,0.0224,-0.1167,-2.351030489007467,0.0,4.928766250610352,-1.284080982208252,-0.0,1.8681479692459106,5.733260142594137,0.0,0.18674704432487488,-1.6249602476703089,-1.2033779033432576e-33,0.006688941270112991,0.6709086894989014,-0.0,0.006215129978954792,1.002386450767517,0.0,-0.003331695683300495
197.0,220.0,-5.863,0.0993,8.0399,-0.0368,0.0224,-0.1167,-2.3510343037047328,0.0,4.905386924743652,-1.2840524911880493,-0.0,1.8617784976959229,5.733204114228048,0.0,0.17249594628810883,-1.6249926725970667,-2.1870798011814262e-38,0.000799928791821003,0.6709570288658142,-0.0,0.0045622666366398335,1.0024027824401855,0.0,0.035875726491212845
197.0,220.0,-5.863,0.0993,8.0399,-0.0368,0.0224,-0.1167,-2.351039072076315,0.0,4.905300140380859,-1.2840608358383179,-0.0,1.911698818206787,5.733144271164694,0.0,0.1867416799068451,-1.6249163786517542,-6.087240529027005e-42,-0.008857252076268196,0.6709250211715698,-0.0,0.00678340345621109,1.0024306774139404,0.0,0.012418106198310852
197.0,220.0,-5.863,0.0993,8.0399,-0.0368,0.0224,-0.1167,-2.3510147533812464,0.0,4.9211835861206055,-1.2841088771820068,-0.0,1.9033098220825195,5.7332122204597376,0.0,0.18168433010578156,-1.6249731222735804,-1.401298464324817e-45,0.005347396247088909,0.67100989818573,-0.0,0.008210130035877228,1.0024229288101196,0.0,-0.02200346812605858
205.0,222.0,-5.9097,0.0921,8.0309,-0.0327,0.0312,-0.1187,-2.351062913934225,0.0,4.9184112548828125,-1.2841495275497437,-0.0,1.8894048929214478,5.733224141388693,0.0,0.1811838448047638,-1.6249645392047327,-0.0,0.0076624806970357895,0.6709529161453247,-0.0,0.006576815620064735,1.002394676208496,0.0,-0.017545629292726517
205.0,222.0,-5.9097,0.0921,8.0309,-0.0327,0.0312,-0.1187,-2.351018568078512,0.0,4.92726469039917,-1.2841047048568726,-0.0,1.864910364151001,5.733152377396383,0.0,0.18143697082996368,-1.6249082724200647,-0.0,-0.010820440948009491,0.6710255146026611,-0.0,0.0002675297437235713,1.0023623704910278,0.0,0.029980437830090523
205.0,222.0,-5.9097,0.0921,8.0309,-0.0327,0.0312,-0.1187,-2.351070543328756,0.0,4.940481662750244,-1.2841211557388306,-0.0,1.8525158166885376,5.733180272370138,0.0,0.17067380249500275,-1.6249969641314905,-0.0,-0.004510623402893543,0.6709370017051697,-0.0,-0.015035328455269337,1.0023746490478516,0.0,0.01701105572283268
205.0,222.0,-5.9097,0.0921,8.0309,-0.0327,0.0312,-0.1187,-2.3510428867735804,0.0,4.904697418212891,-1.2841166257858276,-0.0,1.8956971168518066,5.733192193299093,0.0,0.17933261394500732,-1.624932591115133,-0.0,0.003052748506888747,0.6709127426147461,-0.0,0.013107748702168465,1.002394676208496,0.0,0.00013835076242685318
205.0,222.0,-5.9097,0.0921,8.0309,-0.0327,0.0312,-0.1187,-2.351046701470846,0.0,4.935352802276611,-1.2841047048568726,-0.0,1.8859083652496338,5.733232009201803,0.0,0.18107113242149353,-1.6250093618976038,-0.0,0.006714032031595707,0.6709005236625671,-0.0,0.005790877155959606,1.0023586750030518,0.0,-0.007130695041269064
205.0,222.0,-5.9097,0.0921,8.0309,-0.0327,0.0312,-0.1187,-2.3510428867735804,0.0,4.959239959716797,-1.2841129302978516,-0.0,1.8729634284973145,5.733196246414938,0.0,0.18113651871681213,-1.6249406973468226,-0.0,-0.010381702333688736,0.6709209680557251,-0.0,-0.0029486874118447304,1.002410650253296,0.0,-0.052507251501083374
205.0,222.0,-5.9097,0.0921,8.0309,-0.0327,0.0312,-0.1187,-2.351062913934225,0.0,4.943257808685303,-1.2841650247573853,-0.0,1.925685167312622,5.7332122204597376,0.0,0.18161867558956146,-1.624988857899801,-0.0,-0.007752291392534971,0.670981228351593,-0.0,0.01588616333901882,1.002382755279541,0.0,0.05088911950588226
205.0,222.0,-5.9097,0.0921,8.0309,-0.0327,0.0312,-0.1187,-2.3510142765440882,0.0,4.904939651489258,-1.284132957458496,-0.0,1.8899857997894287,5.733135926514425,0.0,0.17278441786766052,-1.62494403520693,-0.0,-0.01217295229434967,0.6709492206573486,-0.0,0.006472105626016855,1.0024069547653198,0.0,-0.018496155738830566
205.0,222.0,-5.9097,0.0921,8.0309,-0.0327,0.0312,-0.1187,-2.3510385952391566,0.0,4.908230781555176,-1.2840805053710938,-0.0,1.8947720527648926,5.733184325485983,0.0,0.17337176203727722,-1.624976936970846,-0.0,-0.009886691346764565,0.6709651947021484,-0.0,0.004333884455263615,1.0024306774139404,0.0,-0.009169681929051876
205.0,222.0,-5.9097,0.0921,8.0309,-0.0327,0.0312,-0.1187,-2.3510667286314906,0.0,4.957916259765625,-1.2840887308120728,-0.0,1.85050368309021,5.7332002995307825,0.0,0.16604679822921753,-1.6249812285052698,-0.0,-0.013499018736183643,0.671017587184906,-0.0,0.008853638544678688,1.0024065971374512,0.0,-0.02230926975607872
205.0,222.0,-5.9097,0.0921,8.0309,-0.0327,0.0312,-0.1187,-2.351002355615133,0.0,4.902341365814209,-1.284072756767273,-0.0,1.914470911026001,5.733192193299093,0.0,0.17640674114227295,-1.6249287764178675,-0.0,-0.001890283077955246,0.6709410548210144,-0.0,0.014977799728512764,1.0024147033691406,0.0,-0.008136889897286892
205.0,222.0,-5.9097,0.0921,8.0309,-0.0327,0.0312,-0.1187,-2.3510266743102015,0.0,4.887829780578613,-1.2840442657470703,-0.0,1.886685848236084,5.733192193299093,0.0,0.17592757940292358,-1.6249483267413538,-0.0,-0.007320811040699482,0.6709852814674377,-0.0,0.0023242870811372995,1.002374529838562,0.0,0.010609714314341545
205.0,222.0,-5.9097,0.0921,8.0309,-0.0327,0.0312,-0.1187,-2.351058622399801,0.0,4.93889045715332,-1.2840608358383179,-0.0,1.8916977643966675,5.7332122204597376,0.0,0.1909579038619995,-1.6249163786517542,-0.0,0.0023258903529495,0.6709935069084167,-0.0,0.004927531816065311,1.0024065971374512,0.0,-0.006965345703065395
205.0,222.0,-5.9097,0.0921,8.0309,-0.0327,0.0312,-0.1187,-2.351018568078512,0.0,4.938997745513916,-1.2841691970825195,-0.0,1.8776309490203857,5.733224141388693,0.0,0.17697599530220032,-1.6249645392047327,-0.0,-0.010202488861978054,0.6709651947021484,-0.0,0.0078718401491642,1.0024229288101196,0.0,0.0023252321407198906
201.0,220.0,-5.875,0.1095,8.0441,-0.037,0.0249,-0.1158,-2.3510824642577113,0.0,4.957489967346191,-1.2841527462005615,-0.0,1.8998417854309082,5.733176219254293,0.0,0.1799793243408203,-1.6249483267413538,-0.0,-0.006768639199435711,0.6709087491035461,-0.0,0.01920318976044655,1.0024069547653198,0.0,-0.03523414582014084
201.0,220.0,-5.875,0.1095,8.0441,-0.037,0.0249,-0.1158,-2.3510428867735804,0.0,4.92771053314209,-1.2841088771820068,-0.0,1.9024367332458496,5.733232366829672,0.0,0.18346020579338074,-1.6249645392047327,-0.0,-0.0044286251068115234,0.6709688901901245,-0.0,-0.000868920236825943,1.0024065971374512,0.0,0.011978973634541035
201.0,220.0,-5.875,0.1095,8.0441,-0.037,0.0249,-0.1158,-2.351030489007467,0.0,4.863809108734131,-1.2840969562530518,-0.0,1.8974851369857788,5.733152019768514,0.0,0.18167877197265625,-1.6249807516681116,-0.0,0.007204752881079912,0.6709614992141724,-0.0,0.00311215128749609,1.0023987293243408,0.0,-0.0023491457104682922
201.0,220.0,-5.875,0.1095,8.0441,-0.037,0.0249,-0.1158,-2.3510786495604457,0.0,4.8969035148620605,-1.2841609716415405,-0.0,1.8787811994552612,5.7332002995307825,0.0,0.1789109706878662,-1.624936882649557,-0.0,-0.0008942662971094251,0.670933187007904,-0.0,0.005381082650274038,1.0024187564849854,0.0,0.0017523709684610367
201.0,220.0,-5.875,0.1095,8.0441,-0.037,0.0249,-0.1158,-2.3510343037047328,0.0,4.924737453460693,-1.2841129302978516,-0.0,1.8722976446151733,5.733176219254293,0.0,0.17947044968605042,-1.6249645392047327,-0.0,-0.005701232701539993,0.6709414720535278,-0.0,-0.00263803917914629,1.0023664236068726,0.0,0.03396937623620033
201.0,220.0,-5.875,0.1095,8.0441,-0.037,0.0249,-0.1158,-2.35105099300527,0.0,4.903864860534668,-1.2841691970825195,-0.0,1.8618674278259277,5.7332085249717615,0.0,0.15839482843875885,-1.6249521414386194,-0.0,-0.004402987193316221,0.6709086894989014,-0.0,0.0059637692756950855,1.0024027824401855,0.0,0.03362324461340904
201.0,220.0,-5.875,0.1095,8.0441,-0.037,0.0249,-0.1158,-2.351058622399801,0.0,4.925029754638672,-1.2840886116027832,-0.0,1.9333722591400146,5.733160126000204,0.0,0.175736203789711,-1.62494403520693,-0.0,-8.12462531030178e-06,0.67094886302948,-0.0,0.005603744648396969,1.0024713277816772,0.0,-0.022445134818553925
201.0,220.0,-5.875,0.1095,8.0441,-0.037,0.0249,-0.1158,-2.3510223827757777,0.0,4.907325744628906,-1.2840969562530518,-0.0,1.8853875398635864,5.733204352646627,0.0,0.17362049221992493,-1.6249688307391565,-0.0,-0.003148566000163555,0.6709369421005249,-0.0,0.007469657808542252,1.0023787021636963,0.0,-0.008134083822369576
201.0,220.0,-5.875,0.1095,8.0441,-0.037,0.0249,-0.1158,-2.3510548077025355,0.0,4.927769184112549,-1.284072995185852,-0.0,1.8365497589111328,5.733216035157003,0.0,0.17556419968605042,-1.62494403520693,-0.0,0.0016183005645871162,0.670981228351593,-0.0,0.02016950212419033,1.002410650253296,0.0,-0.005989988334476948
201.0,220.0,-5.875,0.1095,8.0441,-0.037,0.0249,-0.1158,-2.351030489007467,0.0,4.952116012573242,-1.2840969562530518,-0.0,1.8930847644805908,5.733264314919271,0.0,0.18287327885627747,-1.6249764601336878,-0.0,-0.0031184416729956865,0.6709529161453247,-0.0,0.0007640297990292311,1.0023787021636963,0.0,-0.01680971309542656
201.0,220.0,-5.875,0.1095,8.0441,-0.037,0.0249,-0.1158,-2.351039072076315,0.0,4.9184889793396,-1.2841006517410278,-0.0,1.9171226024627686,5.7332002995307825,0.0,0.18584591150283813,-1.624988857899801,-0.0,-0.00624646432697773,0.6709532737731934,-0.0,-0.0007385110366158187,1.002422571182251,0.0,-0.0019850595854222775
201.0,220.0,-5.875,0.1095,8.0441,-0.037,0.0249,-0.1158,-2.351046701470846,0.0,4.938881874084473,-1.2842175960540771,-0.0,1.8993202447891235,5.733248340874471,0.0,0.16439130902290344,-1.6249406973468226,-0.0,-0.0024221506901085377,0.6709615588188171,-0.0,0.0057401759549975395,1.0024229288101196,0.0,0.023368852213025093
201.0,220.0,-5.875,0.1095,8.0441,-0.037,0.0249,-0.1158,-2.3510428867735804,0.0,4.917726993560791,-1.2841006517410278,-0.0,1.9207735061645508,5.733228552132406,0.0,0.17166346311569214,-1.624988857899801,-0.0,-0.01594673842191696,0.6709611415863037,-0.0,0.010981825180351734,1.002382755279541,0.0,0.009379711002111435
201.0,220.0,-5.875,0.1095,8.0441,-0.037,0.0249,-0.1158,-2.351046701470846,0.0,4.907199382781982,-1.2840850353240967,-0.0,1.8355056047439575,5.7332122204597376,0.0,0.19295084476470947,-1.624936882649557,-0.0,0.00026775378501042724,0.6709128022193909,-0.0,0.00591490650549531,1.002402424812317,0.0,0.008945027366280556
203.0,210.0,-5.921,0.1196,8.126,-0.0359,0.0287,-0.1075,-2.3510548077025355,0.0,4.884730339050293,-1.2841050624847412,-0.0,1.9006433486938477,5.733224499016561,0.0,0.17306667566299438,-1.624976936970846,-0.0,-0.006676970049738884,0.6709169149398804,-0.0,-0.0006081550382077694,1.0024470090866089,0.0,0.07386854290962219
203.0,210.0,-5.921,0.1196,8.126,-0.0359,0.0287,-0.1075,-2.351058622399801,0.0,4.965348243713379,-1.2841088771820068,-0.0,1.9123318195343018,5.733224141388693,0.0,0.17129087448120117,-1.6249521414386194,-0.0,-0.0005461631808429956,0.6709492206573486,-0.0,-0.005547428037971258,1.002410650253296,0.0,0.0284440778195858
203.0,210.0,-5.921,0.1196,8.126,-0.0359,0.0287,-0.1075,-2.3510223827757777,0.0,4.914325714111328,-1.2841129302978516,-0.0,1.8934297561645508,5.7332122204597376,0.0,0.18181684613227844,-1.6249969641314905,-0.0,-0.0010393144330009818,0.6709250807762146,-0.0,0.011176709085702896,1.0023787021636963,0.0,-0.023839415982365608
203.0,210.0,-5.921,0.1196,8.126,-0.0359,0.0287,-0.1075,-2.3510428867735804,0.0,4.872600555419922,-1.2841650247573853,-0.0,1.8870394229888916,5.7332204459007166,0.0,0.17219869792461395,-1.6249564329730433,-0.0,0.002904528519138694,0.6709775924682617,-0.0,0.010377591475844383,1.002394676208496,0.0,0.011546747758984566
203.0,210.0,-5.921,0.1196,8.126,-0.0359,0.0287,-0.1075,-2.3510667286314906,0.0,4.922793865203857,-1.2841495275497437,-0.0,1.941779613494873,5.733240115433492,0.0,0.1756812334060669,-1.6249521414386194,-0.0,-0.004904094617813826,0.6709771156311035,-0.0,0.001875916961580515,1.0023987293243408,0.0,-0.008272150531411171
203.0,210.0,-5.921,0.1196,8.126,-0.0359,0.0287,-0.1075,-2.3510786495604457,0.0,4.895100116729736,-1.2841169834136963,-0.0,1.871492862701416,5.733176219254293,0.0,0.17594781517982483,-1.6249521414386194,-0.0,-0.0010964954271912575,0.6709488034248352,-0.0,0.006965267471969128,1.002394676208496,0.0,-0.006335476413369179
203.0,210.0,-5.921,0.1196,8.126,-0.0359,0.0287,-0.1075,-2.351030489007467,0.0,4.902462959289551,-1.2841248512268066,-0.0,1.8847700357437134,5.733228194504537,0.0,0.18110337853431702,-1.6249287764178675,-0.0,0.002117629861459136,0.6709168553352356,-0.0,-0.010358789004385471,1.002422571182251,0.0,0.009275482036173344
203.0,210.0,-5.921,0.1196,8.126,-0.0359,0.0287,-0.1075,-2.3510948620238246,0.0,4.916059494018555,-1.2841535806655884,-0.0,1.8635966777801514,5.733284342079916,0.0,0.17318274080753326,-1.6249244848834437,-0.0,-0.014543911442160606,0.670981228351593,-0.0,-0.004408669658005238,1.0024306774139404,0.0,-0.05801365152001381
203.0,210.0,-5.921,0.1196,8.126,-0.0359,0.0287,-0.1075,-2.351018568078512,0.0,4.942746639251709,-1.2841370105743408,-0.0,1.8814271688461304,5.733160126000204,0.0,0.17520546913146973,-1.6249521414386194,-0.0,-0.0042722481302917,0.6710058450698853,-0.0,0.00523987365886569,1.002410650253296,0.0,0.0283040888607502
203.0,210.0,-5.921,0.1196,8.126,-0.0359,0.0287,-0.1075,-2.3510548077025355,0.0,4.915737152099609,-1.2840886116027832,-0.0,1.8533143997192383,5.733188140183248,0.0,0.17366398870944977,-1.6249764601336878,-0.0,-0.0051857237704098225,0.6709491610527039,-0.0,-0.01132990326732397,1.0023987293243408,0.0,0.011691274121403694
203.0,210.0,-5.921,0.1196,8.126,-0.0359,0.0287,-0.1075,-2.351046701470846,0.0,4.9076972007751465,-1.2840969562530518,-0.0,1.836978793144226,5.733224141388693,0.0,0.17951355874538422,-1.624936882649557,-0.0,-0.008296492509543896,0.670981228351593,-0.0,-0.004449921194463968,1.0024065971374512,0.0,0.07723671942949295
203.0,210.0,-5.921,0.1196,8.126,-0.0359,0.0287,-0.1075,-2.3510548077025355,0.0,4.882102966308594,-1.2841289043426514,-0.0,1.8595082759857178,5.733248340874471,0.0,0.1829720139503479,-1.6249244848834437,-0.0,-0.002629512222483754,0.6709852814674377,-0.0,0.00709778256714344,1.0023504495620728,0.0,0.011094697751104832
203.0,210.0,-5.921,0.1196,8.126,-0.0359,0.0287,-0.1075,-2.351002355615133,0.0,4.912545680999756,-1.2841169834136963,-0.0,1.895335078239441,5.733228194504537,0.0,0.17508159577846527,-1.6250007788287562,-0.0,0.007737308274954557,0.6710016131401062,-0.0,0.01153954304754734,1.002422571182251,0.0,-0.0012792795896530151
203.0,210.0,-5.921,0.1196,8.126,-0.0359,0.0287,-0.1075,-2.351070543328756,0.0,4.844979286193848,-1.284092903137207,-0.0,1.871269702911377,5.733208167343893,0.0,0.18100398778915405,-1.6249125639544886,-0.0,0.0053312769159674644,0.6709533929824829,-0.0,0.006822049152106047,1.0024266242980957,0.0,0.02312830276787281
203.0,218.0,-5.9085,0.1232,8.1308,-0.0255,0.0322,-0.1243,-2.3510667286314906,0.0,4.907590866088867,-1.2841414213180542,-0.0,1.9059414863586426,5.733188140183248,0.0,0.17812687158584595,-1.6249688307391565,-0.0,-5.2487943321466446e-05,0.6709410548210144,-0.0,0.00831312034279108,1.002394676208496,0.0,0.02320973388850689
203.0,218.0,-5.9085,0.1232,8.1308,-0.0255,0.0322,-0.1243,-2.351070543328756,0.0,4.918976783752441,-1.284121036529541,-0.0,1.925591230392456,5.733208167343893,0.0,0.17889824509620667,-1.6249850432025355,-0.0,-0.016864225268363953,0.6709411144256592,-0.0,0.0019485147204250097,1.0023339986801147,0.0,0.03146161511540413
203.0,218.0,-5.9085,0.1232,8.1308,-0.0255,0.0322,-0.1243,-2.351086755792135,0.0,4.885656356811523,-1.284132957458496,-0.0,1.8725552558898926,5.733180272370138,0.0,0.17841553688049316,-1.6249287764178675,-0.0,-0.002633176278322935,0.6709087491035461,-0.0,0.006520866882055998,1.002382755279541,0.0,0.04388567432761192
203.0,218.0,-5.9085,0.1232,8.1308,-0.0255,0.0322,-0.1243,-2.3510548077025355,0.0,4.923089981079102,-1.2841129302978516,-0.0,1.8837110996246338,5.7331721661384485,0.0,0.18530714511871338,-1.624960724507467,-0.0,-0.006041117012500763,0.6709049940109253,-0.0,0.00815893430262804,1.0024147033691406,0.0,-0.03303390368819237
203.0,218.0,-5.9085,0.1232,8.1308,-0.0255,0.0322,-0.1243,-2.35107483486318,0.0,4.876533508300781,-1.2841371297836304,-0.0,1.882995843887329,5.733204114228048,0.0,0.18312418460845947,-1.6250413099872034,-0.0,-0.00622037798166275,0.6709771156311035,-0.0,0.010279384441673756,1.002402424812317,0.0,0.0031702956184744835
203.0,218.0,-5.9085,0.1232,8.1308,-0.0255,0.0322,-0.1243,-2.351034780541891,0.0,4.927987575531006,-1.284064769744873,-0.0,1.8740308284759521,5.733224141388693,0.0,0.16684947907924652,-1.624988857899801,-0.0,-0.018350226804614067,0.6709372997283936,-0.0,0.008992604911327362,1.002394676208496,0.0,-0.030038265511393547
203.0,218.0,-5.9085,0.1232,8.1308,-0.0255,0.0322,-0.1243,-2.3510428867735804,0.0,4.908414840698242,-1.2841289043426514,-0.0,1.884092926979065,5.7332122204597376,0.0,0.19169071316719055,-1.6249688307391565,-0.0,-0.012510395608842373,0.6709611415863037,-0.0,-0.0008265336509793997,1.0024266242980957,0.0,-0.009762709960341454
203.0,218.0,-5.9085,0.1232,8.1308,-0.0255,0.0322,-0.1243,-2.3510905704894007,0.0,4.891890048980713,-1.2841289043426514,-0.0,1.8884260654449463,5.733156430512228,0.0,0.16809076070785522,-1.6249564329730433,-0.0,-0.0013297366676852107,0.6709893941879272,-0.0,0.017457598820328712,1.0023987293243408,0.0,-0.00019789859652519226
203.0,218.0,-5.9085,0.1232,8.1308,-0.0255,0.0322,-0.1243,-2.351062913934225,0.0,4.901602268218994,-1.2841129302978516,-0.0,1.871114730834961,5.733184325485983,0.0,0.16672199964523315,-1.6249244848834437,-0.0,0.005956943146884441,0.6709852814674377,-0.0,0.00655782874673605,1.0024147033691406,0.0,0.01956842467188835
203.0,218.0,-5.9085,0.1232,8.1308,-0.0255,0.0322,-0.1243,-2.351062913934225,0.0,4.894105434417725,-1.284096598625183,-0.0,1.8612918853759766,5.733188140183248,0.0,0.1574709415435791,-1.6249201933490198,-0.0,0.008205829188227654,0.6709210276603699,-0.0,-0.000691455090418458,1.002394676208496,0.0,0.00013115815818309784
203.0,218.0,-5.9085,0.1232,8.1308,-0.0255,0.0322,-0.1243,-2.3510786495604457,0.0,4.8970465660095215,-1.284145474433899,-0.0,1.903536081314087,5.733204114228048,0.0,0.1814054250717163,-1.6249645392047327,-0.0,-0.01105052512139082,0.6709491610527039,-0.0,0.013398373499512672,1.0024429559707642,0.0,-0.024249155074357986
203.0,218.0,-5.9085,0.1232,8.1308,-0.0255,0.0322,-0.1243,-2.351030489007467,0.0,4.915964126586914,-1.2841088771820068,-0.0,1.8664789199829102,5.733244287758627,0.0,0.18842747807502747,-1.6249645392047327,-0.0,-0.014794531278312206,0.6709452271461487,-0.0,0.005042173899710178,1.0023545026779175,0.0,-0.012077003717422485
203.0,218.0,-5.9085,0.1232,8.1308,-0.0255,0.0322,-0.1243,-2.351006647149557,0.0,4.932836532592773,-1.284132957458496,-0.0,1.8605104684829712,5.733232366829672,0.0,0.1888982653617859,-1.624936882649557,-0.0,-0.006350584328174591,0.6709730625152588,-0.0,0.0011054620845243335,1.0023987293243408,0.0,0.006511314772069454
203.0,218.0,-5.9085,0.1232,8.1308,-0.0255,0.0322,-0.1243,-2.3510428867735804,0.0,4.899110317230225,-1.2841414213180542,-0.0,1.8833189010620117,5.7332122204597376,0.0,0.17540861666202545,-1.6248963514911097,-0.0,-0.0010703710140660405,0.6710057854652405,-0.0,0.009288622066378593,1.0024348497390747,0.0,-0.022545885294675827
200.0,218.0,-5.8241,0.1412,7.9208,-0.0434,0.0275,-0.1173,-2.351070543328756,0.0,4.89620304107666,-1.2841047048568726,-0.0,1.881667137145996,5.733192193299093,0.0,0.1796862781047821,-1.624976936970846,-0.0,0.0017647948116064072,0.6709451675415039,-0.0,0.003912098705768585,1.0024266242980957,0.0,0.006762522738426924
200.0,218.0,-5.8241,0.1412,7.9208,-0.0434,0.0275,-0.1173,-2.3510223827757777,0.0,4.91951847076416,-1.2841206789016724,-0.0,1.87001371383667,5.733216273575582,0.0,0.19367891550064087,-1.6249645392047327,-0.0,-0.00328878709115088,0.6709651947021484,-0.0,0.003926717676222324,1.0023987293243408,0.0,-0.03859023004770279
200.0,218.0,-5.8241,0.1412,7.9208,-0.0434,0.0275,-0.1173,-2.351030489007467,0.0,4.899994373321533,-1.2840399742126465,-0.0,1.8874870538711548,5.733244287758627,0.0,0.19463089108467102,-1.6249521414386194,-0.0,-0.0025463749188929796,0.6709693074226379,-0.0,-0.0034268859308212996,1.002394676208496,0.0,-0.03945159167051315
200.0,218.0,-5.8241,0.1412,7.9208,-0.0434,0.0275,-0.1173,-2.3510786495604457,0.0,4.919128894805908,-1.2841129302978516,-0.0,1.8832614421844482,5.733204352646627,0.0,0.1775493174791336,-1.6249645392047327,-0.0,-0.0035577670205384493,0.6709372997283936,-0.0,0.004300020169466734,1.002394676208496,0.0,-0.06135179474949837
200.0,218.0,-5.8241,0.1412,7.9208,-0.0434,0.0275,-0.1173,-2.3510266743102015,0.0,4.958667278289795,-1.28413724899292,-0.0,1.884845495223999,5.733192193299093,0.0,0.1714535355567932,-1.624976936970846,-0.0,-0.013487061485648155,0.6709730625152588,-0.0,-0.001407308503985405,1.0024065971374512,0.0,0.012849150225520134
200.0,218.0,-5.8241,0.1412,7.9208,-0.0434,0.0275,-0.1173,-2.351046701470846,0.0,4.927499771118164,-1.2841088771820068,-0.0,1.879550576210022,5.733180272370138,0.0,0.17161712050437927,-1.6249688307391565,-0.0,-0.011249292641878128,0.6710098385810852,-0.0,0.011173401027917862,1.002394676208496,0.0,0.05508977174758911
200.0,218.0,-5.8241,0.1412,7.9208,-0.0434,0.0275,-0.1173,-2.35105099300527,0.0,4.905462265014648,-1.2840808629989624,-0.0,1.9076255559921265,5.733172046929159,0.0,0.1785847395658493,-1.6249731222735804,-0.0,-0.0043923938646912575,0.6709893941879272,-0.0,-0.0015402963617816567,1.0023623704910278,0.0,0.016627226024866104
200.0,218.0,-5.8241,0.1412,7.9208,-0.0434,0.0275,-0.1173,-2.3510266743102015,0.0,4.900818347930908,-1.2841248512268066,-0.0,1.8832789659500122,5.733208167343893,0.0,0.18259482085704803,-1.624960724507467,-0.0,-0.0006988367531448603,0.6708968281745911,-0.0,0.009140548296272755,1.002382755279541,0.0,-0.03159046918153763
200.0,218.0,-5.8241,0.1412,7.9208,-0.0434,0.0275,-0.1173,-2.351030489007467,0.0,4.9303975105285645,-1.2841495275497437,-0.0,1.8532646894454956,5.733240115433492,0.0,0.17904970049858093,-1.6249688307391565,-0.0,-0.01163455843925476,0.6709614992141724,-0.0,0.008790668100118637,1.002386450767517,0.0,-0.01008749008178711
200.0,218.0,-5.8241,0.1412,7.9208,-0.0434,0.0275,-0.1173,-2.351018568078512,0.0,4.893553733825684,-1.28413724899292,-0.0,1.8455796241760254,5.7332002995307825,0.0,0.18041467666625977,-1.624936882649557,-0.0,-0.011369398795068264,0.6710175275802612,-0.0,0.003812384558841586,1.0023987293243408,0.0,-0.0059514641761779785
200.0,218.0,-5.8241,0.1412,7.9208,-0.0434,0.0275,-0.1173,-2.3510548077025355,0.0,4.932581424713135,-1.284185767173767,-0.0,1.8816471099853516,5.733228194504537,0.0,0.1963418424129486,-1.6249244848834437,-0.0,-0.012482043355703354,0.6709411144256592,-0.0,0.0036925654858350754,1.002358317375183,0.0,-0.0018631339771673083
200.0,218.0,-5.8241,0.1412,7.9208,-0.0434,0.0275,-0.1173,-2.3510905704894007,0.0,4.953019142150879,-1.2841206789016724,-0.0,1.892899751663208,5.7332002995307825,0.0,0.19284769892692566,-1.6249688307391565,-0.0,0.0021609198302030563,0.6709373593330383,-0.0,0.004320389125496149,1.0023787021636963,0.0,-0.007500476203858852
200.0,218.0,-5.8241,0.1412,7.9208,-0.0434,0.0275,-0.1173,-2.3510142765440882,0.0,4.930091381072998,-1.2841248512268066,-0.0,1.8643324375152588,5.733240115433492,0.0,0.19418855011463165,-1.6249521414386194,-0.0,-0.019290553405880928,0.6708886027336121,-0.0,0.0027232097927480936,1.0023303031921387,0.0,-0.021011827513575554
200.0,218.0,-5.8241,0.1412,7.9208,-0.0434,0.0275,-0.1173,-2.3510223827757777,0.0,4.872363090515137,-1.2841570377349854,-0.0,1.8604376316070557,5.733196246414938,0.0,0.1852428913116455,-1.6249521414386194,-0.0,-0.007549055386334658,0.6709372997283936,-0.0,0.0016018617898225784,1.002346396446228,0.0,0.006342198234051466
207.0,214.0,-5.9115,0.1184,8.0865,-0.0308,0.0315,-0.1261,-2.351002355615133,0.0,4.947743892669678,-1.2840808629989624,-0.0,1.856924295425415,5.7332602618034265,0.0,0.18158641457557678,-1.6250088850604456,-0.0,0.0017164148157462478,0.671001136302948,-0.0,-0.002633974887430668,1.0024266242980957,0.0,-0.011639704927802086
207.0,214.0,-5.9115,0.1184,8.0865,-0.0308,0.0315,-0.1261,-2.351046701470846,0.0,4.930012226104736,-1.28413724899292,-0.0,1.8841972351074219,5.733200061112203,0.0,0.1786743849515915,-1.624988857899801,-0.0,-0.0032622679136693478,0.6709332466125488,-0.0,0.013470112346112728,1.0023664236068726,0.0,0.022944357246160507
207.0,214.0,-5.9115,0.1184,8.0865,-0.0308,0.0315,-0.1261,-2.350994726220602,0.0,4.9352216720581055,-1.2841691970825195,-0.0,1.8708750009536743,5.733204114228048,0.0,0.18552783131599426,-1.6249850432025355,-0.0,0.0027876736130565405,0.6709730625152588,-0.0,0.012195717543363571,1.0023623704910278,0.0,-0.027129268273711205
207.0,214.0,-5.9115,0.1184,8.0865,-0.0308,0.0315,-0.1261,-2.3510343037047328,0.0,4.906903266906738,-1.2841496467590332,-0.0,1.8975965976715088,5.733172046929159,0.0,0.17976738512516022,-1.6249564329730433,-0.0,0.00436142785474658,0.6709852814674377,-0.0,-0.0029663341119885445,1.002458930015564,0.0,0.011102399788796902
207.0,214.0,-5.9115,0.1184,8.0865,-0.0308,0.0315,-0.1261,-2.3510428867735804,0.0,4.8771281242370605,-1.284129023551941,-0.0,1.879812479019165,5.733196246414938,0.0,0.1847154051065445,-1.624936882649557,-0.0,-0.0007718491833657026,0.6709893941879272,-0.0,0.006819401402026415,1.002422571182251,0.0,0.0019091451540589333
207.0,214.0,-5.9115,0.1184,8.0865,-0.0308,0.0315,-0.1261,-2.351030489007467,0.0,4.931066513061523,-1.2841414213180542,-0.0,1.8894429206848145,5.733248102455892,0.0,0.1877771019935608,-1.6249688307391565,-0.0,-0.0033987087663263083,0.6709529161453247,-0.0,0.00717289699241519,1.0024147033691406,0.0,0.01011933758854866
207.0,214.0,-5.9115,0.1184,8.0865,-0.0308,0.0315,-0.1261,-2.351046701470846,0.0,4.929164409637451,-1.2841289043426514,-0.0,1.8685550689697266,5.733176219254293,0.0,0.17332854866981506,-1.6249287764178675,-0.0,-0.018031585961580276,0.6709532737731934,-0.0,-0.012188377790153027,1.0024470090866089,0.0,0.012787413783371449
207.0,214.0,-5.9115,0.1184,8.0865,-0.0308,0.0315,-0.1261,-2.3510667286314906,0.0,4.89306116104126,-1.2841609716415405,-0.0,1.854067325592041,5.733196246414938,0.0,0.18282145261764526,-1.62494403520693,-0.0,0.002504140604287386,0.6709771156311035,-0.0,0.007513854186981916,1.0023787021636963,0.0,0.012330773286521435
207.0,214.0,-5.9115,0.1184,8.0865,-0.0308,0.0315,-0.1261,-2.3510266743102015,0.0,4.923559188842773,-1.2841370105743408,-0.0,1.870301604270935,5.733184325485983,0.0,0.1821313500404358,-1.6249850432025355,-0.0,0.0009195973980240524,0.6710016131401062,-0.0,0.014927765354514122,1.0024389028549194,0.0,0.016414958983659744
207.0,214.0,-5.9115,0.1184,8.0865,-0.0308,0.0315,-0.1261,-2.3510223827757777,0.0,4.892995834350586,-1.2841289043426514,-0.0,1.9201260805130005,5.73316382148818,0.0,0.17253351211547852,-1.6249521414386194,-0.0,-0.011607502587139606,0.6709410548210144,-0.0,-0.00031109945848584175,1.0023987293243408,0.0,0.01659281551837921
207.0,214.0,-5.9115,0.1184,8.0865,-0.0308,0.0315,-0.1261,-2.3510428867735804,0.0,4.915611267089844,-1.2840805053710938,-0.0,1.855645775794983,5.733248102455892,0.0,0.1798734962940216,-1.6249201933490198,-0.0,0.002430177526548505,0.6708927750587463,-0.0,0.012080054730176926,1.002402424812317,0.0,-0.049021296203136444
207.0,214.0,-5.9115,0.1184,8.0865,-0.0308,0.0315,-0.1261,-2.351062913934225,0.0,4.877368927001953,-1.2841691970825195,-0.0,1.8853083848953247,5.733228313713827,0.0,0.17745031416416168,-1.6249483267413538,-0.0,0.0028322844300419092,0.6709451675415039,-0.0,0.005955046974122524,1.0024229288101196,0.0,-0.05093073472380638
207.0,214.0,-5.9115,0.1184,8.0865,-0.0308,0.0315,-0.1261,-2.351046701470846,0.0,4.921789169311523,-1.28413724899292,-0.0,1.8885637521743774,5.733248340874471,0.0,0.17678304016590118,-1.6249492804156702,-0.0,-0.009787258692085743,0.6708927750587463,-0.0,0.01177576556801796,1.0023787021636963,0.0,-0.02272728644311428
207.0,214.0,-5.9115,0.1184,8.0865,-0.0308,0.0315,-0.1261,-2.35107483486318,0.0,4.894761085510254,-1.2841289043426514,-0.0,1.879347562789917,5.733196246414938,0.0,0.17519024014472961,-1.6249688307391565,-0.0,-0.005203278735280037,0.6709688901901245,-0.0,-0.002469496801495552,1.0024147033691406,0.0,-0.006888341158628464
206.0,216.0,-5.9653,0.1011,8.0357,-0.04,0.0246,-0.1205,-2.3510266743102015,0.0,4.885753154754639,-1.2841169834136963,-0.0,1.8708922863006592,5.733188140183248,0.0,0.18224096298217773,-1.624976936970846,-0.0,-0.0049270447343587875,0.6709574460983276,-0.0,0.004054342396557331,1.002386450767517,0.0,0.03881095349788666
206.0,216.0,-5.9653,0.1011,8.0357,-0.04,0.0246,-0.1205,-2.3510428867735804,0.0,4.885415077209473,-1.284169316291809,-0.0,1.8759057521820068,5.733176100045004,0.0,0.18055035173892975,-1.624960724507467,-0.0,0.00018318684305995703,0.6709693074226379,-0.0,0.0022857580333948135,1.002394676208496,0.0,0.015006018802523613
206.0,216.0,-5.9653,0.1011,8.0357,-0.04,0.0246,-0.1205,-2.351058622399801,0.0,4.91401481628418,-1.2840328216552734,-0.0,1.88297438621521,5.733176100045004,0.0,0.17233702540397644,-1.6250007788287562,-0.0,-0.004694041796028614,0.6709852814674377,-0.0,0.01313607394695282,1.00239098072052,0.0,0.00015900106518529356
206.0,216.0,-5.9653,0.1011,8.0357,-0.04,0.0246,-0.1205,-2.3510266743102015,0.0,4.852135181427002,-1.2841496467590332,-0.0,1.8473230600357056,5.7332122204597376,0.0,0.18781670928001404,-1.6249688307391565,-0.0,-0.00828221533447504,0.6709333062171936,-0.0,-0.0034049740061163902,1.0024147033691406,0.0,0.005696759559214115
206.0,216.0,-5.9653,0.1011,8.0357,-0.04,0.0246,-0.1205,-2.3510428867735804,0.0,4.938680171966553,-1.2841814756393433,-0.0,1.8777239322662354,5.733188140183248,0.0,0.18734106421470642,-1.6249688307391565,-0.0,0.0003236652410123497,0.670933187007904,-0.0,0.01632402464747429,1.002394676208496,0.0,-0.030115991830825806
206.0,216.0,-5.9653,0.1011,8.0357,-0.04,0.0246,-0.1205,-2.3510710201659144,0.0,4.913675308227539,-1.2841169834136963,-0.0,1.8952995538711548,5.7332122204597376,0.0,0.17469969391822815,-1.624960724507467,-0.0,0.0005378499627113342,0.6709250807762146,-0.0,-0.0005883931880816817,1.0024027824401855,0.0,0.014845581725239754
206.0,216.0,-5.9653,0.1011,8.0357,-0.04,0.0246,-0.1205,-2.35105099300527,0.0,4.876657962799072,-1.2841495275497437,-0.0,1.8437063694000244,5.733148205071249,0.0,0.17627869546413422,-1.6249645392047327,-0.0,0.006440355908125639,0.6709250211715698,-0.0,0.010700535029172897,1.0023987293243408,0.0,-0.0024356325156986713
206.0,216.0,-5.9653,0.1011,8.0357,-0.04,0.0246,-0.1205,-2.351034780541891,0.0,4.911874771118164,-1.284092903137207,-0.0,1.9205589294433594,5.733244287758627,0.0,0.1811448037624359,-1.6250012556659144,-0.0,-0.015263326466083527,0.670957088470459,-0.0,0.012890266254544258,1.0023868083953857,0.0,-0.0151409562677145
206.0,216.0,-5.9653,0.1011,8.0357,-0.04,0.0246,-0.1205,-2.350982805291647,0.0,4.902615547180176,-1.284080982208252,-0.0,1.881532907485962,5.733188140183248,0.0,0.17935144901275635,-1.624988857899801,-0.0,-0.0025799982249736786,0.6709455251693726,-0.0,0.006477915681898594,1.002358317375183,0.0,-0.030741684138774872
206.0,216.0,-5.9653,0.1011,8.0357,-0.04,0.0246,-0.1205,-2.3510905704894007,0.0,4.9028167724609375,-1.2841088771820068,-0.0,1.921936273574829,5.7332204459007166,0.0,0.18441933393478394,-1.6249850432025355,-0.0,0.002539996523410082,0.670981228351593,-0.0,0.010571788996458054,1.0024429559707642,0.0,0.02810177206993103
206.0,216.0,-5.9653,0.1011,8.0357,-0.04,0.0246,-0.1205,-2.3510266743102015,0.0,4.927673816680908,-1.2840969562530518,-0.0,1.8802814483642578,5.733204114228048,0.0,0.1854841709136963,-1.624988857899801,-0.0,0.005656763911247253,0.6709976196289062,-0.0,0.0027769694570451975,1.002410650253296,0.0,-0.030457764863967896
206.0,216.0,-5.9653,0.1011,8.0357,-0.04,0.0246,-0.1205,-2.35105099300527,0.0,4.907240390777588,-1.2841774225234985,-0.0,1.890746831893921,5.733208167343893,0.0,0.17663754522800446,-1.624976936970846,-0.0,-0.006833124905824661,0.6709128022193909,-0.0,0.0015474482206627727,1.0024429559707642,0.0,-0.029103055596351624
206.0,216.0,-5.9653,0.1011,8.0357,-0.04,0.0246,-0.1205,-2.3510548077025355,0.0,4.911805152893066,-1.2841047048568726,-0.0,1.900457739830017,5.733244168549337,0.0,0.18735626339912415,-1.6249926725970667,-0.0,-0.00012298004003241658,0.6709975600242615,-0.0,0.007085242308676243,1.002374529838562,0.0,0.005201450549066067
206.0,216.0,-5.9653,0.1011,8.0357,-0.04,0.0246,-0.1205,-2.3510266743102015,0.0,4.869651794433594,-1.284056544303894,-0.0,1.8832406997680664,5.733208167343893,0.0,0.16955575346946716,-1.6249492804156702,-0.0,-0.0021679005585610867,0.6709492206573486,-0.0,-0.008692450821399689,1.002394676208496,0.0,0.003971918951719999
197.0,209.0,-5.8869,0.0945,8.0883,-0.0348,0.0249,-0.1191,-2.3509985409178675,0.0,4.964065074920654,-1.2841289043426514,-0.0,1.835304856300354,5.733232366829672,0.0,0.17670263350009918,-1.6249406973468226,-0.0,-0.018872559070587158,0.6709410548210144,-0.0,0.005720599554479122,1.0024594068527222,0.0,-0.028946781530976295
197.0,209.0,-5.8869,0.0945,8.0883,-0.0348,0.0249,-0.1191,-2.3510428867735804,0.0,4.9023847579956055,-1.284121036529541,-0.0,1.8980249166488647,5.733199941902914,0.0,0.18499502539634705,-1.6249287764178675,-0.0,-0.0018722504610195756,0.6708927750587463,-0.0,0.00777311809360981,1.0024429559707642,0.0,0.0077448878437280655
197.0,209.0,-5.8869,0.0945,8.0883,-0.0348,0.0249,-0.1191,-2.3510428867735804,0.0,4.919829368591309,-1.2841206789016724,-0.0,1.8598744869232178,5.733191835671224,0.0,0.18533974885940552,-1.6249731222735804,-0.0,0.0028511150740087032,0.6709127426147461,-0.0,0.0014578471891582012,1.0023987293243408,0.0,-0.04869005084037781
197.0,209.0,-5.8869,0.0945,8.0883,-0.0348,0.0249,-0.1191,-2.351018568078512,0.0,4.927509307861328,-1.2841535806655884,-0.0,1.881474494934082,5.733172404557028,0.0,0.17222580313682556,-1.6249645392047327,-0.0,-0.013020510785281658,0.6709532737731934,-0.0,0.00213517714291811,1.0024348497390747,0.0,0.002139854244887829
197.0,209.0,-5.8869,0.0945,8.0883,-0.0348,0.0249,-0.1191,-2.35105099300527,0.0,4.931080341339111,-1.284121036529541,-0.0,1.8711371421813965,5.733240115433492,0.0,0.18020093441009521,-1.6249564329730433,-0.0,-0.01606849581003189,0.6709410548210144,-0.0,0.00414069090038538,1.0024229288101196,0.0,0.024308668449521065
197.0,209.0,-5.8869,0.0945,8.0883,-0.0348,0.0249,-0.1191,-2.3510343037047328,0.0,4.919923782348633,-1.2841129302978516,-0.0,1.9384969472885132,5.733164298325338,0.0,0.17130416631698608,-1.6249521414386194,-0.0,-0.002160406205803156,0.6709651947021484,-0.0,0.007305623032152653,1.0024266242980957,0.0,0.01030646450817585
197.0,209.0,-5.8869,0.0945,8.0883,-0.0348,0.0249,-0.1191,-2.351039072076315,0.0,4.960493564605713,-1.2841289043426514,-0.0,1.8450815677642822,5.733224141388693,0.0,0.17565080523490906,-1.6249969641314905,-0.0,-0.006913498975336552,0.6709250807762146,-0.0,0.005985421594232321,1.0024147033691406,0.0,0.008065367117524147
197.0,209.0,-5.8869,0.0945,8.0883,-0.0348,0.0249,-0.1191,-2.3510104618468226,0.0,4.916301250457764,-1.2840768098831177,-0.0,1.921959638595581,5.7332002995307825,0.0,0.1697799563407898,-1.624976936970846,-0.0,0.0031916131265461445,0.6709414720535278,-0.0,0.00464925030246377,1.002394676208496,0.0,0.03559136018157005
197.0,209.0,-5.8869,0.0945,8.0883,-0.0348,0.0249,-0.1191,-2.350994726220602,0.0,4.864166259765625,-1.2841248512268066,-0.0,1.8783830404281616,5.733220088272848,0.0,0.18897905945777893,-1.6249850432025355,-0.0,-0.0018946037162095308,0.6709811687469482,-0.0,0.011530723422765732,1.0024348497390747,0.0,-0.023168275132775307
197.0,209.0,-5.8869,0.0945,8.0883,-0.0348,0.0249,-0.1191,-2.3510428867735804,0.0,4.91188907623291,-1.2840969562530518,-0.0,1.900322437286377,5.733199941902914,0.0,0.18731120228767395,-1.6249969641314905,-0.0,0.00017988152103498578,0.6709935069084167,-0.0,0.008236357010900974,1.002394676208496,0.0,-0.04220488667488098
197.0,209.0,-5.8869,0.0945,8.0883,-0.0348,0.0249,-0.1191,-2.35105099300527,0.0,4.865428447723389,-1.284092903137207,-0.0,1.9028773307800293,5.7332119820411584,0.0,0.17243096232414246,-1.6249850432025355,-0.0,0.0019562914967536926,0.6709372997283936,-0.0,0.011745454743504524,1.002410650253296,0.0,0.03687867894768715
197.0,209.0,-5.8869,0.0945,8.0883,-0.0348,0.0249,-0.1191,-2.351058622399801,0.0,4.900181770324707,-1.2840726375579834,-0.0,1.8296746015548706,5.733244287758627,0.0,0.181799054145813,-1.6250370184527796,-0.0,-0.0023296596482396126,0.6709771156311035,-0.0,0.005353541113436222,1.002394676208496,0.0,0.005417601205408573
197.0,209.0,-5.8869,0.0945,8.0883,-0.0348,0.0249,-0.1191,-2.3510104618468226,0.0,4.948731422424316,-1.2841414213180542,-0.0,1.8999028205871582,5.733188140183248,0.0,0.17735978960990906,-1.6249812285052698,-0.0,-0.002154985908418894,0.6709210276603699,-0.0,0.008492195047438145,1.002410650253296,0.0,-0.00584116717800498
197.0,209.0,-5.8869,0.0945,8.0883,-0.0348,0.0249,-0.1191,-2.3510147533812464,0.0,4.939350128173828,-1.2841088771820068,-0.0,1.8987526893615723,5.733232366829672,0.0,0.18308016657829285,-1.6249850432025355,-0.0,0.0008694352582097054,0.6709611415863037,-0.0,0.01818036660552025,1.0024065971374512,0.0,-0.028947267681360245
194.0,214.0,-5.8834,0.1125,7.9896,-0.0441,0.0301,-0.1159,-2.351070543328756,0.0,4.886046409606934,-1.284145474433899,-0.0,1.837534785270691,5.733248340874471,0.0,0.17066888511180878,-1.6249731222735804,-0.0,0.0028680958785116673,0.6709775328636169,-0.0,0.007844367995858192,1.0023704767227173,0.0,-0.0014476478099822998
194.0,214.0,-5.8834,0.1125,7.9896,-0.0441,0.0301,-0.1159,-2.3510824642577113,0.0,4.957956314086914,-1.2841124534606934,-0.0,1.8267773389816284,5.733232247620382,0.0,0.18277768790721893,-1.6249483267413538,-0.0,-0.010469372384250164,0.6709451675415039,-0.0,0.0005429816083051264,1.0023623704910278,0.0,-0.020286615937948227
194.0,214.0,-5.8834,0.1125,7.9896,-0.0441,0.0301,-0.1159,-2.3510266743102015,0.0,4.893653869628906,-1.2841252088546753,-0.0,1.887816309928894,5.733280288964071,0.0,0.1892082393169403,-1.6249287764178675,-0.0,-0.004634144250303507,0.6709692478179932,-0.0,0.013703730888664722,1.0023664236068726,0.0,-0.005782005377113819
194.0,214.0,-5.8834,0.1125,7.9896,-0.0441,0.0301,-0.1159,-2.3510147533812464,0.0,4.8647894859313965,-1.2841414213180542,-0.0,1.828315019607544,5.733256208687582,0.0,0.17556193470954895,-1.6249850432025355,-0.0,0.0014654053375124931,0.6709975600242615,-0.0,0.01114670466631651,1.0024147033691406,0.0,-0.006530008278787136
194.0,214.0,-5.8834,0.1125,7.9896,-0.0441,0.0301,-0.1159,-2.351058622399801,0.0,4.959484577178955,-1.2841248512268066,-0.0,1.8876607418060303,5.733180272370138,0.0,0.17733874917030334,-1.6249807516681116,-0.0,-0.0007504797540605068,0.670985221862793,-0.0,0.008985646069049835,1.0023545026779175,0.0,0.010779313743114471
194.0,214.0,-5.8834,0.1125,7.9896,-0.0441,0.0301,-0.1159,-2.3510223827757777,0.0,4.886194705963135,-1.2840968370437622,-0.0,1.849886417388916,5.7332002995307825,0.0,0.167143315076828,-1.6249850432025355,-0.0,-0.001523202983662486,0.6709410548210144,-0.0,0.016965806484222412,1.002394676208496,0.0,0.04669291526079178
194.0,214.0,-5.8834,0.1125,7.9896,-0.0441,0.0301,-0.1159,-2.351058622399801,0.0,4.938068389892578,-1.2840890884399414,-0.0,1.869255542755127,5.733192193299093,0.0,0.18070988357067108,-1.6249564329730433,-0.0,-0.0058709559962153435,0.670964777469635,-0.0,0.010777768678963184,1.0024110078811646,0.0,0.004920587409287691
194.0,214.0,-5.8834,0.1125,7.9896,-0.0441,0.0301,-0.1159,-2.351062913934225,0.0,4.907280445098877,-1.2841169834136963,-0.0,1.8731520175933838,5.733240234642782,0.0,0.18090006709098816,-1.6249406973468226,-0.0,0.0035051978193223476,0.6709088087081909,-0.0,0.004643479362130165,1.0024794340133667,0.0,-0.010981768369674683
194.0,214.0,-5.8834,0.1125,7.9896,-0.0441,0.0301,-0.1159,-2.3510266743102015,0.0,4.902883529663086,-1.2841289043426514,-0.0,1.90726637840271,5.733188140183248,0.0,0.1900073140859604,-1.6249402205096644,-0.0,-0.002860836684703827,0.6709451675415039,-0.0,-0.007124035619199276,1.002422571182251,0.0,0.008213300257921219
194.0,214.0,-5.8834,0.1125,7.9896,-0.0441,0.0301,-0.1159,-2.3510385952391566,0.0,4.916494846343994,-1.2841129302978516,-0.0,1.879503846168518,5.733156072884359,0.0,0.1762353479862213,-1.624936882649557,-0.0,-0.0031525210943073034,0.6709169149398804,-0.0,0.017134753987193108,1.0024389028549194,0.0,-0.027443930506706238
194.0,214.0,-5.8834,0.1125,7.9896,-0.0441,0.0301,-0.1159,-2.351046701470846,0.0,4.891485691070557,-1.284145474433899,-0.0,1.8824312686920166,5.733176219254293,0.0,0.17059876024723053,-1.6249645392047327,-0.0,-0.0064154574647545815,0.6708887815475464,-0.0,0.0023822635412216187,1.0024183988571167,0.0,-0.03454386815428734
194.0,214.0,-5.8834,0.1125,7.9896,-0.0441,0.0301,-0.1159,-2.35105099300527,0.0,4.854806900024414,-1.2841206789016724,-0.0,1.9044642448425293,5.733176100045004,0.0,0.17938609421253204,-1.624976936970846,-0.0,-0.002973751863464713,0.6709169149398804,-0.0,0.0010006169322878122,1.002366304397583,0.0,-0.02835831046104431
194.0,214.0,-5.8834,0.1125,7.9896,-0.0441,0.0301,-0.1159,-2.3510223827757777,0.0,4.886977195739746,-1.2841088771820068,-0.0,1.8846771717071533,5.7332002995307825,0.0,0.17424623668193817,-1.6249483267413538,-0.0,0.0005163718014955521,0.6709332466125488,-0.0,0.015272529795765877,1.002394676208496,0.0,0.025806035846471786
194.0,214.0,-5.8834,0.1125,7.9896,-0.0441,0.0301,-0.1159,-2.35107483486318,0.0,4.929248809814453,-1.2841293811798096,-4.296357936084405e-09,1.8603665828704834,5.733240234642782,0.0,0.17280404269695282,-1.624988857899801,-0.0,-0.013436699286103249,0.6709775328636169,-0.0,-0.0013761729933321476,1.002382755279541,0.0,-0.010310720652341843
194.0,216.0,-5.9934,0.1304,8.0764,-0.0319,0.0191,-0.1185,-2.351034780541891,0.0,4.947042942047119,-1.2840969562530518,-1.0375199844766571e-14,1.8928439617156982,5.733220088272848,0.0,0.18481400609016418,-1.624936882649557,-0.0,-0.0042007239535450935,0.6708968877792358,-0.0,0.002891514915972948,1.0023950338363647,0.0,0.027625080198049545
194.0,216.0,-5.9934,0.1304,8.0764,-0.0319,0.0191,-0.1185,-2.3510147533812464,0.0,4.888561248779297,-1.2841414213180542,-3.3614327475037855e-22,1.8337241411209106,5.733228194504537,0.0,0.18251588940620422,-1.624936882649557,-0.0,-0.012531504034996033,0.6709091663360596,-0.0,0.007060323841869831,1.0024269819259644,0.0,-0.018601978197693825
194.0,216.0,-5.9934,0.1304,8.0764,-0.0319,0.0191,-0.1185,-2.3510548077025355,0.0,4.949491500854492,-1.2840808629989624,-8.117463455641765e-28,1.8700292110443115,5.733220088272848,0.0,0.1707807034254074,-1.6249564329730433,-0.0,-0.003156227758154273,0.6709372997283936,-0.0,0.0013635274954140186,1.002358317375183,0.0,-0.040517158806324005
194.0,216.0,-5.9934,0.1304,8.0764,-0.0319,0.0191,-0.1185,-2.3510343037047328,0.0,4.902195930480957,-1.2841330766677856,-1.960272011846509e-33,1.8898415565490723,5.733232009201803,0.0,0.1752702295780182,-1.6249807516681116,-0.0,-0.0072975377552211285,0.6709573864936829,-0.0,0.00641697458922863,1.002410650253296,0.0,-0.0004558609798550606
194.0,216.0,-5.9934,0.1304,8.0764,-0.0319,0.0191,-0.1185,-2.351046701470846,0.0,4.902508735656738,-1.284092903137207,-4.7338258345266316e-39,1.8740642070770264,5.733204114228048,0.0,0.17788773775100708,-1.62494403520693,-0.0,-0.0034477324225008488,0.6709414720535278,-0.0,0.0025615880731493235,1.0024229288101196,0.0,-0.0035759294405579567
194.0,216.0,-5.9934,0.1304,8.0764,-0.0319,0.0191,-0.1185,-2.3510548077025355,0.0,4.95890998840332,-1.284161925315857,-0.0,1.8554232120513916,5.7332122204597376,0.0,0.18742665648460388,-1.6249125639544886,-0.0,0.004865060094743967,0.6709333062171936,-0.0,0.0009631761349737644,1.0024147033691406,0.0,-0.00996128935366869
194.0,216.0,-5.9934,0.1304,8.0764,-0.0319,0.0191,-0.1185,-2.35107483486318,0.0,4.912868976593018,-1.2841293811798096,-0.0,1.8708539009094238,5.7332403538520715,0.0,0.17779919505119324,-1.624936882649557,-0.0,-0.00039089214988052845,0.670985221862793,-0.0,0.000554471742361784,1.0024147033691406,0.0,0.009968535974621773
194.0,216.0,-5.9934,0.1304,8.0764,-0.0319,0.0191,-0.1185,-2.351018568078512,0.0,4.910362243652344,-1.2840969562530518,-0.0,1.8134055137634277,5.733196246414938,0.0,0.18658138811588287,-1.624936882649557,-0.0,0.006377477198839188,0.6709612011909485,-0.0,0.01391308568418026,1.002394676208496,0.0,0.05239905044436455
194.0,216.0,-5.9934,0.1304,8.0764,-0.0319,0.0191,-0.1185,-2.351034780541891,0.0,4.897147178649902,-1.284121036529541,-0.0,1.8769938945770264,5.733208167343893,0.0,0.1900937259197235,-1.6249201933490198,-0.0,-0.004691500216722488,0.6709369421005249,-0.0,0.0004599209933076054,1.0023987293243408,0.0,0.004854481667280197
194.0,216.0,-5.9934,0.1304,8.0764,-0.0319,0.0191,-0.1185,-2.351046701470846,0.0,4.9318647384643555,-1.2841050624847412,-0.0,1.902552604675293,5.733164298325338,0.0,0.17731010913848877,-1.624976936970846,-0.0,-0.008769286796450615,0.6709693074226379,-0.0,0.0047357226721942425,1.0023983716964722,0.0,-0.05114169046282768
194.0,216.0,-5.9934,0.1304,8.0764,-0.0319,0.0191,-0.1185,-2.350982805291647,0.0,4.869756698608398,-1.2841050624847412,-0.0,1.8480582237243652,5.733176219254293,0.0,0.17634040117263794,-1.6249764601336878,-0.0,0.0036650365218520164,0.6710096597671509,-0.0,0.008504429832100868,1.0024389028549194,0.0,-0.018664604052901268
194.0,216.0,-5.9934,0.1304,8.0764,-0.0319,0.0191,-0.1185,-2.351062913934225,0.0,4.94589376449585,-1.284080982208252,-0.0,1.8761125802993774,5.733164059906759,0.0,0.17670808732509613,-1.6249807516681116,-0.0,-0.008798659779131413,0.6709492206573486,-0.0,0.0007698982954025269,1.0024266242980957,0.0,-0.010758102871477604
194.0,216.0,-5.9934,0.1304,8.0764,-0.0319,0.0191,-0.1185,-2.3510428867735804,0.0,4.90932559967041,-1.2841651439666748,-0.0,1.89088773727417,5.733160126000204,0.0,0.18851935863494873,-1.6249406973468226,-0.0,-0.013421290554106236,0.6709451675415039,-0.0,-0.002623157110065222,1.0024266242980957,0.0,0.010369371622800827
194.0,216.0,-5.9934,0.1304,8.0764,-0.0319,0.0191,-0.1185,-2.3510667286314906,0.0,4.896712779998779,-1.284080982208252,-0.0,1.8636091947555542,5.733192193299093,0.0,0.17710468173027039,-1.6249731222735804,-0.0,-0.007517420686781406,0.6708929538726807,-0.0,0.001986074959859252,1.0024347305297852,0.0,-0.01319464948028326
194.0,216.0,-5.9934,0.1304,8.0764,-0.0319,0.0191,-0.1185,-2.3510266743102015,0.0,4.911886215209961,-1.2840969562530518,-0.0,1.8868464231491089,5.733180272370138,0.0,0.1883368194103241,-1.6249521414386194,-0.0,-0.005546675529330969,0.6709771156311035,-0.0,0.001599473413079977,1.002410650253296,0.0,-0.011719761416316032
202.0,222.0,-5.7829,-0.0742,8.0399,-0.0334,0.0195,-0.1045,-2.35105099300527,0.0,4.885106563568115,-1.2841088771820068,-0.0,1.8768621683120728,5.733195888787069,0.0,0.17416518926620483,-1.6249850432025355,-0.0,-0.0026002246886491776,0.6709210276603699,-0.0,0.0014201534213498235,1.002422571182251,0.0,-0.002203366020694375
202.0,222.0,-5.7829,-0.0742,8.0399,-0.0334,0.0195,-0.1045,-2.351039072076315,0.0,4.925823211669922,-1.2841413021087646,-0.0,1.8679344654083252,5.733172046929159,0.0,0.17802181839942932,-1.6249645392047327,-0.0,0.0050079431384801865,0.6709532737731934,-0.0,-0.007871819660067558,1.0024749040603638,0.0,0.003630905644968152
202.0,222.0,-5.7829,-0.0742,8.0399,-0.0334,0.0195,-0.1045,-2.351086755792135,0.0,4.880434989929199,-1.2840850353240967,-0.0,1.8852766752243042,5.733224141388693,0.0,0.16800586879253387,-1.6250007788287562,-0.0,-0.0032002292573451996,0.6709611415863037,-0.0,0.015027821063995361,1.0024306774139404,0.0,0.002251759171485901
202.0,222.0,-5.7829,-0.0742,8.0399,-0.0334,0.0195,-0.1045,-2.3510905704894007,0.0,4.911209583282471,-1.2841248512268066,-0.0,1.912366271018982,5.733228194504537,0.0,0.1754535436630249,-1.624960724507467,-0.0,-0.004482780583202839,0.670981228351593,-0.0,-0.008071943186223507,1.0024827718734741,0.0,0.023958493024110794
202.0,222.0,-5.7829,-0.0742,8.0399,-0.0334,0.0195,-0.1045,-2.351102491418356,0.0,4.885402679443359,-1.2841289043426514,-0.0,1.8631253242492676,5.733240115433492,0.0,0.1909223049879074,-1.6249807516681116,-0.0,-0.0014262807089835405,0.6709651947021484,-0.0,0.007518976926803589,1.0024183988571167,0.0003625460958573967,0.03528941422700882
202.0,222.0,-5.7829,-0.0742,8.0399,-0.0334,0.0195,-0.1045,-2.3510824642577113,0.0,4.909153938293457,-1.2841248512268066,-0.0,1.866808533668518,5.733256208687582,0.0,0.17391785979270935,-1.624993149434225,-0.0,-0.008884993381798267,0.671001672744751,-0.0,-0.004726983606815338,1.0024827718734741,0.00045251904521137476,0.009812479838728905
202.0,222.0,-5.7829,-0.0742,8.0399,-0.0334,0.0195,-0.1045,-2.351039072076315,0.0,4.939370155334473,-1.2841050624847412,-0.0,1.8726392984390259,5.733228194504537,0.0,0.18059751391410828,-1.624932591115133,-0.0,0.004671718459576368,0.6710174083709717,-0.0,0.0011957245878875256,1.0024504661560059,0.0008142066653817892,-0.004962041042745113
202.0,222.0,-5.7829,-0.0742,8.0399,-0.0334,0.0195,-0.1045,-2.3510786495604457,0.0,4.90838098526001,-1.2840850353240967,-0.0,1.8985249996185303,5.733216035157003,0.0,0.17988300323486328,-1.624988857899801,-0.0,-0.004319905769079924,0.6709488034248352,-0.0,0.0016193250194191933,1.0024827718734741,0.0011637001298367977,-0.0005699312314391136
202.0,222.0,-5.7829,-0.0742,8.0399,-0.0334,0.0195,-0.1045,-2.3510786495604457,0.0,4.917593002319336,-1.2841129302978516,-0.0,1.8655712604522705,5.733183967858114,0.0,0.18416474759578705,-1.6250007788287562,-0.0,0.005732307676225901,0.6709611415863037,-0.0,0.0019537245389074087,1.0024664402008057,0.0023142274003475904,-0.013463540002703667
202.0,222.0,-5.7829,-0.0742,8.0399,-0.0334,0.0195,-0.1045,-2.351131101647848,0.0,4.938608169555664,-1.2840607166290283,-0.0,1.8824992179870605,5.7331604836280725,0.0,0.19116784632205963,-1.6249402205096644,-0.0,0.0025953107979148626,0.670985221862793,-0.0,0.007379704620689154,1.002522587776184,0.005657309200614691,0.015420526266098022
202.0,222.0,-5.7829,-0.0742,8.0399,-0.0334,0.0195,-0.1045,-2.3510505161681117,0.0,4.898197174072266,-1.2841129302978516,-0.0,1.8887522220611572,5.733192193299093,0.0,0.18056365847587585,-1.6249764601336878,-0.0,-0.0037044398486614227,0.6710052490234375,-0.0,0.005474158562719822,1.002545952796936,0.010958057828247547,0.029378721490502357
202.0,222.0,-5.7829,-0.0742,8.0399,-0.0334,0.0195,-0.1045,-2.35105099300527,0.0,4.889822959899902,-1.2840890884399414,-0.0,1.8883222341537476,5.7332002995307825,0.0,0.17063578963279724,-1.6250289122210901,-0.0,-0.0011649546213448048,0.6709770560264587,-0.0,0.015154187567532063,1.0026741027832031,0.00939189177006483,0.01402160245925188
202.0,222.0,-5.7829,-0.0742,8.0399,-0.0334,0.0195,-0.1045,-2.351102491418356,0.0,4.873226165771484,-1.2841050624847412,-0.0,1.8771759271621704,5.7332002995307825,0.0,0.1826663613319397,-1.6249807516681116,-0.0,0.004848565440624952,0.670957088470459,-0.0,0.007943886332213879,1.0026979446411133,0.008899831213057041,-0.05111786723136902
202.0,222.0,-5.7829,-0.0742,8.0399,-0.0334,0.0195,-0.1045,-2.3510667286314906,0.0,4.9300031661987305,-1.2841013669967651,-0.0,1.8768301010131836,5.733196604042806,0.0,0.16936075687408447,-1.6250208059894007,-0.0,-0.0009245231049135327,0.671009361743927,-0.0,0.004509124904870987,1.0027577877044678,0.00955671165138483,0.01583603024482727
209.0,217.0,-5.9468,0.3583,7.9956,-0.0266,0.0348,-0.124,-2.3510943851866664,0.0,4.922924995422363,-1.2841129302978516,-0.0,1.8983619213104248,5.733176457672872,0.0,0.18604828417301178,-1.6250208059894007,-0.0,0.0013934217859059572,0.6709451675415039,-0.0,-0.0026637394912540913,1.0028258562088013,0.011223250068724155,0.013194950297474861
209.0,217.0,-5.9468,0.3583,7.9956,-0.0266,0.0348,-0.124,-2.3511063061156214,0.0,4.890233516693115,-1.2840608358383179,-0.0,1.8470237255096436,5.733144151955404,0.0,0.1813686490058899,-1.6249683539019983,-0.0,-0.00187740009278059,0.6709128618240356,-0.0,0.007121472619473934,1.0028972625732422,0.01015565637499094,-0.013625051826238632
209.0,217.0,-5.9468,0.3583,7.9956,-0.0266,0.0348,-0.124,-2.351058622399801,0.0,4.952652454376221,-1.2840768098831177,-0.0,1.8657078742980957,5.733204352646627,0.0,0.17610502243041992,-1.6249764601336878,-0.0,0.00025890785036608577,0.6709492206573486,-0.0,0.0021103452891111374,1.0029934644699097,0.008909734897315502,-0.044161710888147354
209.0,217.0,-5.9468,0.3583,7.9956,-0.0266,0.0348,-0.124,-2.351046701470846,0.0,4.931427478790283,-1.2840932607650757,-0.0,1.8612180948257446,5.733176219254293,0.0,0.1791495680809021,-1.6249926725970667,-0.0,-0.006889434531331062,0.6709852814674377,-0.0,0.005081772804260254,1.0029971599578857,0.007184647489339113,-0.0429992601275444
209.0,217.0,-5.9468,0.3583,7.9956,-0.0266,0.0348,-0.124,-2.3510824642577113,0.0,4.883389472961426,-1.2840524911880493,-0.0,1.8962376117706299,5.733168351441183,0.0,0.18938332796096802,-1.6249402205096644,-0.0,-0.006909667514264584,0.6709651947021484,-0.0,0.006773821078240871,1.0030931234359741,0.005735838785767555,-0.002857164479792118
209.0,217.0,-5.9468,0.3583,7.9956,-0.0266,0.0348,-0.124,-2.3510271511473597,0.0,4.900832176208496,-1.2841050624847412,-0.0,1.8330910205841064,5.733200418740072,0.0,0.1868939995765686,-1.6249926725970667,-0.0,0.0021064714528620243,0.6709611415863037,-0.0,0.004068597685545683,1.0031368732452393,0.003963427152484655,-0.052328672260046005
209.0,217.0,-5.9468,0.3583,7.9956,-0.0266,0.0348,-0.124,-2.351062913934225,0.0,4.923704624176025,-1.284040093421936,-0.0,1.8913366794586182,5.733196246414938,0.0,0.17229430377483368,-1.6250084082232874,-0.0,-0.0006699657533317804,0.6709170341491699,-0.0,0.013121658936142921,1.0030927658081055,0.002344752661883831,-0.01995893195271492
209.0,217.0,-5.9468,0.3583,7.9956,-0.0266,0.0348,-0.124,-2.3510824642577113,0.0,4.8679375648498535,-1.2841129302978516,-0.0,1.9002306461334229,5.7332085249717615,0.0,0.18651697039604187,-1.6249645392047327,-0.0,-0.015360658057034016,0.6709689497947693,-0.0,0.0010536930058151484,1.0031049251556396,0.0009495356352999806,-0.020676935091614723
209.0,217.0,-5.9468,0.3583,7.9956,-0.0266,0.0348,-0.124,-2.351039072076315,0.0,4.894982814788818,-1.2841495275497437,-0.0,1.8710930347442627,5.733164298325338,0.0,0.18548133969306946,-1.6250289122210901,-0.0,-0.013342444784939289,0.670928955078125,-0.0,-0.0006917283171787858,1.0030931234359741,0.000581100583076477,0.01839454099535942
209.0,217.0,-5.9468,0.3583,7.9956,-0.0266,0.0348,-0.124,-2.351039072076315,0.0,4.91130256652832,-1.2841010093688965,-0.0,1.862375020980835,5.733188020973959,0.0,0.18032774329185486,-1.624936882649557,-0.0,-0.005582062061876059,0.670985221862793,-0.0,0.004706287756562233,1.0030611753463745,0.00030648111714981496,0.026212207973003387
209.0,217.0,-5.9468,0.3583,7.9956,-0.0266,0.0348,-0.124,-2.3510667286314906,0.0,4.920869827270508,-1.2840566635131836,-0.0,1.8576524257659912,5.733200418740072,0.0,0.18474432826042175,-1.6249807516681116,-0.0,-0.01431660819798708,0.6709210276603699,-0.0,0.004911424126476049,1.0030771493911743,0.0001846817322075367,0.03036314807832241
209.0,217.0,-5.9468,0.3583,7.9956,-0.0266,0.0348,-0.124,-2.351039072076315,0.0,4.854372501373291,-1.2841211557388306,-0.0,1.8761982917785645,5.733152377396383,0.0,0.19302189350128174,-1.6249764601336878,-0.0,0.009355742484331131,0.6709010601043701,-0.0,0.0048413691110908985,1.0030406713485718,-0.0001738838036544621,0.013087442144751549
209.0,217.0,-5.9468,0.3583,7.9956,-0.0266,0.0348,-0.124,-2.351102491418356,0.0,4.922396183013916,-1.2841535806655884,4.614896897692233e-05,1.8565623760223389,5.733204471855917,0.0,0.1892416775226593,-1.6249564329730433,-0.0,-0.0038584545254707336,0.6709573864936829,-0.0,0.002652626484632492,1.0030652284622192,-0.0008152322261594236,0.011915259063243866
209.0,217.0,-5.9468,0.3583,7.9956,-0.0266,0.0348,-0.124,-2.35107483486318,0.0,4.9422993659973145,-1.2840163707733154,8.110345515888184e-05,1.8701850175857544,5.7332002995307825,0.0,0.18246272206306458,-1.624976936970846,-0.0,-0.007366667967289686,0.6709691882133484,-0.0,0.002233191393315792,1.003021001815796,-0.0012500977609306574,0.028182772919535637
203.0,216.0,-6.1322,-0.1155,8.4814,-0.0434,0.0339,-0.117,-2.3510147533812464,0.0,4.87957239151001,-1.284048318862915,0.0008283266797661781,1.894141674041748,5.733144509583273,0.0,0.18690747022628784,-1.6249688307391565,-0.0,0.005096456501632929,0.6709251403808594,-0.0,0.011519362218677998,1.0029971599578857,-0.0009263628744520247,0.0016802353784441948
203.0,216.0,-6.1322,-0.1155,8.4814,-0.0434,0.0339,-0.117,-2.350982805291647,0.0,4.925442695617676,-1.284072995185852,0.0014291390543803573,1.935831069946289,5.733192550926962,0.0,0.16560107469558716,-1.624988857899801,-0.0,-0.012794587761163712,0.6709772944450378,-0.0,0.0023437165655195713,1.0029771327972412,-0.0007043571677058935,0.0026966887526214123
203.0,216.0,-6.1322,-0.1155,8.4814,-0.0434,0.0339,-0.117,-2.3510028324522914,0.0,4.922010898590088,-1.284033179283142,0.0021121727768331766,1.8855774402618408,5.733164536743917,0.0,0.17794010043144226,-1.6250093618976038,-0.0,-0.009314250200986862,0.6709730625152588,-0.0,-0.0022515873424708843,1.0029852390289307,-0.0006751694018021226,0.045861076563596725
203.0,216.0,-6.1322,-0.1155,8.4814,-0.0434,0.0339,-0.117,-2.3510343037047328,0.0,4.881641387939453,-1.2840771675109863,0.0023432925809174776,1.8724912405014038,5.733116614609518,0.0,0.17604371905326843,-1.6249855200396937,-0.0,0.0009019314311444759,0.6709573864936829,-0.0,0.0014456503558903933,1.0030012130737305,-0.0005500289262272418,0.041376568377017975
203.0,216.0,-6.1322,-0.1155,8.4814,-0.0434,0.0339,-0.117,-2.351086755792135,0.0,4.928332805633545,-1.2839609384536743,0.00201765401288867,1.9079797267913818,5.733164536743917,-0.0002782070660032332,0.19098055362701416,-1.6249564329730433,-0.0,0.004905614070594311,0.6709050536155701,-0.0,0.00890329573303461,1.0030012130737305,-0.00049114745343104,0.04425705969333649
203.0,216.0,-6.1322,-0.1155,8.4814,-0.0434,0.0339,-0.117,-2.351070543328756,0.0,4.895936489105225,-1.2840170860290527,0.0013109464198350906,1.8561363220214844,5.7331206677253626,-0.00032722469768486917,0.1864868700504303,-1.6249850432025355,-0.0,-0.004532366991043091,0.6709932684898376,-0.0,0.010515149682760239,1.0029815435409546,-0.0004550657467916608,0.01271609403192997
203.0,216.0,-6.1322,-0.1155,8.4814,-0.0434,0.0339,-0.117,-2.35109867672109,0.0,4.928108215332031,-1.2840453386306763,0.0007471158751286566,1.8978335857391357,5.733140694886007,-0.0005756110767833889,0.1693827211856842,-1.6249564329730433,-0.0,-0.008277668617665768,0.6709372997283936,-0.0,6.035633850842714e-05,1.0029287338256836,-0.0003966913791373372,-0.008181235752999783
203.0,216.0,-6.1322,-0.1155,8.4814,-0.0434,0.0339,-0.117,-2.35109867672109,-0.0008955413941293955,4.926842212677002,-1.2840290069580078,0.0005045511643402278,1.9023528099060059,5.733100878983297,-0.0006284526316449046,0.1868809461593628,-1.6249564329730433,-0.0,0.00014582043513655663,0.6709893345832825,-0.0,-0.005188854411244392,1.0029209852218628,-0.0004276459221728146,0.010071451775729656
203.0,216.0,-6.1322,-0.1155,8.4814,-0.0434,0.0339,-0.117,-2.3511063061156214,-0.0010993506293743849,4.902527809143066,-1.284040927886963,0.0004067907575517893,1.9144964218139648,5.733084904938497,-0.0006395013188011944,0.18235071003437042,-1.6249492804156702,-0.0,0.0104584451764822,0.6709251403808594,-0.0,0.007153274957090616,1.0029774904251099,-0.0006024637259542942,-0.043783701956272125
203.0,216.0,-6.1322,-0.1155,8.4814,-0.0434,0.0339,-0.117,-2.3510905704894007,-0.0007973240572027862,4.928369998931885,-1.2840330600738525,0.0003407694457564503,1.861682415008545,5.733109104424276,-0.0005873481277376413,0.1803898811340332,-1.6249082724200647,-0.0,-0.01030261255800724,0.6709730625152588,-0.0,0.005951580125838518,1.0029492378234863,-0.0005265941144898534,0.0026629790663719177
203.0,216.0,-6.1322,-0.1155,8.4814,-0.0434,0.0339,-0.117,-2.35113062481069,-0.0005778099875897169,4.945704936981201,-1.284009337425232,0.0003350495535414666,1.8285942077636719,5.7331054089363,-0.0005252562114037573,0.17710572481155396,-1.6249483267413538,-0.0,0.0017372495494782925,0.6708929538726807,-0.0,0.012845778837800026,1.0029934644699097,-0.00042099840356968343,0.025306489318609238
203.0,216.0,-6.1322,-0.1155,8.4814,-0.0434,0.0339,-0.117,-2.3510943851866664,-0.0004226918681524694,4.867186546325684,-1.2839932441711426,0.00026281160535290837,1.8874489068984985,5.7330407975013635,-0.00042822828982025385,0.18554067611694336,-1.624936882649557,-0.0,0.005853636655956507,0.6709129810333252,-0.0,0.010077291168272495,1.0029815435409546,-0.00033218905446119606,0.03167463839054108
203.0,216.0,-6.1322,-0.1155,8.4814,-0.0434,0.0339,-0.117,-2.351034780541891,-0.00035185751039534807,4.924304962158203,-1.2839818000793457,0.002225601114332676,1.9120030403137207,5.7330894348915,-0.0004325667687226087,0.18558725714683533,-1.6249406973468226,-0.0,0.000581087137106806,0.6709169745445251,-0.0,0.0023816695902496576,1.0029774904251099,-0.0002868149022106081,0.028726980090141296
203.0,216.0,-6.1322,-0.1155,8.4814,-0.0434,0.0339,-0.117,-2.35109867672109,-0.0003013593377545476,4.929869174957275,-1.2839126586914062,0.004384018015116453,1.8732705116271973,5.7330894348915,-0.00041031971340999007,0.17333149909973145,-1.6249521414386194,-0.0,0.010815266519784927,0.6709532141685486,-0.0,-0.0027831881307065487,1.0029451847076416,-9.60198522079736e-05,-0.023229354992508888
198.0,216.0,-6.137,0.1615,8.202,-0.0333,0.0111,-0.1193,-2.351062913934225,-0.00026353748398832977,4.940742492675781,-1.2839657068252563,0.006003230344504118,1.8801629543304443,5.7330206511314294,-0.0005002138204872608,0.16817760467529297,-1.624932591115133,-0.0,-0.003780790138989687,0.6709451675415039,-0.0,0.012316495180130005,1.0029733180999756,-8.276951120933518e-05,0.0028705180156975985
198.0,216.0,-6.137,0.1615,8.202,-0.0333,0.0111,-0.1193,-2.3511187038817347,-0.00022576040646526963,4.860624313354492,-1.2838574647903442,0.006696079857647419,1.8639763593673706,5.733064996987142,-0.0005021520773880184,0.1786474585533142,-1.62494403520693,-0.0,-0.011562912724912167,0.6709169745445251,-0.0,0.002825826406478882,1.0029287338256836,-3.4955042792716995e-05,-0.0011928454041481018
198.0,216.0,-6.137,0.1615,8.202,-0.0333,0.0111,-0.1193,-2.3511187038817347,-0.0001654385996516794,4.91306734085083,-1.2838337421417236,0.006205900106579065,1.8671571016311646,5.733008730202474,-0.0006443904130719602,0.17266139388084412,-1.6249850432025355,-0.0,-0.005100318230688572,0.6709771156311035,-0.0,0.005460918880999088,1.003005027770996,-7.148857616989801e-10,-0.025881147012114525
198.0,216.0,-6.137,0.1615,8.202,-0.0333,0.0111,-0.1193,-2.351126810113424,-0.00023350126866716892,4.890120029449463,-1.283793330192566,0.005164066329598427,1.8289577960968018,5.732960450440206,-0.0005850892630405724,0.19420570135116577,-1.624960724507467,-0.0,0.00687834620475769,0.6709252595901489,-0.0,0.004415028728544712,1.0029652118682861,-1.72636506073242e-15,-0.03544722497463226
198.0,216.0,-6.137,0.1615,8.202,-0.0333,0.0111,-0.1193,-2.3511544666686,-0.0017263587797060609,4.909568786621094,-1.2837613821029663,0.0038221613503992558,1.863983392715454,5.732940423279562,-0.0007119636284187436,0.18647609651088715,-1.6250088850604456,-0.0,0.011543664149940014,0.6709536910057068,-0.0,0.0001387221273034811,1.002993106842041,-4.168968476840952e-21,-0.0005291581619530916
198.0,216.0,-6.137,0.1615,8.202,-0.0333,0.0111,-0.1193,-2.35117830852651,-0.002304614754393697,4.942885875701904,-1.2837892770767212,0.002061952371150255,1.8907501697540283,5.732976424485006,-0.0016741743311285973,0.18299975991249084,-1.624892536793844,-0.0,-0.008392986841499805,0.6709732413291931,-0.0,0.012643924914300442,1.002993106842041,-1.350692466373927e-28,0.01210398506373167
198.0,216.0,-6.137,0.1615,8.202,-0.0333,0.0111,-0.1193,-2.351170679131979,-0.0024651456624269485,4.877284526824951,-1.2838025093078613,0.00137277040630579,1.9170023202896118,5.732985126763143,-0.003683528397232294,0.1806272566318512,-1.6249282995807093,-0.0,-0.004067971371114254,0.6709611415863037,-0.0,0.0027753461617976427,1.0029890537261963,-3.2617635613716065e-34,-0.002430310472846031
198.0,216.0,-6.137,0.1615,8.202,-0.0333,0.0111,-0.1193,-2.351166387597555,-0.001987540628761053,4.904041767120361,-1.283790111541748,0.0011304897489026189,1.896969199180603,5.7328932164009,-0.015916239470243454,0.17867083847522736,-1.6249645392047327,-0.0,0.007054161746054888,0.6709414124488831,-0.0,0.003920161165297031,1.0029610395431519,-7.876768732893013e-40,0.04048691317439079
198.0,216.0,-6.137,0.1615,8.202,-0.0333,0.0111,-0.1193,-2.351198812524313,-0.0015779423993080854,4.895747661590576,-1.2837295532226562,0.0008154009701684117,1.871850609779358,5.732761728554525,-0.019711671397089958,0.16595835983753204,-1.6249688307391565,-0.0,-0.012844917364418507,0.6709451675415039,-0.0,-0.004218157380819321,1.0030052661895752,-1.401298464324817e-45,-0.013715540058910847
198.0,216.0,-6.137,0.1615,8.202,-0.0333,0.0111,-0.1193,-2.3512145481505335,-0.0012327074073255062,4.891182899475098,-1.2837378978729248,0.0006761094555258751,1.8727374076843262,5.732605087548055,-0.012060328386723995,0.18484722077846527,-1.6249688307391565,-0.0,-0.011251868680119514,0.670941174030304,-0.0,-0.007411057595163584,1.003021001815796,0.0,-0.024034760892391205
198.0,216.0,-6.137,0.1615,8.202,-0.0333,0.0111,-0.1193,-2.3512350521483363,-0.0014528515748679638,4.890323162078857,-1.2837579250335693,0.0006005944451317191,1.9055917263031006,5.732597815781393,-0.004353802185505629,0.18343865871429443,-1.6249688307391565,-0.0,0.0030029448680579662,0.6709292531013489,-0.0,-0.0027776891365647316,1.0030491352081299,0.0,-0.008013921789824963
198.0,216.0,-6.137,0.1615,8.202,-0.0333,0.0111,-0.1193,-2.351194997827047,-0.0017147510079666972,4.930784225463867,-1.2837942838668823,0.0006005131872370839,1.8886692523956299,5.732617962151327,-0.001665614079684019,0.1795753687620163,-1.6249449888812464,-0.0,-0.011879125609993935,0.6709851622581482,-0.0,0.014629715122282505,1.0029971599578857,0.0,-0.029280846938490868
198.0,216.0,-6.137,0.1615,8.202,-0.0333,0.0111,-0.1193,-2.3512546024718226,-0.0021355284843593836,4.916263580322266,-1.28373384475708,0.000550009950529784,1.8718901872634888,5.7325899479682825,-0.0008884248090907931,0.16743245720863342,-1.6249564329730433,-0.0,0.00323794549331069,0.6709490418434143,-0.0,0.0002595270052552223,1.0030291080474854,0.0,-0.03507571294903755
198.0,216.0,-6.137,0.1615,8.202,-0.0333,0.0111,-0.1193,-2.351222654382223,-0.0015547933289781213,4.9083251953125,-1.2837378978729248,0.0004594731726683676,1.9022045135498047,5.732537853508749,-0.0006486764759756625,0.17948049306869507,-1.6249449888812464,-0.0,-0.0037882921751588583,0.6709452271461487,-0.0,0.019035203382372856,1.0029971599578857,0.0,0.01465011015534401
202.0,220.0,-5.723,0.1573,7.8909,-0.0441,0.0333,-0.1106,-2.3512708149352015,-0.001228874665684998,4.938233852386475,-1.2837419509887695,0.00042687440873123705,1.8888870477676392,5.732557642250814,-0.0005105599411763251,0.18025004863739014,-1.6249564329730433,-0.0,-0.01577994041144848,0.6709492206573486,-0.0,0.006150060798972845,1.0030291080474854,0.0,0.01634601131081581
202.0,220.0,-5.723,0.1573,7.8909,-0.0441,0.0333,-0.1106,-2.351250310937399,-0.0006930965464562178,4.885676860809326,-1.283766269683838,0.0004267373005859554,1.9001156091690063,5.732601988106527,-0.00042095809476450086,0.1877555549144745,-1.624988857899801,-0.0,-0.020033445209264755,0.6709973812103271,-0.0,0.018031705170869827,1.0030012130737305,0.0,0.022565558552742004
202.0,220.0,-5.723,0.1573,7.8909,-0.0441,0.0333,-0.1106,-2.351250310937399,-0.0005686965305358171,4.900726795196533,-1.283713459968567,0.0005178190185688436,1.8665446043014526,5.732566106110372,-0.00035811951966024935,0.18230748176574707,-1.6249125639544886,-0.0,-0.00634895171970129,0.6709730625152588,-0.0,0.0025570073630660772,1.0029488801956177,0.0,-0.019748598337173462
202.0,220.0,-5.723,0.1573,7.8909,-0.0441,0.0333,-0.1106,-2.351262708703512,-0.0004667727625928819,4.9123687744140625,-1.2837176322937012,0.001275917049497366,1.917609453201294,5.732557999878683,-0.00029868067940697074,0.17814397811889648,-1.624976936970846,-0.0,-0.014919506385922432,0.6709771156311035,-0.0,0.010649729520082474,1.0030529499053955,0.0,0.010376940481364727
202.0,220.0,-5.723,0.1573,7.8909,-0.0441,0.0333,-0.1106,-2.3512307606139125,-0.00043642809032462537,4.903019428253174,-1.283685564994812,0.0015929954824969172,1.8879938125610352,5.732618200569906,-0.00026561840786598623,0.17342031002044678,-1.6249492804156702,-0.0,-0.010074055753648281,0.6709810495376587,-0.0,0.009037216193974018,1.002972960472107,0.0,0.017451947554945946
202.0,220.0,-5.723,0.1573,7.8909,-0.0441,0.0333,-0.1106,-2.351278921166891,-0.00029967562295496464,4.917665958404541,-1.2836979627609253,0.0016524597303941846,1.8617093563079834,5.732565748482504,-0.00023914716439321637,0.17764195799827576,-1.6249645392047327,-0.0,-0.009640265256166458,0.6709771156311035,-0.0,0.003194112330675125,1.003005027770996,0.0,0.004544943571090698
202.0,220.0,-5.723,0.1573,7.8909,-0.0441,0.0333,-0.1106,-2.351267000237936,-0.00029968240414746106,4.911314010620117,-1.2837424278259277,0.0016311549115926027,1.9109102487564087,5.732537853508749,-0.0002174749388359487,0.1815173327922821,-1.624936882649557,-0.0,-0.014133070595562458,0.6710052490234375,-0.0,-0.007357962429523468,1.002996802330017,0.0,-0.01827007159590721
202.0,220.0,-5.723,0.1573,7.8909,-0.0441,0.0333,-0.1106,-2.3512426815428675,-0.00032643487793393433,4.902901649475098,-1.2836694717407227,0.001830830704420805,1.9063096046447754,5.732573973923483,-0.00014224537881091237,0.1785116046667099,-1.6249163786517542,-0.0,-0.0021022940054535866,0.6709691286087036,-0.0,0.002745613921433687,1.0030251741409302,8.008677104953676e-05,0.003963543567806482
202.0,220.0,-5.723,0.1573,7.8909,-0.0441,0.0333,-0.1106,-2.3512383900084437,-0.00037799362326040864,4.883936405181885,-1.283642053604126,0.002266187220811844,1.929826021194458,5.7325501320655725,-0.00011461834219517186,0.1874334067106247,-1.6249406973468226,-0.0,-0.009396140463650227,0.670985221862793,-0.0,0.005853468552231789,1.003032922744751,9.123343625105917e-05,-0.017190363258123398
202.0,220.0,-5.723,0.1573,7.8909,-0.0441,0.0333,-0.1106,-2.3513065777220667,-0.0004019170009996742,4.9173736572265625,-1.2836461067199707,0.002366491360589862,1.846523404121399,5.732546078949728,-0.00010647718590917066,0.1873655915260315,-1.624920670186178,-0.0,-0.005424450617283583,0.671001136302948,-0.0,0.00780008640140295,1.0030169486999512,0.00010129674046766013,-0.045324862003326416
202.0,220.0,-5.723,0.1573,7.8909,-0.0441,0.0333,-0.1106,-2.3512469730772914,-0.00040016183629631996,4.976860523223877,-1.2836544513702393,0.0028522706124931574,1.881142497062683,5.732569920807638,-0.00011928058665944263,0.1893734335899353,-1.6249282995807093,-0.0,-0.016425762325525284,0.671025276184082,-0.0,-0.0026345772203058004,1.003012776374817,9.66425723163411e-05,-0.021035602316260338
202.0,220.0,-5.723,0.1573,7.8909,-0.0441,0.0333,-0.1106,-2.351302763024801,-0.00038961542304605246,4.934857368469238,-1.283582091331482,0.0038498989306390285,1.8784770965576172,5.732542025833883,-0.00010961620864691213,0.18070310354232788,-1.624920670186178,-0.0,-0.008675209246575832,0.6710453033447266,-0.0,0.014549890533089638,1.003032922744751,9.105547360377386e-05,-0.006439917720854282
202.0,220.0,-5.723,0.1573,7.8909,-0.0441,0.0333,-0.1106,-2.351250787774557,-0.00036369982990436256,4.948840141296387,-1.2835828065872192,0.004288631025701761,1.8977166414260864,5.732602226525106,-0.00013331725494936109,0.17620337009429932,-1.6249449888812464,-0.0,-0.01225688774138689,0.6709970831871033,-0.0,0.002829408971592784,1.003032922744751,8.72714736033231e-05,-0.05247502028942108
202.0,220.0,-5.723,0.1573,7.8909,-0.0441,0.0333,-0.1106,-2.3512827358641566,-0.00030767382122576237,4.917400360107422,-1.283522367477417,0.0052770753391087055,1.879621982574463,5.732493388443746,-0.00022925010125618428,0.18130937218666077,-1.624932591115133,-0.0,-0.004744707606732845,0.6709649562835693,-0.0,0.009242545813322067,1.003005027770996,8.378946222364902e-05,-0.018139170482754707
203.0,216.0,-6.0114,0.0933,8.1224,-0.0435,0.0344,-0.1147,-2.351267000237936,-0.00026275598793290555,4.8792290687561035,-1.2835185527801514,0.005970101337879896,1.925384759902954,5.732534158020773,-0.0003013921086676419,0.17992296814918518,-1.6249125639544886,-0.0,-0.0031780616845935583,0.6710132956504822,-0.0,-0.0034991358406841755,1.0030090808868408,8.057460217969492e-05,-0.07145936787128448
203.0,216.0,-6.0114,0.0933,8.1224,-0.0435,0.0344,-0.1147,-2.3512827358641566,-0.0002560890279710293,4.906846046447754,-1.2834420204162598,0.007056648842990398,1.9183733463287354,5.732562529831686,-0.0008618409628979862,0.1920696198940277,-1.6249492804156702,-0.0,-0.00028312287759035826,0.6709290146827698,-0.0,0.007522945292294025,1.0030205249786377,7.665320299565792e-05,-0.09968899190425873
203.0,216.0,-6.0114,0.0933,8.1224,-0.0435,0.0344,-0.1147,-2.3513223133482875,-0.00022865970095153898,4.969660758972168,-1.2834384441375732,0.0077896625734865665,1.935683250427246,5.732525813370504,-0.001733647659420967,0.17729681730270386,-1.6249530951129358,-0.0,-0.008496525697410107,0.6709931492805481,-0.0,-0.00013975403271615505,1.002996802330017,7.395385182462633e-05,-0.02441069297492504
203.0,216.0,-6.0114,0.0933,8.1224,-0.0435,0.0344,-0.1147,-2.351278921166891,-0.00020620643044821918,4.9184370040893555,-1.2833828926086426,0.009340847842395306,1.9017413854599,5.732513892441549,-0.0020678339060395956,0.1759604662656784,-1.6249406973468226,-0.0,-0.00024968181969597936,0.6709648966789246,-0.0,-0.0018049513455480337,1.0030369758605957,7.143810216803104e-05,-0.0538020133972168
203.0,216.0,-6.0114,0.0933,8.1224,-0.0435,0.0344,-0.1147,-2.351274629632467,-0.0002142212906619534,4.930626392364502,-1.2832746505737305,0.009238825179636478,1.911130428314209,5.732477772026815,-0.0019644666463136673,0.17132221162319183,-1.6249125639544886,-0.0,-0.009781548753380775,0.6709290146827698,-0.0,-0.010047749616205692,1.003012776374817,8.046478797041345e-06,-0.03190566599369049
203.0,216.0,-6.0114,0.0933,8.1224,-0.0435,0.0344,-0.1147,-2.3512588940062464,-0.00019697946845553815,4.920804500579834,-1.2832667827606201,0.009599613957107067,1.9095474481582642,5.732485997467794,-0.00191300839651376,0.19009210169315338,-1.624908749257223,-0.0,-0.010561646893620491,0.6710171699523926,-0.0,0.00609171949326992,1.003032922744751,1.9431296849337087e-11,-0.13898789882659912
203.0,216.0,-6.0114,0.0933,8.1224,-0.0435,0.0344,-0.1147,-2.3513342342772425,-0.0001775496348273009,4.941330432891846,-1.2832119464874268,0.009880227036774158,1.9448374509811401,5.732486355095663,-0.0018671989673748612,0.1716291308403015,-1.6248844305621546,-0.0,0.014022110030055046,0.6709609031677246,-0.0,-0.004288040567189455,1.003077507019043,6.295493281321512e-19,-0.06422743201255798
203.0,216.0,-6.0114,0.0933,8.1224,-0.0435,0.0344,-0.1147,-2.351262708703512,-0.00016531928849872202,4.933043479919434,-1.2830547094345093,0.010048088617622852,1.9686510562896729,5.732462632447042,-0.0018145126523450017,0.1773754358291626,-1.6249492804156702,-0.0,-0.00415952829644084,0.6710212230682373,-0.0,0.015419967472553253,1.0030611753463745,1.52028760894605e-24,-0.07514660060405731
203.0,216.0,-6.0114,0.0933,8.1224,-0.0435,0.0344,-0.1147,-2.351262708703512,-0.0001546655548736453,4.982900619506836,-1.2830798625946045,0.009845515713095665,1.9068231582641602,5.732401597290792,-0.00156296172644943,0.17821373045444489,-1.6249406973468226,-0.0,-9.547997615300119e-05,0.670985221862793,-0.0,-0.004106942098587751,1.0030369758605957,3.671315241233936e-30,-0.10796436667442322
203.0,216.0,-6.0114,0.0933,8.1224,-0.0435,0.0344,-0.1147,-2.351238866845602,-0.00014530197950080037,4.969279766082764,-1.2829675674438477,0.010168741457164288,1.897489309310913,5.732482659607687,-0.0013389852829277515,0.1730131059885025,-1.6249406973468226,-0.0,-0.0017663936596363783,0.671017050743103,-0.0,0.008543451316654682,1.003021001815796,8.865794494303589e-36,-0.08826116472482681
203.0,216.0,-6.0114,0.0933,8.1224,-0.0435,0.0344,-0.1147,-2.351286550561422,-0.00013444884098134935,4.940423488616943,-1.2828959226608276,0.010429531335830688,1.9128398895263672,5.7323659537132166,-0.0017513413913547993,0.16965486109256744,-1.624960724507467,-0.0,-0.002312623430043459,0.6709690093994141,-0.0,-0.0037533571012318134,1.003032922744751,2.872661851865875e-43,-0.1330186277627945
203.0,216.0,-6.0114,0.0933,8.1224,-0.0435,0.0344,-0.1147,-2.351267000237936,-0.00012731659808196127,4.939779758453369,-1.2828519344329834,0.009655065834522247,1.9736711978912354,5.732398021012106,-0.0026534846983850002,0.18008111417293549,-1.624936882649557,-0.0,-0.0054482039995491505,0.6709571480751038,-0.0,0.00848117470741272,1.0030652284622192,0.0,-0.09934628009796143
203.0,216.0,-6.0114,0.0933,8.1224,-0.0435,0.0344,-0.1147,-2.351274629632467,-0.00012090302334399894,4.912933349609375,-1.2828046083450317,0.008939562365412712,1.9475655555725098,5.732354867249288,-0.0034747153986245394,0.1685754358768463,-1.6249492804156702,-0.0,-0.005868629086762667,0.671057403087616,-0.0,0.013590455055236816,1.0030410289764404,0.0,-0.1290876269340515
203.0,216.0,-6.0114,0.0933,8.1224,-0.0435,0.0344,-0.1147,-2.3512708149352015,-0.0001151045726146549,4.975194931030273,-1.2827363014221191,0.007336890324950218,1.9557851552963257,5.732363211899557,-0.004584559239447117,0.17284053564071655,-1.624908749257223,-0.0,0.004811456892639399,0.6709731221199036,-0.0,-0.012635805644094944,1.0030492544174194,0.0,-0.12570971250534058
199.0,211.0,-6.408,0.0957,7.8909,-0.0409,-0.0049,-0.1263,-2.3512708149352015,-0.00010818639566423371,4.969837665557861,-1.2826606035232544,0.005732052493840456,1.999786615371704,5.7323025343711755,-0.00680282199755311,0.15925729274749756,-1.624936882649557,-0.0,-0.0006397927645593882,0.6709690690040588,-0.0,0.004588085692375898,1.003021001815796,2.6455263650859706e-05,-0.12973174452781677
199.0,211.0,-6.408,0.0957,7.8909,-0.0409,-0.0049,-0.1263,-2.3512946567931117,-0.00010352008393965662,4.925496578216553,-1.2826968431472778,0.004237929824739695,1.94678795337677,5.732166516571798,-0.010964686051011086,0.175631582736969,-1.6249492804156702,-0.0,-0.0022388023789972067,0.6710330247879028,-0.0,0.006969415117055178,1.0030169486999512,2.449838211759925e-05,-0.12981516122817993
199.0,211.0,-6.408,0.0957,7.8909,-0.0409,-0.0049,-0.1263,-2.3512984714903773,-9.92395871435292e-05,4.956269264221191,-1.2826652526855469,0.00304307509213686,1.9464819431304932,5.732118713646688,-0.014028901234269142,0.1639721393585205,-1.6249726454364222,-0.0,-0.004095662385225296,0.6709809899330139,-0.0,0.007283009588718414,1.003032922744751,2.3537366359960288e-05,-0.11279456317424774
199.0,211.0,-6.408,0.0957,7.8909,-0.0409,-0.0049,-0.1263,-2.351278921166891,-9.529908857075498e-05,4.962209701538086,-1.2826130390167236,0.0020212826784700155,1.9671730995178223,5.732018816262045,-0.017339179292321205,0.1709822416305542,-1.624936882649557,-0.0,0.01598186232149601,0.6710249781608582,-0.0,-0.0018030526116490364,1.0030529499053955,2.2648877347819507e-05,-0.10760322213172913
199.0,211.0,-6.408,0.0957,7.8909,-0.0409,-0.0049,-0.1263,-2.3512708149352015,-6.41187943983823e-05,4.964902877807617,-1.282584547996521,0.0010461877100169659,1.9280904531478882,5.73187147358016,-0.023584412410855293,0.15809214115142822,-1.6248725096331995,-0.0,0.02156916633248329,0.6709610223770142,-0.0,0.005653314758092165,1.003032922744751,2.1563595510087907e-05,-0.15221981704235077
199.0,211.0,-6.408,0.0957,7.8909,-0.0409,-0.0049,-0.1263,-2.3513065777220667,-6.149018736323342e-05,4.95582389831543,-1.2826170921325684,0.0008598122512921691,1.9397990703582764,5.73175214508132,-0.02937908284366131,0.17994436621665955,-1.6249287764178675,-0.0,-0.0036267356481403112,0.6709891557693481,-0.0,0.012956967577338219,1.0030169486999512,2.0815516108996235e-05,-0.11489814519882202
199.0,211.0,-6.408,0.0957,7.8909,-0.0409,-0.0049,-0.1263,-2.3512708149352015,-5.9068785049021244e-05,4.945914268493652,-1.2826162576675415,0.0007506739348173141,1.959761381149292,5.73150001743392,-0.03905376419425011,0.16336581110954285,-1.6249249617206019,-0.0,0.002066647633910179,0.6709770560264587,-0.0,0.024568282067775726,1.003024697303772,2.0117608073633164e-05,-0.13873519003391266
199.0,211.0,-6.408,0.0957,7.8909,-0.0409,-0.0049,-0.1263,-2.351286550561422,-5.6830886023817584e-05,4.981929302215576,-1.2825924158096313,0.0007436916348524392,1.9499342441558838,5.731240379601278,-0.053086284548044205,0.15580761432647705,-1.624908749257223,-0.0,0.001649203011766076,0.6710251569747925,-0.0,0.010945899412035942,1.003036618232727,1.0493119262378059e-08,-0.1735859215259552
199.0,211.0,-6.408,0.0957,7.8909,-0.0409,-0.0049,-0.1263,-2.3513065777220667,-5.409812001744285e-05,4.959305763244629,-1.2825565338134766,0.0010252402862533927,1.9557416439056396,5.730738627701559,-0.07510802149772644,0.13549184799194336,-1.624892536793844,-0.0,0.011891905218362808,0.6710770130157471,-0.0,0.019376397132873535,1.0030694007873535,3.399637143418875e-16,-0.18671198189258575
199.0,211.0,-6.408,0.0957,7.8909,-0.0409,-0.0049,-0.1263,-2.351302763024801,-5.2214996685506776e-05,4.959005355834961,-1.2825689315795898,0.0010204709833487868,2.015373468399048,5.730167138367452,-0.09259206801652908,0.12081515789031982,-1.6249573866473597,-0.0,0.013041665777564049,0.6710250973701477,-0.0,-0.005432893522083759,1.0030488967895508,8.209722646071638e-22,-0.17409788072109222
199.0,211.0,-6.408,0.0957,7.8909,-0.0409,-0.0049,-0.1263,-2.351278921166891,-5.045855141361244e-05,5.006076812744141,-1.2825849056243896,0.0011387858539819717,1.9310343265533447,5.729596125870504,-0.10242113471031189,0.12805916368961334,-1.6249006430255335,-0.0,0.009372536092996597,0.6709689497947693,-0.0,0.01943597011268139,1.0030652284622192,1.982551129194254e-27,-0.19396737217903137
199.0,211.0,-6.408,0.0957,7.8909,-0.0409,-0.0049,-0.1263,-2.351314683953756,-9.246664944839722e-08,4.967349052429199,-1.2825363874435425,0.001281051547266543,1.9823048114776611,5.728966104775228,-0.09572570770978928,0.11872386932373047,-1.6248930136310022,-0.0,0.006241112016141415,0.6710370182991028,-0.0,0.0023967046290636063,1.0030128955841064,4.787627962451893e-33,-0.10092788934707642
199.0,211.0,-6.408,0.0957,7.8909,-0.0409,-0.0049,-0.1263,-2.351290842095846,-2.9958017979585336e-15,5.004428863525391,-1.2825689315795898,0.001151586533524096,1.9718308448791504,5.728247630387106,-0.09043813496828079,0.1217740848660469,-1.624892536793844,-0.0,0.0030552127864211798,0.6709570288658142,-0.0,0.01627224124968052,1.003032922744751,1.5511252961304265e-40,-0.16325411200523376
199.0,211.0,-6.408,0.0957,7.8909,-0.0409,-0.0049,-0.1263,-2.351262708703512,-7.234509520485276e-21,4.958286285400391,-1.2826095819473267,0.0008751305285841227,1.968664526939392,5.7276532528694055,-0.11015257239341736,0.1321607083082199,-1.6248963514911097,-0.0,-0.0012525820638984442,0.6709691882133484,-0.0,0.01752225123345852,1.0029689073562622,0.0,-0.16278646886348724
204.0,222.0,-6.4768,0.1424,8.4754,-0.0182,-0.1941,-0.1194,-2.3513342342772425,-1.7470491089293627e-26,4.9773335456848145,-1.2825044393539429,0.0006403773440979421,1.9609055519104004,5.7269149897392175,-0.13511274755001068,0.10360188782215118,-1.624892536793844,-0.0,0.012481855228543282,0.670985221862793,-0.0,0.019666297361254692,1.003005027770996,0.0,-0.15763550996780396
204.0,222.0,-6.4768,0.1424,8.4754,-0.0182,-0.1941,-0.1194,-2.351278921166891,-4.218917697647125e-32,4.964515686035156,-1.2825486660003662,0.0004906886606477201,1.9434393644332886,5.726080643921652,-0.14319002628326416,0.10055403411388397,-1.6249249617206019,-0.0,0.021475056186318398,0.6710169315338135,-0.0,-0.0016807682113721967,1.0030250549316406,0.0,-0.1277858316898346
204.0,222.0,-6.4768,0.1424,8.4754,-0.0182,-0.1941,-0.1194,-2.351290842095846,-1.366875567548678e-39,4.989818096160889,-1.2825729846954346,0.00037910594255663455,1.967180609703064,5.724903571396627,-0.14207325875759125,0.10495670884847641,-1.6249044577227991,-0.0,-0.016516584903001785,0.670941174030304,-0.0,0.0007570722373202443,1.0030410289764404,0.0,-0.22787007689476013
204.0,222.0,-6.4768,0.1424,8.4754,-0.0182,-0.1941,-0.1194,-2.3512946567931117,-2.802596928649634e-45,4.971652984619141,-1.2825363874435425,0.0010020455811172724,1.9469475746154785,5.72406171539382,-0.15346470475196838,0.11302410811185837,-1.624892536793844,-0.0,0.009821428917348385,0.6710051894187927,-0.0,0.0043306355364620686,1.0030733346939087,0.0,-0.18511943519115448
204.0,222.0,-6.4768,0.1424,8.4754,-0.0182,-0.1941,-0.1194,-2.351302763024801,0.0,4.969108581542969,-1.2825331687927246,0.0016639104578644037,1.9475970268249512,5.723044383316793,-0.1771010160446167,0.095622718334198,-1.6249287764178675,-0.0,0.017517514526844025,0.6709891557693481,-0.0,0.012077992781996727,1.002996802330017,0.0,-0.18885526061058044
204.0,222.0,-6.4768,0.1424,8.4754,-0.0182,-0.1941,-0.1194,-2.351314683953756,0.0,4.9975104331970215,-1.282561182975769,0.0020718334708362818,1.9741673469543457,5.721951710968771,-0.18448276817798615,0.0921768993139267,-1.6249130407916468,-0.0,-0.00022340845316648483,0.6709173321723938,-0.0,-3.314809873700142e-06,1.0030291080474854,0.0,-0.20716184377670288
204.0,222.0,-6.4768,0.1424,8.4754,-0.0182,-0.1941,-0.1194,-2.3512827358641566,0.0,4.972675800323486,-1.2824726104736328,0.0026402301155030727,1.934856653213501,5.720350730210104,-0.21534883975982666,0.0733289122581482,-1.6249287764178675,-0.0,0.004562004469335079,0.6709892749786377,-0.0,0.013335322961211205,1.0030369758605957,0.0,-0.21716171503067017
204.0,222.0,-6.4768,0.1424,8.4754,-0.0182,-0.1941,-0.1194,-2.351286550561422,0.0,4.961911201477051,-1.2824969291687012,0.0032611878123134375,1.9804797172546387,5.718877422600546,-0.23231109976768494,0.07244884967803955,-1.6248725096331995,-0.0,0.007734567392617464,0.6709610819816589,-0.0,-0.002767005003988743,1.0030090808868408,0.0,-0.1620876044034958
204.0,222.0,-6.4768,0.1424,8.4754,-0.0182,-0.1941,-0.1194,-2.351302763024801,0.0,4.971439838409424,-1.2824894189834595,0.0038702143356204033,1.9610364437103271,5.717561471253195,-0.2307589054107666,0.07198058813810349,-1.624908749257223,-0.0,0.0046130153350532055,0.6709852814674377,-0.0,-0.0012360535329207778,1.002993106842041,0.0,-0.19577358663082123
204.0,222.0,-6.4768,0.1424,8.4754,-0.0182,-0.1941,-0.1194,-2.3512984714903773,0.0,4.970555305480957,-1.282449722290039,0.004417829215526581,1.985215187072754,5.7160085318382166,-0.24591702222824097,0.07008103281259537,-1.6249130407916468,-0.0,0.007297735661268234,0.6709690093994141,-0.0,0.01684172824025154,1.0030131340026855,0.0,-0.17324906587600708
204.0,222.0,-6.4768,0.1424,8.4754,-0.0182,-0.1941,-0.1194,-2.3513223133482875,0.0,4.936608791351318,-1.2824056148529053,0.005282104015350342,2.011260509490967,5.714101779251852,-0.24661900103092194,0.06644436717033386,-1.624908749257223,-0.0,-0.002255130559206009,0.670953094959259,-0.0,0.006757122464478016,1.002993106842041,0.0,-0.18475717306137085
204.0,222.0,-6.4768,0.1424,8.4754,-0.0182,-0.1941,-0.1194,-2.3512946567931117,0.0,4.929433822631836,-1.2823809385299683,0.005209168419241905,1.9544035196304321,5.712529647141256,-0.27462929487228394,0.05238591134548187,-1.6249044577227991,-0.0,-0.002061286009848118,0.6709412932395935,-0.0,-0.0030070380307734013,1.0030332803726196,0.0,-0.13170874118804932
204.0,222.0,-6.4768,0.1424,8.4754,-0.0182,-0.1941,-0.1194,-2.351278921166891,0.0,4.947763442993164,-1.2823134660720825,0.005328838247805834,1.9629909992218018,5.710880923062124,-0.2769078314304352,0.06220854073762894,-1.6249406973468226,-0.0,-0.004345048684626818,0.6710051894187927,-0.0,0.012551236897706985,1.0029892921447754,0.0,-0.1457301378250122
204.0,222.0,-6.4768,0.1424,8.4754,-0.0182,-0.1941,-0.1194,-2.3513342342772425,0.0,4.961146354675293,-1.2822937965393066,0.0050559029914438725,1.9619510173797607,5.709194409638204,-0.2921302616596222,0.03609537333250046,-1.624908749257223,-0.0,0.006528899073600769,0.6709412932395935,-0.0,0.014758972451090813,1.0030373334884644,0.0,-0.16775168478488922
208.0,253.0,-4.465,-0.0849,8.4102,-0.0064,-0.2561,-0.1061,-2.3512827358641566,0.0,4.99327278137207,-1.2822740077972412,0.005569369997829199,1.9153952598571777,5.706807958870687,-0.297693133354187,0.058755893260240555,-1.6249011198626917,-0.0,-0.0017271386459469795,0.6709610819816589,-0.0,0.009437507018446922,1.002964973449707,0.0,-0.16467148065567017
208.0,253.0,-4.465,-0.0849,8.4102,-0.0064,-0.2561,-0.1061,-2.3513103924193324,0.0,4.948176383972168,-1.2822295427322388,0.00652766739949584,1.9526023864746094,5.70500813701705,-0.30240634083747864,0.03065469115972519,-1.624880615864889,-0.0,1.528533175587654e-05,0.6710091829299927,-0.0,0.008907897397875786,1.0029892921447754,0.0,-0.19194793701171875
208.0,253.0,-4.465,-0.0849,8.4102,-0.0064,-0.2561,-0.1061,-2.351314683953756,0.0,4.944389820098877,-1.2821776866912842,0.0072985077276825905,1.9951742887496948,5.703277039318838,-0.29813212156295776,0.058100536465644836,-1.624908749257223,-0.0,-0.009862779639661312,0.6709570288658142,-0.0,0.014117860235273838,1.002984881401062,0.0,-0.11613912880420685
