ramyac6/ROB537/final_project/csv/good/good_58.csv
tof_0,tof_1,accelx,accely,accelz,gyrox,gyroy,gyroz,shoulder_lift_joint_position,shoulder_lift_joint_velocity,shoulder_lift_joint_effort,elbow_joint_position,elbow_joint_velocity,elbow_joint_effort,wrist_1_joint_position,wrist_1_joint_velocity,wrist_1_joint_effort,wrist_2_joint_position,wrist_2_joint_velocity,wrist_2_joint_effort,wrist_3_joint_position,wrist_3_joint_velocity,wrist_3_joint_effort,shoulder_pan_joint_position,shoulder_pan_joint_velocity,shoulder_pan_joint_effort
570.0,617.0,-4.7121,0.4828,8.6788,-0.0354,0.037,-0.1219,-2.3587848148741664,0.0,4.881553649902344,-1.318565011024475,-0.0,1.8164722919464111,5.613302457123556,0.0,0.22320011258125305,-1.793955151234762,-0.0,0.03848117217421532,0.2523663341999054,-0.0,0.0030754385516047478,1.384218454360962,0.0,-0.008214619010686874
570.0,617.0,-4.7121,0.4828,8.6788,-0.0354,0.037,-0.1219,-2.358715673486227,0.0,4.918096542358398,-1.318589687347412,-0.0,1.8877248764038086,5.613270389824667,0.0,0.20779572427272797,-1.7939112822162073,-0.0,0.03664035722613335,0.2523740231990814,-0.0,0.005500300321727991,1.384238839149475,0.0,-0.002361234277486801
570.0,617.0,-4.7121,0.4828,8.6788,-0.0354,0.037,-0.1219,-2.358744283715719,0.0,4.920021057128906,-1.3185369968414307,-0.0,1.8478254079818726,5.613346683769979,0.0,0.21666593849658966,-1.7939274946795862,-0.0,0.041605375707149506,0.2523622512817383,-0.0,-0.0007586270221509039,1.3842065334320068,0.0,0.01830686815083027
570.0,617.0,-4.7121,0.4828,8.6788,-0.0354,0.037,-0.1219,-2.3587566814818324,0.0,4.933149337768555,-1.3185607194900513,-0.0,1.8307559490203857,5.6133344052131555,0.0,0.214512899518013,-1.7939394156085413,-0.0,0.025786688551306725,0.25235438346862793,-0.0,-0.0034750751219689846,1.3841865062713623,0.0,-0.02400464005768299
570.0,617.0,-4.7121,0.4828,8.6788,-0.0354,0.037,-0.1219,-2.3587643108763636,0.0,4.9202728271484375,-1.318589687347412,-0.0,1.8637840747833252,5.613338517933645,0.0,0.20779329538345337,-1.7939632574664515,-0.0,0.025553496554493904,0.2523503601551056,-0.0,0.013153973035514355,1.384194254875183,0.0,0.020140983164310455
570.0,617.0,-4.7121,0.4828,8.6788,-0.0354,0.037,-0.1219,-2.358731885949606,0.0,4.888422012329102,-1.3186051845550537,-0.0,1.839862585067749,5.613330650120535,0.0,0.20280030369758606,-1.7939394156085413,-0.0,0.03725734353065491,0.2523740530014038,-0.0,0.0009359964169561863,1.384194254875183,0.0,-0.019755886867642403
570.0,617.0,-4.7121,0.4828,8.6788,-0.0354,0.037,-0.1219,-2.358760973016256,0.0,4.910098075866699,-1.318556547164917,-0.0,1.866835117340088,5.613306569844045,0.0,0.20884159207344055,-1.7939074675189417,-0.0,0.030586259439587593,0.25235438346862793,-0.0,-0.003344886004924774,1.3842347860336304,0.0,0.00268598273396492
550.0,623.0,-4.7486,0.4816,8.747,-0.029,0.0246,-0.1176,-2.3587361774840296,0.0,4.922454833984375,-1.3185938596725464,-0.0,1.8957375288009644,5.6132704494293115,0.0,0.20236346125602722,-1.7939756552325647,-0.0,0.03347303345799446,0.25235798954963684,-0.0,0.006585062015801668,1.384238839149475,0.0,0.010034225881099701
550.0,623.0,-4.7486,0.4816,8.747,-0.029,0.0246,-0.1176,-2.3587728939452113,0.0,4.950695991516113,-1.3186051845550537,-0.0,1.840796947479248,5.6133344052131555,0.0,0.20645615458488464,-1.793943230305807,-0.0,0.04837104678153992,0.25235438346862793,-0.0,0.004065551329404116,1.3841983079910278,0.0,-0.005344723351299763
550.0,623.0,-4.7486,0.4816,8.747,-0.029,0.0246,-0.1176,-2.3587805233397425,0.0,4.9056620597839355,-1.3186217546463013,-0.0,1.863339900970459,5.613274502545156,0.0,0.20094354450702667,-1.7939470450030726,-0.0,0.024456193670630455,0.2523822784423828,-0.0,0.0020225567277520895,1.3842142820358276,0.0,-0.022953122854232788
550.0,623.0,-4.7486,0.4816,8.747,-0.029,0.0246,-0.1176,-2.3587686024107875,0.0,4.926535129547119,-1.318601131439209,-0.0,1.8332104682922363,5.613290536194601,0.0,0.2065209150314331,-1.7939313093768519,-0.0,0.03554759919643402,0.2523580491542816,-0.0,-0.0005348712438717484,1.3841983079910278,0.0,0.025774257257580757
550.0,623.0,-4.7486,0.4816,8.747,-0.029,0.0246,-0.1176,-2.358744283715719,0.0,4.920436382293701,-1.3185690641403198,-0.0,1.8612182140350342,5.61332659700469,0.0,0.20653009414672852,-1.793971363698141,-0.0,0.034077949821949005,0.252366304397583,-0.0,0.015219089575111866,1.384202480316162,0.0,-0.01697816699743271
550.0,623.0,-4.7486,0.4816,8.747,-0.029,0.0246,-0.1176,-2.358772417108053,0.0,4.899656295776367,-1.3185815811157227,-0.0,1.8187618255615234,5.613278615265646,0.0,0.2048356533050537,-1.793943230305807,-0.0,0.03863801807165146,0.25239038467407227,-0.0,-0.004799737129360437,1.384210228919983,0.0,0.014741805382072926
550.0,623.0,-4.7486,0.4816,8.747,-0.029,0.0246,-0.1176,-2.3587523899474085,0.0,4.875650882720947,-1.3185648918151855,-0.0,1.8755278587341309,5.613282370358267,0.0,0.20374637842178345,-1.793943230305807,-0.0,0.02536940388381481,0.2523782253265381,-0.0,0.004768595565110445,1.384202480316162,0.0,0.04744866490364075
550.0,623.0,-4.7486,0.4816,8.747,-0.029,0.0246,-0.1176,-2.3587242565550746,0.0,4.943271160125732,-1.3185970783233643,-0.0,1.8581355810165405,5.613274502545156,0.0,0.20804335176944733,-1.7939632574664515,-0.0,0.04216311499476433,0.2523261606693268,-0.0,0.004331288393586874,1.3842225074768066,0.0,0.010767036117613316
550.0,623.0,-4.7486,0.4816,8.747,-0.029,0.0246,-0.1176,-2.3587361774840296,0.0,4.9070353507995605,-1.318556547164917,-0.0,1.8187215328216553,5.613342511444845,0.0,0.2005678117275238,-1.7939112822162073,-0.0,0.02409541979432106,0.25234246253967285,-0.0,0.00011019106023013592,1.384170413017273,0.0,-0.026833731681108475
550.0,623.0,-4.7486,0.4816,8.747,-0.029,0.0246,-0.1176,-2.3587523899474085,0.0,4.910205841064453,-1.318609356880188,-0.0,1.8381001949310303,5.613326298981466,0.0,0.20758269727230072,-1.7939313093768519,-0.0,0.03824964538216591,0.2523021697998047,-0.0,-0.007066762540489435,1.3842428922653198,0.0,0.010168408043682575
550.0,623.0,-4.7486,0.4816,8.747,-0.029,0.0246,-0.1176,-2.3587686024107875,0.0,4.908618450164795,-1.318548321723938,-0.0,1.8660913705825806,5.6133466241653345,0.0,0.21779559552669525,-1.793943230305807,-0.0,0.02309025265276432,0.2524111270904541,-0.0,0.020871086046099663,1.3842588663101196,0.0,-0.0041633364744484425
550.0,623.0,-4.7486,0.4816,8.747,-0.029,0.0246,-0.1176,-2.358744283715719,0.0,4.888317108154297,-1.318581461906433,-0.0,1.822645664215088,5.613338517933645,0.0,0.20857718586921692,-1.7939274946795862,-0.0,0.03256966918706894,0.25236228108406067,-0.0,0.013449671678245068,1.3842142820358276,0.0,-0.005553578492254019
550.0,623.0,-4.7486,0.4816,8.747,-0.029,0.0246,-0.1176,-2.3587242565550746,0.0,4.894952774047852,-1.3186136484146118,-0.0,1.8615357875823975,5.61334257104949,0.0,0.20362070202827454,-1.7939470450030726,-0.0,0.03329911082983017,0.25230610370635986,-0.0,-0.0010595356579869986,1.384202480316162,0.0,0.02370494231581688
531.0,611.0,-4.6935,0.5019,8.5675,-0.0371,0.027,-0.1278,-2.3587686024107875,0.0,4.901208877563477,-1.318601131439209,-0.0,1.8667149543762207,5.613310563355245,0.0,0.21501389145851135,-1.7939351240741175,-0.0,0.03938954323530197,0.252366304397583,-0.0,0.009738564491271973,1.3842623233795166,0.0,-0.03003937005996704
531.0,611.0,-4.6935,0.5019,8.5675,-0.0371,0.027,-0.1278,-2.358849187890524,0.0,4.874206066131592,-1.3186051845550537,-0.0,1.8444663286209106,5.613310563355245,0.0,0.20397989451885223,-1.7939708868609827,-0.0,0.03810463845729828,0.2523782253265381,-0.0,0.011748135089874268,1.384210228919983,0.0,-0.0058252145536243916
531.0,611.0,-4.6935,0.5019,8.5675,-0.0371,0.027,-0.1278,-2.3587728939452113,0.0,4.931798458099365,-1.3185369968414307,-0.0,1.879839539527893,5.613298344403066,0.0,0.20404230058193207,-1.7939875761615198,-0.0,0.030790524557232857,0.2523503303527832,-0.0,-0.005642949137836695,1.3842142820358276,0.0,-0.0014417795464396477
531.0,611.0,-4.6935,0.5019,8.5675,-0.0371,0.027,-0.1278,-2.3587728939452113,0.0,4.962807655334473,-1.3185970783233643,-0.0,1.8804266452789307,5.613362359791555,0.0,0.2033470720052719,-1.793955151234762,-0.0,0.026746638119220734,0.25239038467407227,-0.0,-0.004340761341154575,1.3842065334320068,0.0,0.07337423413991928
531.0,611.0,-4.6935,0.5019,8.5675,-0.0371,0.027,-0.1278,-2.3588248691954554,0.0,4.934340000152588,-1.318601131439209,-0.0,1.8306139707565308,5.613286423474111,0.0,0.19650021195411682,-1.7938874403582972,-0.0,0.027184762060642242,0.2523622512817383,-0.0,0.011640569195151329,1.3842065334320068,0.0,-0.026554368436336517
531.0,611.0,-4.6935,0.5019,8.5675,-0.0371,0.027,-0.1278,-2.3587399921812953,0.0,4.92315673828125,-1.3186053037643433,-0.0,1.8366384506225586,5.613286423474111,0.0,0.20906409621238708,-1.793955151234762,-0.0,0.04639644920825958,0.2523903548717499,-0.0,0.012393712066113949,1.384202480316162,0.0,-0.0014694547280669212
531.0,611.0,-4.6935,0.5019,8.5675,-0.0371,0.027,-0.1278,-2.358748575250143,0.0,4.861517429351807,-1.318601131439209,-0.0,1.8478665351867676,5.613262581616201,0.0,0.21200299263000488,-1.7939589659320276,-0.0,0.039533037692308426,0.25239887833595276,-0.0,0.0018341398099437356,1.3842142820358276,0.0,0.038258373737335205
531.0,611.0,-4.6935,0.5019,8.5675,-0.0371,0.027,-0.1278,-2.3587361774840296,0.0,4.971688747406006,-1.3185938596725464,-0.0,1.8468241691589355,5.613338517933645,0.0,0.19612279534339905,-1.793943230305807,-0.0,0.02270602434873581,0.252366304397583,-0.0,-0.00500534288585186,1.3842347860336304,0.0,-0.0027228877879679203
531.0,611.0,-4.6935,0.5019,8.5675,-0.0371,0.027,-0.1278,-2.3587566814818324,0.0,4.922648906707764,-1.3185938596725464,-0.0,1.8923075199127197,5.613358604698934,0.0,0.20957818627357483,-1.7939112822162073,-0.0,0.027215177193284035,0.2523784935474396,-0.0,0.00994178932160139,1.3841946125030518,0.0,0.0036872951313853264
531.0,611.0,-4.6935,0.5019,8.5675,-0.0371,0.027,-0.1278,-2.3587762318053187,0.0,4.917298316955566,-1.3185484409332275,-0.0,1.8725417852401733,5.613282370358267,0.0,0.2148779034614563,-1.7939632574664515,-0.0,0.02894650399684906,0.2523380517959595,-0.0,0.009059214033186436,1.3841745853424072,0.0,0.012836815789341927
531.0,611.0,-4.6935,0.5019,8.5675,-0.0371,0.027,-0.1278,-2.3587523899474085,0.0,4.934158802032471,-1.3186053037643433,-0.0,1.870469570159912,5.6133344648178,0.0,0.20049744844436646,-1.7939313093768519,-0.0,0.027289213612675667,0.25239890813827515,-0.0,0.014750711619853973,1.3842347860336304,0.0,0.010347760282456875
531.0,611.0,-4.6935,0.5019,8.5675,-0.0371,0.027,-0.1278,-2.3587762318053187,0.0,4.905482769012451,-1.318589687347412,-0.0,1.9036771059036255,5.61334257104949,0.0,0.20500503480434418,-1.7939155737506312,-0.0,0.039063721895217896,0.2523740231990814,-0.0,0.007184524554759264,1.384218454360962,0.0,0.04145941510796547
531.0,611.0,-4.6935,0.5019,8.5675,-0.0371,0.027,-0.1278,-2.358748575250143,0.0,4.937098503112793,-1.3186053037643433,-0.0,1.8408021926879883,5.613278615265646,0.0,0.20504043996334076,-1.793903652821676,-0.0,0.029514173045754433,0.25234994292259216,-0.0,-0.003110108897089958,1.384190559387207,0.0,0.043769821524620056
540.0,599.0,-4.7402,0.4863,8.7039,-0.0365,0.0232,-0.1208,-2.3587523899474085,0.0,4.938565254211426,-1.3185731172561646,-0.0,1.850907802581787,5.613250362664022,0.0,0.22309166193008423,-1.793891731892721,-0.0,0.02270093932747841,0.25229018926620483,-0.0,0.008024489507079124,1.3842142820358276,0.0,0.028210923075675964
540.0,599.0,-4.7402,0.4863,8.7039,-0.0365,0.0232,-0.1208,-2.358744283715719,0.0,4.909737586975098,-1.3185690641403198,-0.0,1.8280794620513916,5.613322543888845,0.0,0.20566357672214508,-1.7939756552325647,-0.0,0.031275466084480286,0.25239452719688416,-0.0,0.013563628308475018,1.3842428922653198,0.0,0.05852552503347397
540.0,599.0,-4.7402,0.4863,8.7039,-0.0365,0.0232,-0.1208,-2.358832975427145,0.0,4.920632362365723,-1.318621277809143,-0.0,1.8897110223770142,5.613278555661001,0.0,0.2014039009809494,-1.7939274946795862,-0.0,0.040304623544216156,0.25236234068870544,-0.0,-0.0028886764775961637,1.3842225074768066,0.0,0.024495739489793777
540.0,599.0,-4.7402,0.4863,8.7039,-0.0365,0.0232,-0.1208,-2.3587566814818324,0.0,4.887807846069336,-1.3185970783233643,-0.0,1.8439357280731201,5.613286423474111,0.0,0.20902816951274872,-1.7939513365374964,-0.0,0.03212391585111618,0.2523384094238281,-0.0,0.008050870150327682,1.3842225074768066,0.0,0.007723329588770866
540.0,599.0,-4.7402,0.4863,8.7039,-0.0365,0.0232,-0.1208,-2.3587566814818324,0.0,4.923690319061279,-1.3185980319976807,-0.0,1.8574436902999878,5.613330292492666,0.0,0.20963597297668457,-1.7939193884478968,-0.0,0.019759397953748703,0.2523822486400604,-0.0,0.005279579199850559,1.3842105865478516,0.0,-0.011774078942835331
540.0,599.0,-4.7402,0.4863,8.7039,-0.0365,0.0232,-0.1208,-2.358788629571432,0.0,4.913922309875488,-1.318520426750183,-0.0,1.837559461593628,5.613306510239401,0.0,0.2092520296573639,-1.793943230305807,-0.0,0.035863474011421204,0.2524189054965973,-0.0,0.004241666756570339,1.3841983079910278,0.0,0.01668776199221611
540.0,599.0,-4.7402,0.4863,8.7039,-0.0365,0.0232,-0.1208,-2.3587728939452113,0.0,4.935317516326904,-1.3185938596725464,-0.0,1.8880231380462646,5.6133344052131555,0.0,0.20835745334625244,-1.7939313093768519,-0.0,0.028471218422055244,0.2523822784423828,-0.0,0.00039537367410957813,1.384202480316162,0.0,0.053453803062438965
540.0,599.0,-4.7402,0.4863,8.7039,-0.0365,0.0232,-0.1208,-2.3587523899474085,0.0,4.9318952560424805,-1.3185524940490723,-0.0,1.8747797012329102,5.61331062295989,0.0,0.21369093656539917,-1.7939274946795862,-0.0,0.031786948442459106,0.25235438346862793,-0.0,-0.002271143952384591,1.3842225074768066,0.0,-0.015519039705395699
540.0,599.0,-4.7402,0.4863,8.7039,-0.0365,0.0232,-0.1208,-2.3587566814818324,0.0,4.913435935974121,-1.318589687347412,-0.0,1.8669016361236572,5.613286423474111,0.0,0.20639242231845856,-1.7939470450030726,-0.0,0.024570968002080917,0.2523421049118042,-0.0,-0.007121926639229059,1.3842225074768066,0.0,0.013034956529736519
540.0,599.0,-4.7402,0.4863,8.7039,-0.0365,0.0232,-0.1208,-2.3587237797179164,0.0,4.933436393737793,-1.3185938596725464,-0.0,1.8732168674468994,5.61327080705718,0.0,0.21514654159545898,-1.793943230305807,-0.0,0.028417076915502548,0.2523421347141266,-0.0,0.007721749134361744,1.384238839149475,0.0,0.008695296943187714
540.0,599.0,-4.7402,0.4863,8.7039,-0.0365,0.0232,-0.1208,-2.358748575250143,0.0,4.909529209136963,-1.3185979127883911,-0.0,1.853578805923462,5.613314378052511,0.0,0.2223415970802307,-1.7939313093768519,-0.0,0.041571859270334244,0.2523420751094818,-0.0,0.013882703147828579,1.3842225074768066,0.0,0.034260671585798264
540.0,599.0,-4.7402,0.4863,8.7039,-0.0365,0.0232,-0.1208,-2.3587762318053187,0.0,4.9129791259765625,-1.3185690641403198,-0.0,1.8931832313537598,5.6133344052131555,0.0,0.2023371458053589,-1.7939155737506312,-0.0,0.02737005054950714,0.252394437789917,-0.0,0.0009467134950682521,1.384254813194275,0.0,0.02145409770309925
540.0,599.0,-4.7402,0.4863,8.7039,-0.0365,0.0232,-0.1208,-2.358744283715719,0.0,4.895086765289307,-1.3185123205184937,-0.0,1.8269891738891602,5.613262283592977,0.0,0.21081861853599548,-1.7938955465899866,-0.0,0.03639032691717148,0.2523384392261505,-0.0,-0.0031645982526242733,1.384226679801941,0.0,0.009523921646177769
555.0,634.0,-4.7067,0.4905,8.7081,-0.0403,0.0295,-0.1216,-2.358776708642477,0.0,4.90900993347168,-1.31859290599823,-0.0,1.8548321723937988,5.6133224842842,0.0,0.20005300641059875,-1.7939112822162073,-0.0,0.025600435212254524,0.252358078956604,-0.0,0.0018024351447820663,1.3841705322265625,0.0,0.013043982908129692
555.0,634.0,-4.7067,0.4905,8.7081,-0.0403,0.0295,-0.1216,-2.3587566814818324,0.0,4.880865573883057,-1.3185452222824097,-0.0,1.853020191192627,5.613318431168356,0.0,0.20946624875068665,-1.7939193884478968,-0.0,0.041458770632743835,0.2523344159126282,-0.0,0.007913157343864441,1.3842265605926514,0.0,0.004759420640766621
555.0,634.0,-4.7067,0.4905,8.7081,-0.0403,0.0295,-0.1216,-2.3587805233397425,0.0,4.911211013793945,-1.3185608386993408,-0.0,1.8563439846038818,5.613286423474111,0.0,0.20201846957206726,-1.7939394156085413,-0.0,0.0208615530282259,0.2523384094238281,-0.0,0.0012183926301077008,1.384270429611206,0.0,-0.0040527451783418655
555.0,634.0,-4.7067,0.4905,8.7081,-0.0403,0.0295,-0.1216,-2.358748575250143,0.0,4.941835403442383,-1.3186382055282593,-0.0,1.807725429534912,5.613274502545156,0.0,0.2059255987405777,-1.7939313093768519,-0.0,0.023860376328229904,0.25231409072875977,-0.0,0.005122673232108355,1.384202480316162,0.0,-0.00927991233766079
555.0,634.0,-4.7067,0.4905,8.7081,-0.0403,0.0295,-0.1216,-2.3587728939452113,0.0,4.902454376220703,-1.318601131439209,-0.0,1.8431477546691895,5.613290178566732,0.0,0.209263876080513,-1.7939589659320276,-0.0,0.03071659430861473,0.25235438346862793,-0.0,0.006691989954560995,1.3842225074768066,0.0,0.013356770388782024
555.0,634.0,-4.7067,0.4905,8.7081,-0.0403,0.0295,-0.1216,-2.3587199650206507,0.0,4.921520233154297,-1.3186051845550537,-0.0,1.8347502946853638,5.6132826683814905,0.0,0.2084801346063614,-1.7939313093768519,-0.0,0.02096337452530861,0.25239884853363037,-0.0,-0.0020559867843985558,1.3841986656188965,0.0,-0.0006389634218066931
555.0,634.0,-4.7067,0.4905,8.7081,-0.0403,0.0295,-0.1216,-2.3587810001769007,0.0,4.925442695617676,-1.3185938596725464,-0.0,1.9072017669677734,5.6132704494293115,0.0,0.2066691517829895,-1.793903652821676,-0.0,0.03363601863384247,0.25239884853363037,-0.0,0.009573466144502163,1.384202480316162,0.0,-0.019535750150680542
555.0,634.0,-4.7067,0.4905,8.7081,-0.0403,0.0295,-0.1216,-2.358760973016256,0.0,4.8875322341918945,-1.3184925317764282,-0.0,1.851601481437683,5.613306510239401,0.0,0.20189569890499115,-1.793943230305807,-0.0,0.03463989868760109,0.25235435366630554,-0.0,-0.0013872124254703522,1.3842028379440308,0.0,-0.025747328996658325
555.0,634.0,-4.7067,0.4905,8.7081,-0.0403,0.0295,-0.1216,-2.3587805233397425,0.0,4.9547224044799805,-1.3185452222824097,-0.0,1.8597116470336914,5.613306510239401,0.0,0.19893106818199158,-1.7939351240741175,-0.0,0.027485651895403862,0.2523421347141266,-0.0,0.0020909442100673914,1.3842265605926514,0.0,0.02521311119198799
555.0,634.0,-4.7067,0.4905,8.7081,-0.0403,0.0295,-0.1216,-2.358715673486227,0.0,4.931061267852783,-1.3185452222824097,-0.0,1.8753821849822998,5.613346683769979,0.0,0.20613352954387665,-1.7939913908587855,-0.0,0.027287673205137253,0.25232619047164917,-0.0,-0.002254593651741743,1.384190559387207,0.0,0.012665553018450737
555.0,634.0,-4.7067,0.4905,8.7081,-0.0403,0.0295,-0.1216,-2.3587728939452113,0.0,4.875753879547119,-1.3186216354370117,-0.0,1.8620588779449463,5.613314378052511,0.0,0.206630676984787,-1.7939708868609827,-0.0,0.013292031362652779,0.25239062309265137,-0.0,0.010333112441003323,1.384182333946228,0.0,-0.02249435894191265
555.0,634.0,-4.7067,0.4905,8.7081,-0.0403,0.0295,-0.1216,-2.3587523899474085,0.0,4.911527633666992,-1.3185938596725464,-0.0,1.8579893112182617,5.613302457123556,0.0,0.19832247495651245,-1.7939274946795862,-0.0,0.02137419395148754,0.2523624897003174,-0.0,-0.0007638474344275892,1.384218454360962,0.0,-0.024306248873472214
555.0,634.0,-4.7067,0.4905,8.7081,-0.0403,0.0295,-0.1216,-2.3587566814818324,0.0,4.895657539367676,-1.318609356880188,-0.0,1.8701050281524658,5.613286423474111,0.0,0.1961597353219986,-1.7939351240741175,-0.0,0.02411658689379692,0.2523503601551056,-0.0,-0.004525717813521624,1.3842347860336304,0.0,0.012962357141077518
536.0,607.0,-4.7731,0.4696,8.8409,-0.0281,0.0203,-0.1144,-2.3587728939452113,0.0,4.912534713745117,-1.3186299800872803,-0.0,1.851029396057129,5.613294589310446,0.0,0.21634668111801147,-1.7939470450030726,-0.0,0.02807866595685482,0.25241878628730774,-0.0,0.007242736406624317,1.3841865062713623,0.0,0.029185103252530098
536.0,607.0,-4.7731,0.4696,8.8409,-0.0281,0.0203,-0.1144,-2.3587967358031214,0.0,4.928636074066162,-1.318625807762146,-0.0,1.8609051704406738,5.613290536194601,0.0,0.20994381606578827,-1.793967072163717,-0.0,0.02303186058998108,0.2523663341999054,-0.0,0.0023262565955519676,1.384218454360962,0.0,0.007105284370481968
536.0,607.0,-4.7731,0.4696,8.8409,-0.0281,0.0203,-0.1144,-2.3587967358031214,0.0,4.912729740142822,-1.3186135292053223,-0.0,1.8623204231262207,5.61330275514678,0.0,0.19771215319633484,-1.793943230305807,-0.0,0.02962983399629593,0.25238651037216187,-0.0,0.010553410276770592,1.3842105865478516,0.0,-0.00888349860906601
536.0,607.0,-4.7731,0.4696,8.8409,-0.0281,0.0203,-0.1144,-2.3587805233397425,0.0,4.914764881134033,-1.3185369968414307,-0.0,1.8704071044921875,5.6133344052131555,0.0,0.20883691310882568,-1.7939232031451624,-0.0,0.025134654715657234,0.2523622512817383,-0.0,-0.001302009797655046,1.384270429611206,0.0,-0.05958143621683121
536.0,607.0,-4.7731,0.4696,8.8409,-0.0281,0.0203,-0.1144,-2.358792921105856,0.0,4.91552734375,-1.3185205459594727,-0.0,1.8481234312057495,5.613314378052511,0.0,0.1925535500049591,-1.7939351240741175,-0.0,0.0243080984801054,0.2523344159126282,-0.0,0.011587956920266151,1.3842225074768066,0.0,-0.057491060346364975
536.0,607.0,-4.7731,0.4696,8.8409,-0.0281,0.0203,-0.1144,-2.3587686024107875,0.0,4.911394119262695,-1.3186135292053223,-0.0,1.8616373538970947,5.613338517933645,0.0,0.21597859263420105,-1.7939589659320276,-0.0,0.02822643704712391,0.2523782551288605,-0.0,0.008510338142514229,1.3841946125030518,0.0,0.0005653221160173416
536.0,607.0,-4.7731,0.4696,8.8409,-0.0281,0.0203,-0.1144,-2.3587404690184535,0.0,4.916656017303467,-1.3185648918151855,-0.0,1.8309853076934814,5.613306510239401,0.0,0.20481154322624207,-1.7939351240741175,-0.0,0.024680260568857193,0.252358078956604,-0.0,0.005636462010443211,1.384238839149475,0.0,0.005474645644426346
536.0,607.0,-4.7731,0.4696,8.8409,-0.0281,0.0203,-0.1144,-2.3587762318053187,0.0,4.923511981964111,-1.3185690641403198,-0.0,1.8525447845458984,5.613254415779867,0.0,0.21514073014259338,-1.793943230305807,-0.0,0.017623567953705788,0.252366304397583,-0.0,0.011033458635210991,1.3842188119888306,0.0,0.0012857960537075996
536.0,607.0,-4.7731,0.4696,8.8409,-0.0281,0.0203,-0.1144,-2.3587523899474085,0.0,4.950872421264648,-1.3185607194900513,-0.0,1.8796026706695557,5.613294589310446,0.0,0.2040254771709442,-1.793943230305807,-0.0,0.022307921200990677,0.252342164516449,-0.0,0.009595255367457867,1.3842225074768066,0.0,0.02675940841436386
536.0,607.0,-4.7731,0.4696,8.8409,-0.0281,0.0203,-0.1144,-2.3587399921812953,0.0,4.949649333953857,-1.3185524940490723,-0.0,1.8292312622070312,5.613290536194601,0.0,0.21627607941627502,-1.7939232031451624,-0.0,0.025272954255342484,0.2523221969604492,-0.0,-0.00039752526208758354,1.3842265605926514,0.0,0.0149389011785388
536.0,607.0,-4.7731,0.4696,8.8409,-0.0281,0.0203,-0.1144,-2.3587523899474085,0.0,4.936497688293457,-1.3185938596725464,-0.0,1.8484246730804443,5.613350498467245,0.0,0.21655969321727753,-1.7939351240741175,-0.0,0.031284015625715256,0.2524266839027405,-0.0,0.0075414180755615234,1.384210228919983,0.0,0.033385902643203735
536.0,607.0,-4.7731,0.4696,8.8409,-0.0281,0.0203,-0.1144,-2.3587566814818324,0.0,4.890704154968262,-1.3185452222824097,-0.0,1.8194377422332764,5.613278257637777,0.0,0.20321837067604065,-1.7939193884478968,-0.0,0.03863495588302612,0.252366304397583,-0.0,0.00010854197898879647,1.384218454360962,0.0,-0.06472783535718918
536.0,607.0,-4.7731,0.4696,8.8409,-0.0281,0.0203,-0.1144,-2.3587199650206507,0.0,4.910633087158203,-1.3186051845550537,-0.0,1.869275689125061,5.613306510239401,0.0,0.21335609257221222,-1.7939274946795862,-0.0,0.0275775957852602,0.2523624897003174,-0.0,0.0016689475160092115,1.3842265605926514,0.0,0.03909024968743324
570.0,614.0,-4.6074,0.5174,8.5023,-0.0412,0.0269,-0.1176,-2.3587399921812953,0.0,4.91231107711792,-1.3185980319976807,-0.0,1.8696677684783936,5.613250362664022,0.0,0.20515824854373932,-1.7939394156085413,-0.0,0.03488053008913994,0.2523424029350281,-0.0,0.01086609810590744,1.3842623233795166,0.0,-0.0038336701691150665
570.0,614.0,-4.6074,0.5174,8.5023,-0.0412,0.0269,-0.1176,-2.3587728939452113,0.0,4.92799711227417,-1.3186378479003906,-0.0,1.8581409454345703,5.613278555661001,0.0,0.21154043078422546,-1.7939751783954065,-0.0,0.022755306214094162,0.25235840678215027,-0.0,-0.008011449128389359,1.3842265605926514,0.0,-0.006821580231189728
570.0,614.0,-4.6074,0.5174,8.5023,-0.0412,0.0269,-0.1176,-2.358804842034811,0.0,4.934246063232422,-1.318556547164917,-0.0,1.8642945289611816,5.61332659700469,0.0,0.20784857869148254,-1.7939394156085413,-0.0,0.038324207067489624,0.2523782253265381,-0.0,-0.00037888064980506897,1.384178638458252,0.0,0.011693654581904411
570.0,614.0,-4.6074,0.5174,8.5023,-0.0412,0.0269,-0.1176,-2.358744283715719,0.0,4.871175289154053,-1.3186177015304565,-0.0,1.8700058460235596,5.613314378052511,0.0,0.21014699339866638,-1.7939274946795862,-0.0,0.023864740505814552,0.25233036279678345,-0.0,0.011435678228735924,1.384190320968628,0.0,-0.059317901730537415
570.0,614.0,-4.6074,0.5174,8.5023,-0.0412,0.0269,-0.1176,-2.358792921105856,0.0,4.8755598068237305,-1.318609356880188,-0.0,1.8791286945343018,5.613274204521932,0.0,0.1993337869644165,-1.7939313093768519,-0.0,0.03324674069881439,0.25234633684158325,-0.0,-0.010663390159606934,1.3842225074768066,0.0,-0.03267283737659454
570.0,614.0,-4.6074,0.5174,8.5023,-0.0412,0.0269,-0.1176,-2.3587523899474085,0.0,4.899322986602783,-1.3185815811157227,-0.0,1.8533790111541748,5.613245951920309,0.0,0.20646923780441284,-1.7939470450030726,-0.0,0.025790773332118988,0.2523784041404724,-0.0,0.00015137391164898872,1.384170413017273,0.0,-0.014247296378016472
570.0,614.0,-4.6074,0.5174,8.5023,-0.0412,0.0269,-0.1176,-2.3587805233397425,0.0,4.918783664703369,-1.3185733556747437,-0.0,1.8691482543945312,5.6132985828216455,0.0,0.20764267444610596,-1.7939313093768519,-0.0,0.03225558251142502,0.2524068057537079,-0.0,0.003158263862133026,1.3842065334320068,0.0,0.020777929574251175
570.0,614.0,-4.6074,0.5174,8.5023,-0.0412,0.0269,-0.1176,-2.358760973016256,0.0,4.943626880645752,-1.3185731172561646,-0.0,1.865461826324463,5.613282310753622,0.0,0.20218366384506226,-1.7939274946795862,-0.0,0.028709251433610916,0.25232622027397156,-0.0,0.015164149925112724,1.3842142820358276,0.0,0.002267364412546158
570.0,614.0,-4.6074,0.5174,8.5023,-0.0412,0.0269,-0.1176,-2.358772417108053,0.0,4.9519124031066895,-1.3186217546463013,-0.0,1.8728866577148438,5.613346683769979,0.0,0.20187871158123016,-1.7939470450030726,-0.0,0.03493523597717285,0.2523583769798279,-0.0,0.003307152772322297,1.384210228919983,0.0,-0.0028786961920559406
570.0,614.0,-4.6074,0.5174,8.5023,-0.0412,0.0269,-0.1176,-2.3587566814818324,0.0,4.9340691566467285,-1.3185815811157227,-0.0,1.8365929126739502,5.6133426306541345,0.0,0.21164947748184204,-1.7938993612872522,-0.0,0.029683677479624748,0.25239062309265137,-0.0,-0.007264027372002602,1.3841865062713623,0.0,-0.04990321770310402
570.0,614.0,-4.6074,0.5174,8.5023,-0.0412,0.0269,-0.1176,-2.358788629571432,0.0,4.9323954582214355,-1.3186051845550537,-0.0,1.8726249933242798,5.613290536194601,0.0,0.1971059888601303,-1.7939513365374964,-0.0,0.028524596244096756,0.25239884853363037,-0.0,-0.0015380389522761106,1.3842507600784302,0.0,0.023524608463048935
570.0,614.0,-4.6074,0.5174,8.5023,-0.0412,0.0269,-0.1176,-2.3587967358031214,0.0,4.906579494476318,-1.318581461906433,-0.0,1.8604326248168945,5.613282310753622,0.0,0.1954115927219391,-1.7939351240741175,-0.0,0.031659357249736786,0.2523740530014038,-0.0,0.0052810050547122955,1.3842105865478516,0.0,-0.042002830654382706
570.0,614.0,-4.6074,0.5174,8.5023,-0.0412,0.0269,-0.1176,-2.3587523899474085,0.0,4.900076389312744,-1.3185856342315674,-0.0,1.8709716796875,5.613338517933645,0.0,0.19946366548538208,-1.7939313093768519,-0.0,0.018834121525287628,0.25235462188720703,-0.0,-0.0009553568670526147,1.3842347860336304,0.0,0.009029380977153778
568.0,610.0,-4.684,0.4624,8.6345,-0.0357,0.0243,-0.1294,-2.358760496179098,0.0,4.949267864227295,-1.3185774087905884,-0.0,1.8757390975952148,5.613290536194601,0.0,0.20572146773338318,-1.7939351240741175,-0.0,0.03357218950986862,0.2523663341999054,-0.0,0.016246913000941277,1.3841663599014282,0.0,-0.016345245763659477
568.0,610.0,-4.684,0.4624,8.6345,-0.0357,0.0243,-0.1294,-2.3587523899474085,0.0,4.89918327331543,-1.3185442686080933,-0.0,1.8354873657226562,5.613342511444845,0.0,0.22314584255218506,-1.7939112822162073,-0.0,0.0162531528621912,0.25233444571495056,-0.0,-0.0021156691946089268,1.384218454360962,0.0,0.013760622590780258
568.0,610.0,-4.684,0.4624,8.6345,-0.0357,0.0243,-0.1294,-2.358800550500387,0.0,4.936063289642334,-1.318589687347412,-0.0,1.873915672302246,5.613290536194601,0.0,0.20194941759109497,-1.793943230305807,-0.0,0.033350445330142975,0.252398818731308,-0.0,0.0214774738997221,1.384202480316162,0.0,0.015752727165818214
568.0,610.0,-4.684,0.4624,8.6345,-0.0357,0.0243,-0.1294,-2.358776708642477,0.0,4.9645538330078125,-1.3186051845550537,-0.0,1.8825631141662598,5.613302397518911,0.0,0.21329458057880402,-1.7939313093768519,-0.0,0.03930177167057991,0.2523583769798279,-0.0,-0.009768468327820301,1.3842347860336304,0.0,0.017389174550771713
568.0,610.0,-4.684,0.4624,8.6345,-0.0357,0.0243,-0.1294,-2.358800550500387,0.0,4.886969566345215,-1.3185731172561646,-0.0,1.856400728225708,5.613286423474111,0.0,0.20358341932296753,-1.7939232031451624,-0.0,0.03169019892811775,0.25231820344924927,-0.0,-0.0035840647760778666,1.384218454360962,0.0,-0.01283890288323164
568.0,610.0,-4.684,0.4624,8.6345,-0.0357,0.0243,-0.1294,-2.358788629571432,0.0,4.9519805908203125,-1.3186217546463013,-0.0,1.8780577182769775,5.613322543888845,0.0,0.2056715488433838,-1.7939313093768519,-0.0,0.016845377162098885,0.25235438346862793,-0.0,0.004490748047828674,1.384254813194275,0.0,0.030456194654107094
568.0,610.0,-4.684,0.4624,8.6345,-0.0357,0.0243,-0.1294,-2.3588205776610316,0.0,4.910713195800781,-1.318601131439209,-0.0,1.8609977960586548,5.613290536194601,0.0,0.21310648322105408,-1.7939232031451624,-0.0,0.026546912267804146,0.2523663341999054,-0.0,0.007631867658346891,1.384202480316162,0.0,0.04726383835077286
568.0,610.0,-4.684,0.4624,8.6345,-0.0357,0.0243,-0.1294,-2.3587361774840296,0.0,4.879721164703369,-1.3185452222824097,-0.0,1.871225118637085,5.61334257104949,0.0,0.20888349413871765,-1.793891731892721,-0.0,0.02775944396853447,0.252398282289505,-0.0,-0.005099900998175144,1.3842065334320068,0.0,0.0026316028088331223
568.0,610.0,-4.684,0.4624,8.6345,-0.0357,0.0243,-0.1294,-2.3587399921812953,0.0,4.9119110107421875,-1.3185524940490723,-0.0,1.8583860397338867,5.613338517933645,0.0,0.21300005912780762,-1.7939232031451624,-0.0,0.0189173873513937,0.25234246253967285,-0.0,0.007376983296126127,1.3842142820358276,0.0,0.027084872126579285
568.0,610.0,-4.684,0.4624,8.6345,-0.0357,0.0243,-0.1294,-2.3587686024107875,0.0,4.906228065490723,-1.3185731172561646,-0.0,1.9107637405395508,5.61334257104949,0.0,0.19880378246307373,-1.7939155737506312,-0.0,0.041074272245168686,0.25235438346862793,-0.0,0.009212630800902843,1.384154200553894,0.0,-0.0024905800819396973
568.0,610.0,-4.684,0.4624,8.6345,-0.0357,0.0243,-0.1294,-2.3587643108763636,0.0,4.919737815856934,-1.318601131439209,-0.0,1.833312749862671,5.613330352097311,0.0,0.21112793684005737,-1.7939470450030726,-0.0,0.03444163501262665,0.25239476561546326,-0.0,0.00504058413207531,1.3842142820358276,0.0,0.017238106578588486
568.0,610.0,-4.684,0.4624,8.6345,-0.0357,0.0243,-0.1294,-2.358788629571432,0.0,4.8904218673706055,-1.3185648918151855,-0.0,1.858764886856079,5.613306510239401,0.0,0.21514612436294556,-1.7939313093768519,-0.0,0.028630588203668594,0.252366304397583,-0.0,0.005789992865175009,1.3842225074768066,0.0,0.032574184238910675
568.0,610.0,-4.684,0.4624,8.6345,-0.0357,0.0243,-0.1294,-2.358788629571432,0.0,4.877193450927734,-1.3185938596725464,-0.0,1.8585600852966309,5.613334762841024,0.0,0.20117944478988647,-1.7939232031451624,-0.0,0.02229146473109722,0.252346396446228,-0.0,0.00459574069827795,1.3842065334320068,0.0,-0.034591712057590485
548.0,603.0,-4.672,0.5013,8.534,-0.0376,0.024,-0.1208,-2.3587361774840296,0.0,4.915424346923828,-1.3185898065567017,-0.0,1.8842706680297852,5.613254415779867,0.0,0.20112520456314087,-1.7939394156085413,-0.0,0.03049035742878914,0.25240275263786316,-0.0,0.009536230005323887,1.3841865062713623,0.0,0.019193127751350403
548.0,603.0,-4.672,0.5013,8.534,-0.0376,0.024,-0.1208,-2.3587399921812953,0.0,4.916169166564941,-1.318645715713501,-0.0,1.8763229846954346,5.613290536194601,0.0,0.20986075699329376,-1.7939274946795862,-0.0,0.035538360476493835,0.25236231088638306,-0.0,0.0214763805270195,1.384230613708496,0.0,-0.005211614537984133
548.0,603.0,-4.672,0.5013,8.534,-0.0376,0.024,-0.1208,-2.3587528667845667,0.0,4.929775238037109,-1.318565011024475,-0.0,1.8714619874954224,5.613290536194601,0.0,0.20504800975322723,-1.7939513365374964,-0.0,0.034672290086746216,0.25234246253967285,-0.0,0.01011219248175621,1.384182333946228,0.0,0.04755820706486702
548.0,603.0,-4.672,0.5013,8.534,-0.0376,0.024,-0.1208,-2.3587848148741664,0.0,4.927084922790527,-1.3185608386993408,-0.0,1.8900773525238037,5.613338517933645,0.0,0.20314645767211914,-1.7939074675189417,-0.0,0.026758167892694473,0.25239479541778564,-0.0,-0.0057268328964710236,1.3842225074768066,0.0,0.02245865762233734
548.0,603.0,-4.672,0.5013,8.534,-0.0376,0.024,-0.1208,-2.358748575250143,0.0,4.9279398918151855,-1.318637728691101,-0.0,1.832737922668457,5.613282310753622,0.0,0.20723176002502441,-1.7939351240741175,-0.0,0.02451612800359726,0.2524067461490631,-0.0,-0.00965946912765503,1.3842105865478516,0.0,-0.02940923348069191
548.0,603.0,-4.672,0.5013,8.534,-0.0376,0.024,-0.1208,-2.358748575250143,0.0,4.914022445678711,-1.3185369968414307,-0.0,1.8881056308746338,5.6133426306541345,0.0,0.20003128051757812,-1.7939394156085413,-0.0,0.03051598370075226,0.25236231088638306,-0.0,-0.0028102772776037455,1.384230613708496,0.0,-0.015227256342768669
548.0,603.0,-4.672,0.5013,8.534,-0.0376,0.024,-0.1208,-2.35872807125234,0.0,4.944277286529541,-1.318609356880188,-0.0,1.8508522510528564,5.613282370358267,0.0,0.20498353242874146,-1.7939155737506312,-0.0,0.03084949031472206,0.2524108290672302,-0.0,0.0031885814387351274,1.384218454360962,0.0,-0.0607340931892395
548.0,603.0,-4.672,0.5013,8.534,-0.0376,0.024,-0.1208,-2.3587361774840296,0.0,4.899466514587402,-1.3185328245162964,-0.0,1.8924586772918701,5.613346683769979,0.0,0.21182312071323395,-1.7939394156085413,-0.0,0.0288662388920784,0.252366304397583,-0.0,0.0017477949149906635,1.3841865062713623,0.0,-0.00872775074094534
548.0,603.0,-4.672,0.5013,8.534,-0.0376,0.024,-0.1208,-2.3587848148741664,0.0,4.879639625549316,-1.3185690641403198,-0.0,1.8615535497665405,5.6133504388626,0.0,0.22082534432411194,-1.7939632574664515,-0.0,0.02227235585451126,0.2523583769798279,-0.0,-0.006361105013638735,1.384190559387207,0.0,-0.006966480519622564
548.0,603.0,-4.672,0.5013,8.534,-0.0376,0.024,-0.1208,-2.358744283715719,0.0,4.922946929931641,-1.3185731172561646,-0.0,1.8561286926269531,5.613298344403066,0.0,0.20790374279022217,-1.793955151234762,-0.0,0.024193592369556427,0.25233423709869385,-0.0,0.003971863072365522,1.3842225074768066,0.0,0.038352131843566895
548.0,603.0,-4.672,0.5013,8.534,-0.0376,0.024,-0.1208,-2.358760973016256,0.0,4.931143283843994,-1.3186380863189697,-0.0,1.8394461870193481,5.6133224842842,0.0,0.20101068913936615,-1.7939751783954065,-0.0,0.025930937379598618,0.25239062309265137,-0.0,0.016217948868870735,1.3841946125030518,0.0,-0.04311895743012428
548.0,603.0,-4.672,0.5013,8.534,-0.0376,0.024,-0.1208,-2.3587728939452113,0.0,4.93028450012207,-1.3186135292053223,-0.0,1.8636305332183838,5.613322543888845,0.0,0.2165175974369049,-1.7939794699298304,-0.0,0.02594083733856678,0.25237032771110535,-0.0,0.015061967074871063,1.3842142820358276,0.0,0.00845806859433651
548.0,603.0,-4.672,0.5013,8.534,-0.0376,0.024,-0.1208,-2.3587728939452113,0.0,4.897508144378662,-1.3186297416687012,-0.0,1.8211374282836914,5.613274502545156,0.0,0.211791530251503,-1.793943230305807,-0.0,0.02456039935350418,0.25233444571495056,-0.0,0.004044357221573591,1.3842142820358276,0.0,0.030145885422825813
525.0,628.0,-4.6582,0.5192,8.5597,-0.0357,0.0391,-0.1313,-2.358760496179098,0.0,4.9053544998168945,-1.3185369968414307,-0.0,1.9117764234542847,5.6133344052131555,0.0,0.20242463052272797,-1.7939470450030726,-0.0,0.0327523872256279,0.2523541748523712,-0.0,0.00277913105674088,1.3841983079910278,0.0,0.01264958269894123
525.0,628.0,-4.6582,0.5192,8.5597,-0.0357,0.0391,-0.1313,-2.3587805233397425,0.0,4.948929309844971,-1.3185245990753174,-0.0,1.878712773323059,5.613294589310446,0.0,0.2082429826259613,-1.7939632574664515,-0.0,0.02279840037226677,0.2524464428424835,-0.0,0.004758256021887064,1.3842065334320068,0.0,-0.015667561441659927
525.0,628.0,-4.6582,0.5192,8.5597,-0.0357,0.0391,-0.1313,-2.358800550500387,0.0,4.927321434020996,-1.3185731172561646,-0.0,1.891474962234497,5.6132744429405115,0.0,0.20630896091461182,-1.7939351240741175,-0.0,0.024461612105369568,0.252346396446228,-0.0,0.0003170606214553118,1.3842225074768066,0.0,-0.001186172477900982
525.0,628.0,-4.6582,0.5192,8.5597,-0.0357,0.0391,-0.1313,-2.3587848148741664,0.0,4.9470343589782715,-1.3185648918151855,-0.0,1.8512530326843262,5.61332659700469,0.0,0.212437704205513,-1.793967072163717,-0.0,0.019340913742780685,0.2524266839027405,-0.0,0.0029156901873648167,1.384238839149475,0.0,0.03309916704893112
525.0,628.0,-4.6582,0.5192,8.5597,-0.0357,0.0391,-0.1313,-2.3588091335692347,0.0,4.910876274108887,-1.318589687347412,-0.0,1.869717001914978,5.613286423474111,0.0,0.221742644906044,-1.7939394156085413,-0.0,0.04105833172798157,0.25236234068870544,-0.0,-0.004110693000257015,1.3842705488204956,0.0,0.027131754904985428
525.0,628.0,-4.6582,0.5192,8.5597,-0.0357,0.0391,-0.1313,-2.3587805233397425,0.0,4.863325119018555,-1.3185452222824097,-0.0,1.8766791820526123,5.613342690258779,0.0,0.20337672531604767,-1.7939193884478968,-0.0,0.025621352717280388,0.25237029790878296,-0.0,-0.004619660321623087,1.3842065334320068,0.0,-0.012918200343847275
525.0,628.0,-4.6582,0.5192,8.5597,-0.0357,0.0391,-0.1313,-2.358748575250143,0.0,4.887033462524414,-1.3185856342315674,-0.0,1.8368948698043823,5.61331062295989,0.0,0.1993934065103531,-1.7939274946795862,-0.0,0.027794260531663895,0.2523662745952606,-0.0,0.005995290353894234,1.3842225074768066,0.0,-0.013173475861549377
525.0,628.0,-4.6582,0.5192,8.5597,-0.0357,0.0391,-0.1313,-2.358731885949606,0.0,4.862751007080078,-1.3185980319976807,-0.0,1.9221124649047852,5.61331872919158,0.0,0.22402693331241608,-1.7939632574664515,-0.0,0.034215547144412994,0.2523183226585388,-0.0,-0.0010444116778671741,1.3842507600784302,0.0,0.018917139619588852
525.0,628.0,-4.6582,0.5192,8.5597,-0.0357,0.0391,-0.1313,-2.3587967358031214,0.0,4.920496940612793,-1.3185980319976807,-0.0,1.8196208477020264,5.6133344052131555,0.0,0.20387300848960876,-1.7939470450030726,-0.0,0.03558219224214554,0.2523342967033386,-0.0,0.01985263079404831,1.3842469453811646,0.0,0.022100910544395447
525.0,628.0,-4.6582,0.5192,8.5597,-0.0357,0.0391,-0.1313,-2.3587762318053187,0.0,4.889678001403809,-1.3185856342315674,-0.0,1.9066972732543945,5.613310324936666,0.0,0.22028839588165283,-1.7939274946795862,-0.0,0.02526143379509449,0.2524105906486511,-0.0,-0.010330014862120152,1.3842142820358276,0.0,-0.010892865248024464
525.0,628.0,-4.6582,0.5192,8.5597,-0.0357,0.0391,-0.1313,-2.3587762318053187,0.0,4.89092493057251,-1.3185442686080933,-0.0,1.893771767616272,5.61331062295989,0.0,0.20352289080619812,-1.7939351240741175,-0.0,0.029869934543967247,0.25235816836357117,-0.0,-0.0008887173607945442,1.3842146396636963,0.0,0.004040427505970001
525.0,628.0,-4.6582,0.5192,8.5597,-0.0357,0.0391,-0.1313,-2.358748575250143,0.0,4.927857398986816,-1.318601131439209,-0.0,1.9128499031066895,5.6132704494293115,0.0,0.2035290002822876,-1.7939155737506312,-0.0,0.02845015376806259,0.25237029790878296,-0.0,0.0075018457137048244,1.3842105865478516,0.0,-0.004634112119674683
525.0,628.0,-4.6582,0.5192,8.5597,-0.0357,0.0391,-0.1313,-2.358788629571432,0.0,4.923739910125732,-1.318589687347412,-0.0,1.8532907962799072,5.613322543888845,0.0,0.20746895670890808,-1.7939313093768519,-0.0,0.027203533798456192,0.252366304397583,-0.0,0.010810108855366707,1.3842225074768066,0.0,0.0293332040309906
543.0,611.0,-4.6528,0.5031,8.595,-0.029,0.0199,-0.1168,-2.3587566814818324,0.0,4.924316883087158,-1.3185856342315674,-0.0,1.894472360610962,5.613330352097311,0.0,0.20448654890060425,-1.7939589659320276,-0.0,0.01729762554168701,0.25235041975975037,-0.0,0.001096886582672596,1.384218454360962,0.0,0.023825276643037796
543.0,611.0,-4.6528,0.5031,8.595,-0.029,0.0199,-0.1168,-2.3587643108763636,0.0,4.900137901306152,-1.3186051845550537,-0.0,1.829991340637207,5.6132863638694666,0.0,0.20846518874168396,-1.7939470450030726,-0.0,0.026206303387880325,0.25239062309265137,-0.0,-0.0008546239696443081,1.384230613708496,0.0,0.00416737562045455
543.0,611.0,-4.6528,0.5031,8.595,-0.029,0.0199,-0.1168,-2.358748575250143,0.0,4.935135364532471,-1.3185410499572754,-0.0,1.8821117877960205,5.6133466241653345,0.0,0.2214524745941162,-1.793955151234762,-0.0,0.0358290895819664,0.2523742616176605,-0.0,0.0023074070923030376,1.384218454360962,0.0,-0.003245827741920948
543.0,611.0,-4.6528,0.5031,8.595,-0.029,0.0199,-0.1168,-2.358760496179098,1.1013311151941707e-08,4.921316623687744,-1.3185648918151855,-0.0,1.8273110389709473,5.613330352097311,0.0,0.21325194835662842,-1.7939112822162073,-0.0,0.02141183614730835,0.25238221883773804,-0.0,0.00922576617449522,1.3841782808303833,0.0,-0.03710903227329254
543.0,611.0,-4.6528,0.5031,8.595,-0.029,0.0199,-0.1168,-2.358732362786764,3.568172877120839e-16,4.949429988861084,-1.3185368776321411,-0.0,1.8680334091186523,5.613314378052511,0.0,0.20376688241958618,-1.793999497090475,-0.0,0.030257534235715866,0.2524067163467407,-0.0,0.00635010190308094,1.384202480316162,0.0,0.01290820725262165
543.0,611.0,-4.6528,0.5031,8.595,-0.029,0.0199,-0.1168,-2.3587566814818324,8.616717822745015e-22,4.8870930671691895,-1.318565011024475,-0.0,1.849505066871643,5.613298344403066,0.0,0.20616227388381958,-1.7939351240741175,-0.0,0.021236345171928406,0.25240644812583923,-0.0,0.0027711009606719017,1.3841983079910278,0.0,-0.010203097015619278
543.0,611.0,-4.6528,0.5031,8.595,-0.029,0.0199,-0.1168,-2.3587404690184535,2.7917064730559976e-29,4.911554336547852,-1.318556547164917,-0.0,1.881265640258789,5.613298344403066,0.0,0.19976969063282013,-1.7939193884478968,-0.0,0.017008738592267036,0.2523862421512604,-0.0,0.017796646803617477,1.384254813194275,0.0,-0.029216378927230835
543.0,611.0,-4.6528,0.5031,8.595,-0.029,0.0199,-0.1168,-2.3587523899474085,6.741643198986284e-35,4.89138650894165,-1.3185524940490723,-0.0,1.8772153854370117,5.613330352097311,0.0,0.21305879950523376,-1.7939632574664515,-0.0,0.028151914477348328,0.252386212348938,-0.0,0.021599968895316124,1.3842142820358276,0.0,0.020359128713607788
543.0,611.0,-4.6528,0.5031,8.595,-0.029,0.0199,-0.1168,-2.358760973016256,2.1846243058823898e-42,4.920320987701416,-1.3185648918151855,-0.0,1.8542653322219849,5.613314676075735,0.0,0.2113019824028015,-1.7939351240741175,-0.0,0.018543701618909836,0.2524106502532959,-0.0,-0.00013926636893302202,1.3842347860336304,0.0,-0.004996073432266712
543.0,611.0,-4.6528,0.5031,8.595,-0.029,0.0199,-0.1168,-2.358732362786764,0.0,4.928795337677002,-1.318532943725586,-0.0,1.8418347835540771,5.613266336708822,0.0,0.20842155814170837,-1.7939756552325647,-0.0,0.014442665502429008,0.2524026930332184,-0.0,0.0008445216226391494,1.384254813194275,0.0,0.019239457324147224
543.0,611.0,-4.6528,0.5031,8.595,-0.029,0.0199,-0.1168,-2.3587848148741664,0.0,4.918722152709961,-1.3186053037643433,-0.0,1.8357806205749512,5.6133184907730005,0.0,0.21344958245754242,-1.7939351240741175,-0.0,0.03863786906003952,0.2523222863674164,-0.0,-0.0017733899876475334,1.3841623067855835,0.0,0.0025938558392226696
543.0,611.0,-4.6528,0.5031,8.595,-0.029,0.0199,-0.1168,-2.3587967358031214,0.0,4.881106853485107,-1.3185772895812988,-1.89833895131164e-11,1.8362982273101807,5.613266336708822,0.0,0.22237205505371094,-1.793995205556051,-0.0,0.031163405627012253,0.25235819816589355,-0.0,0.016053833067417145,1.3842065334320068,0.0,0.00825317483395338
543.0,611.0,-4.6528,0.5031,8.595,-0.029,0.0199,-0.1168,-2.3587643108763636,0.0,4.898281097412109,-1.3186135292053223,-6.150377367546154e-19,1.8373148441314697,5.613290476589956,0.0,0.20667803287506104,-1.7939794699298304,-0.0,0.031260959804058075,0.25237423181533813,-0.0,0.0024119182489812374,1.384210228919983,0.0,-0.003326856531202793
560.0,609.0,-4.6534,0.5013,8.5585,-0.037,0.0414,-0.1168,-2.3587643108763636,0.0,4.858525276184082,-1.3185772895812988,-1.4852438437381907e-24,1.883298635482788,5.613306510239401,0.0,0.19661906361579895,-1.7939394156085413,-0.0,0.03401432931423187,0.25240665674209595,-0.0,0.011460982263088226,1.384202480316162,0.0,0.013911145739257336
560.0,609.0,-4.6534,0.5013,8.5585,-0.037,0.0414,-0.1168,-2.358744283715719,0.0,4.904113292694092,-1.318589687347412,-3.586689051929538e-30,1.8754618167877197,5.613290536194601,0.0,0.21630632877349854,-1.7939155737506312,-0.0,0.029578382149338722,0.25239014625549316,-0.0,0.008028772659599781,1.3842226266860962,0.0,-0.02879333682358265
560.0,609.0,-4.6534,0.5013,8.5585,-0.037,0.0414,-0.1168,-2.3587242565550746,0.0,4.942560195922852,-1.3185452222824097,-1.1620414371492607e-37,1.893338680267334,5.613302457123556,0.0,0.19871744513511658,-1.793943230305807,-0.0,0.030026927590370178,0.25239062309265137,-0.0,0.004480420611798763,1.3842142820358276,0.0,-0.030211854726076126
560.0,609.0,-4.6534,0.5013,8.5585,-0.037,0.0414,-0.1168,-2.3587728939452113,0.0,4.9111151695251465,-1.3185938596725464,-2.802596928649634e-43,1.8620198965072632,5.613286423474111,0.0,0.20478525757789612,-1.7939112822162073,-0.0,0.02938968315720558,0.2523741126060486,-0.0,0.0038036636542528868,1.384230613708496,0.0,0.030033085495233536
560.0,609.0,-4.6534,0.5013,8.5585,-0.037,0.0414,-0.1168,-2.358788629571432,0.0,4.908241271972656,-1.318609356880188,-0.0,1.8663735389709473,5.61332659700469,0.0,0.2155337631702423,-1.7939794699298304,-0.0,0.015744443982839584,0.25240665674209595,-0.0,0.013199964538216591,1.3842265605926514,0.0,0.04252207279205322
560.0,609.0,-4.6534,0.5013,8.5585,-0.037,0.0414,-0.1168,-2.3587643108763636,0.0,4.895523548126221,-1.3185409307479858,-0.0,1.8599443435668945,5.613294291287222,0.0,0.21146957576274872,-1.7939074675189417,-0.0,0.026458991691470146,0.25232642889022827,-0.0,-0.00734914094209671,1.3841865062713623,0.0,0.013187918812036514
560.0,609.0,-4.6534,0.5013,8.5585,-0.037,0.0414,-0.1168,-2.3587399921812953,0.0,4.9222092628479,-1.318532943725586,-0.0,1.8454289436340332,5.6133504388626,0.0,0.1930033266544342,-1.7939394156085413,-0.0,0.022618044167757034,0.252366304397583,-0.0,0.015212859027087688,1.3842469453811646,0.0,0.03425423055887222
560.0,609.0,-4.6534,0.5013,8.5585,-0.037,0.0414,-0.1168,-2.3587686024107875,0.0,4.963170051574707,-1.3186061382293701,-0.0,1.849189043045044,5.613282370358267,0.0,0.20510366559028625,-1.793943230305807,-0.0,0.025417478755116463,0.25235438346862793,-0.0,0.011757261119782925,1.3842347860336304,0.0,-0.03316687420010567
560.0,609.0,-4.6534,0.5013,8.5585,-0.037,0.0414,-0.1168,-2.3587361774840296,0.0,4.928413391113281,-1.3185607194900513,-0.0,1.8885822296142578,5.613338517933645,0.0,0.20066633820533752,-1.7939274946795862,-0.0,0.02744273468852043,0.252366304397583,-0.0,-0.006543674971908331,1.384202480316162,0.0,-0.025248099118471146
560.0,609.0,-4.6534,0.5013,8.5585,-0.037,0.0414,-0.1168,-2.358748575250143,0.0,4.938026428222656,-1.318642020225525,-0.0,1.8566266298294067,5.6133344052131555,0.0,0.2244827151298523,-1.793943230305807,-0.0,0.02177930809557438,0.252402126789093,-0.0,0.01089917030185461,1.384202480316162,0.0,0.0034271744079887867
560.0,609.0,-4.6534,0.5013,8.5585,-0.037,0.0414,-0.1168,-2.3587242565550746,0.0,4.9510297775268555,-1.3185731172561646,-0.0,1.853548526763916,5.613262581616201,0.0,0.22042180597782135,-1.793955151234762,-0.0,0.01284731924533844,0.2523305118083954,-0.0,0.005016350653022528,1.384246587753296,0.0,0.008521350100636482
560.0,609.0,-4.6534,0.5013,8.5585,-0.037,0.0414,-0.1168,-2.3587399921812953,0.0,4.8852667808532715,-1.3185938596725464,-0.0,1.858839511871338,5.613314676075735,0.0,0.20142695307731628,-1.7939394156085413,-0.0,0.03036624938249588,0.2523302733898163,-0.0,0.007796342018991709,1.3842347860336304,0.0,-0.009683454409241676
560.0,609.0,-4.6534,0.5013,8.5585,-0.037,0.0414,-0.1168,-2.358744283715719,0.0,4.892139434814453,-1.3185451030731201,-0.0,1.862011194229126,5.613286423474111,0.0,0.2098597288131714,-1.7939112822162073,-0.0,0.028215402737259865,0.25237831473350525,-0.0,0.005489257164299488,1.3841745853424072,0.0,0.01300847064703703
539.0,629.0,-4.7222,0.5001,8.6836,-0.0325,0.0272,-0.1179,-2.3587967358031214,0.0,4.885037899017334,-1.318617582321167,-0.0,1.8798036575317383,5.613310563355245,0.0,0.20456963777542114,-1.7939794699298304,-0.0,0.02299484983086586,0.2523423135280609,-0.0,0.0019132292363792658,1.3841782808303833,0.0,0.007764129433780909
539.0,629.0,-4.7222,0.5001,8.6836,-0.0325,0.0272,-0.1179,-2.358788629571432,0.0,4.9118781089782715,-1.3185970783233643,-0.0,1.8186941146850586,5.613318431168356,0.0,0.22116276621818542,-1.793999497090475,-0.0,0.03445100784301758,0.25231030583381653,-0.0,0.020957842469215393,1.3842507600784302,0.0,0.0021444614976644516
539.0,629.0,-4.7222,0.5001,8.6836,-0.0325,0.0272,-0.1179,-2.358748575250143,0.0,4.939147472381592,-1.3185690641403198,-0.0,1.8751463890075684,5.61332659700469,0.0,0.19861076772212982,-1.7939232031451624,-0.0,0.011525504291057587,0.25238218903541565,-0.0,-0.015284469351172447,1.384194254875183,0.0,0.005986239295452833
539.0,629.0,-4.7222,0.5001,8.6836,-0.0325,0.0272,-0.1179,-2.358776708642477,0.0,4.877662658691406,-1.3185772895812988,-0.0,1.8340606689453125,5.613286423474111,0.0,0.20358771085739136,-1.7939632574664515,-0.0,0.015490410849452019,0.25247445702552795,-0.0,-0.001738948281854391,1.3842142820358276,0.0,-0.009208951145410538
539.0,629.0,-4.7222,0.5001,8.6836,-0.0325,0.0272,-0.1179,-2.358748575250143,0.0,4.871603965759277,-1.3185172080993652,-0.0,1.8613386154174805,5.613322543888845,0.0,0.20837542414665222,-1.7939274946795862,-0.0,0.024204112589359283,0.2523464560508728,-0.0,0.007807857356965542,1.3842265605926514,0.0,0.0026575038209557533
539.0,629.0,-4.7222,0.5001,8.6836,-0.0325,0.0272,-0.1179,-2.35872807125234,1.2083287970199308e-07,4.934314727783203,-1.3184888362884521,-0.0,1.887012243270874,5.613249945431509,0.0,0.2128268927335739,-1.7939589659320276,-0.0,0.025470543652772903,0.25235041975975037,-0.0,0.006614874117076397,1.3842146396636963,0.0,0.012957010418176651
539.0,629.0,-4.7222,0.5001,8.6836,-0.0325,0.0272,-0.1179,-2.3587128124632777,0.003727126633748412,4.916616439819336,-1.31852126121521,-0.0,1.902397632598877,5.613266694336691,0.0,0.22137975692749023,-1.7938836256610315,-0.0,0.03023315966129303,0.2522865831851959,-0.0,0.012115441262722015,1.384186863899231,0.0,0.03436071053147316
539.0,629.0,-4.7222,0.5001,8.6836,-0.0325,0.0272,-0.1179,-2.358619829217428,0.006365733686834574,4.948260307312012,-1.3185410499572754,-0.0,1.8891276121139526,5.613294589310446,0.0,0.1919930875301361,-1.7939232031451624,-9.97538718294777e-10,0.02758163958787918,0.25237828493118286,-0.0,0.0012029133504256606,1.3841586112976074,-1.218631723531871e-06,0.017313722521066666
539.0,629.0,-4.7222,0.5001,8.6836,-0.0325,0.0272,-0.1179,-2.358612676660055,0.008248296566307545,4.935336589813232,-1.3185534477233887,0.0002348510461160913,1.8276309967041016,5.613266694336691,5.979160278002382e-07,0.19731180369853973,-1.7939470450030726,-1.8129772924352534e-14,0.02863776683807373,0.2523941397666931,-0.0,0.0015136018628254533,1.3841307163238525,-0.002450544387102127,0.019333310425281525
539.0,629.0,-4.7222,0.5001,8.6836,-0.0325,0.0272,-0.1179,-2.358596464196676,0.005020329728722572,4.896587371826172,-1.3185855150222778,0.00016375078121200204,1.8118927478790283,5.613206076412954,1.6643211808720082e-10,0.20774626731872559,-1.7939232031451624,-5.046489537252807e-18,0.029243536293506622,0.2524305284023285,-0.0,-0.0013220780529081821,1.3841549158096313,-0.0034641714300960302,-0.012990791350603104
539.0,629.0,-4.7222,0.5001,8.6836,-0.0325,0.0272,-0.1179,-2.358584066430563,0.0017533648060634732,4.908195495605469,-1.3185731172561646,0.000126259183161892,1.887196660041809,5.613291013031759,4.6326989824613946e-14,0.20765702426433563,-1.7939232031451624,-1.4047091901186368e-21,0.03055054135620594,0.25241854786872864,-0.0,-0.006073991768062115,1.384098768234253,-0.004138961434364319,0.009390659630298615
539.0,629.0,-4.7222,0.5001,8.6836,-0.0325,0.0272,-0.1179,-2.358605047265524,0.00040677643846720457,4.875130653381348,-1.3185369968414307,0.0001418168394593522,1.897139310836792,5.613250601082601,8.419701883151695e-19,0.2121199369430542,-1.793955151234762,-2.5529891608972005e-26,0.040630750358104706,0.2523941397666931,-0.0,-0.0021940828301012516,1.3840749263763428,-0.004905920010060072,-0.04637783765792847
539.0,629.0,-4.7222,0.5001,8.6836,-0.0325,0.0272,-0.1179,-2.3585764370360316,0.00028020140598528087,4.919647216796875,-1.318572998046875,0.00012682790111284703,1.8967199325561523,5.613218533783712,2.343655262313692e-22,0.1995900273323059,-1.7939351240741175,-7.106338438517556e-30,0.036809735000133514,0.2523464560508728,-0.0,0.009243429638445377,1.3840069770812988,-0.005549790803343058,-0.040833983570337296
553.0,619.0,-4.8305,1.0008,8.6309,-0.0341,0.0377,-0.1287,-2.3585602245726527,0.0001979847438633442,4.91188383102417,-1.3185607194900513,0.00011116264067823067,1.8541712760925293,5.613250481873312,-0.00055730901658535,0.1953364610671997,-1.7939193884478968,-1.2915419311592225e-34,0.03618142753839493,0.2523782551288605,-0.0,0.008031567558646202,1.384015440940857,-0.005475926678627729,-0.039338186383247375
553.0,619.0,-4.8305,1.0008,8.6309,-0.0341,0.0377,-0.1287,-2.358544488946432,0.00021610445401165634,4.891306400299072,-1.318572998046875,3.821973950834945e-05,1.8710682392120361,5.613194632321157,-0.0006756538641639054,0.20421266555786133,-1.7939594427691858,-3.5950550322992117e-38,0.03183642402291298,0.25235041975975037,-0.0,0.0005879672826267779,1.3839510679244995,-0.004517778754234314,0.012989770621061325
553.0,619.0,-4.8305,1.0008,8.6309,-0.0341,0.0377,-0.1287,-2.3585807285704554,0.00015634986630175263,4.9169020652771,-1.318493366241455,5.37563901161775e-05,1.8859481811523438,5.613182711392202,-0.0007881823694333434,0.20421229302883148,-1.793971363698141,-6.5300508437536476e-43,0.024333640933036804,0.25239869952201843,-0.0,0.002641720697283745,1.3839712142944336,-0.0022181523963809013,0.007249737158417702
553.0,619.0,-4.8305,1.0008,8.6309,-0.0341,0.0377,-0.1287,-2.358596464196676,0.0001838126772781834,4.93278694152832,-1.318476915359497,5.856475399923511e-05,1.9148681163787842,5.613227176457205,-0.0007677742978557944,0.20163634419441223,-1.7939470450030726,-0.0,0.030831631273031235,0.25237026810646057,-0.0,0.009564857929944992,1.3839794397354126,-0.0010665280278772116,-0.009716730564832687
553.0,619.0,-4.8305,1.0008,8.6309,-0.0341,0.0377,-0.1287,-2.358584543267721,0.0001910779537865892,4.906158447265625,-1.3185698986053467,0.00010351829405408353,1.8537123203277588,5.6131911156471155,-0.0012678117491304874,0.19992367923259735,-1.7939470450030726,-0.0,0.037049174308776855,0.2523624002933502,-0.0,-0.00021588196977972984,1.3839631080627441,-0.0006447607884183526,-0.00603291392326355
553.0,619.0,-4.8305,1.0008,8.6309,-0.0341,0.0377,-0.1287,-2.3585039577879847,0.00041640037670731544,4.910611152648926,-1.318485140800476,0.00029293884290382266,1.862910270690918,5.613199221878805,-0.0017888041911646724,0.2031388282775879,-1.7939274946795862,-0.0,0.03894574195146561,0.252402663230896,-0.0,-0.004145503509789705,1.3839229345321655,-0.00047718529822304845,0.03824906051158905
553.0,619.0,-4.8305,1.0008,8.6309,-0.0341,0.0377,-0.1287,-2.358532568017477,0.00038765856879763305,4.922199726104736,-1.318501591682434,0.00027362702530808747,1.8564116954803467,5.6131706712539575,-0.0015360869001597166,0.19717729091644287,-1.7939875761615198,-0.0,0.04318716377019882,0.2523384988307953,-0.0,0.0034228763543069363,1.3839552402496338,-0.0004112939350306988,0.023651152849197388
553.0,619.0,-4.8305,1.0008,8.6309,-0.0341,0.0377,-0.1287,-2.358512064019674,0.000327806657878682,4.888535022735596,-1.3184726238250732,0.00024167491937987506,1.9145698547363281,5.613146471768179,-0.0011659106239676476,0.20935283601284027,-1.793983284627096,-0.0,0.04912909120321274,0.25236237049102783,-0.0,0.01873238943517208,1.3839389085769653,-0.00033998378785327077,0.032147716730833054
553.0,619.0,-4.8305,1.0008,8.6309,-0.0341,0.0377,-0.1287,-2.3585688076415003,0.00032404856756329536,4.944894790649414,-1.3185533285140991,0.00021306639246176928,1.8402812480926514,5.613158750325002,-0.0009881188161671162,0.19268086552619934,-1.7939470450030726,-0.0,0.02176196500658989,0.25235435366630554,-0.0,0.00575836468487978,1.3839592933654785,-0.00039499628474004567,-0.015768084675073624
553.0,619.0,-4.8305,1.0008,8.6309,-0.0341,0.0377,-0.1287,-2.3585926494994105,0.0002402831451036036,4.892022132873535,-1.3185012340545654,0.00018402215209789574,1.8571159839630127,5.613130855351248,-0.0015398883260786533,0.20440497994422913,-1.7939074675189417,-0.0,0.042632658034563065,0.25236237049102783,-0.0,0.00021858500258531421,1.3839277029037476,-0.0021514780819416046,0.026451287791132927
553.0,619.0,-4.8305,1.0008,8.6309,-0.0341,0.0377,-0.1287,-2.3585645161070765,0.00021561133326031268,4.9459710121154785,-1.3184809684753418,0.0001669531484367326,1.854752779006958,5.613090979843893,-0.0037140457425266504,0.19842562079429626,-1.793955151234762,-0.0,0.04342047870159149,0.25239866971969604,-0.0,0.01761290244758129,1.3838433027267456,-0.0039571416564285755,0.0358167439699173
553.0,619.0,-4.8305,1.0008,8.6309,-0.0341,0.0377,-0.1287,-2.3585602245726527,7.682476280024275e-05,4.949685573577881,-1.3185176849365234,0.000148578459629789,1.8819317817687988,5.61302678564147,-0.007659167516976595,0.19786199927330017,-1.7939513365374964,-0.0,0.04907451570034027,0.2523861229419708,-0.0,0.006183460354804993,1.3837913274765015,-0.006294461898505688,-0.02712344005703926
553.0,619.0,-4.8305,1.0008,8.6309,-0.0341,0.0377,-0.1287,-2.3585926494994105,6.686720007564873e-05,4.914737224578857,-1.3185052871704102,0.0001372492260998115,1.8783378601074219,5.612950730114736,-0.009518682025372982,0.21312075853347778,-1.7939632574664515,-0.0,0.022290322929620743,0.2523702383041382,-0.0,0.00012804800644516945,1.3837878704071045,-0.007971357554197311,-0.05611288920044899
536.0,597.0,-4.8437,0.7364,8.6219,-0.0278,0.0353,-0.1242,-2.358544488946432,5.821643935632892e-05,4.915322780609131,-1.3184608221054077,0.00012458338460419327,1.8467237949371338,5.612866806774893,-0.010109606198966503,0.19605419039726257,-1.7938955465899866,-0.0,0.03192703053355217,0.25238215923309326,-0.0,0.0040488713420927525,1.3837239742279053,-0.00934604462236166,0.025010496377944946
536.0,597.0,-4.8437,0.7364,8.6219,-0.0278,0.0353,-0.1242,-2.3585320911803187,5.306729508447461e-05,4.872091770172119,-1.3185176849365234,0.0001165188368759118,1.8641400337219238,5.612811255245962,-0.010169262997806072,0.21386446058750153,-1.7939232031451624,-0.0,0.03677912801504135,0.2523900270462036,-0.0,0.00770409032702446,1.3836760520935059,-0.009465260431170464,-0.027144651859998703
536.0,597.0,-4.8437,0.7364,8.6219,-0.0278,0.0353,-0.1242,-2.3585764370360316,7.109192665666342e-05,4.895766258239746,-1.3184975385665894,0.00012489344226196408,1.8337520360946655,5.612743901997366,-0.008586820214986801,0.19678694009780884,-1.7939675490008753,-0.0,0.037972696125507355,0.25230640172958374,-0.0,0.0134027861058712,1.3836240768432617,-0.008379577659070492,0.021680204197764397
536.0,597.0,-4.8437,0.7364,8.6219,-0.0278,0.0353,-0.1242,-2.3585244617857875,6.598358595510945e-05,4.9194111824035645,-1.3184489011764526,0.00013496281462721527,1.889838695526123,5.612635600357809,-0.0075516109354794025,0.19287514686584473,-1.7939274946795862,-0.0,0.03607994690537453,0.25238215923309326,-0.0,0.004876167979091406,1.383540391921997,-0.0065771182999014854,-0.0037054717540740967
536.0,597.0,-4.8437,0.7364,8.6219,-0.0278,0.0353,-0.1242,-2.3585688076415003,6.010786455590278e-05,4.961671352386475,-1.3184608221054077,0.0001242181024281308,1.8819825649261475,5.61258743980483,-0.007043150253593922,0.1770230233669281,-1.7939155737506312,-0.0,0.031069036573171616,0.2524264454841614,-0.0,0.0011040936224162579,1.3835325241088867,-0.0037091628182679415,0.020931426435709
536.0,597.0,-4.8437,0.7364,8.6219,-0.0278,0.0353,-0.1242,-2.3586088619627894,5.6344808399444446e-05,4.9241790771484375,-1.3184850215911865,0.00013547626440413296,1.915758728981018,5.612592029362478,-0.007728276774287224,0.16460290551185608,-1.793955151234762,-0.0,0.03525727242231369,0.2523861229419708,-0.0,0.01622866466641426,1.3835084438323975,-0.001955403247848153,0.047171179205179214
536.0,597.0,-4.8437,0.7364,8.6219,-0.0278,0.0353,-0.1242,-2.3585483036436976,-2.2260521291173063e-05,4.866827964782715,-1.3184813261032104,0.0001273463130928576,1.8818869590759277,5.612471508770742,-0.009297773241996765,0.17853806912899017,-1.7939155737506312,-0.0,0.03482063487172127,0.2523144483566284,-0.0,0.0022032945416867733,1.3834965229034424,-0.001252405229024589,0.030479369685053825
536.0,597.0,-4.8437,0.7364,8.6219,-0.0278,0.0353,-0.1242,-2.3586007557311,-2.8230453608557582e-05,4.894941806793213,-1.3185094594955444,0.00011782005458371714,1.9022023677825928,5.612383830338278,-0.01209663599729538,0.16824771463871002,-1.7939632574664515,-0.0,0.02626028284430504,0.25235438346862793,-0.0,0.013752834871411324,1.3834965229034424,-0.0007383590564131737,0.04171517491340637
536.0,597.0,-4.8437,0.7364,8.6219,-0.0278,0.0353,-0.1242,-2.3585807285704554,-5.159037755220197e-05,4.940708160400391,-1.3184891939163208,0.0001115610939450562,1.8719220161437988,5.6122798202331445,-0.014114193618297577,0.15526121854782104,-1.7939470450030726,-0.0,0.027586884796619415,0.25237420201301575,-0.0,0.0010429841931909323,1.3834965229034424,-0.0001759752194629982,0.06563255190849304
536.0,597.0,-4.8437,0.7364,8.6219,-0.0278,0.0353,-0.1242,-2.3585883579649867,-4.629570321412757e-05,4.945532321929932,-1.3184611797332764,0.00011906493455171585,1.8949021100997925,5.612104284554281,-0.016129372641444206,0.1606341004371643,-1.7939313093768519,-0.0,0.03023817390203476,0.25239473581314087,-0.0,0.013446034863591194,1.3835124969482422,-5.9541212976910174e-05,0.08044975250959396
536.0,597.0,-4.8437,0.7364,8.6219,-0.0278,0.0353,-0.1242,-2.3586207828917445,-4.297937994124368e-05,4.869134902954102,-1.3185136318206787,0.00022470980184152722,1.9321620464324951,5.612072455673971,-0.016006285324692726,0.16141387820243835,-1.793943230305807,-0.0,0.026957817375659943,0.2524343430995941,-0.0,0.0003425590693950653,1.3834965229034424,-3.4743652399527036e-09,0.11314857751131058
536.0,597.0,-4.8437,0.7364,8.6219,-0.0278,0.0353,-0.1242,-2.358596464196676,-3.9232323615578935e-05,4.921450614929199,-1.3184731006622314,0.0006191655993461609,1.9531066417694092,5.6119688031967065,-0.013490606099367142,0.15993863344192505,-1.7939513365374964,-0.0,0.029383227229118347,0.2523782253265381,-0.0,0.002968156011775136,1.383532166481018,-1.1256502739215155e-16,0.13695357739925385
536.0,597.0,-4.8437,0.7364,8.6219,-0.0278,0.0353,-0.1242,-2.3585602245726527,-3.682451642816886e-05,4.935573577880859,-1.3184329271316528,0.001367382239550352,1.9757204055786133,5.611812639027395,-0.010152491740882397,0.14778080582618713,-1.793943230305807,-0.0,0.012389687821269035,0.2523702383041382,-0.0,0.005453637335449457,1.3835484981536865,-2.7183129478892694e-22,0.12010722607374191
552.0,624.0,-4.6128,0.2477,8.7224,-0.0296,0.0279,-0.1193,-2.3585883579649867,-3.403901791898534e-05,4.8880295753479,-1.3184089660644531,0.0026822565123438835,1.9937177896499634,5.611800420075216,-0.004279782064259052,0.1619175374507904,-1.7939799467669886,-0.0,0.02777157351374626,0.2523583173751831,-0.0,-0.0010432933922857046,1.3835567235946655,0.000682813988532871,0.16595518589019775
552.0,624.0,-4.6128,0.2477,8.7224,-0.0296,0.0279,-0.1193,-2.358584066430563,-3.221165025024675e-05,4.952398300170898,-1.3184007406234741,0.004387720488011837,1.9452413320541382,5.611768948822775,-0.0016443580389022827,0.15144003927707672,-1.7939589659320276,-0.0,0.02262798696756363,0.2523980438709259,-0.0,0.012285644188523293,1.3835567235946655,0.0006631609285250306,0.11512324213981628
552.0,624.0,-4.6128,0.2477,8.7224,-0.0296,0.0279,-0.1193,-2.3585640392699183,-3.005993494298309e-05,4.97962760925293,-1.3183764219284058,0.009031117893755436,1.9769105911254883,5.611816930561819,-0.0007430126424878836,0.1542128324508667,-1.793955151234762,-0.0,0.017932426184415817,0.2523462176322937,-0.0,0.024845534935593605,1.3835604190826416,0.0006204735836945474,0.1717545986175537
552.0,624.0,-4.6128,0.2477,8.7224,-0.0296,0.0279,-0.1193,-2.358580251733297,-2.8625810955418274e-05,4.925102233886719,-1.3183612823486328,0.010365855880081654,1.954336404800415,5.611792790680685,-0.0006114845164120197,0.14587071537971497,-1.793943230305807,-0.0,0.012176968157291412,0.2523786425590515,-0.0,0.013929424807429314,1.383580207824707,0.000614803924690932,0.20778103172779083
552.0,624.0,-4.6128,0.2477,8.7224,-0.0296,0.0279,-0.1193,-2.358596464196676,-2.6913767214864492e-05,4.982396125793457,-1.3182246685028076,0.011944610625505447,1.982421875,5.611761081009664,-0.0005254618590697646,0.15840193629264832,-1.7939475218402308,-0.0,0.022710463032126427,0.2523622214794159,-0.0,0.014698134735226631,1.3835523128509521,0.0005301443161442876,0.1636515110731125
552.0,624.0,-4.6128,0.2477,8.7224,-0.0296,0.0279,-0.1193,-2.358605047265524,-3.863751044264063e-05,4.905732154846191,-1.3181804418563843,0.012626834213733673,2.0309433937072754,5.61174504736022,-0.002297423779964447,0.14962726831436157,-1.793967072163717,-0.0,0.018870841711759567,0.2523703873157501,-0.0,0.016338244080543518,1.3835965394973755,0.000477748631965369,0.16554486751556396
552.0,624.0,-4.6128,0.2477,8.7224,-0.0296,0.0279,-0.1193,-2.358544012109274,-3.7047113437438384e-05,4.94566011428833,-1.3180686235427856,0.013611704111099243,2.0346782207489014,5.611700463085928,-0.0037017439026385546,0.15622244775295258,-1.7939394156085413,-0.0,0.03238314017653465,0.2523905038833618,-0.0,-0.0022407511714845896,1.3836042881011963,0.0004447774263098836,0.20907753705978394
552.0,624.0,-4.6128,0.2477,8.7224,-0.0296,0.0279,-0.1193,-2.358580251733297,-3.636572364484891e-05,4.935047626495361,-1.3178874254226685,0.016730032861232758,2.0252938270568848,5.611684965878286,-0.0054620481096208096,0.14372864365577698,-1.7939589659320276,-0.0,0.01969384402036667,0.2523948550224304,-0.0,0.009839817881584167,1.3835723400115967,0.00040155727765522897,0.17381161451339722
552.0,624.0,-4.6128,0.2477,8.7224,-0.0296,0.0279,-0.1193,-2.3586007557311,-3.4287575545022264e-05,4.913197040557861,-1.31786048412323,0.019762083888053894,1.9769644737243652,5.611721443920889,-0.005903659388422966,0.1450384110212326,-1.7939351240741175,-0.0,0.02832329086959362,0.25229838490486145,-0.0,-0.006177507806569338,1.3835842609405518,0.00043747780728153884,0.2032983899116516
552.0,624.0,-4.6128,0.2477,8.7224,-0.0296,0.0279,-0.1193,-2.358605047265524,-3.186006142641418e-05,4.916995048522949,-1.3176476955413818,0.025167196989059448,2.1255648136138916,5.611585068493643,-0.005281877238303423,0.14662322402000427,-1.7939394156085413,-0.0,0.014842609874904156,0.25239044427871704,-0.0,-0.012440817430615425,1.3836121559143066,0.0005149769713170826,0.20919939875602722
552.0,624.0,-4.6128,0.2477,8.7224,-0.0296,0.0279,-0.1193,-2.358616968194479,-3.0253584554884583e-05,4.9594645500183105,-1.3174632787704468,0.029776493087410927,2.0666518211364746,5.6116174934204,-0.005054356995970011,0.13763847947120667,-1.793967072163717,-0.0,0.019229870289564133,0.25235849618911743,-0.0,-0.0012319684028625488,1.383592128753662,0.0005107455071993172,0.20373162627220154
552.0,624.0,-4.6128,0.2477,8.7224,-0.0296,0.0279,-0.1193,-2.358580251733297,-2.8347800252959132e-05,4.944365501403809,-1.3171944618225098,0.03716828674077988,2.087519884109497,5.611520695477285,-0.0041273427195847034,0.15757840871810913,-1.7939470450030726,-0.0,0.01608969457447529,0.25240302085876465,-0.0,-0.0010262079304084182,1.383620262145996,0.0004385406500659883,0.171933114528656
552.0,624.0,-4.6128,0.2477,8.7224,-0.0296,0.0279,-0.1193,-2.358628889123434,-4.058181002619676e-05,4.954959392547607,-1.3169339895248413,0.04378461837768555,2.083782434463501,5.6114691374595544,-0.003650836180895567,0.14600858092308044,-1.7939313093768519,-0.0,-0.0011651073582470417,0.2523823082447052,-0.0,-0.002436215290799737,1.3835840225219727,0.0004071501025464386,0.22609132528305054
562.0,644.0,-4.7342,0.5569,8.653,-0.0515,0.038,-0.1156,-2.358580251733297,-3.829955676337704e-05,4.929245948791504,-1.3165651559829712,0.05064956843852997,2.0974268913269043,5.611509310990133,-0.002779159229248762,0.14608559012413025,-1.7939437071429651,-0.0,0.030190128833055496,0.25232595205307007,-0.0,-0.0062414477579295635,1.3835322856903076,0.00026069293380714953,0.2041347771883011
562.0,644.0,-4.7342,0.5569,8.653,-0.0515,0.038,-0.1156,-2.3586446247496546,-4.898169936495833e-05,4.9262285232543945,-1.3162167072296143,0.056212227791547775,2.0936439037323,5.6114776013191126,-0.002015781356021762,0.14521050453186035,-1.7939193884478968,-0.0,0.008923965506255627,0.2523703873157501,-0.0,-0.0032032853923738003,1.3835721015930176,0.0002220825117547065,0.22755682468414307
562.0,644.0,-4.7342,0.5569,8.653,-0.0515,0.038,-0.1156,-2.358596464196676,-4.64535660285037e-05,4.92064905166626,-1.3157236576080322,0.06364570558071136,2.0864973068237305,5.6114616868789575,-0.0013572260504588485,0.14439044892787933,-1.7938912550555628,-0.0,0.009914121590554714,0.25238654017448425,-0.0,0.010217273607850075,1.3835604190826416,0.00014837447088211775,0.2316306233406067
562.0,644.0,-4.7342,0.5569,8.653,-0.0515,0.038,-0.1156,-2.358608385125631,-5.384591713664122e-05,4.896818161010742,-1.3153672218322754,0.07170236855745316,2.144371271133423,5.611461627274313,-0.0012599121546372771,0.14642491936683655,-1.7938950697528284,-0.0,0.018331125378608704,0.2523905038833618,-0.0,0.0009771659970283508,1.383608341217041,0.00013204614515416324,0.2192961573600769
562.0,644.0,-4.7342,0.5569,8.653,-0.0515,0.038,-0.1156,-2.3585926494994105,-4.941325096297078e-05,4.94113302230835,-1.3148173093795776,0.08187135308980942,2.1097054481506348,5.611425387650289,-0.0018960846355184913,0.13895243406295776,-1.793903652821676,-0.0,0.00575533602386713,0.25234195590019226,-0.0,4.662462742999196e-05,1.3835563659667969,8.921715198084712e-05,0.23474356532096863
562.0,644.0,-4.7342,0.5569,8.653,-0.0515,0.038,-0.1156,-2.3585926494994105,-6.67819767841138e-05,4.914185523986816,-1.3141450881958008,0.09191734343767166,2.1707868576049805,5.611389624863424,-0.004078795667737722,0.1381669044494629,-1.7939074675189417,-0.0,0.01641368307173252,0.25237396359443665,-0.0,0.017989104613661766,1.3836042881011963,7.880136399762705e-05,0.2354801893234253
562.0,644.0,-4.7342,0.5569,8.653,-0.0515,0.038,-0.1156,-2.358640810052389,-9.652562584960833e-05,4.925219535827637,-1.3135638236999512,0.09631846100091934,2.169872283935547,5.611349272518911,-0.00648555438965559,0.1393684446811676,-1.7939274946795862,-0.0,0.006019286811351776,0.2523989677429199,-0.0,0.0031685633584856987,1.383608341217041,7.245711458381265e-05,0.2479083091020584
562.0,644.0,-4.7342,0.5569,8.653,-0.0515,0.038,-0.1156,-2.358636518517965,-9.488158684689552e-05,4.873562335968018,-1.3126897811889648,0.1004408746957779,2.163123846054077,5.6112780449684045,-0.011050267145037651,0.12926965951919556,-1.7938998381244105,-0.0,0.006367566995322704,0.25235438346862793,-0.0,0.016701608896255493,1.3835442066192627,6.543325434904546e-05,0.27639272809028625
562.0,644.0,-4.7342,0.5569,8.653,-0.0515,0.038,-0.1156,-2.358580251733297,-7.163385453168303e-05,4.916558742523193,-1.3121334314346313,0.10498853027820587,2.1685426235198975,5.611222016602316,-0.016297025606036186,0.11855216324329376,-1.7939074675189417,-0.0,0.011491873301565647,0.2523622214794159,-0.0,0.005286757834255695,1.3836042881011963,6.099841630202718e-05,0.22956788539886475
562.0,644.0,-4.7342,0.5569,8.653,-0.0515,0.038,-0.1156,-2.358628889123434,-6.614313315367326e-05,4.910231113433838,-1.3112033605575562,0.11247093975543976,2.2382519245147705,5.61112670877532,-0.025223756209015846,0.13890469074249268,-1.7938874403582972,-0.0,-0.0005057307425886393,0.2523782253265381,-0.0,0.006923952139914036,1.3835883140563965,-4.531030572252348e-05,0.25838810205459595
562.0,644.0,-4.7342,0.5569,8.653,-0.0515,0.038,-0.1156,-2.358616968194479,-6.268780998652801e-05,4.915050506591797,-1.310437798500061,0.12294240295886993,2.2180237770080566,5.610886323242941,-0.03786027058959007,0.12742406129837036,-1.7939117590533655,-0.0,0.004145626910030842,0.252334326505661,-0.0,-0.0019163342658430338,1.3835883140563965,-4.2129020584980026e-05,0.26027366518974304
562.0,644.0,-4.7342,0.5569,8.653,-0.0515,0.038,-0.1156,-2.358628889123434,-5.860579767613672e-05,4.911095142364502,-1.309448480606079,0.13610531389713287,2.2332043647766113,5.61040227392272,-0.07251136749982834,0.10457013547420502,-1.7939356009112757,-0.0,-0.013004086911678314,0.25237447023391724,-0.0,0.0025253165513277054,1.3836123943328857,-3.852260488201864e-05,0.2445685863494873
562.0,644.0,-4.7342,0.5569,8.653,-0.0515,0.038,-0.1156,-2.35862459758901,-5.5876884289318696e-05,4.869933128356934,-1.308558702468872,0.14555908739566803,2.264798402786255,5.6098272679145715,-0.11608971655368805,0.08689972758293152,-1.7939074675189417,-0.0,-0.005261220969259739,0.2523863911628723,-0.0,0.010074209421873093,1.3835484981536865,-3.619852941483259e-05,0.25247490406036377
528.0,599.0,-4.9603,0.463,9.0323,-0.0631,0.0965,-0.146,-2.3586002788939417,-6.576324813067913e-05,4.91064453125,-1.3072760105133057,0.15036003291606903,2.192039728164673,5.608652639179983,-0.16218653321266174,0.05540475249290466,-1.7938631216632288,-0.0,0.005777173675596714,0.2523343563079834,-0.0,-0.005009589251130819,1.3835763931274414,-5.025483915233053e-05,0.2907545268535614
528.0,599.0,-4.9603,0.463,9.0323,-0.0631,0.0965,-0.146,-2.3586651287474574,-6.300120003288612e-05,4.926753044128418,-1.3063784837722778,0.1607557237148285,2.2742350101470947,5.607561933785238,-0.17555031180381775,0.05303887650370598,-1.7938631216632288,-0.0,0.006656280718743801,0.2523946166038513,-0.0,0.01967773772776127,1.3836042881011963,-4.759742660098709e-05,0.2709948718547821
528.0,599.0,-4.9603,0.463,9.0323,-0.0631,0.0965,-0.146,-2.358664651910299,-0.00010471604764461517,4.92063045501709,-1.3053927421569824,0.1664002686738968,2.293372869491577,5.606435942440786,-0.1980191171169281,0.05318498983979225,-1.7938955465899866,-0.0,0.002347436733543873,0.25237447023391724,-0.0,0.0012186230160295963,1.3835484981536865,-7.513847958762199e-05,0.2966110408306122
528.0,599.0,-4.9603,0.463,9.0323,-0.0631,0.0965,-0.146,-2.358619829217428,-0.0001341085007879883,4.897670745849609,-1.3040103912353516,0.1739407330751419,2.23935604095459,5.604651081352987,-0.23175258934497833,0.03850001096725464,-1.7938993612872522,-0.0,-0.0007550111040472984,0.2523662745952606,-0.0,-0.008429009467363358,1.3835281133651733,-0.00020034710178151727,0.2789275348186493
528.0,599.0,-4.9603,0.463,9.0323,-0.0631,0.0965,-0.146,-2.3586284122862757,-0.00012606770906131715,4.875144004821777,-1.302960991859436,0.17779457569122314,2.289642095565796,5.603205072670736,-0.24864548444747925,0.024527112022042274,-1.7938955465899866,-0.0,0.003219778649508953,0.2523622214794159,-0.0,0.014277813956141472,1.3835846185684204,-0.00018028225167654455,0.18657925724983215
528.0,599.0,-4.9603,0.463,9.0323,-0.0631,0.0965,-0.146,-2.358668466607565,-0.00011672470282064751,4.835603713989258,-1.3014861345291138,0.18351824581623077,2.23478627204895,5.601032006531515,-0.2799089848995209,0.01651804894208908,-1.7938998381244105,-0.0,-0.008773131296038628,0.25242307782173157,-0.0,0.010959967970848083,1.3835846185684204,-0.00015904282918199897,0.23712757229804993
528.0,599.0,-4.9603,0.463,9.0323,-0.0631,0.0965,-0.146,-2.3586040935912074,-0.00011057849042117596,4.9101691246032715,-1.3004086017608643,0.18947762250900269,2.2568905353546143,5.599331784039297,-0.2992868721485138,0.01783514954149723,-1.79393178621401,-5.2075844081400646e-08,0.008411720395088196,0.2523462176322937,-0.0,0.01233246736228466,1.383556604385376,-0.0001461309293517843,0.18234282732009888
528.0,599.0,-4.9603,0.463,9.0323,-0.0631,0.0965,-0.146,-2.3586484394469203,-0.00011808214185293764,4.8742170333862305,-1.2988698482513428,0.20135752856731415,2.2945311069488525,5.5968190906341455,-0.3294259309768677,-0.0059297517873346806,-1.7938955465899866,-9.464527685881796e-13,0.008166229352355003,0.2523503005504608,-0.0,0.0017174981767311692,1.3835281133651733,-0.00013185781426727772,0.2274715006351471
528.0,599.0,-4.9603,0.463,9.0323,-0.0631,0.0965,-0.146,-2.358680864373678,-0.00011254740820731968,4.858376502990723,-1.2976356744766235,0.20375703275203705,2.268138885498047,5.5947550413902185,-0.37007707357406616,-0.017604418098926544,-1.7938998381244105,-2.6344860770822597e-16,0.00514588225632906,0.25241902470588684,-0.0,0.0053623211570084095,1.383532166481018,-0.0001409349642926827,0.13798615336418152
528.0,599.0,-4.9603,0.463,9.0323,-0.0631,0.0965,-0.146,-2.3586164913573207,-0.00010592442413326353,4.863383769989014,-1.2960010766983032,0.20824570953845978,2.252528429031372,5.591663586884298,-0.39892396330833435,-0.02327136881649494,-1.7938793341266077,-4.7880493496451044e-21,-0.0022868786472827196,0.25240662693977356,-0.0,0.010073419660329819,1.3835484981536865,-0.00015011616051197052,0.20353737473487854
528.0,599.0,-4.9603,0.463,9.0323,-0.0631,0.0965,-0.146,-2.358624120751852,-0.0001306410413235426,4.824048042297363,-1.2947219610214233,0.21848301589488983,2.24181866645813,5.589148330479421,-0.4180193543434143,-0.03208920359611511,-1.7938912550555628,-1.3327713288628763e-24,0.007978316396474838,0.2523342967033386,-0.0,0.014713005162775517,1.383540391921997,-0.00016361736925318837,0.2254447638988495
528.0,599.0,-4.9603,0.463,9.0323,-0.0631,0.0965,-0.146,-2.3587047062315882,-0.001066836528480053,4.80265998840332,-1.2930282354354858,0.22275134921073914,2.3160135746002197,5.5856255171592615,-0.4612836241722107,-0.04128704220056534,-1.7939313093768519,-2.422246153564303e-29,0.00241956883110106,0.2523946762084961,-0.0,-0.003685552626848221,1.3834800720214844,-0.0001714110840111971,0.138678640127182
528.0,599.0,-4.9603,0.463,9.0323,-0.0631,0.0965,-0.146,-2.3586842022337855,-0.002724511083215475,4.808577060699463,-1.29169762134552,0.22002285718917847,2.224729537963867,5.5827024457748315,-0.48447471857070923,-0.04580273479223251,-1.7938793341266077,-6.742411517706016e-33,0.00514956982806325,0.2523782253265381,-0.0,-3.407476469874382e-05,1.3835526704788208,-0.00015650695422664285,0.1433602273464203
467.0,502.0,-6.4307,-0.6221,9.5192,-0.0406,0.1645,-0.06,-2.358720441857809,-0.0025744305457919836,4.842877388000488,-1.2903589010238647,0.22183185815811157,2.2395992279052734,5.579687225609579,-0.5105248093605042,-0.03786691650748253,-1.7939117590533655,-1.8767751313869857e-36,0.016870640218257904,0.2523462176322937,-0.0,0.005657257046550512,1.38357675075531,-0.000167871912708506,0.15588027238845825
467.0,502.0,-6.4307,-0.6221,9.5192,-0.0406,0.1645,-0.06,-2.3587242565550746,-0.0026635073591023684,4.810132026672363,-1.2885308265686035,0.22813472151756287,2.2390856742858887,5.575451004296102,-0.5435578227043152,-0.0657576471567154,-1.7939274946795862,-3.410900592013037e-41,0.01215779036283493,0.25235846638679504,-0.0,0.00770944356918335,1.3835121393203735,-0.00017344500520266593,0.16096223890781403
467.0,502.0,-6.4307,-0.6221,9.5192,-0.0406,0.1645,-0.06,-2.3587123356261195,-0.004136926028877497,4.774720668792725,-1.2872895002365112,0.22829222679138184,2.207540512084961,5.572039949684896,-0.5643972754478455,-0.06344318389892578,-1.7938631216632288,-9.80908925027372e-45,0.012145972810685635,0.25240305066108704,-0.0,0.012271800078451633,1.383532166481018,-0.00016215034702327102,0.12940645217895508
467.0,502.0,-6.4307,-0.6221,9.5192,-0.0406,0.1645,-0.06,-2.3588043651976527,-0.005579602438956499,4.759199142456055,-1.2855151891708374,0.22351686656475067,2.170236587524414,5.5675198314483545,-0.587996780872345,-0.03903795778751373,-1.7938793341266077,-0.0,0.020015573129057884,0.2523905038833618,-0.0,-0.0058563812635838985,1.3835281133651733,-0.00022867733787279576,0.11136429011821747
467.0,502.0,-6.4307,-0.6221,9.5192,-0.0406,0.1645,-0.06,-2.3588043651976527,-0.005210374481976032,4.744792938232422,-1.2841905355453491,0.22683653235435486,2.1666345596313477,5.563981938153066,-0.5973056554794312,-0.033296164125204086,-1.79393178621401,-0.0,0.025469282642006874,0.2523822784423828,-0.0,-0.001267590676434338,1.3835244178771973,-0.0002366603584960103,0.05676409602165222
467.0,502.0,-6.4307,-0.6221,9.5192,-0.0406,0.1645,-0.06,-2.3588720760741175,-0.002477649599313736,4.741801738739014,-1.2823634147644043,0.2271743267774582,2.1525685787200928,5.559101807862081,-0.6077474355697632,-0.031964100897312164,-1.7939518133746546,-0.0,0.0325956791639328,0.2523579001426697,-0.0,0.0016794302500784397,1.3835407495498657,-0.0004895770107395947,0.06660425662994385
467.0,502.0,-6.4307,-0.6221,9.5192,-0.0406,0.1645,-0.06,-2.3588839970030726,-0.002207714831456542,4.767242431640625,-1.2809948921203613,0.2202693223953247,2.2268903255462646,5.555391835957327,-0.6118749380111694,-0.039406124502420425,-1.7938998381244105,-0.0,0.008134053088724613,0.2523626685142517,-0.0,0.005653235595673323,1.383536696434021,-0.0005134736420586705,0.0693800076842308
467.0,502.0,-6.4307,-0.6221,9.5192,-0.0406,0.1645,-0.06,-2.3588558636107386,-0.002479872200638056,4.747217178344727,-1.2792153358459473,0.21504127979278564,2.220458507537842,5.55048959234313,-0.6140062808990479,-0.03205117583274841,-1.7938793341266077,-0.0,0.024520348757505417,0.2523704171180725,-0.0,0.0021250976715236902,1.3834924697875977,-0.0007697602268308401,0.053941354155540466
467.0,502.0,-6.4307,-0.6221,9.5192,-0.0406,0.1645,-0.06,-2.358920236627096,-0.0017797327600419521,4.795257568359375,-1.2779548168182373,0.21343429386615753,2.1307015419006348,5.546860623150625,-0.6124213337898254,-0.029065098613500595,-1.7938836256610315,-0.0,0.009846514090895653,0.25233837962150574,-0.0,0.0045107328332960606,1.3834842443466187,-0.0010341068264096975,0.04962275177240372
467.0,502.0,-6.4307,-0.6221,9.5192,-0.0406,0.1645,-0.06,-2.3589445553221644,-0.0008911166805773973,4.777355670928955,-1.276231050491333,0.203691765666008,2.1309564113616943,5.542046117573538,-0.5939993858337402,-0.022959329187870026,-1.793903652821676,-0.0,0.01673547551035881,0.2522781789302826,-0.0,0.007477547507733107,1.3834277391433716,-0.0011499453103169799,0.01961149275302887
467.0,502.0,-6.4307,-0.6221,9.5192,-0.0406,0.1645,-0.06,-2.358952661553854,-0.0006704696570523083,4.732566833496094,-1.2750223875045776,0.20141425728797913,2.1021595001220703,5.538588809757986,-0.5735915303230286,-0.008530842140316963,-1.7938998381244105,-0.0,0.019234754145145416,0.25228187441825867,-0.0,0.010910401120781898,1.383500576019287,-0.0011187675409018993,0.009034856222569942
467.0,502.0,-6.4307,-0.6221,9.5192,-0.0406,0.1645,-0.06,-2.3589207134642542,-0.00041689947829581797,4.770054340362549,-1.273857831954956,0.19777750968933105,2.1147589683532715,5.535239624768057,-0.5487476587295532,-0.001629241043701768,-1.793891731892721,-0.0,0.02082223817706108,0.2523019313812256,-0.0,-0.003956160042434931,1.3834764957427979,-0.001125101582147181,0.04404730722308159
467.0,502.0,-6.4307,-0.6221,9.5192,-0.0406,0.1645,-0.06,-2.358908315698141,-0.0003583411453291774,4.752439498901367,-1.2722498178482056,0.19147264957427979,2.091179370880127,5.531066524773397,-0.5151604413986206,0.01753910630941391,-1.7938998381244105,-0.0,0.036407820880413055,0.2522900104522705,-7.203314333903421e-11,0.0068431817926466465,1.3834764957427979,-0.0010954012395814061,0.01657497137784958
405.0,516.0,-4.8317,0.3464,8.9665,0.1155,-0.2958,-0.1019,-2.3588925800719203,-0.0002990456414408982,4.800830841064453,-1.2711163759231567,0.18637900054454803,2.118931293487549,5.52808957079009,-0.4839992821216583,0.005133324768394232,-1.793919865285055,-0.0,0.025540247559547424,0.25237491726875305,-2.0050689488728887e-14,-0.008356080390512943,1.3834564685821533,-0.0007100917282514274,0.01524290069937706
405.0,516.0,-4.8317,0.3464,8.9665,0.1155,-0.2958,-0.1019,-2.358936925927633,-0.0002448112063575536,4.808348655700684,-1.2696363925933838,0.1847681850194931,2.119964122772217,5.524392533093252,-0.45096996426582336,0.04204612225294113,-1.7938674131976526,-0.0,0.03158912435173988,0.25231054425239563,-3.6441131693293927e-19,-0.00709154037758708,1.383460521697998,-0.0005222176550887525,-0.005043319426476955
405.0,516.0,-4.8317,0.3464,8.9665,0.1155,-0.2958,-0.1019,-2.358932157556051,-0.00025139612262137234,4.825329780578613,-1.268535852432251,0.18207867443561554,2.1138837337493896,5.5218636868293665,-0.4253651201725006,0.04254532605409622,-1.7938512007342737,-0.0,0.027332577854394913,0.25237035751342773,-2.0394268176460173e-06,-0.003363757859915495,1.3835006952285767,-0.0005386868724599481,-0.04236333444714546
405.0,516.0,-4.8317,0.3464,8.9665,0.1155,-0.2958,-0.1019,-2.358940740624899,-0.00024244884843938053,4.84523868560791,-1.2670544385910034,0.179534912109375,2.0876352787017822,5.518714475422659,-0.3758337199687958,0.0787108838558197,-1.7938712278949183,-0.0,0.02971385046839714,0.2522581219673157,-0.00030854513170197606,-0.017002690583467484,1.3834728002548218,-0.00033389843883924186,-0.04439622908830643
405.0,516.0,-4.8317,0.3464,8.9665,0.1155,-0.2958,-0.1019,-2.3589283428587855,-0.0007713691447861493,4.811191558837891,-1.266005516052246,0.1681510955095291,2.115022897720337,5.516682374268331,-0.3300900161266327,0.09031438827514648,-1.7938712278949183,-0.0,0.020740821957588196,0.2522945702075958,-0.0002961789141409099,-0.011991402134299278,1.3834564685821533,-0.00032673130044713616,-0.03026857040822506
405.0,516.0,-4.8317,0.3464,8.9665,0.1155,-0.2958,-0.1019,-2.3590008221068324,-0.0005527793546207249,4.888251304626465,-1.2646652460098267,0.16869309544563293,2.0933942794799805,5.514357793122091,-0.2630799412727356,0.12831741571426392,-1.7938712278949183,6.671835581073537e-05,0.01565101370215416,0.2522982954978943,-0.00029351189732551575,-0.015170104801654816,1.3834285736083984,-0.0003490301314741373,-0.027016155421733856
405.0,516.0,-4.8317,0.3464,8.9665,0.1155,-0.2958,-0.1019,-2.3589683971800746,-0.00048484644503332675,4.8227715492248535,-1.263647437095642,0.16663584113121033,2.1362497806549072,5.512953567295828,-0.23052309453487396,0.140981525182724,-1.7938960234271448,6.690133886877447e-05,0.03416525572538376,0.2523023784160614,-0.0003063837066292763,-0.021960239857435226,1.3834887742996216,-0.000565609778277576,-0.038529302924871445
405.0,516.0,-4.8317,0.3464,8.9665,0.1155,-0.2958,-0.1019,-2.358992715875143,-0.0004514658940024674,4.8281354904174805,-1.2623108625411987,0.16356433928012848,2.104200839996338,5.511465835362234,-0.14764896035194397,0.1777823567390442,-1.793903652821676,6.314700294751674e-05,0.020813506096601486,0.2523142695426941,-0.00029820125200785697,-0.021187659353017807,1.3834404945373535,-0.0007132774917408824,-0.024646107107400894
405.0,516.0,-4.8317,0.3464,8.9665,0.1155,-0.2958,-0.1019,-2.3589922390379847,-0.0016944750677794218,4.891225337982178,-1.2613377571105957,0.15403515100479126,2.0482304096221924,5.510874497681417,-0.07815473526716232,0.2234516143798828,-1.7938631216632288,6.0596023104153574e-05,0.03529755026102066,0.2523348331451416,-0.0002583614259492606,-0.030991069972515106,1.3834524154663086,-0.0004835460858885199,-0.08682463318109512
405.0,516.0,-4.8317,0.3464,8.9665,0.1155,-0.2958,-0.1019,-2.358988424340719,-0.0022101770155131817,4.894453525543213,-1.260285496711731,0.14562447369098663,2.0468204021453857,5.51061903217391,-0.006079951301217079,0.2633401155471802,-1.7938550154315394,5.749899719376117e-05,0.037050675600767136,0.2523183822631836,-0.0002529074845369905,-0.02727944403886795,1.3834364414215088,-0.0004057744808960706,-0.023003697395324707
405.0,516.0,-4.8317,0.3464,8.9665,0.1155,-0.2958,-0.1019,-2.359044691125387,-0.0016493576113134623,4.877724647521973,-1.2593754529953003,0.13971297442913055,2.046497106552124,5.510711538582601,0.031265150755643845,0.2816789150238037,-1.793891731892721,5.537630568142049e-05,0.024117646738886833,0.25228238105773926,-0.0002257872693007812,-0.031005138531327248,1.383468747138977,-0.0003311145701445639,-0.0413629524409771
405.0,516.0,-4.8317,0.3464,8.9665,0.1155,-0.2958,-0.1019,-2.359048982659811,-0.0009583351202309132,4.888665199279785,-1.258521318435669,0.13869266211986542,2.126499891281128,5.510839092522421,0.05081003159284592,0.28719162940979004,-1.793875519429342,5.340469579095952e-05,0.02626124396920204,0.2523147463798523,-0.00022913260909263045,-0.032803770154714584,1.3834482431411743,-0.000279662839602679,-0.09572714567184448
405.0,516.0,-4.8317,0.3464,8.9665,0.1155,-0.2958,-0.1019,-2.3589922390379847,-0.0007236247765831649,4.896304607391357,-1.2574567794799805,0.1423262059688568,2.1006150245666504,5.511327969818868,0.06605520099401474,0.3063713610172272,-1.7938512007342737,5.098447945783846e-05,0.03212973475456238,0.2523224949836731,-0.0002062847197521478,-0.01249455101788044,1.3834682703018188,-0.00019462878117337823,-0.047255657613277435
472.0,575.0,-2.6889,1.6038,8.6578,0.0154,-0.0903,-0.1333,-2.359032293359274,-0.0006222292431630194,4.890872955322266,-1.2566590309143066,0.13766220211982727,2.048398017883301,5.511639523297109,0.06880505383014679,0.306522011756897,-1.793875519429342,6.421740636142204e-06,0.013226432725787163,0.25223392248153687,-0.00018995611753780395,-0.0328824445605278,1.3834847211837769,-0.00017104152357205749,-0.03936685621738434
472.0,575.0,-2.6889,1.6038,8.6578,0.0154,-0.0903,-0.1333,-2.359060903588766,-0.0005289971013553441,4.913910865783691,-1.2556461095809937,0.12528382241725922,2.0739781856536865,5.512147831707754,0.054004233330488205,0.2918097972869873,-1.793891731892721,1.1671197341911466e-10,0.019643981009721756,0.2523101270198822,-0.00017182219016831368,-0.019197043031454086,1.3834924697875977,-0.00014846783597022295,-0.04267639294266701
472.0,575.0,-2.6889,1.6038,8.6578,0.0154,-0.0903,-0.1333,-2.359000345269674,-0.0004227771423757076,4.91599178314209,-1.2547506093978882,0.12164147943258286,2.0628089904785156,5.512339699059286,0.03591247648000717,0.28693434596061707,-1.7938712278949183,3.2487206691076895e-14,0.021051833406090736,0.2523064613342285,-0.00016034262080211192,-0.02562440000474453,1.3834805488586426,-0.00013509597920347005,-0.05529486760497093
472.0,575.0,-2.6889,1.6038,8.6578,0.0154,-0.0903,-0.1333,-2.3589922390379847,-0.0003332961059641093,4.885420799255371,-1.2538774013519287,0.11637236177921295,2.0792078971862793,5.512519943505087,0.0069200885482132435,0.2825685143470764,-1.793863598500387,5.904390396985135e-19,0.029470697045326233,0.25233030319213867,-0.00014722706691827625,-0.013211151584982872,1.383468747138977,-0.00012061200686730444,-0.04905317351222038
472.0,575.0,-2.6889,1.6038,8.6578,0.0154,-0.0903,-0.1333,-2.35900415996694,-0.0002876397338695824,4.901330947875977,-1.2531520128250122,0.11752883344888687,2.092180013656616,5.512488114624777,-0.0076706623658537865,0.26652467250823975,-1.7938593069659632,1.6435085185341316e-22,0.014541979879140854,0.25227808952331543,-0.00012138277816120535,-0.022385716438293457,1.3834728002548218,-0.000111635476059746,-0.04144355282187462
472.0,575.0,-2.6889,1.6038,8.6578,0.0154,-0.0903,-0.1333,-2.359048982659811,-0.0002432186302030459,4.87688684463501,-1.2522737979888916,0.11644136160612106,2.086643695831299,5.5124316094215295,-0.00602294085547328,0.2621742784976959,-1.793891731892721,2.986996202751101e-27,0.021161528304219246,0.2523142993450165,-0.00011269273090874776,-0.015353049151599407,1.3834645748138428,-0.00012105493078706786,0.008415214717388153
472.0,575.0,-2.6889,1.6038,8.6578,0.0154,-0.0903,-0.1333,-2.359016080895895,-0.00024906007456593215,4.924957275390625,-1.251559853553772,0.1141834482550621,2.0726213455200195,5.512395190983572,-0.0021499351132661104,0.2637314796447754,-1.7938230673419397,8.314413543083619e-31,0.03260335326194763,0.2523220479488373,-0.00010695316450437531,-0.02020522579550743,1.3835089206695557,-0.00011414141772547737,-0.009781064465641975
472.0,575.0,-2.6889,1.6038,8.6578,0.0154,-0.0903,-0.1333,-2.3590971432127894,-0.0013576088240370154,4.900204181671143,-1.250670313835144,0.10092423856258392,2.0295445919036865,5.512463974743643,-0.000910209899302572,0.25492507219314575,-1.7938593069659632,1.5111035842075977e-35,0.02451568841934204,0.2522982954978943,-0.0001001520940917544,-0.014762062579393387,1.3834564685821533,-0.00012277420319151133,-0.05950779467821121
472.0,575.0,-2.6889,1.6038,8.6578,0.0154,-0.0903,-0.1333,-2.359056612054342,-0.0019851026590913534,4.868059158325195,-1.250119924545288,0.09268605709075928,2.0440096855163574,5.512379634171285,-0.0007242650608532131,0.2436930537223816,-1.7938430945025843,4.20621173933598e-39,0.02009573020040989,0.2523467540740967,-9.559295722283423e-05,-0.003281123237684369,1.3834282159805298,-0.0001325640332652256,-0.07394248247146606
472.0,575.0,-2.6889,1.6038,8.6578,0.0154,-0.0903,-0.1333,-2.359072824517721,-0.001529441331513226,4.858272552490234,-1.2495810985565186,0.08589687198400497,2.014163017272949,5.51239966133193,-0.0005992242367938161,0.2629523277282715,-1.793851677571432,1.171485516175547e-42,0.02606627345085144,0.2523626387119293,-9.143097850028425e-05,0.0068680522963404655,1.3834645748138428,-0.00011788943811552599,-0.0689677894115448
472.0,575.0,-2.6889,1.6038,8.6578,0.0154,-0.0903,-0.1333,-2.359007497827047,-0.0008273353450931609,4.843922138214111,-1.2489466667175293,0.07329832017421722,2.006646156311035,5.512327301293173,-0.0027662303764373064,0.2562102973461151,-1.7938273588763636,0.0,0.03821253404021263,0.2523343861103058,-3.217644552933052e-05,0.0015166623052209616,1.3834404945373535,-0.0009502803441137075,-0.0852820873260498
472.0,575.0,-2.6889,1.6038,8.6578,0.0154,-0.0903,-0.1333,-2.3590809307494105,-0.00061516446294263,4.837893486022949,-1.248451590538025,0.06938117742538452,1.9934825897216797,5.512395965843954,-0.00229736790060997,0.24764809012413025,-1.793851677571432,6.785162986489013e-05,0.03784795105457306,0.25235846638679504,-2.8839107471867464e-05,-0.00659166881814599,1.3834285736083984,-0.0013136569177731872,-0.08666300773620605
472.0,575.0,-2.6889,1.6038,8.6578,0.0154,-0.0903,-0.1333,-2.3590647182860316,-0.0004019603074993938,4.861651420593262,-1.247953176498413,0.06457053124904633,1.9913482666015625,5.512319195061483,-0.00148516776971519,0.2477409392595291,-1.7938435713397425,6.430845678551123e-05,0.03597288206219673,0.2523626387119293,-2.7101717932964675e-05,-9.735912317410111e-05,1.3834888935089111,-0.0011968986364081502,-0.06946825981140137
437.0,456.0,-4.7049,0.4522,8.5155,-0.0837,0.1466,-0.1498,-2.359032293359274,-0.000336796190822497,4.873544216156006,-1.2475303411483765,0.06322459131479263,2.028496503829956,5.512372004776754,-0.001069950987584889,0.24185995757579803,-1.793851677571432,6.166478851810098e-05,0.046683572232723236,0.25235480070114136,-2.5930454285116866e-05,-0.006922607310116291,1.3834168910980225,-0.0016997858183458447,-0.110658660531044
437.0,456.0,-4.7049,0.4522,8.5155,-0.0837,0.1466,-0.1498,-2.359056612054342,-0.0003170960699208081,4.890227794647217,-1.247087836265564,0.05887675657868385,2.0209131240844727,5.512343811779775,-0.0010693464428186417,0.24345040321350098,-1.793835465108053,5.846039130119607e-05,0.040581099689006805,0.25232207775115967,-2.451765612931922e-05,-0.009160593152046204,1.3833485841751099,-0.0027082464657723904,-0.1485152393579483
437.0,456.0,-4.7049,0.4522,8.5155,-0.0837,0.1466,-0.1498,-2.359056612054342,-0.00018983989139087498,4.8408098220825195,-1.2467882633209229,0.05465353652834892,2.029783248901367,5.512339758663931,-0.0015537015860900283,0.24430975317955017,-1.7938430945025843,6.462728924816474e-05,0.043360766023397446,0.2523585259914398,-2.3555139705422334e-05,0.01258879154920578,1.3833324909210205,-0.004322084132581949,-0.15074172616004944
437.0,456.0,-4.7049,0.4522,8.5155,-0.0837,0.1466,-0.1498,-2.359032293359274,-0.0002259334287373349,4.89344596862793,-1.2463457584381104,0.04690583795309067,2.0366199016571045,5.51224713304595,-0.0017576375976204872,0.2383369505405426,-1.7938111464129847,6.430476059904322e-05,0.04172387719154358,0.252382755279541,-1.1193375030416064e-05,-0.00902891531586647,1.3833047151565552,-0.007097771856933832,-0.182404562830925
437.0,456.0,-4.7049,0.4522,8.5155,-0.0837,0.1466,-0.1498,-2.3590766392149867,-0.0005596115370281041,4.795374870300293,-1.2460949420928955,0.03915396332740784,1.9858546257019043,5.512323784619131,-0.0014624926261603832,0.23744218051433563,-1.7938435713397425,6.20867358520627e-05,0.03878641128540039,0.2523302733898163,-1.078923924069386e-05,-0.0006588083342649043,1.3832612037658691,-0.008051412180066109,-0.1606951653957367
437.0,456.0,-4.7049,0.4522,8.5155,-0.0837,0.1466,-0.1498,-2.3590690098204554,-0.00045126970508135855,4.824895858764648,-1.2457789182662964,0.029270410537719727,2.0020103454589844,5.512311863690176,-0.0008002042886801064,0.24079537391662598,-1.7938554922686976,1.7770951671991497e-05,0.043264251202344894,0.25238269567489624,-1.0295545507688075e-05,-0.008373752236366272,1.3831932544708252,-0.0099143972620368,-0.18923723697662354
437.0,456.0,-4.7049,0.4522,8.5155,-0.0837,0.1466,-0.1498,-2.359048982659811,-0.00036079189158044755,4.7910919189453125,-1.2456716299057007,0.0212548915296793,1.9715733528137207,5.512271392136373,-0.0006425310857594013,0.24345840513706207,-1.7938278357135218,4.946609344358421e-09,0.04424888640642166,0.25234657526016235,-9.95377831713995e-06,-0.003481191350147128,1.3831133842468262,-0.01049565989524126,-0.1618049591779709
437.0,456.0,-4.7049,0.4522,8.5155,-0.0837,0.1466,-0.1498,-2.3590852222838343,-0.00025045129586942494,4.838918685913086,-1.2455438375473022,0.015194040723145008,1.9369970560073853,5.512279498368063,-0.0004939039936289191,0.22185289859771729,-1.7938154379474085,1.3769069434968473e-12,0.038259390741586685,0.25234663486480713,-2.770671025942306e-09,0.01375526748597622,1.3830537796020508,-0.011176793836057186,-0.20788656175136566
437.0,456.0,-4.7049,0.4522,8.5155,-0.0837,0.1466,-0.1498,-2.359048982659811,-0.0002048437891062349,4.822148323059082,-1.245479941368103,0.009566478431224823,1.9651092290878296,5.51233189085082,-0.00042960894643329084,0.23737582564353943,-1.7938035170184534,2.502460242733814e-17,0.036689698696136475,0.25235432386398315,-5.035557338944549e-14,0.002773614600300789,1.382969856262207,-0.011690865270793438,-0.18365192413330078
437.0,456.0,-4.7049,0.4522,8.5155,-0.0837,0.1466,-0.1498,-2.3590241871275843,-0.00014418379578273743,4.827403545379639,-1.2454440593719482,0.005365200340747833,1.961047649383545,5.512218940048971,-0.0002749291597865522,0.23107528686523438,-1.7938397566424769,6.965690361689747e-21,0.053761713206768036,0.2523782551288605,-1.4016659852133534e-17,0.001474657910875976,1.3829379081726074,-0.012067047879099846,-0.21180784702301025
437.0,456.0,-4.7049,0.4522,8.5155,-0.0837,0.1466,-0.1498,-2.3590527973570765,-0.00012493655958678573,4.8675007820129395,-1.2454408407211304,0.001548863248899579,1.9422435760498047,5.512239384442129,-0.0003536961448844522,0.24289903044700623,-1.7937586943255823,1.2659797579167842e-25,0.039224982261657715,0.25235480070114136,-2.5474585500283714e-22,0.008155575022101402,1.3828463554382324,-0.013091675005853176,-0.20009005069732666
437.0,456.0,-4.7049,0.4522,8.5155,-0.0837,0.1466,-0.1498,-2.359056612054342,-3.594989902921952e-05,4.856461524963379,-1.2454203367233276,0.0005550935748033226,1.9597527980804443,5.512243437557974,-0.0007991237798705697,0.24193593859672546,-1.7937749067889612,3.5239011026351684e-29,0.05474524945020676,0.25234660506248474,-7.090944952324906e-26,0.007548570167273283,1.3827184438705444,-0.014359523542225361,-0.18073081970214844
