ramyac6/ROB537/final_project/csv/good/good_80.csv
tof_0,tof_1,accelx,accely,accelz,gyrox,gyroy,gyroz,shoulder_lift_joint_position,shoulder_lift_joint_velocity,shoulder_lift_joint_effort,elbow_joint_position,elbow_joint_velocity,elbow_joint_effort,wrist_1_joint_position,wrist_1_joint_velocity,wrist_1_joint_effort,wrist_2_joint_position,wrist_2_joint_velocity,wrist_2_joint_effort,wrist_3_joint_position,wrist_3_joint_velocity,wrist_3_joint_effort,shoulder_pan_joint_position,shoulder_pan_joint_velocity,shoulder_pan_joint_effort
178.0,229.0,4.9364,-1.1246,7.4172,-0.0376,0.0125,-0.1153,-1.6436330280699671,0.0,2.510472059249878,-1.4830896854400635,-0.0,2.2042829990386963,4.11212603628125,-0.0,0.2939873933792114,-1.4723628203021448,0.0,-0.009776403196156025,0.8668391704559326,-0.0,-0.0024555614218115807,1.2967804670333862,0.0,0.08072307705879211
178.0,229.0,4.9364,-1.1246,7.4172,-0.0376,0.0125,-0.1153,-1.6436897716917933,0.0,2.520740270614624,-1.483097791671753,-0.0,2.185823440551758,4.112162275905273,-0.0,0.29054000973701477,-1.4723475615130823,0.0,-0.028320113196969032,0.8668351173400879,-0.0,0.0027885576710104942,1.2968369722366333,0.0,0.008133151568472385
178.0,229.0,4.9364,-1.1246,7.4172,-0.0376,0.0125,-0.1153,-1.6436249218382777,0.0,2.5474750995635986,-1.483033299446106,-0.0,2.2141997814178467,4.112177534694336,-0.0,0.2948555648326874,-1.472375218068258,0.0,-0.01609080843627453,0.8668351173400879,-0.0,-0.00628441758453846,1.2968209981918335,0.0,-0.005415411666035652
178.0,229.0,4.9364,-1.1246,7.4172,-0.0376,0.0125,-0.1153,-1.643609186212057,0.0,2.4828500747680664,-1.4831174612045288,-0.0,2.188291549682617,4.112101240749023,-0.0,0.29266226291656494,-1.472379509602682,0.0,0.0021601601038128138,0.866875410079956,-0.0,-0.003212068695574999,1.296784520149231,0.0,0.03401552513241768
178.0,229.0,4.9364,-1.1246,7.4172,-0.0376,0.0125,-0.1153,-1.6436530552306117,0.0,2.5288567543029785,-1.4830652475357056,-0.0,2.194481372833252,4.112141771907471,-0.0,0.29384130239486694,-1.4723508993731897,0.0,-0.013361888937652111,0.8668594360351562,-0.0,0.00888805091381073,1.2968491315841675,0.0,-0.0034424017649143934
178.0,229.0,4.9364,-1.1246,7.4172,-0.0376,0.0125,-0.1153,-1.6436487636961878,0.0,2.530874490737915,-1.4830368757247925,-0.0,2.186429738998413,4.112137480373047,-0.0,0.2826821804046631,-1.4723389784442347,0.0,-0.011836540885269642,0.8668954968452454,-0.0,-0.0004682267608586699,1.2967967987060547,0.0,-0.012701539322733879
175.0,211.0,4.8048,-1.1791,7.8305,-0.0397,0.029,-0.1194,-1.6436406574644984,0.0,2.5046980381011963,-1.483134150505066,-0.0,2.1999757289886475,4.112137480373047,-0.0,0.28361406922340393,-1.4723551909076136,0.0,-0.013304486870765686,0.8668713569641113,-0.0,-0.009051699191331863,1.2967644929885864,0.0,0.04767586290836334
175.0,211.0,4.8048,-1.1791,7.8305,-0.0397,0.029,-0.1194,-1.643693586389059,0.0,2.551485061645508,-1.4830611944198608,-0.0,2.2012672424316406,4.112137480373047,-0.0,0.2773894667625427,-1.4723628203021448,0.0,-0.005462050437927246,0.86686772108078,-0.0,-0.005774723831564188,1.2967886924743652,0.0,-0.006589243188500404
175.0,211.0,4.8048,-1.1791,7.8305,-0.0397,0.029,-0.1194,-1.6436730823912562,0.0,2.4778003692626953,-1.4830855131149292,-0.0,2.226977825164795,4.112101240749023,-0.0,0.28328245878219604,-1.4723151365863245,0.0,-0.008795331232249737,0.8668227195739746,-0.0,-0.005343313328921795,1.29679274559021,0.0,0.03310646489262581
175.0,211.0,4.8048,-1.1791,7.8305,-0.0397,0.029,-0.1194,-1.6436454258360804,0.0,2.5049173831939697,-1.483125925064087,-0.0,2.2345986366271973,4.112133665675781,-0.0,0.2979530692100525,-1.4723470846759241,0.0,-0.01774067059159279,0.8668631315231323,-0.0,-0.0039148759096860886,1.2968127727508545,0.0,-0.009613940492272377
175.0,211.0,4.8048,-1.1791,7.8305,-0.0397,0.029,-0.1194,-1.6436530552306117,0.0,2.484790086746216,-1.4830896854400635,-0.0,2.2391433715820312,4.112145586604736,-0.0,0.29125145077705383,-1.472323242818014,0.0,-0.018726134672760963,0.8669114708900452,-0.0,-0.014906241558492184,1.29679274559021,0.0,0.023797757923603058
175.0,211.0,4.8048,-1.1791,7.8305,-0.0397,0.029,-0.1194,-1.6436649761595667,0.0,2.511958599090576,-1.4831459522247314,-0.0,2.218224287033081,4.112153692836426,-0.0,0.28744858503341675,-1.4723308722125452,0.0,-0.012052510865032673,0.8669118881225586,-0.0,0.002905209083110094,1.2967567443847656,0.0,0.01750452257692814
175.0,211.0,4.8048,-1.1791,7.8305,-0.0397,0.029,-0.1194,-1.6436611614623011,0.0,2.508906126022339,-1.4831258058547974,-0.0,2.212198257446289,4.112153692836426,-0.0,0.2827546298503876,-1.4723470846759241,0.0,-0.026959095150232315,0.8668794631958008,-0.0,0.0035905849654227495,1.2967804670333862,0.0,-0.007946656085550785
175.0,211.0,4.8048,-1.1791,7.8305,-0.0397,0.029,-0.1194,-1.6436530552306117,0.0,2.508654832839966,-1.4830938577651978,-0.0,2.2076940536499023,4.1121412950703125,-0.0,0.29569709300994873,-1.4723551909076136,0.0,-0.028018299490213394,0.8668593764305115,-0.0,-0.0057578557170927525,1.2968008518218994,0.0,0.030443642288446426
175.0,211.0,4.8048,-1.1791,7.8305,-0.0397,0.029,-0.1194,-1.6436449489989222,0.0,2.4608054161071777,-1.4831019639968872,-0.0,2.187436580657959,4.11217371999707,-0.0,0.2835320234298706,-1.4723551909076136,0.0,-0.02587335929274559,0.8668795228004456,-0.0,-0.012303274124860764,1.2968168258666992,-2.1848592305208445e-15,-0.008344568312168121
175.0,211.0,4.8048,-1.1791,7.8305,-0.0397,0.029,-0.1194,-1.6436692676939906,0.0,2.523974657058716,-1.483114242553711,-0.0,2.188000202178955,4.112122221583984,-0.0,0.2877652049064636,-1.4723995367633265,0.0,-0.02381077967584133,0.8668467998504639,-0.0,0.0007073731394484639,1.296849012374878,-7.078664734891807e-23,-0.013454146683216095
181.0,218.0,4.7157,-1.1868,7.8873,-0.0405,0.0191,-0.1199,-1.6436854801573695,0.0,2.5454587936401367,-1.4831092357635498,-0.0,2.202930450439453,4.112109346980713,-0.0,0.2913696765899658,-1.4723671118365687,0.0,-0.007733975537121296,0.8668873310089111,-0.0,-0.004660405218601227,1.2967886924743652,-2.2933975658554166e-30,0.038355838507413864
181.0,218.0,4.7157,-1.1868,7.8873,-0.0405,0.0191,-0.1199,-1.6435967884459437,0.0,2.495600461959839,-1.4830652475357056,-0.0,2.204017400741577,4.112133665675781,-0.0,0.2928215563297272,-1.4723714033709925,0.0,-0.021203216165304184,0.8668758869171143,-0.0,-0.004772311542183161,1.2967886924743652,-9.968725171329603e-40,0.02138700895011425
181.0,218.0,4.7157,-1.1868,7.8873,-0.0405,0.0191,-0.1199,-1.6436530552306117,0.0,2.5070481300354004,-1.483106017112732,-0.0,2.196199893951416,4.11218182622876,-0.0,0.2978941798210144,-1.4723871389972132,0.0,-0.027274299412965775,0.8668268322944641,-0.0,-0.0011382483644410968,1.2968168258666992,-0.0,-0.05564872920513153
181.0,218.0,4.7157,-1.1868,7.8873,-0.0405,0.0191,-0.1199,-1.643649240533346,0.0,2.5304317474365234,-1.4831175804138184,-0.0,2.1892707347869873,4.112105532283447,-0.0,0.2930091619491577,-1.4723551909076136,0.0,-0.0036513672675937414,0.8669119477272034,-0.0,-0.0024853788781911135,1.2968050241470337,0.0,-0.008037715218961239
181.0,218.0,4.7157,-1.1868,7.8873,-0.0405,0.0191,-0.1199,-1.6436816654601039,0.0,2.519709587097168,-1.4830937385559082,-0.0,2.187391757965088,4.11215798437085,-0.0,0.29352012276649475,-1.472363297139303,0.0,-0.004778385628014803,0.8668753504753113,-0.0,-0.01038799062371254,1.2968008518218994,0.0,-0.03258442506194115
181.0,218.0,4.7157,-1.1868,7.8873,-0.0405,0.0191,-0.1199,-1.6436611614623011,0.0,2.5250797271728516,-1.4830855131149292,-0.0,2.2361667156219482,4.112141771907471,-0.0,0.2859663665294647,-1.472391430531637,0.0,-0.01922372728586197,0.8668432235717773,-0.0,0.00024080765433609486,1.2968087196350098,0.0,0.02655452862381935
181.0,218.0,4.7157,-1.1868,7.8873,-0.0405,0.0191,-0.1199,-1.6436168156065882,0.0,2.528400421142578,-1.4830611944198608,-0.0,2.1899335384368896,4.1121861177631835,-0.0,0.29285016655921936,-1.4723871389972132,0.0,-0.019414877519011497,0.8668914437294006,-0.0,-0.0014349386328831315,1.2968127727508545,0.0,-0.045229651033878326
181.0,218.0,4.7157,-1.1868,7.8873,-0.0405,0.0191,-0.1199,-1.6436692676939906,0.0,2.506474733352661,-1.4831019639968872,-0.0,2.1366281509399414,4.112134142512939,-0.0,0.2805919349193573,-1.4723995367633265,0.0,-0.02236194536089897,0.8668190836906433,-0.0,0.004601094871759415,1.2967926263809204,0.0,-0.038862112909555435
181.0,218.0,4.7157,-1.1868,7.8873,-0.0405,0.0191,-0.1199,-1.6436730823912562,0.0,2.5180773735046387,-1.4830292463302612,-0.0,2.194389581680298,4.112141771907471,-0.0,0.3034784197807312,-1.4723671118365687,0.0,-0.017481667920947075,0.8668513298034668,-0.0,-0.006589203607290983,1.2967967987060547,0.0,0.023426368832588196
181.0,218.0,4.7157,-1.1868,7.8873,-0.0405,0.0191,-0.1199,-1.6436611614623011,0.0,2.529503583908081,-1.4830855131149292,-0.0,2.1832098960876465,4.112173243159912,-0.0,0.28975045680999756,-1.4723470846759241,0.0,-0.012535227462649345,0.8668673038482666,-0.0,-0.002585186157375574,1.2967967987060547,0.0,0.02163037098944187
181.0,218.0,4.7157,-1.1868,7.8873,-0.0405,0.0191,-0.1199,-1.6436692676939906,0.0,2.5210697650909424,-1.4830896854400635,-0.0,2.2114362716674805,4.1121412950703125,-0.0,0.28428781032562256,-1.4723551909076136,0.0,-0.014012690633535385,0.8668308854103088,-0.0,-0.012002907693386078,1.2967967987060547,0.0,-0.03956142067909241
181.0,219.0,4.739,-1.215,7.8921,-0.035,0.0232,-0.1176,-1.6437016926207484,0.0,2.511314868927002,-1.4830492734909058,-0.0,2.191215753555298,4.112130327815674,-0.0,0.295878529548645,-1.472363297139303,0.0,-0.028982987627387047,0.8668227195739746,-0.0,-0.0008783185039646924,1.2967644929885864,0.0,-0.022803135216236115
181.0,219.0,4.739,-1.215,7.8921,-0.035,0.0232,-0.1176,-1.6436730823912562,0.0,2.5351455211639404,-1.4830937385559082,-0.0,2.2332773208618164,4.112105532283447,-0.0,0.29665571451187134,-1.4723470846759241,0.0,-0.025095922872424126,0.8668631911277771,-0.0,-0.00485632149502635,1.2968289852142334,0.0,-0.004765165504068136
181.0,219.0,4.739,-1.215,7.8921,-0.035,0.0232,-0.1176,-1.6436649761595667,0.0,2.544644355773926,-1.4830610752105713,-0.0,2.2200326919555664,4.11214987813916,-0.0,0.28599196672439575,-1.4723628203021448,0.0,-0.007331745233386755,0.8668635487556458,-0.0,-0.008026080206036568,1.296832799911499,0.0,0.05585872009396553
181.0,219.0,4.739,-1.215,7.8921,-0.035,0.0232,-0.1176,-1.6436854801573695,0.0,2.5193493366241455,-1.4830936193466187,-0.0,2.196460485458374,4.112133665675781,-0.0,0.2830863893032074,-1.4723389784442347,0.0,0.008241132833063602,0.8668913841247559,-0.0,-0.004697313532233238,1.2967885732650757,0.0,-0.02841176837682724
181.0,219.0,4.739,-1.215,7.8921,-0.035,0.0232,-0.1176,-1.6436368427672328,0.0,2.5414745807647705,-1.4830772876739502,-0.0,2.2084500789642334,4.112105532283447,-0.0,0.2989158034324646,-1.4723594824420374,0.0,-0.019822057336568832,0.8668914437294006,-0.0,0.004182170610874891,1.2967525720596313,0.0,0.03804829344153404
181.0,219.0,4.739,-1.215,7.8921,-0.035,0.0232,-0.1176,-1.6436897716917933,0.0,2.5064759254455566,-1.4831093549728394,-0.0,2.249210834503174,4.1121250826069335,-0.0,0.2874002456665039,-1.4723508993731897,0.0,-0.003992510959506035,0.8668791651725769,-0.0,-0.005520091857761145,1.2967848777770996,0.0,-0.0017490433529019356
181.0,219.0,4.739,-1.215,7.8921,-0.035,0.0232,-0.1176,-1.643693586389059,0.0,2.555577278137207,-1.4830772876739502,-0.0,2.188734531402588,4.1121460634418945,-0.0,0.2751113772392273,-1.4723714033709925,0.0,-0.01038958877325058,0.8669073581695557,-0.0,-0.00769977830350399,1.2968008518218994,0.0,0.020155685022473335
181.0,219.0,4.739,-1.215,7.8921,-0.035,0.0232,-0.1176,-1.6436730823912562,0.0,2.5116193294525146,-1.4831132888793945,-0.0,2.146667003631592,4.112133665675781,-0.0,0.2813913822174072,-1.4723671118365687,0.0,-0.027593394741415977,0.86686772108078,-0.0,-0.01670438051223755,1.2968008518218994,0.0,-0.006741416174918413
181.0,219.0,4.739,-1.215,7.8921,-0.035,0.0232,-0.1176,-1.6436530552306117,0.0,2.5053555965423584,-1.4831019639968872,-0.0,2.22688627243042,4.112105532283447,-0.0,0.28394579887390137,-1.4723628203021448,0.0,-0.026247575879096985,0.8668427467346191,-0.0,0.0011357407784089446,1.2968050241470337,0.0,0.02623523771762848
181.0,219.0,4.739,-1.215,7.8921,-0.035,0.0232,-0.1176,-1.6436692676939906,0.0,2.5122499465942383,-1.4830492734909058,-0.0,2.176190137863159,4.112153692836426,-0.0,0.2901657223701477,-1.4724109808551233,0.0,-0.01798379048705101,0.8668996691703796,-0.0,0.007837220095098019,1.2967967987060547,0.0,0.011487914249300957
183.0,217.0,4.6744,-1.203,7.9621,-0.0345,0.0257,-0.122,-1.6436530552306117,0.0,2.5324928760528564,-1.48305344581604,-0.0,2.2044923305511475,4.112133188838623,-0.0,0.28100091218948364,-1.4723628203021448,0.0,-0.020627375692129135,0.8668837547302246,-0.0,-0.011216086335480213,1.2968008518218994,0.0,-0.000813568476587534
183.0,217.0,4.6744,-1.203,7.9621,-0.0345,0.0257,-0.122,-1.6436487636961878,0.0,2.5612165927886963,-1.4831092357635498,-0.0,2.202141284942627,4.112133665675781,-0.0,0.2846683859825134,-1.4723714033709925,0.0,-0.011120211333036423,0.86687171459198,-0.0,-0.003467302769422531,1.296784520149231,0.0,-0.05314168706536293
183.0,217.0,4.6744,-1.203,7.9621,-0.0345,0.0257,-0.122,-1.6436692676939906,0.0,2.4968361854553223,-1.4831092357635498,-0.0,2.1737139225006104,4.1121179300495605,-0.0,0.28757524490356445,-1.4723871389972132,0.0,-0.006052488926798105,0.8668594360351562,-0.0,-0.007754540536552668,1.2967804670333862,0.0,-0.0031329533085227013
183.0,217.0,4.6744,-1.203,7.9621,-0.0345,0.0257,-0.122,-1.6436249218382777,0.0,2.4969396591186523,-1.483081340789795,-0.0,2.2017908096313477,4.112153692836426,-0.0,0.30159783363342285,-1.4723957220660608,0.0,-0.018531154841184616,0.8668351173400879,-0.0,0.002068227156996727,1.2967886924743652,0.0,-0.03209582716226578
183.0,217.0,4.6744,-1.203,7.9621,-0.0345,0.0257,-0.122,-1.6437016926207484,0.0,2.5783207416534424,-1.4830291271209717,-0.0,2.2056822776794434,4.112089319820068,-0.0,0.27438604831695557,-1.4723957220660608,0.0,-0.020916521549224854,0.8668510913848877,-0.0,-0.00014084193389862776,1.2967727184295654,0.0,0.04757678508758545
183.0,217.0,4.6744,-1.203,7.9621,-0.0345,0.0257,-0.122,-1.6436897716917933,0.0,2.501570463180542,-1.4830896854400635,-0.0,2.1824374198913574,4.11217371999707,-0.0,0.2827392816543579,-1.472323242818014,0.0,-0.005167740397155285,0.8668836951255798,-0.0,-0.014874736778438091,1.296832799911499,0.0,-0.02040349505841732
183.0,217.0,4.6744,-1.203,7.9621,-0.0345,0.0257,-0.122,-1.6436330280699671,0.0,2.49774169921875,-1.483089566230774,-0.0,2.1926519870758057,4.1121179300495605,-0.0,0.2894553542137146,-1.472363297139303,0.0,-0.03012469783425331,0.866875410079956,-0.0,-0.004955614916980267,1.2968008518218994,0.0,-0.015961667522788048
183.0,217.0,4.6744,-1.203,7.9621,-0.0345,0.0257,-0.122,-1.643649240533346,0.0,2.5172250270843506,-1.4830772876739502,-0.0,2.2302231788635254,4.1121250826069335,-0.0,0.2826099991798401,-1.4724038282977503,0.0,-0.017711739987134933,0.8668030500411987,-0.0,0.0006479795556515455,1.2967644929885864,0.0,0.00442865863442421
183.0,217.0,4.6744,-1.203,7.9621,-0.0345,0.0257,-0.122,-1.6436168156065882,0.0,2.5001819133758545,-1.4830772876739502,-0.0,2.233032703399658,4.112153692836426,-0.0,0.294202983379364,-1.4723628203021448,0.0,-0.026079732924699783,0.866851270198822,-0.0,0.003150311764329672,1.29679274559021,0.0,0.018501540645956993
183.0,217.0,4.6744,-1.203,7.9621,-0.0345,0.0257,-0.122,-1.6436854801573695,0.0,2.4993882179260254,-1.483073115348816,-0.0,2.137761354446411,4.11214987813916,-0.0,0.28771790862083435,-1.4723871389972132,0.0,-0.011492447927594185,0.866851270198822,-0.0,0.002473017666488886,1.2968050241470337,0.0,-0.0030137214343994856
174.0,227.0,4.6971,-1.2179,7.9466,-0.036,0.0304,-0.1206,-1.6436454258360804,0.0,2.515367031097412,-1.4830772876739502,-0.0,2.183856725692749,4.112165613765381,-0.0,0.28851228952407837,-1.4723508993731897,0.0,-0.020265985280275345,0.8668469190597534,-0.0,-0.012211296707391739,1.29679274559021,0.0,-0.00183950737118721
174.0,227.0,4.6971,-1.2179,7.9466,-0.036,0.0304,-0.1206,-1.6436411343016566,0.0,2.505002021789551,-1.4831215143203735,-0.0,2.175006866455078,4.1121412950703125,-0.0,0.2929200828075409,-1.472391430531637,0.0,-0.009335985407233238,0.8669074177742004,-0.0,-0.002648092806339264,1.2968131303787231,0.0,0.008321665227413177
174.0,227.0,4.6971,-1.2179,7.9466,-0.036,0.0304,-0.1206,-1.6436487636961878,0.0,2.5107293128967285,-1.4830652475357056,-0.0,2.168300151824951,4.112114115352295,-0.0,0.2898750305175781,-1.4724038282977503,0.0,-0.031628578901290894,0.866863489151001,-0.0,-0.010448715649545193,1.2968050241470337,0.0,-0.036004479974508286
174.0,227.0,4.6971,-1.2179,7.9466,-0.036,0.0304,-0.1206,-1.6436897716917933,0.0,2.4940638542175293,-1.4830772876739502,-0.0,2.1833603382110596,4.1121179300495605,-0.0,0.2796856462955475,-1.4723551909076136,0.0,-0.0077439239248633385,0.86686772108078,-0.0,-0.0014196437550708652,1.2968369722366333,0.0,0.002986977808177471
174.0,227.0,4.6971,-1.2179,7.9466,-0.036,0.0304,-0.1206,-1.643649240533346,0.0,2.539872169494629,-1.4830937385559082,-0.0,2.1938669681549072,4.112122221583984,-0.0,0.28677546977996826,-1.4723671118365687,0.0,-0.025663072243332863,0.866875410079956,-0.0,-0.014028560370206833,1.2968168258666992,0.0,-0.009207099676132202
174.0,227.0,4.6971,-1.2179,7.9466,-0.036,0.0304,-0.1206,-1.6436411343016566,0.0,2.50093412399292,-1.483089566230774,-0.0,2.155538320541382,4.112145586604736,-0.0,0.3040805160999298,-1.4723551909076136,0.0,-0.011819379404187202,0.8667707443237305,-0.0,0.001350329490378499,1.296784520149231,0.0,0.06829794496297836
174.0,227.0,4.6971,-1.2179,7.9466,-0.036,0.0304,-0.1206,-1.643609186212057,0.0,2.5331883430480957,-1.4831053018569946,-0.0,2.226325273513794,4.11215798437085,-0.0,0.2924652099609375,-1.4723709265338343,0.0,-0.026414740830659866,0.8668468594551086,-0.0,-0.006178103853017092,1.296784520149231,0.0,0.006407962180674076
174.0,227.0,4.6971,-1.2179,7.9466,-0.036,0.0304,-0.1206,-1.6436287365355433,0.0,2.50076961517334,-1.483097791671753,-0.0,2.207770347595215,4.11218182622876,-0.0,0.28359872102737427,-1.4723871389972132,0.0,-0.019059086218476295,0.8668794631958008,-0.0,-0.006903141271322966,1.29679274559021,0.0,-0.002580510452389717
174.0,227.0,4.6971,-1.2179,7.9466,-0.036,0.0304,-0.1206,-1.6436854801573695,0.0,2.503368854522705,-1.4830937385559082,-0.0,2.2114319801330566,4.112133665675781,-0.0,0.28758108615875244,-1.4723432699786585,0.0,-0.02243790589272976,0.8668713569641113,-0.0,0.00276199821382761,1.2968050241470337,0.0,0.0027121612802147865
174.0,227.0,4.6971,-1.2179,7.9466,-0.036,0.0304,-0.1206,-1.6436487636961878,0.0,2.5213756561279297,-1.4830814599990845,-0.0,2.207387924194336,4.112133665675781,-0.0,0.2874281406402588,-1.4723957220660608,0.0,-0.011595381423830986,0.8668836951255798,-0.0,-0.01791718415915966,1.2968209981918335,0.0,0.019771255552768707
174.0,227.0,4.6971,-1.2179,7.9466,-0.036,0.0304,-0.1206,-1.6436368427672328,0.0,2.51657772064209,-1.4831418991088867,-0.0,2.1779141426086426,4.112089319820068,-0.0,0.2899233102798462,-1.4723871389972132,0.0,-0.02255358174443245,0.866851270198822,-0.0,-0.0144963338971138,1.296841025352478,0.0,0.033868208527565
181.0,219.0,4.6798,-1.2138,7.9484,-0.0353,0.0254,-0.115,-1.643609186212057,0.0,2.4947738647460938,-1.4831092357635498,-0.0,2.1957201957702637,4.112157030696533,-0.0,0.30689767003059387,-1.4723508993731897,0.0,-0.006555156782269478,0.8668673038482666,-0.0,-0.01054384559392929,1.2967804670333862,0.0,-0.022135920822620392
181.0,219.0,4.6798,-1.2138,7.9484,-0.0353,0.0254,-0.115,-1.6436454258360804,0.0,2.504317045211792,-1.4831061363220215,-0.0,2.224868059158325,4.112145586604736,-0.0,0.2933568060398102,-1.4723470846759241,0.0,-0.00826956145465374,0.8668468594551086,-0.0,-0.007148857228457928,1.2968127727508545,0.0,0.02272084914147854
181.0,219.0,4.6798,-1.2138,7.9484,-0.0353,0.0254,-0.115,-1.6436010799803675,0.0,2.4819068908691406,-1.4830732345581055,-0.0,2.199286937713623,4.112145586604736,-0.0,0.2962711751461029,-1.4723957220660608,0.0,-0.020844044163823128,0.8668918609619141,-0.0,-0.01134573295712471,1.2968205213546753,0.0,-0.026149479672312737
181.0,219.0,4.6798,-1.2138,7.9484,-0.0353,0.0254,-0.115,-1.6436487636961878,0.0,2.4925239086151123,-1.4830652475357056,-0.0,2.2530345916748047,4.112089319820068,-0.0,0.2914007902145386,-1.4723551909076136,0.0,-0.010755617171525955,0.8668836951255798,-0.0,-0.0073029170744121075,1.2967567443847656,0.0,0.0047005959786474705
181.0,219.0,4.6798,-1.2138,7.9484,-0.0353,0.0254,-0.115,-1.6436048946776332,0.0,2.4891517162323,-1.4830937385559082,-0.0,2.176791191101074,4.11215798437085,-0.0,0.3052635192871094,-1.4723833242999476,0.0,-0.014104954898357391,0.8669037222862244,-0.0,0.009822273626923561,1.2967764139175415,0.0,0.005304060876369476
181.0,219.0,4.6798,-1.2138,7.9484,-0.0353,0.0254,-0.115,-1.6436368427672328,0.0,2.507938861846924,-1.4830896854400635,-0.0,2.1978354454040527,4.112145586604736,-0.0,0.2866756021976471,-1.4723594824420374,0.0,-0.009292127564549446,0.8668190836906433,-0.0,-0.006671900860965252,1.2968168258666992,0.0,0.0055910758674144745
181.0,219.0,4.6798,-1.2138,7.9484,-0.0353,0.0254,-0.115,-1.6436449489989222,0.0,2.5097227096557617,-1.4830816984176636,-0.0,2.19136643409729,4.112162275905273,-0.0,0.29191046953201294,-1.4723671118365687,0.0,-0.01488271914422512,0.866863489151001,-0.0,-0.009959528222680092,1.2968087196350098,0.0,0.01777399145066738
181.0,219.0,4.6798,-1.2138,7.9484,-0.0353,0.0254,-0.115,-1.6436411343016566,0.0,2.5114808082580566,-1.483081340789795,-0.0,2.178161144256592,4.112133665675781,-0.0,0.28188902139663696,-1.4723871389972132,0.0,-0.01614510640501976,0.8668794631958008,-0.0,0.004341600462794304,1.2968168258666992,0.0,0.019440824165940285
181.0,219.0,4.6798,-1.2138,7.9484,-0.0353,0.0254,-0.115,-1.643621107141012,0.0,2.4910292625427246,-1.483097791671753,-0.0,2.1511223316192627,4.112133665675781,-0.0,0.3029756247997284,-1.4723628203021448,0.0,-0.01592726819217205,0.8668306469917297,-0.0,0.00021230580750852823,1.2968287467956543,0.0,-0.011764880269765854
181.0,219.0,4.6798,-1.2138,7.9484,-0.0353,0.0254,-0.115,-1.64367737392568,0.0,2.5202248096466064,-1.483125925064087,-0.0,2.2069530487060547,4.1121179300495605,-0.0,0.293049156665802,-1.4723628203021448,0.0,-0.012340838089585304,0.8668553233146667,-0.0,0.005193862598389387,1.2968008518218994,0.0,0.027949316427111626
179.0,217.0,4.4919,-1.3454,8.5418,-0.0354,0.0229,-0.117,-1.6436249218382777,0.0,2.4849658012390137,-1.4831174612045288,-0.0,2.155229091644287,4.112137480373047,-0.0,0.293636292219162,-1.4723995367633265,0.0,-0.019671373069286346,0.8669077754020691,-0.0,-0.013331633992493153,1.2968050241470337,0.0,0.022340435534715652
179.0,217.0,4.4919,-1.3454,8.5418,-0.0354,0.0229,-0.117,-1.643717428246969,0.0,2.4823780059814453,-1.483105182647705,-0.0,2.201808452606201,4.112133665675781,-0.0,0.3046879768371582,-1.472391430531637,0.0,-0.019284922629594803,0.8668954372406006,-0.0,0.00013631093315780163,1.2967562675476074,0.0,-0.001379404217004776
179.0,217.0,4.4919,-1.3454,8.5418,-0.0354,0.0229,-0.117,-1.6436649761595667,0.0,2.4680237770080566,-1.4830411672592163,-0.0,2.1786229610443115,4.112161322230957,-0.0,0.2898521423339844,-1.472335163746969,0.0,-0.026116833090782166,0.86686772108078,-0.0,-0.011080972850322723,1.2968127727508545,0.0,0.024692347273230553
179.0,217.0,4.4919,-1.3454,8.5418,-0.0354,0.0229,-0.117,-1.6436897716917933,0.0,2.5239174365997314,-1.4830855131149292,-0.0,2.2470505237579346,4.112097426051758,-0.0,0.28601905703544617,-1.4723508993731897,0.0,-0.030041730031371117,0.8668108582496643,-0.0,-0.0084455581381917,1.29679274559021,0.0,-0.034725699573755264
179.0,217.0,4.4919,-1.3454,8.5418,-0.0354,0.0229,-0.117,-1.6436811886229457,0.0,2.51012921333313,-1.4830855131149292,-0.0,2.2011451721191406,4.1121412950703125,-0.0,0.28027674555778503,-1.4723389784442347,0.0,-0.011163716204464436,0.8668510913848877,-0.0,-0.013445179909467697,1.2967685461044312,0.0,0.039004962891340256
179.0,217.0,4.4919,-1.3454,8.5418,-0.0354,0.0229,-0.117,-1.6436130009093226,0.0,2.510535717010498,-1.4830937385559082,-0.0,2.232264757156372,4.1121412950703125,-0.0,0.306887149810791,-1.4723790327655237,0.0,-0.022353336215019226,0.8668754696846008,-0.0,-0.011852334253489971,1.2967723608016968,0.0,0.004489474464207888
179.0,217.0,4.4919,-1.3454,8.5418,-0.0354,0.0229,-0.117,-1.643693586389059,0.0,2.486762285232544,-1.483048915863037,-0.0,2.1876349449157715,4.112145586604736,-0.0,0.2885275185108185,-1.4723714033709925,0.0,-0.02245212160050869,0.866863489151001,-0.0,-0.005782312247902155,1.296832799911499,0.0,0.043626293540000916
179.0,217.0,4.4919,-1.3454,8.5418,-0.0354,0.0229,-0.117,-1.6437016926207484,0.0,2.530520439147949,-1.4830571413040161,-0.0,2.2021851539611816,4.112169428462646,-0.0,0.28172072768211365,-1.4723871389972132,0.0,-0.011205906048417091,0.8668268322944641,-0.0,-0.006236627697944641,1.2967685461044312,0.0,0.0023835105821490288
179.0,217.0,4.4919,-1.3454,8.5418,-0.0354,0.0229,-0.117,-1.643637319604391,0.0,2.5333786010742188,-1.483045220375061,-0.0,2.1814658641815186,4.112122221583984,-0.0,0.29719728231430054,-1.4723871389972132,0.0,-0.005397053435444832,0.8668068051338196,-0.0,-0.014208199456334114,1.2968008518218994,0.0,-0.01049607153981924
179.0,217.0,4.4919,-1.3454,8.5418,-0.0354,0.0229,-0.117,-1.6436249218382777,0.0,2.4834465980529785,-1.4831174612045288,-0.0,2.1805951595306396,4.112093611354492,-0.0,0.2944791913032532,-1.4723628203021448,0.0,-0.013552065938711166,0.8668351173400879,-0.0,-0.00786332506686449,1.2967804670333862,0.0,0.015401913784444332
179.0,217.0,4.4919,-1.3454,8.5418,-0.0354,0.0229,-0.117,-1.6436568699278773,0.0,2.5528900623321533,-1.4831100702285767,-0.0,2.230614185333252,4.112162275905273,-0.0,0.2824063003063202,-1.4724038282977503,0.0,-0.010572572238743305,0.8668913841247559,-0.0,0.005037103779613972,1.296832799911499,0.0,0.01842271164059639
178.0,217.0,4.538,-1.1527,8.1069,-0.0533,0.0406,-0.117,-1.6436730823912562,0.0,2.526803731918335,-1.483097791671753,-0.0,2.18696928024292,4.112153692836426,-0.0,0.2859891653060913,-1.4723628203021448,0.0,-0.023992495611310005,0.8668918609619141,-0.0,-0.012774111703038216,1.2968008518218994,0.0,-0.0024433783255517483
178.0,217.0,4.538,-1.1527,8.1069,-0.0533,0.0406,-0.117,-1.6436454258360804,0.0,2.509943962097168,-1.4830855131149292,-0.0,2.2052788734436035,4.112093611354492,-0.0,0.2889117896556854,-1.4724038282977503,0.0,-0.02361786738038063,0.8668717741966248,-0.0,-0.008906818926334381,1.2968209981918335,0.0,-0.018858077004551888
178.0,217.0,4.538,-1.1527,8.1069,-0.0533,0.0406,-0.117,-1.643621107141012,0.0,2.5216641426086426,-1.483129858970642,-0.0,2.205873727798462,4.1121179300495605,-0.0,0.29650595784187317,-1.4723671118365687,0.0,-0.015207539312541485,0.8669074177742004,-0.0,-0.005945648532360792,1.2968209981918335,0.0,0.013472514227032661
178.0,217.0,4.538,-1.1527,8.1069,-0.0533,0.0406,-0.117,-1.6436692676939906,0.0,2.488769769668579,-1.4830172061920166,-0.0,2.1895203590393066,4.1121179300495605,-0.0,0.30248135328292847,-1.4724109808551233,0.0,-0.0016044698422774673,0.8668510913848877,-0.0,-0.014629132114350796,1.2968287467956543,0.0,0.04240083321928978
178.0,217.0,4.538,-1.1527,8.1069,-0.0533,0.0406,-0.117,-1.6436487636961878,0.0,2.5186541080474854,-1.483097791671753,-0.0,2.2000558376312256,4.11212603628125,-0.0,0.27104029059410095,-1.4723833242999476,0.0,-0.0055071404203772545,0.8668754696846008,-0.0,-0.006445189006626606,1.2967967987060547,0.0,-0.026299912482500076
178.0,217.0,4.538,-1.1527,8.1069,-0.0533,0.0406,-0.117,-1.6436487636961878,0.0,2.523848056793213,-1.483097791671753,-0.0,2.2138028144836426,4.112133665675781,-0.0,0.28014981746673584,-1.472335163746969,0.0,-0.013630385510623455,0.8668107986450195,-0.0,0.0009363841381855309,1.296832799911499,0.0,0.016118580475449562
178.0,217.0,4.538,-1.1527,8.1069,-0.0533,0.0406,-0.117,-1.6436897716917933,0.0,2.5358963012695312,-1.483125925064087,-0.0,2.1743690967559814,4.112122221583984,-0.0,0.2914670705795288,-1.4723389784442347,0.0,-0.014944247901439667,0.86686772108078,-0.0,-0.011806637048721313,1.2967966794967651,0.0,0.008626734837889671
178.0,217.0,4.538,-1.1527,8.1069,-0.0533,0.0406,-0.117,-1.6436130009093226,0.0,2.509887218475342,-1.4830611944198608,-0.0,2.1959609985351562,4.112109823817871,-0.0,0.2920130491256714,-1.472391430531637,0.0,-0.024017442017793655,0.8668672442436218,-0.0,-0.005129025783389807,1.2968369722366333,0.0,-0.01955346204340458
178.0,217.0,4.538,-1.1527,8.1069,-0.0533,0.0406,-0.117,-1.6436854801573695,0.0,2.5401554107666016,-1.4830411672592163,-0.0,2.205615282058716,4.112189932460449,-0.0,0.28264790773391724,-1.4723628203021448,0.0,-0.018626052886247635,0.8668914437294006,-0.0,-0.003561402903869748,1.2967967987060547,0.0,0.011468938551843166
178.0,217.0,4.538,-1.1527,8.1069,-0.0533,0.0406,-0.117,-1.6436454258360804,0.0,2.529585838317871,-1.4830772876739502,-0.0,2.214975118637085,4.112122221583984,-0.0,0.2832435369491577,-1.4723508993731897,0.0,-0.021990176290273666,0.8668386936187744,-0.0,0.00805673934519291,1.29679274559021,0.0,-0.030685098841786385
175.0,217.0,5.5998,-0.5073,7.2951,-0.0383,0.0751,-0.1182,-1.6436330280699671,0.0,2.5288782119750977,-1.483097791671753,-0.0,2.195626735687256,4.112113638515137,-0.0,0.2716831564903259,-1.4723790327655237,0.0,-0.012818518094718456,0.8668718338012695,-0.0,-0.01747806742787361,1.2968127727508545,0.0,-0.00840511079877615
175.0,217.0,5.5998,-0.5073,7.2951,-0.0383,0.0751,-0.1182,-1.643609186212057,0.0,2.5192787647247314,-1.4830694198608398,-0.0,2.178114891052246,4.1121412950703125,-0.0,0.2967771589756012,-1.4723628203021448,0.0,-0.02123722806572914,0.8668873310089111,-0.0,-0.0017830266151577234,1.296829104423523,0.0,-0.04658770188689232
175.0,217.0,5.5998,-0.5073,7.2951,-0.0383,0.0751,-0.1182,-1.6436249218382777,0.0,2.552478790283203,-1.4830772876739502,-0.0,2.2148375511169434,4.112162275905273,-0.0,0.2852792739868164,-1.4723995367633265,0.0,-0.0021168687380850315,0.8668427467346191,-0.0,-0.012077451683580875,1.2968171834945679,0.0,0.010047953575849533
175.0,217.0,5.5998,-0.5073,7.2951,-0.0383,0.0751,-0.1182,-1.6436735592284144,0.0,2.508991241455078,-1.483081340789795,-0.0,2.1932079792022705,4.11214987813916,-0.0,0.29216766357421875,-1.4723709265338343,0.0,-0.008431880734860897,0.8669033050537109,-0.0,0.0035722784232348204,1.2967644929885864,0.0,-0.014964329078793526
175.0,217.0,5.5998,-0.5073,7.2951,-0.0383,0.0751,-0.1182,-1.643637319604391,0.0,2.4987032413482666,-1.483114242553711,-0.0,2.1931118965148926,4.112133665675781,-0.0,0.2947475016117096,-1.4723594824420374,0.0,-0.014772839844226837,0.8668427467346191,-0.0,-0.004449831787496805,1.2968050241470337,0.0,0.01093263179063797
175.0,217.0,5.5998,-0.5073,7.2951,-0.0383,0.0751,-0.1182,-1.6436292133727015,0.0,2.4859421253204346,-1.4830291271209717,-0.0,2.2335710525512695,4.11215798437085,-0.0,0.284995436668396,-1.4723833242999476,0.0,-0.025868158787488937,0.8668873310089111,-0.0,-0.00964446272701025,1.2967967987060547,0.0,0.014539560303092003
175.0,217.0,5.5998,-0.5073,7.2951,-0.0383,0.0751,-0.1182,-1.6436411343016566,0.0,2.4950289726257324,-1.4831019639968872,-0.0,2.231926441192627,4.112137480373047,-0.0,0.2958320379257202,-1.4723871389972132,0.0,-0.010015066713094711,0.8667988777160645,-0.0,-0.002190304920077324,1.2967804670333862,0.0,-0.025823017582297325
175.0,217.0,5.5998,-0.5073,7.2951,-0.0383,0.0751,-0.1182,-1.6436649761595667,0.0,2.520258903503418,-1.4830896854400635,-0.0,2.1682472229003906,4.112121744746826,-0.0,0.28821903467178345,-1.472363297139303,0.0,-0.017075061798095703,0.8669033646583557,-0.0,-0.00914490595459938,1.2968651056289673,0.0,-0.006736397743225098
175.0,217.0,5.5998,-0.5073,7.2951,-0.0383,0.0751,-0.1182,-1.6436487636961878,0.0,2.4897611141204834,-1.483106017112732,-0.0,2.2144970893859863,4.112162275905273,-0.0,0.2833412289619446,-1.4723833242999476,0.0,-0.01735955849289894,0.8669114708900452,-0.0,-0.003034770954400301,1.2968288660049438,0.0,-0.05582820624113083
175.0,217.0,5.5998,-0.5073,7.2951,-0.0383,0.0751,-0.1182,-1.6436897716917933,0.0,2.482361316680908,-1.4830896854400635,-0.0,2.241197109222412,4.112134142512939,-0.0,0.2868197560310364,-1.4723628203021448,0.0,-0.01757020689547062,0.866875410079956,-0.0,-0.006042943801730871,1.2968008518218994,0.0,-0.05285850912332535
173.0,224.0,4.5314,-1.2837,8.1087,-0.0383,0.0263,-0.1048,-1.6436287365355433,0.0,2.552846908569336,-1.4831258058547974,-0.0,2.2063469886779785,4.112162275905273,-0.0,0.2978242337703705,-1.4723551909076136,0.0,-0.019744470715522766,0.8668837547302246,-0.0,-0.013454296626150608,1.2968087196350098,0.0,0.012471945956349373
173.0,224.0,4.5314,-1.2837,8.1087,-0.0383,0.0263,-0.1048,-1.6436816654601039,0.0,2.4725332260131836,-1.483106017112732,-0.0,2.218816041946411,4.11214987813916,-0.0,0.2840309143066406,-1.4724109808551233,0.0,-0.02001146599650383,0.86686772108078,-0.0,-0.0008472901536151767,1.296784520149231,0.0,0.02722989022731781
173.0,224.0,4.5314,-1.2837,8.1087,-0.0383,0.0263,-0.1048,-1.6436330280699671,0.0,2.5263311862945557,-1.4831019639968872,-0.0,2.208019256591797,4.1121412950703125,-0.0,0.28178325295448303,-1.4723671118365687,0.0,-0.020551694557070732,0.8668997287750244,-0.0,-0.009479050524532795,1.2968734502792358,0.0,0.010770986787974834
173.0,224.0,4.5314,-1.2837,8.1087,-0.0383,0.0263,-0.1048,-1.6436172924437464,0.0,2.5252513885498047,-1.4831100702285767,-0.0,2.2275373935699463,4.11217371999707,-0.0,0.28895553946495056,-1.4722989241229456,0.0,-0.011594874784350395,0.8668468594551086,-0.0,0.00036713771987706423,1.2968008518218994,0.0,0.05599925294518471
173.0,224.0,4.5314,-1.2837,8.1087,-0.0383,0.0263,-0.1048,-1.6436454258360804,0.0,2.4896717071533203,-1.483045220375061,-0.0,2.193834066390991,4.112122221583984,-0.0,0.2862810790538788,-1.4723628203021448,0.0,-0.02821378968656063,0.8668145537376404,-0.0,-0.010447073727846146,1.296832799911499,0.0,-0.011237620376050472
173.0,224.0,4.5314,-1.2837,8.1087,-0.0383,0.0263,-0.1048,-1.6436292133727015,4.69823513427059e-09,2.5385422706604004,-1.4830455780029297,-0.0,2.184197425842285,4.11212603628125,-0.0,0.297244131565094,-1.4723671118365687,0.0,0.0075256312265992165,0.8668751120567322,-0.0,-0.005607081577181816,1.2967804670333862,0.0,-0.040896620601415634
173.0,224.0,4.5314,-1.2837,8.1087,-0.0383,0.0263,-0.1048,-1.6436330280699671,1.522168366448323e-16,2.5163002014160156,-1.4830615520477295,0.0005888398736715317,2.2064785957336426,4.112153692836426,-0.0,0.2789813280105591,-1.4723508993731897,0.0,-0.018274834379553795,0.8668634295463562,-0.0,-0.005626602564007044,1.2967722415924072,0.0,-0.01695789396762848
173.0,224.0,4.5314,-1.2837,8.1087,-0.0383,0.0263,-0.1048,-1.6436010799803675,0.0005202812026254833,2.489895820617676,-1.4830007553100586,0.0003862647572532296,2.232713460922241,4.11214987813916,-0.0,0.2931468188762665,-1.4723714033709925,0.0,-0.023143144324421883,0.8668672442436218,-0.0,0.0016620575916022062,1.2967803478240967,0.0,0.006912111304700375
173.0,224.0,4.5314,-1.2837,8.1087,-0.0383,0.0263,-0.1048,-1.643637319604391,0.00043888032087124884,2.522749185562134,-1.4830772876739502,0.00025232628104276955,2.2207112312316895,4.112153692836426,-0.0,0.2878792881965637,-1.4724038282977503,0.0,-0.01190213393419981,0.8668510317802429,-0.0,-0.019534531980752945,1.2967967987060547,0.0,0.008145476691424847
173.0,224.0,4.5314,-1.2837,8.1087,-0.0383,0.0263,-0.1048,-1.6436215839781703,0.00034322589635849,2.522919178009033,-1.4830694198608398,0.0002047208690783009,2.184293031692505,4.112114115352295,-0.0,0.2902800142765045,-1.4723714033709925,0.0,-0.010168200358748436,0.8669073581695557,-0.0,-0.0021260115318000317,1.2967967987060547,0.0,0.0010070167481899261
173.0,224.0,4.5314,-1.2837,8.1087,-0.0383,0.0263,-0.1048,-1.6435734234251917,0.00011275683209532872,2.4969377517700195,-1.4830492734909058,0.00010026695963460952,2.2149887084960938,4.1121179300495605,-0.0,0.2897856533527374,-1.4723714033709925,0.0,-0.01741734892129898,0.8668795228004456,-0.0,0.0006265090778470039,1.2968008518218994,0.0,-0.00439020711928606
177.0,224.0,4.9765,-1.3472,7.7175,-0.0212,-0.0698,-0.1335,-1.643637319604391,4.692718721344136e-05,2.5181708335876465,-1.4830571413040161,-0.00011327884567435831,2.1883769035339355,4.112141771907471,-0.0,0.280140221118927,-1.4723790327655237,0.0,-0.02333589270710945,0.8668428063392639,-0.0,-0.013358927331864834,1.2967966794967651,0.0,0.06899935007095337
177.0,224.0,4.9765,-1.3472,7.7175,-0.0212,-0.0698,-0.1335,-1.6436215839781703,3.755556826945394e-05,2.561685800552368,-1.4831174612045288,-9.713312465464696e-05,2.197477340698242,4.11215798437085,-0.0,0.2924257814884186,-1.4723671118365687,0.0,-0.025720354169607162,0.8668594360351562,-0.0,-0.007353149354457855,1.2967767715454102,0.0,-0.01132897473871708
177.0,224.0,4.9765,-1.3472,7.7175,-0.0212,-0.0698,-0.1335,-1.6436172924437464,3.107225347775966e-05,2.486884593963623,-1.483097791671753,-0.00010976606426993385,2.1627111434936523,4.11214987813916,-0.0,0.28334668278694153,-1.4723871389972132,0.0,-0.013828866183757782,0.8668913841247559,-0.0,0.0020117254462093115,1.2968008518218994,0.0,0.010727344080805779
177.0,224.0,4.9765,-1.3472,7.7175,-0.0212,-0.0698,-0.1335,-1.6436172924437464,2.7301824957248755e-05,2.564779758453369,-1.4830694198608398,-9.783374844118953e-05,2.20162296295166,4.112093611354492,-0.0,0.296153724193573,-1.4723270575152796,0.0,-0.012100893072783947,0.8668428063392639,-0.0,-0.006347895599901676,1.2968008518218994,0.0,-0.0423794761300087
177.0,224.0,4.9765,-1.3472,7.7175,-0.0212,-0.0698,-0.1335,-1.6436172924437464,2.434744601487182e-05,2.517214775085449,-1.483081340789795,-8.824148972053081e-05,2.17276668548584,4.11214987813916,-0.0,0.2872878313064575,-1.4723714033709925,0.0,-0.0287216454744339,0.8668873310089111,-0.0,-0.009796923957765102,1.2968168258666992,0.0,0.025412382557988167
177.0,224.0,4.9765,-1.3472,7.7175,-0.0212,-0.0698,-0.1335,-1.6436134777464808,2.197005414927844e-05,2.497131109237671,-1.483129858970642,-8.036234066821635e-05,2.1865766048431396,4.1121179300495605,-0.0,0.28547900915145874,-1.4723628203021448,0.0,-0.014507627114653587,0.8669157028198242,-0.0,-0.004357484169304371,1.2968132495880127,0.0,-0.02886749804019928
177.0,224.0,4.9765,-1.3472,7.7175,-0.0212,-0.0698,-0.1335,-1.6436811886229457,1.9580160369514488e-05,2.5393035411834717,-1.4830775260925293,-7.22934419172816e-05,2.1798477172851562,4.112162275905273,-0.0,0.2952098250389099,-1.4723628203021448,0.0,-0.018280768766999245,0.8668107986450195,-0.0,-0.011697474867105484,1.2968168258666992,0.0,-0.037009380757808685
177.0,224.0,4.9765,-1.3472,7.7175,-0.0212,-0.0698,-0.1335,-1.6437016926207484,1.801265898393467e-05,2.5022876262664795,-1.4831092357635498,-6.691824819426984e-05,2.1930088996887207,4.112201853389404,-0.0,0.2820942997932434,-1.4723871389972132,0.0,-0.02152496576309204,0.866875410079956,-0.0,-0.013602111488580704,1.296784520149231,0.0,0.019162213429808617
177.0,224.0,4.9765,-1.3472,7.7175,-0.0212,-0.0698,-0.1335,-1.6436573467650355,5.835871608010634e-13,2.5361568927764893,-1.4830328226089478,-6.228702113730833e-05,2.190084934234619,4.11212603628125,-0.0,0.2892738878726959,-1.4723628203021448,0.0,-0.014675801619887352,0.8668758869171143,-0.0,-0.007059486582875252,1.2967685461044312,0.0,0.003019104478880763
177.0,224.0,4.9765,-1.3472,7.7175,-0.0212,-0.0698,-0.1335,-1.6436454258360804,2.5366803119259005e-22,2.4774985313415527,-1.4830855131149292,-5.732768840971403e-05,2.213942050933838,4.112153692836426,-0.0,0.2850302457809448,-1.4723871389972132,0.0,-0.023445511236786842,0.8668553233146667,-0.0,-0.003130796831101179,1.2967524528503418,0.0,0.009766879491508007
171.0,221.0,4.8024,-1.2508,7.7856,-0.0409,0.016,-0.126,-1.6436249218382777,8.218523108632805e-30,2.4831769466400146,-1.483106017112732,-5.389482976170257e-05,2.2578823566436768,4.112141771907471,-0.0,0.2947290539741516,-1.4723628203021448,0.0,-0.012158943340182304,0.86686772108078,-0.0,-0.010973833501338959,1.2968008518218994,0.0,0.032034702599048615
171.0,221.0,4.8024,-1.2508,7.7856,-0.0409,0.016,-0.126,-1.6436249218382777,2.6626968951653017e-37,2.504580497741699,-1.4831217527389526,-4.0624952816870064e-05,2.1759033203125,4.112169428462646,-0.0,0.2941439747810364,-1.4724109808551233,0.0,-0.019239388406276703,0.8669317960739136,-0.0,0.007252390496432781,1.2967603206634521,0.0,-0.009777087718248367
171.0,221.0,4.8024,-1.2508,7.7856,-0.0409,0.016,-0.126,-1.643649240533346,0.0,2.5097203254699707,-1.4830576181411743,-1.6306203178828582e-05,2.224998950958252,4.112169428462646,-0.0,0.2911548316478729,-1.472419563923971,0.0,-0.015014272183179855,0.8668877482414246,-0.0,-0.004357733763754368,1.2968004941940308,0.0,-0.03463881090283394
171.0,221.0,4.8024,-1.2508,7.7856,-0.0409,0.016,-0.126,-1.643649240533346,0.0,2.484243869781494,-1.4830374717712402,-1.1165433161375304e-10,2.237604856491089,4.112185640926025,-0.0,0.28752797842025757,-1.4724152723895472,0.0,-0.002291157841682434,0.8668264746665955,-0.0,-0.01810353994369507,1.2968848943710327,0.0,-0.05831708386540413
171.0,221.0,4.8024,-1.2508,7.7856,-0.0409,0.016,-0.126,-1.6436249218382777,0.0,2.5405797958374023,-1.4830694198608398,-3.617458101270484e-18,2.1783623695373535,4.112133188838623,-0.0,0.28811532258987427,-1.472431484852926,0.0,-0.014728756621479988,0.8668673038482666,-0.0,-0.003924855031073093,1.2968045473098755,0.0,-0.05829596519470215
171.0,221.0,4.8024,-1.2508,7.7856,-0.0409,0.016,-0.126,-1.6436172924437464,0.0,2.532701015472412,-1.4830214977264404,-1.172010277108308e-25,2.1814677715301514,4.112169428462646,-0.0,0.28692978620529175,-1.4724233786212366,0.0,-0.00995299406349659,0.8668837547302246,-0.0,-0.013229843229055405,1.2968246936798096,0.0,0.04027000442147255
171.0,221.0,4.8024,-1.2508,7.7856,-0.0409,0.016,-0.126,-1.6435934505858363,0.0014166439650580287,2.498063564300537,-1.4830496311187744,-5.094381868794482e-35,2.237938642501831,4.112165613765381,-0.0,0.2742927670478821,-1.472419563923971,0.0,-0.02154584974050522,0.866899311542511,-0.0,-0.009745897725224495,1.2967803478240967,0.0,-0.020011980086565018
171.0,221.0,4.8024,-1.2508,7.7856,-0.0409,0.016,-0.126,-1.643581052819723,0.004687193781137466,2.5030694007873535,-1.4830694198608398,-1.6507295909746345e-42,2.1482436656951904,4.112169905299805,-0.0,0.28934910893440247,-1.472346607838766,0.0,-0.01907314732670784,0.8669114708900452,-0.0,-0.004975893069058657,1.296861171722412,0.0,0.02081763558089733
171.0,221.0,4.8024,-1.2508,7.7856,-0.0409,0.016,-0.126,-1.6434804401793421,0.008975056000053883,2.491441011428833,-1.4830615520477295,0.00011462972906883806,2.1642990112304688,4.112157030696533,-0.0,0.2918333411216736,-1.4724152723895472,0.0,-0.026357248425483704,0.8668713569641113,-0.0,0.0013336250558495522,1.2968569993972778,0.0,-0.0061805229634046555
171.0,221.0,4.8024,-1.2508,7.7856,-0.0409,0.016,-0.126,-1.6434813938536585,0.0027416148222982883,2.501743793487549,-1.4830732345581055,2.1087983270717814e-07,2.2176475524902344,4.112133188838623,-0.0,0.29625850915908813,-1.4723833242999476,0.0,-0.01563285104930401,0.8668713569641113,-0.0,0.00046510621905326843,1.2968651056289673,0.0,0.011121921241283417
171.0,221.0,4.8024,-1.2508,7.7856,-0.0409,0.016,-0.126,-1.6434771023192347,0.0007535184267908335,2.4881246089935303,-1.4830374717712402,6.832238479804282e-15,2.218873977661133,4.112101240749023,-0.0,0.27240291237831116,-1.4723747412311,0.0,-0.023232795298099518,0.8668794631958008,-0.0,-0.0032676414120942354,1.2968569993972778,0.0,-0.03941399231553078
179.0,222.0,4.7803,-0.667,7.7827,-0.0567,0.0226,-0.1174,-1.6434337101378382,0.000717862683814019,2.460655689239502,-1.4830212593078613,2.2135580888730704e-22,2.2180426120758057,4.112157030696533,-0.0,0.30003291368484497,-1.4723833242999476,-2.610910451039672e-05,-0.013457336463034153,0.8669037818908691,-0.0,-0.0018335396889597178,1.296868920326233,0.0,-0.002166240941733122
179.0,222.0,4.7803,-0.667,7.7827,-0.0567,0.0226,-0.1174,-1.6434976063170375,0.00045097628026269376,2.4804775714874268,-1.4830213785171509,0.0012746810680255294,2.2629175186157227,4.1121179300495605,-0.0,0.29797467589378357,-1.4723871389972132,-2.71670342044672e-05,-0.016594581305980682,0.8668959736824036,-0.0,0.0011031226022168994,1.296832799911499,0.0,-0.0008375032339245081
179.0,222.0,4.7803,-0.667,7.7827,-0.0567,0.0226,-0.1174,-1.6434656582274378,0.0002128261112375185,2.5293097496032715,-1.4830296039581299,-0.0001018125403788872,2.2301201820373535,4.112169428462646,-0.0,0.2833137512207031,-1.4724233786212366,-2.5620311134844087e-05,-0.015578468330204487,0.8668351173400879,-0.0,-0.008515932597219944,1.2968933582305908,0.0005282934289425611,-0.005852946545928717
179.0,222.0,4.7803,-0.667,7.7827,-0.0567,0.0226,-0.1174,-1.643529554406637,2.330503012792917e-10,2.5110485553741455,-1.4830574989318848,-0.0004971984890289605,2.207723617553711,4.11214987813916,-0.0,0.2843724191188812,-1.4724071661578577,-2.4240222046501003e-05,-0.013518527150154114,0.8668836951255798,-0.0,0.0014845830155536532,1.296889305114746,0.0008915103389881551,-0.000994708389043808
179.0,222.0,4.7803,-0.667,7.7827,-0.0567,0.0226,-0.1174,-1.6435214481749476,-0.0012270245933905244,2.4477384090423584,-1.483017086982727,-0.00047928522690199316,2.2090508937835693,4.11218182622876,-0.0,0.2887820601463318,-1.4723833242999476,-2.2711010387865826e-05,-0.020358117297291756,0.8668594360351562,-0.0,-0.007238446734845638,1.2969207763671875,0.0009727618307806551,-0.019372643902897835
179.0,222.0,4.7803,-0.667,7.7827,-0.0567,0.0226,-0.1174,-1.6435572109618128,-0.0008936533704400063,2.542710304260254,-1.4830855131149292,-0.0005434329505078495,2.224867582321167,4.112141771907471,-0.0,0.2868623733520508,-1.4723871389972132,3.957236185669899e-05,-0.0005695836152881384,0.86686772108078,-0.0,-0.01791607216000557,1.2968642711639404,0.0005660306196659803,-0.0005113123916089535
179.0,222.0,4.7803,-0.667,7.7827,-0.0567,0.0226,-0.1174,-1.643517633477682,-0.0006517685251310468,2.4832491874694824,-1.483033299446106,-0.0005197141435928643,2.1938424110412598,4.112145586604736,-0.0,0.2934788465499878,-1.4724114576922815,3.411711804801598e-05,-0.018417267128825188,0.8669033050537109,-0.0,-0.001413543475791812,1.296937108039856,0.0003987688396591693,-0.017834985628724098
179.0,222.0,4.7803,-0.667,7.7827,-0.0567,0.0226,-0.1174,-1.6435371838011683,-0.0004211406339891255,2.4996795654296875,-1.4830976724624634,-0.00035543713602237403,2.1881418228149414,4.112121744746826,-0.0,0.29185134172439575,-1.4724152723895472,2.0001114080514526e-06,-0.01541619561612606,0.8668386936187744,-0.0,-0.00628508348017931,1.296884536743164,0.0003414162201806903,-0.02267303690314293
179.0,222.0,4.7803,-0.667,7.7827,-0.0567,0.0226,-0.1174,-1.6435495815672816,-0.0001111069941543974,2.5307440757751465,-1.4830855131149292,-0.00020383379887789488,2.189539909362793,4.112089319820068,-0.0,0.28863024711608887,-1.4724753538714808,2.3734634049810133e-12,-0.01710507832467556,0.8668673038482666,-0.0,-0.005292899440973997,1.296937108039856,0.0002804566465783864,-0.05117053538560867
179.0,222.0,4.7803,-0.667,7.7827,-0.0567,0.0226,-0.1174,-1.643501421014303,-4.362117761047557e-05,2.5226922035217285,-1.483089566230774,-0.00012522698671091348,2.168616771697998,4.112161322230957,-0.0,0.28285080194473267,-1.4724634329425257,4.3136532576186983e-17,-0.02698638290166855,0.8668954372406006,-0.0,-0.016911976039409637,1.2969489097595215,0.00030561527819372714,-0.0418086051940918
178.0,219.0,5.1368,-0.8985,8.0118,-0.0426,-0.0197,-0.1248,-1.6435414753355921,-7.156458092794082e-09,2.4990756511688232,-1.4830378293991089,6.398114783223718e-05,2.2059316635131836,4.1121861177631835,-0.0,0.288343220949173,-1.4724190870868128,7.839851137380218e-22,-0.020108263939619064,0.8668794631958008,-0.0,-0.01054294127970934,1.2969493865966797,0.0002646029170136899,0.026005856692790985
178.0,219.0,5.1368,-0.8985,8.0118,-0.0426,-0.0197,-0.1248,-1.6435214481749476,-3.110700167855438e-18,2.4514341354370117,-1.4830294847488403,0.00013978096831124276,2.212231159210205,4.112133188838623,-0.0,0.2768375873565674,-1.472431484852926,9.303279707630374e-28,-0.028124865144491196,0.8668914437294006,-0.0,-0.0026287701912224293,1.2969166040420532,0.0002235279680462554,0.030251283198595047
178.0,219.0,5.1368,-0.8985,8.0118,-0.0426,-0.0197,-0.1248,-1.643445154229635,-1.0078273686140204e-25,2.4885916709899902,-1.4830738306045532,0.0001512897724751383,2.1702919006347656,4.112177534694336,-0.0,0.2957209348678589,-1.4724352995501917,1.6908250498142304e-32,-0.02104794979095459,0.8668795228004456,-0.0,-0.009056931361556053,1.2969290018081665,0.0001988358999369666,0.11461250483989716
178.0,219.0,5.1368,-0.8985,8.0118,-0.0426,-0.0197,-0.1248,-1.6435138187804164,-3.265232371732486e-33,2.4517204761505127,-1.483017086982727,0.0003313740890007466,2.1521172523498535,4.1121861177631835,-0.0,0.2753990888595581,-1.4724271933185022,3.072990807702488e-37,-0.028259258717298508,0.866863489151001,-0.0,0.00185210385825485,1.296940803527832,0.00027384230634197593,0.06459174305200577
178.0,219.0,5.1368,-0.8985,8.0118,-0.0426,-0.0197,-0.1248,-1.6434971294798792,-1.4195153443610397e-42,2.453409194946289,-1.483025312423706,0.00038772629341110587,2.1250903606414795,4.112145586604736,-0.0,0.2752766013145447,-1.4724391142474573,3.643376007244524e-43,-0.04213320463895798,0.8668913841247559,-0.0,0.0033859875984489918,1.2969727516174316,0.002880336018279195,0.09267495572566986
178.0,219.0,5.1368,-0.8985,8.0118,-0.0426,-0.0197,-0.1248,-1.6434809170165003,0.0,2.428919553756714,-1.4829974174499512,0.0004283534944988787,2.140247344970703,4.11212603628125,-0.0,0.27469292283058167,-1.4724472204791468,0.0,-0.040005289018154144,0.866875410079956,-0.0,-0.0032906453125178814,1.2969563007354736,0.003836249466985464,0.10492342710494995
178.0,219.0,5.1368,-0.8985,8.0118,-0.0426,-0.0197,-0.1248,-1.6435734234251917,0.0,2.4087436199188232,-1.482965350151062,0.00031020419555716217,2.193521022796631,4.112154169673584,-0.0,0.2784498333930969,-1.4724472204791468,0.0,-0.04209761694073677,0.8669074177742004,-0.0,-0.0026993609499186277,1.2970166206359863,0.003886283142492175,0.07216215878725052
178.0,219.0,5.1368,-0.8985,8.0118,-0.0426,-0.0197,-0.1248,-1.6435133419432582,0.0,2.4480669498443604,-1.483009934425354,0.0001945281110238284,2.1656203269958496,4.112177534694336,-7.796069257892668e-05,0.27596503496170044,-1.4724352995501917,0.0,-0.0328003466129303,0.8669114708900452,-0.0,-0.013528257608413696,1.2970365285873413,0.0020718295127153397,0.13069573044776917
178.0,219.0,5.1368,-0.8985,8.0118,-0.0426,-0.0197,-0.1248,-1.6436335049071253,-0.0026303234044462442,2.436105728149414,-1.4829974174499512,0.0001148948649642989,2.111482858657837,4.112109346980713,-0.00011415917833801359,0.26658886671066284,-1.4724434057818812,-3.0839230021229014e-05,-0.04476258158683777,0.8668832778930664,-0.0,-0.014192083850502968,1.2970287799835205,0.0007544345571659505,0.10354365408420563
178.0,219.0,5.1368,-0.8985,8.0118,-0.0426,-0.0197,-0.1248,-1.6436497173705042,-0.005198310129344463,2.4089059829711914,-1.4830336570739746,-8.944293222157285e-05,2.1791629791259766,4.112122221583984,-0.0005569083150476217,0.28554800152778625,-1.472419563923971,-4.8340483772335574e-05,-0.026670165359973907,0.8668672442436218,-0.0,-0.010421153157949448,1.2969924211502075,0.000412989582400769,0.179023876786232
178.0,219.0,5.1368,-0.8985,8.0118,-0.0426,-0.0197,-0.1248,-1.6437131367125453,-0.010483566671609879,2.39229154586792,-1.4830212593078613,-0.00011191740486538038,2.1544249057769775,4.1120497423359375,-0.0004839179164264351,0.2739986181259155,-1.4724109808551233,-4.365140193840489e-05,-0.02842722088098526,0.8669033050537109,-0.0,-0.015349989756941795,1.297032356262207,0.0002968045009765774,0.1146765872836113
173.0,218.0,4.3412,-0.6443,7.6935,0.0107,0.0365,-0.1248,-1.6438647709288539,-0.013855301775038242,2.3986656665802,-1.4830098152160645,-6.223157106433064e-05,2.131014585494995,4.112097902888916,-0.0003622444346547127,0.2804783284664154,-1.4724352995501917,-1.946829979715403e-05,-0.03243916481733322,0.866979718208313,-0.0,-0.012935406528413296,1.2969924211502075,0.00022318970877677202,0.07899380475282669
173.0,218.0,4.3412,-0.6443,7.6935,0.0107,0.0365,-0.1248,-1.6440054378905238,-0.010459387674927711,2.4217803478240967,-1.4829820394515991,-2.716966628213413e-05,2.2301955223083496,4.112077398891113,-0.00027709134155884385,0.287192702293396,-1.4723790327655237,-4.623852419172181e-06,-0.034740038216114044,0.8668751120567322,-0.0,-0.0044133649207651615,1.297020673751831,0.00018623919459059834,0.04743976891040802
173.0,218.0,4.3412,-0.6443,7.6935,0.0107,0.0365,-0.1248,-1.6440769634642542,-0.011912069283425808,2.4257283210754395,-1.4830213785171509,-8.599562715971842e-05,2.191148281097412,4.1120216089436035,-0.00025466212537139654,0.29474005103111267,-1.4723427931415003,-8.403624324193615e-11,-0.028410721570253372,0.8669312596321106,-0.0,-0.013851156458258629,1.2969846725463867,0.00012782859266735613,0.05627384036779404
173.0,218.0,4.3412,-0.6443,7.6935,0.0107,0.0365,-0.1248,-1.6442729435362757,-0.01849908009171486,2.445380926132202,-1.4830899238586426,-6.954972195671871e-05,2.162471294403076,4.112030192012451,-0.000213608582271263,0.27244633436203003,-1.4723709265338343,-9.972288294614329e-17,-0.029115917161107063,0.8668472170829773,-0.0,-0.01358361542224884,1.2970410585403442,9.072212560568005e-05,0.0704447329044342
173.0,218.0,4.3412,-0.6443,7.6935,0.0107,0.0365,-0.1248,-1.6444326839842738,-0.023866165429353714,2.4321064949035645,-1.4830496311187744,-6.0239115555305034e-05,2.1436078548431396,4.112121744746826,-0.00018442337750457227,0.2904934287071228,-1.4723714033709925,-1.8124143163631633e-21,-0.026356417685747147,0.8668471574783325,-0.0,-0.007678259164094925,1.2969887256622314,7.265315798576921e-05,0.04254639893770218
173.0,218.0,4.3412,-0.6443,7.6935,0.0107,0.0365,-0.1248,-1.6446730099120082,-0.028093261644244194,2.3929412364959717,-1.4830418825149536,-5.989144180595929e-10,2.213205337524414,4.112050219173096,-0.00016225494618993253,0.2912745773792267,-1.4723470846759241,-3.293973450667888e-26,-0.021423134952783585,0.8669114708900452,-0.0,-0.009279279969632626,1.2970248460769653,6.559312896570191e-05,0.02171572670340538
173.0,218.0,4.3412,-0.6443,7.6935,0.0107,0.0365,-0.1248,-1.6449080906310023,-0.02671785093843937,2.4367117881774902,-1.4830138683319092,-2.603303599308713e-19,2.166768789291382,4.112097426051758,-0.00011755094601539895,0.29088085889816284,-1.4723671118365687,-3.9088437406721083e-32,-0.01873815804719925,0.8668351173400879,-0.0,-0.0004837122978642583,1.297008752822876,5.848853470524773e-05,0.01469755545258522
173.0,218.0,4.3412,-0.6443,7.6935,0.0107,0.0365,-0.1248,-1.645144601861471,-0.02737133391201496,2.4946060180664062,-1.4830293655395508,-8.434372146502773e-27,2.212822198867798,4.112085505122803,-0.00010642951383488253,0.28142866492271423,-1.47243577638735,-7.104130314463153e-37,-0.021638907492160797,0.8668386936187744,-0.0,-0.014437704347074032,1.297020673751831,5.382466406445019e-05,0.0017565916059538722
173.0,218.0,4.3412,-0.6443,7.6935,0.0107,0.0365,-0.1248,-1.6454082928099574,-0.03143990412354469,2.419631242752075,-1.483017921447754,-2.7326290138508583e-34,2.142989158630371,4.11212603628125,-9.723068797029555e-05,0.28249287605285645,-1.4723427931415003,-1.2911564050288864e-41,-0.027879972010850906,0.8668997287750244,-0.0,-0.008376313373446465,1.2970247268676758,4.9849655624711886e-05,-0.011684628203511238
173.0,218.0,4.3412,-0.6443,7.6935,0.0107,0.0365,-0.1248,-1.6456881962218226,-0.03608507290482521,2.44107723236084,-1.4830057621002197,-8.853403697604194e-42,2.1888699531555176,4.112085505122803,-8.949562470661476e-05,0.28762680292129517,-1.4724071661578577,-0.0,-0.011010179296135902,0.8668391704559326,-0.0,0.0011196444975212216,1.2970207929611206,-3.212049341527745e-05,0.010909082368016243
180.0,214.0,4.9872,-2.0847,7.4614,-0.0643,-0.0205,-0.1115,-1.6460677585997523,-0.038839854300022125,2.407135486602783,-1.4830459356307983,-0.0,2.1557765007019043,4.112097902888916,-8.140100544551387e-05,0.2741355001926422,-1.4723957220660608,-0.0,-0.01409384235739708,0.8668351173400879,-0.0,-0.01389049831777811,1.2969887256622314,-5.877791772945784e-05,0.022742781788110733
180.0,214.0,4.9872,-2.0847,7.4614,-0.0643,-0.0205,-0.1115,-1.6463643513121546,-0.04001905024051666,2.3748297691345215,-1.4830578565597534,-0.0,2.1486282348632812,4.112109823817871,-7.590844325022772e-05,0.27123212814331055,-1.4723389784442347,-0.0,-0.009451085701584816,0.8668913841247559,-0.0,-0.004830716177821159,1.2969927787780762,-0.0004972913302481174,-0.0233163982629776
180.0,214.0,4.9872,-2.0847,7.4614,-0.0643,-0.0205,-0.1115,-1.6467038593687953,-0.044579047709703445,2.295562505722046,-1.4830783605575562,-0.0,2.1333413124084473,4.112057848567627,-7.111029844963923e-05,0.28135231137275696,-1.4723590056048792,-0.0,-0.00980552937835455,0.866863489151001,-0.0,-0.0015009240014478564,1.296976923942566,-0.0010014617582783103,-0.010862519033253193
180.0,214.0,4.9872,-2.0847,7.4614,-0.0643,-0.0205,-0.1115,-1.6471592388548792,-0.05166323855519295,2.3164308071136475,-1.4829612970352173,0.0010828288504853845,2.153209686279297,4.112073107356689,-6.590317207155749e-05,0.27863001823425293,-1.4723833242999476,-0.0,-0.004423336125910282,0.8667952418327332,-0.0,-0.006693076808005571,1.2969485521316528,-0.0007361769094131887,-0.07765679061412811
180.0,214.0,4.9872,-2.0847,7.4614,-0.0643,-0.0205,-0.1115,-1.6475702724852503,-0.0586165115237236,2.309131622314453,-1.4829497337341309,0.002896749647334218,2.1225457191467285,4.112101717586182,-6.225617107702419e-05,0.2575813829898834,-1.4723747412311,-0.0,-0.00825769267976284,0.8668351173400879,-0.0,-0.021603520959615707,1.2969084978103638,-0.0009676442132331431,-0.04825305938720703
180.0,214.0,4.9872,-2.0847,7.4614,-0.0643,-0.0205,-0.1115,-1.6481100521483363,-0.06264171004295349,2.3199636936187744,-1.482917070388794,0.005341850686818361,2.1716859340667725,4.1121179300495605,-4.720005381386727e-05,0.275510311126709,-1.4723389784442347,-0.0,-0.0025218669325113297,0.8668432831764221,-0.0,-0.026314752176404,1.296888828277588,-0.002051331102848053,-0.08228002488613129
180.0,214.0,4.9872,-2.0847,7.4614,-0.0643,-0.0205,-0.1115,-1.648783346215719,-0.0705048218369484,2.276516914367676,-1.4828373193740845,0.008470685221254826,2.15071439743042,4.1121179300495605,-4.429028194863349e-05,0.2645079493522644,-1.4723833242999476,-0.0,0.004458102863281965,0.86686772108078,-0.0,-0.013043444603681564,1.2969653606414795,-0.003328703111037612,-0.037488486617803574
180.0,214.0,4.9872,-2.0847,7.4614,-0.0643,-0.0205,-0.1115,-1.6493545971312464,-0.07585571706295013,2.3043246269226074,-1.4827778339385986,0.009002109989523888,2.11782169342041,4.11214987813916,-4.221295966999605e-05,0.27546292543411255,-1.4723957220660608,-0.0,-0.0010337256826460361,0.866811215877533,-0.0,-0.016840912401676178,1.2968809604644775,-0.003416568273678422,-0.040146708488464355
180.0,214.0,4.9872,-2.0847,7.4614,-0.0643,-0.0205,-0.1115,-1.6500183544554652,-0.08230815827846527,2.3009634017944336,-1.4826453924179077,0.010921395383775234,2.150178909301758,4.11214987813916,-3.0328021239256486e-05,0.27969810366630554,-1.4724634329425257,-0.0,-0.023990560322999954,0.8668595552444458,-0.0,-0.010362405329942703,1.2968487739562988,-0.0019133372697979212,-0.10918083041906357
180.0,214.0,4.9872,-2.0847,7.4614,-0.0643,-0.0205,-0.1115,-1.6506649456419886,-0.08193781226873398,2.3064193725585938,-1.4826092720031738,0.011902260594069958,2.2037172317504883,4.112097426051758,-1.642415448088741e-08,0.28408876061439514,-1.4723871389972132,-0.0,-0.015685366466641426,0.8668190836906433,-0.0,-0.022698886692523956,1.296844720840454,-0.0008707466768100858,-0.0837504044175148
171.0,220.0,3.7167,-1.2383,8.0889,-0.0588,0.005,-0.1203,-1.651538988152975,-0.07818623632192612,2.34344482421875,-1.482460856437683,0.012631711550056934,2.2007174491882324,4.112097426051758,-1.9489974006437275e-14,0.2733114957809448,-1.4723747412311,-0.0,-0.008478709496557713,0.8668231964111328,-0.0,-0.027230022475123405,1.2968566417694092,-0.0005147852934896946,-0.01117022056132555
171.0,220.0,3.7167,-1.2383,8.0889,-0.0588,0.005,-0.1203,-1.652210374871725,-0.08746469020843506,2.3502137660980225,-1.4823737144470215,0.01105042826384306,2.178560733795166,4.11212603628125,-3.542206585814391e-19,0.26892268657684326,-1.4724071661578577,-0.0,-0.029712647199630737,0.8668592572212219,-0.0,-0.015198661014437675,1.2968891859054565,-0.00038795368163846433,-0.02010800875723362
171.0,220.0,3.7167,-1.2383,8.0889,-0.0588,0.005,-0.1203,-1.652970930139059,-0.10201521217823029,2.3001389503479004,-1.482253074645996,0.011000360362231731,2.14314866065979,4.112109346980713,-6.4377853791342095e-24,0.2655946612358093,-1.4724434057818812,-0.0,-0.020957941189408302,0.8668071627616882,-0.0,-0.03172918036580086,1.2968323230743408,-0.0003112715494353324,-0.006242262665182352
171.0,220.0,3.7167,-1.2383,8.0889,-0.0588,0.005,-0.1203,-1.653989931146139,-0.1148575097322464,2.283625602722168,-1.4820853471755981,0.018804099410772324,2.168668508529663,4.112109346980713,-7.639496032434705e-30,0.2635659873485565,-1.4724276701556605,-0.0,-0.0278763584792614,0.866814911365509,-0.0,-0.019381199032068253,1.2968566417694092,-0.0002496042870916426,-0.010083839297294617
171.0,220.0,3.7167,-1.2383,8.0889,-0.0588,0.005,-0.1203,-1.6549245319762171,-0.11903802305459976,2.2779407501220703,-1.481905460357666,0.02798924595117569,2.2159390449523926,4.112121744746826,-1.388441006986625e-34,0.2653191089630127,-1.472391430531637,-0.0,-0.02854411117732525,0.8668031096458435,-0.0,-0.013473722152411938,1.2968848943710327,-0.00021545738854911178,-0.03143710643053055
171.0,220.0,3.7167,-1.2383,8.0889,-0.0588,0.005,-0.1203,-1.6559468708434046,-0.11158661544322968,2.3679590225219727,-1.4816702604293823,0.037751756608486176,2.2061007022857666,4.112101240749023,-2.5234232420945225e-39,0.2541722059249878,-1.4724071661578577,-0.0,-0.024709157645702362,0.8668031096458435,-0.0,-0.02467343956232071,1.2968566417694092,-0.00018952941172756255,-0.022314677014946938
171.0,220.0,3.7167,-1.2383,8.0889,-0.0588,0.005,-0.1203,-1.6571575603880824,-0.11499045044183731,2.381150484085083,-1.4813344478607178,0.04333118349313736,2.1817691326141357,4.112142248744629,-2.802596928649634e-45,0.2660239338874817,-1.4723871389972132,-0.0,-0.020921912044286728,0.8668840527534485,-0.0,-0.030267413705587387,1.2968933582305908,-4.908688788418658e-05,-0.0014161153230816126
171.0,220.0,3.7167,-1.2383,8.0889,-0.0588,0.005,-0.1203,-1.6581698856749476,-0.13251927495002747,2.337275981903076,-1.4809657335281372,0.04073522984981537,2.2275772094726562,4.112101717586182,-1.8026418047156767e-06,0.2523767054080963,-1.4724190870868128,-0.0,-0.028355097398161888,0.8667993545532227,-0.0,-0.012622843496501446,1.2968933582305908,-4.4258744310354814e-05,-0.028238456696271896
171.0,220.0,3.7167,-1.2383,8.0889,-0.0588,0.005,-0.1203,-1.6592470608153285,-0.1503564566373825,2.3299732208251953,-1.4805541038513184,0.03971468657255173,2.1719682216644287,4.112153692836426,-3.276212981462301e-11,0.26172640919685364,-1.4723957220660608,-1.8631666534929536e-05,-0.03752470016479492,0.8668193817138672,-0.0,-0.03659442812204361,1.296872615814209,-4.0295552025781944e-05,-0.011566274799406528
171.0,220.0,3.7167,-1.2383,8.0889,-0.0588,0.005,-0.1203,-1.6606337032713832,-0.15124528110027313,2.35074520111084,-1.4800945520401,0.047938697040081024,2.217402935028076,4.112157030696533,-3.8877687313339313e-17,0.2494998574256897,-1.472391430531637,-2.1554918930632994e-05,-0.03665277361869812,0.8668112754821777,-0.0,-0.04567119479179382,1.2968766689300537,-9.86641098279506e-05,-0.012905196286737919
171.0,220.0,3.7167,-1.2383,8.0889,-0.0588,0.005,-0.1203,-1.6618205509581507,-0.12492364645004272,2.3660051822662354,-1.479767918586731,0.05374504625797272,2.213653564453125,4.112161322230957,-7.065827380500092e-22,0.25301530957221985,-1.4724109808551233,-2.0569656044244766e-05,-0.050070978701114655,0.8668432235717773,-0.0,-0.024871215224266052,1.2968164682388306,-0.00018046118202619255,-0.07483886182308197
174.0,214.0,3.463,-1.0762,9.0269,-0.0496,-0.0594,-0.1381,-1.662816663781637,-0.11431075632572174,2.3634281158447266,-1.479283332824707,0.048904381692409515,2.2066304683685303,4.11212603628125,-1.2841791179639031e-26,0.2513437271118164,-1.4723904768573206,-1.2985345847482677e-06,-0.062267377972602844,0.8668714761734009,-0.0,-0.030024610459804535,1.296852469444275,-0.00015050133515615016,-0.040830258280038834
174.0,214.0,3.463,-1.0762,9.0269,-0.0496,-0.0594,-0.1381,-1.6638561687865199,-0.1302887350320816,2.3556809425354004,-1.4789879322052002,0.03586305305361748,2.1879467964172363,4.112085505122803,-2.3339322786141436e-31,0.24527737498283386,-1.47239858308901,-2.3600224205444498e-11,-0.039551861584186554,0.8668354153633118,-0.0,-0.043431736528873444,1.2969093322753906,-0.00012880565191153437,-0.01867961511015892
174.0,214.0,3.463,-1.0762,9.0269,-0.0496,-0.0594,-0.1381,-1.6651488743224085,-0.1563751995563507,2.3381240367889404,-1.4786113500595093,0.026775136590003967,2.143110990524292,4.112169428462646,-2.7695969103341704e-37,0.24258413910865784,-1.4724152723895472,-2.800555952290979e-17,-0.04959326982498169,0.8668674230575562,-7.127487333491445e-05,-0.04267317056655884,1.2968405485153198,-0.00010466866660863161,-0.031218942254781723
174.0,214.0,3.463,-1.0762,9.0269,-0.0496,-0.0594,-0.1381,-1.6662432156004847,-0.14715507626533508,2.3525705337524414,-1.478339433670044,0.0344034843146801,2.1776812076568604,4.112157030696533,-5.033464083854743e-42,0.2375839352607727,-1.4724591414081019,-5.089871924360184e-22,-0.05069047957658768,0.8667952418327332,-8.069328032433987e-05,-0.036775074899196625,1.296832799911499,-0.0001273721718462184,0.01628882624208927
174.0,214.0,3.463,-1.0762,9.0269,-0.0496,-0.0594,-0.1381,-1.6673342190184535,-0.12102649360895157,2.3572897911071777,-1.478035807609558,0.05057515203952789,2.162446975708008,4.112161322230957,-0.0,0.22894161939620972,-1.4724271933185022,-9.250591271769795e-27,-0.05873627960681915,0.866771399974823,-0.00010113122698385268,-0.04190235584974289,1.296868920326233,-0.00010715187090681866,-0.0018164622597396374
174.0,214.0,3.463,-1.0762,9.0269,-0.0496,-0.0594,-0.1381,-1.66864075283193,-0.11338742077350616,2.427525281906128,-1.4775487184524536,0.059598516672849655,2.211386203765869,4.1121179300495605,-0.0,0.2349691092967987,-1.4724672476397913,-0.00011878919758601114,-0.06427357345819473,0.8667793869972229,-0.00036121904850006104,-0.055641114711761475,1.2968566417694092,-8.940965926740319e-05,0.007794446311891079
174.0,214.0,3.463,-1.0762,9.0269,-0.0496,-0.0594,-0.1381,-1.6697536907591761,-0.1346125304698944,2.383452892303467,-1.4770681858062744,0.05939123034477234,2.20619535446167,4.112101240749023,-0.0,0.22953666746616364,-1.4724109808551233,-0.00011327696847729385,-0.08526597917079926,0.8667712807655334,-0.00033549065119586885,-0.043095968663692474,1.2968647480010986,4.1593550122343004e-05,0.031154662370681763
174.0,214.0,3.463,-1.0762,9.0269,-0.0496,-0.0594,-0.1381,-1.6708065472044886,-0.1596754491329193,2.301391124725342,-1.476553201675415,0.05938545614480972,2.206521987915039,4.112097426051758,-0.0,0.21808525919914246,-1.4724071661578577,-0.00010291396756656468,-0.07429684698581696,0.8668199181556702,-0.00031575607135891914,-0.05059652775526047,1.2968566417694092,3.510957321850583e-05,-0.01876778155565262
174.0,214.0,3.463,-1.0762,9.0269,-0.0496,-0.0594,-0.1381,-1.6722432575621546,-0.15232788026332855,2.3182687759399414,-1.4757928848266602,0.07307129353284836,2.2197425365448,4.1121179300495605,-0.0,0.20921805500984192,-1.4724071661578577,-9.235321340383962e-05,-0.06773382425308228,0.8667915463447571,-0.0002776963810902089,-0.06074393168091774,1.2967926263809204,1.0947947192904706e-12,0.05431586131453514
174.0,214.0,3.463,-1.0762,9.0269,-0.0496,-0.0594,-0.1381,-1.6733933887877406,-0.13821546733379364,2.3072354793548584,-1.4750807285308838,0.09041954576969147,2.2146248817443848,4.112165613765381,-0.0,0.20181305706501007,-1.4723666349994105,-8.53466335684061e-05,-0.07073120027780533,0.8667629361152649,-0.0002675533469300717,-0.05177999287843704,1.2967722415924072,3.5469960261845584e-20,0.0221448615193367
167.0,220.0,4.136,-0.3063,9.1962,-0.0166,0.0107,-0.1481,-1.674415727654928,-0.12984521687030792,2.2958600521087646,-1.474418044090271,0.0983344167470932,2.234600067138672,4.112137480373047,-0.0,0.21261592209339142,-1.4724271933185022,-7.932841253932565e-05,-0.0766666829586029,0.8667593002319336,-0.00026041848468594253,-0.06771992892026901,1.2968209981918335,-0.0005867697182111442,-0.01946478709578514
167.0,220.0,4.136,-0.3063,9.1962,-0.0166,0.0107,-0.1481,-1.6755749187865199,-0.13630694150924683,2.360607385635376,-1.4736379384994507,0.0908108502626419,2.2287511825561523,4.112122221583984,-0.0,0.21599087119102478,-1.4723904768573206,-7.4103067163378e-05,-0.06545910984277725,0.8668198585510254,-0.00022359041031450033,-0.05479051172733307,1.2968368530273438,-0.0003855584072880447,0.0038738795556128025
167.0,220.0,4.136,-0.3063,9.1962,-0.0166,0.0107,-0.1481,-1.6769172153868617,-0.14168761670589447,2.299665927886963,-1.4727418422698975,0.08777498453855515,2.1747546195983887,4.112130327815674,-0.0,0.19489529728889465,-1.472431484852926,-6.846577161923051e-05,-0.07573125511407852,0.8667067885398865,-0.00018988973170053214,-0.0702337697148323,1.2968693971633911,-0.0002699040051084012,-0.05149516090750694
167.0,220.0,4.136,-0.3063,9.1962,-0.0166,0.0107,-0.1481,-1.6779562435545863,-0.1395125389099121,2.3106164932250977,-1.472058892250061,0.0873948186635971,2.166856050491333,4.11212603628125,-0.0,0.21615618467330933,-1.4724229017840784,-6.453809328377247e-05,-0.07082206010818481,0.866787850856781,-0.00019283895380795002,-0.06851479411125183,1.2968164682388306,-0.00021767396538052708,-0.0232354998588562
167.0,220.0,4.136,-0.3063,9.1962,-0.0166,0.0107,-0.1481,-1.6790558300414027,-0.13709081709384918,2.287482500076294,-1.4712871313095093,0.0926319882273674,2.1604361534118652,4.112129374141357,-0.0,0.202518492937088,-1.4724152723895472,-6.103658233769238e-05,-0.07260166108608246,0.8667755126953125,-0.0001748518116073683,-0.05876394361257553,1.2968168258666992,-0.00025102158542722464,0.001897389069199562
167.0,220.0,4.136,-0.3063,9.1962,-0.0166,0.0107,-0.1481,-1.680336137811178,-0.1269766241312027,2.324963331222534,-1.4702630043029785,0.10682781785726547,2.224884033203125,4.112101240749023,-0.0,0.18713080883026123,-1.4724515120135706,-5.7160097640007734e-05,-0.05993726849555969,0.866843581199646,-0.0001559183729114011,-0.06481428444385529,1.2968209981918335,-0.0017506612930446863,-0.027729583904147148
167.0,220.0,4.136,-0.3063,9.1962,-0.0166,0.0107,-0.1481,-1.6814080677428187,-0.1260969340801239,2.326470375061035,-1.469411849975586,0.11516688019037247,2.224726438522339,4.112093611354492,-0.0,0.2067476361989975,-1.47239858308901,-5.439630331238732e-05,-0.060784026980400085,0.8667191863059998,-0.00014348881086334586,-0.061228297650814056,1.2967727184295654,-0.0018682766240090132,-0.1119544580578804
167.0,220.0,4.136,-0.3063,9.1962,-0.0166,0.0107,-0.1481,-1.6824914417662562,-0.12696993350982666,2.319974660873413,-1.4684598445892334,0.10656818747520447,2.1899449825286865,4.11217371999707,-0.0,0.19527462124824524,-1.4723904768573206,-5.1887451263610274e-05,-0.072969950735569,0.8667346835136414,-0.0001328945072600618,-0.06405559182167053,1.2968050241470337,-0.001159760868176818,-0.11876343190670013
167.0,220.0,4.136,-0.3063,9.1962,-0.0166,0.0107,-0.1481,-1.6838203869261683,-0.13461294770240784,2.364184856414795,-1.4673844575881958,0.1019435003399849,2.2148818969726562,4.112141771907471,-0.0,0.2085283100605011,-1.4724515120135706,-1.641538460717129e-06,-0.07373946905136108,0.8667547702789307,-0.00012166583474026993,-0.0700707659125328,1.2967689037322998,-0.0005592353409156203,-0.033912502229213715
167.0,220.0,4.136,-0.3063,9.1962,-0.0166,0.0107,-0.1481,-1.6848603687682093,-0.14069180190563202,2.318230628967285,-1.4665566682815552,0.10353241115808487,2.20146107673645,4.112141771907471,-0.0,0.1966223418712616,-1.4724472204791468,-2.983414557067299e-11,-0.06970977783203125,0.8667795658111572,-0.00011396285117371008,-0.07041919231414795,1.2967529296875,-0.000603601336479187,-0.08903880417346954
167.0,220.0,4.136,-0.3063,9.1962,-0.0166,0.0107,-0.1481,-1.6859637699522914,-0.13782860338687897,2.3379061222076416,-1.4657140970230103,0.1109950914978981,2.230729579925537,4.112201853389404,-0.0,0.1920068860054016,-1.472431484852926,-5.422208355256703e-16,-0.065823495388031,0.8668074607849121,-0.00010717711847973987,-0.06847432255744934,1.296728491783142,-0.0012927887728437781,-0.061459265649318695
159.0,222.0,4.7306,-0.92,8.1512,-0.0597,0.0226,-0.1252,-1.687296052972311,-0.11599844694137573,2.364469528198242,-1.4645135402679443,0.12200009822845459,2.2120001316070557,4.11212603628125,-0.0,0.20581746101379395,-1.4724071661578577,-6.434347381314293e-22,-0.07241922616958618,0.8667712211608887,-9.975259308703244e-05,-0.07129769027233124,1.296761155128479,-0.001650037243962288,-0.059422098100185394
159.0,222.0,4.7306,-0.92,8.1512,-0.0597,0.0226,-0.1252,-1.688235422173971,-0.11181782186031342,2.428133010864258,-1.4636224508285522,0.12057451903820038,2.230661392211914,4.112145586604736,-0.0,0.21565482020378113,-1.4724233786212366,-1.1694109496107256e-26,-0.09064377844333649,0.8668158054351807,-9.451473306398839e-05,-0.05335869640111923,1.2967448234558105,-0.0009291458409279585,-0.06857842206954956
159.0,222.0,4.7306,-0.92,8.1512,-0.0597,0.0226,-0.1252,-1.6892715893187464,-0.12972314655780792,2.3611178398132324,-1.4626024961471558,0.11227408796548843,2.183370351791382,4.112145586604736,-0.0,0.21575920283794403,-1.472431484852926,-2.1253464484336127e-31,-0.07863727957010269,0.8667998313903809,-7.858719618525356e-05,-0.056195907294750214,1.2967288494110107,-0.0006126929656602442,-0.046372897922992706
159.0,222.0,4.7306,-0.92,8.1512,-0.0597,0.0226,-0.1252,-1.6903368435301722,-0.14356577396392822,2.3874170780181885,-1.4617233276367188,0.11126980185508728,2.2384886741638184,4.112141771907471,-0.0,0.20523764193058014,-1.47239858308901,-3.8627114579864254e-36,-0.07478280365467072,0.8667547702789307,-7.484086381737143e-05,-0.05829676240682602,1.2967529296875,-0.00033210814581252635,-0.04603490233421326
159.0,222.0,4.7306,-0.92,8.1512,-0.0597,0.0226,-0.1252,-1.6916758022704066,-0.1389472931623459,2.3766632080078125,-1.46053147315979,0.11988728493452072,2.237865686416626,4.112141771907471,-2.1037765691289678e-05,0.21489641070365906,-1.4724071661578577,-4.5836472768064766e-42,-0.07745662331581116,0.8667346835136414,-7.064475357765332e-05,-0.04970349371433258,1.2967169284820557,-0.0010363413020968437,-0.07706468552350998
159.0,222.0,4.7306,-0.92,8.1512,-0.0597,0.0226,-0.1252,-1.6926905117430628,-0.11223062127828598,2.416356325149536,-1.4595320224761963,0.13370196521282196,2.2533912658691406,4.112169428462646,-2.0433562895050272e-05,0.20136971771717072,-1.4724391142474573,-0.0,-0.06240537017583847,0.8668034076690674,-3.836232309595289e-08,-0.05083940923213959,1.2967288494110107,-0.0011172789381816983,-0.08619332313537598
159.0,222.0,4.7306,-0.92,8.1512,-0.0597,0.0226,-0.1252,-1.6937185726561488,-0.09989699721336365,2.417929172515869,-1.4584805965423584,0.13334374129772186,2.253035068511963,4.1121179300495605,-4.86313240344316e-07,0.21595153212547302,-1.4724434057818812,-0.0,-0.07239115238189697,0.8668313026428223,-6.972159937064515e-13,-0.04233807697892189,1.2967529296875,-0.00026570624322630465,-0.05941596254706383
159.0,222.0,4.7306,-0.92,8.1512,-0.0597,0.0226,-0.1252,-1.6948653660216273,-0.12303540855646133,2.367192029953003,-1.4572129249572754,0.12445580214262009,2.2012064456939697,4.112085981959961,-0.00011724434443749487,0.19972623884677887,-1.4724472204791468,-0.0,-0.07722796499729156,0.8668317794799805,-8.273621786974831e-19,-0.03918812796473503,1.2967849969863892,-7.544522668467835e-05,-0.05652356892824173
159.0,222.0,4.7306,-0.92,8.1512,-0.0597,0.0226,-0.1252,-1.6958204708495082,-0.14641137421131134,2.3396971225738525,-1.4562374353408813,0.12476468086242676,2.211556911468506,4.112134142512939,-0.0001918432826641947,0.21228791773319244,-1.4724152723895472,-0.0,-0.08649498224258423,0.8667914867401123,-2.5895174076140393e-06,-0.04619172587990761,1.2967488765716553,-5.649667218676768e-05,-0.1169518381357193
159.0,222.0,4.7306,-0.92,8.1512,-0.0597,0.0226,-0.1252,-1.696913858453268,-0.14513461291790009,2.3205065727233887,-1.455101728439331,0.13395333290100098,2.2697243690490723,4.112109346980713,-0.00020955193031113595,0.21651649475097656,-1.4724472204791468,-0.0,-0.07290203124284744,0.8667911887168884,-4.7063204028363614e-11,-0.03214133530855179,1.2967087030410767,-9.030976798385382e-05,-0.07420045137405396
157.0,209.0,4.6002,-1.3131,7.2784,-0.0041,0.089,-0.1327,-1.698193212548727,-0.12038867175579071,2.37257719039917,-1.4537147283554077,0.1518854796886444,2.219600200653076,4.112081213588379,-6.61976810079068e-05,0.21479463577270508,-1.472431484852926,-0.0,-0.0600617378950119,0.8667914867401123,-5.584827696170994e-17,-0.045593418180942535,1.2967489957809448,-0.00010829833627212793,-0.07754214853048325
157.0,209.0,4.6002,-1.3131,7.2784,-0.0041,0.089,-0.1327,-1.6992207966246546,-0.1083570048213005,2.4419760704040527,-1.4524627923965454,0.15441331267356873,2.2904016971588135,4.11212603628125,-5.114226587465964e-05,0.20835193991661072,-1.4724152723895472,-0.0,-0.06617605686187744,0.8668313026428223,-1.0150148311911372e-21,-0.03073437325656414,1.296716570854187,3.8463644159492105e-05,-0.05809285119175911
157.0,209.0,4.6002,-1.3131,7.2784,-0.0041,0.089,-0.1327,-1.7001949749388636,-0.12102210521697998,2.3609619140625,-1.4512996673583984,0.15503858029842377,2.2864785194396973,4.112062140102051,-8.328448893735185e-05,0.22736772894859314,-1.4724109808551233,-0.0,-0.06818561255931854,0.8668034076690674,-1.8447393631308787e-26,-0.03678499162197113,1.2967571020126343,3.330937761347741e-05,-0.05180203169584274
157.0,209.0,4.6002,-1.3131,7.2784,-0.0041,0.089,-0.1327,-1.70129456142568,-0.14048610627651215,2.3579635620117188,-1.4501605033874512,0.15060222148895264,2.229238510131836,4.112069292659424,-0.00014053989434614778,0.21860456466674805,-1.4724109808551233,-0.0,-0.06883939355611801,0.8668555021286011,-3.352722888121533e-31,-0.045072950422763824,1.2967529296875,2.9013966923230328e-05,-0.06117762625217438
157.0,209.0,4.6002,-1.3131,7.2784,-0.0041,0.089,-0.1327,-1.7026573620238246,-0.15011954307556152,2.3162107467651367,-1.448565125465393,0.14756935834884644,2.2150380611419678,4.112113638515137,-0.00011764334340114146,0.20456892251968384,-1.4724391142474573,-0.0,-0.06846127659082413,0.8668034076690674,-3.9785603220939005e-37,-0.024526070803403854,1.2967488765716553,4.051575430707999e-08,-0.11178901791572571
157.0,209.0,4.6002,-1.3131,7.2784,-0.0041,0.089,-0.1327,-1.7037435970702113,-0.13688699901103973,2.331327438354492,-1.4472768306732178,0.1471976339817047,2.196537494659424,4.11215798437085,5.232716284808703e-05,0.20367535948753357,-1.4724672476397913,-0.0,-0.06304020434617996,0.8668071627616882,-7.230700075916056e-42,-0.02753707766532898,1.2967407703399658,1.3126588168212508e-15,-0.09542691707611084
157.0,209.0,4.6002,-1.3131,7.2784,-0.0041,0.089,-0.1327,-1.7047625980772914,-0.12273459881544113,2.3752918243408203,-1.4461381435394287,0.16064457595348358,2.26153302192688,4.112075968379639,4.068974521942437e-05,0.2080494910478592,-1.4724672476397913,-0.0,-0.06617863476276398,0.8668153285980225,-0.0,-0.01377717312425375,1.2967488765716553,4.2528479054318083e-23,-0.039223965257406235
157.0,209.0,4.6002,-1.3131,7.2784,-0.0041,0.089,-0.1327,-1.7061239681639613,-0.12795817852020264,2.343308448791504,-1.444514274597168,0.17257562279701233,2.2931718826293945,4.11215798437085,1.392409920697446e-08,0.21863305568695068,-1.4724152723895472,-0.0,-0.07772708684206009,0.8668308258056641,-0.0,-0.02875952422618866,1.2967407703399658,1.848586677270151e-32,-0.05444104224443436
157.0,209.0,4.6002,-1.3131,7.2784,-0.0041,0.089,-0.1327,-1.7072326145567835,-0.1436060518026352,2.374191999435425,-1.4431824684143066,0.16878212988376617,2.297422170639038,4.11212603628125,2.530636561848959e-13,0.2028021514415741,-1.472419563923971,-0.0,-0.06816692650318146,0.866879940032959,-0.0,-0.00928410142660141,1.2967008352279663,5.989191675478198e-40,-0.08007059246301651
157.0,209.0,4.6002,-1.3131,7.2784,-0.0041,0.089,-0.1327,-1.708311220208639,-0.14939072728157043,2.3187735080718994,-1.4418840408325195,0.15828725695610046,2.2257931232452393,4.112145586604736,4.599306599119902e-18,0.2162870615720749,-1.4723628203021448,-0.0,-0.06517794728279114,0.8668551445007324,-0.0,-0.022178204730153084,1.2967407703399658,0.0,-0.08464708924293518
147.0,205.0,4.6433,-1.465,8.5789,-0.0157,0.0574,-0.1164,-1.7097159824767054,-0.14419622719287872,2.3543450832366943,-1.440280795097351,0.16572819650173187,2.2541465759277344,4.11212603628125,5.457838302411059e-24,0.1884692758321762,-1.4723947683917444,-0.0,-0.0595536008477211,0.8668190836906433,0.00019582755339797586,-0.017170779407024384,1.2967530488967896,0.0,-0.09959444403648376
147.0,205.0,4.6433,-1.465,8.5789,-0.0157,0.0574,-0.1164,-1.710844179193014,-0.1409958004951477,2.358354330062866,-1.4389655590057373,0.16977383196353912,2.24098539352417,4.11212603628125,9.919351715289553e-29,0.21313002705574036,-1.4724553267108362,-0.0,-0.060285747051239014,0.86686772108078,0.00018133100820705295,0.005865215323865414,1.2967169284820557,0.0,-0.0995173454284668
147.0,205.0,4.6433,-1.465,8.5789,-0.0157,0.0574,-0.1164,-1.7119952640929164,-0.14077773690223694,2.3710601329803467,-1.4375100135803223,0.17107638716697693,2.2527403831481934,4.11214987813916,1.8027930540477626e-33,0.22363460063934326,-1.4724109808551233,-0.0,-0.06947264820337296,0.866863489151001,0.00015615700976923108,-0.010991795919835567,1.2967449426651,0.0,-0.09332698583602905
147.0,205.0,4.6433,-1.465,8.5789,-0.0157,0.0574,-0.1164,-1.7134605846800746,-0.1435835063457489,2.369283676147461,-1.435826301574707,0.1651608645915985,2.2478010654449463,4.112133188838623,2.1393119187399825e-39,0.221022829413414,-1.4724152723895472,-0.0,-0.07003689557313919,0.866863489151001,0.00015967940271366388,-0.011651325039565563,1.2966927289962769,0.0,-0.14262941479682922
147.0,205.0,4.6433,-1.465,8.5789,-0.0157,0.0574,-0.1164,-1.7146126232542933,-0.14590343832969666,2.4065420627593994,-1.434446930885315,0.1643522083759308,2.239438533782959,4.112138434047363,3.923635700109488e-44,0.2250504195690155,-1.4724152723895472,-0.0,-0.060683928430080414,0.86686772108078,0.0001427888491889462,0.0014684773050248623,1.2967169284820557,0.0,-0.10249153524637222
147.0,205.0,4.6433,-1.465,8.5789,-0.0157,0.0574,-0.1164,-1.7158061466612757,-0.15445244312286377,2.334533452987671,-1.4331679344177246,0.16323597729206085,2.270324230194092,4.112134142512939,0.0,0.22426527738571167,-1.4724271933185022,-0.0,-0.06432651728391647,0.86686772108078,0.00015064823674038053,-0.015420314855873585,1.2967407703399658,0.0,-0.12469170987606049
147.0,205.0,4.6433,-1.465,8.5789,-0.0157,0.0574,-0.1164,-1.7170573673644007,-0.16142725944519043,2.3996622562408447,-1.431843638420105,0.16235777735710144,2.194282054901123,4.112130327815674,0.0,0.19828131794929504,-1.4724434057818812,-0.0,-0.06810004264116287,0.8668959736824036,0.00013749882054980844,-0.006902624852955341,1.2967408895492554,0.0,-0.08744846284389496
147.0,205.0,4.6433,-1.465,8.5789,-0.0157,0.0574,-0.1164,-1.7186576328673304,-0.14391741156578064,2.4133429527282715,-1.4302213191986084,0.17068849503993988,2.202787399291992,4.112081690425537,0.0,0.2172025740146637,-1.4724152723895472,-0.0,-0.06499328464269638,0.8668432235717773,0.0001239700650330633,-0.011279886588454247,1.2967329025268555,-0.0001812506961869076,-0.14096000790596008
147.0,205.0,4.6433,-1.465,8.5789,-0.0157,0.0574,-0.1164,-1.7198592625060023,-0.1412721425294876,2.4018020629882812,-1.4288291931152344,0.16852645576000214,2.2934815883636475,4.112065001125,0.0,0.21223236620426178,-1.4724152723895472,-0.0,-0.06308138370513916,0.8668308258056641,0.00011492382327560335,-0.007620835676789284,1.2967448234558105,-0.000165044009918347,-0.09317831695079803
147.0,205.0,4.6433,-1.465,8.5789,-0.0157,0.0574,-0.1164,-1.7211204967894496,-0.1592491865158081,2.4352452754974365,-1.4275059700012207,0.16265320777893066,2.2042157649993896,4.112081690425537,0.0,0.21460360288619995,-1.4724152723895472,-0.0,-0.06003988906741142,0.8668551445007324,0.00010710833157645538,0.015297362580895424,1.296724796295166,-0.00017159881826955825,-0.07458748668432236
147.0,205.0,4.6433,-1.465,8.5789,-0.0157,0.0574,-0.1164,-1.7227803669371546,-0.17813390493392944,2.433525323867798,-1.425947666168213,0.156457781791687,2.2342419624328613,4.11209408819165,0.0,0.20001474022865295,-1.4724229017840784,-0.0,-0.05863695219159126,0.866863489151001,9.87165403785184e-05,-0.003198400139808655,1.2967009544372559,-0.00011620049917837605,-0.07974512130022049
140.0,194.0,4.879,-1.5823,7.337,-0.0628,0.0351,-0.1153,-1.7241364918150843,-0.16249127686023712,2.427436113357544,-1.4246753454208374,0.1626744568347931,2.253115177154541,4.112081690425537,0.0,0.20015445351600647,-1.4724109808551233,-0.0,-0.07714530825614929,0.8668107986450195,9.289414447266608e-05,-0.003440830623731017,1.2967133522033691,-0.00013787206262350082,-0.08376403898000717
140.0,194.0,4.879,-1.5823,7.337,-0.0628,0.0351,-0.1153,-1.7253829441466273,-0.14077357947826385,2.509403944015503,-1.4233802556991577,0.16957919299602509,2.231412887573242,4.112073107356689,0.0,0.20505884289741516,-1.4724352995501917,-0.0,-0.07575705647468567,0.8668148517608643,8.772029832471162e-05,-0.019551899284124374,1.2967206239700317,-0.00011493582860566676,-0.12971198558807373
140.0,194.0,4.879,-1.5823,7.337,-0.0628,0.0351,-0.1153,-1.726907869378561,-0.15602372586727142,2.457467794418335,-1.4217602014541626,0.15404042601585388,2.280106782913208,4.112042112941406,-0.00020222745661158115,0.21068648993968964,-1.4724472204791468,-0.0,-0.0715072825551033,0.8668591976165771,9.372481872560456e-05,-0.02068929746747017,1.2967087030410767,4.5287459215614945e-05,-0.08739413321018219
140.0,194.0,4.879,-1.5823,7.337,-0.0628,0.0351,-0.1153,-1.7282010517516078,-0.17600023746490479,2.384477138519287,-1.4206455945968628,0.14489132165908813,2.237680435180664,4.112074061031006,-0.00018828891916200519,0.20195287466049194,-1.4724229017840784,-0.0,-0.064176544547081,0.8668837547302246,8.908771997084841e-05,-0.006524715106934309,1.2967571020126343,3.769889008253813e-05,-0.09168372303247452
140.0,194.0,4.879,-1.5823,7.337,-0.0628,0.0351,-0.1153,-1.7294703922667445,-0.17202046513557434,2.431182384490967,-1.419477939605713,0.1468457579612732,2.232619524002075,4.112085505122803,-0.00016128939751069993,0.1969660371541977,-1.47239858308901,-0.0,-0.07272990047931671,0.866863489151001,8.488643652526662e-05,-0.011805061250925064,1.2967206239700317,3.2288586226059124e-05,-0.12539967894554138
140.0,194.0,4.879,-1.5823,7.337,-0.0628,0.0351,-0.1153,-1.730800291100973,-0.15294420719146729,2.516144275665283,-1.418270468711853,0.15515169501304626,2.2786412239074707,4.112010164851807,-0.0001410631084581837,0.2018955796957016,-1.4724071661578577,-0.0,-0.07146741449832916,0.8668594360351562,8.106359018711373e-05,0.0005685235373675823,1.2967169284820557,1.579971176113304e-08,-0.0660339891910553
140.0,194.0,4.879,-1.5823,7.337,-0.0628,0.0351,-0.1153,-1.7323304615416468,-0.14554668962955475,2.466554641723633,-1.4167429208755493,0.149825781583786,2.2679758071899414,4.112085505122803,-0.00012194769078632817,0.20846587419509888,-1.4724229017840784,-0.0,-0.06420126557350159,0.8668267726898193,1.11854721041027e-08,-0.002786236582323909,1.2966845035552979,6.867664140589368e-18,-0.07180380076169968
140.0,194.0,4.879,-1.5823,7.337,-0.0628,0.0351,-0.1153,-1.7335840664305628,-0.15724974870681763,2.500460624694824,-1.415631651878357,0.14053189754486084,2.227518320083618,4.112054033870361,-0.0001320183655479923,0.1935274749994278,-1.4724276701556605,-0.0,-0.06777872145175934,0.8668313026428223,2.032904281110831e-13,0.0033430615440011024,1.2967288494110107,2.225035677805999e-25,-0.09603157639503479
140.0,194.0,4.879,-1.5823,7.337,-0.0628,0.0351,-0.1153,-1.7347217998900355,-0.16136834025382996,2.4882750511169434,-1.4145127534866333,0.13789156079292297,2.191391944885254,4.1120616632648925,-0.00013011808914598078,0.19615405797958374,-1.4723666349994105,-0.0,-0.07540811598300934,0.8668840527534485,3.694702294822217e-18,-0.01065136305987835,1.2966760396957397,7.208832247748945e-33,-0.1257326453924179
140.0,194.0,4.879,-1.5823,7.337,-0.0628,0.0351,-0.1153,-1.7363211117186488,-0.1541420966386795,2.5248827934265137,-1.413132667541504,0.14242799580097198,2.2250421047210693,4.112005873317383,-0.00014424315304495394,0.194603830575943,-1.472419563923971,-0.0,-0.05174168199300766,0.8668510913848877,4.384374920817579e-24,-0.004761043936014175,1.2967612743377686,3.133303366230291e-42,-0.10686713457107544
139.0,180.0,4.657,-0.7723,8.3569,-0.0133,0.0493,-0.1316,-1.737424989739889,-0.147444486618042,2.4733896255493164,-1.4119970798492432,0.13933056592941284,2.2347941398620605,4.112085505122803,-0.00013357646821532398,0.20178499817848206,-1.4723666349994105,-0.0,-0.06173263117671013,0.8668351173400879,7.968383477919068e-29,-0.0009934770641848445,1.2967652082443237,0.0,-0.06680412590503693
139.0,180.0,4.657,-0.7723,8.3569,-0.0133,0.0493,-0.1316,-1.7386237583556117,-0.1409710943698883,2.4833922386169434,-1.410934329032898,0.13240738213062286,2.2303738594055176,4.112106009120605,-0.00010880616173380986,0.19545166194438934,-1.4723666349994105,-0.0,-0.06391416490077972,0.8668148517608643,1.4482142748363392e-33,0.0019382787868380547,1.2967252731323242,0.0,-0.0696125477552414
139.0,180.0,4.657,-0.7723,8.3569,-0.0133,0.0493,-0.1316,-1.7399894199767054,-0.13088196516036987,2.5559263229370117,-1.4096673727035522,0.1289031207561493,2.245875358581543,4.112081690425537,-6.185303209349513e-05,0.19387295842170715,-1.472419563923971,-0.0,-0.05510144680738449,0.8668674230575562,1.718545430155634e-39,-0.01647210493683815,1.296712875366211,0.0,-0.12046007812023163
139.0,180.0,4.657,-0.7723,8.3569,-0.0133,0.0493,-0.1316,-1.7410384617247523,-0.1364792138338089,2.5046420097351074,-1.408590316772461,0.12661276757717133,2.220341444015503,4.1120616632648925,-5.6809571105986834e-05,0.18946507573127747,-1.472375218068258,-0.0,-0.0519036203622818,0.8668510913848877,3.0828566215145976e-44,-0.0017749216640368104,1.296773076057434,0.0,-0.09234708547592163
139.0,180.0,4.657,-0.7723,8.3569,-0.0133,0.0493,-0.1316,-1.7421299419798792,-0.14152416586875916,2.550858974456787,-1.4076547622680664,0.1262548863887787,2.197464942932129,4.112077398891113,-5.2399380365386605e-05,0.20070430636405945,-1.4724152723895472,-0.0,-0.06254372745752335,0.8668717741966248,0.0,-0.0036964393220841885,1.2967169284820557,0.0,-0.07619766891002655
139.0,180.0,4.657,-0.7723,8.3569,-0.0133,0.0493,-0.1316,-1.7432195148863734,-0.1341766119003296,2.5238871574401855,-1.4065465927124023,0.12179797887802124,2.2052111625671387,4.112037821406982,-4.862462083110586e-05,0.20750343799591064,-1.4723709265338343,-0.0,-0.05122685432434082,0.8668386936187744,0.0,-0.005444406997412443,1.2967206239700317,0.0,-0.07173792272806168
139.0,180.0,4.657,-0.7723,8.3569,-0.0133,0.0493,-0.1316,-1.7444945774474085,-0.11815522611141205,2.5932540893554688,-1.40535569190979,0.11822853237390518,2.2146694660186768,4.112073584193848,8.789388812147081e-05,0.19807842373847961,-1.4724233786212366,-0.0,-0.0495443269610405,0.8668633103370667,0.0,0.0012718243524432182,1.2967206239700317,0.0,-0.10583987832069397
139.0,180.0,4.657,-0.7723,8.3569,-0.0133,0.0493,-0.1316,-1.745474477807516,-0.11539381742477417,2.5826029777526855,-1.4044106006622314,0.11464690417051315,2.1948513984680176,4.11209408819165,7.354860281338915e-05,0.19743038713932037,-1.4723957220660608,-0.0,-0.04684235900640488,0.8668231964111328,0.0,0.0052208914421498775,1.2967689037322998,0.0,-0.05465705692768097
139.0,180.0,4.657,-0.7723,8.3569,-0.0133,0.0493,-0.1316,-1.746432443658346,-0.12068364024162292,2.6095266342163086,-1.4035346508026123,0.10847827047109604,2.2286179065704346,4.112057848567627,3.161729910061695e-05,0.20555545389652252,-1.4724152723895472,-0.0,-0.049091827124357224,0.8668313026428223,0.0,-0.004867500625550747,1.296704649925232,0.0,-0.09887123107910156
139.0,180.0,4.657,-0.7723,8.3569,-0.0133,0.0493,-0.1316,-1.7476898632445277,-0.13132870197296143,2.5847628116607666,-1.4023751020431519,0.1067068800330162,2.202564239501953,4.112054033870361,5.196207348490134e-05,0.21269388496875763,-1.4724071661578577,-0.0,-0.04766617715358734,0.8668513894081116,0.0,-0.011333662085235119,1.2967088222503662,0.0,-0.03745906054973602
139.0,180.0,4.657,-0.7723,8.3569,-0.0133,0.0493,-0.1316,-1.7487560711302699,-0.12545247375965118,2.602294445037842,-1.4015179872512817,0.1074688583612442,2.1890015602111816,4.112101717586182,7.193945202743635e-05,0.22110837697982788,-1.4724071661578577,-0.0,-0.04904457926750183,0.86686772108078,0.0,-0.010529335588216782,1.2967123985290527,0.0,-0.04909007251262665
130.0,174.0,4.5117,-1.0522,8.1512,-0.033,0.0489,-0.1171,-1.749763628045553,-0.10624677687883377,2.6544995307922363,-1.400705337524414,0.11074300110340118,2.204914093017578,4.112109823817871,8.679747406858951e-05,0.21663299202919006,-1.4723957220660608,-0.0,-0.05383173003792763,0.8668386936187744,0.0,-0.00011774292215704918,1.296724796295166,0.0,-0.059972118586301804
130.0,174.0,4.5117,-1.0522,8.1512,-0.033,0.0489,-0.1171,-1.7508169613280238,-0.10065489262342453,2.6888527870178223,-1.399638056755066,0.10489721596240997,2.23258376121521,4.112069292659424,5.855759809492156e-05,0.23083443939685822,-1.4724233786212366,-0.0,-0.04804003983736038,0.8668272495269775,0.0,-0.0027251022402197123,1.2967931032180786,0.0,-0.05180983617901802
130.0,174.0,4.5117,-1.0522,8.1512,-0.033,0.0489,-0.1171,-1.7517458401122035,-0.12001524865627289,2.676011085510254,-1.398768663406372,0.09231610596179962,2.2180562019348145,4.112037821406982,2.6145226001972333e-05,0.22522878646850586,-1.4724233786212366,-0.0,-0.04514927417039871,0.8668718338012695,0.0,-0.010519947856664658,1.29679274559021,0.00012478248390834779,-0.06992041319608688
130.0,174.0,4.5117,-1.0522,8.1512,-0.033,0.0489,-0.1171,-1.7527185879149378,-0.13207794725894928,2.639695167541504,-1.3980556726455688,0.08963871747255325,2.183241128921509,4.112097902888916,4.6475754061248153e-05,0.22005009651184082,-1.4724233786212366,-0.0,-0.03955754265189171,0.8668551445007324,0.0,-9.763357229530811e-05,1.2966965436935425,0.0001342298201052472,-0.035805877298116684
130.0,174.0,4.5117,-1.0522,8.1512,-0.033,0.0489,-0.1171,-1.753955980340475,-0.12408681213855743,2.665982723236084,-1.3970708847045898,0.0953250527381897,2.2004754543304443,4.112081690425537,6.174329610075802e-05,0.22050273418426514,-1.4724152723895472,-0.0,-0.0549706295132637,0.8668351173400879,0.0,-0.013193652965128422,1.2967448234558105,0.00012278453505132347,-0.059183500707149506
130.0,174.0,4.5117,-1.0522,8.1512,-0.033,0.0489,-0.1171,-1.754967828790182,-0.1022951751947403,2.727491855621338,-1.3963345289230347,0.09982869774103165,2.2539141178131104,4.112097426051758,5.656872599502094e-05,0.23061153292655945,-1.4724276701556605,-0.0,-0.042183540761470795,0.8668350577354431,0.0,-0.00815653707832098,1.2967689037322998,0.00011494399223010987,0.006737668998539448
130.0,174.0,4.5117,-1.0522,8.1512,-0.033,0.0489,-0.1171,-1.755775590936178,-0.09224304556846619,2.711857795715332,-1.3956338167190552,0.09561259299516678,2.2449874877929688,4.112054033870361,-4.003449430456385e-05,0.22493422031402588,-1.4724229017840784,-0.0,-0.05782199278473854,0.8668513298034668,0.0,-0.011223070323467255,1.2967727184295654,0.0002614825207274407,-0.04594176262617111
130.0,174.0,4.5117,-1.0522,8.1512,-0.033,0.0489,-0.1171,-1.7566286526122035,-0.10241961479187012,2.7139487266540527,-1.3948594331741333,0.08750010281801224,2.223710775375366,4.112018271083496,-0.00043451291276142,0.21787044405937195,-1.4724634329425257,-0.0,-0.05042732506990433,0.8668391704559326,0.0,-0.013857574202120304,1.2968008518218994,0.0007259045960381627,-0.06992842257022858
130.0,174.0,4.5117,-1.0522,8.1512,-0.033,0.0489,-0.1171,-1.7576819858946742,-0.12138857692480087,2.6616342067718506,-1.3940794467926025,0.07497452944517136,2.1632497310638428,4.112018271083496,-0.0015089060179889202,0.2040303349494934,-1.4724109808551233,-0.0,-0.051854029297828674,0.8668959140777588,0.0,-0.012947384268045425,1.2967685461044312,0.0006025757174938917,-0.019967887550592422
130.0,174.0,4.5117,-1.0522,8.1512,-0.033,0.0489,-0.1171,-1.7585064373412074,-0.12498508393764496,2.6755003929138184,-1.3934820890426636,0.07625795155763626,2.1542513370513916,4.1120545107075195,-0.0005282118218019605,0.21507075428962708,-1.4724109808551233,-0.0,-0.04103171080350876,0.8668510913848877,0.0,-1.1056428775191307e-05,1.2968491315841675,0.0004514208703767508,-0.022528018802404404
134.0,164.0,3.9458,-0.8566,9.1825,-0.0166,0.0806,-0.1384,-1.7594510517516078,-0.10745948553085327,2.640373706817627,-1.3927886486053467,0.08961798250675201,2.1980926990509033,4.112074061031006,0.00019783563038799912,0.21903496980667114,-1.4724071661578577,-0.0,-0.04535650089383125,0.8668473362922668,0.0,-0.00435045687481761,1.2967727184295654,0.00036089925561100245,-0.04943828657269478
134.0,164.0,3.9458,-0.8566,9.1825,-0.0166,0.0806,-0.1384,-1.7604853115477503,-0.08414816111326218,2.727415084838867,-1.3918756246566772,0.09697182476520538,2.1998631954193115,4.112074061031006,0.0001347480429103598,0.21577925980091095,-1.4724434057818812,-0.0,-0.03656182438135147,0.8668112754821777,0.0,-0.007700942922383547,1.2967886924743652,0.00028857094002887607,-0.03058423101902008
134.0,164.0,3.9458,-0.8566,9.1825,-0.0166,0.0806,-0.1384,-1.7612410984435023,-0.09021060168743134,2.7596945762634277,-1.3911586999893188,0.08771556615829468,2.2685744762420654,4.1120545107075195,1.3642169506056234e-05,0.21672411262989044,-1.4724152723895472,-3.0688696028846607e-07,-0.05874704569578171,0.8668592572212219,0.0,-0.009655372239649296,1.296832799911499,0.00024869877961464226,-0.01113127637654543
134.0,164.0,3.9458,-0.8566,9.1825,-0.0166,0.0806,-0.1384,-1.7620111904540003,-0.10466112196445465,2.6664681434631348,-1.3905450105667114,0.07002121210098267,2.1756319999694824,4.112018271083496,2.47939696551569e-10,0.21687453985214233,-1.4724109808551233,-5.577518048111019e-12,-0.0538579598069191,0.8668272495269775,0.0,-0.005540517624467611,1.2967967987060547,0.0001663232542341575,-0.03581925481557846
134.0,164.0,3.9458,-0.8566,9.1825,-0.0166,0.0806,-0.1384,-1.7629510364928187,-0.1032080352306366,2.671691417694092,-1.3898671865463257,0.06415028870105743,2.2039623260498047,4.112025423640869,2.942213676215339e-16,0.213016539812088,-1.4724109808551233,-6.61864803462518e-18,-0.05813271552324295,0.8668031096458435,0.0,-0.0069297123700380325,1.2968491315841675,0.00014020407979842275,0.02700796350836754
134.0,164.0,3.9458,-0.8566,9.1825,-0.0166,0.0806,-0.1384,-1.7636882267394007,-0.08733951300382614,2.7591233253479004,-1.389357328414917,0.07165870070457458,2.209433078765869,4.11204640447583,5.347328052997871e-21,0.2218455672264099,-1.4724352995501917,-1.2029066051208916e-22,-0.06593665480613708,0.8667833209037781,0.0,-0.013118278235197067,1.2968209981918335,0.00012466710177250206,-0.044725701212882996
134.0,164.0,3.9458,-0.8566,9.1825,-0.0166,0.0806,-0.1384,-1.7642890415587367,-0.073036789894104,2.7726528644561768,-1.388716220855713,0.08251992613077164,2.2532026767730713,4.112037821406982,9.718505658445593e-26,0.21536846458911896,-1.4724352995501917,-2.1862232282310596e-27,-0.06791690737009048,0.8668193817138672,0.0,-0.01841150037944317,1.2968050241470337,0.00011223030014662072,-0.02703242376446724
134.0,164.0,3.9458,-0.8566,9.1825,-0.0166,0.0806,-0.1384,-1.7649303875365199,-0.06910035759210587,2.8309340476989746,-1.3880623579025269,0.08742137998342514,2.2063701152801514,4.112037821406982,1.76629047646082e-30,0.20770874619483948,-1.4724352995501917,-3.973352225782946e-32,-0.08173462003469467,0.8668592572212219,0.0,-0.009879376739263535,1.2968450784683228,0.00012245576363056898,-0.03747610002756119
