ramyac6/ROB537/final_project/csv/good/good_71.csv
tof_0,tof_1,accelx,accely,accelz,gyrox,gyroy,gyroz,shoulder_lift_joint_position,shoulder_lift_joint_velocity,shoulder_lift_joint_effort,elbow_joint_position,elbow_joint_velocity,elbow_joint_effort,wrist_1_joint_position,wrist_1_joint_velocity,wrist_1_joint_effort,wrist_2_joint_position,wrist_2_joint_velocity,wrist_2_joint_effort,wrist_3_joint_position,wrist_3_joint_velocity,wrist_3_joint_effort,shoulder_pan_joint_position,shoulder_pan_joint_velocity,shoulder_pan_joint_effort
219.0,243.0,6.4128,0.2536,6.8136,-0.0339,0.0232,-0.1179,-1.8562032184996546,3.1809475140173348e-43,3.3915152549743652,-1.1067469120025635,-0.0,2.1287994384765625,3.89457289754834,-0.0,0.2785177528858185,-1.0821216742144983,0.0,-0.03924668952822685,0.14127087593078613,-0.0,-0.017345378175377846,1.6086030006408691,0.0,0.05093032494187355
219.0,243.0,6.4128,0.2536,6.8136,-0.0339,0.0232,-0.1179,-1.8562551937498988,0.0,3.3673930168151855,-1.1067789793014526,-0.0,2.2070326805114746,3.894556685084961,-0.0,0.27286192774772644,-1.0821130911456507,0.0,-0.06038164719939232,0.1413189321756363,-0.0,-0.008169503882527351,1.6086313724517822,0.0,0.007617648225277662
219.0,243.0,6.4128,0.2536,6.8136,-0.0339,0.0232,-0.1179,-1.8562070331969203,0.0,3.3535497188568115,-1.1067348718643188,-0.0,2.110201597213745,3.8945323663898925,-0.0,0.27621740102767944,-1.0821011702166956,0.0,-0.04378586262464523,0.14127087593078613,-0.0,-0.010683871805667877,1.6086351871490479,0.0,-0.001925450749695301
219.0,243.0,6.4128,0.2536,6.8136,-0.0339,0.0232,-0.1179,-1.8562270603575648,0.0,3.3661582469940186,-1.106783151626587,-0.0,2.1391053199768066,3.894569082851074,-0.0,0.27307969331741333,-1.0820816198932093,0.0,-0.05646190047264099,0.14127479493618011,-0.0,-0.0222538560628891,1.608591079711914,0.0,-0.019917692989110947
219.0,243.0,6.4128,0.2536,6.8136,-0.0339,0.0232,-0.1179,-1.8562032184996546,0.0,3.4175896644592285,-1.106791377067566,-0.0,2.143242120742798,3.8945771890827636,-0.0,0.26226651668548584,-1.0820897261248987,0.0,-0.03664601594209671,0.1412827968597412,-0.0,-0.0022493491414934397,1.608607292175293,0.0,-0.011220614425837994
219.0,243.0,6.4128,0.2536,6.8136,-0.0339,0.0232,-0.1179,-1.8561593494811,0.0,3.367647647857666,-1.1067674160003662,-0.0,2.1797385215759277,3.894540472621582,-0.0,0.263481467962265,-1.0821049849139612,0.0,-0.04614616930484772,0.14127087593078613,-0.0,-0.0026012819726020098,1.6086472272872925,0.0,-0.03660834580659866
219.0,243.0,6.4128,0.2536,6.8136,-0.0339,0.0232,-0.1179,-1.8562590084471644,0.0,3.3385329246520996,-1.106747031211853,-0.0,2.1180896759033203,3.894529028529785,-0.0,0.27267929911613464,-1.08209735551943,0.0,-0.03632102906703949,0.14126326143741608,-0.0,-0.001579043921083212,1.6086030006408691,0.0,-0.018674125894904137
214.0,237.0,6.3864,0.1896,6.6921,-0.0391,0.0266,-0.1268,-1.8561912975706996,0.0,3.4179372787475586,-1.106795072555542,-0.0,2.1729736328125,3.894516630763672,-0.0,0.26392802596092224,-1.0821288267718714,0.0,-0.05064045637845993,0.1413189023733139,-0.0,-0.010903637856245041,1.608607292175293,0.0,0.003661121940240264
214.0,237.0,6.3864,0.1896,6.6921,-0.0391,0.0266,-0.1268,-1.856279035607809,0.0,3.3618907928466797,-1.1067748069763184,-0.0,2.1157662868499756,3.8945647913166503,-0.0,0.26336389780044556,-1.08209735551943,0.0,-0.056975357234478,0.14127087593078613,-0.0,-0.006191211752593517,1.6086031198501587,0.0,0.05097120255231857
214.0,237.0,6.3864,0.1896,6.6921,-0.0391,0.0266,-0.1268,-1.8561989269652308,0.0,3.3532071113586426,-1.106770634651184,-0.0,2.1624724864959717,3.894569082851074,-0.0,0.2625117897987366,-1.082085911427633,0.0,-0.036798618733882904,0.1412827968597412,-0.0,0.00033864902798086405,1.6086030006408691,0.0,-0.03989359363913536
214.0,237.0,6.3864,0.1896,6.6921,-0.0391,0.0266,-0.1268,-1.8561951122679652,0.0,3.3870065212249756,-1.106799602508545,-0.0,2.140641927719116,3.8945929247089843,-0.0,0.2722967863082886,-1.0821297804461878,0.0,-0.05394768342375755,0.1412312388420105,-0.0,-0.0038533785846084356,1.6086313724517822,0.0,0.017049996182322502
214.0,237.0,6.3864,0.1896,6.6921,-0.0391,0.0266,-0.1268,-1.8562270603575648,0.0,3.3711562156677246,-1.1067910194396973,-0.0,2.1394495964050293,3.8945810037800292,-0.0,0.2756005525588989,-1.0820935408221644,0.0,-0.05796936899423599,0.1412513107061386,-0.0,0.00379178742878139,1.6086028814315796,0.0,-0.004390845075249672
214.0,237.0,6.3864,0.1896,6.6921,-0.0391,0.0266,-0.1268,-1.8561593494811,0.0,3.341350555419922,-1.1068110466003418,-0.0,2.1400837898254395,3.894569082851074,-0.0,0.2597518265247345,-1.0821216742144983,0.0,-0.049857720732688904,0.14128677546977997,-0.0,-0.009297795593738556,1.608579158782959,0.0,-0.041608668863773346
214.0,237.0,6.3864,0.1896,6.6921,-0.0391,0.0266,-0.1268,-1.8561989269652308,0.0,3.381333589553833,-1.1067748069763184,-0.0,2.1657907962799072,3.894500895137451,-0.0,0.27948564291000366,-1.0821049849139612,0.0,-0.04861205071210861,0.14125527441501617,-0.0,-0.0004769698716700077,1.6085752248764038,0.0,-0.06698372960090637
214.0,237.0,6.3864,0.1896,6.6921,-0.0391,0.0266,-0.1268,-1.8562351665892542,0.0,3.3747472763061523,-1.106787085533142,-0.0,2.1240522861480713,3.8945090013691406,-0.0,0.25989145040512085,-1.0821288267718714,0.0,-0.04603540152311325,0.1412351429462433,-0.0,-0.006333218887448311,1.6086150407791138,0.0,-0.017323458567261696
214.0,237.0,6.3864,0.1896,6.6921,-0.0391,0.0266,-0.1268,-1.8562270603575648,0.0,3.394994020462036,-1.1067954301834106,-0.0,2.1614344120025635,3.894569082851074,-0.0,0.2838281989097595,-1.0821135679828089,0.0,-0.050193801522254944,0.1413227617740631,-0.0,-0.014438723213970661,1.608543038368225,0.0,0.011932199820876122
214.0,237.0,6.3864,0.1896,6.6921,-0.0391,0.0266,-0.1268,-1.856239458123678,0.0,3.412419319152832,-1.106738805770874,-0.0,2.1852359771728516,3.8945647913166503,-0.0,0.27713629603385925,-1.0820496718036097,0.0,-0.0530628077685833,0.14127087593078613,-0.0,-0.01169518567621708,1.6085790395736694,0.0,0.005627140868455172
214.0,237.0,6.3864,0.1896,6.6921,-0.0391,0.0266,-0.1268,-1.8562432728209437,0.0,3.353443145751953,-1.1068150997161865,-0.0,2.1332218647003174,3.894516630763672,-0.0,0.2747427225112915,-1.0821135679828089,0.0,-0.05923312157392502,0.14125530421733856,-0.0,0.005971990060061216,1.6085991859436035,0.0,-0.020118610933423042
214.0,237.0,6.3864,0.1896,6.6921,-0.0391,0.0266,-0.1268,-1.856227537194723,0.0,3.397257089614868,-1.1067551374435425,-0.0,2.147275686264038,3.894569082851074,-0.0,0.2739385962486267,-1.0820778051959437,0.0,-0.04245389997959137,0.14122317731380463,-0.0,-0.011479964479804039,1.6085832118988037,0.0,-0.02634432725608349
214.0,237.0,6.3864,0.1896,6.6921,-0.0391,0.0266,-0.1268,-1.8562432728209437,0.0,3.3837265968322754,-1.1066988706588745,-0.0,2.1441707611083984,3.894601507777832,-0.0,0.27889540791511536,-1.0821097532855433,0.0,-0.048633769154548645,0.14124733209609985,-0.0,-0.022282995283603668,1.6085792779922485,0.0,-0.006482682656496763
214.0,237.0,6.3864,0.1896,6.6921,-0.0391,0.0266,-0.1268,-1.856210847894186,0.0,3.381068706512451,-1.106795072555542,-0.0,2.1594924926757812,3.8945771890827636,-0.0,0.2712017595767975,-1.0820892492877405,0.0,-0.040400728583335876,0.14126288890838623,-0.0,-0.005108670797199011,1.6086070537567139,0.0,0.01712484285235405
219.0,235.0,6.3811,0.2201,6.7561,-0.0313,0.0284,-0.1208,-1.8562470875182093,0.0,3.367609977722168,-1.106755018234253,-0.0,2.159120798110962,3.894557161922119,-0.0,0.2563760280609131,-1.0820816198932093,0.0,-0.04942955821752548,0.14125530421733856,-0.0,0.0018483116291463375,1.608567237854004,0.0,0.02575109899044037
219.0,235.0,6.3811,0.2201,6.7561,-0.0313,0.0284,-0.1208,-1.856222768823141,0.0,3.335867404937744,-1.106778860092163,-0.0,2.1928749084472656,3.894584818477295,-0.0,0.2639097273349762,-1.0821135679828089,0.0,-0.04871677607297897,0.14123107492923737,-0.0,-0.02267168089747429,1.6085991859436035,0.0,0.04042535647749901
219.0,235.0,6.3811,0.2201,6.7561,-0.0313,0.0284,-0.1208,-1.8561951122679652,0.0,3.394188642501831,-1.1067991256713867,-0.0,2.122584342956543,3.8945485788532714,-0.0,0.2691751718521118,-1.0820654074298304,0.0,-0.04887641221284866,0.14127084612846375,-0.0,-0.009607689455151558,1.6086190938949585,0.0,0.009495016187429428
219.0,235.0,6.3811,0.2201,6.7561,-0.0313,0.0284,-0.1208,-1.856210847894186,0.0,3.37692928314209,-1.106770634651184,-0.0,2.174556255340576,3.894597216243408,-0.0,0.2740094065666199,-1.0821011702166956,0.0,-0.04660046100616455,0.1412668079137802,-0.0,-0.009262753650546074,1.6086273193359375,0.0,0.04134099557995796
219.0,235.0,6.3811,0.2201,6.7561,-0.0313,0.0284,-0.1208,-1.8562513790526332,0.0,3.391286611557007,-1.106799602508545,-0.0,2.1160478591918945,3.8945647913166503,-0.0,0.2688077390193939,-1.08209735551943,0.0,-0.05040935054421425,0.14127878844738007,-0.0,-0.009580787271261215,1.6085550785064697,0.0,0.019484588876366615
219.0,235.0,6.3811,0.2201,6.7561,-0.0313,0.0284,-0.1208,-1.8562432728209437,0.0,3.376595973968506,-1.1067633628845215,-0.0,2.1753427982330322,3.8945485788532714,-0.0,0.26918986439704895,-1.082109276448385,0.0,-0.040676020085811615,0.141251340508461,-0.0,-0.0298868827521801,1.6086233854293823,0.0,-0.02429903671145439
219.0,235.0,6.3811,0.2201,6.7561,-0.0313,0.0284,-0.1208,-1.8562032184996546,0.0,3.356555938720703,-1.1067665815353394,-0.0,2.1234498023986816,3.894536181087158,-0.0,0.26442772150039673,-1.0820615927325647,0.0,-0.0455915741622448,0.14129872620105743,-0.0,0.0014752955175936222,1.6086232662200928,0.0,-0.015043007209897041
219.0,235.0,6.3811,0.2201,6.7561,-0.0313,0.0284,-0.1208,-1.856239458123678,0.0,3.3650550842285156,-1.1068031787872314,-0.0,2.183856964111328,3.8945485788532714,-0.0,0.27499353885650635,-1.082085911427633,0.0,-0.04695475846529007,0.14123108983039856,-0.0,-0.012304098345339298,1.6086190938949585,0.0,0.0014495523646473885
219.0,235.0,6.3811,0.2201,6.7561,-0.0313,0.0284,-0.1208,-1.8561870060362757,0.0,3.398660182952881,-1.10684335231781,-0.0,2.1554148197174072,3.8945485788532714,-0.0,0.278592973947525,-1.0820534865008753,0.0,-0.051875315606594086,0.14124330878257751,-0.0,-0.011370934545993805,1.6085633039474487,0.0,0.014439746737480164
219.0,235.0,6.3811,0.2201,6.7561,-0.0313,0.0284,-0.1208,-1.8562270603575648,0.0,3.3622493743896484,-1.1067991256713867,-0.0,2.169625759124756,3.8945609766193847,-0.0,0.26273664832115173,-1.0821011702166956,0.0,-0.05946033447980881,0.14131060242652893,-0.0,-0.010645398870110512,1.6086190938949585,0.0,0.017405427992343903
219.0,235.0,6.3811,0.2201,6.7561,-0.0313,0.0284,-0.1208,-1.856234689752096,0.0,3.3757872581481934,-1.1068073511123657,-0.0,2.1660678386688232,3.8945323663898925,-0.0,0.27530622482299805,-1.0821216742144983,0.0,-0.049210719764232635,0.14128677546977997,-0.0,-0.020129045471549034,1.6086273193359375,0.0,-0.010680356062948704
219.0,235.0,6.3811,0.2201,6.7561,-0.0313,0.0284,-0.1208,-1.856222768823141,0.0,3.379638671875,-1.1067148447036743,-0.0,2.1869466304779053,3.8945891100117187,-0.0,0.26151034235954285,-1.0821011702166956,0.0,-0.0484379380941391,0.14125530421733856,-0.0,-0.010225134901702404,1.608579158782959,0.0,0.025998294353485107
219.0,235.0,6.3811,0.2201,6.7561,-0.0313,0.0284,-0.1208,-1.8562313518919886,0.0,3.3630552291870117,-1.106795072555542,-0.0,2.128607988357544,3.894568606013916,-0.0,0.26517388224601746,-1.0821011702166956,0.0,-0.04925275221467018,0.14129066467285156,-0.0,-0.0006973053095862269,1.6085551977157593,0.0,0.018304716795682907
219.0,235.0,6.3811,0.2201,6.7561,-0.0313,0.0284,-0.1208,-1.8562189541258753,0.0,3.373227596282959,-1.106730580329895,-0.0,2.164029836654663,3.8945724207111816,-0.0,0.26653769612312317,-1.0821011702166956,0.0,-0.06084750220179558,0.14128676056861877,-0.0,-0.009365594945847988,1.6086111068725586,0.0,0.055452488362789154
217.0,247.0,6.3721,0.1944,6.658,-0.0299,0.0224,-0.1168,-1.8562590084471644,0.0,3.374843120574951,-1.1067386865615845,-0.0,2.092442035675049,3.894569082851074,-0.0,0.2688397765159607,-1.0821011702166956,0.0,-0.04320329427719116,0.14127089083194733,-0.0,-0.004535122308880091,1.6085951328277588,0.0,0.009482422843575478
217.0,247.0,6.3721,0.1944,6.658,-0.0299,0.0224,-0.1168,-1.8562308750548304,0.0,3.3704075813293457,-1.1067994832992554,-0.0,2.1870930194854736,3.8945528703876953,-0.0,0.2789429724216461,-1.0820897261248987,0.0,-0.04688907787203789,0.1413026601076126,-0.0,-0.004945625085383654,1.608591079711914,0.0,0.00644732266664505
217.0,247.0,6.3721,0.1944,6.658,-0.0299,0.0224,-0.1168,-1.8562189541258753,0.0,3.342942714691162,-1.1068434715270996,-0.0,2.1923999786376953,3.894597216243408,-0.0,0.2623085379600525,-1.0821216742144983,0.0,-0.05534539371728897,0.14128676056861877,-0.0,-0.008378665894269943,1.6086273193359375,0.0,0.04323643818497658
217.0,247.0,6.3721,0.1944,6.658,-0.0299,0.0224,-0.1168,-1.8561951122679652,0.0,3.3476357460021973,-1.1067633628845215,-0.0,2.1551005840301514,3.894536181087158,-0.0,0.27390968799591064,-1.0821335951434534,0.0,-0.0303778238594532,0.14127883315086365,-0.0,-0.008966634050011635,1.608635425567627,0.0,-0.007119231391698122
217.0,247.0,6.3721,0.1944,6.658,-0.0299,0.0224,-0.1168,-1.8562032184996546,0.0,3.3845293521881104,-1.1068031787872314,-0.0,2.155087471008301,3.8945280748554687,-0.0,0.25651904940605164,-1.08209735551943,0.0,-0.05324285477399826,0.1413026601076126,-0.0,-0.0026348039973527193,1.608579158782959,0.0,-0.018950989469885826
217.0,247.0,6.3721,0.1944,6.658,-0.0299,0.0224,-0.1168,-1.8561989269652308,0.0,3.373732566833496,-1.1068073511123657,-0.0,2.1470682621002197,3.89457289754834,-0.0,0.27255958318710327,-1.0820930639850062,0.0,-0.05156727507710457,0.14127883315086365,-0.0,-0.009945533238351345,1.6086031198501587,0.0,0.021189188584685326
217.0,247.0,6.3721,0.1944,6.658,-0.0299,0.0224,-0.1168,-1.856222768823141,0.0,3.4135608673095703,-1.1067551374435425,-0.0,2.2002243995666504,3.8945810037800292,-0.0,0.27068594098091125,-1.082085911427633,0.0,-0.06426457315683365,0.14128676056861877,-0.0,0.0025999234057962894,1.6086313724517822,0.0,0.041740790009498596
217.0,247.0,6.3721,0.1944,6.658,-0.0299,0.0224,-0.1168,-1.856171270410055,0.0,3.352843999862671,-1.1067748069763184,-0.0,2.1368887424468994,3.8946210581013183,-0.0,0.2721365690231323,-1.08209735551943,0.0,-0.06486675143241882,0.1412351280450821,-0.0,0.00035510456655174494,1.6086070537567139,0.0,-0.00854973029345274
217.0,247.0,6.3721,0.1944,6.658,-0.0299,0.0224,-0.1168,-1.8562351665892542,0.0,3.348447322845459,-1.106778860092163,-0.0,2.1434030532836914,3.8945767122456054,-0.0,0.26862186193466187,-1.0820773283587855,0.0,-0.055901214480400085,0.14124739170074463,-0.0,-0.01078712847083807,1.6086232662200928,0.0,-0.01221064105629921
217.0,247.0,6.3721,0.1944,6.658,-0.0299,0.0224,-0.1168,-1.8562189541258753,0.0,3.3543994426727295,-1.106783151626587,-0.0,2.1603517532348633,3.89457289754834,-0.0,0.26478710770606995,-1.0820897261248987,0.0,-0.05227981507778168,0.14124740660190582,-0.0,-0.0036807474680244923,1.6086111068725586,0.0,-0.021151520311832428
217.0,247.0,6.3721,0.1944,6.658,-0.0299,0.0224,-0.1168,-1.8562308750548304,0.0,3.347954273223877,-1.1068073511123657,-0.0,2.15633487701416,3.8945724207111816,-0.0,0.27364274859428406,-1.08209735551943,0.0,-0.06187651306390762,0.1412947177886963,-0.0,-0.011167512275278568,1.6086151599884033,0.0,0.020116811618208885
217.0,247.0,6.3721,0.1944,6.658,-0.0299,0.0224,-0.1168,-1.8562070331969203,0.0,3.3984756469726562,-1.106778860092163,-0.0,2.1651947498321533,3.8945810037800292,-0.0,0.2596406042575836,-1.0821331183062952,0.0,-0.057170405983924866,0.14127087593078613,-0.0,-0.0024541395250707865,1.6085951328277588,0.0,0.012866424396634102
217.0,247.0,6.3721,0.1944,6.658,-0.0299,0.0224,-0.1168,-1.8561631641783656,0.0,3.38135027885437,-1.1067551374435425,-0.0,2.1312406063079834,3.894544764156006,-0.0,0.26610007882118225,-1.0821135679828089,0.0,-0.05364733561873436,0.14130687713623047,-0.0,-0.006021606735885143,1.6086313724517822,0.0,-0.008532660081982613
217.0,247.0,6.3721,0.1944,6.658,-0.0299,0.0224,-0.1168,-1.8562513790526332,0.0,3.3360795974731445,-1.106783151626587,-0.0,2.1703522205352783,3.894536181087158,-0.0,0.2793937921524048,-1.082085911427633,0.0,-0.061165258288383484,0.14125914871692657,-0.0,-0.018292773514986038,1.608579158782959,0.0,-0.0009639644995331764
220.0,236.0,6.3511,0.1603,6.7346,-0.0354,0.0336,-0.1271,-1.856222768823141,0.0,3.3612465858459473,-1.1067991256713867,-0.0,2.118048667907715,3.894540472621582,-0.0,0.26080450415611267,-1.0820897261248987,0.0,-0.05395980179309845,0.14125922322273254,-0.0,-0.006165481172502041,1.6086070537567139,0.0,-0.020072555169463158
220.0,236.0,6.3511,0.1603,6.7346,-0.0354,0.0336,-0.1271,-1.856210847894186,0.0,3.3987326622009277,-1.1067625284194946,-0.0,2.152679920196533,3.8945247369953613,-0.0,0.2702774703502655,-1.08209735551943,0.0,-0.05626419186592102,0.14129063487052917,-0.0,-0.0015095554990693927,1.6085870265960693,0.0,0.0245805736631155
220.0,236.0,6.3511,0.1603,6.7346,-0.0354,0.0336,-0.1271,-1.8562189541258753,0.0,3.3390660285949707,-1.1067510843276978,-0.0,2.1504390239715576,3.8945891100117187,-0.0,0.2651750445365906,-1.08209735551943,0.0,-0.05475928634405136,0.14127883315086365,-0.0,-0.01766544207930565,1.6085909605026245,0.0,0.014307398349046707
220.0,236.0,6.3511,0.1603,6.7346,-0.0354,0.0336,-0.1271,-1.8562070331969203,0.0,3.3717145919799805,-1.1067101955413818,-0.0,2.167583465576172,3.894556685084961,-0.0,0.2666584253311157,-1.0821011702166956,0.0,-0.056484490633010864,0.14133860170841217,-0.0,-0.0028853758703917265,1.6086151599884033,0.0,-0.016347741708159447
220.0,236.0,6.3511,0.1603,6.7346,-0.0354,0.0336,-0.1271,-1.8562470875182093,0.0,3.36177396774292,-1.1067427396774292,-0.0,2.1507387161254883,3.8946377474018554,-0.0,0.2678390145301819,-1.082085911427633,0.0,-0.0519716814160347,0.14124703407287598,-0.0,-0.004758333321660757,1.6086150407791138,0.0,0.013515614904463291
220.0,236.0,6.3511,0.1603,6.7346,-0.0354,0.0336,-0.1271,-1.8562432728209437,0.0,3.376430034637451,-1.106791377067566,-0.0,2.112579345703125,3.894556685084961,-0.0,0.2687671184539795,-1.0821135679828089,0.0,-0.04208757355809212,0.14125888049602509,-0.0,-0.011833207681775093,1.6086273193359375,0.0,0.006947061978280544
220.0,236.0,6.3511,0.1603,6.7346,-0.0354,0.0336,-0.1271,-1.8562151394286097,0.0,3.3338708877563477,-1.1067665815353394,-0.0,2.180006504058838,3.8945724207111816,-0.0,0.2757626175880432,-1.0820735136615198,0.0,-0.04149825870990753,0.14125530421733856,-0.0,-0.013151642866432667,1.6086593866348267,0.0,0.005310557316988707
220.0,236.0,6.3511,0.1603,6.7346,-0.0354,0.0336,-0.1271,-1.8562151394286097,0.0,3.3582022190093994,-1.1067750453948975,-0.0,2.153592586517334,3.894540472621582,-0.0,0.2678346633911133,-1.0821173826800745,0.0,-0.03200939670205116,0.1412513554096222,-0.0,-0.01605241559445858,1.6086313724517822,0.0,-0.017057573422789574
220.0,236.0,6.3511,0.1603,6.7346,-0.0354,0.0336,-0.1271,-1.8562189541258753,0.0,3.3381848335266113,-1.106770634651184,-0.0,2.1120858192443848,3.8945085245319824,-0.0,0.26208555698394775,-1.0821288267718714,0.0,-0.040757957845926285,0.1412312090396881,-0.0,-0.01081228256225586,1.6085633039474487,0.0,-0.027801673859357834
220.0,236.0,6.3511,0.1603,6.7346,-0.0354,0.0336,-0.1271,-1.8562432728209437,0.0,3.3645029067993164,-1.1067345142364502,-0.0,2.170682191848755,3.8945647913166503,-0.0,0.2645127773284912,-1.0821173826800745,0.0,-0.0539587065577507,0.14123554527759552,-0.0,-0.00026281410828232765,1.6085870265960693,0.0,0.026885077357292175
220.0,236.0,6.3511,0.1603,6.7346,-0.0354,0.0336,-0.1271,-1.8561989269652308,0.0,3.347738265991211,-1.106778860092163,-0.0,2.109604835510254,3.894613428706787,-0.0,0.26967665553092957,-1.082069222127096,0.0,-0.055524371564388275,0.14130650460720062,-0.0,-0.011342179030179977,1.6086150407791138,0.0,-0.007937533780932426
220.0,236.0,6.3511,0.1603,6.7346,-0.0354,0.0336,-0.1271,-1.8561593494811,0.0,3.3496222496032715,-1.1067954301834106,-0.0,2.170964002609253,3.8945647913166503,-0.0,0.2787041664123535,-1.082125488911764,0.0,-0.03987593576312065,0.14133073389530182,-0.0,-0.005975598935037851,1.6086273193359375,0.0,0.005598045885562897
220.0,236.0,6.3511,0.1603,6.7346,-0.0354,0.0336,-0.1271,-1.8562032184996546,0.0,3.3636555671691895,-1.106778860092163,-0.0,2.131882667541504,3.894523783321045,-0.0,0.2751024663448334,-1.082085911427633,0.0,-0.04125267267227173,0.14129474759101868,-0.0,-0.013416856527328491,1.6086070537567139,0.0,0.010904528200626373
220.0,236.0,6.3511,0.1603,6.7346,-0.0354,0.0336,-0.1271,-1.8562032184996546,0.0,3.37618088722229,-1.1067348718643188,-0.0,2.2010412216186523,3.8945528703876953,-0.0,0.2722090780735016,-1.0821135679828089,0.0,-0.044961825013160706,0.14128676056861877,-0.0,0.0001732368255034089,1.6086111068725586,0.0,0.048461802303791046
212.0,240.0,6.3781,0.2201,6.667,-0.0371,0.0244,-0.1161,-1.8562032184996546,0.0,3.3498754501342773,-1.1068150997161865,-0.0,2.1479532718658447,3.894557161922119,-0.0,0.27927300333976746,-1.0820654074298304,0.0,-0.05790647864341736,0.1412946879863739,-0.0,0.012892092578113079,1.6085832118988037,0.0,-0.025270432233810425
212.0,240.0,6.3781,0.2201,6.667,-0.0371,0.0244,-0.1161,-1.8561631641783656,0.0,3.3666727542877197,-1.106791377067566,-0.0,2.1846530437469482,3.8945929247089843,-0.0,0.27346548438072205,-1.0821135679828089,0.0,-0.057803764939308167,0.1412513107061386,-0.0,-0.004390675574541092,1.6085752248764038,0.0,-0.009783463552594185
212.0,240.0,6.3781,0.2201,6.667,-0.0371,0.0244,-0.1161,-1.8563066921629847,0.0,3.3825879096984863,-1.1067386865615845,-0.0,2.1249008178710938,3.8945891100117187,-0.0,0.2728598117828369,-1.08209735551943,0.0,-0.052575550973415375,0.14127475023269653,-0.0,-0.004127282649278641,1.6085710525512695,0.0,-0.013423750177025795
212.0,240.0,6.3781,0.2201,6.667,-0.0371,0.0244,-0.1161,-1.8561870060362757,0.0,3.377045154571533,-1.1067954301834106,-0.0,2.112630605697632,3.89457289754834,-0.0,0.264350950717926,-1.0820935408221644,0.0,-0.051766738295555115,0.14126695692539215,-0.0,-0.007620359770953655,1.6085951328277588,0.0,-0.006295220460742712
212.0,240.0,6.3781,0.2201,6.667,-0.0371,0.0244,-0.1161,-1.8562432728209437,0.0,3.379328727722168,-1.1067625284194946,-0.0,2.1568050384521484,3.8945485788532714,-0.0,0.26646503806114197,-1.0820897261248987,0.0,-0.057402901351451874,0.14130264520645142,-0.0,0.0034368312917649746,1.6086231470108032,0.0,0.0038866237737238407
212.0,240.0,6.3781,0.2201,6.667,-0.0371,0.0244,-0.1161,-1.8561793766417445,0.0,3.337491035461426,-1.1067674160003662,-0.0,2.193113327026367,3.8944927889057617,-0.0,0.27605560421943665,-1.0821135679828089,0.0,-0.058332476764917374,0.14127080142498016,-0.0,0.0026283026672899723,1.6085951328277588,0.0,0.01137529406696558
212.0,240.0,6.3781,0.2201,6.667,-0.0371,0.0244,-0.1161,-1.8562189541258753,0.0,3.3401384353637695,-1.1067345142364502,-0.0,2.1624648571014404,3.8945647913166503,-0.0,0.26580753922462463,-1.0820935408221644,0.0,-0.03811377286911011,0.1412312537431717,-0.0,0.0027329283766448498,1.6086472272872925,0.0,0.0007118616485968232
212.0,240.0,6.3781,0.2201,6.667,-0.0371,0.0244,-0.1161,-1.856210847894186,0.0,3.3501484394073486,-1.1067872047424316,-0.0,2.1510093212127686,3.8945604997822265,-0.0,0.267812043428421,-1.082085911427633,0.0,-0.044054292142391205,0.14123912155628204,-0.0,-0.004613151308149099,1.6086313724517822,0.0,-0.023472391068935394
212.0,240.0,6.3781,0.2201,6.667,-0.0371,0.0244,-0.1161,-1.856210847894186,0.0,3.3402934074401855,-1.1067308187484741,-0.0,2.1373109817504883,3.8945280748554687,-0.0,0.2732592225074768,-1.0820897261248987,0.0,-0.0584564283490181,0.14127087593078613,-0.0,0.0017398197669535875,1.6085951328277588,0.0,0.01912599988281727
212.0,240.0,6.3781,0.2201,6.667,-0.0371,0.0244,-0.1161,-1.856239458123678,0.0,3.38090181350708,-1.1068273782730103,-0.0,2.1530253887176514,3.894597216243408,-0.0,0.2723620533943176,-1.08209735551943,0.0,-0.02952730283141136,0.14131487905979156,-0.0,-0.008892785757780075,1.6086111068725586,0.0,-0.03480277955532074
212.0,240.0,6.3781,0.2201,6.667,-0.0371,0.0244,-0.1161,-1.8562470875182093,0.0,3.3915023803710938,-1.1068036556243896,-0.0,2.1194283962249756,3.8945934015461425,-0.0,0.27399593591690063,-1.0821412245379847,0.0,-0.04959026351571083,0.14126697182655334,-0.0,-0.004703135695308447,1.6086232662200928,0.0,0.0024122390896081924
212.0,240.0,6.3781,0.2201,6.667,-0.0371,0.0244,-0.1161,-1.8561951122679652,0.0,3.3937478065490723,-1.1067829132080078,-0.0,2.1996963024139404,3.8945323663898925,-0.0,0.26335591077804565,-1.0820897261248987,0.0,-0.046823885291814804,0.1412906050682068,-0.0,0.003249903442338109,1.6086311340332031,0.0,0.0012288549914956093
212.0,240.0,6.3781,0.2201,6.667,-0.0371,0.0244,-0.1161,-1.8561750851073207,0.0,3.377429485321045,-1.1067748069763184,-0.0,2.129744291305542,3.8945528703876953,-0.0,0.2710410952568054,-1.0821173826800745,0.0,-0.049204446375370026,0.14130650460720062,-0.0,-0.024870190769433975,1.608579158782959,0.0,-0.023019157350063324
212.0,240.0,6.3781,0.2201,6.667,-0.0371,0.0244,-0.1161,-1.8562551937498988,0.0,3.376880407333374,-1.1067748069763184,-0.0,2.169316053390503,3.8945485788532714,-0.0,0.27851033210754395,-1.08209735551943,0.0,-0.04803139716386795,0.14128278195858002,-0.0,-0.01245880126953125,1.6085832118988037,0.0,0.00954150129109621
220.0,236.0,6.4397,0.2453,6.5665,-0.0356,0.0171,-0.1217,-1.8562189541258753,0.0,3.3484575748443604,-1.1067991256713867,-0.0,2.156404733657837,3.8945891100117187,-0.0,0.2618655860424042,-1.0821049849139612,0.0,-0.05569043383002281,0.14125892519950867,-0.0,-0.01645645685493946,1.6085991859436035,0.0,0.03212602436542511
220.0,236.0,6.4397,0.2453,6.5665,-0.0356,0.0171,-0.1217,-1.8561870060362757,0.0,3.3343825340270996,-1.1067872047424316,-0.0,2.1638379096984863,3.894556685084961,-0.0,0.2735341489315033,-1.082069222127096,0.0,-0.03424655646085739,0.14125922322273254,-0.0,-0.0014297566376626492,1.6085989475250244,0.0,-0.013676546514034271
220.0,236.0,6.4397,0.2453,6.5665,-0.0356,0.0171,-0.1217,-1.8562551937498988,0.0,3.408730983734131,-1.1067386865615845,-0.0,2.12713623046875,3.894557161922119,-0.0,0.2645661234855652,-1.0821011702166956,0.0,-0.04945413023233414,0.14132267236709595,-0.0,-0.019253350794315338,1.6086031198501587,0.0,0.006822153925895691
220.0,236.0,6.4397,0.2453,6.5665,-0.0356,0.0171,-0.1217,-1.856227537194723,0.0,3.3422653675079346,-1.1067748069763184,-0.0,2.14262056350708,3.8946167665668945,-0.0,0.2731608748435974,-1.0821173826800745,0.0,-0.0437973253428936,0.1412629932165146,-0.0,-0.008195005357265472,1.6086313724517822,0.0,0.025540657341480255
220.0,236.0,6.4397,0.2453,6.5665,-0.0356,0.0171,-0.1217,-1.8561912975706996,0.0,3.3976917266845703,-1.1067633628845215,-0.0,2.1431076526641846,3.894540472621582,-0.0,0.27323848009109497,-1.0820778051959437,0.0,-0.045170754194259644,0.14132258296012878,-0.0,-0.004770421888679266,1.608579158782959,-2.394139819728025e-08,0.021481536328792572
220.0,236.0,6.4397,0.2453,6.5665,-0.0356,0.0171,-0.1217,-1.8562070331969203,0.0,3.3266496658325195,-1.1068150997161865,-0.0,2.2012479305267334,3.8945209222980957,-0.0,0.2689334750175476,-1.0821135679828089,0.0,-0.06652271002531052,0.14127087593078613,-0.0,-0.014457269571721554,1.608543038368225,-7.756709508437176e-16,0.009996959008276463
220.0,236.0,6.4397,0.2453,6.5665,-0.0356,0.0171,-0.1217,-1.8562551937498988,0.0,3.3582992553710938,-1.106770634651184,-0.0,2.136943817138672,3.894552393550537,-0.0,0.265645831823349,-1.0821011702166956,0.0,-0.05618978664278984,0.14122720062732697,-0.0,-0.0006550762336701155,1.6086432933807373,-1.8731541321973824e-21,-0.006902781780809164
220.0,236.0,6.4397,0.2453,6.5665,-0.0356,0.0171,-0.1217,-1.8562551937498988,0.0,3.3363959789276123,-1.106682300567627,-0.0,2.1817238330841064,3.894584818477295,-0.0,0.27043598890304565,-1.0821173826800745,0.0,-0.03745555505156517,0.1412394642829895,-0.0,-0.002342398278415203,1.6085469722747803,-4.523446682635867e-27,-0.05421958863735199
220.0,236.0,6.4397,0.2453,6.5665,-0.0356,0.0171,-0.1217,-1.8562189541258753,0.0,3.3819940090179443,-1.1067510843276978,-0.0,2.1636099815368652,3.8945485788532714,-0.0,0.26972445845603943,-1.082125488911764,0.0,-0.03878101333975792,0.14128674566745758,-0.0,-0.009507007896900177,1.6086030006408691,-1.0923592026335105e-32,-0.03511137515306473
220.0,236.0,6.4397,0.2453,6.5665,-0.0356,0.0171,-0.1217,-1.8561750851073207,0.0,3.4055635929107666,-1.1067748069763184,-0.0,2.1874046325683594,3.894516630763672,-0.0,0.26555079221725464,-1.08209735551943,0.0,-0.045488566160202026,0.1413426399230957,-0.0,-0.014005454257130623,1.608559250831604,-3.5391053885141147e-40,-0.04420189559459686
220.0,236.0,6.4397,0.2453,6.5665,-0.0356,0.0171,-0.1217,-1.8561912975706996,0.0,3.376755952835083,-1.106778860092163,-0.0,2.1536331176757812,3.8945528703876953,-0.0,0.26618489623069763,-1.0821331183062952,0.0,-0.05260048806667328,0.14133064448833466,-0.0,-0.013123494572937489,1.6086432933807373,-1.401298464324817e-45,-0.03063257411122322
220.0,236.0,6.4397,0.2453,6.5665,-0.0356,0.0171,-0.1217,-1.8562313518919886,0.0,3.367182731628418,-1.1067551374435425,-0.0,2.1653952598571777,3.8945647913166503,-0.0,0.27334272861480713,-1.082125488911764,0.0,-0.04720071703195572,0.14130263030529022,-0.0,-0.023389406502246857,1.6085951328277588,0.0,0.01838291436433792
220.0,236.0,6.4397,0.2453,6.5665,-0.0356,0.0171,-0.1217,-1.856239458123678,0.0,3.3370461463928223,-1.1067551374435425,-0.0,2.1706855297088623,3.8945891100117187,-0.0,0.28384530544281006,-1.0820453802691858,0.0,-0.03985325247049332,0.14131484925746918,-0.0,-0.019864309579133987,1.6086150407791138,0.0,-0.018771352246403694
220.0,236.0,6.4397,0.2453,6.5665,-0.0356,0.0171,-0.1217,-1.8562351665892542,0.0,3.375887632369995,-1.1067665815353394,-0.0,2.192221164703369,3.894556685084961,-0.0,0.27403324842453003,-1.0821173826800745,0.0,-0.029865853488445282,0.1413109004497528,-0.0,-0.006381306331604719,1.6086030006408691,0.0,0.0003036694834008813
218.0,243.0,6.3272,0.2225,6.7795,-0.0319,0.0247,-0.1191,-1.8561793766417445,0.0,3.368112564086914,-1.1067510843276978,-0.0,2.163517951965332,3.8945528703876953,-0.0,0.27279800176620483,-1.0821135679828089,0.0,-0.05426932871341705,0.14134255051612854,-0.0,-0.00639684870839119,1.6086151599884033,0.0,0.017425287514925003
218.0,243.0,6.3272,0.2225,6.7795,-0.0319,0.0247,-0.1191,-1.8562432728209437,0.0,3.3458077907562256,-1.106783151626587,-0.0,2.1473145484924316,3.8945891100117187,-0.0,0.2709667682647705,-1.0820654074298304,0.0,-0.05416969209909439,0.14128674566745758,-0.0,0.0022440014872699976,1.6085870265960693,0.0,0.006484569050371647
218.0,243.0,6.3272,0.2225,6.7795,-0.0319,0.0247,-0.1191,-1.8561674557127894,0.0,3.370476245880127,-1.106791377067566,-0.0,2.1609160900115967,3.8945485788532714,-0.0,0.2647686004638672,-1.0820897261248987,0.0,-0.043138258159160614,0.14130647480487823,-0.0,-0.005480678752064705,1.6085870265960693,0.0,-0.03441257402300835
218.0,243.0,6.3272,0.2225,6.7795,-0.0319,0.0247,-0.1191,-1.8562513790526332,0.0,3.333070755004883,-1.1067994832992554,-0.0,2.178499698638916,3.89457289754834,-0.0,0.2750398814678192,-1.082109276448385,0.0,-0.045740287750959396,0.14125138521194458,-0.0,-0.002959031146019697,1.6086394786834717,0.0,-0.03170366957783699
218.0,243.0,6.3272,0.2225,6.7795,-0.0319,0.0247,-0.1191,-1.8562189541258753,0.0,3.3839473724365234,-1.1068394184112549,-0.0,2.1662089824676514,3.8945724207111816,-0.0,0.2663063108921051,-1.0820778051959437,0.0,-0.05105625092983246,0.14128674566745758,-0.0,-0.006892403122037649,1.6086111068725586,0.0,0.02226797118782997
218.0,243.0,6.3272,0.2225,6.7795,-0.0319,0.0247,-0.1191,-1.8561870060362757,0.0,3.3601436614990234,-1.106747031211853,-0.0,2.1073098182678223,3.894569082851074,-0.0,0.27770179510116577,-1.0821135679828089,0.0,-0.049362458288669586,0.14127884805202484,-0.0,-0.0021736593917012215,1.6085551977157593,0.0,-0.02882014401257038
218.0,243.0,6.3272,0.2225,6.7795,-0.0319,0.0247,-0.1191,-1.8562189541258753,0.0,3.3814172744750977,-1.1067509651184082,-0.0,2.154690742492676,3.8945280748554687,-0.0,0.2745976448059082,-1.0821135679828089,0.0,-0.044540852308273315,0.1413148194551468,-0.0,0.004676753655076027,1.6086273193359375,0.0,0.01950642839074135
218.0,243.0,6.3272,0.2225,6.7795,-0.0319,0.0247,-0.1191,-1.8562232456602992,0.0,3.3945505619049072,-1.1067829132080078,-0.0,2.12959361076355,3.8945647913166503,-0.0,0.26038017868995667,-1.082109276448385,0.0,-0.05822928249835968,0.14130647480487823,-0.0,-0.009469319134950638,1.6085832118988037,0.0,0.05948974937200546
218.0,243.0,6.3272,0.2225,6.7795,-0.0319,0.0247,-0.1191,-1.8562070331969203,0.0,3.3933863639831543,-1.106747031211853,-0.0,2.132298707962036,3.894544764156006,-0.0,0.26555299758911133,-1.082069222127096,0.0,-0.030917484313249588,0.1412947177886963,-0.0,-0.0036784540861845016,1.6086353063583374,0.0,0.02638748474419117
218.0,243.0,6.3272,0.2225,6.7795,-0.0319,0.0247,-0.1191,-1.8562189541258753,0.0,3.393907070159912,-1.106755256652832,-0.0,2.1388256549835205,3.8945199686237792,-0.0,0.26169872283935547,-1.0821135679828089,0.0,-0.05016165226697922,0.14126679301261902,-0.0,0.004147595725953579,1.6086111068725586,0.0,-0.03014407493174076
218.0,243.0,6.3272,0.2225,6.7795,-0.0319,0.0247,-0.1191,-1.856222768823141,0.0,3.360159397125244,-1.1068191528320312,-0.0,2.1646888256073,3.894540472621582,-0.0,0.26187658309936523,-1.082069222127096,0.0,-0.04161945730447769,0.14125916361808777,-0.0,-0.006933852098882198,1.6086394786834717,0.0,0.0010409662500023842
218.0,243.0,6.3272,0.2225,6.7795,-0.0319,0.0247,-0.1191,-1.8562151394286097,0.0,3.368562698364258,-1.1067551374435425,-0.0,2.146008014678955,3.894557161922119,-0.0,0.2695668935775757,-1.082081143056051,0.0,-0.041930511593818665,0.14131924510002136,-0.0,-0.0028910685796290636,1.6086190938949585,0.0,0.019524183124303818
218.0,243.0,6.3272,0.2225,6.7795,-0.0319,0.0247,-0.1191,-1.8562513790526332,0.0,3.3832578659057617,-1.1067593097686768,-0.0,2.164609670639038,3.894536181087158,-0.0,0.2741897404193878,-1.082109276448385,0.0,-0.04914509505033493,0.1412626951932907,-0.0,-0.0031567257829010487,1.608579158782959,0.0,-6.136950105428696e-05
218.0,243.0,6.3272,0.2225,6.7795,-0.0319,0.0247,-0.1191,-1.8562189541258753,0.0,3.3643102645874023,-1.106815218925476,-0.0,2.12327241897583,3.894584818477295,-0.0,0.2734876573085785,-1.0821135679828089,0.0,-0.04887364059686661,0.14128687977790833,-0.0,-0.00110008311457932,1.6085752248764038,0.0,-0.01153566874563694
220.0,233.0,6.3362,0.2369,6.7196,-0.0351,0.0217,-0.1182,-1.8562432728209437,0.0,3.366604804992676,-1.1068114042282104,-0.0,2.1586709022521973,3.8945604997822265,-0.0,0.2656958997249603,-1.0821216742144983,0.0,-0.04761695861816406,0.14131103456020355,-0.0,-0.006730915512889624,1.608627200126648,0.0,-0.029818173497915268
220.0,233.0,6.3362,0.2369,6.7196,-0.0351,0.0217,-0.1182,-1.8562752209105433,0.0,3.36049222946167,-1.1067386865615845,-0.0,2.1527960300445557,3.894569082851074,-0.0,0.26703184843063354,-1.0821216742144983,0.0,-0.06074909120798111,0.1412988007068634,-0.0,-0.0011178934946656227,1.6085630655288696,0.0,-0.01422631274908781
220.0,233.0,6.3362,0.2369,6.7196,-0.0351,0.0217,-0.1182,-1.8561951122679652,0.0,3.3858745098114014,-1.106791377067566,-0.0,2.174149513244629,3.894540472621582,-0.0,0.2694968581199646,-1.08209735551943,0.0,-0.0473145917057991,0.1413232535123825,-0.0,0.003280753968283534,1.6086030006408691,0.0,0.012508919462561607
220.0,233.0,6.3362,0.2369,6.7196,-0.0351,0.0217,-0.1182,-1.8561951122679652,0.0,3.409447193145752,-1.1068115234375,-0.0,2.150238275527954,3.8945647913166503,-0.0,0.27187231183052063,-1.082085911427633,0.0,-0.05199950188398361,0.14128687977790833,-0.0,-0.01081320084631443,1.608591079711914,0.0,-0.054738324135541916
220.0,233.0,6.3362,0.2369,6.7196,-0.0351,0.0217,-0.1182,-1.8562032184996546,0.0,3.307053565979004,-1.106791377067566,-0.0,2.1041259765625,3.8945090013691406,-0.0,0.2804674506187439,-1.0820930639850062,0.0,-0.0635911375284195,0.1412428766489029,-0.0,-0.015585972927510738,1.6086151599884033,0.0,0.013942170888185501
220.0,233.0,6.3362,0.2369,6.7196,-0.0351,0.0217,-0.1182,-1.8562470875182093,0.0,3.386098861694336,-1.1068077087402344,-0.0,2.1548914909362793,3.8945767122456054,-0.0,0.2662511467933655,-1.0821531454669397,0.0,-0.04955165833234787,0.14123483002185822,-0.0,0.002288536401465535,1.6085872650146484,0.0,-0.030427897348999977
220.0,233.0,6.3362,0.2369,6.7196,-0.0351,0.0217,-0.1182,-1.8562432728209437,0.0,3.3348021507263184,-1.1067593097686768,-0.0,2.186596155166626,3.8945647913166503,-0.0,0.26117071509361267,-1.0821216742144983,0.0,-0.04666846990585327,0.1412470042705536,-0.0,-0.002320874948054552,1.6086232662200928,0.0,-0.02620570734143257
220.0,233.0,6.3362,0.2369,6.7196,-0.0351,0.0217,-0.1182,-1.8562313518919886,0.0,3.3596439361572266,-1.1067551374435425,-0.0,2.1910784244537354,3.894612951869629,-0.0,0.2655426263809204,-1.082125488911764,0.0,-0.0393679216504097,0.14130686223506927,-0.0,-0.02072649449110031,1.608591079711914,0.0,-0.02310948818922043
220.0,233.0,6.3362,0.2369,6.7196,-0.0351,0.0217,-0.1182,-1.8562551937498988,0.0,3.37333083152771,-1.1068073511123657,-0.0,2.130127429962158,3.8945485788532714,-0.0,0.2639921307563782,-1.0820735136615198,0.0,-0.048062168061733246,0.141274556517601,-0.0,-0.01133156381547451,1.608559250831604,0.0,0.004056297242641449
220.0,233.0,6.3362,0.2369,6.7196,-0.0351,0.0217,-0.1182,-1.8562189541258753,0.0,3.3297486305236816,-1.1067625284194946,-0.0,2.177708625793457,3.894597216243408,-0.0,0.27107083797454834,-1.08209735551943,0.0,-0.048433586955070496,0.1411990374326706,-0.0,0.0010447476524859667,1.6085991859436035,0.0,-0.018206730484962463
220.0,233.0,6.3362,0.2369,6.7196,-0.0351,0.0217,-0.1182,-1.8562432728209437,0.0,3.3856353759765625,-1.1068073511123657,-0.0,2.175788164138794,3.894556685084961,-0.0,0.2687593698501587,-1.0821173826800745,0.0,-0.053263403475284576,0.14125113189220428,-0.0,-0.011576492339372635,1.608591079711914,0.0,-0.02243480645120144
220.0,233.0,6.3362,0.2369,6.7196,-0.0351,0.0217,-0.1182,-1.8562032184996546,0.0,3.355731964111328,-1.1068273782730103,-0.0,2.1430768966674805,3.8945485788532714,-0.0,0.27510780096054077,-1.082085911427633,0.0,-0.04027692228555679,0.1412626951932907,-0.0,-0.021485796198248863,1.608559250831604,0.0,0.03271493315696716
220.0,233.0,6.3362,0.2369,6.7196,-0.0351,0.0217,-0.1182,-1.8562032184996546,0.0,3.3722667694091797,-1.106791377067566,-0.0,2.1615920066833496,3.894540472621582,-0.0,0.2546675205230713,-1.0820897261248987,0.0,-0.05119020491838455,0.14123888313770294,-0.0,-0.009276998229324818,1.6086111068725586,0.0,-0.03934720903635025
220.0,233.0,6.3362,0.2369,6.7196,-0.0351,0.0217,-0.1182,-1.8562351665892542,0.0,3.3473472595214844,-1.1067910194396973,-0.0,2.186365842819214,3.89457289754834,-0.0,0.26250845193862915,-1.0821049849139612,0.0,-0.049226127564907074,0.14129869639873505,-0.0,-0.011078146286308765,1.6086232662200928,0.0,0.009561484679579735
216.0,245.0,6.4265,0.2483,6.5527,-0.0296,0.0267,-0.1194,-1.8561555347838343,0.0,3.3700945377349854,-1.1068192720413208,-0.0,2.1310784816741943,3.8945528703876953,-0.0,0.25894540548324585,-1.0821288267718714,0.0,-0.05696295201778412,0.1412828117609024,-0.0,-0.010870697908103466,1.6085469722747803,0.0,0.061480313539505005
216.0,245.0,6.4265,0.2483,6.5527,-0.0296,0.0267,-0.1194,-1.856239458123678,0.0,3.343094825744629,-1.1067665815353394,-0.0,2.1535089015960693,3.894536181087158,-0.0,0.27023646235466003,-1.0820897261248987,0.0,-0.03977251052856445,0.14127087593078613,-0.0,-0.009422443807125092,1.6086151599884033,0.0,-0.021476734429597855
216.0,245.0,6.4265,0.2483,6.5527,-0.0296,0.0267,-0.1194,-1.85618319133901,0.0,3.3487815856933594,-1.1068315505981445,-0.0,2.1713738441467285,3.894544764156006,-0.0,0.2645326256752014,-1.0821216742144983,0.0,-0.03910350799560547,0.14131516218185425,-0.0,-0.00391549663618207,1.6086151599884033,0.0,-0.005766574293375015
216.0,245.0,6.4265,0.2483,6.5527,-0.0296,0.0267,-0.1194,-1.8562032184996546,0.0,3.3822808265686035,-1.106783151626587,-0.0,2.140944480895996,3.894584818477295,-0.0,0.26265832781791687,-1.0821135679828089,0.0,-0.043121397495269775,0.14121466875076294,-0.0,-0.0040111481212079525,1.6085712909698486,0.0,0.04043715447187424
216.0,245.0,6.4265,0.2483,6.5527,-0.0296,0.0267,-0.1194,-1.856222768823141,0.0,3.37355637550354,-1.1067748069763184,-0.0,2.1165595054626465,3.8945891100117187,-0.0,0.2775014340877533,-1.0821173826800745,0.0,-0.060547418892383575,0.14130686223506927,-0.0,-0.008776189759373665,1.6085751056671143,0.0,0.034874722361564636
216.0,245.0,6.4265,0.2483,6.5527,-0.0296,0.0267,-0.1194,-1.8562032184996546,0.0,3.368023157119751,-1.1067872047424316,-0.0,2.136120557785034,3.8945891100117187,-0.0,0.2707051634788513,-1.0821216742144983,0.0,-0.041694290935993195,0.14128687977790833,-0.0,-0.014831935986876488,1.6086232662200928,0.0,-0.03247588127851486
216.0,245.0,6.4265,0.2483,6.5527,-0.0296,0.0267,-0.1194,-1.8562351665892542,0.0,3.349532127380371,-1.106783151626587,-0.0,2.1316614151000977,3.894544764156006,-0.0,0.2768651843070984,-1.0820930639850062,0.0,-0.053527288138866425,0.14127488434314728,-0.0,-0.011334789916872978,1.6085870265960693,0.0,-0.009198250249028206
216.0,245.0,6.4265,0.2483,6.5527,-0.0296,0.0267,-0.1194,-1.8561512432494105,0.0,3.3928284645080566,-1.1067872047424316,-0.0,2.138500213623047,3.894540472621582,-0.0,0.26991498470306396,-1.0821216742144983,0.0,-0.050297223031520844,0.14131516218185425,-0.0,-0.005549687892198563,1.608551025390625,0.0,-0.004803295712918043
216.0,245.0,6.4265,0.2483,6.5527,-0.0296,0.0267,-0.1194,-1.856210847894186,0.0,3.370605707168579,-1.1067469120025635,-0.0,2.1450726985931396,3.894597216243408,-0.0,0.2700851857662201,-1.0821417013751429,0.0,-0.05506569892168045,0.14125041663646698,-0.0,-0.015070315450429916,1.6085714101791382,0.0,-0.017732758074998856
216.0,245.0,6.4265,0.2483,6.5527,-0.0296,0.0267,-0.1194,-1.85618319133901,0.0,3.362685203552246,-1.1067872047424316,-0.0,2.1785717010498047,3.8945647913166503,-0.0,0.27042824029922485,-1.0821135679828089,0.0,-0.055647172033786774,0.14130286872386932,-0.0,-0.009611613117158413,1.6085870265960693,0.0,0.0052713961340487
216.0,245.0,6.4265,0.2483,6.5527,-0.0296,0.0267,-0.1194,-1.85618319133901,0.0,3.3610353469848633,-1.106803297996521,-0.0,2.177708148956299,3.89457289754834,-0.0,0.25863510370254517,-1.0821331183062952,0.0,-0.049504999071359634,0.14133523404598236,-0.0,0.000857778824865818,1.6086111068725586,0.0,-0.03147861734032631
216.0,245.0,6.4265,0.2483,6.5527,-0.0296,0.0267,-0.1194,-1.8561989269652308,0.0,3.335585594177246,-1.1067872047424316,-0.0,2.108546733856201,3.8945604997822265,-0.0,0.26905739307403564,-1.0821135679828089,0.0,-0.05652350187301636,0.1412828266620636,-0.0,-0.011289151385426521,1.608591079711914,0.0,-0.0014938060194253922
216.0,245.0,6.4265,0.2483,6.5527,-0.0296,0.0267,-0.1194,-1.8562313518919886,0.0,3.3566105365753174,-1.1067674160003662,-0.0,2.156464099884033,3.89457289754834,-0.0,0.26082322001457214,-1.082085911427633,0.0,-0.04512223228812218,0.1412387639284134,-0.0,-0.014399328269064426,1.6085829734802246,0.0,-0.007053941488265991
221.0,239.0,6.3547,0.2046,6.7675,-0.0379,0.0249,-0.1249,-1.8561912975706996,0.0,3.353557586669922,-1.1067509651184082,-0.0,2.117823600769043,3.8945767122456054,-0.0,0.2779867649078369,-1.0821135679828089,0.0,-0.0538056343793869,0.14132703840732574,-0.0,-0.008892584592103958,1.608619213104248,0.0,0.002339323051273823
221.0,239.0,6.3547,0.2046,6.7675,-0.0379,0.0249,-0.1249,-1.8561951122679652,0.0,3.3437321186065674,-1.1067509651184082,-0.0,2.1511287689208984,3.8945485788532714,-0.0,0.2718663215637207,-1.0820897261248987,0.0,-0.04206867143511772,0.1412988007068634,-0.0,0.0007928670383989811,1.6086150407791138,0.0,0.025901097804307938
221.0,239.0,6.3547,0.2046,6.7675,-0.0379,0.0249,-0.1249,-1.8562189541258753,0.0,3.3898043632507324,-1.1067790985107422,-0.0,2.1399145126342773,3.8945810037800292,-0.0,0.26623818278312683,-1.08209735551943,0.0,-0.040308576077222824,0.1412827968597412,-0.0,-0.007306239102035761,1.6085673570632935,0.0,0.049728818237781525
221.0,239.0,6.3547,0.2046,6.7675,-0.0379,0.0249,-0.1249,-1.856210847894186,0.0,3.3897271156311035,-1.1068115234375,-0.0,2.162701368331909,3.894544764156006,-0.0,0.27460598945617676,-1.0821011702166956,0.0,-0.041861921548843384,0.1412905603647232,-0.0,-0.006112966686487198,1.6085752248764038,0.0,0.0002717333845794201
221.0,239.0,6.3547,0.2046,6.7675,-0.0379,0.0249,-0.1249,-1.8562351665892542,0.0,3.3633782863616943,-1.1068114042282104,-0.0,2.153280735015869,3.8945771890827636,-0.0,0.26986753940582275,-1.0821173826800745,0.0,-0.05039970576763153,0.14128687977790833,-0.0,-0.01575842872262001,1.6085511445999146,0.0,0.056386254727840424
221.0,239.0,6.3547,0.2046,6.7675,-0.0379,0.0249,-0.1249,-1.8562070331969203,0.0,3.370777130126953,-1.1067386865615845,-0.0,2.1497015953063965,3.894512816066406,-0.0,0.26523640751838684,-1.0820816198932093,0.0,-0.058199215680360794,0.14131513237953186,-0.0,-0.011140607297420502,1.6085469722747803,0.0,-0.004008057061582804
221.0,239.0,6.3547,0.2046,6.7675,-0.0379,0.0249,-0.1249,-1.8562032184996546,0.0,3.3830556869506836,-1.1067994832992554,-0.0,2.1362547874450684,3.894612951869629,-0.0,0.27811476588249207,-1.0820897261248987,0.0,-0.0556393638253212,0.1412626951932907,-0.0,-0.004858683329075575,1.6086233854293823,0.0,0.010348083451390266
221.0,239.0,6.3547,0.2046,6.7675,-0.0379,0.0249,-0.1249,-1.856171270410055,0.0,3.3499755859375,-1.106770634651184,-0.0,2.1337337493896484,3.8945604997822265,-0.0,0.26659274101257324,-1.0820696989642542,0.0,-0.04330679029226303,0.1412544846534729,-0.0,-0.0016173871699720621,1.6085751056671143,0.0,0.023074984550476074
221.0,239.0,6.3547,0.2046,6.7675,-0.0379,0.0249,-0.1249,-1.85618319133901,0.0,3.3726882934570312,-1.1067829132080078,-0.0,2.1587464809417725,3.894601507777832,-0.0,0.26827237010002136,-1.0821173826800745,0.0,-0.04828590899705887,0.1412627249956131,-0.0,-0.016158606857061386,1.6086151599884033,0.0,-0.03629997372627258
221.0,239.0,6.3547,0.2046,6.7675,-0.0379,0.0249,-0.1249,-1.856227537194723,0.0,3.352537155151367,-1.106770634651184,-0.0,2.1579723358154297,3.89457289754834,-0.0,0.275990754365921,-1.0820654074298304,0.0,-0.05800976604223251,0.14125919342041016,-0.0,-0.003294173860922456,1.6085951328277588,0.0,0.021233107894659042
221.0,239.0,6.3547,0.2046,6.7675,-0.0379,0.0249,-0.1249,-1.8561674557127894,0.0,3.3672285079956055,-1.1067954301834106,-0.0,2.18278169631958,3.894569082851074,-0.0,0.2706192433834076,-1.0821369330035608,0.0,-0.035142526030540466,0.1412947177886963,-0.0,-0.01039715763181448,1.6085991859436035,0.0,-0.029967043548822403
221.0,239.0,6.3547,0.2046,6.7675,-0.0379,0.0249,-0.1249,-1.8561912975706996,0.0,3.4283480644226074,-1.1067665815353394,-0.0,2.1023130416870117,3.894557161922119,-0.0,0.2668057382106781,-1.0821097532855433,0.0,-0.05160723626613617,0.1412827968597412,-0.0,-0.012194512411952019,1.6085951328277588,0.0,0.002488803118467331
221.0,239.0,6.3547,0.2046,6.7675,-0.0379,0.0249,-0.1249,-1.8562270603575648,0.0,3.3749306201934814,-1.1068073511123657,-0.0,2.226463556289673,3.8945485788532714,-0.0,0.26599806547164917,-1.0821049849139612,0.0,-0.061319850385189056,0.14127090573310852,-0.0,-0.005163735710084438,1.6085870265960693,0.0,0.018899552524089813
221.0,239.0,6.3547,0.2046,6.7675,-0.0379,0.0249,-0.1249,-1.8562189541258753,0.0,3.3459596633911133,-1.1068031787872314,-0.0,2.143928050994873,3.894597216243408,-1.3112402257320355e-06,0.27552518248558044,-1.0821011702166956,0.0,-0.05310019850730896,0.14127084612846375,-0.0,-0.012356234714388847,1.6085631847381592,0.0,-0.021427888423204422
215.0,242.0,6.4732,0.3703,6.856,-0.0331,0.0281,-0.1235,-1.8562032184996546,0.0,3.3721377849578857,-1.1068238019943237,-0.0,2.140883207321167,3.8946377474018554,-3.649884838807793e-10,0.27146631479263306,-1.082109276448385,0.0,-0.058064088225364685,0.14134341478347778,-0.0,-0.01421005092561245,1.6085951328277588,0.0,-0.0101249311119318
215.0,242.0,6.4732,0.3703,6.856,-0.0331,0.0281,-0.1235,-1.8562151394286097,0.0,3.354851484298706,-1.1068392992019653,-0.0,2.146416187286377,3.8945647913166503,-6.633486010379323e-15,0.274330198764801,-1.0820897261248987,0.0,-0.04976184666156769,0.1412227898836136,-0.0,-0.013829274103045464,1.6085388660430908,0.0,0.004321343265473843
215.0,242.0,6.4732,0.3703,6.856,-0.0331,0.0281,-0.1235,-1.8561951122679652,0.0,3.3881797790527344,-1.1067633628845215,-0.0,2.16829514503479,3.8945647913166503,-1.8464553108077136e-18,0.2640173137187958,-1.082109276448385,0.0,-0.043724868446588516,0.1412428319454193,-0.0,-0.01231277734041214,1.608647346496582,0.0,-0.014375315979123116
215.0,242.0,6.4732,0.3703,6.856,-0.0331,0.0281,-0.1235,-1.8561908207335414,2.6236205030727433e-06,3.3532066345214844,-1.106770634651184,-0.0,2.121356964111328,3.8945767122456054,-5.139676436730259e-22,0.2804145812988281,-1.0820496718036097,0.0,-0.04878583550453186,0.14123892784118652,-0.0,0.003225663211196661,1.6086032390594482,0.0,-0.010664868168532848
215.0,242.0,6.4732,0.3703,6.856,-0.0331,0.0281,-0.1235,-1.8561793766417445,6.3357357554805205e-12,3.3513388633728027,-1.1067633628845215,-0.0,2.1379287242889404,3.8945724207111816,-1.4306478158677826e-25,0.272238552570343,-1.0821011702166956,0.0,-0.04972604289650917,0.14124704897403717,-0.0,-0.011854439042508602,1.6085751056671143,0.0,-0.01377125084400177
215.0,242.0,6.4732,0.3703,6.856,-0.0331,0.0281,-0.1235,-1.856222768823141,0.0007554768235422671,3.3417625427246094,-1.106770634651184,-0.0,2.110586643218994,3.894608660335205,-3.9822612951168395e-29,0.2622086703777313,-1.082085911427633,0.0,-0.052783749997615814,0.1412988007068634,-0.0,-0.014804694801568985,1.6086150407791138,0.0,-0.0009346799924969673
215.0,242.0,6.4732,0.3703,6.856,-0.0331,0.0281,-0.1235,-1.8561989269652308,0.0005428256117738783,3.424156665802002,-1.1067593097686768,-0.0,2.1323304176330566,3.8945647913166503,-7.237563717405942e-34,0.26949793100357056,-1.0821173826800745,0.0,-0.051649726927280426,0.1413232535123825,-0.0,-0.006117519922554493,1.6085753440856934,0.0,0.013570324517786503
215.0,242.0,6.4732,0.3703,6.856,-0.0331,0.0281,-0.1235,-1.8562151394286097,0.00034752883948385715,3.378336191177368,-1.106770634651184,-0.0,2.187938690185547,3.894557161922119,-2.0146021848166854e-37,0.2569594383239746,-1.082109276448385,0.0,-0.04372019320726395,0.1413191705942154,-0.0,-0.009645073674619198,1.60853111743927,0.0,-0.024545419961214066
215.0,242.0,6.4732,0.3703,6.856,-0.0331,0.0281,-0.1235,-1.8562151394286097,0.00028213494806550443,3.3613595962524414,-1.1067748069763184,8.204434465142185e-09,2.1341640949249268,3.8945604997822265,-5.607716194535053e-41,0.2620050013065338,-1.0821369330035608,0.0,-0.0450199618935585,0.1412946879863739,-0.0,-0.0006156816380098462,1.6085710525512695,-2.363925444281989e-10,0.008217055350542068
215.0,242.0,6.4732,0.3703,6.856,-0.0331,0.0281,-0.1235,-1.8562313518919886,0.0001900511997519061,3.3091959953308105,-1.1067345142364502,1.981274099318621e-14,2.192763566970825,3.894556685084961,-1.5414283107572988e-44,0.27681323885917664,-1.08209735551943,0.0,-0.05223606526851654,0.1412827968597412,-0.0,-0.011970223858952522,1.6085591316223145,-5.708601312030815e-16,0.02431868202984333
215.0,242.0,6.4732,0.3703,6.856,-0.0331,0.0281,-0.1235,-1.856210847894186,0.00011764660303015262,3.372631549835205,-1.1067790985107422,6.419075539060194e-22,2.1513967514038086,3.894544764156006,-0.0,0.2697451114654541,-1.0821288267718714,0.0,-0.04220655933022499,0.14130286872386932,-0.0,-0.0026537191588431597,1.6085832118988037,-1.8495143690050606e-23,-0.019642483443021774
215.0,242.0,6.4732,0.3703,6.856,-0.0331,0.0281,-0.1235,-1.8561989269652308,0.00010404315253254026,3.348339796066284,-1.1068512201309204,1.550131323244721e-27,2.1980128288269043,3.8945609766193847,-0.0,0.26233649253845215,-1.0820816198932093,0.0,-0.05923963338136673,0.14130686223506927,-0.0,0.001437898725271225,1.6085991859436035,-4.466359735745923e-29,-0.0018325855489820242
215.0,242.0,6.4732,0.3703,6.856,-0.0331,0.0281,-0.1235,-1.8562313518919886,9.32614566409029e-05,3.31527042388916,-1.1068516969680786,3.743384535396622e-33,2.130906105041504,3.894584818477295,-0.0,0.2821537256240845,-1.0820930639850062,0.0,-0.03940197825431824,0.14127086102962494,-0.0,-0.005714648403227329,1.608567237854004,-1.0785733492701773e-34,-0.021854938939213753
215.0,242.0,6.4732,0.3703,6.856,-0.0331,0.0281,-0.1235,-1.8562470875182093,8.450441237073392e-05,3.3515329360961914,-1.1068397760391235,9.039832445297968e-39,2.137812614440918,3.894612951869629,-0.0,0.262586385011673,-1.0821173826800745,0.0,-0.047679729759693146,0.14128684997558594,-0.0,0.0033291273284703493,1.6085751056671143,-2.604621481609824e-40,-0.013306999579071999
221.0,239.0,5.8947,0.4295,6.8357,-0.0286,0.0518,-0.1185,-1.8562070331969203,0.0001001361888484098,3.3783371448516846,-1.1067551374435425,0.0,2.1515419483184814,3.894556685084961,-0.0,0.27809709310531616,-1.0821455160724085,0.0,-0.051243122667074203,0.14126679301261902,-0.0,-0.015989704057574272,1.6085832118988037,-0.0,-0.015030479989945889
221.0,239.0,5.8947,0.4295,6.8357,-0.0286,0.0518,-0.1185,-1.856222768823141,5.175154728931375e-05,3.3661298751831055,-1.1067593097686768,-0.0,2.1936206817626953,3.8945934015461425,-0.0,0.26497480273246765,-1.0820534865008753,0.0,-0.05126672238111496,0.14130286872386932,-0.0,-0.00961715541779995,1.608591079711914,0.0,-0.021092474460601807
221.0,239.0,5.8947,0.4295,6.8357,-0.0286,0.0518,-0.1185,-1.8561469517149867,8.764053200138733e-05,3.360569477081299,-1.1067509651184082,-0.0,2.1160221099853516,3.8945647913166503,-0.0,0.2595234513282776,-1.0820615927325647,0.0,-0.04797455668449402,0.1413392424583435,-0.0,-0.017497997730970383,1.608579397201538,0.0,-0.010983908548951149
221.0,239.0,5.8947,0.4295,6.8357,-0.0286,0.0518,-0.1185,-1.85618319133901,0.0007095102337189019,3.3504576683044434,-1.1067994832992554,-0.0,2.154141902923584,3.8945528703876953,-0.0,0.27458977699279785,-1.0821011702166956,0.0,-0.05577022582292557,0.141255185008049,-0.0,-0.010526232421398163,1.6085429191589355,0.0,0.003322896547615528
221.0,239.0,5.8947,0.4295,6.8357,-0.0286,0.0518,-0.1185,-1.8561469517149867,0.0009006241452880204,3.4155383110046387,-1.1067390441894531,-0.0,2.1344566345214844,3.894612951869629,-0.0,0.26255521178245544,-1.0821211973773401,0.0,-0.043172404170036316,0.1413028985261917,-0.0,-0.0071650720201432705,1.6085633039474487,0.0,0.01802397146821022
221.0,239.0,5.8947,0.4295,6.8357,-0.0286,0.0518,-0.1185,-1.8561588726439417,0.000700241478625685,3.3618149757385254,-1.1067665815353394,-0.0,2.142632007598877,3.894556685084961,-0.0,0.27088651061058044,-1.0820611158954065,0.0,-0.06366215646266937,0.1412988156080246,-0.0,0.002689709421247244,1.6085914373397827,0.0,-0.04943402484059334
221.0,239.0,5.8947,0.4295,6.8357,-0.0286,0.0518,-0.1185,-1.8561951122679652,0.0003233246970921755,3.377513885498047,-1.1067830324172974,-0.0,2.177804946899414,3.8945647913166503,-0.0,0.2815624177455902,-1.0821097532855433,0.0,-0.05199577659368515,0.14125852286815643,-0.0,-0.00967550277709961,1.6086111068725586,0.0,-0.01658320240676403
221.0,239.0,5.8947,0.4295,6.8357,-0.0286,0.0518,-0.1185,-1.8561912975706996,0.00015723417163826525,3.334320306777954,-1.1067185401916504,-0.0,2.1345181465148926,3.8945485788532714,-0.0,0.26669251918792725,-1.0821288267718714,0.0,-0.04428155720233917,0.14127454161643982,-0.0,-0.012098686769604683,1.6085832118988037,0.0,-0.016024714335799217
221.0,239.0,5.8947,0.4295,6.8357,-0.0286,0.0518,-0.1185,-1.8562427959837855,0.00011651207751128823,3.3858847618103027,-1.1067829132080078,-0.0,2.1823644638061523,3.8945647913166503,-0.0,0.2723156213760376,-1.0821173826800745,0.0,-0.058470290154218674,0.14126679301261902,-0.0,-0.00981756392866373,1.608567237854004,0.0,-0.01789347641170025
221.0,239.0,5.8947,0.4295,6.8357,-0.0286,0.0518,-0.1185,-1.8561469517149867,9.756367217050865e-05,3.3158082962036133,-1.1067954301834106,-0.0,2.100674629211426,3.894597216243408,-0.0,0.2709803581237793,-1.0821135679828089,0.0,-0.045911334455013275,0.1413028985261917,-0.0,-0.0047425879165530205,1.6085710525512695,0.0,0.05099126324057579
221.0,239.0,5.8947,0.4295,6.8357,-0.0286,0.0518,-0.1185,-1.8561951122679652,8.391682058572769e-05,3.3398842811584473,-1.1067790985107422,-0.0,2.168527603149414,3.894556685084961,-0.0,0.2707892656326294,-1.0821173826800745,0.0,-0.06329088658094406,0.1412626951932907,-0.0,-0.00628712959587574,1.6086151599884033,0.0,-0.02231285348534584
221.0,239.0,5.8947,0.4295,6.8357,-0.0286,0.0518,-0.1185,-1.8561550579466761,0.00010991447197739035,3.385176658630371,-1.1067674160003662,-0.0,2.165017604827881,3.8945810037800292,-0.0,0.26855945587158203,-1.0821250120746058,0.0,-0.06409146636724472,0.14131923019886017,-0.0,-0.010183656588196754,1.6085712909698486,0.0,-0.01955229789018631
221.0,239.0,5.8947,0.4295,6.8357,-0.0286,0.0518,-0.1185,-1.856210847894186,0.00012609708937816322,3.4077744483947754,-1.1067593097686768,-0.0,2.1595048904418945,3.894605799312256,-0.0,0.27668389678001404,-1.0821054617511194,0.0,-0.04858238995075226,0.14130690693855286,-0.0,-0.01271611638367176,1.6086031198501587,0.0,-0.005186028312891722
221.0,239.0,5.8947,0.4295,6.8357,-0.0286,0.0518,-0.1185,-1.8561550579466761,0.0001140327294706367,3.36380934715271,-1.106791377067566,-0.0,2.158675193786621,3.8945485788532714,-0.0,0.27139946818351746,-1.0821493307696741,0.0,-0.04855066537857056,0.1412668228149414,-0.0,-0.007330586202442646,1.6086153984069824,0.0,0.03723783791065216
220.0,240.0,6.1555,-0.0963,6.6305,-0.0412,0.0218,-0.1182,-1.8561507664122523,0.0006490763043984771,3.351947784423828,-1.1067266464233398,-0.0,2.199038028717041,3.894523783321045,-0.0,0.26259610056877136,-1.08209735551943,0.0,-0.04730157554149628,0.14130690693855286,-0.0,-0.004543918184936047,1.6085387468338013,0.0,-0.0008572050137445331
220.0,240.0,6.1555,-0.0963,6.6305,-0.0412,0.0218,-0.1182,-1.856119295159811,0.0006841222057119012,3.379092216491699,-1.1067790985107422,-0.0,2.126131534576416,3.894552393550537,-0.0,0.26729699969291687,-1.0821331183062952,0.0,-0.055682599544525146,0.1412627249956131,-0.0,-0.009967261925339699,1.6085712909698486,0.0,0.052164822816848755
220.0,240.0,6.1555,-0.0963,6.6305,-0.0412,0.0218,-0.1182,-1.85618319133901,0.0004539618967100978,3.417959213256836,-1.1067593097686768,-0.0,2.1642532348632812,3.894524260158203,-0.0,0.2729925513267517,-1.0821812788592737,0.0,-0.046135734766721725,0.14129503071308136,-0.0,-0.002395004266873002,1.6085991859436035,-2.4116996428347193e-05,0.0007118312641978264
220.0,240.0,6.1555,-0.0963,6.6305,-0.0412,0.0218,-0.1182,-1.856222768823141,0.0003625116078183055,3.370365858078003,-1.1067665815353394,-0.0,2.137446641921997,3.894569082851074,-0.0,0.2725576162338257,-1.0821493307696741,0.0,-0.048980701714754105,0.1412782371044159,-0.0,-0.013149885460734367,1.6086151599884033,-2.3198659619083628e-05,0.034022875130176544
220.0,240.0,6.1555,-0.0963,6.6305,-0.0412,0.0218,-0.1182,-1.8561912975706996,0.00030173431150615215,3.3238003253936768,-1.1067872047424316,-0.0,2.135317087173462,3.894556685084961,-0.0,0.26750460267066956,-1.0821016470538538,0.0,-0.05525980144739151,0.14124704897403717,-0.0,-0.009332256391644478,1.6085951328277588,-2.2335116227623075e-05,0.04393104463815689
220.0,240.0,6.1555,-0.0963,6.6305,-0.0412,0.0218,-0.1182,-1.856171270410055,0.00025841163005679846,3.4018993377685547,-1.1067991256713867,-2.0967165255569853e-05,2.098644733428955,3.8945767122456054,-0.0,0.2588112950325012,-1.0821331183062952,0.0,-0.029337964951992035,0.1412988007068634,-0.0,-0.008408425375819206,1.608591079711914,-2.153353489120491e-05,0.02466011978685856
220.0,240.0,6.1555,-0.0963,6.6305,-0.0412,0.0218,-0.1182,-1.8561912975706996,0.0002168923820136115,3.344876289367676,-1.1068031787872314,-1.9711407730937935e-05,2.186939239501953,3.8945647913166503,-0.0,0.2651623785495758,-1.0821531454669397,0.0,-0.05648995190858841,0.1412428766489029,-0.0,-0.018145238980650902,1.6086111068725586,-1.0276986358803697e-05,-0.020139899104833603
220.0,240.0,6.1555,-0.0963,6.6305,-0.0412,0.0218,-0.1182,-1.856143137017721,0.0001935670297825709,3.379199981689453,-1.1067510843276978,-1.849616273830179e-05,2.1580677032470703,3.8945934015461425,-0.0,0.2638651728630066,-1.0821417013751429,0.0,-0.053886398673057556,0.1412787288427353,-0.0,-0.006405414082109928,1.6085832118988037,-9.934826266544405e-06,0.008553813211619854
220.0,240.0,6.1555,-0.0963,6.6305,-0.0412,0.0218,-0.1182,-1.8561269245543421,0.00017477218352723867,3.3386731147766113,-1.1067674160003662,-1.7422036762582138e-05,2.1566195487976074,3.8945810037800292,-0.0,0.268917441368103,-1.0821016470538538,0.0,-0.05188382416963577,0.14125855267047882,-0.0,-0.01864413358271122,1.6086151599884033,-2.3991435574299835e-11,0.024197213351726532
220.0,240.0,6.1555,-0.0963,6.6305,-0.0412,0.0218,-0.1182,-1.856131216088766,0.0001593039050931111,3.365424156188965,-1.106770634651184,-1.646582859393675e-05,2.1781914234161377,3.8945604997822265,-0.0,0.2650601863861084,-1.0821250120746058,0.0,-0.036976780742406845,0.14133480191230774,-0.0,-0.014715651050209999,1.608579158782959,-5.793649110937761e-17,0.012563586235046387
220.0,240.0,6.1555,-0.0963,6.6305,-0.0412,0.0218,-0.1182,-1.8561750851073207,0.0001424897345714271,3.343583345413208,-1.1067665815353394,-1.5343013728852384e-05,2.180095672607422,3.894540472621582,-0.0,0.27305200695991516,-1.08209735551943,0.0,-0.03977348282933235,0.14131881296634674,-0.0,-0.0014741199556738138,1.608567237854004,-1.877068885993978e-24,-0.04361521825194359
220.0,240.0,6.1555,-0.0963,6.6305,-0.0412,0.0218,-0.1182,-1.8561626873412074,0.00013203738490119576,3.3713626861572266,-1.1067267656326294,-1.4596514120057691e-05,2.104369640350342,3.894500895137451,-0.0,0.27017560601234436,-1.0821173826800745,0.0,-0.04778081923723221,0.1412787139415741,-0.0,-0.011919116601347923,1.6085631847381592,-4.532900690556141e-30,-0.0025501344352960587
220.0,240.0,6.1555,-0.0963,6.6305,-0.0412,0.0218,-0.1182,-1.8561870060362757,0.0001230138004757464,3.363168716430664,-1.1067674160003662,-1.3919270713813603e-05,2.1875345706939697,3.8945323663898925,-0.0,0.2647712230682373,-1.0821407477008265,0.0,-0.050021618604660034,0.14135946333408356,-0.0,-0.0017816857434809208,1.6085872650146484,-1.0946423082583107e-35,0.004107384011149406
220.0,240.0,6.1555,-0.0963,6.6305,-0.0412,0.0218,-0.1182,-1.8561674557127894,0.0001151447941083461,3.331997871398926,-1.1067954301834106,-1.3302103070600424e-05,2.1864871978759766,3.894540472621582,-0.0,0.27763688564300537,-1.08209735551943,0.0,-0.05145519971847534,0.14127454161643982,-0.0,-0.012832589447498322,1.6085712909698486,-2.643409423102335e-41,-0.010142788290977478
224.0,235.0,6.5438,0.2542,6.6191,-0.0299,0.0136,-0.12,-1.8561674557127894,0.00010609568562358618,3.386300563812256,-1.1068073511123657,-1.2559590686578304e-05,2.189836025238037,3.894584818477295,-0.0,0.27175015211105347,-1.0821250120746058,0.0,-0.037343353033065796,0.14131104946136475,-0.0,-0.006127046421170235,1.608567237854004,-4.4218762923264876e-05,0.00026248395442962646
224.0,235.0,6.5438,0.2542,6.6191,-0.0299,0.0136,-0.12,-1.8561750851073207,8.350099960807711e-05,3.3673336505889893,-1.1067469120025635,-1.2054922990500927e-05,2.1990675926208496,3.8945156770893554,-0.0,0.2734262943267822,-1.082125488911764,0.0,-0.038513410836458206,0.14130689203739166,-0.0,-0.007267734035849571,1.608551025390625,-6.191759166540578e-05,0.014096749946475029
224.0,235.0,6.5438,0.2542,6.6191,-0.0299,0.0136,-0.12,-1.8561870060362757,7.90897393017076e-05,3.364701747894287,-1.106803297996521,-1.158923714683624e-05,2.137932538986206,3.8945647913166503,-0.0,0.2698894441127777,-1.0821540991412562,7.178076089076058e-07,-0.047368764877319336,0.14127874374389648,-0.0,-0.007193828001618385,1.608575463294983,-9.578514436725527e-05,0.024340089410543442
224.0,235.0,6.5438,0.2542,6.6191,-0.0299,0.0136,-0.12,-1.8561912975706996,7.512852607760578e-05,3.3587565422058105,-1.1067551374435425,-1.11582021418144e-05,2.195155382156372,3.8945647913166503,-0.0,0.27549368143081665,-1.0821135679828089,1.9980439525113525e-10,-0.05493145063519478,0.1413232833147049,-0.0,-0.005149027332663536,1.608567237854004,-0.0005214933771640062,-0.011871816590428352
224.0,235.0,6.5438,0.2542,6.6191,-0.0299,0.0136,-0.12,-1.8561870060362757,7.042547076707706e-05,3.391526222229004,-1.106778860092163,-1.0631000805005897e-05,2.165803909301758,3.8945280748554687,-0.0,0.27759259939193726,-1.0821250120746058,3.631345864876486e-15,-0.048014428466558456,0.14126335084438324,-0.0,-0.003978143911808729,1.6085631847381592,-0.0008557093096897006,-0.051043733954429626
224.0,235.0,6.5438,0.2542,6.6191,-0.0299,0.0136,-0.12,-1.8561989269652308,6.726734864059836e-05,3.355189800262451,-1.1067551374435425,-1.0267176548950374e-05,2.139005422592163,3.894569082851074,-0.0,0.2710237503051758,-1.0820930639850062,1.0107984751202785e-18,-0.046602021902799606,0.141290545463562,-0.0,-0.01721617393195629,1.6085352897644043,-0.0007050290587358177,-0.005894587375223637
224.0,235.0,6.5438,0.2542,6.6191,-0.0299,0.0136,-0.12,-1.8561269245543421,6.438029959099367e-05,3.3912734985351562,-1.106755256652832,-9.927433893608395e-06,2.1273646354675293,3.8945929247089843,-0.0,0.2744651138782501,-1.0821097532855433,2.8135949759009737e-22,-0.049548134207725525,0.14131510257720947,-0.0,-0.01793478988111019,1.6085753440856934,-0.0005277971504256129,-0.03921879827976227
224.0,235.0,6.5438,0.2542,6.6191,-0.0299,0.0136,-0.12,-1.8561550579466761,6.173083238536492e-05,3.382955551147461,-1.1067790985107422,-2.3973583535008558e-11,2.142812967300415,3.894540472621582,-0.0,0.27135446667671204,-1.0821054617511194,7.831746355788074e-26,-0.05413970723748207,0.14128687977790833,-0.0,-0.0054853265173733234,1.6085549592971802,-0.00017257430590689182,-0.03284657001495361
224.0,235.0,6.5438,0.2542,6.6191,-0.0299,0.0136,-0.12,-1.856119295159811,5.851980677107349e-05,3.352917194366455,-1.106783151626587,-7.767135995981315e-19,2.1562352180480957,3.8945810037800292,-0.0,0.27987799048423767,-1.082120720540182,1.4233810948909224e-30,-0.05011594668030739,0.1412428319454193,-0.0,-0.007918787188827991,1.6085872650146484,-6.233823660295457e-05,0.021388227120041847
224.0,235.0,6.5438,0.2542,6.6191,-0.0299,0.0136,-0.12,-1.8561793766417445,5.632249667542055e-05,3.334052085876465,-1.1067633628845215,-1.8756720105460578e-24,2.156111717224121,3.894569082851074,-0.0,0.2606390714645386,-1.0821250120746058,3.962033096805291e-34,-0.047774165868759155,0.1412946879863739,-0.0,-0.002046221401542425,1.6085753440856934,-1.0491658208877652e-08,-0.024877673014998436
224.0,235.0,6.5438,0.2542,6.6191,-0.0299,0.0136,-0.12,-1.856210847894186,4.3444582843221724e-05,3.3805055618286133,-1.1068315505981445,-4.529527303887925e-30,2.1517446041107178,3.894557161922119,-0.0,0.2656913995742798,-1.0821293036090296,1.102846442172726e-37,-0.03500457853078842,0.14132733643054962,-0.0,-0.008253193460404873,1.6085832118988037,-2.5336119175421203e-14,-0.0043526142835617065
224.0,235.0,6.5438,0.2542,6.6191,-0.0299,0.0136,-0.12,-1.8561912975706996,4.191072002868168e-05,3.392347812652588,-1.1067593097686768,-1.093827555215834e-35,2.1596288681030273,3.894612951869629,-0.0,0.275330126285553,-1.08220082918276,3.069824545796377e-41,-0.05811847373843193,0.1413029283285141,-0.0,-0.0025086570531129837,1.608635425567627,-6.118374525128302e-20,-0.015720298513770103
224.0,235.0,6.5438,0.2542,6.6191,-0.0299,0.0136,-0.12,-1.8562032184996546,4.004592483397573e-05,3.3728480339050293,-1.106770634651184,-3.545285114741787e-43,2.139329195022583,3.894597216243408,-0.0,0.2673889696598053,-1.0821931997882288,0.0,-0.05383431166410446,0.14130286872386932,-0.0,0.006487228441983461,1.6085753440856934,-1.9822757212122066e-27,0.0462072417140007
224.0,235.0,6.5438,0.2542,6.6191,-0.0299,0.0136,-0.12,-1.8562270603575648,2.432874346425251e-09,3.31801176071167,-1.106791377067566,-0.0,2.149869203567505,3.8945604997822265,-0.0,0.27595362067222595,-1.0820978323565882,0.0,-0.05333928018808365,0.14126674830913544,-0.0,-0.01057943981140852,1.6085550785064697,-4.7869627061177244e-33,0.0017597805708646774
213.0,247.0,6.4241,0.0999,6.4923,-0.066,0.0278,-0.1078,-1.8561989269652308,5.8751052254505526e-15,3.3165719509124756,-1.106795072555542,-0.0,2.1704049110412598,3.894612951869629,-0.0,0.2732027471065521,-1.0821650663958948,0.0,-0.04254401475191116,0.14129088819026947,-0.0,-0.013126147910952568,1.6085751056671143,-1.1559951425613612e-38,0.01040646992623806
213.0,247.0,6.4241,0.0999,6.4923,-0.066,0.0278,-0.1078,-1.8561870060362757,1.4187692006584426e-20,3.387542963027954,-1.1067954301834106,-0.0,2.181884527206421,3.8945810037800292,-0.0,0.26491719484329224,-1.0821130911456507,0.0,-0.057325318455696106,0.14127486944198608,-0.0,-0.012476861476898193,1.6085991859436035,-2.802596928649634e-44,-0.02574697881937027
213.0,247.0,6.4241,0.0999,6.4923,-0.066,0.0278,-0.1078,-1.8561951122679652,3.6733887043283175e-08,3.323237419128418,-1.1067872047424316,-0.0,2.18220853805542,3.8946210581013183,-0.0,0.2774035334587097,-1.0821931997882288,0.0,-0.05119074136018753,0.14128687977790833,-0.0,-0.004225310403853655,1.6085751056671143,0.0,-0.023824431002140045
213.0,247.0,6.4241,0.0999,6.4923,-0.066,0.0278,-0.1078,-1.856171270410055,1.1901311599570616e-15,3.3264658451080322,-1.1067665815353394,-0.0,2.2032980918884277,3.894540472621582,-0.0,0.2733137011528015,-1.0821493307696741,0.0,-0.04826865717768669,0.1412668079137802,-0.0,0.0032498380169272423,1.6085872650146484,0.0,-0.01763330027461052
213.0,247.0,6.4241,0.0999,6.4923,-0.066,0.0278,-0.1078,-1.8561469517149867,2.8740269214119905e-21,3.392808198928833,-1.1068315505981445,-0.0,2.1415457725524902,3.8946005541035156,-0.0,0.271636426448822,-1.082137409840719,0.0,-0.051845576614141464,0.14131103456020355,-0.0,0.011327045038342476,1.6085631847381592,0.0,-0.0312199704349041
213.0,247.0,6.4241,0.0999,6.4923,-0.066,0.0278,-0.1078,-1.8561507664122523,6.94043676273335e-27,3.361910581588745,-1.1067267656326294,-0.0,2.131044864654541,3.894612951869629,-0.0,0.26890820264816284,-1.0821412245379847,0.0,-0.051931947469711304,0.14128686487674713,-0.0,-0.011921653524041176,1.60853111743927,0.0,-0.011781120672821999
213.0,247.0,6.4241,0.0999,6.4923,-0.066,0.0278,-0.1078,-1.85618319133901,1.6760339513346274e-32,3.4112954139709473,-1.1067509651184082,-0.0,2.128086566925049,3.8945810037800292,-0.0,0.259328156709671,-1.0821650663958948,0.0,-0.040427591651678085,0.1412787139415741,-0.0,0.009025265462696552,1.6085753440856934,0.0,0.017247918993234634
213.0,247.0,6.4241,0.0999,6.4923,-0.066,0.0278,-0.1078,-1.8561951122679652,5.430143653135812e-40,3.3699402809143066,-1.1068315505981445,-0.0,2.135814666748047,3.894584818477295,-0.0,0.26579412817955017,-1.0821016470538538,0.0,-0.0407835878431797,0.14132705330848694,-0.0,-0.0021473802626132965,1.6085832118988037,0.0,-0.02408735454082489
213.0,247.0,6.4241,0.0999,6.4923,-0.066,0.0278,-0.1078,-1.8562032184996546,1.401298464324817e-45,3.376437187194824,-1.1067829132080078,-0.0,2.1700754165649414,3.894608660335205,-0.0,0.26632383465766907,-1.082137409840719,0.0,-0.0510103739798069,0.14133523404598236,-0.0,-0.013845360837876797,1.6085913181304932,0.0,-0.021583210676908493
213.0,247.0,6.4241,0.0999,6.4923,-0.066,0.0278,-0.1078,-1.8561793766417445,0.0,3.3850255012512207,-1.1067748069763184,-0.0,2.179387092590332,3.894653006190918,0.0011851722374558449,0.26953551173210144,-1.0821574370013636,0.0,-0.052957430481910706,0.1412626951932907,-0.0,0.008051286451518536,1.6085591316223145,0.0,0.018666334450244904
213.0,247.0,6.4241,0.0999,6.4923,-0.066,0.0278,-0.1078,-1.8561388454832972,0.0,3.4005215167999268,-1.106706976890564,-0.0,2.167544364929199,3.894709272975586,0.0017090182518586516,0.2776617407798767,-1.0821693579303187,0.0,-0.0460311695933342,0.14134341478347778,-0.0,0.00019153545144945383,1.6085951328277588,0.0,-0.01643316075205803
213.0,247.0,6.4241,0.0999,6.4923,-0.066,0.0278,-0.1078,-1.8561588726439417,0.0,3.347198009490967,-1.1067591905593872,0.0004370256792753935,2.0828239917755127,3.8947207170673828,0.002832934493198991,0.26883664727211,-1.0821531454669397,0.0,-0.057658158242702484,0.1412988007068634,-0.0,-0.00027333101024851203,1.608579397201538,0.0,0.011256678029894829
213.0,247.0,6.4241,0.0999,6.4923,-0.066,0.0278,-0.1078,-1.8561469517149867,0.0,3.3517093658447266,-1.1066992282867432,0.0004462561337277293,2.1532881259918213,3.8947250086018066,0.004176763817667961,0.27617254853248596,-1.0822013060199183,0.0,-0.05672357976436615,0.14129085838794708,-0.0,-0.0032636672258377075,1.6085753440856934,0.0,-0.010060709901154041
213.0,247.0,6.4241,0.0999,6.4923,-0.066,0.0278,-0.1078,-1.8561626873412074,0.0,3.345392942428589,-1.1067028045654297,0.00041718370630405843,2.1212661266326904,3.894812746638916,0.005963357165455818,0.2772047817707062,-1.0821531454669397,0.0,-0.05386088415980339,0.14124275743961334,-0.0,-0.014986706897616386,1.60853910446167,0.0,-0.010851223953068256
214.0,249.0,6.1262,-0.052,6.667,-0.0528,0.0076,-0.1249,-1.8561750851073207,0.0,3.3898422718048096,-1.1067230701446533,0.00034803315065801144,2.158451795578003,3.8948122698017578,0.006562431808561087,0.2667428255081177,-1.0821455160724085,0.0,-0.05104336887598038,0.14137160778045654,-0.0,-0.0031080073677003384,1.6085712909698486,0.0,-0.027846481651067734
214.0,249.0,6.1262,-0.052,6.667,-0.0528,0.0076,-0.1249,-1.8561507664122523,0.0,3.3872578144073486,-1.1067430973052979,0.0002850412274710834,2.138395309448242,3.89480368673291,0.004107316955924034,0.27536606788635254,-1.0821531454669397,0.0,-0.04620394855737686,0.14126679301261902,-0.0,-0.01297076791524887,1.6085712909698486,0.0,-0.033465828746557236
214.0,249.0,6.1262,-0.052,6.667,-0.0528,0.0076,-0.1249,-1.856171270410055,0.0,3.339052677154541,-1.106706976890564,0.00010843078780453652,2.1681172847747803,3.8948284822651367,0.0018569657113403082,0.27148932218551636,-1.0821531454669397,0.0,-0.05469208210706711,0.1412828415632248,-0.0,-0.000809641438536346,1.6085469722747803,0.0,0.04372117668390274
214.0,249.0,6.1262,-0.052,6.667,-0.0528,0.0076,-0.1249,-1.8562189541258753,0.0,3.3592469692230225,-1.1067551374435425,9.177593165077269e-05,2.124380588531494,3.8948041635700683,0.001045000390149653,0.266867458820343,-1.0821493307696741,0.0,-0.05804155766963959,0.14127454161643982,-0.0,-0.0031155284959822893,1.6085469722747803,0.0,-0.010901148431003094
214.0,249.0,6.1262,-0.052,6.667,-0.0528,0.0076,-0.1249,-1.8562551937498988,0.0,3.3681817054748535,-1.1067513227462769,3.979979010182433e-05,2.2195966243743896,3.8948160844990234,0.0007274973904713988,0.2733117938041687,-1.082137409840719,0.0,-0.0626707524061203,0.1412585824728012,-0.0,-0.006072503514587879,1.6085550785064697,0.0,0.01573946513235569
214.0,249.0,6.1262,-0.052,6.667,-0.0528,0.0076,-0.1249,-1.8562189541258753,-0.0006032910896465182,3.3867928981781006,-1.1067994832992554,3.9920378185343e-06,2.1398086547851562,3.8948160844990234,0.00045320161734707654,0.2718178927898407,-1.0821650663958948,0.0,-0.05775591731071472,0.14128640294075012,-0.0,-0.014121051877737045,1.6085069179534912,0.0,0.017585184425115585
214.0,249.0,6.1262,-0.052,6.667,-0.0528,0.0076,-0.1249,-1.8562313518919886,-0.0005271008121781051,3.38100004196167,-1.1067230701446533,9.640301577851229e-12,2.157684326171875,3.894784136409424,0.0003727220755536109,0.26667141914367676,-1.082193676625387,-6.336939986795187e-05,-0.05575406923890114,0.14127087593078613,-0.0,-0.006011205725371838,1.6085834503173828,-2.6553085263003595e-05,0.036853037774562836
214.0,249.0,6.1262,-0.052,6.667,-0.0528,0.0076,-0.1249,-1.8562551937498988,-0.00042132148519158363,3.345264434814453,-1.1067715883255005,2.3280192666388337e-17,2.13948655128479,3.89486472188916,0.00031651771860197186,0.28709864616394043,-1.0821331183062952,-7.333943358389661e-05,-0.040876343846321106,0.14130687713623047,-0.0,-0.00782772060483694,1.6085271835327148,-5.097038228996098e-05,0.049221910536289215
214.0,249.0,6.1262,-0.052,6.667,-0.0528,0.0076,-0.1249,-1.8562189541258753,-0.0004010364646092057,3.336538791656494,-1.1067427396774292,5.621892340615718e-23,2.17158842086792,3.894824190730713,0.00027505317120812833,0.2738581895828247,-1.082228962575094,-8.8026026787702e-05,-0.054747894406318665,0.1412905603647232,-0.0,-0.01760730892419815,1.608595371246338,-0.000676381925586611,0.003788009751588106
214.0,249.0,6.1262,-0.052,6.667,-0.0528,0.0076,-0.1249,-1.8562232456602992,-0.0003279599186498672,3.3593106269836426,-1.1067633628845215,1.8214217257516738e-30,2.132777452468872,3.894791765803955,0.00023415201576426625,0.27828922867774963,-1.0821850935565394,-0.00044224056182429194,-0.047031551599502563,0.14132733643054962,-0.0,-0.0033325753174722195,1.6085312366485596,-0.0014393500750884414,0.015793975442647934
214.0,249.0,6.1262,-0.052,6.667,-0.0528,0.0076,-0.1249,-1.8562513790526332,-0.0002311688003828749,3.3765664100646973,-1.106770634651184,4.3985195618693084e-36,2.161545753479004,3.89480368673291,0.00023676712589804083,0.2773074805736542,-1.0821974913226526,-0.00042173502151854336,-0.06297987699508667,0.14125856757164001,-0.0,0.004499911330640316,1.6085231304168701,-0.002543944865465164,-0.00032858550548553467
214.0,249.0,6.1262,-0.052,6.667,-0.0528,0.0076,-0.1249,-1.8562752209105433,-0.00027563603362068534,3.386460542678833,-1.1067911386489868,1.0621842359582113e-41,2.154755115509033,3.894848032588623,0.0002188036305597052,0.28546273708343506,-1.0822446982013147,-0.0004044203960802406,-0.05333426967263222,0.14128240942955017,-0.0,-0.006916200742125511,1.6084911823272705,-0.003560909302905202,0.008560103364288807
214.0,249.0,6.1262,-0.052,6.667,-0.0528,0.0076,-0.1249,-1.8562632999815882,-0.0005752624711021781,3.3636832237243652,-1.1066703796386719,0.0,2.125854969024658,3.8948160844990234,0.0002005200512940064,0.27410584688186646,-1.0821970144854944,-0.00039614521665498614,-0.051264628767967224,0.14131103456020355,-0.0,-0.00847900751978159,1.6084873676300049,-0.004333122167736292,0.005674266256392002
214.0,249.0,6.1262,-0.052,6.667,-0.0528,0.0076,-0.1249,-1.8562871418394984,-0.0008769216947257519,3.3426730632781982,-1.1067912578582764,-0.0,2.108518123626709,3.894852324123047,0.00018042133888229728,0.27642375230789185,-1.082245175038473,-0.0003533953567966819,-0.06699150055646896,0.1412827968597412,-0.0,-0.0051642474718391895,1.608422875404358,-0.004362399689853191,0.04897378757596016
215.0,242.0,6.3595,0.4134,6.728,-0.0312,0.0252,-0.1316,-1.8562752209105433,-0.0006846977630630136,3.292365074157715,-1.1067551374435425,-0.0,2.142622947692871,3.8948604303547363,0.00010771726374514401,0.26347073912620544,-1.0822408835040491,-0.00029828023980371654,-0.05291018635034561,0.14125852286815643,-0.0,0.010119309648871422,1.6083872318267822,-0.0043070437386631966,0.005259905941784382
215.0,242.0,6.3595,0.4134,6.728,-0.0312,0.0252,-0.1316,-1.8562513790526332,-0.0005786048714071512,3.2682559490203857,-1.1067469120025635,-0.0,2.128490924835205,3.8948685365864257,0.00010038077016361058,0.26414763927459717,-1.0822127501117151,-0.0002984078601002693,-0.04620986804366112,0.1413191854953766,-0.0,-0.0030795936472713947,1.608338475227356,-0.0038838305044919252,0.011661548167467117
215.0,242.0,6.3595,0.4134,6.728,-0.0312,0.0252,-0.1316,-1.8562632999815882,-0.0004928740672767162,3.257632255554199,-1.1067551374435425,-0.0,2.10611629486084,3.894820376033447,9.408489859197289e-05,0.27056020498275757,-1.0822928587542933,-0.0002613513497635722,-0.054889850318431854,0.14131104946136475,-0.0,0.00797431543469429,1.6083309650421143,-0.0039901998825371265,0.022254137322306633
215.0,242.0,6.3595,0.4134,6.728,-0.0312,0.0252,-0.1316,-1.8562590084471644,-0.00046262535033747554,3.2550530433654785,-1.1067954301834106,-0.0,2.0526249408721924,3.894852324123047,8.682360930833966e-05,0.2680521607398987,-1.082268540059225,-0.0002561518922448158,-0.053555622696876526,0.14130687713623047,-0.0,0.007674482651054859,1.608351230621338,-0.0035564822610467672,0.08891891688108444
215.0,242.0,6.3595,0.4134,6.728,-0.0312,0.0252,-0.1316,-1.8562952480711878,-0.0005534951342269778,3.224473476409912,-1.1067830324172974,-0.0,2.0972888469696045,3.894848032588623,9.845072054304183e-05,0.256275475025177,-1.0822494665728968,-0.00023175525711849332,-0.06476504355669022,0.14130279421806335,-0.0,0.008550206199288368,1.608323097229004,-0.0031331663485616446,0.08730998635292053
215.0,242.0,6.3595,0.4134,6.728,-0.0312,0.0252,-0.1316,-1.8563271961607875,-0.0006976069998927414,3.156740188598633,-1.1067185401916504,-0.0,2.064293146133423,3.8948356348225097,0.00012346119910944253,0.26796457171440125,-1.0822489897357386,-0.00019063774379901588,-0.044362422078847885,0.1412823498249054,-0.0,0.006249237805604935,1.6083154678344727,-0.0021928150672465563,0.05824214592576027
215.0,242.0,6.3595,0.4134,6.728,-0.0312,0.0252,-0.1316,-1.856335302392477,-0.0018516361014917493,3.1294407844543457,-1.1067430973052979,-0.0,2.072594165802002,3.8948837953754882,0.00028757742256857455,0.266427218914032,-1.0822566191302698,-0.00020066669094376266,-0.042490825057029724,0.14130689203739166,-0.0,0.0015513417311012745,1.6083273887634277,-0.0015259204665198922,0.04675515741109848
215.0,242.0,6.3595,0.4134,6.728,-0.0312,0.0252,-0.1316,-1.8563434086241664,-0.003551846370100975,3.067183494567871,-1.1067872047424316,-0.0,1.996203899383545,3.8949124056049804,0.0014000429073348641,0.26333361864089966,-1.0823410193072718,-0.0002053219941444695,-0.06158265471458435,0.14131103456020355,-0.0,0.018291741609573364,1.6083033084869385,-0.001028386875987053,0.06354677677154541
215.0,242.0,6.3595,0.4134,6.728,-0.0312,0.0252,-0.1316,-1.8563586674132289,-0.005367976147681475,3.0699403285980225,-1.1067872047424316,-0.0,2.045651435852051,3.8949166971394042,0.001871998654678464,0.2554306089878082,-1.0823009649859827,-0.00021412031492218375,-0.051178328692913055,0.14135122299194336,-0.0,0.023817960172891617,1.608283281326294,-0.000727707811165601,0.06228570640087128
215.0,242.0,6.3595,0.4134,6.728,-0.0312,0.0252,-0.1316,-1.8563868008055628,-0.0067430720664560795,3.013566732406616,-1.1067513227462769,-0.0,2.0103251934051514,3.894915743465088,0.0017609507776796818,0.2589731216430664,-1.0823090712176722,-0.00033731109579093754,-0.06203962862491608,0.14132288098335266,-0.0,0.03202731907367706,1.6082502603530884,-0.0005127667682245374,0.11392098665237427
215.0,242.0,6.3595,0.4134,6.728,-0.0312,0.0252,-0.1316,-1.8564187488951625,-0.008809828199446201,2.974378824234009,-1.1067348718643188,-0.0,1.995275855064392,3.8949081140705566,0.001476122997701168,0.26304665207862854,-1.0822446982013147,-0.00033467059256508946,-0.06788194179534912,0.14134705066680908,-0.0,0.010504679754376411,1.6083393096923828,-0.00039632676634937525,0.17120061814785004
215.0,242.0,6.3595,0.4134,6.728,-0.0312,0.0252,-0.1316,-1.856523176232809,-0.011672941967844963,2.917856216430664,-1.106727123260498,-0.0,1.9800591468811035,3.8948957163044433,0.0010586492717266083,0.25648605823516846,-1.0822928587542933,-0.00047301608719863,-0.05579511448740959,0.14126645028591156,-0.0,0.026882104575634003,1.6082830429077148,-0.00010597923392197117,0.1231139525771141
215.0,242.0,6.3595,0.4134,6.728,-0.0312,0.0252,-0.1316,-1.8565708599486292,-0.014711443334817886,2.8849401473999023,-1.1067715883255005,-0.0,1.926025390625,3.89496819555249,0.0007069134735502303,0.24089887738227844,-1.0823410193072718,-0.0005036749644204974,-0.07000405341386795,0.1412704885005951,-0.0,0.05272729694843292,1.608295202255249,-4.501949297264218e-05,0.21287000179290771
215.0,242.0,6.3595,0.4134,6.728,-0.0312,0.0252,-0.1316,-1.856666704217428,-0.0174050685018301,2.81608247756958,-1.1067390441894531,-0.0,1.9949555397033691,3.894955797786377,0.0005759281339123845,0.25152814388275146,-1.0823209921466272,-0.000566605303902179,-0.05280124396085739,0.1413588970899582,0.00010056383325718343,0.03981116786599159,1.6082992553710938,-3.9144408219726756e-05,0.19185346364974976
210.0,233.0,5.933,0.3553,6.469,-0.0235,0.0133,-0.1411,-1.8568350277342738,-0.020971491932868958,2.820772171020508,-1.1067390441894531,-0.0,1.9086956977844238,3.894983931178711,0.00043627090053632855,0.25596505403518677,-1.0823286215411585,-0.000603301334194839,-0.07209618389606476,0.14131054282188416,0.00016286253230646253,0.029380980879068375,1.6083593368530273,-3.462616223259829e-05,0.1706228405237198
210.0,233.0,5.933,0.3553,6.469,-0.0235,0.0133,-0.1411,-1.8570152721800746,-0.027150223031640053,2.76770281791687,-1.1067551374435425,-0.0,1.9161635637283325,3.8949519830891113,0.00032966258004307747,0.24537231028079987,-1.0823128859149378,-0.0007198042585514486,-0.06714688241481781,0.141359344124794,0.0001707386109046638,0.040692396461963654,1.6082713603973389,-3.0007930035935715e-05,0.17490512132644653
210.0,233.0,5.933,0.3553,6.469,-0.0235,0.0133,-0.1411,-1.85717835048818,-0.03150726482272148,2.7430171966552734,-1.1067390441894531,-0.0,1.8721712827682495,3.8949405389973144,0.0002786145487334579,0.2462068349123001,-1.0822966734515589,-0.0006042966269887984,-0.06996254622936249,0.1413511335849762,0.00015594493015669286,0.053173039108514786,1.608255386352539,-4.5203374611446634e-05,0.1808421015739441
210.0,233.0,5.933,0.3553,6.469,-0.0235,0.0133,-0.1411,-1.8573790989317835,-0.03594012185931206,2.7050812244415283,-1.1068319082260132,-0.0,1.932341456413269,3.8949643808552246,0.00027872109785676,0.2364605814218521,-1.0822966734515589,-0.0005367330159060657,-0.0713023692369461,0.14133070409297943,0.00016742199659347534,0.056608837097883224,1.608255386352539,-5.001078170607798e-05,0.2326676845550537
210.0,233.0,5.933,0.3553,6.469,-0.0235,0.0133,-0.1411,-1.8576470814146937,-0.039528220891952515,2.6915359497070312,-1.1067756414413452,-0.0,1.9165492057800293,3.894955797786377,0.00026555050862953067,0.24863949418067932,-1.0823209921466272,-0.00040087051456794143,-0.08560612797737122,0.14133889973163605,0.0001550650631543249,0.04280150681734085,1.6082673072814941,-6.831685459474102e-05,0.24009495973587036
210.0,233.0,5.933,0.3553,6.469,-0.0235,0.0133,-0.1411,-1.8579784832396449,-0.043622199445962906,2.669854164123535,-1.1067837476730347,-0.0,1.8770051002502441,3.8949882227131347,0.0002201282186433673,0.25371837615966797,-1.0823128859149378,-0.00032398808980360627,-0.07503211498260498,0.14139136672019958,0.0001411660050507635,0.038485266268253326,1.6082713603973389,-6.28020497970283e-05,0.2534480690956116
210.0,233.0,5.933,0.3553,6.469,-0.0235,0.0133,-0.1411,-1.8581539593138636,-0.046593617647886276,2.669823169708252,-1.1067230701446533,-0.0,1.8930457830429077,3.8949519830891113,0.0002615762350615114,0.24915125966072083,-1.0822885672198694,-0.0002960275742225349,-0.06663927435874939,0.14137907326221466,0.00015108604566194117,0.05286208912730217,1.6082351207733154,-7.826335058780387e-05,0.19973638653755188
210.0,233.0,5.933,0.3553,6.469,-0.0235,0.0133,-0.1411,-1.8585063419737757,-0.04976924881339073,2.672290086746216,-1.1067675352096558,-0.0,1.9038145542144775,3.8949715334125976,0.0005589080392383039,0.2510479688644409,-1.0823047796832483,-0.0002542132278904319,-0.07564026117324829,0.14135071635246277,0.00014221233141142875,0.0605773851275444,1.6082513332366943,-7.348110375460237e-05,0.23055684566497803
210.0,233.0,5.933,0.3553,6.469,-0.0235,0.0133,-0.1411,-1.8587776623167933,-0.05140024051070213,2.608191967010498,-1.1067509651184082,-8.329242700710893e-05,1.8632762432098389,3.8949434000202636,0.0004896732862107456,0.26060646772384644,-1.082348648701803,-0.0002598602732177824,-0.0850091204047203,0.14131474494934082,0.00013425687211565673,0.0439409501850605,1.6082353591918945,-6.924122135387734e-05,0.22091498970985413
210.0,233.0,5.933,0.3553,6.469,-0.0235,0.0133,-0.1411,-1.8591176472105921,-0.05676953122019768,2.647928237915039,-1.1067757606506348,-7.908490806585178e-05,1.90671706199646,3.8949715334125976,0.0003849112254101783,0.2458292841911316,-1.0823209921466272,-0.0002631423412822187,-0.08517882227897644,0.14129044115543365,0.00012714402691926807,0.05720396712422371,1.6082954406738281,-6.546393706230447e-05,0.20751014351844788
210.0,233.0,5.933,0.3553,6.469,-0.0235,0.0133,-0.1411,-1.8596254787840785,-0.06626170873641968,2.608524799346924,-1.106727123260498,-7.894039299571887e-05,1.8701322078704834,3.894939585322998,0.00034932815469801426,0.24709448218345642,-1.0823009649859827,-0.00024156529980245978,-0.07549211382865906,0.14127454161643982,0.00011875550262629986,0.04255099594593048,1.6082994937896729,-6.102516999817453e-05,0.24824631214141846
210.0,233.0,5.933,0.3553,6.469,-0.0235,0.0133,-0.1411,-1.8599688015379847,-0.07092783600091934,2.5760838985443115,-1.1067633628845215,-7.042168726911768e-05,1.8642702102661133,3.8949591356464843,0.00032200664281845093,0.23326724767684937,-1.082348648701803,-0.00029520608950406313,-0.09014605730772018,0.1413428783416748,0.0001131563403760083,0.060508355498313904,1.6082713603973389,-3.835513416561298e-05,0.23712897300720215
210.0,233.0,5.933,0.3553,6.469,-0.0235,0.0133,-0.1411,-1.8604332409300746,-0.07348594069480896,2.5576632022857666,-1.1067798137664795,-5.3811370889889076e-05,1.821344017982483,3.894963427180908,0.0003932738909497857,0.23973143100738525,-1.0823567549334925,-0.0011522392742335796,-0.08334946632385254,0.14132288098335266,0.00010656051017576829,0.05305894464254379,1.6082594394683838,-7.137951615732163e-05,0.21957744657993317
209.0,236.0,5.2786,-0.2273,6.9577,0.0119,-0.0463,-0.1713,-1.8608972034850062,-0.07356201857328415,2.5473480224609375,-1.1066951751708984,-5.150168726686388e-05,1.8659253120422363,3.895003481502197,0.001357907080091536,0.23402027785778046,-1.0823405424701136,-0.002053700154647231,-0.07762838900089264,0.14137084782123566,9.949271043296903e-05,0.056011177599430084,1.6082271337509155,-0.0005008660373277962,0.2676059603691101
209.0,236.0,5.2786,-0.2273,6.9577,0.0119,-0.0463,-0.1713,-1.8615123234190882,-0.0774555429816246,2.6009011268615723,-1.1067674160003662,-4.8714115109760314e-05,1.8169279098510742,3.8949920374104003,0.0012391121126711369,0.24204601347446442,-1.0823810736285608,-0.005659781862050295,-0.08387027680873871,0.14136672019958496,9.140841575572267e-05,0.06304222345352173,1.6082394123077393,-0.0008218517177738249,0.2664160132408142
209.0,236.0,5.2786,-0.2273,6.9577,0.0119,-0.0463,-0.1713,-1.8619762859740199,-0.08304327726364136,2.5493156909942627,-1.1067308187484741,-4.689267370849848e-05,1.8506443500518799,3.895052118892334,0.0009891206864267588,0.2409244179725647,-1.082388703023092,-0.011157028377056122,-0.06908529251813889,0.14139479398727417,8.615793922217563e-05,0.053507134318351746,1.6081953048706055,-0.0008242947515100241,0.2864340543746948
209.0,236.0,5.2786,-0.2273,6.9577,0.0119,-0.0463,-0.1713,-1.862528463403219,-0.09113286435604095,2.52260422706604,-1.1067674160003662,-3.314042623969726e-05,1.8116018772125244,3.895007773036621,0.0007091672159731388,0.2388593703508377,-1.0824325720416468,-0.011833160184323788,-0.08945532888174057,0.14134715497493744,8.147784683387727e-05,0.05820748209953308,1.6081993579864502,-0.0008449582965113223,0.25873392820358276
209.0,236.0,5.2786,-0.2273,6.9577,0.0119,-0.0463,-0.1713,-1.8630477390685023,-0.10105457156896591,2.566804885864258,-1.106658935546875,-2.9843567972420715e-05,1.8865280151367188,3.895012064571045,0.00043659863877110183,0.24265015125274658,-1.0825446287738245,-0.0074102263897657394,-0.08529534935951233,0.14137080311775208,7.728000491624698e-05,0.03862548619508743,1.6082799434661865,-0.0008863331167958677,0.2777031660079956
209.0,236.0,5.2786,-0.2273,6.9577,0.0119,-0.0463,-0.1713,-1.8638555012144984,-0.10406484454870224,2.4343671798706055,-1.1067551374435425,-9.032642083184328e-06,1.8482813835144043,3.895052118892334,0.0004940431099385023,0.23438674211502075,-1.0825322310077112,-0.0025108468253165483,-0.09285135567188263,0.1413593590259552,7.23125267541036e-05,0.05113743618130684,1.6082394123077393,-0.0008332428405992687,0.3026217222213745
209.0,236.0,5.2786,-0.2273,6.9577,0.0119,-0.0463,-0.1713,-1.8644267521300257,-0.1037423387169838,2.480976104736328,-1.1066951751708984,-2.1812766870521472e-11,1.8593186140060425,3.8951241213032226,0.0013841827167198062,0.23352934420108795,-1.0825603644000452,-0.0009361963020637631,-0.08434496819972992,0.14132656157016754,6.89867592882365e-05,0.05305727571249008,1.6081831455230713,-0.000866797287017107,0.31842684745788574
209.0,236.0,5.2786,-0.2273,6.9577,0.0119,-0.0463,-0.1713,-1.8650828800597132,-0.10704086720943451,2.502598762512207,-1.1067553758621216,-5.267526507151573e-17,1.8120752573013306,3.8950554567524414,0.00208911276422441,0.23618872463703156,-1.0825489203082483,-0.0006891505909152329,-0.09280829131603241,0.141358882188797,6.595343438675627e-05,0.05208933725953102,1.608223795890808,-0.0009036129340529442,0.27790987491607666
209.0,236.0,5.2786,-0.2273,6.9577,0.0119,-0.0463,-0.1713,-1.8657623730101527,-0.11526013165712357,2.461164951324463,-1.1067591905593872,-1.2720457827335717e-22,1.8387905359268188,3.8950397211262207,0.00223843683488667,0.24324341118335724,-1.0825603644000452,-0.0004987521679140627,-0.09232430160045624,0.141362726688385,6.317572842817754e-05,0.05179162323474884,1.6081712245941162,-0.0010762745514512062,0.3181884288787842
209.0,236.0,5.2786,-0.2273,6.9577,0.0119,-0.0463,-0.1713,-1.8667222462096156,-0.12326177954673767,2.4816603660583496,-1.1066950559616089,-4.121267395338865e-30,1.822761058807373,3.8951360422321777,0.0014758564066141844,0.2278735339641571,-1.0825756231891077,-0.0004772149841301143,-0.09426617622375488,0.14132247865200043,5.98166006966494e-05,0.054807811975479126,1.6081629991531372,-0.001099795801565051,0.31393760442733765
209.0,236.0,5.2786,-0.2273,6.9577,0.0119,-0.0463,-0.1713,-1.8674456081786097,-0.12528732419013977,2.510704517364502,-1.1066794395446777,-9.952375583154225e-36,1.8355005979537964,3.895099325770996,0.0014922419795766473,0.2425922155380249,-1.0825918356524866,-0.00040376390097662807,-0.08535373210906982,0.141358882188797,5.75227131776046e-05,0.06494907289743423,1.6081593036651611,-0.0017125920858234167,0.34641003608703613
209.0,236.0,5.2786,-0.2273,6.9577,0.0119,-0.0463,-0.1713,-1.8681889973082484,-0.12370233237743378,2.519296169281006,-1.1066784858703613,-2.403366996163494e-41,1.7892932891845703,3.8951474863239746,0.0019279851112514734,0.23628827929496765,-1.082547966633932,-0.00024319475051015615,-0.0963744968175888,0.14138303697109222,5.539827543543652e-05,0.07579308748245239,1.6081233024597168,-0.0026570470072329044,0.3062663674354553
209.0,236.0,5.2786,-0.2273,6.9577,0.0119,-0.0463,-0.1713,-1.8689929447569789,-0.11770110577344894,2.5322346687316895,-1.1067513227462769,-0.0,1.7756339311599731,3.895167036647461,0.002568249125033617,0.23144890367984772,-1.0826085249530237,-0.000249586533755064,-0.08402559161186218,0.14132659137248993,5.34251521457918e-05,0.05135222524404526,1.6080790758132935,-0.0036021447740495205,0.28026652336120605
209.0,236.0,5.2786,-0.2273,6.9577,0.0119,-0.0463,-0.1713,-1.8699480495848597,-0.12326619029045105,2.533498764038086,-1.1067107915878296,-0.0,1.8183362483978271,3.8951994615742187,0.002908433089032769,0.22514238953590393,-1.082616154347555,-0.0002816030173562467,-0.07841414213180542,0.14135479927062988,5.10030695295427e-05,0.05496795102953911,1.6081151962280273,-0.0030790497548878193,0.2757641077041626
208.0,235.0,6.5348,0.1268,6.3296,0.0443,-0.0606,-0.1998,-1.870739599267477,-0.1360235959291458,2.5163378715515137,-1.1067111492156982,-0.0,1.7872509956359863,3.8951470094868164,0.0022424578201025724,0.23360498249530792,-1.0826042334186,-0.0005514189833775163,-0.09038640558719635,0.14132249355316162,6.423918421205599e-06,0.04513730853796005,1.6080913543701172,-0.002382725477218628,0.30855655670166016
208.0,235.0,6.5348,0.1268,6.3296,0.0443,-0.0606,-0.1998,-1.8715506992735804,-0.14702199399471283,2.49692440032959,-1.1067591905593872,-0.0,1.8435323238372803,3.895219011897705,0.0022405332420021296,0.22854408621788025,-1.0826080481158655,-0.0015242872759699821,-0.08644767850637436,0.1413630098104477,1.7881214287029934e-09,0.059445373713970184,1.608067274093628,-0.0019045091466978192,0.32418346405029297
208.0,235.0,6.5348,0.1268,6.3296,0.0443,-0.0606,-0.1998,-1.8724304638304652,-0.15514026582241058,2.4932708740234375,-1.1066950559616089,-0.0,1.8363802433013916,3.895219011897705,0.004491935484111309,0.23987340927124023,-1.0826004187213343,-0.0018946283962577581,-0.09030397981405258,0.14135518670082092,4.977301665438916e-13,0.040852680802345276,1.6080474853515625,-0.002094103954732418,0.2740287780761719
208.0,235.0,6.5348,0.1268,6.3296,0.0443,-0.0606,-0.1998,-1.8737384281554164,-0.14829020202159882,2.437634229660034,-1.106647253036499,0.0016259205294772983,1.7955741882324219,3.8953792291828613,0.011319809593260288,0.2380606234073639,-1.0826237837420862,-0.0019230946199968457,-0.08446839451789856,0.14131881296634674,9.046000856765608e-18,0.04769222438335419,1.6080474853515625,-0.003772968193516135,0.2880849540233612
208.0,235.0,6.5348,0.1268,6.3296,0.0443,-0.0606,-0.1998,-1.874545236627096,-0.1315961629152298,2.635988235473633,-1.1066193580627441,0.0018387931631878018,1.8470323085784912,3.8954388338276367,0.015883591026067734,0.25453776121139526,-1.0827081839190882,-0.0024017393589019775,-0.0800182893872261,0.1413470208644867,2.5179874639157834e-21,0.047266170382499695,1.6080074310302734,-0.0040565612725913525,0.2364605963230133
208.0,235.0,6.5348,0.1268,6.3296,0.0443,-0.0606,-0.1998,-1.8754126034178675,-0.12729297578334808,2.5774455070495605,-1.106590986251831,0.0010246576275676489,1.8990604877471924,3.895570917720459,0.017522642388939857,0.23490746319293976,-1.0826924482928675,-0.0032315407879650593,-0.09548503905534744,0.14133073389530182,7.008910813752907e-25,0.049698978662490845,1.6080518960952759,-0.0042566475458443165,0.2349890172481537
208.0,235.0,6.5348,0.1268,6.3296,0.0443,-0.0606,-0.1998,-1.876211782495016,-0.13430917263031006,2.606593608856201,-1.1066991090774536,-0.002231001388281584,1.8553705215454102,3.8956429201313476,0.012122267857193947,0.249833345413208,-1.082695786152975,-0.003811913076788187,-0.08061671257019043,0.14133480191230774,1.9509562003083327e-28,0.04079047590494156,1.6079552173614502,-0.0037028712686151266,0.2858208119869232
208.0,235.0,6.5348,0.1268,6.3296,0.0443,-0.0606,-0.1998,-1.8773876629271449,-0.15712904930114746,2.5644571781158447,-1.1067513227462769,-0.0017837093910202384,1.8426504135131836,3.895638628596924,0.002992897992953658,0.24454393982887268,-1.0827158133136194,-0.004370490554720163,-0.0955524742603302,0.14133478701114655,3.545766302608133e-33,0.05362606421113014,1.6079717874526978,-0.002643029671162367,0.2586832642555237
208.0,235.0,6.5348,0.1268,6.3296,0.0443,-0.0606,-0.1998,-1.8783589802184046,-0.17007552087306976,2.542116641998291,-1.1066546440124512,0.000683350779581815,1.8221827745437622,3.895641966457031,3.1313629733631387e-06,0.23731562495231628,-1.082792107258932,-0.004515564534813166,-0.08752356469631195,0.14132247865200043,9.869769733726316e-37,0.05025547742843628,1.6078791618347168,-0.004188510589301586,0.2840648889541626
208.0,235.0,6.5348,0.1268,6.3296,0.0443,-0.0606,-0.1998,-1.8793102703490199,-0.16162294149398804,2.6140153408050537,-1.1066513061523438,0.002710525644943118,1.8670817613601685,3.8956615167805175,8.716264376928962e-10,0.24017444252967834,-1.0828483740436,-0.003638902213424444,-0.09908900409936905,0.1413671374320984,2.7472876782627336e-40,0.05672891065478325,1.6078393459320068,-0.0056526027619838715,0.2734275162220001
208.0,235.0,6.5348,0.1268,6.3296,0.0443,-0.0606,-0.1998,-1.8802620373167933,-0.14448311924934387,2.6594061851501465,-1.1066431999206543,0.00416638283059001,1.8286000490188599,3.895673914546631,0.0023336971644312143,0.23951831459999084,-1.0828679243670862,-0.0037320267874747515,-0.09503568708896637,0.1413310468196869,7.707141553786494e-44,0.04232439398765564,1.6077954769134521,-0.00832366943359375,0.22326992452144623
208.0,235.0,6.5348,0.1268,6.3296,0.0443,-0.0606,-0.1998,-1.8813568554320277,-0.1321445256471634,2.654256582260132,-1.106567621231079,0.004807653371244669,1.874888300895691,3.8957463937946777,0.005383471492677927,0.24926447868347168,-1.0828917662249964,-0.0043464056216180325,-0.10556735098361969,0.14131879806518555,0.0,0.04066921025514603,1.6077795028686523,-0.009686768986284733,0.18099266290664673
