ramyac6/ROB537/final_project/csv/good/good_6.csv
tof_0,tof_1,accelx,accely,accelz,gyrox,gyroy,gyroz,shoulder_lift_joint_position,shoulder_lift_joint_velocity,shoulder_lift_joint_effort,elbow_joint_position,elbow_joint_velocity,elbow_joint_effort,wrist_1_joint_position,wrist_1_joint_velocity,wrist_1_joint_effort,wrist_2_joint_position,wrist_2_joint_velocity,wrist_2_joint_effort,wrist_3_joint_position,wrist_3_joint_velocity,wrist_3_joint_effort,shoulder_pan_joint_position,shoulder_pan_joint_velocity,shoulder_pan_joint_effort
313.0,368.0,-5.4371,-0.521,8.2774,-0.0399,0.0281,-0.1173,-2.2623630962767542,0.0,4.449685096740723,-1.548113226890564,-0.0,1.7009071111679077,-0.4492655557445069,0.0,0.20225797593593597,-1.5972297827350062,0.0,0.008603493683040142,0.5561513304710388,-0.0,0.010829354636371136,1.1711903810501099,0.0,-0.001570684602484107
313.0,368.0,-5.4371,-0.521,8.2774,-0.0399,0.0281,-0.1173,-2.2623192272581996,0.0,4.454235076904297,-1.5480490922927856,-0.0,1.7425025701522827,-0.4492536348155518,0.0,0.19844956696033478,-1.5972135702716272,0.0,-0.0027202649507671595,0.5560948848724365,-0.0,0.015308130532503128,1.1711862087249756,0.0,0.04778733104467392
313.0,368.0,-5.4371,-0.521,8.2774,-0.0399,0.0281,-0.1173,-2.2623473606505335,0.0,4.470128536224365,-1.548113226890564,-0.0,1.6799290180206299,-0.4492655557445069,0.0,0.19141805171966553,-1.5972054640399378,0.0,-0.003684225957840681,0.5561551451683044,-0.0,0.01642409898340702,1.1711740493774414,0.0,0.045078348368406296
313.0,368.0,-5.4371,-0.521,8.2774,-0.0399,0.0281,-0.1173,-2.2623750172057093,0.0,4.46558952331543,-1.5480611324310303,-0.0,1.6720352172851562,-0.44923289239916997,0.0,0.17524689435958862,-1.59723407426943,0.0,-0.006553784012794495,0.556159257888794,-0.0,0.0025914045982062817,1.1711862087249756,0.0,-0.02937360666692257
313.0,368.0,-5.4371,-0.521,8.2774,-0.0399,0.0281,-0.1173,-2.2623993359007777,0.0,4.422761917114258,-1.5480456352233887,-0.0,1.741287112236023,-0.4492085737041016,0.0,0.2016933709383011,-1.5972664991961878,0.0,0.0013705571182072163,0.5562115907669067,-0.0,0.0021972008980810642,1.1711902618408203,0.0,0.011639254167675972
313.0,368.0,-5.4371,-0.521,8.2774,-0.0399,0.0281,-0.1173,-2.26236691097402,0.0,4.454157829284668,-1.5481092929840088,-0.0,1.664524793624878,-0.44923289239916997,0.0,0.20486590266227722,-1.597217861806051,0.0,-0.0048774899914860725,0.5561349391937256,-0.0,-0.008368699811398983,1.1712021827697754,0.0,-0.006568535231053829
313.0,368.0,-5.4371,-0.521,8.2774,-0.0399,0.0281,-0.1173,-2.262343545953268,0.0,4.443561553955078,-1.548105239868164,-0.0,1.7172551155090332,-0.4492495816997071,0.0,0.20365387201309204,-1.5972498098956507,0.0,0.0009875393006950617,0.5561673045158386,-0.0,0.0009161994676105678,1.1712223291397095,0.0,-0.03193218633532524
313.0,368.0,-5.4371,-0.521,8.2774,-0.0399,0.0281,-0.1173,-2.262379308740133,0.0,4.48386812210083,-1.548105239868164,-0.0,1.651897668838501,-0.44925721109423833,0.0,0.19387461245059967,-1.5972498098956507,0.0,-0.001136821461841464,0.5561509728431702,-0.0,0.0046516647562384605,1.1712100505828857,0.0,-0.007162924390286207
318.0,375.0,-5.482,-0.4828,8.2534,-0.0386,0.0243,-0.1104,-2.262343545953268,0.0,4.405086517333984,-1.548073410987854,-0.0,1.693220853805542,-0.4492655557445069,0.0,0.20719623565673828,-1.5972421805011194,0.0,-0.013476941734552383,0.5561186075210571,-0.0,-0.0011228653602302074,1.1711781024932861,0.0,-0.0053346604108810425
318.0,375.0,-5.482,-0.4828,8.2534,-0.0386,0.0243,-0.1104,-2.262367387811178,0.0,4.36128568649292,-1.5480417013168335,-0.0,1.6751030683517456,-0.44927318513903813,0.0,0.20706501603126526,-1.5972016493426722,0.0,-0.012935485690832138,0.556066632270813,-0.0,0.009623479098081589,1.171194314956665,0.0,0.004210122860968113
318.0,375.0,-5.482,-0.4828,8.2534,-0.0386,0.0243,-0.1104,-2.2623712025084437,0.0,4.446359634399414,-1.5480735301971436,-0.0,1.6803282499313354,-0.4492933315089722,0.0,0.19515644013881683,-1.5972297827350062,0.0,-0.029817938804626465,0.5561145544052124,-0.0,0.022571537643671036,1.1712263822555542,0.0,0.022491302341222763
318.0,375.0,-5.482,-0.4828,8.2534,-0.0386,0.0243,-0.1104,-2.2623630962767542,0.0,4.433609485626221,-1.5480892658233643,-0.0,1.6491074562072754,-0.44924529016528325,0.0,0.19348859786987305,-1.5972378889666956,0.0,-0.0031169280409812927,0.5560865998268127,-0.0,0.0061969272792339325,1.1711821556091309,0.0,-0.04668517783284187
318.0,375.0,-5.482,-0.4828,8.2534,-0.0386,0.0243,-0.1104,-2.262331625024313,0.0,4.502702713012695,-1.5481171607971191,-0.0,1.6903815269470215,-0.44926126421008306,0.0,0.2027243971824646,-1.5972016493426722,0.0,-0.015475848689675331,0.5561431646347046,-0.0,0.008545536547899246,1.1711540222167969,0.0,-0.014367381110787392
318.0,375.0,-5.482,-0.4828,8.2534,-0.0386,0.0243,-0.1104,-2.2623750172057093,0.0,4.476411819458008,-1.5480774641036987,-0.0,1.673901081085205,-0.44921691835437016,0.0,0.18253672122955322,-1.5972097555743616,0.0,-0.01443497184664011,0.5561268329620361,-0.0,0.0014490176690742373,1.1711617708206177,0.0,-0.013743327930569649
318.0,375.0,-5.482,-0.4828,8.2534,-0.0386,0.0243,-0.1104,-2.262367387811178,0.0,4.414741039276123,-1.5480213165283203,-0.0,1.7227057218551636,-0.44925768793139653,0.0,0.1896934062242508,-1.59723407426943,0.0,-0.008150525391101837,0.5561025738716125,-0.0,0.005456468090415001,1.1711981296539307,0.0,-0.004493411630392075
318.0,375.0,-5.482,-0.4828,8.2534,-0.0386,0.0243,-0.1104,-2.262355466882223,0.0,4.434762001037598,-1.548065423965454,-0.0,1.6847947835922241,-0.4492655557445069,0.0,0.18640415370464325,-1.597245995198385,0.0,-0.0001289575593546033,0.5561390519142151,-0.0,0.001229775371029973,1.1711862087249756,0.0,0.025198837742209435
318.0,375.0,-5.482,-0.4828,8.2534,-0.0386,0.0243,-0.1104,-2.262343545953268,0.0,4.49077033996582,-1.5481171607971191,-0.0,1.6833691596984863,-0.44925721109423833,0.0,0.1981828212738037,-1.5972135702716272,0.0,0.00204550102353096,0.5560908317565918,-0.0,0.009726101532578468,1.1712462902069092,0.0,-0.005419876426458359
318.0,375.0,-5.482,-0.4828,8.2534,-0.0386,0.0243,-0.1104,-2.262419363061422,0.0,4.451404094696045,-1.548081398010254,-0.0,1.716881513595581,-0.44923289239916997,0.0,0.20075106620788574,-1.5972254912005823,0.0,-0.007997498847544193,0.5561551451683044,-0.0,0.006594454403966665,1.1712063550949097,0.0,-0.00250103697180748
318.0,375.0,-5.482,-0.4828,8.2534,-0.0386,0.0243,-0.1104,-2.262383123437399,0.0,4.459710597991943,-1.5480296611785889,-0.0,1.7181506156921387,-0.44919665277514653,0.0,0.1916922926902771,-1.5972297827350062,0.0,0.0017885940615087748,0.5561268925666809,-0.0,0.014223347418010235,1.1712021827697754,0.0,0.01779749058187008
318.0,375.0,-5.482,-0.4828,8.2534,-0.0386,0.0243,-0.1104,-2.262355466882223,0.0,4.446403503417969,-1.5481092929840088,-0.0,1.7455742359161377,-0.44921691835437016,0.0,0.20695242285728455,-1.5972016493426722,0.0,-0.005596474278718233,0.5561391115188599,-0.0,-0.0013984693214297295,1.1711981296539307,0.0,0.011253430508077145
318.0,375.0,-5.482,-0.4828,8.2534,-0.0386,0.0243,-0.1104,-2.262351175347799,0.0,4.481171131134033,-1.548081398010254,-0.0,1.7158716917037964,-0.4492369455150147,0.0,0.19576908648014069,-1.597217861806051,0.0,-0.01561262272298336,0.5561550855636597,-0.0,0.011824468150734901,1.1712021827697754,0.0,0.03484860062599182
318.0,375.0,-5.482,-0.4828,8.2534,-0.0386,0.0243,-0.1104,-2.2623592815794886,0.0,4.450606822967529,-1.5480934381484985,-0.0,1.7029118537902832,-0.44926126421008306,0.0,0.1953345239162445,-1.597290341054098,0.0,-0.014308556914329529,0.5561104416847229,-0.0,0.007041679695248604,1.1712219715118408,0.0,0.020536405965685844
318.0,375.0,-5.482,-0.4828,8.2534,-0.0386,0.0243,-0.1104,-2.262331625024313,0.0,4.453848361968994,-1.548057198524475,-0.0,1.751067042350769,-0.4492655557445069,0.0,0.1952907145023346,-1.5971735159503382,0.0,-0.0020689968951046467,0.5561672449111938,-0.0,0.00665051955729723,1.1711900234222412,0.0,0.01886831782758236
318.0,375.0,-5.482,-0.4828,8.2534,-0.0386,0.0243,-0.1104,-2.262351175347799,0.0,4.450837135314941,-1.5480530261993408,-0.0,1.6791369915008545,-0.4492204946330567,0.0,0.20882245898246765,-1.597217861806051,0.0,-0.006534304469823837,0.5561550855636597,-0.0,-0.0024218002799898386,1.1711862087249756,0.0,-0.030684011057019234
300.0,376.0,-5.4197,-0.4582,8.3444,-0.0396,0.0284,-0.1136,-2.2623592815794886,0.0,4.475268363952637,-1.5481091737747192,-0.0,1.6988753080368042,-0.44924529016528325,0.0,0.19683942198753357,-1.5972102324115198,0.0,-0.020270083099603653,0.5561710596084595,-0.0,0.0016497771721333265,1.1711658239364624,0.0,-0.02211320772767067
300.0,376.0,-5.4197,-0.4582,8.3444,-0.0396,0.0284,-0.1136,-2.262379308740133,0.0,4.4377946853637695,-1.5481013059616089,-0.0,1.7238566875457764,-0.44925768793139653,0.0,0.2058144509792328,-1.597262207661764,0.0,-0.01730073243379593,0.5560908317565918,-0.0,0.011722537688910961,1.1712300777435303,0.0,0.0158033836632967
300.0,376.0,-5.4197,-0.4582,8.3444,-0.0396,0.0284,-0.1136,-2.262327333489889,0.0,4.4486823081970215,-1.5480815172195435,-0.0,1.6561017036437988,-0.44923289239916997,0.0,0.1831236481666565,-1.5972579161273401,0.0,-0.0005154979880899191,0.5561108589172363,-0.0,0.01751008629798889,1.1712141036987305,0.0,0.042129773646593094
300.0,376.0,-5.4197,-0.4582,8.3444,-0.0396,0.0284,-0.1136,-2.262351175347799,0.0,4.449047565460205,-1.5480694770812988,-0.0,1.7591437101364136,-0.4492495816997071,0.0,0.19640663266181946,-1.597194019948141,0.0,-0.016556905582547188,0.5561550855636597,-0.0,0.0031141992658376694,1.1712100505828857,0.0,-0.006937387399375439
300.0,376.0,-5.4197,-0.4582,8.3444,-0.0396,0.0284,-0.1136,-2.2623592815794886,0.0,4.435117721557617,-1.5480451583862305,-0.0,1.73793363571167,-0.44920046747241216,0.0,0.19406086206436157,-1.597245995198385,0.0,0.005233688745647669,0.5560706853866577,-0.0,0.0006942803738638759,1.1712462902069092,0.0,-0.0011648871004581451
300.0,376.0,-5.4197,-0.4582,8.3444,-0.0396,0.0284,-0.1136,-2.2623235187926234,0.0,4.478240013122559,-1.5480893850326538,-0.0,1.7119758129119873,-0.44923289239916997,0.0,0.19663658738136292,-1.5972297827350062,0.0,-0.024336395785212517,0.5560543537139893,-0.0,-0.009524636901915073,1.1711781024932861,0.0,-0.031504757702350616
300.0,376.0,-5.4197,-0.4582,8.3444,-0.0396,0.0284,-0.1136,-2.262343545953268,0.0,4.45583438873291,-1.5480735301971436,-0.0,1.7281415462493896,-0.4492412370494385,0.0,0.19480827450752258,-1.5972297827350062,0.0,-0.004779960960149765,0.5561308860778809,-0.0,0.003909149207174778,1.1712063550949097,0.0,0.007039758376777172
300.0,376.0,-5.4197,-0.4582,8.3444,-0.0396,0.0284,-0.1136,-2.262407442132467,0.0,4.4636712074279785,-1.5480655431747437,-0.0,1.7237577438354492,-0.44921691835437016,0.0,0.19768056273460388,-1.5971935431109827,0.0,0.002026546746492386,0.5561550855636597,-0.0,0.0009571857517585158,1.1712019443511963,0.0,-0.03228620067238808
300.0,376.0,-5.4197,-0.4582,8.3444,-0.0396,0.0284,-0.1136,-2.262367387811178,0.0,4.479344367980957,-1.548073410987854,-0.0,1.705223798751831,-0.4492655557445069,0.0,0.19806914031505585,-1.5972135702716272,0.0,-0.004567330703139305,0.5561108589172363,-0.0,0.009222362190485,1.1712100505828857,0.0,0.007105142809450626
300.0,376.0,-5.4197,-0.4582,8.3444,-0.0396,0.0284,-0.1136,-2.2623630962767542,0.0,4.47004508972168,-1.5480172634124756,-0.0,1.6965909004211426,-0.4492655557445069,0.0,0.2000453770160675,-1.5972254912005823,0.0,0.003096960484981537,0.5561308860778809,-0.0,0.009854756295681,1.1711618900299072,0.0,0.037081681191921234
300.0,376.0,-5.4197,-0.4582,8.3444,-0.0396,0.0284,-0.1136,-2.262355466882223,0.0,4.404760837554932,-1.5480972528457642,-0.0,1.721410870552063,-0.4492495816997071,0.0,0.19447368383407593,-1.5972097555743616,0.0,0.0004623879212886095,0.5561554431915283,-0.0,0.0045435926876962185,1.1712100505828857,0.0,-0.04438304528594017
300.0,376.0,-5.4197,-0.4582,8.3444,-0.0396,0.0284,-0.1136,-2.2623869381346644,0.0,4.471057891845703,-1.5480376482009888,-0.0,1.6909327507019043,-0.4492815297893067,0.0,0.18915942311286926,-1.5971935431109827,0.0,-0.01113809458911419,0.5561227798461914,-0.0,0.00022092927247285843,1.1712181568145752,0.0,-0.023811111226677895
300.0,376.0,-5.4197,-0.4582,8.3444,-0.0396,0.0284,-0.1136,-2.2623750172057093,0.0,4.43109130859375,-1.5480735301971436,-0.0,1.726647138595581,-0.44925768793139653,0.0,0.2037644386291504,-1.5972335974322718,0.0,-0.00570574589073658,0.5560866594314575,-0.0,0.012684956192970276,1.1712464094161987,0.0,0.037596799433231354
300.0,376.0,-5.4197,-0.4582,8.3444,-0.0396,0.0284,-0.1136,-2.2623073063292445,0.0,4.438564777374268,-1.5480337142944336,-0.0,1.6649781465530396,-0.44926126421008306,0.0,0.20030486583709717,-1.5972297827350062,0.0,0.0016674804501235485,0.556171178817749,-0.0,-0.0005828263238072395,1.1711903810501099,0.0,0.004260800313204527
300.0,376.0,-5.4197,-0.4582,8.3444,-0.0396,0.0284,-0.1136,-2.262343545953268,0.0,4.463984966278076,-1.5480893850326538,-0.0,1.7006983757019043,-0.44926126421008306,0.0,0.18992257118225098,-1.597245995198385,0.0,-0.0089036263525486,0.5561551451683044,-0.0,0.016067277640104294,1.1712381839752197,0.0,0.03847867622971535
304.0,365.0,-5.4491,-0.399,8.199,-0.0357,0.0238,-0.1164,-2.2623354397215785,0.0,4.416557788848877,-1.548081398010254,-0.0,1.6589818000793457,-0.4492412370494385,0.0,0.18950210511684418,-1.5972583929644983,0.0,0.004426204599440098,0.556082546710968,-0.0,-0.007083268370479345,1.1712181568145752,0.0,0.045749880373477936
304.0,365.0,-5.4491,-0.399,8.199,-0.0357,0.0238,-0.1164,-2.2623869381346644,0.0,4.476241111755371,-1.5480655431747437,-0.0,1.6764521598815918,-0.4492492240718384,0.0,0.18410822749137878,-1.5972583929644983,0.0,0.012006556615233421,0.5561550855636597,-0.0,0.00505506107583642,1.1711496114730835,0.0,0.0025754598900675774
304.0,365.0,-5.4491,-0.399,8.199,-0.0357,0.0238,-0.1164,-2.262367387811178,0.0,4.4143147468566895,-1.5480972528457642,-0.0,1.6584259271621704,-0.4492245477489014,0.0,0.20883497595787048,-1.5972579161273401,0.0,-0.0006025842158123851,0.5561308860778809,-0.0,-0.004079739563167095,1.1712260246276855,0.0,-0.04642457515001297
304.0,365.0,-5.4491,-0.399,8.199,-0.0357,0.0238,-0.1164,-2.262351175347799,0.0,4.447157859802246,-1.5481171607971191,-0.0,1.6963045597076416,-0.44923289239916997,0.0,0.19679471850395203,-1.597217861806051,0.0,-0.012363042682409286,0.5561186671257019,-0.0,0.008321542292833328,1.1712181568145752,0.0,-0.045271050184965134
304.0,365.0,-5.4491,-0.399,8.199,-0.0357,0.0238,-0.1164,-2.2623473606505335,0.0,4.466575622558594,-1.5480655431747437,-0.0,1.7257944345474243,-0.44922860086474614,0.0,0.19991561770439148,-1.5972135702716272,0.0,-0.010517052374780178,0.5561227798461914,-0.0,0.0036200829781591892,1.1711981296539307,0.0,-0.00870661810040474
304.0,365.0,-5.4491,-0.399,8.199,-0.0357,0.0238,-0.1164,-2.2623912296690882,0.0,4.440667629241943,-1.5480575561523438,-0.0,1.705472707748413,-0.44926126421008306,0.0,0.19370107352733612,-1.5972135702716272,0.0,-0.006396688520908356,0.5561591386795044,-0.0,0.0008239373564720154,1.1712100505828857,0.0,0.029962629079818726
304.0,365.0,-5.4491,-0.399,8.199,-0.0357,0.0238,-0.1164,-2.262355466882223,0.0,4.418266296386719,-1.548113226890564,-0.0,1.6804440021514893,-0.4493134778789063,0.0,0.19136478006839752,-1.5972374121295374,0.0,-0.009806799702346325,0.5561105608940125,-0.0,0.010788941755890846,1.1711859703063965,0.0,0.014743175357580185
304.0,365.0,-5.4491,-0.399,8.199,-0.0357,0.0238,-0.1164,-2.262343545953268,0.0,4.4693708419799805,-1.5480490922927856,4.945036047310225e-10,1.696214199066162,-0.4492369455150147,0.0,0.19646897912025452,-1.5972664991961878,0.0,-0.0024142228066921234,0.5561631321907043,-0.0,-0.004193327389657497,1.171205997467041,0.0,-0.013579346239566803
304.0,365.0,-5.4491,-0.399,8.199,-0.0357,0.0238,-0.1164,-2.2623712025084437,0.0,4.502915382385254,-1.5480694770812988,1.1941679072254388e-15,1.7025381326675415,-0.44921691835437016,0.0,0.2098996937274933,-1.597245995198385,0.0,0.002304404741153121,0.5561869740486145,-0.0,0.00984086561948061,1.171217918395996,0.0,0.026260942220687866
304.0,365.0,-5.4491,-0.399,8.199,-0.0357,0.0238,-0.1164,-2.262351175347799,0.0,4.422638416290283,-1.5481092929840088,2.883774970281115e-21,1.7329015731811523,-0.44921262681994634,0.0,0.19875329732894897,-1.5972541014300745,0.0,-0.025591036304831505,0.5561268329620361,-0.0,0.0015674601309001446,1.1712383031845093,0.0,0.0228258166462183
304.0,365.0,-5.4491,-0.399,8.199,-0.0357,0.0238,-0.1164,-2.262327333489889,0.0,4.431890487670898,-1.5480293035507202,6.963977019257606e-27,1.6949297189712524,-0.4492815297893067,0.0,0.19920478761196136,-1.5972374121295374,0.0,-0.020042909309267998,0.5561268329620361,-0.0,0.006111445836722851,1.171262264251709,0.0,0.008860106579959393
304.0,365.0,-5.4491,-0.399,8.199,-0.0357,0.0238,-0.1164,-2.262395521203512,0.0,4.44622278213501,-1.5480893850326538,0.00012974266428500414,1.6697709560394287,-0.44932957113299565,8.986300485958054e-07,0.20445242524147034,-1.5971978346454065,0.0,0.002252229955047369,0.556106448173523,-0.0,-0.0005883955163881183,1.1711978912353516,0.0,0.032593052834272385
304.0,365.0,-5.4491,-0.399,8.199,-0.0357,0.0238,-0.1164,-2.2623592815794886,0.0,4.451554298400879,-1.548093318939209,0.00010667812603060156,1.7205171585083008,-0.4492778343013306,2.501369944507559e-10,0.20205111801624298,-1.5971978346454065,0.0,-0.012152137234807014,0.5561349391937256,-0.0,-0.00016067130491137505,1.171242356300354,1.6845887185201747e-10,-0.023858744651079178
304.0,365.0,-5.4491,-0.399,8.199,-0.0357,0.0238,-0.1164,-2.2623630962767542,0.0,4.481524467468262,-1.5480694770812988,9.057254646904767e-05,1.6857528686523438,-0.44922860086474614,6.962655549769964e-14,0.18390969932079315,-1.597262207661764,0.0,-0.0188997071236372,0.5561668872833252,-0.0,0.010115696117281914,1.1712464094161987,4.0680835169586507e-16,-0.01475439965724945
304.0,365.0,-5.4491,-0.399,8.199,-0.0357,0.0238,-0.1164,-2.2623592815794886,0.0,4.44699764251709,-1.548065423965454,7.869258843129501e-05,1.7087485790252686,-0.4492650789073487,1.938080701053171e-17,0.19346262514591217,-1.5972254912005823,0.0,0.005034308880567551,0.5561668872833252,-0.0,0.007174815982580185,1.171197772026062,9.823943094223193e-22,0.017120888456702232
309.0,363.0,-5.5113,-0.5055,8.2295,-0.0409,0.0254,-0.1122,-2.262351175347799,1.0189907015956123e-06,4.468542575836182,-1.5480934381484985,6.956786091905087e-05,1.6949326992034912,-0.4492371839335938,5.394718070396343e-21,0.19846901297569275,-1.59723407426943,0.0,-0.0015264139510691166,0.5561268925666809,-0.0,-9.473029058426619e-05,1.1712181568145752,2.3723664758790247e-27,0.019233476370573044
309.0,363.0,-5.5113,-0.5055,8.2295,-0.0409,0.0254,-0.1122,-2.262351175347799,1.8341474172789418e-10,4.457316875457764,-1.5481171607971191,6.457610288634896e-05,1.685384750366211,-0.4492412370494385,2.299852656146028e-23,0.1796022355556488,-1.597245995198385,0.0,-0.012280512601137161,0.5561189651489258,-0.0,-0.005749037489295006,1.1712141036987305,4.270176010435494e-31,0.007589725777506828
309.0,363.0,-5.5113,-0.5055,8.2295,-0.0409,0.0254,-0.1122,-2.2623912296690882,4.429249630640616e-16,4.47607946395874,-1.5480295419692993,5.830117152072489e-05,1.7008380889892578,-0.4492815297893067,6.4017237275951184e-27,0.1818552017211914,-1.597245995198385,0.0,-0.005154906772077084,0.5561145544052124,-0.0,0.0017322497442364693,1.171234130859375,1.0311973790685352e-36,0.0013221747940406203
309.0,363.0,-5.5113,-0.5055,8.2295,-0.0409,0.0254,-0.1122,-2.262419363061422,1.069611780845513e-21,4.464471340179443,-1.5480694770812988,5.313777000992559e-05,1.7030997276306152,-0.44930167615924077,1.7819435473154658e-30,0.1988145112991333,-1.5972135702716272,0.0,-0.00982457771897316,0.5562033653259277,-0.0,0.004600804764777422,1.1711978912353516,2.4901073711052e-42,-0.007679085247218609
309.0,363.0,-5.5113,-0.5055,8.2295,-0.0409,0.0254,-0.1122,-2.2624155483641566,2.582986174597213e-27,4.429323196411133,-1.5480775833129883,4.881446875515394e-05,1.7320152521133423,-0.44924505174670415,4.960104942470185e-34,0.19976410269737244,-1.5972817579852503,0.0,-0.0026929946616292,0.5561550259590149,-0.0,0.020153982564806938,1.1712019443511963,0.0,0.018574293702840805
309.0,363.0,-5.5113,-0.5055,8.2295,-0.0409,0.0254,-0.1122,-2.262383123437399,6.237607223688892e-33,4.428028106689453,-1.5480455160140991,4.514189640758559e-05,1.7045764923095703,-0.44927318513903813,1.3806632794508013e-37,0.19508276879787445,-1.597222153340475,0.0,-0.014125806279480457,0.5561026334762573,-0.0,0.0026201512664556503,1.1712260246276855,0.0,0.013822115026414394
309.0,363.0,-5.5113,-0.5055,8.2295,-0.0409,0.0254,-0.1122,-2.262355466882223,1.5063088285145438e-38,4.422008991241455,-1.5480694770812988,4.198318856651895e-05,1.6936993598937988,-0.4492975038341065,3.843061038410811e-41,0.20171071588993073,-1.5972254912005823,0.0,-0.0029360640328377485,0.5561468601226807,-0.0,0.013346299529075623,1.1712138652801514,0.0,-0.020399482920765877
309.0,363.0,-5.5113,-0.5055,8.2295,-0.0409,0.0254,-0.1122,-2.2623917065062464,3.6433760072445244e-44,4.453869819641113,-1.5480496883392334,5.882497862330638e-05,1.7088778018951416,-0.44928915918383794,1.1210387714598537e-44,0.19797301292419434,-1.5971773306476038,0.0,-0.0025056214071810246,0.5561671853065491,-0.0,-0.00029429185087792575,1.1712138652801514,0.0,0.0073758941143751144
309.0,363.0,-5.5113,-0.5055,8.2295,-0.0409,0.0254,-0.1122,-2.2624112568297328,0.0,4.441423416137695,-1.5480655431747437,5.524382504518144e-05,1.712912917137146,-0.4492696088603516,0.0,0.19567285478115082,-1.5972097555743616,0.0,-0.007919219322502613,0.5561509132385254,-0.0,0.004839482717216015,1.1712501049041748,2.708558668018668e-06,0.023060904815793037
309.0,363.0,-5.5113,-0.5055,8.2295,-0.0409,0.0254,-0.1122,-2.262379308740133,0.0,4.439009666442871,-1.548081398010254,5.204894478083588e-05,1.7301138639450073,-0.4492810529521485,0.0,0.20190927386283875,-1.5972941557513636,0.0,-0.012951640412211418,0.5561468601226807,-0.0,0.007381969131529331,1.1712260246276855,0.00012078916188329458,0.033358022570610046
309.0,363.0,-5.5113,-0.5055,8.2295,-0.0409,0.0254,-0.1122,-2.262379308740133,0.0,4.435537338256836,-1.5480735301971436,4.920343781122938e-05,1.6928600072860718,-0.4492650789073487,0.0,0.19148555397987366,-1.5972254912005823,0.0,-0.006567634642124176,0.556151270866394,-0.0,0.00820924248546362,1.17124605178833,0.00011178750719409436,0.024267323315143585
309.0,363.0,-5.5113,-0.5055,8.2295,-0.0409,0.0254,-0.1122,-2.262407442132467,0.0,4.473344326019287,-1.5480774641036987,6.219542410690337e-05,1.6989796161651611,-0.44921238840136724,0.0,0.20189830660820007,-1.5972655455218714,0.0,0.006025133188813925,0.556182861328125,-0.0,-0.003716804087162018,1.1712300777435303,0.0001040343995555304,0.008672202937304974
309.0,363.0,-5.5113,-0.5055,8.2295,-0.0409,0.0254,-0.1122,-2.2623473606505335,0.0,4.470412254333496,-1.548085331916809,3.667303462862037e-05,1.7288514375686646,-0.4492851060679932,0.0,0.2044738233089447,-1.597262207661764,0.0,-0.003792310133576393,0.556203305721283,-0.0,0.0005890800384804606,1.1712260246276855,9.728693112265319e-05,-0.027126867324113846
309.0,363.0,-5.5113,-0.5055,8.2295,-0.0409,0.0254,-0.1122,-2.262339254418844,0.0,4.4602580070495605,-1.5480530261993408,5.179229628993198e-05,1.6649879217147827,-0.4492691320231934,0.0,0.19751304388046265,-1.5972498098956507,0.0,-0.02486538514494896,0.5560826659202576,-0.0,-0.0021610793191939592,1.171234130859375,9.13614931050688e-05,-0.023847343400120735
309.0,363.0,-5.5113,-0.5055,8.2295,-0.0409,0.0254,-0.1122,-2.2623630962767542,0.0,4.415028095245361,-1.548033595085144,7.604342681588605e-05,1.6756508350372314,-0.449309305553772,0.0,0.1978096067905426,-1.5972541014300745,0.0,-0.0008413468021899462,0.5561468601226807,-0.0,0.002196764573454857,1.1712260246276855,6.890249642310664e-05,-0.0740073099732399
309.0,363.0,-5.5113,-0.5055,8.2295,-0.0409,0.0254,-0.1122,-2.2623473606505335,0.0,4.429523468017578,-1.5480974912643433,7.876652671257034e-05,1.67805814743042,-0.44919641435656743,0.0,0.19565114378929138,-1.5972135702716272,0.0,-0.0063087474554777145,0.5561391115188599,-0.0,0.009042073041200638,1.1712100505828857,5.54366888536606e-05,0.024944273754954338
305.0,372.0,-5.4814,-0.3769,8.3354,-0.038,0.0266,-0.1078,-2.2623354397215785,0.0,4.454583168029785,-1.5480570793151855,7.483779336325824e-05,1.7270610332489014,-0.4492289584926148,0.0,0.20016363263130188,-1.5972016493426722,0.0,-0.004090307280421257,0.5561304688453674,-0.0,0.006912782788276672,1.1711900234222412,4.715762406704016e-05,0.04538743942975998
305.0,372.0,-5.4814,-0.3769,8.3354,-0.038,0.0266,-0.1078,-2.2623712025084437,0.0,4.524504661560059,-1.5480775833129883,7.128145807655528e-05,1.7121583223342896,-0.44925721109423833,0.0,0.19244864583015442,-1.5972016493426722,0.0,-0.021299101412296295,0.5561026334762573,-0.0,0.007182859815657139,1.171234130859375,-6.917811697348952e-05,0.04427240788936615
305.0,372.0,-5.4814,-0.3769,8.3354,-0.038,0.0266,-0.1078,-2.2623912296690882,0.0,4.465497016906738,-1.5480694770812988,5.90874369663652e-05,1.680566668510437,-0.4492204946330567,0.0,0.20178347826004028,-1.5972541014300745,0.0,-0.0032967659644782543,0.5561026334762573,-0.0,-0.005998645909130573,1.1711862087249756,-0.00012420275015756488,0.009546893648803234
305.0,372.0,-5.4814,-0.3769,8.3354,-0.038,0.0266,-0.1078,-2.262383123437399,0.0,4.471653938293457,-1.5480138063430786,5.207586946198717e-05,1.7302145957946777,-0.4492045205882569,0.0,0.21290424466133118,-1.5971692244159144,0.0,-0.004889153875410557,0.5561349391937256,-0.0,0.006504807621240616,1.1712062358856201,-0.0005458372179418802,0.030807659029960632
305.0,372.0,-5.4814,-0.3769,8.3354,-0.038,0.0266,-0.1078,-2.2623592815794886,0.0,4.469414234161377,-1.5480650663375854,4.99099405715242e-05,1.689748764038086,-0.44927723825488286,0.0,0.19922466576099396,-1.5972016493426722,0.0,-0.015567868947982788,0.5561145544052124,-0.0,0.0064419228583574295,1.171194314956665,-0.0005992591031827033,0.015118733048439026
305.0,372.0,-5.4814,-0.3769,8.3354,-0.038,0.0266,-0.1078,-2.262331625024313,0.0,4.42773962020874,-1.5480295419692993,4.791704486706294e-05,1.6714718341827393,-0.4492810529521485,0.0,0.2056015133857727,-1.597217861806051,0.0,-0.018593091517686844,0.5561468601226807,-0.0,0.006414486560970545,1.1711384057998657,-0.0007840918842703104,0.007127942517399788
305.0,372.0,-5.4814,-0.3769,8.3354,-0.038,0.0266,-0.1078,-2.262351175347799,0.0,4.4514312744140625,-1.5480178594589233,4.607718801707961e-05,1.7257874011993408,-0.44922860086474614,0.0,0.20064377784729004,-1.5971773306476038,0.0,-0.011052661575376987,0.556178867816925,-0.0,0.01302412897348404,1.171154260635376,-0.0007599686505272985,0.01166465226560831
305.0,372.0,-5.4814,-0.3769,8.3354,-0.038,0.0266,-0.1078,-2.262343545953268,0.0,4.525289535522461,-1.547985315322876,5.5466651247115806e-05,1.6622713804244995,-0.44925721109423833,0.0,0.20324471592903137,-1.5971983114825647,0.0,-0.020288610830903053,0.5561386346817017,-0.0,0.0017188311321660876,1.1710704565048218,-0.0007745794137008488,-0.027235422283411026
305.0,372.0,-5.4814,-0.3769,8.3354,-0.038,0.0266,-0.1078,-2.2623077831664027,0.0,4.45456075668335,-1.5480417013168335,5.350449646357447e-05,1.715759515762329,-0.44926126421008306,0.0,0.21474769711494446,-1.597205940877096,0.0,-0.01536591351032257,0.5561665892601013,-0.0,0.012792902067303658,1.1711301803588867,-0.0007215797086246312,-0.025044996291399002
305.0,372.0,-5.4814,-0.3769,8.3354,-0.038,0.0266,-0.1078,-2.2622996769347132,0.0,4.493043422698975,-1.5479977130889893,0.00013619013770949095,1.6771173477172852,-0.44925721109423833,0.0,0.20547547936439514,-1.597189728413717,0.0,-0.013854645192623138,0.5561345219612122,-0.0,-0.0008693336276337504,1.1711583137512207,-0.0005550116766244173,-0.002136155031621456
305.0,372.0,-5.4814,-0.3769,8.3354,-0.038,0.0266,-0.1078,-2.262327333489889,0.0,4.465915203094482,-1.5480176210403442,0.00016192340990528464,1.7004982233047485,-0.4492970269969483,0.0,0.20442824065685272,-1.597161595021383,0.0,-0.016464833170175552,0.5561184883117676,-0.0,0.00327151152305305,1.171074390411377,-0.00038600421976298094,-0.013840450905263424
305.0,372.0,-5.4814,-0.3769,8.3354,-0.038,0.0266,-0.1078,-2.2623115978636683,0.0,4.48258113861084,-1.5479892492294312,0.0005934659275226295,1.7058422565460205,-0.44927723825488286,0.0,0.2071492075920105,-1.5971773306476038,0.0,-0.016565561294555664,0.556154727935791,-0.0,0.00012639537453651428,1.171126365661621,-0.00036806828575208783,-0.025138232856988907
305.0,372.0,-5.4814,-0.3769,8.3354,-0.038,0.0266,-0.1078,-2.2622834644713343,0.0,4.49538516998291,-1.5480332374572754,0.000603723106905818,1.6823288202285767,-0.4493015569499512,0.0,0.21630018949508667,-1.597194019948141,0.0,-0.02914462611079216,0.5561308860778809,-0.0,-0.003637334331870079,1.1711266040802002,-0.0003564970684237778,-0.02393541857600212
305.0,372.0,-5.4814,-0.3769,8.3354,-0.038,0.0266,-0.1078,-2.2623473606505335,0.0,4.461710453033447,-1.5479735136032104,0.0006974911666475236,1.6971629858016968,-0.4492449325374146,0.0,0.21071352064609528,-1.597177807484762,0.0,-0.023238319903612137,0.5562230348587036,-0.0,0.014714653603732586,1.1711664199829102,-0.00032045060652308166,-0.07182572782039642
305.0,372.0,-5.4814,-0.3769,8.3354,-0.038,0.0266,-0.1078,-2.2623197040953578,0.0,4.500920295715332,-1.5480293035507202,0.0006667223642580211,1.6799999475479126,-0.4492412370494385,0.0,0.21874430775642395,-1.5971773306476038,0.0,-0.026096966117620468,0.5562107563018799,-0.0,0.018563637509942055,1.171126365661621,-0.0003177320759277791,-0.05291031301021576
321.0,369.0,-5.4873,-0.5486,8.0213,-0.0388,0.0313,-0.1185,-2.262351175347799,0.0,4.423901557922363,-1.5480258464813232,0.000611183000728488,1.7519285678863525,-0.4492691320231934,0.0,0.217914879322052,-1.59723407426943,0.0,-0.022068725898861885,0.5561992526054382,-0.0,0.011111747473478317,1.171114206314087,-0.00028058988391421735,0.007847915403544903
321.0,369.0,-5.4873,-0.5486,8.0213,-0.0388,0.0313,-0.1185,-2.2622996769347132,0.0,4.515917778015137,-1.5479896068572998,0.0006917024729773402,1.765909194946289,-0.44925721109423833,0.0,0.2170797884464264,-1.597189728413717,0.0,-0.03281484916806221,0.5561707019805908,-0.0,0.015186281874775887,1.1711182594299316,-0.00025121821090579033,-0.03338737040758133
321.0,369.0,-5.4873,-0.5486,8.0213,-0.0388,0.0313,-0.1185,-2.262327333489889,0.0,4.518443584442139,-1.5480178594589233,0.001666144235059619,1.7104847431182861,-0.44927318513903813,0.0,0.2155737280845642,-1.597222153340475,0.0,-0.026300957426428795,0.5561381578445435,-0.0,0.005178549326956272,1.1710824966430664,-0.00020425893308129162,-0.03493406996130943
321.0,369.0,-5.4873,-0.5486,8.0213,-0.0388,0.0313,-0.1185,-2.2622953854002894,0.0,4.53998327255249,-1.5479696989059448,0.003708824049681425,1.734785556793213,-0.4492655557445069,0.0,0.20792600512504578,-1.5972102324115198,0.0,-0.021257534623146057,0.5561665296554565,-0.0,0.010959739796817303,1.1711184978485107,-0.00017977686366066337,-0.05662678927183151
321.0,369.0,-5.4873,-0.5486,8.0213,-0.0388,0.0313,-0.1185,-2.2623235187926234,0.0,4.5159196853637695,-1.5478683710098267,0.006098165176808834,1.7529093027114868,-0.4492691320231934,0.0,0.21257808804512024,-1.597194019948141,0.0,-0.03499073162674904,0.5561665296554565,-0.0,0.017400095239281654,1.17118239402771,-0.000128581901662983,-0.056318141520023346
321.0,369.0,-5.4873,-0.5486,8.0213,-0.0388,0.0313,-0.1185,-2.2623077831664027,0.0,4.473237991333008,-1.5478814840316772,0.008381699211895466,1.7623227834701538,-0.4492810529521485,0.0,0.21072877943515778,-1.597194019948141,0.0,-0.022451097145676613,0.5561304688453674,-0.0,0.008466007187962532,1.171142339706421,-0.00011601195728871971,-0.12044224143028259
321.0,369.0,-5.4873,-0.5486,8.0213,-0.0388,0.0313,-0.1185,-2.262339254418844,0.0,4.467088222503662,-1.547865390777588,0.008488002233207226,1.7513437271118164,-0.4492449325374146,0.0,0.2136656939983368,-1.597205940877096,0.0,-0.02198803797364235,0.5562107563018799,-0.0,0.01752317324280739,1.1711223125457764,-0.00010578487126622349,-0.0838812068104744
321.0,369.0,-5.4873,-0.5486,8.0213,-0.0388,0.0313,-0.1185,-2.262303491631979,0.0,4.4919819831848145,-1.5478016138076782,0.008764837868511677,1.7591438293457031,-0.44927723825488286,0.0,0.22260868549346924,-1.597161595021383,0.0,-0.006776200607419014,0.5561345219612122,-0.0,0.0029827395919710398,1.171114206314087,-9.721497190184891e-05,-0.09056692570447922
321.0,369.0,-5.4873,-0.5486,8.0213,-0.0388,0.0313,-0.1185,-2.2623354397215785,0.0,4.526931285858154,-1.547729730606079,0.008928807452321053,1.7450754642486572,-0.44927318513903813,0.0,0.2150724083185196,-1.5972102324115198,0.0,-0.02958490140736103,0.5561505556106567,-0.0,0.019948294386267662,1.1711223125457764,-4.3298663513269275e-05,-0.05401087552309036
321.0,369.0,-5.4873,-0.5486,8.0213,-0.0388,0.0313,-0.1185,-2.262327333489889,9.601893543731421e-05,4.439268112182617,-1.5476617813110352,0.009765145368874073,1.7971206903457642,-0.4492815297893067,0.0,0.20552662014961243,-1.5972140471087855,0.0,-0.016416290774941444,0.5561665296554565,-0.0,0.018163498491048813,1.1711702346801758,-3.781827035709284e-05,-0.07957632839679718
321.0,369.0,-5.4873,-0.5486,8.0213,-0.0388,0.0313,-0.1185,-2.2622953854002894,0.0001082203962141648,4.472522735595703,-1.54762601852417,0.010742009617388248,1.7688238620758057,-0.4492495816997071,0.0,0.1975535899400711,-1.5971534887896937,0.0,-0.026863910257816315,0.5562071204185486,-0.0,0.005905951373279095,1.171126365661621,-3.3584394259378314e-05,-0.1139775738120079
321.0,369.0,-5.4873,-0.5486,8.0213,-0.0388,0.0313,-0.1185,-2.2623750172057093,0.00010412815026938915,4.4939165115356445,-1.5476229190826416,0.011957932263612747,1.7859039306640625,-0.4492163223079224,0.0,0.2146105170249939,-1.5971983114825647,0.0,-0.02555830031633377,0.556150496006012,-0.0,0.020306605845689774,1.1711103916168213,-3.1251915061147884e-05,-0.0887538343667984
321.0,369.0,-5.4873,-0.5486,8.0213,-0.0388,0.0313,-0.1185,-2.2623197040953578,9.843394218478352e-05,4.478792667388916,-1.5475389957427979,0.012585035525262356,1.7952625751495361,-0.44926126421008306,0.0,0.21494725346565247,-1.5971816221820276,0.0,-0.028942329809069633,0.5561788082122803,-0.0,-0.0010615522041916847,1.171166181564331,-2.8303391445660964e-05,-0.12203986942768097
321.0,369.0,-5.4873,-0.5486,8.0213,-0.0388,0.0313,-0.1185,-2.262331625024313,9.333017078461125e-05,4.490720272064209,-1.5474265813827515,0.013107809238135815,1.730518102645874,-0.44928892076525884,0.0,0.2112548053264618,-1.597194019948141,0.0,-0.019295470789074898,0.5562030076980591,-0.0,0.016152460128068924,1.1711783409118652,-2.5863248083624057e-05,-0.09298780560493469
321.0,369.0,-5.4873,-0.5486,8.0213,-0.0388,0.0313,-0.1185,-2.2622910938658656,8.87295973370783e-05,4.498637676239014,-1.5473628044128418,0.01369374431669712,1.8372669219970703,-0.4492768806270142,0.0,0.21275797486305237,-1.5971978346454065,0.0,-0.018792765215039253,0.5561468601226807,-0.0,0.016082704067230225,1.1711103916168213,-2.3810538550605997e-05,-0.10836439579725266
305.0,358.0,-5.4993,-0.4678,8.1619,-0.0423,0.0377,-0.1185,-2.262339254418844,8.45612958073616e-05,4.485692977905273,-1.5472861528396606,0.013017872348427773,1.7613756656646729,-0.4492650789073487,0.0,0.21858444809913635,-1.5971816221820276,0.0,-0.022741202265024185,0.5562189817428589,-0.0,0.012096235528588295,1.1711182594299316,-4.410713154356927e-05,-0.1163862869143486
305.0,358.0,-5.4993,-0.4678,8.1619,-0.0423,0.0377,-0.1185,-2.262294908563131,8.962944411905482e-05,4.484983444213867,-1.547179102897644,0.012965657748281956,1.7395687103271484,-0.44926054895434575,0.0,0.2080274224281311,-1.597189728413717,0.0,-0.018958454951643944,0.5562030673027039,-0.0,0.012124291621148586,1.1711344718933105,-8.216158312279731e-05,-0.11259603500366211
305.0,358.0,-5.4993,-0.4678,8.1619,-0.0423,0.0377,-0.1185,-2.262367387811178,9.018176206154749e-05,4.485447883605957,-1.5470792055130005,0.012725605629384518,1.8004088401794434,-0.449301080112793,0.0,0.2105051875114441,-1.5971773306476038,0.0,-0.02939831279218197,0.556178867816925,-0.0,0.013089975342154503,1.1710824966430664,-0.0002239174209535122,-0.11243162304162979
305.0,358.0,-5.4993,-0.4678,8.1619,-0.0423,0.0377,-0.1185,-2.2623115978636683,9.881448931992054e-05,4.484099388122559,-1.5470315217971802,0.011528346687555313,1.7460726499557495,-0.4493327897838135,0.0,0.22081853449344635,-1.5971816221820276,0.0,-0.02807597629725933,0.5561828017234802,-0.0,0.008881516754627228,1.1711225509643555,-0.0009390115737915039,-0.1041862964630127
305.0,358.0,-5.4993,-0.4678,8.1619,-0.0423,0.0377,-0.1185,-2.2622953854002894,0.00014498046948574483,4.5050506591796875,-1.5470317602157593,0.010447606444358826,1.8033967018127441,-0.44930894792590337,0.0,0.22643478214740753,-1.5971735159503382,0.0,-0.02693570777773857,0.5561227202415466,-0.0,0.015241118147969246,1.17111074924469,-0.0013380454620346427,-0.14513540267944336
305.0,358.0,-5.4993,-0.4678,8.1619,-0.0423,0.0377,-0.1185,-2.2622791729369105,0.00015935562259983271,4.4817962646484375,-1.5469235181808472,0.009108304046094418,1.8147056102752686,-0.44929666936907964,0.0,0.21460092067718506,-1.5972102324115198,0.0,-0.01632959023118019,0.556154727935791,-0.0,0.011513076722621918,1.1710947751998901,-0.001456417259760201,-0.13601945340633392
305.0,358.0,-5.4993,-0.4678,8.1619,-0.0423,0.0377,-0.1185,-2.262315889398092,0.0001704720634734258,4.512170314788818,-1.5468910932540894,0.0078117214143276215,1.8188085556030273,-0.44933684289965825,0.0,0.21977373957633972,-1.5972102324115198,0.0,-0.01403049472719431,0.556154727935791,-0.0,0.014817441813647747,1.1710582971572876,-0.0015612348215654492,-0.11591209471225739
305.0,358.0,-5.4993,-0.4678,8.1619,-0.0423,0.0377,-0.1185,-2.2622910938658656,0.00015796057414263487,4.506707191467285,-1.5468313694000244,0.006242113653570414,1.7737761735916138,-0.44930894792590337,0.0,0.21443840861320496,-1.5971773306476038,0.0,-0.010562715120613575,0.556191086769104,-0.0,0.020892275497317314,1.1710587739944458,-0.002425319515168667,-0.1383986622095108
305.0,358.0,-5.4993,-0.4678,8.1619,-0.0423,0.0377,-0.1185,-2.2623197040953578,0.000167896956554614,4.516352653503418,-1.5467714071273804,0.00513529172167182,1.7452863454818726,-0.449312762623169,0.0,0.2070668786764145,-1.5971859137164515,0.0,-0.00874408707022667,0.5561870336532593,-0.0,0.009235452860593796,1.1710264682769775,-0.0036189877428114414,-0.17089709639549255
305.0,358.0,-5.4993,-0.4678,8.1619,-0.0423,0.0377,-0.1185,-2.262259622613424,0.00015691966109443456,4.494555473327637,-1.5467795133590698,0.004415564239025116,1.8044257164001465,-0.4493168157390137,0.0,0.21876615285873413,-1.597161595021383,0.0,-0.02070361003279686,0.5561665296554565,-0.0,0.010829937644302845,1.170994520187378,-0.004264316987246275,-0.17237314581871033
305.0,358.0,-5.4993,-0.4678,8.1619,-0.0423,0.0377,-0.1185,-2.262332101861471,0.00025132086011581123,4.569675445556641,-1.5467514991760254,0.00430902699008584,1.7999653816223145,-0.44926877439532475,0.0,0.21479541063308716,-1.5971816221820276,0.0,-0.013437782414257526,0.5561951398849487,-0.0,0.020255498588085175,1.170994520187378,-0.004310837481170893,-0.10835642367601395
305.0,358.0,-5.4993,-0.4678,8.1619,-0.0423,0.0377,-0.1185,-2.262299200097555,0.00021529935474973172,4.496628761291504,-1.5466996431350708,0.003861939301714301,1.7952868938446045,-0.4492848676494141,0.0,0.21860626339912415,-1.597189728413717,0.0002449418243486434,-0.010540381073951721,0.5561587810516357,-0.0,0.018088307231664658,1.1709747314453125,-0.004930704366415739,-0.15323355793952942
305.0,358.0,-5.4993,-0.4678,8.1619,-0.0423,0.0377,-0.1185,-2.2623077831664027,0.0001506815169705078,4.449219226837158,-1.546679973602295,0.00421361718326807,1.8221118450164795,-0.44928820550952153,0.0,0.21933194994926453,-1.5971458593951624,0.00027056282851845026,-0.012848494574427605,0.5561464428901672,-0.0,0.018511110916733742,1.1709465980529785,-0.0041297245770692825,-0.176075741648674
305.0,358.0,-5.4993,-0.4678,8.1619,-0.0423,0.0377,-0.1185,-2.2623473606505335,0.0001338213769486174,4.511239528656006,-1.54673171043396,0.003465481335297227,1.785717248916626,-0.4492641252330323,0.0,0.21259689331054688,-1.5971577803241175,0.0007500065839849412,-0.01039772480726242,0.5561907291412354,-0.0,0.012172911316156387,1.170926809310913,-0.004748919978737831,-0.2208940088748932
305.0,358.0,-5.4993,-0.4678,8.1619,-0.0423,0.0377,-0.1185,-2.2623473606505335,0.00012039492867188528,4.524003028869629,-1.5466880798339844,0.003388212062418461,1.8146758079528809,-0.44936616838488774,0.0,0.21587449312210083,-1.5971339384662073,0.0007370660896413028,-0.014816045761108398,0.5562025308609009,-0.0,0.023082083091139793,1.1708667278289795,-0.0052754245698452,-0.2198544442653656
305.0,358.0,-5.4993,-0.4678,8.1619,-0.0423,0.0377,-0.1185,-2.2623197040953578,0.00010941697837552056,4.491675853729248,-1.5466641187667847,0.003038047580048442,1.7860119342803955,-0.4493578237346192,-9.486186900176108e-05,0.2190275490283966,-1.5971620718585413,0.0006784752476960421,0.00044176564551889896,0.5561988949775696,-0.0,-0.0032430579885840416,1.1708190441131592,-0.006466234102845192,-0.2577216625213623
304.0,367.0,-5.5023,-0.5725,8.1033,-0.0423,0.0327,-0.1219,-2.2623077831664027,0.00010027369717136025,4.511828899383545,-1.5466079711914062,0.0025023340713232756,1.847550868988037,-0.44934947908435063,-0.00015622169303242117,0.21514762938022614,-1.5971501509295862,0.0005983017035759985,-0.002497629728168249,0.5562030076980591,-0.0,0.005768652074038982,1.1708190441131592,-0.00720577547326684,-0.21119144558906555
304.0,367.0,-5.5023,-0.5725,8.1033,-0.0423,0.0327,-0.1219,-2.2623197040953578,6.940567982383072e-05,4.5386271476745605,-1.5466722249984741,0.0018488552886992693,1.803711175918579,-0.4493327897838135,-0.0001697700790828094,0.2287115752696991,-1.5971458593951624,0.0004822768969461322,-0.011212721467018127,0.5562190413475037,-0.0,0.008962652646005154,1.1707632541656494,-0.007300405763089657,-0.2656230330467224
304.0,367.0,-5.5023,-0.5725,8.1033,-0.0423,0.0327,-0.1219,-2.262315412560934,6.443644815590233e-05,4.518592834472656,-1.5466161966323853,0.0015752380713820457,1.8184207677841187,-0.4493940633586426,-0.00015516449639108032,0.2227986454963684,-1.5971339384662073,0.00041238480480387807,0.0026024840772151947,0.5562067627906799,-0.0,0.015346510335803032,1.170727252960205,-0.007838361896574497,-0.29859399795532227
304.0,367.0,-5.5023,-0.5725,8.1033,-0.0423,0.0327,-0.1219,-2.262355466882223,6.0131322243250906e-05,4.503281116485596,-1.5466158390045166,0.0013080360367894173,1.8596138954162598,-0.4493327897838135,-0.000142850010888651,0.20890136063098907,-1.5971458593951624,0.000401966564822942,0.013496003113687038,0.5561584234237671,-0.0,0.010815680027008057,1.1706912517547607,-0.007495810277760029,-0.19758513569831848
304.0,367.0,-5.5023,-0.5725,8.1033,-0.0423,0.0327,-0.1219,-2.2623235187926234,5.636540299747139e-05,4.462858200073242,-1.5465960502624512,0.0012322445400059223,1.7763420343399048,-0.4493287366679688,-0.00015435338718816638,0.22218844294548035,-1.5971177260028284,0.00038709150976501405,-0.0005860731471329927,0.5562272667884827,-0.0,0.019226618111133575,1.1706515550613403,-0.007024878170341253,-0.2254464328289032
304.0,367.0,-5.5023,-0.5725,8.1033,-0.0423,0.0327,-0.1219,-2.262339254418844,5.304338992573321e-05,4.52564001083374,-1.5465960502624512,0.0015037015546113253,1.8467756509780884,-0.449373797779419,-0.0001438282197341323,0.21534910798072815,-1.5971339384662073,0.00033458942198194563,0.019978996366262436,0.5561463832855225,-0.0,0.025554481893777847,1.170619249343872,-0.0063628084026277065,-0.2156015932559967
304.0,367.0,-5.5023,-0.5725,8.1033,-0.0423,0.0327,-0.1219,-2.262315412560934,5.0091242883354425e-05,4.533766746520996,-1.5465881824493408,0.0022060240153223276,1.804404854774475,-0.44933684289965825,-0.0001346085628028959,0.21904346346855164,-1.5971463362323206,0.00031083563226275146,0.0038986969739198685,0.5561664700508118,-0.0,0.017482804134488106,1.1705715656280518,-0.006514180917292833,-0.24670127034187317
304.0,367.0,-5.5023,-0.5725,8.1033,-0.0423,0.0327,-0.1219,-2.2622872791686,4.7450266720261425e-05,4.543373107910156,-1.5465681552886963,0.002783302217721939,1.8231971263885498,-0.44938548028979497,-0.00012649976997636259,0.2152160108089447,-1.5971301237689417,0.0003085086354985833,0.0037564614322036505,0.5561825037002563,-0.0,0.011195244267582893,1.1705236434936523,-0.006824286188930273,-0.2646339535713196
304.0,367.0,-5.5023,-0.5725,8.1033,-0.0423,0.0327,-0.1219,-2.2622953854002894,4.583914051181637e-05,4.5350117683410645,-1.546563744544983,0.0030684382654726505,1.8337105512619019,-0.4493287366679688,-0.00013840167957823724,0.2151593565940857,-1.5971220175372522,0.0002772478328552097,0.009020233526825905,0.5561501383781433,-0.0,0.02989615686237812,1.1705117225646973,-0.007163237780332565,-0.2981794476509094
304.0,367.0,-5.5023,-0.5725,8.1033,-0.0423,0.0327,-0.1219,-2.2623115978636683,4.3617645133053884e-05,4.525932788848877,-1.5465483665466309,0.00381544791162014,1.8317549228668213,-0.44933684289965825,-0.0001313806278631091,0.2199098765850067,-1.5971539656268519,0.00026981087285093963,0.006629803217947483,0.5562312006950378,-0.0,0.023693684488534927,1.1704838275909424,-0.008377214893698692,-0.2698395550251007
304.0,367.0,-5.5023,-0.5725,8.1033,-0.0423,0.0327,-0.1219,-2.262355466882223,4.160147364018485e-05,4.532172203063965,-1.5464677810668945,0.004809224978089333,1.8198449611663818,-0.44935722768817143,-0.00012456186232157052,0.21461647748947144,-1.5971339384662073,0.0002472639607731253,0.0036121858283877373,0.556275486946106,-0.0,0.012372158467769623,1.170407772064209,-0.0087659303098917,-0.22806653380393982
304.0,367.0,-5.5023,-0.5725,8.1033,-0.0423,0.0327,-0.1219,-2.2623077831664027,5.283752761897631e-05,4.516904830932617,-1.546492338180542,0.005808871705085039,1.8388419151306152,-0.44934125364337163,-0.00011841593368444592,0.21236291527748108,-1.5971053282367151,0.0002212153049185872,0.006120776757597923,0.5561624765396118,-0.0,0.017345674335956573,1.170367956161499,-0.009124523028731346,-0.2575816512107849
304.0,367.0,-5.5023,-0.5725,8.1033,-0.0423,0.0327,-0.1219,-2.262351175347799,5.077472815173678e-05,4.490299224853516,-1.5465008020401,0.007028534077107906,1.8649318218231201,-0.4493861955455323,-0.00011284807987976819,0.21625199913978577,-1.5971296469317835,0.0002001308894250542,-1.9476749002933502e-05,0.5562107563018799,-0.0,0.017655018717050552,1.1703284978866577,-0.00899380724877119,-0.26011085510253906
304.0,367.0,-5.5023,-0.5725,8.1033,-0.0423,0.0327,-0.1219,-2.262315412560934,4.8713562136981636e-05,4.537242889404297,-1.5463680028915405,0.008644087240099907,1.8093194961547852,-0.44934530675921636,-0.00010778017167467624,0.2061772346496582,-1.5971177260028284,0.0001827161613618955,-0.0036703527439385653,0.556255042552948,-0.0,0.020986564457416534,1.1702322959899902,-0.009308315813541412,-0.29897964000701904
304.0,367.0,-5.5023,-0.5725,8.1033,-0.0423,0.0327,-0.1219,-2.2623235187926234,4.681322752730921e-05,4.496856689453125,-1.5463323593139648,0.011337143369019032,1.867038369178772,-0.4493855994990845,-0.00010314797691535205,0.20849095284938812,-1.5971177260028284,0.00016809000226203352,-0.0072405580431222916,0.5561907291412354,-0.0,0.020792169496417046,1.170196533203125,-0.010098690167069435,-0.2220287024974823
315.0,374.0,-5.3916,-0.4977,8.3641,-0.0348,0.0228,-0.1242,-2.2623197040953578,4.50556144642178e-05,4.541659355163574,-1.546212077140808,0.012765815481543541,1.8329219818115234,-0.4493327897838135,-9.889756620395929e-05,0.20970702171325684,-1.5971053282367151,0.00015563200577162206,-0.00819290243089199,0.5562312006950378,-0.0,0.021794907748699188,1.1701123714447021,-0.011046793311834335,-0.23244725167751312
315.0,374.0,-5.3916,-0.4977,8.3641,-0.0348,0.0228,-0.1242,-2.262271066705221,4.342518514022231e-05,4.535173416137695,-1.5462167263031006,0.014416823163628578,1.8698511123657227,-0.44934947908435063,-9.498354484094307e-05,0.20465189218521118,-1.5971420446978968,0.00014489333261735737,0.004202148877084255,0.5561583638191223,-0.0,0.024155307561159134,1.1700246334075928,-0.0125571945682168,-0.2286485731601715
315.0,374.0,-5.3916,-0.4977,8.3641,-0.0348,0.0228,-0.1242,-2.2622953854002894,4.1908650018740445e-05,4.533477783203125,-1.5461055040359497,0.015223021619021893,1.8890317678451538,-0.4493933481029053,-8.519675611751154e-05,0.20226095616817474,-1.5971139113055628,0.0001355410786345601,-0.009687929414212704,0.5562312006950378,-0.0,0.03570466861128807,1.1699609756469727,-0.013807653449475765,-0.25345659255981445
315.0,374.0,-5.3916,-0.4977,8.3641,-0.0348,0.0228,-0.1242,-2.2623592815794886,4.0494443965144455e-05,4.599494934082031,-1.5460209846496582,0.016932088881731033,1.916027307510376,-0.4493411344340821,-0.00010814397683134302,0.1976710557937622,-1.5971539656268519,0.00012732284085359424,-0.00600382499396801,0.5561784505844116,-0.0,0.024748241528868675,1.1698848009109497,-0.016084205359220505,-0.18367302417755127
315.0,374.0,-5.3916,-0.4977,8.3641,-0.0348,0.0228,-0.1242,-2.2623197040953578,1.813288434959759e-07,4.564029693603516,-1.5458645820617676,0.020017364993691444,1.9318523406982422,-0.4493933481029053,-0.00012174898438388482,0.2041952759027481,-1.5971501509295862,0.00012004437303403392,-0.01633802056312561,0.5561907291412354,-0.0,0.018691640347242355,1.1697734594345093,-0.017114557325839996,-0.20878130197525024
315.0,374.0,-5.3916,-0.4977,8.3641,-0.0348,0.0228,-0.1242,-2.262294908563131,1.1952009117521811e-05,4.563955783843994,-1.5457295179367065,0.024841690436005592,1.9120253324508667,-0.4494015735438843,-0.0004514454922173172,0.2053532898426056,-1.5971339384662073,0.00011355302558513358,-0.014531106688082218,0.5561460256576538,-0.0,0.030755862593650818,1.1696852445602417,-0.018505532294511795,-0.1919863522052765
315.0,374.0,-5.3916,-0.4977,8.3641,-0.0348,0.0228,-0.1242,-2.262327333489889,1.1130179700558074e-05,4.521537780761719,-1.5456656217575073,0.027881495654582977,1.880946397781372,-0.4493810695460816,-0.00037661439273506403,0.19691374897956848,-1.5971053282367151,0.00010960199870169163,-0.016056153923273087,0.5561984777450562,-0.0,0.011962217278778553,1.1696213483810425,-0.018803516402840614,-0.18216972053050995
315.0,374.0,-5.3916,-0.4977,8.3641,-0.0348,0.0228,-0.1242,-2.262331625024313,1.073193288902985e-05,4.536463737487793,-1.5454293489456177,0.03544919937849045,1.9593760967254639,-0.4494012159160157,-0.00036110662040300667,0.20272967219352722,-1.5971339384662073,0.00010416538862045854,-0.010737248696386814,0.5562514066696167,-0.0,0.025918850675225258,1.1695220470428467,-0.020599035546183586,-0.20508435368537903
315.0,374.0,-5.3916,-0.4977,8.3641,-0.0348,0.0228,-0.1242,-2.262315412560934,1.0361286513216328e-05,4.543427467346191,-1.5452747344970703,0.04232873022556305,1.9270451068878174,-0.4493728441051026,-0.0003942878101952374,0.2010318487882614,-1.5971177260028284,9.924269397743046e-05,-0.0035221707075834274,0.5561788082122803,-0.0,0.03037046268582344,1.1693578958511353,-0.02213076874613762,-0.16687315702438354
315.0,374.0,-5.3916,-0.4977,8.3641,-0.0348,0.0228,-0.1242,-2.262327333489889,1.0015385669248644e-05,4.572709083557129,-1.544942855834961,0.05080479383468628,1.9770259857177734,-0.4494012159160157,-0.00034068769309669733,0.20651885867118835,-1.5971458593951624,9.476417471887544e-05,-0.007429386023432016,0.5562751889228821,-0.0,0.02593141421675682,1.1692183017730713,-0.023559942841529846,-0.18769878149032593
315.0,374.0,-5.3916,-0.4977,8.3641,-0.0348,0.0228,-0.1242,-2.262331625024313,6.084537318429284e-10,4.635914325714111,-1.5445796251296997,0.05998917296528816,1.9709837436676025,-0.4494214814952393,-0.0003321937401778996,0.20437905192375183,-1.5971859137164515,9.067253267858177e-05,-0.013098204508423805,0.5562190413475037,-0.0,0.010546177625656128,1.169094443321228,-0.02505231462419033,-0.14713256061077118
315.0,374.0,-5.3916,-0.4977,8.3641,-0.0348,0.0228,-0.1242,-2.262355466882223,1.4693442419537722e-15,4.533151149749756,-1.5442315340042114,0.07006054371595383,2.0418834686279297,-0.4494052690318604,-0.0003275713534094393,0.19919943809509277,-1.5971258322345179,4.4541895476868376e-05,-0.015246579423546791,0.5562230348587036,-0.0,0.015286887995898724,1.16889488697052,-0.0263122096657753,-0.15349623560905457
315.0,374.0,-5.3916,-0.4977,8.3641,-0.0348,0.0228,-0.1242,-2.262343545953268,3.548293423432431e-21,4.570505619049072,-1.543727159500122,0.08079905807971954,2.01590633392334,-0.4494088453105469,-0.00032516923965886235,0.1851995885372162,-1.597165886555807,2.8441329050110653e-05,-0.012297973036766052,0.5562270879745483,2.141735455651883e-09,0.029111839830875397,1.1687589883804321,-0.02735692635178566,-0.12073994427919388
315.0,374.0,-5.3916,-0.4977,8.3641,-0.0348,0.0228,-0.1242,-2.2623235187926234,8.568712693471583e-27,4.572582721710205,-1.543256402015686,0.0887652114033699,2.0227367877960205,-0.4494699996760865,-0.0003966597723774612,0.1847507357597351,-1.597177807484762,2.7150435926159844e-05,-0.022315308451652527,0.556174635887146,5.961599486639657e-13,0.027540605515241623,1.168575644493103,-0.027178797870874405,-0.15795975923538208
315.0,374.0,-5.3916,-0.4977,8.3641,-0.0348,0.0228,-0.1242,-2.2623197040953578,2.069243276903612e-32,4.588467597961426,-1.5426937341690063,0.09737789630889893,2.058347702026367,-0.44944150865588384,-0.0003496337740216404,0.19009631872177124,-1.5971339384662073,2.5975037715397775e-05,-0.03178896754980087,0.5561944246292114,1.6594333642733325e-16,0.016100579872727394,1.168440341949463,-0.02628433145582676,-0.10930562019348145
315.0,374.0,-5.3916,-0.4977,8.3641,-0.0348,0.0228,-0.1242,-2.2623354397215785,4.996979316518196e-38,4.571911811828613,-1.5421068668365479,0.10496565699577332,2.0804271697998047,-0.4493888181499024,-0.00034131042775698006,0.20109912753105164,-1.5971501509295862,2.4897202820284292e-05,-0.03170816972851753,0.5562271475791931,4.619094155239454e-20,0.03585377335548401,1.1682523488998413,-0.025145571678876877,-0.10021081566810608
310.0,354.0,-5.6351,-0.2536,8.3569,-0.0315,0.0739,-0.1385,-2.2622953854002894,1.2051166793193427e-43,4.582472324371338,-1.5414328575134277,0.10710864514112473,2.0841026306152344,-0.44941313684497075,-0.0003342463169246912,0.18922431766986847,-1.5971620718585413,1.351198079646565e-05,-0.023507487028837204,0.5562270879745483,1.2857417491117473e-23,0.03603748604655266,1.1681289672851562,-0.02385578490793705,-0.0670471340417862
310.0,354.0,-5.6351,-0.2536,8.3569,-0.0315,0.0739,-0.1385,-2.262315412560934,0.0,4.575774192810059,-1.540750503540039,0.11096975207328796,2.041703224182129,-0.44941313684497075,-0.000301889143884182,0.19768187403678894,-1.5971296469317835,1.1495086255308706e-05,-0.031266145408153534,0.5561787486076355,3.578909778522124e-27,0.03244515508413315,1.1679729223251343,-0.023224538192152977,-0.013610069639980793
310.0,354.0,-5.6351,-0.2536,8.3569,-0.0315,0.0739,-0.1385,-2.262291570703024,0.000843131507281214,4.565523147583008,-1.5401220321655273,0.1219007819890976,2.0457403659820557,-0.4494334024241944,-0.00030158876325003803,0.2036570906639099,-1.59709340730776,1.1070484106312506e-05,-0.02733822725713253,0.5562267303466797,9.962026862201805e-31,0.033610619604587555,1.1678617000579834,-0.023365432396531105,-0.03545273840427399
310.0,354.0,-5.6351,-0.2536,8.3569,-0.0315,0.0739,-0.1385,-2.2623073063292445,0.0021502450108528137,4.615041732788086,-1.5393366813659668,0.12972497940063477,2.0753796100616455,-0.44944997251544194,-0.0003418715496081859,0.1960276961326599,-1.5971620718585413,1.0676504643925e-05,-0.0417969673871994,0.5561984777450562,2.7729668371832944e-34,0.02811180055141449,1.1677098274230957,-0.02221592888236046,0.019905701279640198
310.0,354.0,-5.6351,-0.2536,8.3569,-0.0315,0.0739,-0.1385,-2.2622553310790003,0.001951183076016605,4.6301069259643555,-1.53883957862854,0.1375129073858261,2.1156060695648193,-0.4494778674891968,-0.0006498410948552191,0.1763373166322708,-1.597177807484762,1.0429070243844762e-05,-0.04196985065937042,0.5561907291412354,1.1821592402094723e-36,0.03707093372941017,1.1675938367843628,-0.022017495706677437,0.012668173760175705
310.0,354.0,-5.6351,-0.2536,8.3569,-0.0315,0.0739,-0.1385,-2.2622715435423792,0.0012131583644077182,4.568456649780273,-1.5379756689071655,0.14986266195774078,2.131864070892334,-0.4495011133006592,-0.003284820821136236,0.1865750402212143,-1.5971296469317835,1.0078700142912567e-05,-0.03419466316699982,0.5562591552734375,3.2905851058661084e-40,0.02315516397356987,1.167418122291565,-0.022246897220611572,0.01508372463285923
310.0,354.0,-5.6351,-0.2536,8.3569,-0.0315,0.0739,-0.1385,-2.262275358239645,0.00029199456912465394,4.567427158355713,-1.5370668172836304,0.16168034076690674,2.1346848011016846,-0.4495693010142823,-0.010739555582404137,0.1841990202665329,-1.5971534887896937,8.382491500924516e-08,-0.02591409906744957,0.5562710165977478,9.10844001811131e-44,0.03711947798728943,1.1673548221588135,-0.022524895146489143,0.037442974746227264
310.0,354.0,-5.6351,-0.2536,8.3569,-0.0315,0.0739,-0.1385,-2.2622515163817347,0.00019633135525509715,4.572661399841309,-1.5360718965530396,0.16627418994903564,2.119619607925415,-0.44961364686999516,-0.01713806390762329,0.18087138235569,-1.5971420446978968,2.3332976176182463e-11,-0.027984946966171265,0.5562148690223694,0.0,0.02888556569814682,1.1671746969223022,-0.02492348663508892,-0.01511309016495943
310.0,354.0,-5.6351,-0.2536,8.3569,-0.0315,0.0739,-0.1385,-2.2622791729369105,0.00014790977002121508,4.573285102844238,-1.5350290536880493,0.16835257411003113,2.151090145111084,-0.4497295182994385,-0.014203342609107494,0.1863173097372055,-1.5971334616290491,6.494819517133743e-15,-0.029930543154478073,0.5561870336532593,0.0,0.04160601645708084,1.1670111417770386,-0.02781900018453598,0.016763364896178246
310.0,354.0,-5.6351,-0.2536,8.3569,-0.0315,0.0739,-0.1385,-2.2622233829894007,0.00011865250417031348,4.591599464416504,-1.534042239189148,0.17787012457847595,2.1808290481567383,-0.44978924215350347,-0.009537979029119015,0.18455126881599426,-1.5971339384662073,1.807856995474458e-18,-0.03381712734699249,0.5562230348587036,0.0,0.03252077102661133,1.1668639183044434,-0.02922338806092739,0.009692449122667313
310.0,354.0,-5.6351,-0.2536,8.3569,-0.0315,0.0739,-0.1385,-2.2622395954527796,0.00014858003123663366,4.566948890686035,-1.5328823328018188,0.18597427010536194,2.11191463470459,-0.4498132032207032,-0.005189844872802496,0.179996520280838,-1.5971415678607386,5.032236358229543e-22,-0.023883137851953506,0.5562188625335693,0.0,0.03069169446825981,1.1666878461837769,-0.028974726796150208,-0.01518078614026308
310.0,354.0,-5.6351,-0.2536,8.3569,-0.0315,0.0739,-0.1385,-2.262271066705221,0.0001275319082196802,4.597743511199951,-1.5317867994308472,0.19752205908298492,2.215529203414917,-0.44987721860919194,-0.0026850204449146986,0.18251322209835052,-1.5971296469317835,1.4007413593937554e-25,-0.0386892594397068,0.5562230348587036,0.0,0.04057534039020538,1.1665525436401367,-0.02565505914390087,0.022854261100292206
310.0,354.0,-5.6351,-0.2536,8.3569,-0.0315,0.0739,-0.1385,-2.2622953854002894,-4.420351251610555e-05,4.561257362365723,-1.5305017232894897,0.2046671211719513,2.156970977783203,-0.4498818677714844,-0.001525676460005343,0.1739819347858429,-1.5971739927874964,3.899015380683132e-29,-0.043499819934368134,0.5562188625335693,0.0,0.033648159354925156,1.1663527488708496,-0.020305529236793518,-0.002044346183538437
310.0,354.0,-5.6351,-0.2536,8.3569,-0.0315,0.0739,-0.1385,-2.262315889398092,-7.705461757723242e-05,4.5885443687438965,-1.529194951057434,0.2100062072277069,2.2127246856689453,-0.4498978418162842,-0.0015570488758385181,0.1858874261379242,-1.5971859137164515,1.0853052079710198e-32,-0.042538855224847794,0.5562148690223694,0.0,0.03600107133388519,1.1662890911102295,-0.016103969886898994,0.09583961963653564
310.0,354.0,-5.6351,-0.2536,8.3569,-0.0315,0.0739,-0.1385,-2.2623077831664027,-6.828484038123861e-05,4.579920291900635,-1.5279158353805542,0.21805140376091003,2.2660741806030273,-0.4498897355845948,-0.0033496725372970104,0.17803719639778137,-1.5971453825580042,3.02098711949944e-36,-0.04658620432019234,0.5561624765396118,0.0,0.040386348962783813,1.1661732196807861,-0.012538464739918709,0.07558801770210266
299.0,332.0,-5.9174,-0.801,8.4556,-0.0571,0.201,-0.1419,-2.2623073063292445,-9.153504652203992e-05,4.5766215324401855,-1.5265618562698364,0.22790051996707916,2.2785468101501465,-0.4499374193004151,-0.004844881594181061,0.1779332160949707,-1.597121540700094,8.409023928597508e-40,-0.04649578407406807,0.5562267303466797,0.0,0.041472114622592926,1.1661016941070557,-0.010289701633155346,0.13566958904266357
299.0,332.0,-5.9174,-0.801,8.4556,-0.0571,0.201,-0.1419,-2.2623030147948207,-8.343535591848195e-05,4.6703925132751465,-1.5251585245132446,0.23411975800991058,2.2614967823028564,-0.4500294488719483,-0.006338338367640972,0.17071926593780518,-1.5971177260028284,2.3401684354224445e-43,-0.052504438906908035,0.5562390685081482,0.0,0.0348777174949646,1.166041612625122,-0.007488815113902092,0.13320758938789368
299.0,332.0,-5.9174,-0.801,8.4556,-0.0571,0.201,-0.1419,-2.262315412560934,-0.00024721931549720466,4.583433151245117,-1.5236942768096924,0.23993603885173798,2.2810490131378174,-0.4500658077052613,-0.008200127631425858,0.16082675755023956,-1.5971501509295862,0.0,-0.03415830433368683,0.5562106966972351,0.0,0.0346762016415596,1.166033387184143,-0.0041939876973629,0.1255604475736618
299.0,332.0,-5.9174,-0.801,8.4556,-0.0571,0.201,-0.1419,-2.2622953854002894,-0.00027156068244948983,4.609858989715576,-1.5227223634719849,0.2438523769378662,2.2530860900878906,-0.4501745265773316,-0.009241754189133644,0.15182839334011078,-1.597165886555807,0.0,-0.046510279178619385,0.5562230348587036,0.0,0.036577291786670685,1.1660538911819458,-0.0021910856012254953,0.10867822170257568
299.0,332.0,-5.9174,-0.801,8.4556,-0.0571,0.201,-0.1419,-2.262367387811178,-0.00023736855655442923,4.6318488121032715,-1.5212595462799072,0.2553170323371887,2.3028337955474854,-0.45017393053088384,-0.010766098275780678,0.16273397207260132,-1.5971701780902308,0.0,-0.0448969304561615,0.5562430620193481,0.0,0.03086205944418907,1.166041612625122,-0.0013165032723918557,0.1250763237476349
299.0,332.0,-5.9174,-0.801,8.4556,-0.0571,0.201,-0.1419,-2.2623235187926234,-0.0002097118558594957,4.567181587219238,-1.519737958908081,0.2592300474643707,2.29335618019104,-0.4502294820598145,-0.011516328901052475,0.1606367528438568,-1.5971534887896937,0.0,-0.04486122727394104,0.5561824440956116,0.0,0.028254441916942596,1.1660056114196777,-0.0007461681379936635,0.19044743478298187
299.0,332.0,-5.9174,-0.801,8.4556,-0.0571,0.201,-0.1419,-2.262299200097555,-0.0001565290440339595,4.607339859008789,-1.518136739730835,0.2718028724193573,2.304292678833008,-0.45032163084063725,-0.011760374531149864,0.15046343207359314,-1.5971534887896937,0.0,-0.04619941860437393,0.5562190413475037,0.0,0.040093351155519485,1.166041612625122,-3.1371950171887875e-05,0.15150471031665802
299.0,332.0,-5.9174,-0.801,8.4556,-0.0571,0.201,-0.1419,-2.2622505627074183,-0.000170033352333121,4.6277899742126465,-1.5164974927902222,0.2839973270893097,2.3674368858337402,-0.45037348688159184,-0.012550653889775276,0.15648169815540314,-1.5972021261798304,0.0,-0.042575351893901825,0.5562230348587036,0.0,0.025456488132476807,1.166041612625122,-7.575957916561293e-11,0.15074647963047028
299.0,332.0,-5.9174,-0.801,8.4556,-0.0571,0.201,-0.1419,-2.2623754940428675,-0.00018025204190053046,4.632839202880859,-1.5147589445114136,0.28884953260421753,2.3479013442993164,-0.4505259555629273,-0.012484081089496613,0.16405466198921204,-1.597165886555807,0.0,-0.053006358444690704,0.5562390089035034,0.0,0.03449481725692749,1.166029691696167,-1.8295046098899912e-16,0.12208912521600723
299.0,332.0,-5.9174,-0.801,8.4556,-0.0571,0.201,-0.1419,-2.2623473606505335,-0.0002866285212803632,4.653453350067139,-1.5130035877227783,0.3017743229866028,2.3764729499816895,-0.4505295318416138,-0.013908718712627888,0.15278077125549316,-1.5971577803241175,0.0,-0.05037328973412514,0.5561984777450562,0.0,0.024993913248181343,1.1661057472229004,0.0012136654695495963,0.19142213463783264
299.0,332.0,-5.9174,-0.801,8.4556,-0.0571,0.201,-0.1419,-2.2624036274352015,-0.0013521000510081649,4.6339335441589355,-1.5112088918685913,0.3105693757534027,2.3858535289764404,-0.4506376546672364,-0.016228146851062775,0.1531282663345337,-1.5971577803241175,0.0,-0.06052575260400772,0.5561824440956116,0.0,0.01999906450510025,1.1660332679748535,0.0015841091517359018,0.2100793570280075
299.0,332.0,-5.9174,-0.801,8.4556,-0.0571,0.201,-0.1419,-2.262379308740133,-0.001580718089826405,4.654102325439453,-1.5093295574188232,0.3119283616542816,2.3928327560424805,-0.45083434999499516,-0.01981385424733162,0.14549443125724792,-1.597177807484762,0.0,-0.049331873655319214,0.5562230348587036,0.0,0.04048802703619003,1.1660935878753662,0.0012683712411671877,0.21827983856201172
299.0,332.0,-5.9174,-0.801,8.4556,-0.0571,0.201,-0.1419,-2.262351175347799,-0.001573549467138946,4.6282172203063965,-1.5074667930603027,0.3249688446521759,2.395622968673706,-0.450958327656128,-0.02558315545320511,0.15390321612358093,-1.5971620718585413,0.0,-0.06823515892028809,0.5562390685081482,0.0,0.021509351208806038,1.166089653968811,0.0015305280685424805,0.1983805000782013
299.0,332.0,-5.9174,-0.801,8.4556,-0.0571,0.201,-0.1419,-2.2623874149718226,-0.000616003293544054,4.653350830078125,-1.5055084228515625,0.337796688079834,2.484154462814331,-0.4511827987483521,-0.03605084866285324,0.14149273931980133,-1.597137753163473,0.0,-0.05672609806060791,0.5562067031860352,0.0,0.022432666271924973,1.166109561920166,0.0015577999874949455,0.25985056161880493
299.0,332.0,-5.9174,-0.801,8.4556,-0.0571,0.201,-0.1419,-2.2624031505980433,-0.00013352757378015667,4.619842529296875,-1.5034809112548828,0.3355693221092224,2.4599454402923584,-0.451410250072815,-0.0538424514234066,0.11574245244264603,-1.5971139113055628,0.0,-0.05869091674685478,0.556166410446167,0.0,0.023366810753941536,1.1661375761032104,0.0013684931909665465,0.2076180875301361
283.0,298.0,-5.799,-0.3984,8.1051,-0.0732,0.2941,-0.1184,-2.262411733666891,-0.00018467499467078596,4.637967109680176,-1.5013501644134521,0.34740346670150757,2.4796109199523926,-0.45186300695452886,-0.08840689063072205,0.11330726742744446,-1.597137753163473,0.0,-0.048430539667606354,0.5562030076980591,0.0,0.02907603234052658,1.1661653518676758,0.0030899369157850742,0.282131552696228
283.0,298.0,-5.799,-0.3984,8.1051,-0.0732,0.2941,-0.1184,-2.2623750172057093,-0.00014121037384029478,4.628511428833008,-1.4993197917938232,0.3523936867713928,2.442692279815674,-0.45252736032519536,-0.12868459522724152,0.09940744936466217,-1.5971501509295862,0.0,-0.055204592645168304,0.5561665296554565,0.0,0.020228678360581398,1.1661375761032104,0.003753580152988434,0.29379144310951233
283.0,298.0,-5.799,-0.3984,8.1051,-0.0732,0.2941,-0.1184,-2.2624274692931117,-0.00012205468374304473,4.618509769439697,-1.4978523254394531,0.35197505354881287,2.422199249267578,-0.45308037221942143,-0.14540638029575348,0.07647307217121124,-1.5971339384662073,0.0,-0.06922398507595062,0.5561665296554565,0.0,0.02513544075191021,1.1661934852600098,0.0030888747423887253,0.28852489590644836
283.0,298.0,-5.799,-0.3984,8.1051,-0.0732,0.2941,-0.1184,-2.262407442132467,-0.00015212991274893284,4.6720685958862305,-1.495620846748352,0.35883671045303345,2.4586901664733887,-0.45412524164233403,-0.15878920257091522,0.07560187578201294,-1.5971420446978968,0.0,-0.046440064907073975,0.5562148690223694,0.0,0.017402688041329384,1.1661813259124756,0.0025080516934394836,0.2806747853755951
283.0,298.0,-5.799,-0.3984,8.1051,-0.0732,0.2941,-0.1184,-2.2623874149718226,-0.00013013127318117768,4.627828121185303,-1.4935232400894165,0.36498263478279114,2.46589994430542,-0.4551617664149781,-0.17336802184581757,0.06993688642978668,-1.5971296469317835,0.0,-0.05084039270877838,0.556162416934967,0.0,0.029941057786345482,1.1662132740020752,0.0020398893393576145,0.2614533305168152
283.0,298.0,-5.799,-0.3984,8.1051,-0.0732,0.2941,-0.1184,-2.262383123437399,-0.00011369136336725205,4.668402671813965,-1.491215467453003,0.3668762147426605,2.5282175540924072,-0.45634277284655766,-0.21353432536125183,0.05295779928565025,-1.5971339384662073,0.0,-0.04877633973956108,0.5561583638191223,0.0,0.014841253869235516,1.1661609411239624,0.001524824183434248,0.297126442193985
283.0,298.0,-5.799,-0.3984,8.1051,-0.0732,0.2941,-0.1184,-2.2624393902220667,-0.00019728115876205266,4.691370964050293,-1.4890896081924438,0.37084320187568665,2.500603675842285,-0.45780332506213384,-0.24631908535957336,0.03612726181745529,-1.597165886555807,0.0,-0.05237656086683273,0.5561665296554565,0.0,0.016764584928750992,1.1662211418151855,0.0011591303627938032,0.3092128336429596
283.0,298.0,-5.799,-0.3984,8.1051,-0.0732,0.2941,-0.1184,-2.262451311151022,-0.00021709364955313504,4.620022296905518,-1.4868346452713013,0.3811180889606476,2.526146173477173,-0.4593765300563355,-0.2868441939353943,0.005892735440284014,-1.5971415678607386,0.0,-0.05089006572961807,0.5562030076980591,0.0,0.025171484798192978,1.1662449836730957,0.001499695354141295,0.2560477554798126
283.0,298.0,-5.799,-0.3984,8.1051,-0.0732,0.2941,-0.1184,-2.262451311151022,-0.00019372921087779105,4.6876959800720215,-1.4845069646835327,0.3849826753139496,2.5641326904296875,-0.46126587808642583,-0.3212697207927704,-0.0012299757217988372,-1.5971139113055628,0.0,-0.049362532794475555,0.5562191009521484,0.0,0.015469210222363472,1.1662492752075195,0.0009677482303231955,0.2603129744529724
283.0,298.0,-5.799,-0.3984,8.1051,-0.0732,0.2941,-0.1184,-2.2624598942198695,-0.0002297565370099619,4.653367042541504,-1.4822055101394653,0.3858245313167572,2.527683734893799,-0.4632348579219361,-0.3543219566345215,-0.022352419793605804,-1.5971182028399866,0.0,-0.04329276829957962,0.5561665296554565,0.0,0.009112648665904999,1.1662170886993408,0.0006622788496315479,0.26336967945098877
283.0,298.0,-5.799,-0.3984,8.1051,-0.0732,0.2941,-0.1184,-2.2624269924559535,-0.0005774098681285977,4.696688652038574,-1.479893684387207,0.3979066014289856,2.54732084274292,-0.46542520940814214,-0.37993311882019043,-0.035929981619119644,-1.5971058050738733,0.0,-0.050951261073350906,0.5561788082122803,0.0,0.0033732133451849222,1.166192889213562,0.000504621712025255,0.26241737604141235
283.0,298.0,-5.799,-0.3984,8.1051,-0.0732,0.2941,-0.1184,-2.262475153008932,-0.00195779069326818,4.619313716888428,-1.477471113204956,0.3930628299713135,2.5099799633026123,-0.46790190160784917,-0.4321545958518982,-0.05130507051944733,-1.5971053282367151,0.0,-0.03548533469438553,0.5561907291412354,0.0,0.013640480116009712,1.1662251949310303,2.9568491299869493e-06,0.23061883449554443
283.0,298.0,-5.799,-0.3984,8.1051,-0.0732,0.2941,-0.1184,-2.262479444543356,-0.0026777097955346107,4.63417911529541,-1.4750958681106567,0.40269115567207336,2.5160746574401855,-0.4706401389888306,-0.4731433093547821,-0.06782714277505875,-1.59709340730776,0.0,-0.045415472239255905,0.5562353134155273,0.0,0.023920830339193344,1.1661932468414307,7.140444052006201e-12,0.236683189868927
283.0,298.0,-5.799,-0.3984,8.1051,-0.0732,0.2941,-0.1184,-2.262487073937887,-0.002717306138947606,4.68104887008667,-1.4727421998977661,0.4029393196105957,2.5397181510925293,-0.47360296667132573,-0.5124701857566833,-0.09619125723838806,-1.5971420446978968,3.4079537726938725e-05,-0.03353506699204445,0.5561341643333435,0.0,0.018910454586148262,1.1662333011627197,1.724333094866406e-17,0.212826207280159
283.0,298.0,-5.799,-0.3984,8.1051,-0.0732,0.2941,-0.1184,-2.2624908886351527,-0.0021501255687326193,4.612639427185059,-1.470279335975647,0.4019295573234558,2.5104196071624756,-0.47681529939685063,-0.5464088320732117,-0.09615032374858856,-1.5970733801471155,4.8083085857797414e-05,-0.024968497455120087,0.5562148690223694,0.0,0.015391655266284943,1.1661852598190308,4.1640616105491834e-23,0.1501850187778473
283.0,298.0,-5.799,-0.3984,8.1051,-0.0732,0.2941,-0.1184,-2.262527128259176,-0.0026104196440428495,4.6402764320373535,-1.4686205387115479,0.40400227904319763,2.5220818519592285,-0.4790143531611939,-0.5716490149497986,-0.09322109818458557,-1.5971053282367151,4.693725713877939e-05,-0.030276887118816376,0.5562190413475037,0.0,0.01592339016497135,1.166201114654541,7.495162364615205e-27,0.13834577798843384
268.0,266.0,-7.3723,-0.4337,8.01,-0.0319,0.1145,-0.1303,-2.262543340722555,-0.005056412890553474,4.615915298461914,-1.4662340879440308,0.399588018655777,2.516235113143921,-0.48277004182849126,-0.6103178858757019,-0.09222497045993805,-1.5970776716815394,5.753880395786837e-05,-0.02661401778459549,0.556178867816925,0.0,0.0018931665690615773,1.1661651134490967,1.809993581427923e-32,0.15652397274971008
268.0,266.0,-7.3723,-0.4337,8.01,-0.0319,0.1145,-0.1303,-2.26255526165151,-0.004867403768002987,4.607512950897217,-1.4637376070022583,0.39962631464004517,2.534137725830078,-0.48653169096026616,-0.6370360255241394,-0.09046103060245514,-1.5971220175372522,5.6673772633075714e-05,-0.008958939462900162,0.5562151670455933,0.0,0.005208468064665794,1.1662132740020752,-0.0005316525348462164,0.11075409501791
268.0,266.0,-7.3723,-0.4337,8.01,-0.0319,0.1145,-0.1303,-2.262599607507223,-0.002575951162725687,4.61715030670166,-1.46138334274292,0.4002056419849396,2.483633041381836,-0.490546779041626,-0.6694810390472412,-0.09126491844654083,-1.5970657507525843,6.764403224224225e-05,-0.011136457324028015,0.5561465620994568,0.0,0.016172656789422035,1.1661851406097412,-0.0009647325496189296,0.09951524436473846
268.0,266.0,-7.3723,-0.4337,8.01,-0.0319,0.1145,-0.1303,-2.2626072369017542,-0.0012924086768180132,4.6114325523376465,-1.4588871002197266,0.39951908588409424,2.5108871459960938,-0.49461455762896733,-0.6954070925712585,-0.09351588785648346,-1.5971139113055628,0.00023882249661255628,0.005005338229238987,0.5562030076980591,0.0,0.010648461990058422,1.1661570072174072,-0.0010193254565820098,0.04977022111415863
268.0,266.0,-7.3723,-0.4337,8.01,-0.0319,0.1145,-0.1303,-2.2626072369017542,-0.0010019001783803105,4.656495571136475,-1.4564894437789917,0.3994368612766266,2.495802164077759,-0.4987035554698487,-0.7117795944213867,-0.0820164605975151,-1.5971058050738733,0.00028785073664039373,-0.011906093917787075,0.5561747550964355,0.0,0.003982806112617254,1.1662333011627197,-0.0010189750464633107,0.050063446164131165
268.0,266.0,-7.3723,-0.4337,8.01,-0.0319,0.1145,-0.1303,-2.262684007684225,-0.0007873856229707599,4.616681098937988,-1.4542025327682495,0.4025349020957947,2.4909591674804688,-0.5030749601176758,-0.7301788330078125,-0.07093989849090576,-1.5970857779132288,0.00029026775155216455,-0.0062890383414924145,0.5561707019805908,0.0,0.0029780215118080378,1.1661972999572754,-0.00095325120491907,0.01899051107466221
268.0,266.0,-7.3723,-0.4337,8.01,-0.0319,0.1145,-0.1303,-2.262611528436178,-0.0007671595667488873,4.631026268005371,-1.4517062902450562,0.3955472409725189,2.4680392742156982,-0.5074142974666138,-0.7361735701560974,-0.07528200000524521,-1.5970938841449183,0.0004776415880769491,0.0017036322969943285,0.5561947226524353,0.0,-0.0004735146649181843,1.1661732196807861,-0.0011131776263937354,0.007895881310105324
268.0,266.0,-7.3723,-0.4337,8.01,-0.0319,0.1145,-0.1303,-2.2626310787596644,-0.0014038097579032183,4.592154502868652,-1.4493896961212158,0.40022727847099304,2.533545970916748,-0.5118964475444336,-0.7488386034965515,-0.05818978697061539,-1.5970938841449183,0.00042302918154746294,-0.008968832902610302,0.5561707615852356,0.0,-0.0022789989598095417,1.1662455797195435,-0.0012862511212006211,-0.03829959034919739
268.0,266.0,-7.3723,-0.4337,8.01,-0.0319,0.1145,-0.1303,-2.262691637078756,-0.0025344577152282,4.658475875854492,-1.44700026512146,0.3930525481700897,2.486361265182495,-0.5164781373790284,-0.7513822317123413,-0.05288776010274887,-1.5970857779132288,0.00042760741780512035,0.006821067072451115,0.5561144948005676,0.0,0.015428619459271431,1.1661572456359863,-0.0011128856567665935,-0.023563362658023834
268.0,266.0,-7.3723,-0.4337,8.01,-0.0319,0.1145,-0.1303,-2.26271977047109,-0.004725688602775335,4.567615509033203,-1.4446711540222168,0.39274492859840393,2.4339823722839355,-0.5209202331355591,-0.7504718899726868,-0.055045634508132935,-1.5970619360553187,0.000541937246453017,0.017558928579092026,0.5561748147010803,0.0,0.01032984908670187,1.1662174463272095,-0.0012487034546211362,-0.11642704904079437
268.0,266.0,-7.3723,-0.4337,8.01,-0.0319,0.1145,-0.1303,-2.262731214562887,-0.005228232592344284,4.625243663787842,-1.4423511028289795,0.3924393355846405,2.4900708198547363,-0.525442437534668,-0.7492289543151855,-0.05147729068994522,-1.5970781485186976,0.0008693630225025117,0.011593535542488098,0.5561186075210571,0.0,0.008406735956668854,1.1661572456359863,-0.001110489247366786,-0.058271653950214386
268.0,266.0,-7.3723,-0.4337,8.01,-0.0319,0.1145,-0.1303,-2.262755056420797,-0.00587020069360733,4.611143589019775,-1.4400404691696167,0.3851110637187958,2.399775266647339,-0.5297891658595582,-0.7443358302116394,-0.0513131357729435,-1.5971019903766077,0.0008319340413436294,0.016141925007104874,0.556178867816925,0.0,0.006547525059431791,1.1661491394042969,-0.0015657771145924926,-0.10565823316574097
268.0,266.0,-7.3723,-0.4337,8.01,-0.0319,0.1145,-0.1303,-2.2628356419005335,-0.008204558864235878,4.614590167999268,-1.4376484155654907,0.38294562697410583,2.4077916145324707,-0.5342400831035157,-0.7263160943984985,-0.027503034099936485,-1.5970457235919397,0.0008589010103605688,0.021354271098971367,0.5561748147010803,0.0,0.005591774359345436,1.1661531925201416,-0.001767179579474032,-0.0988016352057457
268.0,266.0,-7.3723,-0.4337,8.01,-0.0319,0.1145,-0.1303,-2.2629038296141566,-0.009017455391585827,4.6011552810668945,-1.436166763305664,0.3759586215019226,2.367091178894043,-0.5371168416789551,-0.7223371863365173,-0.03202548995614052,-1.5970295111285608,0.0007963397656567395,0.010179026052355766,0.5561267733573914,0.0,-0.0008040573447942734,1.1661691665649414,-0.0016637048684060574,-0.20253345370292664
268.0,266.0,-7.3723,-0.4337,8.01,-0.0319,0.1145,-0.1303,-2.262911459008688,-0.009300264529883862,4.598958969116211,-1.4338710308074951,0.3694175183773041,2.417827606201172,-0.5412617486766358,-0.7017327547073364,-0.03238460421562195,-1.5970619360553187,0.000749103375710547,0.012753954157233238,0.5561513304710388,0.0,0.005345586687326431,1.1661171913146973,-0.0015979434829205275,-0.1878841072320938
244.0,241.0,-5.8923,-0.3559,8.2911,0.0399,-0.3474,-0.1037,-2.2629672489561976,-0.006910918280482292,4.590208053588867,-1.4316316843032837,0.3642469346523285,2.364405632019043,-0.5453792375377198,-0.6845712065696716,-0.02648196369409561,-1.5970419088946741,0.000703624275047332,0.013034109026193619,0.5560747981071472,0.0,0.006727251689881086,1.1660854816436768,-0.0019033948192372918,-0.17853638529777527
244.0,241.0,-5.8923,-0.3559,8.2911,0.0399,-0.3474,-0.1037,-2.262991567651266,-0.004185524303466082,4.6251068115234375,-1.4294931888580322,0.3590579330921173,2.3871052265167236,-0.5493927758983155,-0.6661292314529419,-0.025798678398132324,-1.5970218817340296,0.0005634916014969349,0.03429818153381348,0.5561550855636597,0.0,-0.000899903941899538,1.1660935878753662,-0.0019490382401272655,-0.20929881930351257
244.0,241.0,-5.8923,-0.3559,8.2911,0.0399,-0.3474,-0.1037,-2.2629910908141078,-0.0035306657664477825,4.601048469543457,-1.4273351430892944,0.352533221244812,2.40187406539917,-0.5533628028682251,-0.6440793871879578,-0.02025715634226799,-1.597074333821432,0.0005154929240234196,0.025192998349666595,0.5561349987983704,0.0,0.015260026790201664,1.1661136150360107,-0.0017163947923108935,-0.21946817636489868
244.0,241.0,-5.8923,-0.3559,8.2911,0.0399,-0.3474,-0.1037,-2.263059755364889,-0.00432472163811326,4.679384231567383,-1.4253201484680176,0.3450924754142761,2.388457775115967,-0.5570401710322876,-0.6207156777381897,-0.022842824459075928,-1.597058121358053,0.00048361445078626275,0.024667665362358093,0.5561550855636597,0.0,0.012780711986124516,1.166109561920166,-0.001204712432809174,-0.2077178657054901
244.0,241.0,-5.8923,-0.3559,8.2911,0.0399,-0.3474,-0.1037,-2.262994428674215,-0.004478171933442354,4.629726409912109,-1.4232209920883179,0.34170252084732056,2.3536269664764404,-0.5606158536723633,-0.5917233228683472,-0.024204887449741364,-1.5970457235919397,0.0004115732735954225,0.038442280143499374,0.5561308860778809,0.0,-0.003553220070898533,1.1661251783370972,-0.0006771103944629431,-0.19779908657073975
244.0,241.0,-5.8923,-0.3559,8.2911,0.0399,-0.3474,-0.1037,-2.263115545312399,-0.005352858919650316,4.623837947845459,-1.4212814569473267,0.3273392617702484,2.3705365657806396,-0.5641823571971436,-0.5725237131118774,-0.013373639434576035,-1.5970056692706507,0.0003898661525454372,0.02872234396636486,0.5561308264732361,0.0,0.005303198471665382,1.1660935878753662,-0.0007345439516939223,-0.23481255769729614
244.0,241.0,-5.8923,-0.3559,8.2911,0.0399,-0.3474,-0.1037,-2.263111253777975,-0.006132582668215036,4.596145153045654,-1.419318437576294,0.3255975842475891,2.3418478965759277,-0.5674739641002198,-0.5429629683494568,-0.014030300080776215,-1.5970342795001429,0.0003741902473848313,0.027675218880176544,0.5561227798461914,0.0,-0.0032512207981199026,1.166097640991211,-0.000596914382185787,-0.2137414962053299
244.0,241.0,-5.8923,-0.3559,8.2911,0.0399,-0.3474,-0.1037,-2.2632161579527796,-0.007345643360167742,4.601052761077881,-1.4174832105636597,0.31962862610816956,2.368338108062744,-0.5706415933421631,-0.5215339660644531,-0.005478738807141781,-1.5969856421100062,0.00036304304376244545,0.03318563848733902,0.5561632513999939,0.0,-0.002281900029629469,1.1661056280136108,-0.0005152890807949007,-0.22383424639701843
244.0,241.0,-5.8923,-0.3559,8.2911,0.0399,-0.3474,-0.1037,-2.263219018975729,-0.009591150097548962,4.592619895935059,-1.4156086444854736,0.3036538064479828,2.2894420623779297,-0.5736662310412903,-0.49652302265167236,-0.015494454652071,-1.5969856421100062,0.0004283423477318138,0.0414452999830246,0.5561105012893677,0.0,-0.004176481626927853,1.166137456893921,-0.0006689504371024668,-0.28802159428596497
244.0,241.0,-5.8923,-0.3559,8.2911,0.0399,-0.3474,-0.1037,-2.2632914982237757,-0.011134042404592037,4.585602283477783,-1.413833498954773,0.30163297057151794,2.3279173374176025,-0.5764786166003724,-0.46951377391815186,-0.004839747212827206,-1.597001854573385,0.0004072666633874178,0.02638871967792511,0.5561468601226807,0.0,0.008158378303050995,1.16610586643219,-0.0005674337735399604,-0.3205520510673523
244.0,241.0,-5.8923,-0.3559,8.2911,0.0399,-0.3474,-0.1037,-2.2633477650084437,-0.010055779479444027,4.630078315734863,-1.4121547937393188,0.2960898280143738,2.319234609603882,-0.5792030853084107,-0.43325209617614746,0.026710854843258858,-1.597001854573385,0.0003900272713508457,0.022713124752044678,0.5561633110046387,0.0,0.017551608383655548,1.1661251783370972,-0.0005721705965697765,-0.29151615500450134
244.0,241.0,-5.8923,-0.3559,8.2911,0.0399,-0.3474,-0.1037,-2.26339115718984,-0.00949146132916212,4.64902925491333,-1.4104299545288086,0.280030220746994,2.3118252754211426,-0.5815959733775635,-0.41285163164138794,0.03975348174571991,-1.597001854573385,0.0003868268395308405,0.036021362990140915,0.5561673045158386,0.0,0.007365670520812273,1.166097640991211,-0.0005651343963108957,-0.30045294761657715
244.0,241.0,-5.8923,-0.3559,8.2911,0.0399,-0.3474,-0.1037,-2.2634712658324183,-0.010957261547446251,4.610063552856445,-1.4092532396316528,0.27731314301490784,2.2840542793273926,-0.5832851094058533,-0.39405906200408936,0.028763379901647568,-1.5969818274127405,0.0003785876906476915,0.034858040511608124,0.5561068058013916,0.0,-0.0016753014642745256,1.1660935878753662,-0.00046825778554193676,-0.2814311981201172
244.0,241.0,-5.8923,-0.3559,8.2911,0.0399,-0.3474,-0.1037,-2.2635275326170863,-0.011431333608925343,4.588630199432373,-1.407631754875183,0.2736738622188568,2.299347162246704,-0.5854913157275696,-0.3614034354686737,0.043744198977947235,-1.59698993364443,0.00032461658702231944,0.024173878133296967,0.5560747981071472,0.0,0.005873300135135651,1.1661176681518555,-0.000426066922955215,-0.2971680760383606
244.0,241.0,-5.8923,-0.3559,8.2911,0.0399,-0.3474,-0.1037,-2.263623376885885,-0.012058078311383724,4.625051975250244,-1.4059935808181763,0.25628340244293213,2.316444158554077,-0.5875094097903748,-0.32752183079719543,0.06661490350961685,-1.597001854573385,0.00032041536178439856,0.026274297386407852,0.5561349987983704,0.0,-0.004036524333059788,1.1661056280136108,-0.00041039107600227,-0.3303385376930237
244.0,241.0,-5.8923,-0.3559,8.2911,0.0399,-0.3474,-0.1037,-2.263695379296774,-0.016187217086553574,4.561807632446289,-1.4045313596725464,0.24389202892780304,2.2733681201934814,-0.5893407625010987,-0.2798711955547333,0.09754028916358948,-1.5969975630389612,0.00030767638236284256,0.03590641915798187,0.556114912033081,0.0,-0.01215440221130848,1.1661170721054077,-0.0003074284759350121,-0.3209400177001953
215.0,227.0,-4.4219,-0.3697,7.9765,0.0079,-0.1587,-0.1203,-2.2638279400267542,-0.018968405202031136,4.545560836791992,-1.4030413627624512,0.2363162338733673,2.244990825653076,-0.5908892911723633,-0.26055243611335754,0.1045253723859787,-1.5970137755023401,0.0002808359276968986,0.04124027490615845,0.5561871528625488,0.0,0.00157725322060287,1.1661014556884766,-0.00016242664423771203,-0.306130051612854
215.0,227.0,-4.4219,-0.3697,7.9765,0.0079,-0.1587,-0.1203,-2.2639194927611292,-0.019378740340471268,4.572587013244629,-1.4016859531402588,0.22368043661117554,2.2508554458618164,-0.5923686188510437,-0.21566617488861084,0.1124444529414177,-1.5969937483416956,0.00025141501100733876,0.04081057757139206,0.5561186075210571,0.0,0.0008819341310299933,1.1661056280136108,-0.00018975260900333524,-0.3194980025291443
215.0,227.0,-4.4219,-0.3697,7.9765,0.0079,-0.1587,-0.1203,-2.2639829121031703,-0.020109238103032112,4.568158149719238,-1.400355577468872,0.2124972939491272,2.2295312881469727,-0.5934170049479981,-0.1826864331960678,0.13664597272872925,-1.5969775358783167,0.00019937111937906593,0.047217462211847305,0.55616295337677,0.0,-0.0031266333535313606,1.1661375761032104,-0.00012309564044699073,-0.34810954332351685
215.0,227.0,-4.4219,-0.3697,7.9765,0.0079,-0.1587,-0.1203,-2.2641917667784632,-0.021402889862656593,4.563290596008301,-1.3991338014602661,0.2069767266511917,2.1916937828063965,-0.5944907826236268,-0.15208449959754944,0.1570994257926941,-1.5969579855548304,0.00017595697136130184,0.034421227872371674,0.5561268329620361,0.0,-0.009330677799880505,1.1661334037780762,0.00016565709665883332,-0.32621705532073975
215.0,227.0,-4.4219,-0.3697,7.9765,0.0079,-0.1587,-0.1203,-2.264242788354391,-0.023447291925549507,4.546165466308594,-1.397902488708496,0.19287510216236115,2.2474334239959717,-0.5952610534480591,-0.10848560929298401,0.17492838203907013,-1.5970061461078089,0.00018890268984250724,0.03494632989168167,0.5561591982841492,0.0,-0.008920013904571533,1.1661853790283203,6.527556251967326e-05,-0.3700592517852783
215.0,227.0,-4.4219,-0.3697,7.9765,0.0079,-0.1587,-0.1203,-2.2644111118712367,-0.028055457398295403,4.516340255737305,-1.3967732191085815,0.18305300176143646,2.205535650253296,-0.5957101148417969,-0.04934127628803253,0.18673448264598846,-1.5970061461078089,0.00017101925914175808,0.04636120796203613,0.5561145544052124,0.0,0.0024924040772020817,1.1661412715911865,0.00010601610847515985,-0.3922206163406372
215.0,227.0,-4.4219,-0.3697,7.9765,0.0079,-0.1587,-0.1203,-2.2646151981749476,-0.032101377844810486,4.497892379760742,-1.3957189321517944,0.16910409927368164,2.1592257022857666,-0.5958215755275269,-0.0045439754612743855,0.20789305865764618,-1.597001854573385,0.00018197788449469954,0.043132394552230835,0.5561349391937256,0.0,0.008560157380998135,1.166161298751831,9.064441837836057e-05,-0.3070002496242523
215.0,227.0,-4.4219,-0.3697,7.9765,0.0079,-0.1587,-0.1203,-2.2648073635497035,-0.03546278551220894,4.535320281982422,-1.3947269916534424,0.1597660779953003,2.1635451316833496,-0.595693365936615,0.031057219952344894,0.22662204504013062,-1.597018067036764,0.00016766053158789873,0.040975116193294525,0.5561267733573914,0.0,0.00586744025349617,1.1661375761032104,7.874677248764783e-05,-0.38011249899864197
215.0,227.0,-4.4219,-0.3697,7.9765,0.0079,-0.1587,-0.1203,-2.2650639019408167,-0.04028204083442688,4.461001396179199,-1.3938390016555786,0.1538204699754715,2.1436831951141357,-0.5954942864230652,0.04890015721321106,0.23791716992855072,-1.5969856421100062,0.00017668926739133894,0.04623229056596756,0.5561707019805908,0.0,0.005650007631629705,1.1661375761032104,6.961017061257735e-05,-0.33080703020095825
215.0,227.0,-4.4219,-0.3697,7.9765,0.0079,-0.1587,-0.1203,-2.265251775781149,-0.04171174019575119,4.491647720336914,-1.393215298652649,0.15141287446022034,2.206676721572876,-0.5953223270228882,0.052176281809806824,0.24671313166618347,-1.597001854573385,0.00016910539125092328,0.041977040469646454,0.5561747550964355,0.0,-0.003519083373248577,1.1661293506622314,6.461262091761455e-05,-0.353084921836853
215.0,227.0,-4.4219,-0.3697,7.9765,0.0079,-0.1587,-0.1203,-2.2654878101744593,-0.04630392789840698,4.453098297119141,-1.3924503326416016,0.14258673787117004,2.177494525909424,-0.5950426620296021,0.042350418865680695,0.24331825971603394,-1.5969775358783167,0.00017616702825762331,0.03407639265060425,0.556082546710968,0.0,0.00012066657654941082,1.166149377822876,5.833088289364241e-05,-0.34806329011917114
215.0,227.0,-4.4219,-0.3697,7.9765,0.0079,-0.1587,-0.1203,-2.265803953210348,-0.04902251437306404,4.4362688064575195,-1.3915921449661255,0.13042709231376648,2.1054110527038574,-0.5949395459941407,0.020475681871175766,0.23127064108848572,-1.597018067036764,0.00015886209439486265,0.04749745875597,0.5561431646347046,0.0,-0.0005135327810421586,1.1660975217819214,2.6582996724755503e-05,-0.3633571267127991
215.0,227.0,-4.4219,-0.3697,7.9765,0.0079,-0.1587,-0.1203,-2.2660838566222132,-0.05261938273906708,4.400613307952881,-1.3909155130386353,0.11615215986967087,2.110469341278076,-0.5948400062373658,0.0009492795797996223,0.1990492045879364,-1.5969856421100062,0.00014364697562996298,0.04659190773963928,0.5561309456825256,0.0,-0.009409314952790737,1.1661375761032104,2.4417700842604972e-05,-0.3761501908302307
215.0,227.0,-4.4219,-0.3697,7.9765,0.0079,-0.1587,-0.1203,-2.2663876018919886,-0.05283902585506439,4.453153133392334,-1.3902055025100708,0.10306470096111298,2.1195294857025146,-0.5949800771525879,-0.011889965273439884,0.21536365151405334,-1.5969608465777796,0.0001572498877067119,0.04539860412478447,0.556066632270813,0.0,0.008540062233805656,1.1660696268081665,2.2579857613891363e-05,-0.35924339294433594
215.0,227.0,-4.4219,-0.3697,7.9765,0.0079,-0.1587,-0.1203,-2.2667113743224085,-0.0501549206674099,4.4241132736206055,-1.3896594047546387,0.09602365642786026,2.123959541320801,-0.594963328247406,-0.008662586100399494,0.21434587240219116,-1.5969732443438929,0.0001446663518436253,0.04636438190937042,0.5561227798461914,0.0,0.002522076014429331,1.1661694049835205,5.4527701798257056e-11,-0.4133729934692383
202.0,212.0,-4.5948,-0.8417,7.2221,-0.0638,0.2463,-0.1274,-2.2669993839659632,-0.051454126834869385,4.465470314025879,-1.3891215324401855,0.08763358741998672,2.094608783721924,-0.5950155419162293,-0.004935617092996836,0.21234029531478882,-1.5970061461078089,0.00013390368258114904,0.04456470534205437,0.5561390519142151,0.0,0.006820490583777428,1.166097640991211,1.3167796850492022e-16,-0.3678193688392639
202.0,212.0,-4.5948,-0.8417,7.2221,-0.0638,0.2463,-0.1274,-2.2673198185362757,-0.05687625706195831,4.479835510253906,-1.3886445760726929,0.08157473057508469,2.1016006469726562,-0.5950110715678711,-0.0022328284103423357,0.20097434520721436,-1.5969856421100062,0.0001246317697223276,0.046393826603889465,0.5561021566390991,0.0,0.0022576062474399805,1.166109561920166,3.179868016687138e-22,-0.3293764889240265
202.0,212.0,-4.5948,-0.8417,7.2221,-0.0638,0.2463,-0.1274,-2.2676836452879847,-0.06024111062288284,4.427761077880859,-1.388166069984436,0.07464347779750824,2.1100029945373535,-0.5951238435557862,-0.0012887944467365742,0.20677974820137024,-1.5969942251788538,0.0001165606445283629,0.04627123102545738,0.5561025738716125,0.0,0.009640228003263474,1.166141390800476,7.6790067259850525e-28,-0.30780699849128723
202.0,212.0,-4.5948,-0.8417,7.2221,-0.0638,0.2463,-0.1274,-2.268043657342428,-0.061567533761262894,4.478466510772705,-1.387736201286316,0.06922252476215363,2.093557834625244,-0.5951197308352967,-0.0017287854570895433,0.20696522295475006,-1.597001854573385,0.0001276959665119648,0.03932308778166771,0.5561469197273254,0.0,-0.0018523550825193524,1.1660453081130981,1.8543899092091684e-33,-0.35343149304389954
202.0,212.0,-4.5948,-0.8417,7.2221,-0.0638,0.2463,-0.1274,-2.2684322796263636,-0.05890938639640808,4.437175273895264,-1.3872780799865723,0.06310923397541046,2.1031994819641113,-0.5950787228396912,-0.0024657018948346376,0.20343241095542908,-1.5970342795001429,0.00012039455759804696,0.04166122525930405,0.5561391115188599,0.0,0.013938764110207558,1.1660897731781006,-0.0016843919875100255,-0.29065680503845215
202.0,212.0,-4.5948,-0.8417,7.2221,-0.0638,0.2463,-0.1274,-2.2687279186644496,-0.05268086865544319,4.472858428955078,-1.3869752883911133,0.05633442848920822,2.1109817028045654,-0.5951433938792725,-0.0026920291129499674,0.1963847428560257,-1.5969651381122034,0.00011386626283638179,0.03591460734605789,0.5561227202415466,0.0,-0.0013050301931798458,1.1660375595092773,-0.0023969043977558613,-0.30108168721199036
202.0,212.0,-4.5948,-0.8417,7.2221,-0.0638,0.2463,-0.1274,-2.2690073452391566,-0.047227539122104645,4.498777866363525,-1.3866963386535645,0.046573132276535034,2.1392388343811035,-0.5951672953418274,-0.0031267800368368626,0.193169504404068,-1.59698993364443,0.00010800972086144611,0.04338974878191948,0.5561591386795044,0.0,-0.0017850291915237904,1.1660656929016113,-0.002369202207773924,-0.3322720527648926
202.0,212.0,-4.5948,-0.8417,7.2221,-0.0638,0.2463,-0.1274,-2.2693234882750453,-0.04517829045653343,4.476939678192139,-1.3864974975585938,0.03375023975968361,2.088761568069458,-0.5951710504344483,-0.004412609618157148,0.1921304166316986,-1.5969937483416956,0.00010272613144479692,0.04031985253095627,0.5561308264732361,0.0,0.010556836612522602,1.1660335063934326,-0.0017368739936500788,-0.2869815230369568
202.0,212.0,-4.5948,-0.8417,7.2221,-0.0638,0.2463,-0.1274,-2.269463201562399,-0.04416003078222275,4.492079734802246,-1.3863255977630615,0.025594767183065414,2.112788200378418,-0.5952153962901612,-0.0044577457010746,0.18815277516841888,-1.5969894568072718,9.94819201878272e-05,0.04930417612195015,0.5561428070068359,0.0,0.004116892348974943,1.1660175323486328,-0.0014069791650399566,-0.280240535736084
202.0,212.0,-4.5948,-0.8417,7.2221,-0.0638,0.2463,-0.1274,-2.2696949444212855,-0.042530596256256104,4.530476093292236,-1.3862303495407104,0.014058719389140606,2.0425233840942383,-0.5952553314021607,-0.004189149476587772,0.19704245030879974,-1.5969694296466272,9.498230792814866e-05,0.029135853052139282,0.5561349391937256,0.0,-0.0037583981174975634,1.1660137176513672,-0.0008898035157471895,-0.252289742231369
202.0,212.0,-4.5948,-0.8417,7.2221,-0.0638,0.2463,-0.1274,-2.270003934899801,-0.0409054271876812,4.527317047119141,-1.3861864805221558,0.004592232406139374,2.064970016479492,-0.5952471059611817,-0.003028600011020899,0.1965591311454773,-1.5969694296466272,9.087224316317588e-05,0.03367588296532631,0.5561268329620361,0.0,0.016317617148160934,1.166041612625122,-0.000649031309876591,-0.22019913792610168
202.0,212.0,-4.5948,-0.8417,7.2221,-0.0638,0.2463,-0.1274,-2.2701593838133753,-0.03707142919301987,4.49033260345459,-1.386150598526001,3.2528456358704716e-05,2.0742807388305664,-0.5952508610538025,-0.0014749151887372136,0.1887894868850708,-1.597001854573385,8.710304246051237e-05,0.02788800746202469,0.5561267733573914,0.0,0.008129932917654514,1.1660337448120117,-0.0005108410841785371,-0.18931373953819275
202.0,212.0,-4.5948,-0.8417,7.2221,-0.0638,0.2463,-0.1274,-2.270403047601217,-0.03288163244724274,4.5849103927612305,-1.3862510919570923,-0.003643699688836932,2.0538582801818848,-0.5952750605395813,-0.0009449835633859038,0.19309568405151367,-1.5970261732684534,8.363405504496768e-05,0.012880469672381878,0.5561145544052124,0.0,0.010587098076939583,1.166017770767212,-0.0004211768100503832,-0.2038513422012329
202.0,212.0,-4.5948,-0.8417,7.2221,-0.0638,0.2463,-0.1274,-2.270579000512594,-0.03070809878408909,4.605644226074219,-1.3861982822418213,-0.0022955501917749643,2.077908992767334,-0.5952831667712708,-0.0006512762629427016,0.2023220807313919,-1.5970137755023401,8.043087291298434e-05,0.05561203137040138,0.5561628341674805,0.0,0.00369291752576828,1.1660538911819458,-0.0003135067818220705,-0.17644479870796204
202.0,212.0,-4.5948,-0.8417,7.2221,-0.0638,0.2463,-0.1274,-2.2707869015135707,-0.030112436041235924,4.636785507202148,-1.3862180709838867,-0.0011267991503700614,2.1130142211914062,-0.5952709478190918,-0.0005676006549037993,0.19698724150657654,-1.5969937483416956,3.1672727345721796e-05,0.018382089212536812,0.556154727935791,0.0,-0.0002643041079863906,1.1660456657409668,-8.793821325525641e-05,-0.1869228482246399
203.0,214.0,-5.5609,-0.5922,8.269,-0.0356,-0.0089,-0.1136,-2.270954748193258,-0.03195907175540924,4.568645477294922,-1.386202335357666,-0.00012558493472170085,2.1185708045959473,-0.5952910345843812,-0.0003838691918645054,0.19573193788528442,-1.5970137755023401,3.006123188242782e-05,0.011217761784791946,0.5561747550964355,0.0,0.00933049526065588,1.1660215854644775,-7.468311378033832e-05,-0.19937247037887573
203.0,214.0,-5.5609,-0.5922,8.269,-0.0356,-0.0089,-0.1136,-2.2711192570128382,-0.03244845196604729,4.604713439941406,-1.3862183094024658,-0.0001748981449054554,2.086696147918701,-0.5952709478190918,-0.00043002000893466175,0.1944652497768402,-1.597018067036764,2.8626951461774297e-05,0.031143978238105774,0.5562029480934143,0.0,0.004081658087670803,1.166029691696167,-9.962330659618601e-05,-0.12574359774589539
203.0,214.0,-5.5609,-0.5922,8.269,-0.0356,-0.0089,-0.1136,-2.2713152370848597,-0.03169943392276764,4.631625175476074,-1.3862183094024658,-2.361912811466027e-05,2.1034464836120605,-0.595294789677002,-0.0007739259744994342,0.18647676706314087,-1.59698993364443,2.732331631705165e-05,0.015931252390146255,0.5561305284500122,0.0,0.00679366197437048,1.1660256385803223,-8.969471673481166e-05,-0.13600479066371918
203.0,214.0,-5.5609,-0.5922,8.269,-0.0356,-0.0089,-0.1136,-2.2714387379088343,-0.0271945521235466,4.650743007659912,-1.3861984014511108,-5.703741645657345e-11,2.1554157733917236,-0.5953309100917359,-0.001119304564781487,0.19554643332958221,-1.5969980398761194,2.613322067190893e-05,0.0242626890540123,0.5561464428901672,0.0,0.019529378041625023,1.1660215854644775,-8.156560943461955e-05,-0.07837818562984467
203.0,214.0,-5.5609,-0.5922,8.269,-0.0356,-0.0089,-0.1136,-2.2716509304442347,-0.023921968415379524,4.650105953216553,-1.386222243309021,-1.3773863482631255e-16,2.150949716567993,-0.5952825111201783,-0.0024118416476994753,0.1792619675397873,-1.5970261732684534,2.5042467314051464e-05,0.015372240915894508,0.5561222434043884,0.0,0.00783009547740221,1.166029691696167,-7.478757470380515e-05,-0.08328123390674591
203.0,214.0,-5.5609,-0.5922,8.269,-0.0356,-0.0089,-0.1136,-2.2718035183348597,-0.02150293067097664,4.666042327880859,-1.386162519454956,-3.3262265795013684e-22,2.1133313179016113,-0.5953383606723328,-0.0030581196770071983,0.17025716602802277,-1.597001854573385,2.4039150957833044e-05,0.011760707013309002,0.5561707019805908,0.0,0.001622210256755352,1.1660096645355225,4.741481097880751e-05,-0.028159871697425842
203.0,214.0,-5.5609,-0.5922,8.269,-0.0356,-0.0089,-0.1136,-2.2718869648375453,-0.018808234483003616,4.674046516418457,-1.3861745595932007,-8.032445204176734e-28,2.1609880924224854,-0.5953663152507325,-0.0037360345013439655,0.16606405377388,-1.597018067036764,1.1753151738957968e-05,0.023506343364715576,0.5561787486076355,0.0,0.006547320168465376,1.1660497188568115,8.186666673282161e-05,0.007692677900195122
