ramyac6/ROB537/final_project/csv/good/good_153.csv
tof_0,tof_1,accelx,accely,accelz,gyrox,gyroy,gyroz,shoulder_lift_joint_position,shoulder_lift_joint_velocity,shoulder_lift_joint_effort,elbow_joint_position,elbow_joint_velocity,elbow_joint_effort,wrist_1_joint_position,wrist_1_joint_velocity,wrist_1_joint_effort,wrist_2_joint_position,wrist_2_joint_velocity,wrist_2_joint_effort,wrist_3_joint_position,wrist_3_joint_velocity,wrist_3_joint_effort,shoulder_pan_joint_position,shoulder_pan_joint_velocity,shoulder_pan_joint_effort
456.0,1027.0,2.4676,-0.1723,9.082,-0.0376,0.0273,-0.1132,-1.4429502052119751,0.0,1.5281436443328857,-2.0929901599884033,-0.0,2.0963737964630127,4.734598993300953,-0.0,0.28949999809265137,-1.6629450956927698,-0.0,0.0062839859165251255,1.0466289520263672,-0.0,-0.012617869302630424,0.6234338283538818,0.0,-0.009866509586572647
456.0,1027.0,2.4676,-0.1723,9.082,-0.0376,0.0273,-0.1132,-1.4430065017989655,0.0,1.4450948238372803,-2.092944622039795,-0.0,2.080873489379883,4.734587152465739,-0.0,0.3068569600582123,-1.6629694143878382,-0.0,0.0070262933149933815,1.046661376953125,-0.0,-0.00483891973271966,0.6233819723129272,0.0,0.007496817037463188
456.0,1027.0,2.4676,-0.1723,9.082,-0.0376,0.0273,-0.1132,-1.4429419797709961,0.0,1.472424030303955,-2.0929486751556396,-0.0,2.054129123687744,4.734614861174979,-0.0,0.3029969334602356,-1.6629088560687464,-0.0,0.010371270589530468,1.0466811656951904,-0.0,-0.00326019199565053,0.6234179735183716,0.0,0.02587307244539261
456.0,1027.0,2.4676,-0.1723,9.082,-0.0376,0.0273,-0.1132,-1.4429863703301926,0.0,1.5222346782684326,-2.0929572582244873,-0.0,2.0531833171844482,4.734587077959933,-0.0,0.29761752486228943,-1.6629450956927698,-0.0,0.0052196872420609,1.0466769933700562,-0.0,0.004612038377672434,0.6234097480773926,0.0,0.008008381351828575
456.0,1027.0,2.4676,-0.1723,9.082,-0.0376,0.0273,-0.1132,-1.4429700386575242,0.0,1.5569669008255005,-2.0929415225982666,-0.0,2.0651321411132812,4.734614861174979,-0.0,0.3016877770423889,-1.6629446188556116,-0.0,0.0006587561219930649,1.046661376953125,-0.0,-0.03383714333176613,0.6234017610549927,0.0,-0.01700950786471367
434.0,951.0,2.5137,-0.2136,9.1202,-0.0392,0.0257,-0.1155,-1.442978249197342,0.0,1.479053258895874,-2.0930335521698,-0.0,2.0010311603546143,4.734587152465739,-0.0,0.3121604025363922,-1.6629489103900355,-0.0,0.0006528403609991074,1.0466171503067017,-0.0,-0.0023168991319835186,0.6234179735183716,0.0,0.0039433808997273445
434.0,951.0,2.5137,-0.2136,9.1202,-0.0392,0.0257,-0.1155,-1.4429663729718705,0.0,1.4994091987609863,-2.0929737091064453,-0.0,2.065354585647583,4.734583142190733,-0.0,0.2896538972854614,-1.6629369894610804,-0.0,0.002604739274829626,1.0466852188110352,-0.0,-0.004067361820489168,0.6234418153762817,0.0,-0.03436897322535515
434.0,951.0,2.5137,-0.2136,9.1202,-0.0392,0.0257,-0.1155,-1.4429221165231247,0.0,1.5188469886779785,-2.0929489135742188,-0.0,2.044987678527832,4.734606969147482,-0.0,0.3135627508163452,-1.662940804158346,-0.0,0.0023289916571229696,1.0466933250427246,-0.0,-0.0006318693049252033,0.6234179735183716,0.0,-0.05342850089073181
434.0,951.0,2.5137,-0.2136,9.1202,-0.0392,0.0257,-0.1155,-1.4430065017989655,0.0,1.489855408668518,-2.092973470687866,-0.0,2.048292875289917,4.734587077959933,-0.0,0.3031183183193207,-1.6629565397845667,-0.0,0.011888369917869568,1.0466172695159912,-0.0,0.004048226401209831,0.6234140396118164,0.0,-0.0008860025554895401
434.0,951.0,2.5137,-0.2136,9.1202,-0.0392,0.0257,-0.1155,-1.4429539901069184,0.0,1.4975954294204712,-2.0929901599884033,-0.0,2.0375850200653076,4.734598993300953,-0.0,0.29991745948791504,-1.6629450956927698,-0.0,0.002244983334094286,1.0466973781585693,-0.0,0.0034757801331579685,0.6234140396118164,0.0,0.03657045215368271
434.0,951.0,2.5137,-0.2136,9.1202,-0.0392,0.0257,-0.1155,-1.4430065017989655,0.0,1.5189082622528076,-2.0929486751556396,-0.0,2.0248069763183594,4.734575235262074,-0.0,0.2919260561466217,-1.6629694143878382,-0.0,-0.003562426194548607,1.0466294288635254,-0.0,-0.0025675641372799873,0.6234419345855713,0.0,0.030494840815663338
434.0,951.0,2.5137,-0.2136,9.1202,-0.0392,0.0257,-0.1155,-1.4429782640985032,0.0,1.529005527496338,-2.0929527282714844,-0.0,2.0715229511260986,4.734591131075778,-0.0,0.29398149251937866,-1.6628888289081019,-0.0,0.007060524076223373,1.0466454029083252,-0.0,0.004276289604604244,0.6233978271484375,0.0,0.08122973889112473
434.0,951.0,2.5137,-0.2136,9.1202,-0.0392,0.0257,-0.1155,-1.4429622453502198,0.0,1.4599708318710327,-2.092994213104248,-0.0,2.0792667865753174,4.734591058432617,-0.0,0.3050305247306824,-1.6629608313189905,-0.0,-0.003827008418738842,1.0466814041137695,-0.0,-0.00398416630923748,0.6234380006790161,0.0,-0.045018237084150314
427.0,8190.0,2.4706,-0.2034,9.082,-0.0319,0.0171,-0.1107,-1.4429622453502198,0.0,1.4963548183441162,-2.092961311340332,-0.0,2.0675547122955322,4.734614900290527,-0.0,0.29749220609664917,-1.6629450956927698,-0.0,0.01178744062781334,1.046661376953125,-0.0,-0.01901675947010517,0.6234338283538818,0.0,0.010438796132802963
427.0,8190.0,2.4706,-0.2034,9.082,-0.0319,0.0171,-0.1107,-1.4429419797709961,0.0,1.4997285604476929,-2.093005657196045,-0.0,2.0912177562713623,4.734599010064759,-0.0,0.2945403456687927,-1.6629088560687464,-0.0,0.006951978430151939,1.0467098951339722,-0.0,-0.010743869468569756,0.6234017610549927,0.0,0.021850459277629852
427.0,8190.0,2.4706,-0.2034,9.082,-0.0319,0.0171,-0.1107,-1.4429581624320527,0.0,1.4785280227661133,-2.0929858684539795,-0.0,2.1192660331726074,4.734598998888888,-0.0,0.2987930178642273,-1.662952725087301,-0.0,0.004897311329841614,1.046661376953125,-0.0,-0.0065776449628174305,0.6234179735183716,0.0,-0.010029737837612629
427.0,8190.0,2.4706,-0.2034,9.082,-0.0319,0.0171,-0.1107,-1.442986325626709,0.0,1.4933116436004639,-2.0930168628692627,-0.0,2.011200428009033,4.7345831272895715,-0.0,0.2983832061290741,-1.6628969351397913,-0.0,0.0015865040477365255,1.0466773509979248,-0.0,0.010148910805583,0.6234778165817261,0.0,0.0031574061140418053
427.0,8190.0,2.4706,-0.2034,9.082,-0.0319,0.0171,-0.1107,-1.4429663729718705,0.0,1.5042641162872314,-2.0930087566375732,-0.0,2.0512399673461914,4.7345831272895715,-0.0,0.3048189580440521,-1.662940804158346,-0.0,-0.013704963959753513,1.0466573238372803,-0.0,-0.00547570688650012,0.6234578490257263,0.0,0.017833556979894638
427.0,8190.0,2.4706,-0.2034,9.082,-0.0319,0.0171,-0.1107,-1.4430065017989655,0.0,1.5099332332611084,-2.0929818153381348,-0.0,2.0201799869537354,4.734606969147482,-0.0,0.2988318204879761,-1.6629489103900355,-0.0,-0.005273791495710611,1.046633243560791,-0.0,-0.009972987696528435,0.6234498620033264,0.0,-0.028063427656888962
427.0,8190.0,2.4706,-0.2034,9.082,-0.0319,0.0171,-0.1107,-1.4429622453502198,0.0,1.5313069820404053,-2.0929973125457764,-0.0,2.046144962310791,4.7345910900975845,-0.0,0.3049580454826355,-1.6629326979266565,-0.0,-0.004236121196299791,1.0466454029083252,-0.0,0.0016944080125540495,0.6234097480773926,0.0,0.021345503628253937
427.0,8190.0,2.4706,-0.2034,9.082,-0.0319,0.0171,-0.1107,-1.4430105549148102,0.0,1.4974840879440308,-2.092957019805908,-0.0,2.0576303005218506,4.734570967942037,-0.0,0.29492631554603577,-1.6629608313189905,-0.0,0.0037891643587499857,1.04667329788208,-0.0,0.003328964812681079,0.6233899593353271,0.0,0.01285125594586134
427.0,8190.0,2.4706,-0.2034,9.082,-0.0319,0.0171,-0.1107,-1.4429663729718705,0.0,1.4858195781707764,-2.093029499053955,-0.0,2.062626361846924,4.734559110343017,-0.0,0.29904210567474365,-1.662952725087301,-0.0,0.01279616542160511,1.0466573238372803,-0.0,-0.007456135004758835,0.6234259605407715,0.0,0.014980411157011986
475.0,8190.0,2.4353,-0.2022,9.0957,-0.033,0.0174,-0.1132,-1.442929596906044,0.0,1.470895528793335,-2.0929737091064453,-0.0,2.0672495365142822,4.734627122967996,-0.0,0.30094432830810547,-1.6629326979266565,-0.0,0.008341219276189804,1.0466694831848145,-0.0,-0.00824611447751522,0.6234259009361267,0.0,-0.004416249692440033
475.0,8190.0,2.4353,-0.2022,9.0957,-0.033,0.0174,-0.1132,-1.4429622453502198,0.0,1.508156657218933,-2.0929973125457764,-0.0,2.0573153495788574,4.73458716364161,-0.0,0.3039240837097168,-1.6629169623004358,-0.0,-0.0032973045017570257,1.0467299222946167,-0.0,-0.021175816655158997,0.6234697699546814,0.0,0.032415684312582016
475.0,8190.0,2.4353,-0.2022,9.0957,-0.033,0.0174,-0.1132,-1.4429581624320527,0.0,1.4872328042984009,-2.0930097103118896,-0.0,2.008234977722168,4.734606969147482,-0.0,0.3088160455226898,-1.6629369894610804,-0.0,0.007989405654370785,1.0466935634613037,-0.0,-0.012906967662274837,0.6233978271484375,0.0,-0.03537318482995033
475.0,8190.0,2.4353,-0.2022,9.0957,-0.033,0.0174,-0.1132,-1.4429419797709961,0.0,1.5227560997009277,-2.0929291248321533,-0.0,2.100285530090332,4.734610927268424,-0.0,0.3043625056743622,-1.662957016621725,-0.0,0.012150567956268787,1.0466573238372803,-0.0,-0.0044932132586836815,0.6234179735183716,0.0,-0.010210261680185795
475.0,8190.0,2.4353,-0.2022,9.0957,-0.033,0.0174,-0.1132,-1.4430105996182938,0.0,1.5304441452026367,-2.092933177947998,-0.0,2.0535030364990234,4.7346310810889385,-0.0,0.29508164525032043,-1.6629565397845667,-0.0,0.0006139211473055184,1.0466933250427246,-0.0,0.007831286638975143,0.6234459280967712,0.0,-0.017263729125261307
475.0,8190.0,2.4353,-0.2022,9.0957,-0.033,0.0174,-0.1132,-1.4429502052119751,0.0,1.535459280014038,-2.0929932594299316,-0.0,2.0373103618621826,4.734603042691507,-0.0,0.30138924717903137,-1.6629050413714808,-0.0,0.00841265544295311,1.0466532707214355,-0.0,-0.003439424093812704,0.6234140396118164,0.0,0.0358271487057209
475.0,8190.0,2.4353,-0.2022,9.0957,-0.033,0.0174,-0.1132,-1.4429704707911988,0.0,1.457662582397461,-2.0930211544036865,-0.0,2.0914759635925293,4.7345831272895715,-0.0,0.2881844937801361,-1.662952725087301,-0.0,0.013874175027012825,1.0466933250427246,-0.0,0.0011311846319586039,0.6233899593353271,0.0,0.0071434034034609795
475.0,8190.0,2.4353,-0.2022,9.0957,-0.033,0.0174,-0.1132,-1.4429098081639786,0.0,1.5210802555084229,-2.093001365661621,-0.0,2.015584945678711,4.734562973469057,-0.0,0.29755938053131104,-1.6629050413714808,-0.0,0.012582054361701012,1.0466654300689697,-0.0,-0.006286820396780968,0.6234140396118164,0.0,-0.001433002413250506
475.0,8190.0,2.4353,-0.2022,9.0957,-0.033,0.0174,-0.1132,-1.4429741662791749,0.0,1.4884769916534424,-2.0929291248321533,-0.0,2.021193504333496,4.734606937482514,-0.0,0.2909601926803589,-1.66296893755068,-0.0,0.00942608155310154,1.0466933250427246,-0.0,-0.001678786356933415,0.6234179735183716,0.0,0.03167836740612984
445.0,8190.0,2.5107,-0.2189,9.0341,-0.0386,0.0212,-0.1049,-1.4429539901069184,0.0,1.515309453010559,-2.0929529666900635,-0.0,2.1052942276000977,4.734614885389366,-0.0,0.2976207137107849,-1.6629369894610804,-0.0,0.0010010325349867344,1.0466413497924805,-0.0,-0.012083221226930618,0.6233938336372375,0.0,-0.005110432859510183
445.0,8190.0,2.5107,-0.2189,9.0341,-0.0386,0.0212,-0.1049,-1.442986325626709,0.0,1.5042686462402344,-2.09297776222229,-0.0,2.0746631622314453,4.734554898902335,-0.0,0.3015984296798706,-1.6629326979266565,-0.0,0.009403415955603123,1.0466972589492798,-0.0,0.0021665499079972506,0.6233938932418823,0.0,0.008689639158546925
445.0,8190.0,2.5107,-0.2189,9.0341,-0.0386,0.0212,-0.1049,-1.4430028063109894,0.0,1.5440113544464111,-2.0929486751556396,-0.0,2.0535166263580322,4.734575220360913,-0.0,0.286476194858551,-1.6629565397845667,-0.0,-0.0007360880263149738,1.046601414680481,-0.0,-0.009343652985990047,0.6234140396118164,0.0,-0.004164653830230236
445.0,8190.0,2.5107,-0.2189,9.0341,-0.0386,0.0212,-0.1049,-1.4429461073926468,0.0,1.4772124290466309,-2.092961072921753,-0.0,2.0441670417785645,4.734610934719004,-0.0,0.29501110315322876,-1.662940804158346,-0.0,0.012758028693497181,1.0467257499694824,-0.0,-0.008620856329798698,0.6233859062194824,0.0,0.024761434644460678
445.0,8190.0,2.5107,-0.2189,9.0341,-0.0386,0.0212,-0.1049,-1.4430106592229386,0.0,1.5205280780792236,-2.0929932594299316,-0.0,2.094477653503418,4.734607017576256,-0.0,0.29605039954185486,-1.6629169623004358,-0.0,0.0030862195417284966,1.0466573238372803,-0.0,0.002031430834904313,0.6234418153762817,0.0,-0.04523986577987671
445.0,8190.0,2.5107,-0.2189,9.0341,-0.0386,0.0212,-0.1049,-1.4429823619178315,0.0,1.4942142963409424,-2.0929694175720215,-0.0,2.1112518310546875,4.73459901751534,-0.0,0.30369389057159424,-1.6629326979266565,-0.0,0.005898003466427326,1.046661376953125,-0.0,-0.007012886926531792,0.6234338283538818,0.0,0.031085288152098656
445.0,8190.0,2.5107,-0.2189,9.0341,-0.0386,0.0212,-0.1049,-1.4429986935905,0.0,1.4675874710083008,-2.0929901599884033,-0.0,2.078409433364868,4.734595048218527,-0.0,0.30031150579452515,-1.6629088560687464,-0.0,-0.0082969069480896,1.0466290712356567,-0.0,-0.004083252511918545,0.6234179735183716,0.0,-0.05465603619813919
445.0,8190.0,2.5107,-0.2189,9.0341,-0.0386,0.0212,-0.1049,-1.442962260251381,0.0,1.5537006855010986,-2.0929529666900635,-0.0,2.0528736114501953,4.73459901751534,-0.0,0.3000962734222412,-1.6629326979266565,-0.0,0.0043460833840072155,1.0466333627700806,-0.0,-0.013526009395718575,0.6234418749809265,0.0,-0.00012380629777908325
479.0,999.0,2.4114,-0.2112,9.1519,-0.0307,0.024,-0.1158,-1.4429741662791749,0.0,1.532442331314087,-2.0929818153381348,-0.0,2.0965728759765625,4.734571129992165,-0.0,0.2883416414260864,-1.6629565397845667,-0.0,-0.008042779751121998,1.0466853380203247,-0.0,-0.012465895153582096,0.6234458088874817,0.0,-0.0040261587128043175
479.0,999.0,2.4114,-0.2112,9.1519,-0.0307,0.024,-0.1158,-1.4429337245276947,0.0,1.5267319679260254,-2.093001365661621,-0.0,2.0644114017486572,4.734562932490864,-0.0,0.3045208156108856,-1.6629369894610804,-0.0,-0.00159553368575871,1.0466532707214355,-0.0,-0.00021111441310495138,0.6233939528465271,0.0,0.041234925389289856
479.0,999.0,2.4114,-0.2112,9.1519,-0.0307,0.024,-0.1158,-1.4429420244744797,0.0,1.4588079452514648,-2.0929415225982666,-0.0,2.0434823036193848,4.7345831272895715,-0.0,0.3007739782333374,-1.662952725087301,-0.0,0.014937471598386765,1.0466291904449463,-0.0,0.0075322664342820644,0.6233978271484375,0.0,-0.010310767218470573
479.0,999.0,2.4114,-0.2112,9.1519,-0.0307,0.024,-0.1158,-1.4429822278073807,0.0,1.5185322761535645,-2.0929372310638428,-0.0,2.0533640384674072,4.73456694276587,-0.0,0.30587106943130493,-1.6629489103900355,-0.0,0.011534404009580612,1.0466254949569702,-0.0,0.0007171405013650656,0.6234539151191711,0.0,0.02610798366367817
479.0,999.0,2.4114,-0.2112,9.1519,-0.0307,0.024,-0.1158,-1.4429741215756913,0.0,1.4960973262786865,-2.0929694175720215,-0.0,2.0954673290252686,4.73462317788557,-0.0,0.2924218475818634,-1.6629489103900355,-0.0,0.02069789357483387,1.0466290712356567,-0.0,0.001070346450433135,0.6233938932418823,0.0,-0.013446330092847347
479.0,999.0,2.4114,-0.2112,9.1519,-0.0307,0.024,-0.1158,-1.4429460626891633,0.0,1.4930243492126465,-2.093017101287842,-0.0,2.0866150856018066,4.734610938444295,-0.0,0.3019033670425415,-1.66296893755068,-0.0,0.0005073940847069025,1.0466573238372803,-0.0,0.002572525292634964,0.6234459280967712,0.0,0.025103073567152023
479.0,999.0,2.4114,-0.2112,9.1519,-0.0307,0.024,-0.1158,-1.4429378670505066,0.0,1.479069709777832,-2.0930087566375732,-0.0,2.049579381942749,4.734595048218527,-0.0,0.30042093992233276,-1.662940804158346,-0.0,0.013038461096584797,1.046621561050415,-0.0,-0.0036515863612294197,0.6234179735183716,0.0,-0.024937592446804047
479.0,999.0,2.4114,-0.2112,9.1519,-0.0307,0.024,-0.1158,-1.442982242708542,0.0,1.4878077507019043,-2.0929291248321533,-0.0,2.0740580558776855,4.734603066905894,-0.0,0.30230966210365295,-1.6629131476031702,-0.0,0.0031450805254280567,1.0466687679290771,-0.0,-0.009668940678238869,0.6234140396118164,0.0,-0.01779831573367119
479.0,999.0,2.4114,-0.2112,9.1519,-0.0307,0.024,-0.1158,-1.4429502499154587,0.0,1.558305263519287,-2.092973470687866,7.033178206494739e-11,2.0581846237182617,4.73459901751534,-0.0,0.29116374254226685,-1.6629131476031702,-0.0,0.020392972975969315,1.0466692447662354,-0.0,-0.0004555365303531289,0.623481810092926,0.0,0.031113144010305405
446.0,1028.0,2.4993,-0.2022,9.0646,-0.0371,0.0188,-0.1075,-1.4429622453502198,0.0,1.4670608043670654,-2.093017816543579,3.0571134949190864e-20,2.0210988521575928,4.734627147182383,-0.0,0.3061026334762573,-1.6629565397845667,-0.0,0.003031990025192499,1.0466532707214355,-0.0,-0.010455639101564884,0.6234017610549927,0.0,-0.008089196868240833
446.0,1028.0,2.4993,-0.2022,9.0646,-0.0371,0.0188,-0.1075,-1.442962260251381,0.0,1.5191521644592285,-2.093001365661621,1.7828036330220754e-31,2.0462114810943604,4.734614931955495,-0.0,0.30147653818130493,-1.6629169623004358,-0.0,0.005563575774431229,1.0467216968536377,-0.0,-0.008317758329212666,0.6234338283538818,0.0,0.02800760418176651
446.0,1028.0,2.4993,-0.2022,9.0646,-0.0371,0.0188,-0.1075,-1.4429663878730317,0.0,1.495295524597168,-2.09297776222229,7.749320637562671e-41,2.0601956844329834,4.734595055669107,-0.0,0.2876596450805664,-1.6629646460162562,-0.0,0.0013787911739200354,1.04667329788208,-0.0,-0.008293788880109787,0.6234140396118164,0.0,0.024491727352142334
446.0,1028.0,2.4993,-0.2022,9.0646,-0.0371,0.0188,-0.1075,-1.4429218483022233,0.0,1.5332396030426025,-2.0929858684539795,-0.0,2.037750244140625,4.734595055669107,-0.0,0.3028522729873657,-1.6629207769977015,-0.0,0.007058922201395035,1.0466010570526123,-0.0,0.006282036658376455,0.6234061121940613,0.0,-0.01836274564266205
446.0,1028.0,2.4993,-0.2022,9.0646,-0.0371,0.0188,-0.1075,-1.442982332115509,0.0,1.5296531915664673,-2.0930087566375732,-0.0,2.0303423404693604,4.734566883161225,-0.0,0.30694082379341125,-1.6629250685321253,-0.0,-0.008472153916954994,1.0466294288635254,-0.0,-0.009623972699046135,0.6234498620033264,0.0,-0.023445406928658485
446.0,1028.0,2.4993,-0.2022,9.0646,-0.0371,0.0188,-0.1075,-1.4429822129062195,0.0,1.5078561305999756,-2.092973470687866,-0.0,2.0483016967773438,4.734602908581056,-0.0,0.2945545017719269,-1.6629088560687464,-0.0,0.004752778448164463,1.0466972589492798,-0.0,-0.006691190879791975,0.6234298944473267,0.0,0.03677713871002197
446.0,1028.0,2.4993,-0.2022,9.0646,-0.0371,0.0188,-0.1075,-1.4429502201131363,0.0,1.4592080116271973,-2.0929973125457764,-0.0,2.045166015625,4.734591075196423,-0.0,0.30743059515953064,-1.6629770437823694,-0.0,0.000767383084166795,1.0466653108596802,-0.0,-0.011211470700800419,0.6234179735183716,0.0,-0.0026463749818503857
446.0,1028.0,2.4993,-0.2022,9.0646,-0.0371,0.0188,-0.1075,-1.4429823768189927,0.0,1.4698143005371094,-2.0929818153381348,-0.0,2.1158370971679688,4.734599002614178,-0.0,0.2978292405605316,-1.6629851500140589,-0.0,-0.008086809888482094,1.0466454029083252,-0.0,-0.004938329569995403,0.6234140396118164,0.0,-0.00621588621288538
446.0,1028.0,2.4993,-0.2022,9.0646,-0.0371,0.0188,-0.1075,-1.4429622751525422,0.0,1.513981819152832,-2.09297776222229,-0.0,2.0716729164123535,4.734595048218527,-0.0,0.31381756067276,-1.6629732290851038,-0.0,0.010362520813941956,1.046641230583191,-0.0,-0.008630389347672462,0.6234219670295715,0.0,-0.02973458729684353
446.0,8190.0,2.4814,-0.2058,9.0814,-0.0376,0.015,-0.1061,-1.4429823768189927,0.0,1.5214412212371826,-2.092961311340332,-0.0,2.019397258758545,4.7345751886959455,-0.0,0.2995089292526245,-1.662928883229391,-0.0,-0.00797777995467186,1.0466413497924805,-0.0,-0.006414874456822872,0.6234140396118164,0.0,-0.001094137318432331
446.0,8190.0,2.4814,-0.2058,9.0814,-0.0376,0.015,-0.1061,-1.4429420095733185,0.0,1.4924956560134888,-2.0930097103118896,-0.0,2.106584310531616,4.73459503145472,-0.0,0.3018970489501953,-1.6629489103900355,-0.0,-0.00030194048304110765,1.046636939048767,-0.0,-0.01827555149793625,0.6234578490257263,0.0,0.0010115066543221474
446.0,8190.0,2.4814,-0.2058,9.0814,-0.0376,0.015,-0.1061,-1.4429177355817338,0.0,1.5151069164276123,-2.0929973125457764,-0.0,2.021541118621826,4.7345831272895715,-0.0,0.3047252297401428,-1.662952725087301,-0.0,0.0078553706407547,1.0466852188110352,-0.0,-0.006023932248353958,0.6234179735183716,0.0,-0.018804151564836502
446.0,8190.0,2.4814,-0.2058,9.0814,-0.0376,0.015,-0.1061,-1.4429659259370347,0.0,1.4784016609191895,-2.093005657196045,-0.0,2.0628457069396973,4.734595048218527,-0.0,0.3038610816001892,-1.6629489103900355,-0.0,-0.004822356626391411,1.0466334819793701,-0.0,-0.007328437175601721,0.6233938932418823,0.0,0.018086031079292297
446.0,8190.0,2.4814,-0.2058,9.0814,-0.0376,0.015,-0.1061,-1.4429823768189927,0.0,1.4782748222351074,-2.0929529666900635,-0.0,2.022027015686035,4.734599030553856,-0.0,0.3043172359466553,-1.6629446188556116,-0.0,-0.00783671997487545,1.0466095209121704,-0.0,0.0007511675357818604,0.6234259009361267,0.0,-0.011053376831114292
446.0,8190.0,2.4814,-0.2058,9.0814,-0.0376,0.015,-0.1061,-1.4430227142623444,0.0,1.529778003692627,-2.093029499053955,-0.0,2.0675084590911865,4.734587187855997,-0.0,0.29942160844802856,-1.662928883229391,-0.0,-0.00481022335588932,1.046661376953125,-0.0,-0.014048390090465546,0.6234657764434814,0.0,-0.03648393228650093
446.0,8190.0,2.4814,-0.2058,9.0814,-0.0376,0.015,-0.1061,-1.4429741513780137,0.0,1.5271327495574951,-2.0929365158081055,-0.0,2.0701756477355957,4.734587005316772,-0.0,0.3001025319099426,-1.6629646460162562,-0.0,0.015815533697605133,1.0467177629470825,-0.0,0.0060158646665513515,0.6233819723129272,0.0,-0.0017231260426342487
446.0,8190.0,2.4814,-0.2058,9.0814,-0.0376,0.015,-0.1061,-1.442990468149521,0.0,1.4677937030792236,-2.0929694175720215,-0.0,2.031940460205078,4.73453898818747,-0.0,0.30156978964805603,-1.6629608313189905,-0.0,-0.0005243427585810423,1.046613335609436,-0.0,0.005707179196178913,0.6234498620033264,0.0,-0.017752734944224358
443.0,8190.0,2.4861,-0.2124,9.0975,-0.0318,0.0153,-0.113,-1.4429542881301423,0.0,1.4747354984283447,-2.0929372310638428,-0.0,2.0475668907165527,4.734603091120281,-0.0,0.30421125888824463,-1.6629207769977015,-0.0,0.011472590267658234,1.0466411113739014,-0.0,-0.0031268568709492683,0.6234298944473267,0.0,0.014237984083592892
443.0,8190.0,2.4861,-0.2124,9.0975,-0.0318,0.0153,-0.113,-1.4429945957711716,0.0,1.525735855102539,-2.0929486751556396,-0.0,2.1054859161376953,4.7345831272895715,-0.0,0.2835390865802765,-1.6628969351397913,-0.0,-0.0006686055567115545,1.0466214418411255,-0.0,-0.0032825428061187267,0.6233340501785278,0.0,-0.021358348429203033
443.0,8190.0,2.4861,-0.2124,9.0975,-0.0318,0.0153,-0.113,-1.4429460626891633,0.0,1.4848101139068604,-2.093013048171997,-0.0,2.1194801330566406,4.734603091120281,-0.0,0.3080230951309204,-1.662928883229391,-0.0,0.003279677126556635,1.0466653108596802,-0.0,-0.014112484641373158,0.6233779788017273,0.0,0.02668278105556965
443.0,8190.0,2.4861,-0.2124,9.0975,-0.0318,0.0153,-0.113,-1.4429539901069184,0.0,1.533813238143921,-2.09297776222229,-0.0,2.045072078704834,4.734614931955495,-0.0,0.30597084760665894,-1.6629250685321253,-0.0,0.002675487659871578,1.0467097759246826,-0.0,-8.937343955039978e-05,0.6234617829322815,0.0,0.02438940666615963
443.0,8190.0,2.4861,-0.2124,9.0975,-0.0318,0.0153,-0.113,-1.4429699939540406,0.0,1.504284143447876,-2.0929250717163086,-0.0,2.064790964126587,4.734543143748798,-0.0,0.2982267439365387,-1.6629927794085901,-0.0,-2.406933344900608e-05,1.0466930866241455,-0.0,0.006556390784680843,0.6234418153762817,0.0,0.026757173240184784
443.0,8190.0,2.4861,-0.2124,9.0975,-0.0318,0.0153,-0.113,-1.4429502201131363,0.0,1.478324294090271,-2.093012809753418,-0.0,2.046459436416626,4.7345791449542425,-0.0,0.29500892758369446,-1.6629169623004358,-0.0,0.009682711213827133,1.0466612577438354,-0.0,-0.005480258259922266,0.6234140396118164,0.0,-0.0303198229521513
443.0,8190.0,2.4861,-0.2124,9.0975,-0.0318,0.0153,-0.113,-1.4429502350142975,0.0,1.4693888425827026,-2.0929455757141113,-0.0,2.0309412479400635,4.7345588756497285,-0.0,0.2924233675003052,-1.662940804158346,-0.0,0.012092345394194126,1.0466731786727905,-0.0,-0.008090019226074219,0.6233779788017273,0.0,0.0016257353127002716
443.0,8190.0,2.4861,-0.2124,9.0975,-0.0318,0.0153,-0.113,-1.4430349183133622,0.0,1.5123698711395264,-2.0930087566375732,-0.0,2.0632171630859375,4.734587187855997,-0.0,0.30290675163269043,-1.6629088560687464,-0.0,-0.002287250477820635,1.046653389930725,-0.0,-0.0030077118426561356,0.6234498620033264,0.0,0.00339731527492404
443.0,8190.0,2.4861,-0.2124,9.0975,-0.0318,0.0153,-0.113,-1.4429823768189927,0.0,1.4874823093414307,-2.0929291248321533,-0.0,2.0649027824401855,4.734571111365714,-0.0,0.29592370986938477,-1.6629088560687464,-0.0,0.00031482079066336155,1.0467218160629272,-0.0,-0.00027717952616512775,0.6234017610549927,0.0,-0.008935433812439442
423.0,8190.0,2.3898,-0.2207,9.061,-0.0353,0.0174,-0.1142,-1.4429863107255478,0.0,1.51034677028656,-2.0929291248321533,-0.0,2.044518232345581,4.734599038004436,-0.0,0.3073878884315491,-1.6629489103900355,-0.0,5.278736352920532e-05,1.0466573238372803,-0.0,-0.0011761179193854332,0.6233978271484375,0.0,-0.006542182993143797
423.0,8190.0,2.3898,-0.2207,9.061,-0.0353,0.0174,-0.1142,-1.442986325626709,0.0,1.4823262691497803,-2.09297776222229,-0.0,2.038222074508667,4.734534998401561,-0.0,0.2998543083667755,-1.6629770437823694,-0.0,0.010639184154570103,1.0466374158859253,-0.0,-0.005724756512790918,0.6233859062194824,0.0,0.0022603292018175125
423.0,8190.0,2.3898,-0.2207,9.061,-0.0353,0.0174,-0.1142,-1.4429782044938584,0.0,1.4785130023956299,-2.0929818153381348,-0.0,2.032961845397949,4.734587193443932,-0.0,0.2975490689277649,-1.6629326979266565,-0.0,-0.0033015930093824863,1.0466573238372803,-0.0,0.001212933799251914,0.6234058141708374,0.0,-0.018168285489082336
423.0,8190.0,2.3898,-0.2207,9.061,-0.0353,0.0174,-0.1142,-1.4429419797709961,0.0,1.4709701538085938,-2.0929486751556396,-0.0,2.0799081325531006,4.734575140267172,-0.0,0.29826298356056213,-1.6629446188556116,-0.0,-0.006808768026530743,1.046645164489746,-0.0,0.003385430434718728,0.6233819723129272,0.0,-0.022056687623262405
423.0,8190.0,2.3898,-0.2207,9.061,-0.0353,0.0174,-0.1142,-1.443010614519455,0.0,1.4700534343719482,-2.0929818153381348,-0.0,2.049311637878418,4.734591075196423,-0.0,0.3056110441684723,-1.662952725087301,-0.0,0.003037401009351015,1.0466811656951904,-0.0,-0.002661006757989526,0.6234017610549927,0.0,0.012366210110485554
423.0,8190.0,2.3898,-0.2207,9.061,-0.0353,0.0174,-0.1142,-1.4429699939540406,0.0,1.4853296279907227,-2.0929973125457764,-0.0,2.0261270999908447,4.734627195611157,-0.0,0.3001907467842102,-1.662992302571432,-0.0,-0.005402969196438789,1.0466772317886353,-0.0,-0.007765534333884716,0.6233939528465271,0.0,-0.018765393644571304
423.0,8190.0,2.3898,-0.2207,9.061,-0.0353,0.0174,-0.1142,-1.4429300886443635,0.0,1.5297894477844238,-2.0930254459381104,-0.0,2.121814012527466,4.734614956169882,-0.0,0.3034670352935791,-1.6629250685321253,-0.0,0.008602594025433064,1.0467016696929932,-0.0,-0.023189477622509003,0.6234060525894165,0.0,-0.01914491504430771
423.0,8190.0,2.3898,-0.2207,9.061,-0.0353,0.0174,-0.1142,-1.4429539752057572,0.0,1.5173907279968262,-2.0929858684539795,-0.0,2.047178030014038,4.734575140267172,-0.0,0.3026128113269806,-1.6629646460162562,-0.0,-0.0022365085314959288,1.0467013120651245,-0.0,0.007207654416561127,0.6234298944473267,0.0,-0.02852342277765274
436.0,8190.0,2.4975,-0.2249,9.1023,-0.0389,0.0182,-0.1095,-1.4429581475308915,0.0,1.4725792407989502,-2.0929694175720215,-0.0,2.0561583042144775,4.734619029774823,-0.0,0.3053308427333832,-1.6628969351397913,-0.0,0.0003775828517973423,1.0466291904449463,-0.0,0.004028216004371643,0.6234380006790161,0.0,-0.0086996303871274
436.0,8190.0,2.4975,-0.2249,9.1023,-0.0389,0.0182,-0.1095,-1.4429823619178315,0.0,1.5127906799316406,-2.0929694175720215,-0.0,2.071911334991455,4.734599041729727,-0.0,0.306062251329422,-1.6629131476031702,-0.0,0.011053064838051796,1.046653389930725,-0.0,-0.008520170114934444,0.6234017610549927,0.0,0.00739241624251008
436.0,8190.0,2.4975,-0.2249,9.1023,-0.0389,0.0182,-0.1095,-1.4429865193418046,0.0,1.5223219394683838,-2.092973470687866,-0.0,2.1141891479492188,4.734579133778372,-0.0,0.3035033047199249,-1.6629169623004358,-0.0,0.011779066175222397,1.0466891527175903,-0.0,-0.011783720925450325,0.6234460473060608,0.0,-0.012017495930194855
436.0,8190.0,2.4975,-0.2249,9.1023,-0.0389,0.0182,-0.1095,-1.4429823470166703,0.0,1.491923213005066,-2.0929858684539795,-0.0,2.023932933807373,4.734599041729727,-0.0,0.3073643147945404,-1.66296893755068,-0.0,0.0022528013214468956,1.0466731786727905,-0.0,-0.010898102074861526,0.6234378814697266,0.0,0.013750569894909859
436.0,8190.0,2.4975,-0.2249,9.1023,-0.0389,0.0182,-0.1095,-1.4429461073926468,0.0,1.5316747426986694,-2.0929932594299316,-0.0,2.073638677597046,4.734579133778372,-0.0,0.29176604747772217,-1.6629608313189905,-0.0,0.005837146192789078,1.0466930866241455,-0.0,-0.0010126628912985325,0.6234579086303711,0.0,0.01707824505865574
436.0,8190.0,2.4975,-0.2249,9.1023,-0.0389,0.0182,-0.1095,-1.4429098081639786,0.0,1.5204110145568848,-2.0930168628692627,-0.0,2.052426815032959,4.734614956169882,-0.0,0.30283433198928833,-1.662940804158346,-0.0,0.010301966220140457,1.04660165309906,-0.0,-0.0026975416112691164,0.6233819723129272,0.0,-0.02131284400820732
436.0,8190.0,2.4975,-0.2249,9.1023,-0.0389,0.0182,-0.1095,-1.4429581326297303,0.0,1.545554280281067,-2.092961311340332,-0.0,2.0762171745300293,4.734610962658682,-0.0,0.29429927468299866,-1.662940804158346,-0.0,-0.010012916289269924,1.0467135906219482,-0.0,0.005876061040908098,0.6233975291252136,0.0,0.017214050516486168
436.0,8190.0,2.4975,-0.2249,9.1023,-0.0389,0.0182,-0.1095,-1.4429420244744797,0.0,1.5345144271850586,-2.0929818153381348,-0.0,2.0802011489868164,4.734610962658682,-0.0,0.3073282837867737,-1.6629727522479456,-0.0,0.004054768942296505,1.0466930866241455,-0.0,0.003273990470916033,0.6234378814697266,0.0,-0.024547802284359932
436.0,8190.0,2.4975,-0.2249,9.1023,-0.0389,0.0182,-0.1095,-1.442978249197342,4.5109469937187896e-08,1.4995055198669434,-2.093029499053955,-0.0,2.0765366554260254,4.734562900825896,-0.0,0.2938331663608551,-1.6629813353167933,-0.0,0.007978256791830063,1.0466653108596802,-0.0,-0.015451345592737198,0.6233939528465271,0.0,0.013797828927636147
403.0,980.0,2.4921,-0.1657,9.1047,-0.0345,0.0177,-0.1138,-1.4429659110358735,1.9607744011585634e-17,1.4487265348434448,-2.093001365661621,-0.0,2.0624990463256836,4.734610962658682,-0.0,0.3085179328918457,-1.6629770437823694,-0.0,0.01305931992828846,1.046697735786438,-0.0,-0.005162517074495554,0.6234460473060608,0.0,0.0017583966255187988
403.0,980.0,2.4921,-0.1657,9.1047,-0.0345,0.0177,-0.1138,-1.442934201364853,1.1434565061974058e-28,1.5203831195831299,-2.09297776222229,-0.0,2.0752620697021484,4.734579133778372,-0.0,0.306194007396698,-1.662928883229391,-0.0,-0.0009748627198860049,1.04664146900177,-0.0,-0.003817441873252392,0.6233899593353271,0.0,-0.04431358724832535
403.0,980.0,2.4921,-0.1657,9.1047,-0.0345,0.0177,-0.1138,-1.442925975923874,4.970264962594308e-38,1.498917818069458,-2.093005657196045,-0.0,2.0618762969970703,4.73459109568552,-0.0,0.29468095302581787,-1.66296893755068,-0.0,0.01641596108675003,1.0466811656951904,-0.0,-0.005613194778561592,0.6234138607978821,0.0,0.024068700149655342
403.0,980.0,2.4921,-0.1657,9.1047,-0.0345,0.0177,-0.1138,-1.4430226695588608,0.0,1.4856010675430298,-2.093017101287842,-0.0,2.0384840965270996,4.734595048218527,-0.0,0.28243452310562134,-1.6629169623004358,-0.0,-0.009584901854395866,1.0466811656951904,-0.0,-0.007033795118331909,0.6234260201454163,0.0,0.002392194699496031
403.0,980.0,2.4921,-0.1657,9.1047,-0.0345,0.0177,-0.1138,-1.4429542881301423,0.0,1.5046560764312744,-2.09297776222229,-0.0,2.076737880706787,4.734599041729727,-0.0,0.2949919104576111,-1.66296893755068,-0.0,0.005510453600436449,1.0465971231460571,-0.0,0.0034588323906064034,0.6234298944473267,0.0,-0.034624554216861725
403.0,980.0,2.4921,-0.1657,9.1047,-0.0345,0.0177,-0.1138,-1.4429581624320527,0.0,1.5144612789154053,-2.0930583477020264,-0.0,2.089958429336548,4.734619029774823,-0.0,0.2999894917011261,-1.6629207769977015,-0.0,0.004203125834465027,1.0466573238372803,-0.0,-0.005745407659560442,0.6234419345855713,1.0081567779707257e-05,0.02026911824941635
403.0,980.0,2.4921,-0.1657,9.1047,-0.0345,0.0177,-0.1138,-1.4429622304490586,0.0,1.485572099685669,-2.092961072921753,-0.0,2.078606605529785,4.734614987834849,-0.0,0.2887287437915802,-1.662952725087301,-0.0,-0.003163756802678108,1.04664146900177,-0.0,-0.006374109536409378,0.6234620213508606,0.0007626375881955028,0.020138243213295937
403.0,980.0,2.4921,-0.1657,9.1047,-0.0345,0.0177,-0.1138,-1.4429098528674622,0.0,1.4941904544830322,-2.0929415225982666,-0.0,2.0515902042388916,4.734607101395287,-0.0,0.30969247221946716,-1.662940804158346,-0.0,-0.0034009921364486217,1.0466612577438354,-0.0,0.003618545364588499,0.6234700083732605,0.0008758591720834374,-0.04314578324556351
403.0,980.0,2.4921,-0.1657,9.1047,-0.0345,0.0177,-0.1138,-1.4429260057261963,0.0,1.5000324249267578,-2.093001365661621,-0.0,2.072150230407715,4.734558907314696,-0.0,0.29353347420692444,-1.6629326979266565,-0.0,-0.0023056711070239544,1.0467301607131958,-0.0,0.005114704370498657,0.6234862208366394,0.0015407874016091228,-0.0016404800117015839
462.0,961.0,1.949,0.0508,9.5139,-0.0224,0.0374,-0.1396,-1.4429622304490586,0.0,1.523850917816162,-2.0929694175720215,-0.0,2.0145862102508545,4.7345831272895715,-0.0,0.3102092146873474,-1.6629608313189905,-0.0,0.010100708343088627,1.0466493368148804,-0.0,-0.010551904328167439,0.6234735250473022,0.0019564114045351744,-0.030793070793151855
462.0,961.0,1.949,0.0508,9.5139,-0.0224,0.0374,-0.1396,-1.4428817194751282,0.00010670222400221974,1.5141332149505615,-2.0929694175720215,-0.0,2.064870834350586,4.7346149803842685,-0.0,0.2929481863975525,-1.6629846731769007,-0.0,0.006472084205597639,1.0467016696929932,-0.0,-0.006942667067050934,0.6234895586967468,0.002268405631184578,0.005658912006765604
462.0,961.0,1.949,0.0508,9.5139,-0.0224,0.0374,-0.1396,-1.4429547947696229,0.0005141606088727713,1.491748332977295,-2.0929415225982666,-0.0,2.094998598098755,4.734599030553856,-0.0,0.29701992869377136,-1.6629803816424769,-0.0,0.005870042834430933,1.0466493368148804,-0.0,-0.0024605293292552233,0.6234977841377258,0.0015762028051540256,0.01155782025307417
462.0,961.0,1.949,0.0508,9.5139,-0.0224,0.0374,-0.1396,-1.4429663729718705,0.0005527608445845544,1.476019024848938,-2.093001365661621,-0.0,2.0871496200561523,4.734586997866192,-0.0,0.2931724786758423,-1.6629732290851038,-0.0,-0.012095817364752293,1.0466771125793457,-0.0,0.008571755141019821,0.6235661506652832,0.000856550526805222,0.00535023445263505
462.0,961.0,1.949,0.0508,9.5139,-0.0224,0.0374,-0.1396,-1.4429221016219635,0.0005760823842138052,1.5017807483673096,-2.0929858684539795,-0.0,2.0582051277160645,4.7346109738345525,-0.0,0.3045575022697449,-1.6629326979266565,-0.0,-0.006884617265313864,1.0466852188110352,-0.0,-0.00032694434048607945,0.6235624551773071,0.0005369908758439124,0.007832128554582596
462.0,961.0,1.949,0.0508,9.5139,-0.0224,0.0374,-0.1396,-1.442910523419716,0.0005218256264925003,1.5572636127471924,-2.0930097103118896,-0.0,2.0555341243743896,4.734594873129883,-0.0,0.30418577790260315,-1.6629088560687464,-0.0,0.006710222456604242,1.046621561050415,-0.0,-0.00291355699300766,0.623489499092102,0.0003911132225766778,-0.010763131082057953
462.0,961.0,1.949,0.0508,9.5139,-0.0224,0.0374,-0.1396,-1.4429625135711213,0.0003302835102658719,1.4901161193847656,-2.0930087566375732,-0.0,2.050045967102051,4.7345507489289425,-0.0,0.2978842854499817,-1.6629369894610804,-0.0,-0.00036295794416218996,1.0466375350952148,-0.0,-0.017783774062991142,0.6235784292221069,0.00029496653587557375,-0.017026377841830254
462.0,961.0,1.949,0.0508,9.5139,-0.0224,0.0374,-0.1396,-1.4429624837687989,0.0002107722102664411,1.485428810119629,-2.092994213104248,-0.0,2.0531623363494873,4.7345990529055975,-0.0,0.30247774720191956,-1.662928883229391,-0.0,-0.002875620499253273,1.0466256141662598,-0.0,-0.016503382474184036,0.6235784292221069,0.0002448167942930013,0.03627684712409973
445.0,996.0,2.7165,-0.1196,8.9898,-0.036,0.0221,-0.1216,-1.4429502052119751,0.00010246722376905382,1.4998688697814941,-2.0929529666900635,-0.0,2.0542938709259033,4.734562876611509,-0.0,0.284470796585083,-1.6629326979266565,-0.0,-0.004360587801784277,1.0467016696929932,-0.0,-0.0005120958667248487,0.6234853863716125,0.00020924217824358493,0.030341580510139465
445.0,996.0,2.7165,-0.1196,8.9898,-0.036,0.0221,-0.1216,-1.4429180187037964,-7.183365960372612e-05,1.5190249681472778,-2.092961072921753,-0.0,2.088428258895874,4.734587204619803,-0.0,0.30289050936698914,-1.6629446188556116,-0.0,-0.002639440121129155,1.0466413497924805,-0.0,-0.0084341736510396,0.6235256791114807,0.00018269536667503417,0.0053826286457479
445.0,996.0,2.7165,-0.1196,8.9898,-0.036,0.0221,-0.1216,-1.4429704707911988,-8.982550934888422e-05,1.4928600788116455,-2.0929932594299316,-0.0,2.05002760887146,4.734559047013082,-0.0,0.30192527174949646,-1.6629050413714808,-0.0,-0.0021659298799932003,1.0466294288635254,-0.0,-0.013834314420819283,0.6235504150390625,0.00010634188947733492,-0.026336489245295525
445.0,996.0,2.7165,-0.1196,8.9898,-0.036,0.0221,-0.1216,-1.442930058842041,-0.00012479819997679442,1.5048828125,-2.0930211544036865,-0.0,2.051870822906494,4.734570967942037,-0.0,0.2980861961841583,-1.662928883229391,-0.0,-0.0016379507724195719,1.0467214584350586,-0.0,0.009275168180465698,0.6235504150390625,0.0001095833140425384,-0.007646302226930857
445.0,996.0,2.7165,-0.1196,8.9898,-0.036,0.0221,-0.1216,-1.4430065167001267,-0.00028755335370078683,1.5122381448745728,-2.0929372310638428,1.6782402697352802e-14,2.0738558769226074,4.734559047013082,-0.0,0.29645031690597534,-1.6629369894610804,-0.0,-0.00040942104533314705,1.0466771125793457,-0.0,0.012172974646091461,0.623546302318573,0.00011816165351774544,0.027449216693639755
445.0,996.0,2.7165,-0.1196,8.9898,-0.036,0.0221,-0.1216,-1.4429945808700104,-0.0002649400266818702,1.4774760007858276,-2.0930097103118896,7.294812149605822e-24,2.0276951789855957,4.734567058249869,-0.0,0.2978813648223877,-1.6629446188556116,-0.0,0.006886194460093975,1.0467016696929932,-0.0,-0.018656890839338303,0.62351393699646,0.00012346486619208008,-0.0036823551636189222
445.0,996.0,2.7165,-0.1196,8.9898,-0.036,0.0221,-0.1216,-1.4429499518922348,-0.00021890834614168853,1.4664618968963623,-2.0929818153381348,3.170837971309549e-33,2.0561752319335938,4.734559047013082,-0.0,0.2920234501361847,-1.6629369894610804,-0.0,0.011343841440975666,1.0466769933700562,-0.0,-0.004547605756670237,0.6235702037811279,0.0001769786176737398,-0.016655318439006805
445.0,996.0,2.7165,-0.1196,8.9898,-0.036,0.0221,-0.1216,-1.4430146378329773,-0.0001865047961473465,1.4717636108398438,-2.0930137634277344,1.37887768889562e-42,2.059814453125,4.734591257735648,-0.0,0.2925426661968231,-1.6629770437823694,-0.0,0.0028549982234835625,1.0466294288635254,-0.0,-0.0013382670003920794,0.6235537528991699,0.0001969010627362877,0.021065663546323776
445.0,996.0,2.7165,-0.1196,8.9898,-0.036,0.0221,-0.1216,-1.4429663729718705,-0.00015837345563340932,1.5027897357940674,-2.0929973125457764,-0.0,2.0295443534851074,4.734563051700153,-0.0,0.3089592754840851,-1.6629326979266565,-0.0,-0.010325826704502106,1.0467456579208374,-0.0,-0.005449898075312376,0.6235619783401489,0.0004271695506758988,0.013749409466981888
458.0,8190.0,2.8385,-0.4816,8.863,-0.0415,-0.0131,-0.1042,-1.4429865193418046,-0.00016078786575235426,1.5008158683776855,-2.092933177947998,-0.0,2.0654890537261963,4.734570967942037,-0.0,0.29979178309440613,-1.6629732290851038,-0.0,0.004505949094891548,1.0466572046279907,-0.0,-0.004669629503041506,0.623569905757904,0.001246049301698804,-0.07517784833908081
458.0,8190.0,2.8385,-0.4816,8.863,-0.0415,-0.0131,-0.1042,-1.4430023443749924,-0.00012780059478245676,1.5464274883270264,-2.092949628829956,-0.0,2.0422139167785645,4.734550955682554,-0.0,0.29541489481925964,-1.6629446188556116,-0.0,0.0014247114304453135,1.046677589416504,-0.0,-0.006075650919228792,0.6235976219177246,0.0013104485115036368,0.02829223871231079
458.0,8190.0,2.8385,-0.4816,8.863,-0.0415,-0.0131,-0.1042,-1.442982242708542,-0.0001322365424130112,1.5486222505569458,-2.09297776222229,0.00013378860603552312,2.033761501312256,4.734559047013082,-0.0,0.2934361696243286,-1.6629446188556116,-0.0,-0.002921918872743845,1.0467219352722168,-0.0,-0.01059257797896862,0.6235976815223694,0.002164646051824093,0.06847196072340012
458.0,8190.0,2.8385,-0.4816,8.863,-0.0415,-0.0131,-0.1042,-1.442998246555664,-0.00047856391756795347,1.492884874343872,-2.092961072921753,0.00011928522144444287,2.028010129928589,4.734547126084127,-0.0,0.2966082692146301,-1.662980858479635,-0.0,-0.00412224093452096,1.0467616319656372,-0.0,-0.008286384865641594,0.6236380934715271,0.0028661293908953667,-0.008438010700047016
458.0,8190.0,2.8385,-0.4816,8.863,-0.0415,-0.0131,-0.1042,-1.4430744361928483,-0.0009971638210117817,1.4772679805755615,-2.0930097103118896,0.00010532555461395532,2.057371139526367,4.734563051700153,-0.0,0.2969447374343872,-1.6629207769977015,-0.0,0.005411781370639801,1.0467497110366821,-0.0,0.0023300782777369022,0.6237143874168396,0.005292343441396952,0.031375039368867874
458.0,8190.0,2.8385,-0.4816,8.863,-0.0415,-0.0131,-0.1042,-1.4430420410684128,-0.0007378504960797727,1.4933199882507324,-2.092961072921753,0.00011132217332487926,2.0401525497436523,4.73453911484734,-0.0,0.3056883215904236,-1.662952725087301,-0.0,-0.007920508272945881,1.0467495918273926,-0.0,-0.0037695318460464478,0.623782217502594,0.005508211441338062,0.026311000809073448
458.0,8190.0,2.8385,-0.4816,8.863,-0.0415,-0.0131,-0.1042,-1.443126918082573,-0.0008155526593327522,1.504852294921875,-2.0929858684539795,0.00010282456059940159,2.0952117443084717,4.734559047013082,-0.0,0.3027608096599579,-1.662928883229391,-0.0,-0.0017457099165767431,1.046777367591858,-0.0,-0.002657539676874876,0.6238264441490173,0.005104812793433666,0.02237660065293312
458.0,8190.0,2.8385,-0.4816,8.863,-0.0415,-0.0131,-0.1042,-1.4431507748416443,-0.001767646288499236,1.487248420715332,-2.0929126739501953,9.506665810476989e-05,2.059462547302246,4.73458723255948,-0.0,0.2959965765476227,-1.66288930574526,-0.0,0.01034446433186531,1.0467854738235474,-0.0,0.005061790347099304,0.6238700747489929,0.004113153088837862,0.04046214744448662
438.0,990.0,2.4036,-0.4181,8.9743,-0.0426,0.0257,-0.1074,-1.4431546342423935,-0.0032104772981256247,1.5181050300598145,-2.09297776222229,9.963382763089612e-05,2.0727109909057617,4.734611150785842,-0.0,0.30365800857543945,-1.6629565397845667,-0.0,0.004071996547281742,1.0468052625656128,-0.0,-0.004833198618143797,0.6239305138587952,0.0033743141684681177,-0.005838794633746147
438.0,990.0,2.4036,-0.4181,8.9743,-0.0426,0.0257,-0.1074,-1.4431823653033753,-0.003862129058688879,1.5046571493148804,-2.092949628829956,0.0006521252216771245,2.0889649391174316,4.734574972629108,-0.0,0.290447473526001,-1.66296893755068,-0.0,-0.00992591679096222,1.0467418432235718,-0.0,-0.004769013728946447,0.6239705681800842,0.0032771907281130552,0.04917098954319954
438.0,990.0,2.4036,-0.4181,8.9743,-0.0426,0.0257,-0.1074,-1.44320601344619,-0.0024739964865148067,1.4475860595703125,-2.0928969383239746,0.0007397042354568839,2.05096173286438,4.734574993118205,-0.0,0.3017728328704834,-1.662980858479635,-0.0,-0.0025364046450704336,1.0467219352722168,-0.0,-0.011340092867612839,0.623982310295105,0.003897197777405381,0.10025852918624878
438.0,990.0,2.4036,-0.4181,8.9743,-0.0426,0.0257,-0.1074,-1.4432747077992936,-0.0019396466668695211,1.4803671836853027,-2.0929620265960693,0.000989011605270207,2.0571253299713135,4.734566870122709,-0.0,0.30114102363586426,-1.6629207769977015,-0.0,-0.010855231434106827,1.0467655658721924,-0.0,0.003117345506325364,0.6240425705909729,0.005262147169560194,0.07710133492946625
438.0,990.0,2.4036,-0.4181,8.9743,-0.0426,0.0257,-0.1074,-1.4432379019311448,-0.002049287548288703,1.4275686740875244,-2.092921733856201,0.0012404214357957244,2.038637638092041,4.734559047013082,-0.0,0.29801425337791443,-1.6629169623004358,-0.0,-0.01688213087618351,1.0467218160629272,-0.0,-0.006482727825641632,0.624122679233551,0.0077370102517306805,0.10468263179063797
438.0,990.0,2.4036,-0.4181,8.9743,-0.0426,0.0257,-0.1074,-1.4432903838208695,-0.001865074154920876,1.4200994968414307,-2.092897891998291,0.005525402724742889,2.0643482208251953,4.7345990659441135,-0.0,0.2956456243991852,-1.6629050413714808,-0.0,-0.0166088305413723,1.0467495918273926,-0.0,-0.0014566810568794608,0.6241781711578369,0.008662700653076172,0.11787934601306915
438.0,990.0,2.4036,-0.4181,8.9743,-0.0426,0.0257,-0.1074,-1.4432900559953232,-0.002782499650493264,1.3793584108352661,-2.092801570892334,0.005744874011725187,2.0555801391601562,4.73454691374258,-0.0,0.28154492378234863,-1.662928883229391,-0.0,-0.0121336430311203,1.046769142150879,-0.0,0.0008197054849006236,0.6243308782577515,0.009860233403742313,0.14800038933753967
438.0,990.0,2.4036,-0.4181,8.9743,-0.0426,0.0257,-0.1074,-1.443330169921257,-0.0028640085365623236,1.3945627212524414,-2.0927300453186035,0.005055423825979233,2.0212512016296387,4.734575091838398,-0.0,0.28810927271842957,-1.6629489103900355,-0.0,-0.02539946511387825,1.0468177795410156,-0.0,0.0036983261816203594,0.6244468092918396,0.010230695828795433,0.17254535853862762
438.0,990.0,2.4036,-0.4181,8.9743,-0.0426,0.0257,-0.1074,-1.443406657581665,-0.0022367010824382305,1.4517619609832764,-2.092686414718628,0.004407042171806097,2.045130729675293,4.734574985667624,-0.0,0.2818865478038788,-1.6629446188556116,-0.0,-0.023791495710611343,1.0467815399169922,-0.0,0.001543738879263401,0.6245068907737732,0.009311146102845669,0.14767217636108398
431.0,1006.0,2.4269,-0.2435,9.0156,-0.0392,0.0318,-0.1072,-1.4434144061854859,-0.0023943260312080383,1.4120450019836426,-2.092618227005005,0.002630039816722274,2.011505365371704,4.7345831272895715,-0.0,0.2824346125125885,-1.6629250685321253,-0.0,-0.043064430356025696,1.0468015670776367,-0.0,0.008319204673171043,0.6245904564857483,0.009358735755085945,0.18521884083747864
431.0,1006.0,2.4269,-0.2435,9.0156,-0.0392,0.0318,-0.1072,-1.4434505564025422,-0.0036953818053007126,1.387778401374817,-2.0926740169525146,0.002111478941515088,2.0295662879943848,4.7345831272895715,-0.0,0.28584805130958557,-1.6629446188556116,-0.0,-0.04553646966814995,1.0468101501464844,-0.0,0.015570798888802528,0.6246907114982605,0.009756826795637608,0.18007874488830566
431.0,1006.0,2.4269,-0.2435,9.0156,-0.0392,0.0318,-0.1072,-1.4435064506581803,-0.00391301279887557,1.4127682447433472,-2.092569589614868,0.002085436135530472,2.0347518920898438,4.734647198557415,-0.0,0.2820286154747009,-1.662952725087301,-0.0,-0.03466789051890373,1.0467655658721924,-0.0,-0.0002492812927812338,0.6247946619987488,0.010503342375159264,0.21193325519561768
431.0,1006.0,2.4269,-0.2435,9.0156,-0.0392,0.0318,-0.1072,-1.4435019207051774,-0.004448056686669588,1.3436760902404785,-2.0925984382629395,0.002117191907018423,2.0233070850372314,4.734570967942037,-0.0,0.2843145728111267,-1.6629651228534144,-0.0,-0.026613103225827217,1.0467851161956787,-0.0,0.0006182864308357239,0.6248746514320374,0.00985098909586668,0.15254154801368713
431.0,1006.0,2.4269,-0.2435,9.0156,-0.0392,0.0318,-0.1072,-1.443542094235756,-0.0051991138607263565,1.3622615337371826,-2.0925776958465576,0.0024139871820807457,2.011676788330078,4.734566870122709,-0.0,0.2689856290817261,-1.6629369894610804,-0.0,-0.035520680248737335,1.0467573404312134,-0.0,0.011704081669449806,0.6249867081642151,0.009564429521560669,0.23621423542499542
431.0,1006.0,2.4269,-0.2435,9.0156,-0.0392,0.0318,-0.1072,-1.4436260026744385,-0.006211698520928621,1.4001665115356445,-2.092517852783203,0.0023743666242808104,2.0477187633514404,4.7345831272895715,-0.0,0.28228142857551575,-1.662952725087301,-0.0,-0.010587073862552643,1.046814203262329,-0.0,0.01919666677713394,0.6250831484794617,0.008206072263419628,0.2294761687517166
431.0,1006.0,2.4269,-0.2435,9.0156,-0.0392,0.0318,-0.1072,-1.4437749099782486,-0.00704773236066103,1.3136329650878906,-2.0925467014312744,0.002831342862918973,2.044224977493286,4.7345831272895715,-0.0,0.27411186695098877,-1.6629608313189905,-0.0,-0.02562905102968216,1.0467495918273926,-0.0,0.013679401017725468,0.6251790523529053,0.0061615766026079655,0.23887616395950317
431.0,1006.0,2.4269,-0.2435,9.0156,-0.0392,0.0318,-0.1072,-1.4437618565610428,-0.007727975491434336,1.3415913581848145,-2.092458486557007,0.002932671457529068,2.042646646499634,4.734550931468167,-0.0,0.26437562704086304,-1.6629489103900355,-0.0,-0.021097615361213684,1.0467857122421265,-0.0,0.024725448340177536,0.625199019908905,0.005084047093987465,0.2417542040348053
431.0,1006.0,2.4269,-0.2435,9.0156,-0.0392,0.0318,-0.1072,-1.4438660752824326,-0.008912771008908749,1.3237109184265137,-2.0925071239471436,0.0027565769851207733,2.0156137943267822,4.734595048218527,-0.0,0.27224352955818176,-1.6629565397845667,-0.0,-0.022476615384221077,1.0467851161956787,-0.0,0.020828522741794586,0.625255286693573,0.003610555548220873,0.23559746146202087
460.0,8190.0,2.6171,-0.2746,9.0598,-0.042,0.0086,-0.0976,-1.4440025103143235,-0.009580938145518303,1.3209630250930786,-2.0923943519592285,0.002430604537948966,2.024137020111084,4.7345831272895715,-0.0,0.26798775792121887,-1.6629131476031702,-0.0,-0.018153883516788483,1.0467851161956787,4.872553836321458e-05,0.010214624926447868,0.6252830028533936,0.0028272990602999926,0.2751632034778595
460.0,8190.0,2.6171,-0.2746,9.0598,-0.042,0.0086,-0.0976,-1.444041983490326,-0.009306540712714195,1.3140511512756348,-2.0923943519592285,0.00186098029371351,2.0752289295196533,4.7345831272895715,-0.0,0.2574581503868103,-1.6629369894610804,-0.0,-0.025945298373699188,1.0468101501464844,6.0363126976881176e-05,0.007749421987682581,0.625295102596283,0.002507518045604229,0.21313931047916412
460.0,8190.0,2.6171,-0.2746,9.0598,-0.042,0.0086,-0.0976,-1.444190413956978,-0.011344457976520061,1.3172566890716553,-2.0924181938171387,0.000845518137793988,2.0101561546325684,4.734583019256153,-0.0,0.2609316408634186,-1.6629131476031702,-0.0,-0.01544970367103815,1.0468060970306396,5.586674524238333e-05,0.016641180962324142,0.6253554821014404,0.002111276611685753,0.15954536199569702
460.0,8190.0,2.6171,-0.2746,9.0598,-0.042,0.0086,-0.0976,-1.444298417573311,-0.011039456352591515,1.309786081314087,-2.0923705101013184,0.000686599058099091,2.0485503673553467,4.734575091838398,-0.0,0.2576330602169037,-1.6629851500140589,-0.0,-0.01944657787680626,1.046772837638855,5.260153557173908e-05,0.023126671090722084,0.6253228783607483,0.002106734784319997,0.22630709409713745
460.0,8190.0,2.6171,-0.2746,9.0598,-0.042,0.0086,-0.0976,-1.44436630726371,-0.010682049207389355,1.3126083612442017,-2.0924108028411865,0.0009622408542782068,1.993009090423584,4.734534992813625,-0.0,0.25328296422958374,-1.6629207769977015,-0.0,-0.01671585626900196,1.046830177307129,4.969696601619944e-05,0.019296396523714066,0.6253632307052612,0.0023914773482829332,0.18634308874607086
460.0,8190.0,2.6171,-0.2746,9.0598,-0.042,0.0086,-0.0976,-1.4444739830544968,-0.010181780904531479,1.3624866008758545,-2.0923426151275635,0.0017097265226766467,1.9831405878067017,4.734566870122709,-0.0,0.2670214772224426,-1.6629250685321253,-0.0,-0.036593854427337646,1.046753168106079,5.897366622820144e-11,0.01755080372095108,0.6254234313964844,0.0030802886467427015,0.2290087789297104
460.0,8190.0,2.6171,-0.2746,9.0598,-0.042,0.0086,-0.0976,-1.444582299595215,-0.009452145546674728,1.3148221969604492,-2.0923144817352295,0.001822850783355534,2.0027921199798584,4.7345990659441135,-0.0,0.2537674307823181,-1.662928883229391,-0.0,-0.024570375680923462,1.046781063079834,6.99820010684932e-17,0.01037545781582594,0.6254590749740601,0.004233729559928179,0.23279446363449097
460.0,8190.0,2.6171,-0.2746,9.0598,-0.042,0.0086,-0.0976,-1.4447023582509537,-0.01105563621968031,1.2792646884918213,-2.092334270477295,0.001183210057206452,2.0133490562438965,4.734639375447788,-0.0,0.2669684886932373,-1.6629489103900355,-0.0,-0.026025842875242233,1.0468101501464844,5.422258309002876e-24,0.030759688466787338,0.625499427318573,0.005581303965300322,0.1974228322505951
453.0,8190.0,2.4532,-0.2806,9.055,-0.0449,0.0081,-0.1037,-1.4447780561498185,-0.011934775859117508,1.3095709085464478,-2.0922422409057617,0.0011255189310759306,2.023355007171631,4.734574985667624,-0.0,0.25955143570899963,-1.6629489103900355,-0.0,-0.010561168193817139,1.0467491149902344,6.43440480272877e-30,0.014772157184779644,0.6255550384521484,0.006059336010366678,0.23431071639060974
453.0,8190.0,2.4532,-0.2806,9.055,-0.0449,0.0081,-0.1037,-1.4449708622745057,-0.013850711286067963,1.3125896453857422,-2.0923187732696533,0.0012587178498506546,2.03375506401062,4.734555008798399,-0.0,0.25743532180786133,-1.6629369894610804,-0.0,-0.02561132237315178,1.046781063079834,7.635485831712e-36,0.013643143698573112,0.6256192326545715,0.007594482507556677,0.21215392649173737
453.0,8190.0,2.4532,-0.2806,9.055,-0.0449,0.0081,-0.1037,-1.445118711595871,-0.016985565423965454,1.2698378562927246,-2.09230637550354,0.000953619135543704,2.0186715126037598,4.734614971071043,-0.0,0.25813519954681396,-1.6629326979266565,-0.0,-0.02872445620596409,1.0468297004699707,9.060795870324267e-42,0.02112933248281479,0.6257033944129944,0.009560558944940567,0.2218914031982422
453.0,8190.0,2.4532,-0.2806,9.055,-0.0449,0.0081,-0.1037,-1.4453267616084595,-0.020175326615571976,1.342128872871399,-2.0923268795013428,0.0007280664285644889,2.015475273132324,4.734539068281212,-6.564825162058696e-05,0.2590470612049103,-1.662940804158346,-0.0,-0.03043796308338642,1.0467851161956787,0.0,0.0004188399761915207,0.6258193254470825,0.013016007840633392,0.2620193660259247
453.0,8190.0,2.4532,-0.2806,9.055,-0.0449,0.0081,-0.1037,-1.4455507409623642,-0.023093797266483307,1.3395540714263916,-2.0922555923461914,0.0009437188855372369,2.023838758468628,4.734583056509056,-6.119185127317905e-05,0.2594725489616394,-1.6629489103900355,-0.0,-0.030155176296830177,1.0467770099639893,0.0,0.02440035715699196,0.6259473562240601,0.016641343012452126,0.23880696296691895
453.0,8190.0,2.4532,-0.2806,9.055,-0.0449,0.0081,-0.1037,-1.4457623821548005,-0.02672051452100277,1.2956454753875732,-2.0922348499298096,0.000829150783829391,1.9955055713653564,4.734595268010654,-5.72962271689903e-05,0.2742030620574951,-1.6629369894610804,-0.0,-0.021862942725419998,1.046825647354126,0.0,0.025138888508081436,0.626183807849884,0.021811529994010925,0.21993118524551392
453.0,8190.0,2.4532,-0.2806,9.055,-0.0449,0.0081,-0.1037,-1.445993961100914,-0.03256279230117798,1.3227565288543701,-2.092311382293701,0.0006623296067118645,1.9981677532196045,4.73456307591454,-5.386697011999786e-05,0.26784664392471313,-1.6629050413714808,-0.0,-0.02416183240711689,1.046769618988037,0.0,0.017601151019334793,0.6264282464981079,0.028207259252667427,0.22247426211833954
453.0,8190.0,2.4532,-0.2806,9.055,-0.0449,0.0081,-0.1037,-1.4464025732925911,-0.03862227126955986,1.3272013664245605,-2.0923073291778564,0.0013252871576696634,2.0116429328918457,4.734579312592306,-5.082499410491437e-05,0.2611885964870453,-1.6629169623004358,-0.0,-0.016870325431227684,1.0467894077301025,0.0,0.029952174052596092,0.6267000436782837,0.0352754108607769,0.23561310768127441
453.0,8190.0,2.4532,-0.2806,9.055,-0.0449,0.0081,-0.1037,-1.4468627584031601,-0.043622370809316635,1.2644691467285156,-2.0922677516937256,0.002108497777953744,1.990551471710205,4.734579025744953,-9.033143677505961e-10,0.24974220991134644,-1.6629250685321253,-0.0,-0.007437040098011494,1.0468060970306396,0.0,0.031628187745809555,0.6271764039993286,0.04235277697443962,0.252250999212265
446.0,1022.0,2.4736,0.0018,8.7051,-0.0406,0.0202,-0.1187,-1.4473025363734742,-0.049910593777894974,1.3124032020568848,-2.092238664627075,0.0032116672955453396,2.0148162841796875,4.73455090725378,-1.0719319473324602e-15,0.2543106973171234,-1.6629169623004358,-0.0,-0.011404048651456833,1.0468101501464844,0.0,0.03604036942124367,0.6276609897613525,0.0483972541987896,0.27211493253707886
446.0,1022.0,2.4736,0.0018,8.7051,-0.0406,0.0202,-0.1187,-1.4479191091707726,-0.05724484845995903,1.2537205219268799,-2.092174768447876,0.0030693886801600456,1.9809184074401855,4.734543097182669,-1.2720246538830862e-21,0.2626550495624542,-1.6629446188556116,-0.0,-0.019775643944740295,1.046797513961792,0.0,0.019106201827526093,0.6281933188438416,0.054470308125019073,0.26706352829933167
446.0,1022.0,2.4736,0.0018,8.7051,-0.0406,0.0202,-0.1187,-1.4484344285777588,-0.058618638664484024,1.2835134267807007,-2.092118740081787,0.002930071670562029,1.959012746810913,4.734546878352322,-1.5094678161779122e-27,0.2691870927810669,-1.662940804158346,-2.181871039397265e-08,-0.0027274652384221554,1.0467774868011475,0.0,0.025894585996866226,0.6287616491317749,0.06207733228802681,0.27741098403930664
446.0,1022.0,2.4736,0.0018,8.7051,-0.0406,0.0202,-0.1187,-1.4490549278310318,-0.05504176765680313,1.3307955265045166,-2.0920753479003906,0.004265132360160351,2.0227227210998535,4.734587256773867,-1.7912331691333793e-33,0.25375115871429443,-1.6628931204425257,0.00014945858856663108,-0.011130070313811302,1.0468018054962158,0.0,0.012996267527341843,0.6294461488723755,0.06996633857488632,0.26409053802490234
446.0,1022.0,2.4736,0.0018,8.7051,-0.0406,0.0202,-0.1187,-1.449718938474991,-0.057745154947042465,1.2600066661834717,-2.0921072959899902,0.002393037546426058,1.9946157932281494,4.734559030249276,-1.387860012051942e-40,0.24213433265686035,-1.662912670766012,7.502600783482194e-05,-0.0021499712020158768,1.0468261241912842,0.0,0.024449754506349564,0.6303268074989319,0.071294866502285,0.2592311501502991
446.0,1022.0,2.4736,0.0018,8.7051,-0.0406,0.0202,-0.1187,-1.4503150817802926,-0.06311912089586258,1.3212919235229492,-2.092066764831543,0.0016215316718444228,1.967677354812622,4.734603275522151,-0.0,0.26552122831344604,-1.6629446188556116,5.2943556511309e-05,-0.020603083074092865,1.0467770099639893,0.0,0.015424217097461224,0.6310389637947083,0.07282321155071259,0.2803595960140228
446.0,1022.0,2.4736,0.0018,8.7051,-0.0406,0.0202,-0.1187,-1.4509392243674775,-0.06417877972126007,1.2437247037887573,-2.09199857711792,0.0021615701261907816,1.9916961193084717,4.734574980079689,-0.0,0.25115710496902466,-1.6629050413714808,4.090718357474543e-05,-0.0064017390832304955,1.0468101501464844,0.0,0.018052900210022926,0.6318598985671997,0.07819969952106476,0.3146606981754303
446.0,1022.0,2.4736,0.0018,8.7051,-0.0406,0.0202,-0.1187,-1.4515671742013474,-0.06380113214254379,1.2746045589447021,-2.0919790267944336,0.004083249717950821,2.0090179443359375,4.734574996843495,-0.0,0.26872020959854126,-1.6629369894610804,3.333084532641806e-05,-0.0034002007450908422,1.046833872795105,0.0,0.02341654896736145,0.6326883435249329,0.08215674757957458,0.30432114005088806
446.0,1022.0,2.4736,0.0018,8.7051,-0.0406,0.0202,-0.1187,-1.4522070077112694,-0.06995595991611481,1.296341061592102,-2.0919394493103027,0.0034337430261075497,2.0227441787719727,4.734530911758103,-0.0,0.26179516315460205,-1.6629369894610804,2.8122649382567033e-05,-0.01386195421218872,1.0467935800552368,0.0,0.014111430384218693,0.6335286498069763,0.0848771259188652,0.2599038779735565
442.0,931.0,1.8215,-0.3757,9.7131,-0.0279,-0.0603,-0.0478,-1.4530833673528214,-0.0753733366727829,1.257817029953003,-2.0919559001922607,0.00257133855484426,1.9974040985107422,4.734587236284771,-0.0,0.2626549005508423,-1.6628969351397913,2.3682234314037487e-05,-0.004550912417471409,1.0467897653579712,0.0,0.01601989194750786,0.6345651149749756,0.0931769534945488,0.3133699297904968
442.0,931.0,1.8215,-0.3757,9.7131,-0.0279,-0.0603,-0.0478,-1.4538072359612961,-0.0719323456287384,1.2977726459503174,-2.091923713684082,0.002742429729551077,2.01774263381958,4.734546878352322,-0.0,0.2666141390800476,-1.6629770437823694,2.0928562662447803e-05,-0.005535566247999668,1.0467774868011475,7.480810381821357e-06,0.008574393577873707,0.6355375647544861,0.09619325399398804,0.25862181186676025
442.0,931.0,1.8215,-0.3757,9.7131,-0.0279,-0.0603,-0.0478,-1.4545312163284798,-0.07370522618293762,1.3205413818359375,-2.0918991565704346,0.0026886442210525274,2.016552448272705,4.734579025744953,-0.0,0.26065942645072937,-1.6629484335528772,1.874858935480006e-05,-0.017647260800004005,1.0467734336853027,8.87721927217422e-12,0.0027259760536253452,0.6365265250205994,0.10216396301984787,0.3085312843322754
442.0,931.0,1.8215,-0.3757,9.7131,-0.0279,-0.0603,-0.0478,-1.455295556490757,-0.07842795550823212,1.2746083736419678,-2.091862916946411,0.0013028148096054792,2.044027805328369,4.734523116588154,-0.0,0.26219725608825684,-1.6628926436053675,1.6979940482997335e-05,-0.008762970566749573,1.046769142150879,-8.930046169552952e-05,0.006036086939275265,0.6376352310180664,0.10660437494516373,0.3036973774433136
442.0,931.0,1.8215,-0.3757,9.7131,-0.0279,-0.0603,-0.0478,-1.456043766146042,-0.07686959952116013,1.3350002765655518,-2.0918874740600586,0.0007859093020670116,2.026277542114258,4.7345751011516235,-0.0,0.25778844952583313,-1.6629250685321253,1.5516214261879213e-05,-0.013319272547960281,1.0467774868011475,-5.9899532061535865e-05,0.006425689905881882,0.6386963725090027,0.09970690310001373,0.31053659319877625
442.0,931.0,1.8215,-0.3757,9.7131,-0.0279,-0.0603,-0.0478,-1.4569393408349534,-0.07522397488355637,1.2967700958251953,-2.091848134994507,0.00221659941598773,1.968536615371704,4.734595048218527,-0.0,0.2686801552772522,-1.6628969351397913,1.4061645742913242e-05,-0.008171346969902515,1.046797752380371,-4.2800613300642e-05,0.0027836859226226807,0.6398491859436035,0.10055770725011826,0.2560485303401947
442.0,931.0,1.8215,-0.3757,9.7131,-0.0279,-0.0603,-0.0478,-1.4576674339226265,-0.07995817065238953,1.2988789081573486,-2.091844081878662,0.0015422201249748468,2.0123960971832275,4.73459503145472,-0.0,0.27932673692703247,-1.6629088560687464,1.3042746104474645e-05,0.007976115681231022,1.0468541383743286,-3.4576907637529075e-05,0.002503767143934965,0.6408538222312927,0.09610652178525925,0.28001514077186584
442.0,931.0,1.8215,-0.3757,9.7131,-0.0279,-0.0603,-0.0478,-1.4584915798953553,-0.0781647115945816,1.3350002765655518,-2.0917797088623047,0.001598499482497573,2.063967227935791,4.734562852397122,-0.0,0.2733704745769501,-1.662980858479635,1.216152395500103e-05,-0.0052277809008955956,1.0467894077301025,-2.9004506359342486e-05,0.006047836504876614,0.6418100595474243,0.10358942300081253,0.28871405124664307
482.0,983.0,2.4497,-0.3595,9.0449,-0.018,-0.0428,-0.0252,-1.459227443938591,-0.07354265451431274,1.3758684396743774,-2.0917551517486572,0.002061838284134865,2.005371570587158,4.734558819770374,-0.0,0.27870482206344604,-1.6629131476031702,1.1391847692721058e-05,-0.0003845233004540205,1.0468177795410156,-2.4979073714348488e-05,0.020699160173535347,0.6429117321968079,0.10693635046482086,0.25776809453964233
482.0,983.0,2.4497,-0.3595,9.0449,-0.018,-0.0428,-0.0252,-1.46017940462146,-0.07983208447694778,1.3490006923675537,-2.091764211654663,0.0019048009999096394,2.0362508296966553,4.734515010356464,-0.0,0.27478325366973877,-1.662900749837057,1.0587758879410103e-05,-0.018922651186585426,1.0467655658721924,-2.1413005015347153e-05,0.005480291321873665,0.6441764831542969,0.0979703739285469,0.22236916422843933
482.0,983.0,2.4497,-0.3595,9.0449,-0.018,-0.0428,-0.0252,-1.461043843334057,-0.09452163428068161,1.318534255027771,-2.091723918914795,0.0030163757037371397,2.0117087364196777,4.734603178664603,-0.0,0.2883000373840332,-1.6629646460162562,9.999585017794743e-06,0.004401535261422396,1.0467934608459473,-1.9136377886752598e-05,-5.8740974054671824e-05,0.6451094746589661,0.09332939982414246,0.2385401427745819
482.0,983.0,2.4497,-0.3595,9.0449,-0.018,-0.0428,-0.0252,-1.4619882565787812,-0.09680930525064468,1.3322296142578125,-2.0917000770568848,0.007125507108867168,2.030071258544922,4.734587249323287,-6.152053172447935e-11,0.27412426471710205,-1.6629446188556116,4.6181888174734453e-11,0.005139700137078762,1.0468261241912842,-1.7297379599767737e-05,0.008510397747159004,0.6459658145904541,0.0845222920179367,0.21484804153442383
482.0,983.0,2.4497,-0.3595,9.0449,-0.018,-0.0428,-0.0252,-1.4629916933229943,-0.09346852451562881,1.3868540525436401,-2.0915675163269043,0.010823444463312626,2.0986390113830566,4.734635098814525,-7.300428741619045e-17,0.2891312539577484,-1.6628769079791468,5.4802439426034644e-17,0.001936301589012146,1.0468298196792603,-1.5780855392222293e-05,-0.006861179135739803,0.646842896938324,0.08703210949897766,0.23396044969558716
482.0,983.0,2.4497,-0.3595,9.0449,-0.018,-0.0428,-0.0252,-1.464011200969555,-0.09152856469154358,1.427609920501709,-2.0915043354034424,0.00812273845076561,2.0613460540771484,4.734603187977829,-8.66316443823149e-23,0.29262804985046387,-1.662884537373678,6.50321657917077e-23,0.006935039535164833,1.0467615127563477,-1.4508829735859763e-05,0.005493577104061842,0.64775151014328,0.09664110839366913,0.22101187705993652
482.0,983.0,2.4497,-0.3595,9.0449,-0.018,-0.0428,-0.0252,-1.465174139743187,-0.09849265217781067,1.3987364768981934,-2.0914247035980225,0.001801109523512423,2.005417585372925,4.7345868842448375,-6.712287153364852e-30,0.29392576217651367,-1.6628926436053675,5.0387424288675255e-30,0.023252997547388077,1.0468018054962158,-1.322922526014736e-05,0.012032929807901382,0.6489649415016174,0.103447325527668,0.22412721812725067
482.0,983.0,2.4497,-0.3595,9.0449,-0.018,-0.0428,-0.0252,-1.4661370676806946,-0.10367390513420105,1.3515863418579102,-2.0914409160614014,0.00038066291017457843,2.078239917755127,4.734595048218527,-7.965239117287611e-36,0.2989904284477234,-1.6629169623004358,5.979300817659934e-36,0.015832355245947838,1.0468302965164185,-1.2323484043008648e-05,0.011331586167216301,0.6499781012535095,0.09685046970844269,0.1874869167804718
482.0,983.0,2.4497,-0.3595,9.0449,-0.018,-0.0428,-0.0252,-1.4672445443323632,-0.11123021692037582,1.3465020656585693,-2.091400623321533,0.0030363104306161404,2.0737571716308594,4.734606576129355,0.0001635889639146626,0.28019338846206665,-1.6628606955157679,7.094774124876549e-42,-0.0013295849785208702,1.0468261241912842,-1.1533836186572444e-05,0.004161462187767029,0.6508383750915527,0.08124885708093643,0.17186439037322998
517.0,843.0,2.8672,0.2399,8.8187,0.036,-0.0783,-0.0127,-1.4684191656163712,-0.11373093724250793,1.3744010925292969,-2.091365337371826,0.007580402307212353,2.113539218902588,4.734615086555042,0.0005138256237842143,0.31017813086509705,-1.6629050413714808,0.0,0.017219336703419685,1.0467734336853027,-1.0839080459845718e-05,0.014922832138836384,0.6516470313072205,0.07687206566333771,0.23305456340312958
517.0,843.0,2.8672,0.2399,8.8187,0.036,-0.0783,-0.0127,-1.4696340200356026,-0.10915117710828781,1.3901324272155762,-2.091336250305176,0.005234232172369957,2.1019277572631836,4.734655606537618,0.00033611615072004497,0.29957687854766846,-1.6629012266742151,0.0,0.010587934404611588,1.0467573404312134,-1.0223625395155977e-05,0.00025362696032971144,0.6523996591567993,0.0845506563782692,0.21725931763648987
517.0,843.0,2.8672,0.2399,8.8187,0.036,-0.0783,-0.0127,-1.4710009557059784,-0.11481120437383652,1.4099442958831787,-2.0912442207336426,0.001213865471072495,2.0858664512634277,4.734619128495016,0.00016227051673922688,0.2885386347770691,-1.6629050413714808,0.0,0.01751607283949852,1.046850323677063,-7.07072678185483e-10,-0.0035336664877831936,0.6534325480461121,0.08958058059215546,0.19361567497253418
517.0,843.0,2.8672,0.2399,8.8187,0.036,-0.0783,-0.0127,-1.4721918937614937,-0.12812994420528412,1.340498924255371,-2.0912609100341797,0.0002947751490864903,2.072756290435791,4.734602847113766,0.00011689394159475341,0.294607013463974,-1.662861172352926,0.0,0.013057373464107513,1.0468018054962158,-8.390587673306115e-16,0.0027367391157895327,0.6544219851493835,0.09515546262264252,0.1948491334915161
517.0,843.0,2.8672,0.2399,8.8187,0.036,-0.0783,-0.0127,-1.4734828260592003,-0.13205018639564514,1.3727853298187256,-2.0911924839019775,0.0018039813730865717,2.0580837726593018,4.734602882504024,5.336524554877542e-05,0.2940700650215149,-1.662896458302633,0.0,0.016260812059044838,1.0467770099639893,-9.95681907753411e-22,0.010600285604596138,0.655314028263092,0.09313596785068512,0.1862456053495407
517.0,843.0,2.8672,0.2399,8.8187,0.036,-0.0783,-0.0127,-1.4747936737588425,-0.12630118429660797,1.4167184829711914,-2.091217279434204,0.005885364953428507,2.092714309692383,4.734570640116491,3.401231879252009e-05,0.2951006293296814,-1.6629088560687464,0.0,0.02783903107047081,1.0467894077301025,-1.1815414578840475e-27,0.008910363540053368,0.6562350392341614,0.0807972252368927,0.20358192920684814
517.0,843.0,2.8672,0.2399,8.8187,0.036,-0.0783,-0.0127,-1.4761121657541771,-0.12358274310827255,1.486396312713623,-2.091217279434204,0.0030138734728097916,2.086784601211548,4.734607000812449,6.639456984203207e-08,0.290396511554718,-1.6628568808185022,3.667288339670449e-08,0.01718907430768013,1.0467894077301025,-1.4020943049948037e-33,0.0213529821485281,0.6570034623146057,0.07855868339538574,0.1752835214138031
517.0,843.0,2.8672,0.2399,8.8187,0.036,-0.0783,-0.0127,-1.4776190903833886,-0.1364976465702057,1.3802967071533203,-2.0911529064178467,0.00027266881079412997,2.0555243492126465,4.734566834732451,5.1443029862514346e-15,0.2904267907142639,-1.6628888289081019,2.841442960573883e-15,0.003681075293570757,1.0467894077301025,-1.0863566344678144e-40,0.017528967931866646,0.6579121351242065,0.07834579795598984,0.14439329504966736
601.0,1003.0,3.1998,-1.7067,8.7727,-0.1211,-0.1425,-0.0113,-1.4789462697556992,-0.1423560380935669,1.3825267553329468,-2.0910611152648926,0.0003091536636929959,2.077547788619995,4.734594727843561,6.1045666673504185e-21,0.28475698828697205,-1.6628807226764124,3.3718422278429454e-21,0.019540712237358093,1.0467894077301025,-0.0,0.007094795815646648,0.658728837966919,0.08011255413293839,0.18964193761348724
601.0,1003.0,3.1998,-1.7067,8.7727,-0.1211,-0.1425,-0.0113,-1.4802765411189576,-0.12931153178215027,1.3844099044799805,-2.0911052227020264,0.007427989039570093,2.095811367034912,4.73461100549952,7.244078877765441e-27,0.27921515703201294,-1.6629326979266565,4.001248881956745e-27,0.018334947526454926,1.0468060970306396,-0.0,0.010805539786815643,0.6595172882080078,0.08120006322860718,0.1662382185459137
601.0,1003.0,3.1998,-1.7067,8.7727,-0.1211,-0.1425,-0.0113,-1.4816112604788323,-0.12257511168718338,1.4652066230773926,-2.090989351272583,0.008355341851711273,2.122028350830078,4.734575045272269,0.0004772974061779678,0.29920506477355957,-1.6629088560687464,4.7481449439176954e-33,0.019111089408397675,1.0467852354049683,-0.0,0.018272776156663895,0.660402774810791,0.08843167126178741,0.16277852654457092
601.0,1003.0,3.1998,-1.7067,8.7727,-0.1211,-0.1425,-0.0113,-1.4828861144236107,-0.13323324918746948,1.4533747434616089,-2.091033935546875,0.0018121229950338602,2.115025281906128,4.734627316683092,-0.00024148361990228295,0.29551389813423157,-1.6629446188556116,5.634459975726692e-39,0.01806921511888504,1.0467491149902344,-0.0,0.005301516968756914,0.6613233685493469,0.09040267765522003,0.1810562014579773
601.0,1003.0,3.1998,-1.7067,8.7727,-0.1211,-0.1425,-0.0113,-1.4843930763057251,-0.1356014758348465,1.4500184059143066,-2.090937614440918,0.0027495012618601322,2.151862144470215,4.7346110613788746,-1.8490249203750864e-05,0.29649585485458374,-1.6628811995135706,0.0,0.01655495911836624,1.046769142150879,-0.0,0.02313188463449478,0.6623563766479492,0.08449120074510574,0.1477971225976944
601.0,1003.0,3.1998,-1.7067,8.7727,-0.1211,-0.1425,-0.0113,-1.4856396925500412,-0.12169130891561508,1.4390461444854736,-2.090857744216919,0.007157782092690468,2.1589391231536865,4.734675205289879,-2.194174182623687e-11,0.3139876425266266,-1.6629169623004358,0.0,0.011734523810446262,1.046769142150879,-0.0,0.006536661647260189,0.6632215976715088,0.07811515033245087,0.14505498111248016
601.0,1003.0,3.1998,-1.7067,8.7727,-0.1211,-0.1425,-0.0113,-1.4868382450989266,-0.11962348967790604,1.4728776216506958,-2.090850353240967,0.01026783138513565,2.1125566959381104,4.7346549080456874,-2.60375032853828e-17,0.3057492673397064,-1.6628926436053675,0.0,0.026740554720163345,1.0467650890350342,-0.0,0.00538045447319746,0.6640582084655762,0.0761575698852539,0.12720637023448944
601.0,1003.0,3.1998,-1.7067,8.7727,-0.1211,-0.1425,-0.0113,-1.4880896744183083,-0.12388380616903305,1.503826379776001,-2.090677499771118,0.010545356199145317,2.162898302078247,4.734606976598062,-3.0897804168552606e-23,0.3075162470340729,-1.6629131476031702,0.0,0.002883574925363064,1.0468543767929077,-0.0,0.007594883441925049,0.6647664904594421,0.07860374450683594,0.20210665464401245
601.0,1003.0,3.1998,-1.7067,8.7727,-0.1211,-0.1425,-0.0113,-1.4894923281720658,-0.11871909350156784,1.5072572231292725,-2.0905861854553223,0.012259367853403091,2.211632490158081,4.734658944397726,-2.3939852757321162e-30,0.3050774931907654,-1.6628645102130335,0.0,0.0043818592093884945,1.0467454195022583,-0.0,0.01476738415658474,0.6657076478004456,0.07474345713853836,0.1559598445892334
582.0,8190.0,3.2279,-0.594,9.1041,-0.0464,-0.0945,-0.0434,-1.4906111297062417,-0.1050158143043518,1.497702717781067,-2.0904223918914795,0.017063669860363007,2.1504554748535156,4.734610763355651,0.00018659373745322227,0.3078261613845825,-1.6628649870501917,0.0,0.019201012328267097,1.0467934608459473,-0.0,0.013311885297298431,0.6664682030677795,0.07073333114385605,0.10988422483205795
582.0,8190.0,3.2279,-0.594,9.1041,-0.0464,-0.0945,-0.0434,-1.4917143371752282,-0.10775163024663925,1.5281881093978882,-2.090258836746216,0.02085607871413231,2.1877851486206055,4.734611046477713,0.00022476653975900263,0.31743913888931274,-1.6628926436053675,0.0,0.0235474593937397,1.046769142150879,-0.0,0.011510586366057396,0.6672007441520691,0.07171916216611862,0.15729030966758728
582.0,8190.0,3.2279,-0.594,9.1041,-0.0464,-0.0945,-0.0434,-1.4928613689592858,-0.11937322467565536,1.5451617240905762,-2.089987277984619,0.023319339379668236,2.159693479537964,4.734651061683454,0.00021705322433263063,0.3207523822784424,-1.6628730932818812,0.0,0.017157068476080894,1.0467774868011475,-0.0,-0.0006000055000185966,0.6679093241691589,0.07464097440242767,0.18590328097343445
582.0,8190.0,3.2279,-0.594,9.1041,-0.0464,-0.0945,-0.0434,-1.4940041166595002,-0.11359711736440659,1.5057265758514404,-2.0896952152252197,0.029527904465794563,2.205043315887451,4.7346874484564445,0.001144372159615159,0.3219009041786194,-1.662877384816305,0.0,0.015227019786834717,1.0468261241912842,-0.0,0.007302969228476286,0.6685734987258911,0.06978076696395874,0.13092604279518127
582.0,8190.0,3.2279,-0.594,9.1041,-0.0464,-0.0945,-0.0434,-1.4953868848136445,-0.09782547503709793,1.6044399738311768,-2.0892765522003174,0.0407845713198185,2.274650812149048,4.734710927098551,0.0017128057079389691,0.3313101530075073,-1.6629131476031702,0.0,0.02121054008603096,1.0467934608459473,-0.0,0.0014058377128094435,0.6693820953369141,0.0598653107881546,0.14417129755020142
582.0,8190.0,3.2279,-0.594,9.1041,-0.0464,-0.0945,-0.0434,-1.496401497428753,-0.10531581938266754,1.5698026418685913,-2.0888612270355225,0.04198496416211128,2.2428975105285645,4.7346389451767585,0.0005160017171874642,0.31925758719444275,-1.6629045645343226,0.0,0.0194920152425766,1.046781063079834,-0.0,0.000496147433295846,0.669990599155426,0.05788436159491539,0.19530197978019714
582.0,8190.0,3.2279,-0.594,9.1041,-0.0464,-0.0945,-0.0434,-1.4975090783885499,-0.11452695727348328,1.5617523193359375,-2.088346242904663,0.04588794708251953,2.273313283920288,4.734638917237081,0.0003003096499014646,0.33158719539642334,-1.6628854910479944,0.0,0.017943600192666054,1.046753168106079,-0.0,0.004304592031985521,0.6705231666564941,0.053824614733457565,0.12008646875619888
582.0,8190.0,3.2279,-0.594,9.1041,-0.0464,-0.0945,-0.0434,-1.4986038592508812,-0.11295954883098602,1.6093015670776367,-2.0878188610076904,0.0608004592359066,2.2797653675079346,4.73467897155837,0.00023680388403590769,0.3215114176273346,-1.6628730932818812,0.0,0.026430662721395493,1.0468380451202393,-0.0,-0.0002377106575295329,0.6710598468780518,0.048910606652498245,0.12129818648099899
582.0,8190.0,3.2279,-0.594,9.1041,-0.0464,-0.0945,-0.0434,-1.4997870487025757,-0.10517454892396927,1.6155667304992676,-2.0871171951293945,0.07815151661634445,2.3232736587524414,4.734735081880846,0.0018003417644649744,0.3404291272163391,-1.6629131476031702,0.0,0.0016457532765343785,1.0467734336853027,-0.0,0.006185467820614576,0.6715444326400757,0.043469104915857315,0.12271431088447571
616.0,872.0,3.1741,-0.2261,8.6536,-0.048,-0.0756,-0.0619,-1.501197838490345,-0.10365244746208191,1.6480460166931152,-2.086118221282959,0.08492274582386017,2.2838568687438965,4.734682704299249,0.0005443033296614885,0.34305691719055176,-1.6629212538348597,0.0,0.011175702325999737,1.0467495918273926,-0.0,0.005734356585890055,0.6720688939094543,0.04368472471833229,0.11499936133623123
616.0,872.0,3.1741,-0.2261,8.6536,-0.048,-0.0756,-0.0619,-1.502228522007801,-0.11336435377597809,1.5459094047546387,-2.085275888442993,0.08595643192529678,2.307161808013916,4.734670865326681,8.047473238548264e-05,0.3261876106262207,-1.662896458302633,0.0,0.014117548242211342,1.0467734336853027,-0.0,0.008716323412954807,0.6724367737770081,0.04963981360197067,0.1275995969772339
616.0,872.0,3.1741,-0.2261,8.6536,-0.048,-0.0756,-0.0619,-1.5033036780408402,-0.11433640867471695,1.5830862522125244,-2.0843257904052734,0.09398579597473145,2.310549736022949,4.734714972763815,0.00010920401837211102,0.3290378451347351,-1.6628811995135706,0.0,0.01006478164345026,1.0468380451202393,-0.0,0.021148525178432465,0.6729815006256104,0.05396503955125809,0.11358235776424408
616.0,872.0,3.1741,-0.2261,8.6536,-0.048,-0.0756,-0.0619,-1.504450724726059,-0.10869645327329636,1.548708438873291,-2.0833723545074463,0.11124452203512192,2.3441696166992188,4.734698678344049,0.00012702765525318682,0.31511014699935913,-1.6628606955157679,0.0,0.027953511103987694,1.0467976331710815,-0.0,0.009974291548132896,0.6735339760780334,0.05472806096076965,0.14812763035297394
616.0,872.0,3.1741,-0.2261,8.6536,-0.048,-0.0756,-0.0619,-1.5055932861617585,-0.10835417360067368,1.6266522407531738,-2.082186222076416,0.12035737931728363,2.3687541484832764,4.734686688497224,0.00010337483399780467,0.31751298904418945,-1.6628244558917444,0.0,0.013148423284292221,1.046769142150879,-0.0,0.005365562625229359,0.6741225123405457,0.056157201528549194,0.12126851826906204
616.0,872.0,3.1741,-0.2261,8.6536,-0.048,-0.0756,-0.0619,-1.5069204953363915,-0.11176815629005432,1.616038203239441,-2.08078932762146,0.12280815094709396,2.3344459533691406,4.734650735720553,-0.00010316885163774714,0.3238205909729004,-1.662900749837057,0.0,0.021725287660956383,1.046830177307129,-0.0,0.00747233210131526,0.6747390031814575,0.05161947384476662,0.11826758086681366
616.0,872.0,3.1741,-0.2261,8.6536,-0.048,-0.0756,-0.0619,-1.5079349440387269,-0.11252699792385101,1.5654207468032837,-2.0794756412506104,0.1255776286125183,2.2446768283843994,4.734654891281881,-0.00011564042506506667,0.31848907470703125,-1.6629050413714808,0.0,0.03341953083872795,1.0467414855957031,-0.0,0.012691444717347622,0.6752437353134155,0.04460221901535988,0.07417983561754227
616.0,872.0,3.1741,-0.2261,8.6536,-0.048,-0.0756,-0.0619,-1.5090226617506524,-0.11053865402936935,1.5739305019378662,-2.07817006111145,0.13888439536094666,2.3452346324920654,4.734690892487325,-9.963626507669687e-05,0.3070853650569916,-1.6628688017474573,0.0,0.02278342843055725,1.0467852354049683,-0.0,0.01902724802494049,0.6755548715591431,0.03764098137617111,0.11945625394582748
669.0,811.0,3.4038,-1.4237,8.0542,-0.0683,-0.0437,-0.0689,-1.5101538237980385,-0.11229517310857773,1.5791606903076172,-2.0767130851745605,0.15077215433120728,2.342313766479492,4.73469494560317,-8.75237601576373e-05,0.29723286628723145,-1.6628969351397913,0.0,0.014793160371482372,1.0467852354049683,-0.0,-0.007110334001481533,0.6759317517280579,0.032886262983083725,0.10947910696268082
669.0,811.0,3.4038,-1.4237,8.0542,-0.0683,-0.0437,-0.0689,-1.511308417921402,-0.11536198109388351,1.5449235439300537,-2.0751919746398926,0.15397413074970245,2.298841714859009,4.734675261169233,-7.803709740983322e-05,0.31326213479042053,-1.662896458302633,0.0,0.019692696630954742,1.0467894077301025,-0.0,-0.0021463176235556602,0.6762759685516357,0.02952807955443859,0.07957285642623901
669.0,811.0,3.4038,-1.4237,8.0542,-0.0683,-0.0437,-0.0689,-1.5126712520471592,-0.11561523377895355,1.5737820863723755,-2.0732836723327637,0.16522203385829926,2.335789680480957,4.734654863342204,-6.905538612045348e-05,0.3038251996040344,-1.6628883520709437,0.0,0.0263690035790205,1.0467450618743896,-0.0,0.008016875013709068,0.6766244769096375,0.026122799143195152,0.08109132200479507
669.0,811.0,3.4038,-1.4237,8.0542,-0.0683,-0.0437,-0.0689,-1.5138104569962998,-0.1134926900267601,1.6347826719284058,-2.0716233253479004,0.1764584481716156,2.360520839691162,4.7346306936587474,-0.0014590952778235078,0.31629249453544617,-1.6629212538348597,1.0401814826144218e-10,0.018305694684386253,1.0467734336853027,-0.0,-0.005511618219316006,0.6768200397491455,0.021673327311873436,0.04922247678041458
669.0,811.0,3.4038,-1.4237,8.0542,-0.0683,-0.0437,-0.0689,-1.5149089631489296,-0.1195426732301712,1.5727193355560303,-2.0697708129882812,0.1791001558303833,2.339010715484619,4.734691212862291,-0.00040699346573092043,0.2908172905445099,-1.6628606955157679,1.2343471003669037e-16,0.019122907891869545,1.046797752380371,-0.0,0.011549820192158222,0.6769840717315674,0.019889118149876595,0.016617294400930405
669.0,811.0,3.4038,-1.4237,8.0542,-0.0683,-0.0437,-0.0689,-1.5160841581276436,-0.11636613309383392,1.5499950647354126,-2.0679502487182617,0.19171586632728577,2.371246099472046,4.734691212862291,-0.00018827042367774993,0.28970226645469666,-1.6629131476031702,1.464756676378885e-22,0.023378456011414528,1.0468462705612183,-0.0,0.001602312084287405,0.6772326231002808,0.02081475220620632,0.08334523439407349
669.0,811.0,3.4038,-1.4237,8.0542,-0.0683,-0.0437,-0.0689,-1.5174987737885495,-0.1213533952832222,1.5843050479888916,-2.0655503273010254,0.20314179360866547,2.3643486499786377,4.734626985132255,-0.0002822752867359668,0.2937437891960144,-1.662900749837057,1.1349048506228573e-29,0.0377114899456501,1.0468220710754395,-0.0,0.018150553107261658,0.6774368286132812,0.020574277266860008,0.05545660853385925
669.0,811.0,3.4038,-1.4237,8.0542,-0.0683,-0.0437,-0.0689,-1.5187461723438282,-0.12790918350219727,1.5589536428451538,-2.0635275840759277,0.20509442687034607,2.39874267578125,4.7346344766910455,-0.0005731648416258395,0.29156941175460815,-1.6628883520709437,1.3467521974099272e-35,0.024409878998994827,1.046769142150879,-0.0,0.010438280180096626,0.6776935458183289,0.025068778544664383,0.053647059947252274
669.0,811.0,3.4038,-1.4237,8.0542,-0.0683,-0.0437,-0.0689,-1.5199849617532273,-0.12914878129959106,1.523329734802246,-2.0614073276519775,0.2184881716966629,2.4204392433166504,4.734598782822051,-0.00018461183935869485,0.29931408166885376,-1.6628769079791468,1.5981808985624539e-41,0.0433201864361763,1.0468261241912842,-0.0,0.012216905131936073,0.6779657006263733,0.0320633128285408,0.06329859793186188
764.0,8190.0,3.5665,-0.9972,9.3541,-0.0493,0.0357,-0.0843,-1.521223311578371,-0.12592053413391113,1.5586872100830078,-2.0591273307800293,0.21814289689064026,2.3502655029296875,4.7346510765846155,-0.0007972887833602726,0.29246893525123596,-1.662900749837057,0.0,0.03684030473232269,1.0467489957809448,-0.0,0.0001149401068687439,0.6783137321472168,0.037088990211486816,0.07849526405334473
764.0,8190.0,3.5665,-0.9972,9.3541,-0.0493,0.0357,-0.0843,-1.5224941682866593,-0.13038092851638794,1.548781156539917,-2.0569167137145996,0.2195614129304886,2.3636441230773926,4.734642970352926,-0.0002638940932229161,0.27492237091064453,-1.662896458302633,0.0,0.037703737616539,1.0468018054962158,-0.0,0.011341776698827744,0.6787062287330627,0.046973831951618195,0.06352962553501129
764.0,8190.0,3.5665,-0.9972,9.3541,-0.0493,0.0357,-0.0843,-1.5241531071117898,-0.14524930715560913,1.4832501411437988,-2.0543065071105957,0.22439713776111603,2.3709535598754883,4.734595048218527,-0.0002821285161189735,0.27359360456466675,-1.6628769079791468,0.0,0.04807180166244507,1.046769142150879,-0.0,0.011376338079571724,0.679314911365509,0.05140465125441551,0.06151139363646507
764.0,8190.0,3.5665,-0.9972,9.3541,-0.0493,0.0357,-0.0843,-1.5256075833788891,-0.14119203388690948,1.5398225784301758,-2.0519585609436035,0.23043560981750488,2.389024496078491,4.734638893022694,-0.00031507390667684376,0.27238714694976807,-1.6628530661212366,0.0,0.035839859396219254,1.0467894077301025,-0.0,0.00342069985345006,0.6798074245452881,0.04873701184988022,0.03719552233815193
764.0,8190.0,3.5665,-0.9972,9.3541,-0.0493,0.0357,-0.0843,-1.5271745075336476,-0.13679201900959015,1.5642634630203247,-2.0496633052825928,0.24027176201343536,2.400782585144043,4.734574711858787,-0.0002425011625746265,0.26844078302383423,-1.6628811995135706,0.0,0.04376230388879776,1.0467770099639893,-0.0,0.014934390783309937,0.6803279519081116,0.04832470789551735,0.052506934851408005
764.0,8190.0,3.5665,-0.9972,9.3541,-0.0493,0.0357,-0.0843,-1.5285967637649556,-0.1581582874059677,1.5452805757522583,-2.04732346534729,0.23281441628932953,2.327507495880127,4.734578943788566,-0.0017273962730541825,0.2635922431945801,-1.6628730932818812,0.0,0.05045211315155029,1.0467689037322998,-0.0,-0.006650799885392189,0.6808120608329773,0.047868840396404266,0.022283092141151428
764.0,8190.0,3.5665,-0.9972,9.3541,-0.0493,0.0357,-0.0843,-1.530319945221283,-0.17855782806873322,1.500875473022461,-2.044929265975952,0.23507556319236755,2.3118600845336914,4.734590967163005,-0.0007843962521292269,0.2684463858604431,-1.6628244558917444,0.0,0.038907263427972794,1.046769142150879,-0.0,0.001009318744763732,0.6812604665756226,0.04143780097365379,0.04504786431789398
764.0,8190.0,3.5665,-0.9972,9.3541,-0.0493,0.0357,-0.0843,-1.532425833200552,-0.16234144568443298,1.579358696937561,-2.0421342849731445,0.24564793705940247,2.2997794151306152,4.7345746261771104,-0.00023096227960195392,0.2671242952346802,-1.6628730932818812,0.0,0.04118625819683075,1.046781063079834,-0.0,0.000560165848582983,0.6817132830619812,0.029009800404310226,-0.015644820407032967
764.0,8190.0,3.5665,-0.9972,9.3541,-0.0493,0.0357,-0.0843,-1.534240474258997,-0.1754472702741623,1.5619862079620361,-2.0397109985351562,0.2502271234989166,2.381363868713379,4.7345550181116245,-0.00023269331722985953,0.2865259051322937,-1.6629212538348597,0.0,0.03700873255729675,1.04680597782135,-0.0,0.007589684799313545,0.6819365620613098,0.025985486805438995,0.02272786945104599
799.0,902.0,2.3456,-0.7974,8.464,0.0144,0.1119,-0.0748,-1.5361426223865529,-0.20971821248531342,1.4906470775604248,-2.0372726917266846,0.23656146228313446,2.3303990364074707,4.7345666764076135,-0.0009095581481233239,0.2575475871562958,-1.6628688017474573,0.0,0.02755003049969673,1.0467650890350342,-0.0,-0.004953371360898018,0.6822333335876465,0.024857157841324806,0.06468359380960464
799.0,902.0,2.3456,-0.7974,8.464,0.0144,0.1119,-0.0748,-1.5381896545043965,-0.20121198892593384,1.5123882293701172,-2.034849166870117,0.24836613237857819,2.326303005218506,4.734599112510242,-0.00050595891661942,0.2595878839492798,-1.6629293600665491,0.0,0.03530579060316086,1.0467896461486816,-0.0,0.007478157989680767,0.6823892593383789,0.02025667019188404,0.050290852785110474
799.0,902.0,2.3456,-0.7974,8.464,0.0144,0.1119,-0.0748,-1.5401755769601841,-0.19921883940696716,1.537781834602356,-2.0324087142944336,0.23557572066783905,2.245392084121704,4.734599112510242,-0.00041249117930419743,0.25582680106163025,-1.662917439137594,0.0,0.03356208652257919,1.0468261241912842,-0.0,-0.0024684665258973837,0.6826376914978027,0.019041309133172035,-0.04922989010810852
799.0,902.0,2.3456,-0.7974,8.464,0.0144,0.1119,-0.0748,-1.5426775340786953,-0.21476316452026367,1.5129642486572266,-2.029543161392212,0.2420436441898346,2.368936777114868,4.734559047013082,-0.0002686273364815861,0.25298455357551575,-1.662896458302633,0.0,0.04051123932003975,1.04680597782135,-0.0,-0.0003362353891134262,0.6828937530517578,0.026707416400313377,0.014817038550972939
799.0,902.0,2.3456,-0.7974,8.464,0.0144,0.1119,-0.0748,-1.5447590828737994,-0.21826353669166565,1.5357009172439575,-2.027235746383667,0.23002788424491882,2.314734697341919,4.734595048218527,-0.0001768447255017236,0.2605941891670227,-1.6628645102130335,0.0,0.030285680666565895,1.046797752380371,-0.0,-0.003404920920729637,0.6831662654876709,0.031321436166763306,-0.01574576087296009
799.0,902.0,2.3456,-0.7974,8.464,0.0144,0.1119,-0.0748,-1.5469456625035782,-0.22235073149204254,1.5218312740325928,-2.0249183177948,0.22695738077163696,2.3007898330688477,4.734635113715687,-0.00011849385191453621,0.25937309861183167,-1.66288930574526,0.0,0.03769376128911972,1.0467770099639893,-0.0,0.0032935142517089844,0.6834701895713806,0.03667179495096207,0.00528278574347496
799.0,902.0,2.3456,-0.7974,8.464,0.0144,0.1119,-0.0748,-1.5490996905467291,-0.21927227079868317,1.5309844017028809,-2.022691488265991,0.22409959137439728,2.2633910179138184,4.7345831272895715,-7.987606659298763e-05,0.25093284249305725,-1.6628854910479944,0.0,0.03179148957133293,1.046825647354126,-0.0,0.0010940663050860167,0.6838954091072083,0.04021640866994858,-0.019934484735131264
799.0,902.0,2.3456,-0.7974,8.464,0.0144,0.1119,-0.0748,-1.5512981445393343,-0.22092916071414948,1.534618616104126,-2.020456552505493,0.22081924974918365,2.2444939613342285,4.734579062997856,-7.103304255906551e-08,0.2635900378227234,-1.6629050413714808,0.0,0.03951454162597656,1.046797752380371,-0.0,0.014174116775393486,0.6842951774597168,0.044041331857442856,-0.010298478417098522
861.0,882.0,2.1817,-0.6,8.8164,-0.0388,0.0849,-0.0959,-1.5539557070336123,-0.22179123759269714,1.556368350982666,-2.017866611480713,0.21525126695632935,2.268005847930908,4.734587273537674,-5.503694830606698e-15,0.25951728224754333,-1.6629212538348597,0.0,0.04017312079668045,1.0467815399169922,-0.0,-0.0005311788991093636,0.6848434805870056,0.04718272387981415,-0.014636873267591
861.0,882.0,2.1817,-0.6,8.8164,-0.0388,0.0849,-0.0959,-1.5561981976828356,-0.22938261926174164,1.513601541519165,-2.0156712532043457,0.21659307181835175,2.2716777324676514,4.734603258758344,-6.5310433005036434e-21,0.2538759112358093,-1.6629212538348597,0.0,0.04538964480161667,1.046797513961792,-0.0,0.0006708276923745871,0.6853805780410767,0.04835588112473488,0.008758056908845901
861.0,882.0,2.1817,-0.6,8.8164,-0.0388,0.0849,-0.0959,-1.5585441023907443,-0.2204776257276535,1.553821086883545,-2.013500452041626,0.21739795804023743,2.286532163619995,4.734606976598062,-7.750164733715808e-27,0.2610029876232147,-1.6629255453692835,0.0,0.03747958689928055,1.0467815399169922,-0.0,0.00340615538880229,0.685808539390564,0.048856403678655624,-0.02025003358721733
861.0,882.0,2.1817,-0.6,8.8164,-0.0388,0.0849,-0.0959,-1.56082981013272,-0.23455002903938293,1.5725173950195312,-2.0112502574920654,0.21723569929599762,2.246779441833496,4.734599132999339,-9.196851803746614e-33,0.25985297560691833,-1.6628811995135706,0.0,0.04265071824193001,1.046757459640503,-0.0,0.002718306379392743,0.6863493323326111,0.04638032615184784,-0.011433731764554977
861.0,882.0,2.1817,-0.6,8.8164,-0.0388,0.0849,-0.0959,-1.563763593123742,-0.23488794267177582,1.6279045343399048,-2.0086920261383057,0.22427791357040405,2.317514419555664,4.73458729402677,-7.125784859892057e-40,0.2636969983577728,-1.6628883520709437,0.0,0.03483720123767853,1.046822190284729,-0.0,0.00028901034966111183,0.6868376731872559,0.0379428006708622,0.015457436442375183
861.0,882.0,2.1817,-0.6,8.8164,-0.0388,0.0849,-0.0959,-1.5661248930594702,-0.24089881777763367,1.641008973121643,-2.006502389907837,0.2184450924396515,2.2522857189178467,4.7346276109810255,-1.401298464324817e-45,0.26219555735588074,-1.6629131476031702,0.0,0.025829844176769257,1.0467336177825928,-0.0,0.0003856985131278634,0.6872057914733887,0.027193615213036537,-0.0024650022387504578
861.0,882.0,2.1817,-0.6,8.8164,-0.0388,0.0849,-0.0959,-1.5685912915835907,-0.24594447016716003,1.6634950637817383,-2.004331111907959,0.2306307852268219,2.331998825073242,4.7345627574022195,-0.0,0.2686150372028351,-1.6629369894610804,0.0,0.02800721302628517,1.046769618988037,-0.0,-0.016391228884458542,0.6874381303787231,0.019616788253188133,0.004635639488697052
861.0,882.0,2.1817,-0.6,8.8164,-0.0388,0.0849,-0.0959,-1.5710412464537562,-0.2466263771057129,1.597782850265503,-2.002000331878662,0.21911171078681946,2.252396583557129,4.734623310133376,-0.0,0.2558910846710205,-1.6629412809955042,0.0,0.04246087744832039,1.0467536449432373,-0.0,0.005772159434854984,0.6875616312026978,0.01214718446135521,0.027830880135297775
861.0,882.0,2.1817,-0.6,8.8164,-0.0388,0.0849,-0.0959,-1.5734826527037562,-0.25269922614097595,1.668433666229248,-1.9996464252471924,0.2321982979774475,2.321709632873535,4.734627372562446,-0.0,0.26896917819976807,-1.6628811995135706,0.0,0.03276871144771576,1.0467138290405273,-0.0,-0.0027618438471108675,0.6876659393310547,0.008015708066523075,-0.055226705968379974
900.0,780.0,2.2038,-0.3559,8.7081,-0.0079,0.0009,-0.0751,-1.5763355694212855,-0.2414071261882782,1.6499266624450684,-1.9968634843826294,0.23233957588672638,2.3062214851379395,4.734583134740152,-0.0,0.27088600397109985,-1.6628645102130335,0.0,0.027919813990592957,1.0467536449432373,-0.0,-0.004457245580852032,0.6877098679542542,0.0037559985648840666,-0.0666566863656044
900.0,780.0,2.2038,-0.3559,8.7081,-0.0079,0.0009,-0.0751,-1.5788337192931117,-0.24391146004199982,1.7417774200439453,-1.9944159984588623,0.22706645727157593,2.294036388397217,4.734595048218527,-0.0,0.2653014063835144,-1.6628645102130335,0.0,0.034386083483695984,1.046745777130127,-0.0,-0.0011669290252029896,0.6877419352531433,0.003358306363224983,-0.054022416472435
900.0,780.0,2.2038,-0.3559,8.7081,-0.0079,0.0009,-0.0751,-1.58121981243276,-0.24806015193462372,1.6990786790847778,-1.992111086845398,0.23654483258724213,2.3074474334716797,4.734583134740152,-0.0,0.2674539089202881,-1.6628325621234339,0.0,0.018695561215281487,1.0467216968536377,-0.0,-0.01451884489506483,0.6877579092979431,0.003204201813787222,-0.044579096138477325
900.0,780.0,2.2038,-0.3559,8.7081,-0.0079,0.0009,-0.0751,-1.5835854015746058,-0.2405817210674286,1.75199294090271,-1.9897685050964355,0.23344463109970093,2.2930774688720703,4.73460326062099,-0.0,0.25943559408187866,-1.6629493872271937,0.0,0.013898663222789764,1.0467138290405273,-0.0,0.004633952863514423,0.687785804271698,0.0014680161839351058,-0.06076255440711975
900.0,780.0,2.2038,-0.3559,8.7081,-0.0079,0.0009,-0.0751,-1.585987230340475,-0.23849856853485107,1.737499475479126,-1.9872976541519165,0.2425762414932251,2.2642738819122314,4.734647438838639,-0.0,0.2686006724834442,-1.66288930574526,0.0,0.026371348649263382,1.0467138290405273,-0.0,0.003175154095515609,0.6877534985542297,0.0007592541514895856,-0.05170224979519844
900.0,780.0,2.2038,-0.3559,8.7081,-0.0079,0.0009,-0.0751,-1.5889293156065882,-0.23650820553302765,1.6871798038482666,-1.9844712018966675,0.24439586699008942,2.3463149070739746,4.734615075379171,-0.0,0.27374404668807983,-1.6628926436053675,0.0,0.03925463184714317,1.0466811656951904,-0.0,-0.003500380553305149,0.6878262758255005,0.0005053049535490572,-0.05164233595132828
900.0,780.0,2.2038,-0.3559,8.7081,-0.0079,0.0009,-0.0751,-1.5913554630675257,-0.23863227665424347,1.7421303987503052,-1.9820044040679932,0.24714580178260803,2.2813525199890137,4.734562733187833,-0.0,0.25708964467048645,-1.6628573576556605,0.0,0.018094263970851898,1.0466365814208984,-1.242728728811926e-07,-0.0018569063395261765,0.6877575516700745,0.0003740336687769741,-0.06388691067695618
900.0,780.0,2.2038,-0.3559,8.7081,-0.0079,0.0009,-0.0751,-1.5938497982420863,-0.24596424400806427,1.7409847974777222,-1.979530692100525,0.2520025074481964,2.301387310028076,4.734595048218527,-0.0,0.2804875373840332,-1.6628935972796839,0.0,0.02106311358511448,1.0466811656951904,-1.4747030636572123e-13,-0.007136290892958641,0.6877818703651428,0.0002969063352793455,0.0020973416976630688
856.0,820.0,3.4971,-0.4851,9.0784,-0.0559,-0.0264,-0.1119,-1.5962473354735316,-0.23303194344043732,1.8087035417556763,-1.977112054824829,0.2578355669975281,2.3358960151672363,4.7346355998660705,-0.0,0.2649400532245636,-1.6628883520709437,0.0,0.021238289773464203,1.046661376953125,-1.7499791680141226e-19,-0.006533706560730934,0.687785804271698,0.00024615158326923847,-0.02394745498895645
856.0,820.0,3.4971,-0.4851,9.0784,-0.0559,-0.0264,-0.1119,-1.5987259350218714,-0.2453821450471878,1.7533392906188965,-1.9745579957962036,0.25756970047950745,2.284104347229004,4.734586813464322,-0.0,0.2792641818523407,-1.66288930574526,0.0,0.01657526195049286,1.0466934442520142,-2.0766393551393813e-25,-0.00039661896880716085,0.6878101229667664,0.00017509146709926426,-0.028278350830078125
856.0,820.0,3.4971,-0.4851,9.0784,-0.0559,-0.0264,-0.1119,-1.6016556225218714,-0.23689232766628265,1.8738428354263306,-1.9714117050170898,0.2584896385669708,2.291884183883667,4.734566808655419,-0.0,0.27432647347450256,-1.6629131476031702,0.0,0.019646264612674713,1.0466413497924805,-1.608995949317614e-32,-0.018560253083705902,0.6878340244293213,0.0007876776508055627,-0.023708093911409378
856.0,820.0,3.4971,-0.4851,9.0784,-0.0559,-0.0264,-0.1119,-1.6040016613402308,-0.24447764456272125,1.8333756923675537,-1.9688421487808228,0.25213855504989624,2.322538137435913,4.7345908274646185,-0.0,0.2673664093017578,-1.6628730932818812,0.0,0.02221120521426201,1.0466492176055908,-0.00016252677596639842,-0.017024187371134758,0.6878216862678528,0.001366378739476204,-0.028968725353479385
856.0,820.0,3.4971,-0.4851,9.0784,-0.0559,-0.0264,-0.1119,-1.6063076458373011,-0.22807377576828003,1.9099376201629639,-1.9662374258041382,0.2645527720451355,2.299028158187866,4.734599125548758,-0.0,0.2875630855560303,-1.662849251423971,0.0,0.01138877123594284,1.0466454029083252,-0.00019364744366612285,-0.044607438147068024,0.6878581643104553,0.0018902680603787303,-0.06415306031703949
856.0,820.0,3.4971,-0.4851,9.0784,-0.0559,-0.0264,-0.1119,-1.6086470089354457,-0.22531384229660034,1.908750057220459,-1.9636119604110718,0.2557964026927948,2.312622547149658,4.734562733187833,-0.0,0.2924190163612366,-1.6629131476031702,0.0,0.013123608194291592,1.0466092824935913,-0.0002880025131162256,-0.02311103045940399,0.6879187226295471,0.0033068808261305094,0.038248784840106964
856.0,820.0,3.4971,-0.4851,9.0784,-0.0559,-0.0264,-0.1119,-1.6108199558653773,-0.22740179300308228,1.9464259147644043,-1.9610471725463867,0.2569524645805359,2.3142738342285156,4.73457904995934,-0.0,0.2867102324962616,-1.6628926436053675,0.0,0.015821728855371475,1.046604871749878,-0.00035424367524683475,-0.023455888032913208,0.6879419088363647,0.008446755819022655,0.009357651695609093
856.0,820.0,3.4971,-0.4851,9.0784,-0.0559,-0.0264,-0.1119,-1.6134020290770472,-0.22067630290985107,1.9913125038146973,-1.9579380750656128,0.2569727897644043,2.3491125106811523,4.73458728657619,8.086718298727646e-05,0.295698344707489,-1.6628730932818812,0.0,-0.0005689032841473818,1.0466418266296387,-0.00039530519279651344,-0.028974421322345734,0.6880461573600769,0.010895797982811928,0.024060998111963272
856.0,820.0,3.4971,-0.4851,9.0784,-0.0559,-0.0264,-0.1119,-1.6155163250365199,-0.2071685642004013,1.9803857803344727,-1.9553810358047485,0.2571899890899658,2.3299882411956787,4.734606969147482,9.897012932924554e-05,0.29523640871047974,-1.6628854910479944,0.0,0.0013726180186495185,1.0466499328613281,-0.0003788357716985047,-0.04177328199148178,0.6882307529449463,0.013636890798807144,0.011699320748448372
899.0,843.0,3.1531,-0.5988,8.0243,-0.035,0.0029,-0.1103,-1.61761536220693,-0.2131418138742447,1.9542865753173828,-1.9528114795684814,0.2630750834941864,2.2969160079956055,4.734603323950925,6.463297177106142e-05,0.3020000755786896,-1.662896458302633,0.0,0.00869571790099144,1.0465646982192993,-0.0003426762414164841,-0.04792710393667221,0.6883182525634766,0.019873030483722687,-0.05494646728038788
