ramyac6/ROB537/final_project/csv/good/good_167.csv
tof_0,tof_1,accelx,accely,accelz,gyrox,gyroy,gyroz,shoulder_lift_joint_position,shoulder_lift_joint_velocity,shoulder_lift_joint_effort,elbow_joint_position,elbow_joint_velocity,elbow_joint_effort,wrist_1_joint_position,wrist_1_joint_velocity,wrist_1_joint_effort,wrist_2_joint_position,wrist_2_joint_velocity,wrist_2_joint_effort,wrist_3_joint_position,wrist_3_joint_velocity,wrist_3_joint_effort,shoulder_pan_joint_position,shoulder_pan_joint_velocity,shoulder_pan_joint_effort
638.0,8190.0,-0.3805,0.0724,9.4146,-0.0454,0.0237,-0.1182,-1.5425638736090441,0.0,1.7382478713989258,-2.2336373329162598,-0.0,1.811826467514038,5.308806109219351,0.0,0.28343087434768677,-1.5830019156085413,0.0,-0.003850772976875305,0.8807553052902222,0.0,-0.0036027035675942898,0.7607549428939819,0.0,-0.024294942617416382
638.0,8190.0,-0.3805,0.0724,9.4146,-0.0454,0.0237,-0.1182,-1.5425636780313035,0.0,1.6922330856323242,-2.2335939407348633,-0.0,1.827436923980713,5.308822381287374,0.0,0.27270933985710144,-1.5830419699298304,0.0,-0.008864937350153923,0.8807960152626038,0.0,-0.0008447875734418631,0.760779082775116,0.0,-0.0005395486950874329
638.0,8190.0,-0.3805,0.0724,9.4146,-0.0454,0.0237,-0.1182,-1.5424911708435793,0.0,1.6666574478149414,-2.233645439147949,-0.0,1.8092753887176514,5.30879424789504,0.0,0.28737491369247437,-1.583033863698141,0.0,-0.002438588300719857,0.8808198571205139,0.0,0.0032162400893867016,0.7607749104499817,0.0,0.0431261844933033
638.0,8190.0,-0.3805,0.0724,9.4146,-0.0454,0.0237,-0.1182,-1.5426080630025645,0.0,1.6972508430480957,-2.2335774898529053,-0.0,1.795637845993042,5.3088305471237085,0.0,0.2895587980747223,-1.5829857031451624,0.0,-0.004782719537615776,0.8808078765869141,0.0,0.005656796507537365,0.7607749104499817,0.0,-0.012229496613144875
638.0,8190.0,-0.3805,0.0724,9.4146,-0.0454,0.0237,-0.1182,-1.5425073497793456,0.0,1.6806689500808716,-2.2336537837982178,-0.0,1.8070716857910156,5.308773863106527,0.0,0.2773694097995758,-1.583029572163717,0.0,-0.0015282842796295881,0.8808116912841797,0.0,0.0028722048737108707,0.7607505321502686,0.0,0.02395489066839218
638.0,8190.0,-0.3805,0.0724,9.4146,-0.0454,0.0237,-0.1182,-1.5425475568375369,0.0,1.6836785078048706,-2.2336621284484863,-0.0,1.8172861337661743,5.308802056103506,0.0,0.26631537079811096,-1.5830743948565882,0.0,0.0016951030120253563,0.8808239102363586,0.0,0.006125480402261019,0.7607707977294922,0.0,0.019294049590826035
687.0,866.0,-0.3972,0.0616,9.4564,-0.0417,0.0276,-0.129,-1.542499243547656,0.0,1.6857364177703857,-2.2336537837982178,-0.0,1.7893108129501343,5.308798301010885,0.0,0.28363990783691406,-1.583050552998678,0.0,-0.001324209850281477,0.8808684349060059,0.0,-0.0061744991689920425,0.7607911229133606,0.0,0.032671645283699036
687.0,866.0,-0.3972,0.0616,9.4564,-0.0417,0.0276,-0.129,-1.5425475978157301,0.0,1.6772348880767822,-2.233621835708618,-0.0,1.8138325214385986,5.30879424789504,0.0,0.2786836326122284,-1.5829976240741175,0.0,0.0004974484909325838,0.8807877898216248,0.0,-0.012334919534623623,0.7607587575912476,0.0,-0.028598977252840996
687.0,866.0,-0.3972,0.0616,9.4564,-0.0417,0.0276,-0.129,-1.542539433842041,0.0,1.7061982154846191,-2.2336413860321045,-0.0,1.7922439575195312,5.308842468052664,0.0,0.28356266021728516,-1.583017651234762,0.0,-0.0175910834223032,0.8807923793792725,0.0,0.007810509763658047,0.7607587575912476,0.0,0.011128827929496765
687.0,866.0,-0.3972,0.0616,9.4564,-0.0417,0.0276,-0.129,-1.542543490683176,0.0,1.6915514469146729,-2.233649730682373,-0.0,1.7889578342437744,5.3088305471237085,0.0,0.28900426626205444,-1.583029572163717,0.0,-0.01106613501906395,0.8808157444000244,0.0,0.00893915444612503,0.7607669234275818,0.0,0.04167468100786209
687.0,866.0,-0.3972,0.0616,9.4564,-0.0417,0.0276,-0.129,-1.5425757591477414,0.0,1.6863865852355957,-2.2336859703063965,-0.0,1.7892261743545532,5.30879424789504,0.0,0.2897893488407135,-1.5830419699298304,0.0,-0.009149078279733658,0.8808399438858032,0.0,0.00012655602768063545,0.7607951760292053,0.0,0.007796555291861296
687.0,866.0,-0.3972,0.0616,9.4564,-0.0417,0.0276,-0.129,-1.5425232958844681,0.0,1.6830928325653076,-2.233694076538086,-0.0,1.7993757724761963,5.3088305471237085,0.0,0.2722945213317871,-1.583005730305807,0.0,-0.004031670279800892,0.8808038234710693,0.0,0.0033294514287263155,0.7607343196868896,0.0,-0.00783107616007328
687.0,866.0,-0.3972,0.0616,9.4564,-0.0417,0.0276,-0.129,-1.5425596379539748,0.0,1.6916905641555786,-2.233645439147949,-0.0,1.8282599449157715,5.308858799725332,0.0,0.279361367225647,-1.5830381552325647,0.0,-0.020057378336787224,0.8807758688926697,0.0,-0.00627394113689661,0.7607910633087158,0.0,0.008114414289593697
687.0,866.0,-0.3972,0.0616,9.4564,-0.0417,0.0276,-0.129,-1.5425394506058474,0.0,1.678544521331787,-2.2335855960845947,-0.0,1.8205206394195557,5.30879424789504,0.0,0.28166478872299194,-1.583033863698141,0.0,-0.009529770351946354,0.8808276057243347,0.0,0.010065827518701553,0.7607505321502686,0.0,0.00044540781527757645
687.0,866.0,-0.3972,0.0616,9.4564,-0.0417,0.0276,-0.129,-1.5424993348172684,0.0,1.7136991024017334,-2.233625888824463,-0.0,1.7966010570526123,5.30881022193984,0.0,0.29352647066116333,-1.583005730305807,0.0,-0.009603978134691715,0.8807799816131592,0.0,-0.006230717524886131,0.7607384920120239,0.0,-0.06077895686030388
687.0,866.0,-0.3972,0.0616,9.4564,-0.0417,0.0276,-0.129,-1.5425596379539748,0.0,1.6801186800003052,-2.2336537837982178,-0.0,1.773986577987671,5.308786141663351,0.0,0.2751982510089874,-1.5830019156085413,0.0,-0.00782039389014244,0.880855917930603,0.0,0.004021104425191879,0.7607224583625793,0.0,0.014798391610383987
630.0,937.0,-0.408,0.0203,9.5498,-0.0383,0.026,-0.1185,-1.5424830646118899,0.0,1.6786353588104248,-2.233625888824463,-0.0,1.7729783058166504,5.308870243817129,0.0,0.2891375720500946,-1.5830219427691858,0.0,-0.000810729106888175,0.8808157444000244,0.0,-0.00044688605703413486,0.7607669234275818,0.0,0.012665865942835808
630.0,937.0,-0.408,0.0203,9.5498,-0.0383,0.026,-0.1185,-1.5425192297301074,0.0,1.6520041227340698,-2.2336413860321045,-0.0,1.8296184539794922,5.308834659844198,0.0,0.279491126537323,-1.583033863698141,0.0,-0.009196935221552849,0.8808117508888245,0.0,-0.0046903532929718494,0.760779082775116,0.0,-0.025474421679973602
630.0,937.0,-0.408,0.0203,9.5498,-0.0383,0.026,-0.1185,-1.5425596379539748,0.0,1.7002331018447876,-2.2336373329162598,-0.0,1.7986564636230469,5.308790135174551,0.0,0.28193822503089905,-1.5830219427691858,0.0,-0.003263265360146761,0.8808277249336243,0.0,-0.011822132393717766,0.7607347965240479,0.0,-0.03229754418134689
630.0,937.0,-0.408,0.0203,9.5498,-0.0383,0.026,-0.1185,-1.5425314468196412,0.0,1.7104887962341309,-2.233597993850708,-0.0,1.810994267463684,5.308806109219351,0.0,0.2755878269672394,-1.5830705801593226,0.0,-0.02315865457057953,0.8807476758956909,0.0,0.0015324605628848076,0.7607869505882263,0.0,-0.015834953635931015
630.0,937.0,-0.408,0.0203,9.5498,-0.0383,0.026,-0.1185,-1.5425273937037964,0.0,1.6608644723892212,-2.2336175441741943,-0.0,1.7988598346710205,5.308806109219351,0.0,0.28813672065734863,-1.5830662886248987,0.0,-0.006110142916440964,0.880795955657959,0.0,-0.00985783152282238,0.7607384920120239,0.0,0.03446171432733536
630.0,937.0,-0.408,0.0203,9.5498,-0.0383,0.026,-0.1185,-1.5425273937037964,0.0,1.68330979347229,-2.2336580753326416,-0.0,1.7990375757217407,5.308761703758993,0.0,0.2858670949935913,-1.5830662886248987,0.0,-0.007969089783728123,0.8808239102363586,0.0,-0.0016984728863462806,0.7607426047325134,0.0,-0.05010709539055824
630.0,937.0,-0.408,0.0203,9.5498,-0.0383,0.026,-0.1185,-1.5425154727748414,0.0,1.6750109195709229,-2.2336413860321045,-0.0,1.781679630279541,5.308826494007864,0.0,0.27949967980384827,-1.5830705801593226,0.0,-0.008797459304332733,0.8808280229568481,0.0,-0.007980942726135254,0.7607142329216003,0.0,-0.027169687673449516
630.0,937.0,-0.408,0.0203,9.5498,-0.0383,0.026,-0.1185,-1.542543514897563,0.0,1.6567476987838745,-2.233673572540283,-0.0,1.8067822456359863,5.308773803501882,0.0,0.2820180058479309,-1.5829938093768519,0.0,-0.00759654026478529,0.8807759284973145,0.0,0.0018350339960306883,0.760770857334137,0.0,-0.019758988171815872
630.0,937.0,-0.408,0.0203,9.5498,-0.0383,0.026,-0.1185,-1.5425314356437703,0.0,1.718220829963684,-2.2336413860321045,-0.0,1.7925174236297607,5.308777975827017,0.0,0.2764137387275696,-1.5830100218402308,0.0,0.004788410384207964,0.880771815776825,0.0,0.008101265877485275,0.7607869505882263,0.0,0.024321626871824265
736.0,882.0,-0.4469,0.0215,9.6311,-0.0327,0.0281,-0.121,-1.5425555550358077,0.0,1.7051914930343628,-2.2336134910583496,-0.0,1.841543197631836,5.308798301010885,0.0,0.29390066862106323,-1.5830705801593226,0.0,-0.010614665225148201,0.8808477520942688,0.0,0.0041069090366363525,0.7607224583625793,0.0,-0.0021675971802324057
736.0,882.0,-0.4469,0.0215,9.6311,-0.0327,0.0281,-0.121,-1.5425636370531102,0.0,1.7210848331451416,-2.233628988265991,-0.0,1.8215229511260986,5.308802473336019,0.0,0.27857840061187744,-1.5830462614642542,0.0,-0.007665584795176983,0.8808317184448242,0.0,-0.006820430979132652,0.7607628703117371,0.0,0.02426592819392681
736.0,882.0,-0.4469,0.0215,9.6311,-0.0327,0.0281,-0.121,-1.5425192297301074,0.0,1.6662425994873047,-2.233649730682373,-0.0,1.7884056568145752,5.308818387776174,0.0,0.2866421043872833,-1.5830219427691858,0.0,0.0032818724866956472,0.8807677626609802,0.0,-0.00977740716189146,0.7607629299163818,0.0,-0.003720531240105629
736.0,882.0,-0.4469,0.0215,9.6311,-0.0327,0.0281,-0.121,-1.5425634824535628,0.0,1.6480236053466797,-2.2336981296539307,-0.0,1.8148839473724365,5.308790135174551,0.0,0.264801561832428,-1.583017651234762,0.0,-0.0070631555281579494,0.880808413028717,0.0,-0.00730833550915122,0.7608150839805603,0.0,-0.03797357156872749
736.0,882.0,-0.4469,0.0215,9.6311,-0.0327,0.0281,-0.121,-1.542535339748003,0.0,1.687352180480957,-2.2336339950561523,-0.0,1.7956459522247314,5.308830308705129,0.0,0.2857963740825653,-1.5830095450030726,0.0,-0.008546236902475357,0.880795955657959,0.0,0.004958710167557001,0.7607306838035583,0.0,0.013262802734971046
736.0,882.0,-0.4469,0.0215,9.6311,-0.0327,0.0281,-0.121,-1.5425312549671908,0.0,1.655076265335083,-2.2335939407348633,-0.0,1.795235514640808,5.30879025438384,0.0,0.28065380454063416,-1.583017651234762,0.0,-0.006521018221974373,0.8807956576347351,0.0,-0.004594543948769569,0.7607628703117371,0.0,0.021911049261689186
736.0,882.0,-0.4469,0.0215,9.6311,-0.0327,0.0281,-0.121,-1.5425114401480933,0.0,1.7038302421569824,-2.233649492263794,-0.0,1.8425061702728271,5.308786082058706,0.0,0.2672097682952881,-1.5830262343036097,0.0,-0.015921125188469887,0.8807680606842041,0.0,0.01242678239941597,0.7607749104499817,0.0,-0.005137501284480095
736.0,882.0,-0.4469,0.0215,9.6311,-0.0327,0.0281,-0.121,-1.5425876390985032,0.0,1.6696581840515137,-2.2336299419403076,-0.0,1.8177902698516846,5.3088265536125085,0.0,0.27562403678894043,-1.5829938093768519,0.0,-0.0017525168368592858,0.8807957172393799,0.0,-0.0029847240075469017,0.7607790231704712,0.0,0.007754947524517775
736.0,882.0,-0.4469,0.0215,9.6311,-0.0327,0.0281,-0.121,-1.5425073497793456,0.0,1.6549391746520996,-2.2336373329162598,-0.0,1.7994959354400635,5.308786082058706,0.0,0.2831277847290039,-1.5830419699298304,0.0,-0.011752404272556305,0.8808276653289795,0.0,0.005379222333431244,0.7607546448707581,0.0,-0.007383048068732023
736.0,882.0,-0.4469,0.0215,9.6311,-0.0327,0.0281,-0.121,-1.542527401154377,0.0,1.68336820602417,-2.233670473098755,-0.0,1.7915030717849731,5.30881022193984,0.0,0.2749267816543579,-1.583050552998678,0.0,-0.01283949799835682,0.8807598948478699,0.0,0.00429172208532691,0.7607628703117371,0.0,0.017734944820404053
659.0,855.0,-0.4349,0.055,9.4983,-0.0266,0.0299,-0.1243,-1.5425675951740523,0.0,1.6709429025650024,-2.2336621284484863,-0.0,1.811276912689209,5.308790135174551,0.0,0.28660959005355835,-1.583062473927633,0.0,-0.018300693482160568,0.8808197975158691,0.0,-0.004205120261758566,0.760779082775116,0.0,-0.015372512862086296
659.0,855.0,-0.4349,0.055,9.4983,-0.0266,0.0299,-0.1243,-1.5425195910832663,0.0,1.6643455028533936,-2.2336103916168213,-0.0,1.8248589038848877,5.308786141663351,0.0,0.2783742845058441,-1.5830500761615198,0.0,-0.012165559455752373,0.8808158040046692,0.0,-0.011828383430838585,0.7607546448707581,0.0,-0.013228736817836761
659.0,855.0,-0.4349,0.055,9.4983,-0.0266,0.0299,-0.1243,-1.5425514739802857,0.0,1.7121152877807617,-2.2336339950561523,-0.0,1.817124605178833,5.308826494007864,0.0,0.2842079699039459,-1.5830662886248987,0.0,-0.010296322405338287,0.8807759284973145,0.0,-0.006033212877810001,0.7607587575912476,0.0,0.02692437171936035
659.0,855.0,-0.4349,0.055,9.4983,-0.0266,0.0299,-0.1243,-1.5425154727748414,0.0,1.6919268369674683,-2.233649730682373,-0.0,1.7725749015808105,5.308850633888998,0.0,0.27389127016067505,-1.5830300490008753,0.0,-0.020394962280988693,0.8808197975158691,0.0,0.012048816308379173,0.7608029246330261,0.0,0.0096454918384552
659.0,855.0,-0.4349,0.055,9.4983,-0.0266,0.0299,-0.1243,-1.542531269868352,0.0,1.705275297164917,-2.233666181564331,-0.0,1.8206238746643066,5.308818387776174,0.0,0.2777162492275238,-1.583005730305807,0.0,-0.019259054213762283,0.8807997703552246,0.0,0.001933035091497004,0.7607508301734924,0.0,0.020213205367326736
659.0,855.0,-0.4349,0.055,9.4983,-0.0266,0.0299,-0.1243,-1.5425314226052542,0.0,1.6658117771148682,-2.2336983680725098,-0.0,1.818162202835083,5.30879424789504,0.0,0.2803012430667877,-1.5830381552325647,0.0,-0.010716341435909271,0.8807759284973145,0.0,0.001226319931447506,0.7607869505882263,0.0,0.009206844493746758
659.0,855.0,-0.4349,0.055,9.4983,-0.0266,0.0299,-0.1243,-1.5424714379808684,0.0,1.7191085815429688,-2.2336537837982178,-0.0,1.8471416234970093,5.308802056103506,0.0,0.299653023481369,-1.5830419699298304,0.0,-0.007684553973376751,0.8808079361915588,0.0,-0.0004799282760359347,0.7607145309448242,0.0,-0.017413154244422913
659.0,855.0,-0.4349,0.055,9.4983,-0.0266,0.0299,-0.1243,-1.5425757591477414,0.0,1.697213888168335,-2.233738422393799,-0.0,1.7836356163024902,5.30881022193984,0.0,0.2834581136703491,-1.5830705801593226,0.0,0.006647185888141394,0.8808436393737793,0.0,-0.0036435278598219156,0.7607343196868896,0.0,-0.007840080186724663
659.0,855.0,-0.4349,0.055,9.4983,-0.0266,0.0299,-0.1243,-1.5425154727748414,0.0,1.6561977863311768,-2.2336134910583496,-0.0,1.7795488834381104,5.30879424789504,0.0,0.2745128273963928,-1.5830138365374964,0.0,-0.005818335339426994,0.8807997703552246,0.0,-0.0038187485188245773,0.760762631893158,0.0,-0.012014313600957394
659.0,855.0,-0.4349,0.055,9.4983,-0.0266,0.0299,-0.1243,-1.5425757945379992,0.0,1.6711218357086182,-2.2336063385009766,-0.0,1.8338427543640137,5.308826494007864,0.0,0.27736347913742065,-1.5830381552325647,0.0,-0.007108011282980442,0.8808239102363586,0.0,0.007196260150521994,0.7607426047325134,0.0,0.03307109698653221
620.0,8190.0,-0.4415,-0.003,9.6269,-0.0339,0.0281,-0.1304,-1.5425596379539748,0.0,1.7055692672729492,-2.2336621284484863,-0.0,1.8427174091339111,5.308826494007864,0.0,0.2790103554725647,-1.583005730305807,0.0,-0.012918427586555481,0.8807272911071777,0.0,-0.009711351245641708,0.7607347965240479,0.0,-0.010482683777809143
620.0,8190.0,-0.4415,-0.003,9.6269,-0.0339,0.0281,-0.1304,-1.54254353911195,0.0,1.6702277660369873,-2.233645439147949,-0.0,1.8074679374694824,5.30879424789504,0.0,0.27351707220077515,-1.5830257574664515,0.0,-0.006756122224032879,0.8807759284973145,2.111943615545897e-07,-0.006421962752938271,0.7607628703117371,0.0,-0.0735551044344902
620.0,8190.0,-0.4415,-0.003,9.6269,-0.0339,0.0281,-0.1304,-1.5425114401480933,0.0,1.6603007316589355,-2.233649730682373,-0.0,1.825783133506775,5.308798301010885,0.0,0.2878004312515259,-1.5830381552325647,0.0,-0.013151622377336025,0.8808157444000244,3.838353246354842e-12,0.0147635443136096,0.7607426047325134,0.0,0.01786537654697895
620.0,8190.0,-0.4415,-0.003,9.6269,-0.0339,0.0281,-0.1304,-1.5425272055766364,0.0,1.702549695968628,-2.233645439147949,-0.0,1.8204059600830078,5.30881022193984,0.0,0.26829031109809875,-1.583017651234762,0.0,-0.00739179365336895,0.8807799816131592,4.554840678111501e-18,0.003943547140806913,0.7607384920120239,0.0,-0.011264638043940067
620.0,8190.0,-0.4415,-0.003,9.6269,-0.0339,0.0281,-0.1304,-1.5425236032209177,0.0,1.6865301132202148,-2.233628988265991,-0.0,1.7845778465270996,5.308786082058706,0.0,0.27718082070350647,-1.5830138365374964,0.0,-0.013457472436130047,0.8807873129844666,8.27819779212874e-23,0.0074838739819824696,0.7607666850090027,0.0,0.000861823558807373
620.0,8190.0,-0.4415,-0.003,9.6269,-0.0339,0.0281,-0.1304,-1.5424993515810748,0.0,1.7254347801208496,-2.233597993850708,-0.0,1.8157520294189453,5.30881022193984,0.0,0.2716211974620819,-1.583062473927633,0.0,0.0005346881807781756,0.8807840943336487,9.823450033708791e-29,-0.0022766287438571453,0.7607628703117371,0.0,0.027680210769176483
620.0,8190.0,-0.4415,-0.003,9.6269,-0.0339,0.0281,-0.1304,-1.5425514572164793,0.0,1.6759288311004639,-2.233649730682373,-0.0,1.8255419731140137,5.30879424789504,0.0,0.27350491285324097,-1.5830705801593226,0.0,-0.009123158641159534,0.8808477520942688,1.7853637789029298e-33,0.004096160177141428,0.7607306838035583,0.0,-0.01680978387594223
620.0,8190.0,-0.4415,-0.003,9.6269,-0.0339,0.0281,-0.1304,-1.5425475568375369,0.0,1.7023409605026245,-2.2336373329162598,-0.0,1.8091216087341309,5.30879836061553,0.0,0.2681204676628113,-1.583005730305807,0.0,-0.010573389008641243,0.880843997001648,2.1186287534065482e-39,-0.0015832700300961733,0.7607831358909607,0.0,-0.02064720168709755
620.0,8190.0,-0.4415,-0.003,9.6269,-0.0339,0.0281,-0.1304,-1.5425596379539748,0.0,1.6834604740142822,-2.233625888824463,-0.0,1.8471133708953857,5.308802056103506,0.0,0.26742398738861084,-1.583033863698141,0.0,-0.0031619055662304163,0.8808239102363586,3.783505853677006e-44,0.0037359963171184063,0.7607992887496948,0.0,0.050838127732276917
620.0,8190.0,-0.4415,-0.003,9.6269,-0.0339,0.0281,-0.1304,-1.542539433842041,0.0,1.737053394317627,-2.2336621284484863,-0.0,1.8693029880523682,5.308806109219351,0.0,0.2906986474990845,-1.5830500761615198,0.0,-0.0017230950761586428,0.8808436393737793,0.0,0.001641176175326109,0.7607546448707581,0.0,-0.038796111941337585
615.0,855.0,-0.4337,0.0299,9.6191,-0.0327,0.0197,-0.1202,-1.542563473140337,0.0,1.655613899230957,-2.2336859703063965,-0.0,1.7859063148498535,5.308834719448843,0.0,0.2854754328727722,-1.5830419699298304,0.0,-0.006160818971693516,0.8808436393737793,0.0,0.0006844602175988257,0.7607587575912476,0.0,0.051433611661195755
615.0,855.0,-0.4337,0.0299,9.6191,-0.0327,0.0197,-0.1202,-1.542559652855136,0.0,1.6688482761383057,-2.2336134910583496,-0.0,1.8409000635147095,5.308842468052664,0.0,0.2814870774745941,-1.5830419699298304,0.0,0.0017265451606363058,0.8808558583259583,0.0,-0.007568755187094212,0.7607872486114502,0.0,-0.055905815213918686
615.0,855.0,-0.4337,0.0299,9.6191,-0.0327,0.0197,-0.1202,-1.5425233126482745,0.0,1.6376683712005615,-2.2336413860321045,-0.0,1.8320918083190918,5.308790135174551,0.0,0.29091328382492065,-1.5830705801593226,0.0,-0.01121987123042345,0.8808765411376953,0.0,0.00507525447756052,0.7607666850090027,0.0,0.029436631128191948
615.0,855.0,-0.4337,0.0299,9.6191,-0.0327,0.0197,-0.1202,-1.5425475568375369,0.0,1.6903951168060303,-2.233628988265991,-0.0,1.8043071031570435,5.308862495213308,0.0,0.2759346067905426,-1.5830500761615198,0.0,-0.004540238995105028,0.8808238506317139,0.0,-0.012969039380550385,0.7607666850090027,0.0,0.035770926624536514
615.0,855.0,-0.4337,0.0299,9.6191,-0.0327,0.0197,-0.1202,-1.542543514897563,0.0,1.6832592487335205,-2.2336063385009766,-0.0,1.7667348384857178,5.30881022193984,0.0,0.29126179218292236,-1.5830257574664515,0.0,-0.010865737684071064,0.8808276653289795,0.0,0.006230340339243412,0.7607186436653137,0.0,-0.006793109700083733
615.0,855.0,-0.4337,0.0299,9.6191,-0.0327,0.0197,-0.1202,-1.5425195538303633,0.0,1.684045672416687,-2.2336373329162598,-0.0,1.7693785429000854,5.30879424789504,0.0,0.2851119637489319,-1.583062473927633,0.0,-0.010978407226502895,0.8807919025421143,0.0,-0.01819036342203617,0.7607467174530029,0.0,0.01305279228836298
615.0,855.0,-0.4337,0.0299,9.6191,-0.0327,0.0197,-0.1202,-1.542567580272891,0.0,1.683471918106079,-2.233645439147949,-0.0,1.8066532611846924,5.308822381287374,0.0,0.2714391350746155,-1.5830300490008753,0.0,-0.002557603409513831,0.8808116912841797,0.0,-0.004105174448341131,0.7607183456420898,0.0,-0.02830306626856327
615.0,855.0,-0.4337,0.0299,9.6191,-0.0327,0.0197,-0.1202,-1.5425114308348675,0.0,1.6773593425750732,-2.2336456775665283,-0.0,1.8007211685180664,5.3088265536125085,0.0,0.28228187561035156,-1.5830219427691858,0.0,-0.003740137442946434,0.8807799220085144,0.0,0.009361596778035164,0.7607872486114502,0.0,0.014638680033385754
615.0,855.0,-0.4337,0.0299,9.6191,-0.0327,0.0197,-0.1202,-1.542531269868352,0.0,1.6801300048828125,-2.2336413860321045,-0.0,1.81718111038208,5.308769750386038,0.0,0.27815553545951843,-1.5830782095538538,0.0,-0.011217156425118446,0.8808317184448242,0.0,-0.003264201572164893,0.7607787847518921,0.0,-0.0016821917379274964
615.0,855.0,-0.4337,0.0299,9.6191,-0.0327,0.0197,-0.1202,-1.5425114308348675,0.0,1.6694527864456177,-2.2336208820343018,-0.0,1.852686882019043,5.30881022193984,0.0,0.2761657238006592,-1.5830782095538538,0.0,-0.0014521015109494328,0.8808197975158691,0.0,-0.005470439326018095,0.7607265710830688,0.0,-0.029547594487667084
616.0,860.0,-0.4893,-0.0114,9.7179,-0.0356,0.0224,-0.1127,-1.5425475568375369,0.0,1.663770079612732,-2.2336020469665527,-0.0,1.8268201351165771,5.308777916222372,0.0,0.2759665548801422,-1.5830500761615198,0.0,0.0022824862971901894,0.8808320164680481,0.0,-0.0021749879233539104,0.7607467174530029,0.0,0.035201601684093475
616.0,860.0,-0.4893,-0.0114,9.7179,-0.0356,0.0224,-0.1127,-1.542539433842041,0.0,1.7126011848449707,-2.2336184978485107,-0.0,1.7989885807037354,5.3087819693382166,0.0,0.27917346358299255,-1.5830662886248987,0.0,-0.01557193323969841,0.8808358311653137,0.0,-0.005946028977632523,0.7607628703117371,0.0,0.006829916499555111
616.0,860.0,-0.4893,-0.0114,9.7179,-0.0356,0.0224,-0.1127,-1.5425355092487116,0.0,1.638561487197876,-2.233621835708618,-0.0,1.7944929599761963,5.3087737438972376,0.0,0.27619701623916626,-1.5830581823932093,0.0,-0.00817136000841856,0.8807997703552246,0.0,-0.005746101029217243,0.7607625722885132,0.0,-0.003508244641125202
616.0,860.0,-0.4893,-0.0114,9.7179,-0.0356,0.0224,-0.1127,-1.5425675951740523,0.0,1.6509151458740234,-2.233628988265991,-0.0,1.8700653314590454,5.308806526451864,0.0,0.27484869956970215,-1.5830381552325647,0.0,0.0005894803907722235,0.8808317184448242,0.0,-0.00584803894162178,0.7607426047325134,0.0,0.038812633603811264
616.0,860.0,-0.4893,-0.0114,9.7179,-0.0356,0.0224,-0.1127,-1.5425636780313035,0.0,1.6817210912704468,-2.2336859703063965,-0.0,1.794710636138916,5.30881022193984,0.0,0.2801012396812439,-1.5830219427691858,0.0,-0.004896980710327625,0.8808843493461609,0.0,0.0014165745815262198,0.7607993483543396,0.0,-0.0366392582654953
616.0,860.0,-0.4893,-0.0114,9.7179,-0.0356,0.0224,-0.1127,-1.5425073497793456,0.0,1.7265052795410156,-2.2336413860321045,-0.0,1.8103734254837036,5.308862554817953,0.0,0.2750363051891327,-1.583078686391012,0.0,-0.011127972044050694,0.8808276653289795,0.0,-0.01030381303280592,0.7607505321502686,0.0,0.04259807989001274
616.0,860.0,-0.4893,-0.0114,9.7179,-0.0356,0.0224,-0.1127,-1.5424872034094115,0.0,1.6945744752883911,-2.2336621284484863,-0.0,1.7736108303070068,5.30879424789504,0.0,0.2704448699951172,-1.5830543676959437,0.0,-0.005302047822624445,0.8807477951049805,0.0,0.011937697418034077,0.760787308216095,0.0,-0.017298901453614235
616.0,860.0,-0.4893,-0.0114,9.7179,-0.0356,0.0224,-0.1127,-1.5425314468196412,0.0,1.7057437896728516,-2.2336537837982178,-0.0,1.795710802078247,5.308798301010885,0.0,0.2752176523208618,-1.5830782095538538,0.0,0.0007686547469347715,0.8808398246765137,0.0,0.002442150842398405,0.7607628703117371,0.0,-0.027670999988913536
616.0,860.0,-0.4893,-0.0114,9.7179,-0.0356,0.0224,-0.1127,-1.5425314263305445,0.0,1.6735951900482178,-2.233633279800415,-0.0,1.811460018157959,5.308786141663351,0.0,0.28063637018203735,-1.5830662886248987,0.0,-0.01367963943630457,0.880755603313446,0.0,-0.006928501185029745,0.7607952356338501,0.0,0.02016018144786358
616.0,860.0,-0.4893,-0.0114,9.7179,-0.0356,0.0224,-0.1127,-1.5425555438599368,0.0,1.6839087009429932,-2.2336785793304443,-0.0,1.8441588878631592,5.308777916222372,0.0,0.27033260464668274,-1.5829938093768519,0.0,-0.008931456133723259,0.8808038234710693,0.0,-0.0006560077890753746,0.7607347965240479,0.0,0.017431622371077538
718.0,8190.0,-0.4385,0.0437,9.5845,-0.037,0.0247,-0.1162,-1.5425794769874592,0.0,1.6729400157928467,-2.2336785793304443,-0.0,1.8158862590789795,5.308834719448843,0.0,0.2668604850769043,-1.5830214659320276,0.0,0.006469251587986946,0.8808197975158691,0.0,0.0025981750804930925,0.7607628703117371,0.0,-0.043431200087070465
718.0,8190.0,-0.4385,0.0437,9.5845,-0.037,0.0247,-0.1162,-1.5425635141185303,0.0,1.6780095100402832,-2.2336249351501465,-0.0,1.7950048446655273,5.308790075569906,0.0,0.27105534076690674,-1.5830257574664515,0.0,-0.008575825951993465,0.8807997703552246,0.0,-0.0022820024751126766,0.7607306838035583,0.0,-0.0022399239242076874
718.0,8190.0,-0.4385,0.0437,9.5845,-0.037,0.0247,-0.1162,-1.542535388176777,0.0,1.6594305038452148,-2.2336621284484863,-0.0,1.7977464199066162,5.308790075569906,0.0,0.27771425247192383,-1.583033863698141,0.0,-0.015890510752797127,0.8807799816131592,0.0,0.012972844764590263,0.7607952356338501,0.0,-0.022463763132691383
718.0,8190.0,-0.4385,0.0437,9.5845,-0.037,0.0247,-0.1162,-1.542499355306365,0.0,1.6843421459197998,-2.2336134910583496,-0.0,1.7863415479660034,5.308802473336019,0.0,0.28103792667388916,-1.583033863698141,0.0,-0.015403793193399906,0.8807757496833801,0.0,0.003521264996379614,0.7608033418655396,0.0,-0.010279062204062939
718.0,8190.0,-0.4385,0.0437,9.5845,-0.037,0.0247,-0.1162,-1.5425233405879517,0.0,1.7150964736938477,-2.2336413860321045,-0.0,1.8326059579849243,5.30879424789504,0.0,0.28318095207214355,-1.5830500761615198,0.0,-0.018353642895817757,0.8808197975158691,0.0,0.011933038011193275,0.7607667446136475,0.0,0.034030988812446594
718.0,8190.0,-0.4385,0.0437,9.5845,-0.037,0.0247,-0.1162,-1.5425073497793456,0.0,1.6931564807891846,-2.2336373329162598,-0.0,1.7880806922912598,5.3088024137313745,0.0,0.28199028968811035,-1.5829818884478968,0.0,-0.00906769186258316,0.8808119297027588,0.0,0.0037862518802285194,0.7606860995292664,0.0,-0.05611811578273773
718.0,8190.0,-0.4385,0.0437,9.5845,-0.037,0.0247,-0.1162,-1.5425314468196412,0.0,1.7068289518356323,-2.233621835708618,-0.0,1.8300230503082275,5.308822381287374,0.0,0.28100651502609253,-1.5829857031451624,0.0,-0.01193825900554657,0.8808197975158691,0.0,-0.0022998761851340532,0.7608112692832947,0.0,0.01874554343521595
718.0,8190.0,-0.4385,0.0437,9.5845,-0.037,0.0247,-0.1162,-1.5425394170782347,0.0,1.645335078239441,-2.233670473098755,-0.0,1.7918040752410889,5.308818447380819,0.0,0.26879411935806274,-1.5830219427691858,0.0,-0.009678751230239868,0.8807838559150696,0.0,0.007488244213163853,0.7607789635658264,0.0,0.0099231768399477
718.0,8190.0,-0.4385,0.0437,9.5845,-0.037,0.0247,-0.1162,-1.542539433842041,0.0,1.685262680053711,-2.2336456775665283,-0.0,1.8301626443862915,5.3088183281715295,0.0,0.2966577112674713,-1.5830300490008753,0.0,0.004678817465901375,0.880835771560669,0.0,0.0082868542522192,0.7607384324073792,0.0,-0.03688011318445206
718.0,8190.0,-0.4385,0.0437,9.5845,-0.037,0.0247,-0.1162,-1.5425555643490334,0.0,1.7218351364135742,-2.2336413860321045,-0.0,1.8297812938690186,5.308806586056509,0.0,0.27453720569610596,-1.583062473927633,0.0,-0.008996043354272842,0.8808438181877136,0.0,-0.0022806816268712282,0.760779082775116,0.0,-0.00045616552233695984
621.0,937.0,-0.4786,0.0048,9.6855,-0.0353,0.0168,-0.1205,-1.5425636705807229,0.0,1.683847188949585,-2.2336373329162598,-0.0,1.8061612844467163,5.308818447380819,0.0,0.27065110206604004,-1.5830586592303675,0.0,-0.008343679830431938,0.8807798027992249,0.0,0.010305458679795265,0.7608314752578735,0.0002912059426307678,0.03120594285428524
621.0,937.0,-0.4786,0.0048,9.6855,-0.0353,0.0168,-0.1205,-1.5425353565118094,0.0,1.6603195667266846,-2.2336373329162598,-0.0,1.8226418495178223,5.3088183281715295,0.0,0.2807377874851227,-1.5830782095538538,0.0,-0.0005468324525281787,0.8807879090309143,0.0,-0.0019911332055926323,0.760779082775116,0.0005944035365246236,-0.050190519541502
621.0,937.0,-0.4786,0.0048,9.6855,-0.0353,0.0168,-0.1205,-1.542539433842041,0.0,1.6338579654693604,-2.2336745262145996,-0.0,1.8178093433380127,5.308761584549703,0.0,0.2704845368862152,-1.5830419699298304,0.0,-0.011325882747769356,0.8808276653289795,0.0,0.011779511347413063,0.7607865333557129,0.0011848662979900837,-0.042642638087272644
621.0,937.0,-0.4786,0.0048,9.6855,-0.0353,0.0168,-0.1205,-1.5425475810519238,0.0,1.636350154876709,-2.233633279800415,-0.0,1.8079981803894043,5.3088265536125085,0.0,0.29183879494667053,-1.583061997090475,0.0,-0.015402451157569885,0.88074791431427,0.0,-0.011522229760885239,0.7608146071434021,0.003478229744359851,-0.032833509147167206
621.0,937.0,-0.4786,0.0048,9.6855,-0.0353,0.0168,-0.1205,-1.5425597012839098,1.4132089942719972e-10,1.7155287265777588,-2.2336373329162598,-0.0,1.842476487159729,5.308854388981619,9.607810103062775e-10,0.292366623878479,-1.5830939451800745,0.0,-0.023759255185723305,0.8807279467582703,0.0,0.005541851278394461,0.7609270811080933,0.006632890552282333,-0.008906548842787743
621.0,937.0,-0.4786,0.0048,9.6855,-0.0353,0.0168,-0.1205,-1.5425475568375369,6.142799617653344e-20,1.6495482921600342,-2.233649730682373,-0.0,1.8205440044403076,5.308846223145284,1.1401254052456015e-15,0.2683718800544739,-1.5830896536456507,0.0,-0.005405978765338659,0.8808076977729797,0.0,-0.006512144114822149,0.7609465718269348,0.007273436989635229,0.03927622362971306
621.0,937.0,-0.4786,0.0048,9.6855,-0.0353,0.0168,-0.1205,-1.5424993720701714,1.9901891747606993e-27,1.7176216840744019,-2.233625888824463,-0.0,1.8101645708084106,5.308834302216329,2.0721218464512862e-20,0.2650138735771179,-1.58307391801943,0.0,-0.009051082655787468,0.8808357119560242,0.0,-0.0023027551360428333,0.761030912399292,0.005894639063626528,-0.022110745310783386
621.0,937.0,-0.4786,0.0048,9.6855,-0.0353,0.0168,-0.1205,-1.5425314393690606,8.650761141951042e-37,1.6812763214111328,-2.2336859703063965,-0.0,1.8254303932189941,5.308846223145284,2.458914724610475e-26,0.28626760840415955,-1.583061997090475,0.0,-0.004939740058034658,0.8808395862579346,0.0,-0.00428210711106658,0.7610185742378235,0.003325181780382991,0.00424180505797267
621.0,937.0,-0.4786,0.0048,9.6855,-0.0353,0.0168,-0.1205,-1.5425073739937325,2.802596928649634e-44,1.656735897064209,-2.233621835708618,-0.0,1.8006945848464966,5.308866250305929,4.468956336939206e-31,0.27676886320114136,-1.5830901304828089,0.0,-0.010407744906842709,0.8808397650718689,0.0,0.0005454981001093984,0.7610103487968445,0.0013890579575672746,0.022058477625250816
621.0,937.0,-0.4786,0.0048,9.6855,-0.0353,0.0168,-0.1205,-1.542519563143589,0.0,1.6953413486480713,-2.2335939407348633,-0.0,1.818488359451294,5.308777916222372,7.040012860670686e-05,0.2643434405326843,-1.583061997090475,0.0,-0.004188114311546087,0.8807638883590698,0.0,-0.004342605359852314,0.7610425353050232,0.0005200944724492729,0.0054964590817689896
669.0,928.0,-0.4977,-0.2985,9.6879,-0.0388,0.0281,-0.1144,-1.54254753262315,0.0,1.6929081678390503,-2.233670234680176,-0.0,1.8140685558319092,5.3088265536125085,6.087538713472895e-05,0.27638816833496094,-1.5830419699298304,0.0,-0.025555983185768127,0.880811870098114,0.0,-0.0029249684885144234,0.7610347270965576,0.0003497474535834044,-0.004034518264234066
669.0,928.0,-0.4977,-0.2985,9.6879,-0.0388,0.0281,-0.1144,-1.5425475400737305,0.0,1.696854829788208,-2.2336859703063965,1.2363346457711089e-10,1.854009985923767,5.308790075569906,3.278491931268945e-05,0.27023592591285706,-1.5830581823932093,0.0,-0.0021721082739531994,0.8807917833328247,0.0,0.0031419191509485245,0.7610347270965576,0.0002518553810659796,-0.07274850457906723
669.0,928.0,-0.4977,-0.2985,9.6879,-0.0388,0.0281,-0.1144,-1.5425353360227128,0.0,1.684671401977539,-2.2336249351501465,4.005567522367608e-18,1.8073583841323853,5.308842944889822,2.333466909476556e-05,0.2849407196044922,-1.5830658117877405,0.0,-0.005690781399607658,0.8807838559150696,0.0,0.0035810917615890503,0.7610185742378235,0.00020578164549078792,-0.02404903434216976
669.0,928.0,-0.4977,-0.2985,9.6879,-0.0388,0.0281,-0.1144,-1.5425955981812258,-6.147462408989668e-05,1.6859753131866455,-2.233666181564331,1.7411013365193094e-27,1.8040611743927002,5.30879025438384,4.693872313055181e-08,0.2813776433467865,-1.5830820242511194,0.0,-0.006668139714747667,0.8808276653289795,0.0,0.0019157230854034424,0.7610710263252258,0.00016748470079619437,0.000694742426276207
669.0,928.0,-0.4977,-0.2985,9.6879,-0.0388,0.0281,-0.1144,-1.5425716780922194,-5.704464274458587e-05,1.6984174251556396,-2.2336456775665283,5.640946563897276e-35,1.8027379512786865,5.30879436710433,8.530882163876319e-13,0.28623759746551514,-1.5830662886248987,0.0,-0.023093093186616898,0.880763828754425,0.0,-0.008648731745779514,0.7610388398170471,0.00014578642731066793,-0.01688266731798649
669.0,928.0,-0.4977,-0.2985,9.6879,-0.0388,0.0281,-0.1144,-1.5425432951054354,-5.159436113899574e-05,1.7067869901657104,-2.2336373329162598,2.382207389352189e-44,1.786177158355713,5.308737861901083,1.0123300000244204e-18,0.2727816700935364,-1.5830095450030726,0.0,-0.00893712043762207,0.8808237314224243,0.0,-0.00392230786383152,0.7610470652580261,8.387367415707558e-05,0.022574348375201225
669.0,928.0,-0.4977,-0.2985,9.6879,-0.0388,0.0281,-0.1144,-1.5425794769874592,-4.7930810978868976e-05,1.7171695232391357,-2.2336373329162598,-0.0,1.8114055395126343,5.308838832169332,1.8398596581582417e-23,0.2972251772880554,-1.5830419699298304,-1.3906876006331004e-07,-0.006291936617344618,0.8808397054672241,0.0,-0.005435281433165073,0.7610628008842468,6.772273627575487e-05,0.009543098509311676
669.0,928.0,-0.4977,-0.2985,9.6879,-0.0388,0.0281,-0.1144,-1.542603801270463,-5.868971857125871e-05,1.6726245880126953,-2.2336816787719727,-3.076462235185318e-05,1.775822639465332,5.308717655926504,2.1832976804602246e-29,0.26994985342025757,-1.5830419699298304,-1.6502807963485883e-13,-0.01606316864490509,0.8808237910270691,0.0,0.010725677944719791,0.7609984278678894,8.020233508432284e-05,-0.06858670711517334
669.0,928.0,-0.4977,-0.2985,9.6879,-0.0388,0.0281,-0.1144,-1.5425922975740214,-6.902339373482391e-05,1.6891369819641113,-2.233628988265991,-2.7064561436418444e-05,1.7776628732681274,5.30879436710433,3.968035924011658e-34,0.2785898447036743,-1.5830543676959437,-2.9993035479677687e-18,-0.011363410390913486,0.8807879090309143,0.0,-0.0007121969247236848,0.7610265016555786,7.366719364654273e-05,0.006289227399975061
669.0,928.0,-0.4977,-0.2985,9.6879,-0.0388,0.0281,-0.1144,-1.542611551736929,-0.00018423260189592838,1.6965949535369873,-2.2336456775665283,-4.4292868551565334e-05,1.807824969291687,5.308762061386862,4.70872717773211e-40,0.2697261869907379,-1.583033863698141,-3.559169615971225e-24,-0.015766777098178864,0.8807998299598694,0.0,8.506840094923973e-05,0.7610306143760681,6.682964885840192e-05,-0.026709038764238358
594.0,834.0,-0.2249,0.2429,9.5761,-0.0376,0.005,-0.1251,-1.5426115591875096,-0.00018899909628089517,1.6658308506011963,-2.233633279800415,-4.259964407538064e-05,1.8230769634246826,5.308742034226217,8.407790785948902e-45,0.28215932846069336,-1.5830581823932093,-6.468614283829225e-29,-0.012423764914274216,0.8808276653289795,0.0,0.0016511862631887197,0.7610710263252258,6.221023795660585e-05,0.016659870743751526
594.0,834.0,-0.2249,0.2429,9.5761,-0.0376,0.005,-0.1251,-1.542603438054659,-0.00012786391016561538,1.6650551557540894,-2.2336249351501465,-5.713824066333473e-05,1.818800449371338,5.308762061386862,0.0,0.2902345359325409,-1.5830662886248987,-7.676081999774566e-35,-0.004125199280679226,0.8808117508888245,0.0,0.00285072042606771,0.7610384225845337,1.4808817468292546e-05,0.010967271402478218
594.0,834.0,-0.2249,0.2429,9.5761,-0.0376,0.005,-0.1251,-1.5425673120519896,-9.956776921171695e-05,1.6660420894622803,-2.2336580753326416,-7.371650281129405e-05,1.8229289054870605,5.308802592545309,0.0,0.27894073724746704,-1.58307391801943,-1.3950907121278581e-39,-7.741001900285482e-05,0.8808556795120239,0.0,-0.007342291995882988,0.7610425353050232,2.7710108042811044e-05,-0.04941946640610695
594.0,834.0,-0.2249,0.2429,9.5761,-0.0376,0.005,-0.1251,-1.5426155173084517,-0.00011699111200869083,1.6301004886627197,-2.233649730682373,-6.121287151472643e-05,1.8144360780715942,5.308782148152151,0.0,0.2755816578865051,-1.5830543676959437,-1.401298464324817e-45,-0.019928956404328346,0.8808276653289795,0.0,-0.008433717302978039,0.7610867619514465,0.0006208562408573925,0.016482368111610413
594.0,834.0,-0.2249,0.2429,9.5761,-0.0376,0.005,-0.1251,-1.542599396114685,-0.00013293870142661035,1.7130998373031616,-2.2336416244506836,-8.082454587565735e-05,1.8804731369018555,5.308786141663351,0.0,0.28729259967803955,-1.5830658117877405,-0.0,-0.01339804008603096,0.8808435797691345,0.0,-0.011998265981674194,0.761082649230957,0.001084838411770761,-0.0048704324290156364
594.0,834.0,-0.2249,0.2429,9.5761,-0.0376,0.005,-0.1251,-1.542607519110181,-0.00011733318387996405,1.6531128883361816,-2.2336816787719727,-7.031498535070568e-05,1.8777363300323486,5.3087260005767725,0.0,0.2815089523792267,-1.5830863157855433,-0.0,-0.007330453488975763,0.8807717561721802,0.0,-0.0009323935955762863,0.7611109018325806,0.002569961128756404,0.003785529639571905
594.0,834.0,-0.2249,0.2429,9.5761,-0.0376,0.005,-0.1251,-1.5426073551974078,-0.00010343812755309045,1.6915773153305054,-2.2336580753326416,4.6311019104905427e-05,1.8472284078598022,5.308746087342062,0.0,0.28463196754455566,-1.5830701033221644,-0.0,-0.020592696964740753,0.8808562159538269,0.0,-0.0016834603156894445,0.7611593008041382,0.0039212750270962715,0.017207149416208267
594.0,834.0,-0.2249,0.2429,9.5761,-0.0376,0.005,-0.1251,-1.5426072546145697,-0.00014454424672294408,1.6708238124847412,-2.233645439147949,3.683357863337733e-05,1.7841954231262207,5.308773982315817,0.0,0.2739640176296234,-1.5830581823932093,-0.0,-0.00572353508323431,0.8808117508888245,0.0,-0.005966248922049999,0.7611948847770691,0.005919400602579117,0.025786811485886574
594.0,834.0,-0.2249,0.2429,9.5761,-0.0376,0.005,-0.1251,-1.5426713985255738,-0.0009805120062083006,1.685049295425415,-2.233649730682373,6.325181311694905e-05,1.7901623249053955,5.308753835945883,0.0,0.2745833098888397,-1.5830257574664515,-0.0,-0.01931716501712799,0.8808476328849792,0.0,0.006316897459328175,0.7612667679786682,0.00871877372264862,-0.01061253622174263
594.0,834.0,-0.2249,0.2429,9.5761,-0.0376,0.005,-0.1251,-1.5427114640227337,-0.004248674027621746,1.6815109252929688,-2.2336859703063965,2.7046011382481083e-05,1.8073604106903076,5.308758008271017,0.0,0.2876923084259033,-1.5830701033221644,-0.0,-0.013107096776366234,0.8808354139328003,0.0,0.0006913224351592362,0.7613866925239563,0.011814919300377369,0.01023081410676241
703.0,903.0,-0.6754,0.1424,9.5139,-0.018,0.0368,-0.121,-1.5428273447654028,-0.009674006141722202,1.6647448539733887,-2.233649730682373,2.1641783851111818e-11,1.7899072170257568,5.308741974621572,0.0,0.279083251953125,-1.5830419699298304,-0.0,-0.005249325186014175,0.8808313608169556,0.0,-0.01107736211270094,0.7615025043487549,0.01594039797782898,0.07433046400547028
703.0,903.0,-0.6754,0.1424,9.5139,-0.018,0.0368,-0.121,-1.5429069020650168,-0.011384927667677402,1.6259008646011353,-2.2336816787719727,9.407039622631849e-21,1.8010259866714478,5.30877439954833,-8.601853187428787e-05,0.2739042639732361,-1.5830782095538538,-0.0,-0.009077663533389568,0.8808721303939819,0.0,-0.007974429987370968,0.761666476726532,0.020070359110832214,0.05990961194038391
703.0,903.0,-0.6754,0.1424,9.5139,-0.018,0.0368,-0.121,-1.5429710906795044,-0.010384774766862392,1.6494255065917969,-2.2336299419403076,3.047761507315954e-28,1.809875249862671,5.308726060181417,-0.0001085074181901291,0.2835838198661804,-1.5830820242511194,-0.0,-0.016254572197794914,0.8808720707893372,0.0,0.005377183668315411,0.7618227005004883,0.017352337017655373,-0.005665339529514313
703.0,903.0,-0.6754,0.1424,9.5139,-0.018,0.0368,-0.121,-1.5430669349483033,-0.008176862262189388,1.670473575592041,-2.2335691452026367,0.0006171869463287294,1.81121027469635,5.308734285622396,-0.0005594594986177981,0.2733009159564972,-1.583057705556051,-0.0,-0.013311095535755157,0.8808276653289795,0.0,0.002926720306277275,0.7619505524635315,0.01471927110105753,0.009194021113216877
703.0,903.0,-0.6754,0.1424,9.5139,-0.018,0.0368,-0.121,-1.5431308143636961,-0.0073483786545693874,1.7041176557540894,-2.2335939407348633,0.00039448784082196653,1.8426501750946045,5.308722364693441,-0.0011642780154943466,0.2791343331336975,-1.5830381552325647,-0.0,-0.014932374469935894,0.8808316588401794,0.0,0.0024223404470831156,0.7620947360992432,0.012641003355383873,0.05032648891210556
703.0,903.0,-0.6754,0.1424,9.5139,-0.018,0.0368,-0.121,-1.5432589848390599,-0.009382936172187328,1.6927080154418945,-2.2336184978485107,0.00035589709295891225,1.8197059631347656,5.308661746769705,-0.0025202452670782804,0.275661826133728,-1.583062473927633,-0.0,-0.006251231301575899,0.8808956742286682,0.0,-0.0006612063152715564,0.7621743679046631,0.008786738850176334,0.049349818378686905
703.0,903.0,-0.6754,0.1424,9.5139,-0.018,0.0368,-0.121,-1.5433181089213868,-0.011063863523304462,1.6170223951339722,-2.2335855960845947,0.0003904594050254673,1.7980290651321411,5.308605301171102,-0.010124278254806995,0.2726169526576996,-1.5830381552325647,-0.0,-0.010681990534067154,0.8808354139328003,0.0,0.009975905530154705,0.7622460722923279,0.006292892619967461,0.03725862875580788
703.0,903.0,-0.6754,0.1424,9.5139,-0.018,0.0368,-0.121,-1.5434226275286456,-0.011665720492601395,1.6706504821777344,-2.233569860458374,0.002014364581555128,1.8103134632110596,5.3085054633911035,-0.017850100994110107,0.2606397569179535,-1.5830381552325647,-0.0,-0.010897213593125343,0.8808601498603821,0.0,0.009303859435021877,0.7622981071472168,0.004538805224001408,0.0489097461104393
703.0,903.0,-0.6754,0.1424,9.5139,-0.018,0.0368,-0.121,-1.543550144215562,-0.013418667018413544,1.609144687652588,-2.2335503101348877,0.0022590907756239176,1.8056665658950806,5.308393883496084,-0.011265773326158524,0.2591851055622101,-1.5830181280719202,-2.163638886110153e-11,-0.01652807556092739,0.8808519840240479,0.00010385489440523088,0.018128547817468643,0.7623424530029297,0.0021097033750265837,0.07216263562440872
703.0,903.0,-0.6754,0.1424,9.5139,-0.018,0.0368,-0.121,-1.5436784786036988,-0.016136113554239273,1.6363235712051392,-2.2335422039031982,0.0023732429835945368,1.80181086063385,5.308293568878927,-0.0041047087870538235,0.24468080699443817,-1.5830543676959437,-3.9323067824917465e-16,-0.00022436166182160378,0.8808155059814453,0.00016909590340219438,0.024752069264650345,0.7623625993728638,0.0011471890611574054,0.0025204606354236603
703.0,903.0,-0.6754,0.1424,9.5139,-0.018,0.0368,-0.121,-1.5438787539354344,-0.02124125324189663,1.5750929117202759,-2.233461380004883,0.0027780658565461636,1.855269432067871,5.3082976815994165,-0.0010651123011484742,0.25143760442733765,-1.583017651234762,-4.666332125693788e-22,-0.002815480809658766,0.8808879852294922,0.00017078494420275092,0.014799206517636776,0.7623543739318848,0.0008797487244009972,-0.006001100409775972
664.0,8190.0,-0.1262,0.5521,9.4642,-0.0027,-0.0098,-0.1162,-1.5440669947168608,-0.023512564599514008,1.6214790344238281,-2.233473539352417,0.003653682768344879,1.8548520803451538,5.308321523457327,-0.000724632409401238,0.2553824782371521,-1.583045784627096,-8.480827117505349e-27,0.007886737585067749,0.8808601498603821,0.00015163041825871915,0.022790154442191124,0.7623625993728638,0.0006452694069594145,0.004923864733427763
664.0,8190.0,-0.1262,0.5521,9.4642,-0.0027,-0.0098,-0.1162,-1.5442258932492514,-0.026138607412576675,1.6228440999984741,-2.2334704399108887,0.0037118024192750454,1.8416997194290161,5.308301436692037,-0.0003667570708785206,0.24996516108512878,-1.5830138365374964,-1.0063900845016949e-32,-0.0003612111322581768,0.8809119462966919,0.00015512187383137643,0.020263899117708206,0.7623543739318848,0.0004455611342564225,0.03468224033713341
664.0,8190.0,-0.1262,0.5521,9.4642,-0.0027,-0.0098,-0.1162,-1.5445106637528916,-0.029161399230360985,1.5312740802764893,-2.2334177494049072,0.0042192041873931885,1.8709932565689087,5.308321583061971,-0.0003270480956416577,0.25487637519836426,-1.58299428621401,-1.8290639903229594e-37,-0.005325043573975563,0.880855917930603,0.00016070138372015208,0.031887687742710114,0.762310266494751,0.0003571434353943914,-0.010806254111230373
664.0,8190.0,-0.1262,0.5521,9.4642,-0.0027,-0.0098,-0.1162,-1.5448343449136992,-0.03760472685098648,1.542598009109497,-2.233402967453003,0.004161031451076269,1.8401639461517334,5.308289336949148,-0.0014239788288250566,0.23231008648872375,-1.5830257574664515,-2.1720126197034665e-43,0.020838236436247826,0.8808562159538269,0.00014512165216729045,0.025020334869623184,0.7623666524887085,0.0002861652465071529,-0.00824623741209507
664.0,8190.0,-0.1262,0.5521,9.4642,-0.0027,-0.0098,-0.1162,-1.5451664079776783,-0.044410817325115204,1.5203574895858765,-2.233402967453003,0.005909615196287632,1.8711369037628174,5.308297800808706,-0.00159691262524575,0.24499818682670593,-1.5830419699298304,-0.0,0.015872444957494736,0.8808638453483582,0.00014473717601504177,0.03402817249298096,0.7623543739318848,0.000246909650741145,0.004352002404630184
664.0,8190.0,-0.1262,0.5521,9.4642,-0.0027,-0.0098,-0.1162,-1.5456298806569357,-0.0512632317841053,1.463330626487732,-2.2332301139831543,0.009229120798408985,1.8415414094924927,5.308261203556814,-0.001061575603671372,0.21874871850013733,-1.5829780737506312,-0.0,0.01917055808007717,0.880836009979248,0.00012469093780964613,0.020233377814292908,0.7623865604400635,0.0001488918933318928,-0.03246917948126793
664.0,8190.0,-0.1262,0.5521,9.4642,-0.0027,-0.0098,-0.1162,-1.5460740134916087,-0.05864784121513367,1.4994529485702515,-2.2331504821777344,0.0114476028829813,1.8301165103912354,5.308273422508993,-0.0009952461114153266,0.22646786272525787,-1.5830023924456995,-0.0,0.026791993528604507,0.8808637857437134,0.0001346472417935729,0.039682403206825256,0.7623581886291504,0.00013148919970262796,-0.04145057871937752
664.0,8190.0,-0.1262,0.5521,9.4642,-0.0027,-0.0098,-0.1162,-1.5466848828694602,-0.06552174687385559,1.516783595085144,-2.2329981327056885,0.012791630811989307,1.8484441041946411,5.308266031533041,-0.002340961480513215,0.2124376744031906,-1.5829981009112757,-0.0,0.023401526734232903,0.8809196352958679,0.00011976107634836808,0.043911162763834,0.7623664140701294,0.00011472728510852903,0.007891364395618439
664.0,8190.0,-0.1262,0.5521,9.4642,-0.0027,-0.0098,-0.1162,-1.5472357769361516,-0.07087808847427368,1.4715074300765991,-2.2329225540161133,0.013501092791557312,1.901714563369751,5.3082371828849695,-0.004154606722295284,0.2003246545791626,-1.58299428621401,4.8174799303524196e-05,0.035856980830430984,0.8809354901313782,0.00012802050332538784,0.0395670011639595,0.7623222470283508,0.00011780510249081999,-0.03473043814301491
664.0,8190.0,-0.1262,0.5521,9.4642,-0.0027,-0.0098,-0.1162,-1.5479275875589629,-0.07986074686050415,1.442218542098999,-2.232835292816162,0.014189646579325199,1.9193203449249268,5.308161484986105,-0.006424789782613516,0.20654915273189545,-1.5829981009112757,7.814617856638506e-05,0.03746964782476425,0.8809076547622681,0.00011647260544123128,0.03689156472682953,0.7623906135559082,0.00011197889398317784,0.009962220676243305
636.0,910.0,-0.6957,0.0078,9.6168,-0.0461,0.0276,-0.1182,-1.5486236915788432,-0.0893464982509613,1.4286912679672241,-2.2327077388763428,0.015565157867968082,1.8996124267578125,5.308141696244039,-0.0071572777815163136,0.20026400685310364,-1.5829861799823206,8.755763701628894e-05,0.055557750165462494,0.8809037804603577,0.00011607968917815015,0.05536634474992752,0.762322187423706,0.00010340201697545126,0.000906873494386673
636.0,910.0,-0.6957,0.0078,9.6168,-0.0461,0.0276,-0.1182,-1.549611549159028,-0.09959309548139572,1.4090664386749268,-2.2325079441070557,0.017628954723477364,1.9110230207443237,5.308045017510214,-0.0047484696842730045,0.17669549584388733,-1.5829861799823206,8.11000500107184e-05,0.04213535785675049,0.8809155821800232,0.00011412251478759572,0.05584168806672096,0.7623705267906189,9.436728578293696e-05,0.006667373701930046
636.0,910.0,-0.6957,0.0078,9.6168,-0.0461,0.0276,-0.1182,-1.5503860407373686,-0.10703429579734802,1.372560977935791,-2.232351541519165,0.018471233546733856,1.9560861587524414,5.308057772904196,-0.0037846264895051718,0.19037435948848724,-1.5829818884478968,7.650414772797376e-05,0.045783668756484985,0.8809075951576233,0.00010731837392086163,0.053694043308496475,0.7624187469482422,8.820177026791498e-05,-0.030606072396039963
636.0,910.0,-0.6957,0.0078,9.6168,-0.0461,0.0276,-0.1182,-1.551529149790742,-0.11868159472942352,1.3616437911987305,-2.2321834564208984,0.018828704953193665,1.9526771306991577,5.3079972741897485,-0.004781439900398254,0.19735568761825562,-1.58299428621401,7.14433190296404e-05,0.03831037878990173,0.8808877468109131,0.00010154338815482333,0.05609520524740219,0.7623424530029297,9.049010259332135e-05,0.0006085450295358896
636.0,910.0,-0.6957,0.0078,9.6168,-0.0461,0.0276,-0.1182,-1.5525327187827607,-0.12750326097011566,1.4183216094970703,-2.231964111328125,0.019019948318600655,1.920418381690979,5.307969915657797,-0.005719591397792101,0.18225397169589996,-1.5829651991473597,7.91361671872437e-05,0.03306823968887329,0.8809599876403809,9.472190868109465e-05,0.05193432420492172,0.7623664140701294,8.971406350610778e-05,0.009398166090250015
636.0,910.0,-0.6957,0.0078,9.6168,-0.0461,0.0276,-0.1182,-1.553913089712598,-0.13886423408985138,1.3634185791015625,-2.2318003177642822,0.018780793994665146,1.8910651206970215,5.30791716554717,-0.00503991125151515,0.17696337401866913,-1.5829699675189417,7.448188989656046e-05,0.05427660048007965,0.880903422832489,8.570191130274907e-05,0.045871302485466,0.762382447719574,8.375101606361568e-05,-0.056397080421447754
636.0,910.0,-0.6957,0.0078,9.6168,-0.0461,0.0276,-0.1182,-1.5549913340112944,-0.1543906331062317,1.3105683326721191,-2.2316200733184814,0.019518377259373665,1.905320167541504,5.3078569052513025,-0.003576639574021101,0.16818077862262726,-1.5829575697528284,8.093837095657364e-05,0.045548588037490845,0.8809195756912231,9.552645497024059e-05,0.04088965803384781,0.7623945474624634,7.952241867315024e-05,0.035761043429374695
636.0,910.0,-0.6957,0.0078,9.6168,-0.0461,0.0276,-0.1182,-1.5565529095805068,-0.1627258062362671,1.3174831867218018,-2.231468915939331,0.01977447420358658,1.9336581230163574,5.307877409249105,-0.0014073066413402557,0.17454898357391357,-1.5829537550555628,2.2124268639345246e-08,0.05235730856657028,0.8809193968772888,8.779382187640294e-05,0.05551619455218315,0.7623383402824402,7.480157364625484e-05,-0.024036789312958717
636.0,910.0,-0.6957,0.0078,9.6168,-0.0461,0.0276,-0.1182,-1.5579568308642884,-0.16339638829231262,1.2888133525848389,-2.2313172817230225,0.019966866821050644,1.948439121246338,5.307893383293905,-0.0008075179648585618,0.15155616402626038,-1.5829656759845179,4.0209768023893866e-13,0.0635523647069931,0.8809319138526917,8.243298361776397e-05,0.05476173013448715,0.7623705267906189,7.141013338696212e-05,0.010770595632493496
636.0,910.0,-0.6957,0.0078,9.6168,-0.0461,0.0276,-0.1182,-1.559784006593265,-0.18454891443252563,1.3364171981811523,-2.2311980724334717,0.015292675234377384,1.9265742301940918,5.307792830258169,-0.002776896581053734,0.16962310671806335,-1.5830343405352991,4.771554140384575e-19,0.05840510502457619,0.8808440566062927,7.65873774071224e-05,0.05593261867761612,0.7624064683914185,1.5840282419077312e-09,-0.014310276135802269
731.0,910.0,-0.9924,0.1693,9.6455,-0.0385,-0.068,-0.124,-1.5613187488964577,-0.20575840771198273,1.337214708328247,-2.231001615524292,0.012371606193482876,1.9193894863128662,5.30785350778655,-0.003002939047291875,0.1763295829296112,-1.5829656759845179,8.67206389364765e-24,0.057844240218400955,0.8809400200843811,8.455318311462179e-05,0.06011322885751724,0.762382447719574,5.132050535555393e-17,0.022244594991207123
731.0,910.0,-0.9924,0.1693,9.6455,-0.0385,-0.068,-0.124,-1.5634205725840111,-0.20036830008029938,1.3048771619796753,-2.2310073375701904,0.013530995696783066,1.9333572387695312,5.307841169625082,-0.0006107784574851394,0.17215794324874878,-1.5829461256610315,7.619622920174152e-05,0.056578896939754486,0.8809559345245361,7.923757948447019e-05,0.06840689480304718,0.7623386383056641,2.2307504203965013e-26,0.009835418313741684
731.0,910.0,-0.9924,0.1693,9.6455,-0.0385,-0.068,-0.124,-1.565123605342098,-0.2042667269706726,1.3135563135147095,-2.230806589126587,0.013668330386281013,1.9175081253051758,5.307808804302969,-0.00018919557624030858,0.18355783820152283,-1.5829861799823206,7.137439388316125e-05,0.05000012740492821,0.8809193968772888,7.544214167864993e-05,0.06295998394489288,0.7623420357704163,3.3984269975917414e-05,-0.03189956396818161
731.0,910.0,-0.9924,0.1693,9.6455,-0.0385,-0.068,-0.124,-1.5669299715994676,-0.2321668118238449,1.2253787517547607,-2.23077130317688,0.009701085276901722,1.93531334400177,5.30776863077239,-0.0008415361517108977,0.177969291806221,-1.5829861799823206,6.711626338073984e-05,0.06798605620861053,0.8808797597885132,8.219005394494161e-05,0.06595522910356522,0.7623502612113953,0.00024410200421698391,-0.07466598600149155
731.0,910.0,-0.9924,0.1693,9.6455,-0.0385,-0.068,-0.124,-1.5693408963600923,-0.24290458858013153,1.2520112991333008,-2.2306954860687256,0.007422627881169319,1.9273583889007568,5.30777274349288,-0.0017356432508677244,0.17652088403701782,-1.582938019429342,6.245851545827463e-05,0.055041320621967316,0.8808797597885132,3.3913994457179797e-07,0.05876791104674339,0.762338399887085,0.00021876036771573126,0.035440593957901
731.0,910.0,-0.9924,0.1693,9.6455,-0.0385,-0.068,-0.124,-1.57118620494985,-0.24916787445545197,1.2233418226242065,-2.230578660964966,0.008575175888836384,1.960461974143982,5.307781028538503,-0.0005537624238058925,0.17138376832008362,-1.582949463521139,5.9173271438339725e-05,0.03667362779378891,0.8809677362442017,6.1637014936444245e-12,0.054133083671331406,0.7623461484909058,0.00016520614735782146,-0.008363569155335426
731.0,910.0,-0.9924,0.1693,9.6455,-0.0385,-0.068,-0.124,-1.5737010441222132,-0.2536497712135315,1.292485237121582,-2.2304790019989014,0.010092017240822315,1.8877205848693848,5.3078210828597925,-0.00031245697755366564,0.18242552876472473,-1.58299428621401,5.552281436393969e-05,0.054348304867744446,0.8809518218040466,6.648098496953025e-05,0.0662580206990242,0.7623783349990845,0.00016866424994077533,0.04047870263457298
731.0,910.0,-0.9924,0.1693,9.6455,-0.0385,-0.068,-0.124,-1.5757671795287074,-0.2506799101829529,1.2844774723052979,-2.2303788661956787,0.01263776421546936,1.9238389730453491,5.307736742287435,-0.00023188855266198516,0.17753441631793976,-1.5829780737506312,4.233222716720775e-05,0.03669530153274536,0.8809193968772888,7.247002940857783e-05,0.06454464793205261,0.7624266743659973,0.00027928227791562676,0.013746078126132488
731.0,910.0,-0.9924,0.1693,9.6455,-0.0385,-0.068,-0.124,-1.5783125362791957,-0.2676846385002136,1.2895334959030151,-2.2303318977355957,0.012539231218397617,1.8820600509643555,5.307793187886038,-5.063514981884509e-05,0.18694938719272614,-1.5830419699298304,3.997882959083654e-05,0.03323779255151749,0.8808997273445129,6.706960266456008e-05,0.05896575748920441,0.7624589800834656,0.0021853724028915167,0.07684678584337234
731.0,910.0,-0.9924,0.1693,9.6455,-0.0385,-0.068,-0.124,-1.5803472004332484,-0.2756199836730957,1.3077404499053955,-2.2301268577575684,0.013586917892098427,1.8972766399383545,5.307789253979482,-4.1129878809442744e-05,0.1857023537158966,-1.5829899946795862,2.8278401842385392e-09,0.038780245929956436,0.8808954954147339,6.329605093924329e-05,0.06265316903591156,0.7624585032463074,0.004248753190040588,0.05626305192708969
890.0,1022.0,-1.1486,0.2195,10.0648,-0.0434,-0.1898,-0.1164,-1.582991739312643,-0.2712707221508026,1.275615930557251,-2.2299838066101074,0.02153274603188038,1.880617618560791,5.307805049210348,-4.020951749339474e-08,0.16976192593574524,-1.5829537550555628,3.355699320983308e-15,0.048949819058179855,0.8809239864349365,5.9136993513675407e-05,0.06504890322685242,0.7624384164810181,0.0032179453410208225,0.006438431330025196
890.0,1022.0,-1.1486,0.2195,10.0648,-0.0434,-0.1898,-0.1164,-1.5851627788939417,-0.26659855246543884,1.3592419624328613,-2.2297797203063965,0.030753200873732567,1.9075154066085815,5.307800996094503,-7.30788042926922e-13,0.1850219964981079,-1.5830023924456995,6.098816873520251e-20,0.026257097721099854,0.8809877038002014,5.618368595605716e-05,0.07938387989997864,0.7625226974487305,0.002663177903741598,0.028752148151397705
890.0,1022.0,-1.1486,0.2195,10.0648,-0.0434,-0.1898,-0.1164,-1.5879322491087855,-0.27661967277526855,1.3360881805419922,-2.2294161319732666,0.03982148319482803,1.9498302936553955,5.307800996094503,-8.672007479616854e-19,0.19730603694915771,-1.5830023924456995,7.237254614637697e-26,0.05099326744675636,0.8808796405792236,6.34588795946911e-05,0.08762504160404205,0.7625182271003723,0.005010968539863825,0.07222872227430344
890.0,1022.0,-1.1486,0.2195,10.0648,-0.0434,-0.1898,-0.1164,-1.5902635059752406,-0.2792237102985382,1.3334705829620361,-2.2290804386138916,0.04978051036596298,1.9377448558807373,5.307801055699148,-1.5760945481667337e-23,0.19786381721496582,-1.5829780737506312,1.3153351084571256e-30,0.04264412820339203,0.8809114694595337,6.060988380340859e-05,0.06416383385658264,0.762566328048706,0.006631705444306135,0.1122974157333374
890.0,1022.0,-1.1486,0.2195,10.0648,-0.0434,-0.1898,-0.1164,-1.5931645832457484,-0.29844585061073303,1.2927868366241455,-2.2284929752349854,0.06410305947065353,1.9553265571594238,5.30777274349288,-1.87029705053118e-29,0.1941148340702057,-1.5829981009112757,1.5608626388993268e-36,0.028659794479608536,0.8809359073638916,4.239574025177717e-09,0.06163159757852554,0.7626021504402161,0.006019422318786383,0.08073531091213226
890.0,1022.0,-1.1486,0.2195,10.0648,-0.0434,-0.1898,-0.1164,-1.595595499078268,-0.2902364730834961,1.3400770425796509,-2.2279303073883057,0.07699813693761826,1.901573896408081,5.307812917023458,-3.3991728816754817e-34,0.20918172597885132,-1.5829456488238733,2.8367886111791597e-41,0.02486269548535347,0.8808757066726685,7.705216808562634e-14,0.05870204418897629,0.7626704573631287,0.004295614548027515,0.062223415821790695
890.0,1022.0,-1.1486,0.2195,10.0648,-0.0434,-0.1898,-0.1164,-1.5986410580077113,-0.30318230390548706,1.325455665588379,-2.227055788040161,0.09553100168704987,1.9718918800354004,5.307865190296926,-4.033679668512916e-40,0.1983402669429779,-1.5829861799823206,0.0,0.040381163358688354,0.8809400200843811,9.143514258197946e-20,0.06703512370586395,0.7627066373825073,0.0025921405758708715,0.041597880423069
890.0,1022.0,-1.1486,0.2195,10.0648,-0.0434,-0.1898,-0.1164,-1.601147790948385,-0.3055529296398163,1.390690803527832,-2.2262685298919678,0.09804079681634903,2.035855531692505,5.307760524540701,-7.006492321624085e-45,0.20515617728233337,-1.5829899946795862,0.0,0.037397198379039764,0.8808836340904236,1.6617885477439375e-24,0.06271114945411682,0.7627264261245728,0.0025722531136125326,0.11913983523845673
890.0,1022.0,-1.1486,0.2195,10.0648,-0.0434,-0.1898,-0.1164,-1.60416903118276,-0.31922054290771484,1.3375959396362305,-2.225249767303467,0.10012846440076828,1.9387823343276978,5.3078165529067896,-0.0,0.19253084063529968,-1.5829699675189417,0.0,0.03746414929628372,0.8809478282928467,1.971987129606126e-30,0.07175970077514648,0.762730062007904,0.0033169046510010958,0.09851808100938797
890.0,1022.0,-1.1486,0.2195,10.0648,-0.0434,-0.1898,-0.1164,-1.6066590748228968,-0.31160733103752136,1.3554542064666748,-2.2243311405181885,0.11034279316663742,2.0003809928894043,5.307776796608724,-0.0,0.19885632395744324,-1.5829981009112757,0.0,0.029531730338931084,0.8809279799461365,3.583988431259518e-35,0.0667794719338417,0.7627342343330383,0.0023266877979040146,0.03157057613134384
1038.0,8190.0,-0.3045,0.4433,9.95,-0.0405,-0.2075,-0.1266,-1.6096960506834925,-0.30556774139404297,1.3925268650054932,-2.2232213020324707,0.12304404377937317,1.9680981636047363,5.3077969429786584,-0.0,0.19612564146518707,-1.5829618612872522,0.0,0.0198846273124218,0.8809279799461365,4.25294083922582e-41,0.05634140968322754,0.7627822160720825,0.0014096072409301996,-0.002070126123726368
1038.0,8190.0,-0.3045,0.4433,9.95,-0.0405,-0.2075,-0.1266,-1.6121541462340296,-0.3117297291755676,1.3683991432189941,-2.222198486328125,0.13606508076190948,1.9781725406646729,5.307780909329214,6.527764344355091e-05,0.1971440315246582,-1.5829818884478968,0.0,0.016745029017329216,0.880944013595581,1.401298464324817e-45,0.05113371089100838,0.7627902030944824,0.002461207564920187,0.01587405987083912
1038.0,8190.0,-0.3045,0.4433,9.95,-0.0405,-0.2075,-0.1266,-1.6152802906432093,-0.32090649008750916,1.431544542312622,-2.220813274383545,0.14130690693855286,2.036548376083374,5.307833003788748,5.525844971998595e-05,0.21041183173656464,-1.5829861799823206,0.0,0.0348680317401886,0.8809034824371338,0.0,0.06437388062477112,0.7628423571586609,0.004456252325326204,0.10600794106721878
1038.0,8190.0,-0.3045,0.4433,9.95,-0.0405,-0.2075,-0.1266,-1.61779846767568,-0.3234595060348511,1.3853492736816406,-2.2196390628814697,0.14315447211265564,1.9509066343307495,5.307853328972616,7.298200216609985e-05,0.2038085013628006,-1.5829861799823206,0.0,0.017808640375733376,0.8809114694595337,0.0,0.0634772777557373,0.7628867626190186,0.004428965039551258,0.038766101002693176
1038.0,8190.0,-0.3045,0.4433,9.95,-0.0405,-0.2075,-0.1266,-1.6210133037962855,-0.31003615260124207,1.4381734132766724,-2.21811580657959,0.1574142724275589,2.0573008060455322,5.307885694294729,0.0002477082598488778,0.20557010173797607,-1.5829981009112757,0.0,0.011660964228212833,0.8809155225753784,0.0,0.06396102905273438,0.7628662586212158,0.002979831537231803,0.04444172978401184
1038.0,8190.0,-0.3045,0.4433,9.95,-0.0405,-0.2075,-0.1266,-1.6235219440855921,-0.31485435366630554,1.420987844467163,-2.216775894165039,0.17009983956813812,2.0356152057647705,5.307841169625082,0.00020831424626521766,0.20477251708507538,-1.5829981009112757,0.0,0.03910970687866211,0.8809114694595337,0.0,0.060154594480991364,0.7628899812698364,0.0033248313702642918,0.04967016726732254
1038.0,8190.0,-0.3045,0.4433,9.95,-0.0405,-0.2075,-0.1266,-1.626904150048727,-0.3215316832065582,1.4617165327072144,-2.2149853706359863,0.1736830770969391,1.9844989776611328,5.307792830258169,0.0001353325496893376,0.21137113869190216,-1.5829981009112757,5.665360403028785e-10,0.015319054946303368,0.8809400200843811,0.0,0.04974181950092316,0.76295006275177,0.0049253408797085285,0.11950013786554337
1038.0,8190.0,-0.3045,0.4433,9.95,-0.0405,-0.2075,-0.1266,-1.6295095882811488,-0.34012842178344727,1.4187369346618652,-2.2135326862335205,0.17921887338161469,2.042813301086426,5.307808804302969,0.00014651713718194515,0.21202433109283447,-1.5829861799823206,1.0296513872098435e-14,0.01289401762187481,0.8809677362442017,0.0,0.05162099748849869,0.7629980444908142,0.008171534165740013,0.0931594967842102
1038.0,8190.0,-0.3045,0.4433,9.95,-0.0405,-0.2075,-0.1266,-1.6328441105284632,-0.3314494788646698,1.433640480041504,-2.2116940021514893,0.1861090213060379,2.068512439727783,5.3078775880630396,0.00012639383203350008,0.20676593482494354,-1.5830019156085413,1.2218517472568052e-20,0.009534910321235657,0.8809035420417786,0.0,0.05444340407848358,0.76311856508255,0.009343421086668968,0.11969912797212601
1038.0,8190.0,-0.3045,0.4433,9.95,-0.0405,-0.2075,-0.1266,-1.635449548760885,-0.3326945900917053,1.4574177265167236,-2.2101802825927734,0.19225892424583435,2.031930446624756,5.307845103531637,0.00011362701479811221,0.20764696598052979,-1.5830138365374964,2.2206555276297594e-25,0.027914322912693024,0.8809359073638916,0.0,0.059357866644859314,0.7631745338439941,0.00861966609954834,0.1001262217760086
1077.0,8190.0,0.4391,-0.0784,9.7699,-0.0663,-0.1388,-0.119,-1.6387225590147914,-0.32575029134750366,1.518927812576294,-2.208209991455078,0.20602798461914062,2.0496435165405273,5.30785750129775,0.00015029888891149312,0.20769664645195007,-1.5829818884478968,2.6351755106027608e-31,0.0025495144072920084,0.8809518814086914,0.0,0.053294554352760315,0.7633069157600403,0.010601879097521305,0.10439123958349228
1077.0,8190.0,0.4391,-0.0784,9.7699,-0.0663,-0.1388,-0.119,-1.641369482079977,-0.32890671491622925,1.487567663192749,-2.2065906524658203,0.21209202706813812,2.0407824516296387,5.307812917023458,0.00013259831757750362,0.20867551863193512,-1.58299428621401,4.789301121965973e-36,0.0036327845882624388,0.8809638619422913,0.0,0.041379787027835846,0.7634029984474182,0.012649266049265862,0.0517253503203392
1077.0,8190.0,0.4391,-0.0784,9.7699,-0.0663,-0.1388,-0.119,-1.6439186535277308,-0.33331403136253357,1.549990177154541,-2.2048559188842773,0.21478047966957092,2.0205914974212646,5.307853328972616,9.490725642535836e-05,0.2149513065814972,-1.5829981009112757,8.704305541000034e-41,0.01423193234950304,0.8809115886688232,0.0,0.056785911321640015,0.763515293598175,0.01417112909257412,0.06393174827098846
1077.0,8190.0,0.4391,-0.0784,9.7699,-0.0663,-0.1388,-0.119,-1.6471840343871058,-0.32853612303733826,1.5880675315856934,-2.202605962753296,0.23160713911056519,2.01878023147583,5.307832824974813,0.000101969919342082,0.21578863263130188,-1.582982365285055,0.0,0.015183476731181145,0.8809235095977783,0.0,0.048580557107925415,0.7636473774909973,0.01531975343823433,0.07940853387117386
1077.0,8190.0,0.4391,-0.0784,9.7699,-0.0663,-0.1388,-0.119,-1.6498424015440882,-0.3285498321056366,1.5194015502929688,-2.200728178024292,0.24612286686897278,2.1005709171295166,5.30785750129775,8.435026393271983e-05,0.22853046655654907,-1.5830023924456995,0.0,0.009374829940497875,0.8809194564819336,0.0,0.05038619786500931,0.7637673616409302,0.01423676498234272,0.0574769489467144
1077.0,8190.0,0.4391,-0.0784,9.7699,-0.0663,-0.1388,-0.119,-1.6531220875182093,-0.3217569887638092,1.591080665588379,-2.1981964111328125,0.2591416835784912,2.0891778469085693,5.3078691242034814,0.0003339133982080966,0.22489215433597565,-1.5830138365374964,0.0,0.020056653767824173,0.8809235095977783,0.0,0.05951559543609619,0.7639515995979309,0.014574157074093819,0.022146355360746384
1077.0,8190.0,0.4391,-0.0784,9.7699,-0.0663,-0.1388,-0.119,-1.6558476887144984,-0.33283567428588867,1.6050511598587036,-2.196061611175537,0.2792889177799225,2.1051270961761475,5.307832824974813,0.00026845038519240916,0.22526711225509644,-1.5830100218402308,0.0,0.010010095313191414,0.8808917999267578,0.0,0.04634818807244301,0.7640519738197327,0.015486191026866436,0.060961611568927765
1077.0,8190.0,0.4391,-0.0784,9.7699,-0.0663,-0.1388,-0.119,-1.659220357934469,-0.334819495677948,1.6526563167572021,-2.1932828426361084,0.2832944989204407,2.1145007610321045,5.307816493302145,0.0002056337398244068,0.2341410219669342,-1.5829981009112757,0.0,0.03105871006846428,0.8809155225753784,0.0,0.04173535108566284,0.7641555070877075,0.01415017805993557,0.07861734926700592
1077.0,8190.0,0.4391,-0.0784,9.7699,-0.0663,-0.1388,-0.119,-1.6619531116881312,-0.3371087908744812,1.5932118892669678,-2.190781593322754,0.30371105670928955,2.127209424972534,5.307885694294729,0.0002774579043034464,0.22932416200637817,-1.5829861799823206,0.0,0.015015168115496635,0.8809115886688232,0.0,0.05417964980006218,0.7642917037010193,0.011356130242347717,0.04814053699374199
1077.0,8190.0,0.4391,-0.0784,9.7699,-0.0663,-0.1388,-0.119,-1.6652614078917445,-0.3373008072376251,1.628881812095642,-2.187727451324463,0.31026747822761536,2.0848450660705566,5.307881521969595,0.00019117194460704923,0.2159009873867035,-1.582949463521139,0.0,0.011815443634986877,0.8808798789978027,0.0,0.051136985421180725,0.7643997073173523,0.009697976522147655,0.06420305371284485
1062.0,1022.0,0.1914,-0.6419,9.6754,-0.0762,-0.0932,-0.1106,-1.6679269276061,-0.3364521861076355,1.6766624450683594,-2.1851463317871094,0.31980419158935547,2.1293692588806152,5.3078569052513025,0.00010580323578324169,0.23384881019592285,-1.5829861799823206,0.0,0.025988968089222908,0.8809478282928467,0.0,0.06157054752111435,0.7644515633583069,0.01040833443403244,-0.006927864626049995
1062.0,1022.0,0.1914,-0.6419,9.6754,-0.0762,-0.0932,-0.1106,-1.671183248559469,-0.3305121064186096,1.6796398162841797,-2.1818764209747314,0.3304133713245392,2.152284860610962,5.307881104737081,6.600732740480453e-05,0.23923948407173157,-1.5830023924456995,0.0,0.024329546838998795,0.8808996677398682,0.0,0.04359658062458038,0.7645435333251953,0.008375450037419796,0.0052591487765312195
1062.0,1022.0,0.1914,-0.6419,9.6754,-0.0762,-0.0932,-0.1106,-1.6737319431700648,-0.3236004412174225,1.691871166229248,-2.1791324615478516,0.3421170711517334,2.185436487197876,5.307885694294729,0.00010204042337136343,0.23132336139678955,-1.5830219427691858,0.0,0.020894676446914673,0.8809036016464233,0.0,0.034249015152454376,0.7646439075469971,0.009397185407578945,0.03847045451402664
1062.0,1022.0,0.1914,-0.6419,9.6754,-0.0762,-0.0932,-0.1106,-1.6768881283202113,-0.31682631373405457,1.7639461755752563,-2.175699234008789,0.3522745966911316,2.1372642517089844,5.307873236923971,7.950973667902872e-05,0.23112177848815918,-1.5829780737506312,0.0,0.0066747646778821945,0.8808997273445129,0.0,0.03814305365085602,0.7647844552993774,0.009442427195608616,0.04658448323607445
1062.0,1022.0,0.1914,-0.6419,9.6754,-0.0762,-0.0932,-0.1106,-1.679390092889303,-0.31591272354125977,1.752305269241333,-2.1728711128234863,0.3625289499759674,2.1814444065093994,5.307836818486013,6.75688570481725e-05,0.25572237372398376,-1.5830138365374964,0.0,0.012606516480445862,0.8808915019035339,0.0,0.03971123695373535,0.7647919654846191,0.009611845947802067,0.008480633608996868
1062.0,1022.0,0.1914,-0.6419,9.6754,-0.0762,-0.0932,-0.1106,-1.6825586758055628,-0.3083556890487671,1.7559008598327637,-2.1692306995391846,0.37514543533325195,2.19531512260437,5.307877409249105,2.857431536540389e-05,0.2396576851606369,-1.58299428621401,0.0,0.015921013429760933,0.8809075355529785,0.0,0.04895589128136635,0.7649363875389099,0.008869457058608532,0.044335510581731796
1062.0,1022.0,0.1914,-0.6419,9.6754,-0.0762,-0.0932,-0.1106,-1.6850916347899378,-0.3116909861564636,1.7813377380371094,-2.166163921356201,0.3900776505470276,2.2097840309143066,5.307869183808126,5.044621502747759e-05,0.2395545244216919,-1.5829780737506312,0.0,0.013844979926943779,0.8808796405792236,0.0,0.050564222037792206,0.7650044560432434,0.009704126045107841,0.07041441649198532
1062.0,1022.0,0.1914,-0.6419,9.6754,-0.0762,-0.0932,-0.1106,-1.688277383843893,-0.3075200021266937,1.8332734107971191,-2.1622402667999268,0.40399646759033203,2.197288751602173,5.307877409249105,4.42904383817222e-05,0.249172180891037,-1.5829699675189417,0.0,0.015722794458270073,0.8809359073638916,0.0,0.04162365943193436,0.7650962471961975,0.011128938756883144,0.06332632899284363
1062.0,1022.0,0.1914,-0.6419,9.6754,-0.0762,-0.0932,-0.1106,-1.6908899746336878,-0.3158392310142517,1.7504913806915283,-2.1588690280914307,0.4120713174343109,2.2746145725250244,5.307832824974813,4.032167635159567e-05,0.2443333864212036,-1.5830100218402308,0.0,0.006727335974574089,0.8809561729431152,0.0,0.04538212716579437,0.765204668045044,0.011084304191172123,-0.0153795275837183
1062.0,1022.0,0.1914,-0.6419,9.6754,-0.0762,-0.0932,-0.1106,-1.6940742931761683,-0.31559786200523376,1.8615508079528809,-2.1546623706817627,0.4204866886138916,2.241342782974243,5.307804155140676,3.626022953540087e-05,0.23918189108371735,-1.5829981009112757,0.0,0.022570710629224777,0.8809074759483337,0.0,0.015821367502212524,0.7653045654296875,0.013300406746566296,0.06580469012260437
1023.0,1012.0,0.6024,-0.1107,9.9601,-0.036,0.0509,-0.1133,-1.6965753040709437,-0.31763756275177,1.8640942573547363,-2.1511945724487305,0.42767009139060974,2.2058234214782715,5.3078569052513025,3.355627995915711e-05,0.2414262294769287,-1.582977596913473,0.0,0.006697560660541058,0.8809398412704468,0.0,0.04065890982747078,0.765449047088623,0.014685258269309998,-0.0031979363411664963
1023.0,1012.0,0.6024,-0.1107,9.9601,-0.036,0.0509,-0.1133,-1.6997486553587855,-0.31065624952316284,1.788215160369873,-2.1468682289123535,0.4322645366191864,2.299159526824951,5.307804691582479,3.0677685572300106e-05,0.2403293251991272,-1.5830181280719202,0.0,0.01874678209424019,0.8808955550193787,0.0,0.04539647698402405,0.7655286192893982,0.015565674751996994,-0.04166363179683685
1023.0,1012.0,0.6024,-0.1107,9.9601,-0.036,0.0509,-0.1133,-1.7021728954710902,-0.303856760263443,1.8414535522460938,-2.1433894634246826,0.4476778507232666,2.289402484893799,5.307852852135458,3.531910988385789e-05,0.2437012791633606,-1.5829818884478968,0.0,0.019082525745034218,0.880923867225647,0.0,0.03406992927193642,0.765697181224823,0.01798010990023613,0.020353209227323532
1023.0,1012.0,0.6024,-0.1107,9.9601,-0.036,0.0509,-0.1133,-1.7051779232420863,-0.29894202947616577,1.9478217363357544,-2.138956308364868,0.45142120122909546,2.3159677982330322,5.3078534481819055,3.921281859220471e-06,0.2622723877429962,-1.5829861799823206,0.0,0.009376117028295994,0.8808996677398682,0.0,0.03421459347009659,0.7658852338790894,0.02197974920272827,-0.043263234198093414
1023.0,1012.0,0.6024,-0.1107,9.9601,-0.036,0.0509,-0.1133,-1.7075349293150843,-0.3017685115337372,1.9030605554580688,-2.135296583175659,0.45062294602394104,2.268533945083618,5.307865190296926,7.126736700779901e-11,0.23267805576324463,-1.5829780737506312,0.0,0.013565368950366974,0.8808991312980652,0.0,0.0423567071557045,0.7660731077194214,0.027119768783450127,0.03986622393131256
1023.0,1012.0,0.6024,-0.1107,9.9601,-0.036,0.0509,-0.1133,-1.7103997669615687,-0.2978288233280182,1.9482955932617188,-2.130768299102783,0.4678323566913605,2.290541887283325,5.307788657933035,8.457052892839282e-17,0.24886226654052734,-1.5830138365374964,0.0,0.02257845550775528,0.8809725046157837,0.0,0.05320831388235092,0.766357421875,0.034285757690668106,0.03393959254026413
1023.0,1012.0,0.6024,-0.1107,9.9601,-0.036,0.0509,-0.1133,-1.7128063640990199,-0.2917916774749756,1.9825410842895508,-2.126997947692871,0.4702286422252655,2.2855539321899414,5.30777262428359,1.5370274929457732e-21,0.24062830209732056,-1.5830062071429651,0.0,0.01456367876380682,0.8809235095977783,0.0,0.03387600928544998,0.7666538953781128,0.03669717162847519,0.020918453112244606
1023.0,1012.0,0.6024,-0.1107,9.9601,-0.036,0.0509,-0.1133,-1.7157260380186976,-0.2845756411552429,1.9719836711883545,-2.122225046157837,0.48047971725463867,2.3053736686706543,5.30788146236495,6.359438702929765e-05,0.2485561966896057,-1.5830181280719202,0.0,0.018664449453353882,0.8808996677398682,0.0,0.025049280375242233,0.767078161239624,0.03996455296874046,-0.023800216615200043
1023.0,1012.0,0.6024,-0.1107,9.9601,-0.036,0.0509,-0.1133,-1.7180897198119105,-0.29337751865386963,1.9814261198043823,-2.1183817386627197,0.48559847474098206,2.3206393718719482,5.307828950672903,2.3759395162414876e-07,0.24710434675216675,-1.5830381552325647,0.0,0.021579187363386154,0.8808956146240234,0.0,0.047506578266620636,0.7674183249473572,0.042532023042440414,0.05460180714726448
1023.0,1012.0,0.6024,-0.1107,9.9601,-0.036,0.0509,-0.1133,-1.721077104608053,-0.28836748003959656,1.9902030229568481,-2.1134612560272217,0.4899638593196869,2.3845863342285156,5.307840871601858,2.8194455234040183e-13,0.2447219341993332,-1.5830019156085413,0.0,0.008805223740637302,0.8808791041374207,0.0,0.04385834187269211,0.7678224444389343,0.040337514132261276,0.011852836236357689
1031.0,8190.0,0.6126,0.1011,10.6546,-0.0174,0.1588,-0.0994,-1.7233873806395472,-0.2960125803947449,1.9688735008239746,-2.1095786094665527,0.49760618805885315,2.333059310913086,5.3078004596527,5.12420356939247e-18,0.2464154064655304,-1.5829742590533655,0.0,0.012584429234266281,0.8809359073638916,0.0,0.02267112210392952,0.7681673169136047,0.034930720925331116,0.008827811107039452
1031.0,8190.0,0.6126,0.1011,10.6546,-0.0174,0.1588,-0.0994,-1.725779195825094,-0.2845546305179596,2.0417964458465576,-2.1056008338928223,0.5011908411979675,2.3436152935028076,5.307828950672903,9.312986400096764e-23,0.2625153660774231,-1.5829499403582972,0.0,0.019275318831205368,0.8808712959289551,0.0,0.03700745105743408,0.7684151530265808,0.0322105810046196,0.0568414144217968
1031.0,8190.0,0.6126,0.1011,10.6546,-0.0174,0.1588,-0.0994,-1.7286220989623011,-0.2934545576572418,2.025574207305908,-2.1005711555480957,0.509578287601471,2.3360557556152344,5.3077844856079,1.1051397688419572e-28,0.2556707262992859,-1.5830138365374964,0.0,0.0153652373701334,0.8808915019035339,0.0,0.03369709476828575,0.7687193751335144,0.032602984458208084,0.019574621692299843
1031.0,8190.0,0.6126,0.1011,10.6546,-0.0174,0.1588,-0.0994,-1.7308803997435511,-0.28719496726989746,2.027663230895996,-2.0964696407318115,0.5140836834907532,2.4007058143615723,5.307816493302145,2.0085368915363105e-33,0.24489900469779968,-1.5830100218402308,0.0,0.007793513126671314,0.8808877468109131,0.0,0.03671104460954666,0.7689753174781799,0.03203217685222626,0.04666132479906082
1031.0,8190.0,0.6126,0.1011,10.6546,-0.0174,0.1588,-0.0994,-1.7336842022337855,-0.284630686044693,2.115945339202881,-2.091174840927124,0.5138721466064453,2.343508243560791,5.307820665627279,2.3834615514777597e-39,0.2529181241989136,-1.5830019156085413,0.0,0.006635777186602354,0.8809037804603577,0.0,0.026924623176455498,0.7693157196044922,0.031985390931367874,0.04591076076030731
1031.0,8190.0,0.6126,0.1011,10.6546,-0.0174,0.1588,-0.0994,-1.7358375988402308,-0.2764321565628052,2.0809214115142822,-2.0870392322540283,0.514975368976593,2.3583877086639404,5.307853328972616,4.344025239406933e-44,0.24950920045375824,-1.5830138365374964,0.0,0.009319068863987923,0.8809643387794495,0.0,0.02825307659804821,0.7695763111114502,0.030804332345724106,0.024367591366171837
1031.0,8190.0,0.6126,0.1011,10.6546,-0.0174,0.1588,-0.0994,-1.7386170826353968,-0.27329131960868835,2.090014934539795,-2.081935167312622,0.5184682607650757,2.3415942192077637,5.307828891068258,0.0,0.24846725165843964,-1.5830138365374964,0.0,0.009969661012291908,0.8808630108833313,0.0,0.05017697066068649,0.7698843479156494,0.03054489940404892,0.07727553695440292
1031.0,8190.0,0.6126,0.1011,10.6546,-0.0174,0.1588,-0.0994,-1.7407318554320277,-0.2680635154247284,2.1319100856781006,-2.077850341796875,0.5185978412628174,2.355112075805664,5.307788657933035,0.0,0.2434777021408081,-1.5830062071429651,0.0,0.008099931292235851,0.8809524178504944,0.0,0.03183156996965408,0.7701207995414734,0.030296538025140762,0.05902033671736717
1031.0,8190.0,0.6126,0.1011,10.6546,-0.0174,0.1588,-0.0994,-1.7434960804381312,-0.2703106999397278,2.130713939666748,-2.072629690170288,0.5206252932548523,2.3839707374572754,5.307800519257345,0.0,0.26043805480003357,-1.5829780737506312,0.0,0.0011317669413983822,0.8809157013893127,0.0,0.02845560759305954,0.7704044580459595,0.030635366216301918,0.02129449136555195
1031.0,8190.0,0.6126,0.1011,10.6546,-0.0174,0.1588,-0.0994,-1.7456585369505824,-0.2615615427494049,2.1941328048706055,-2.068472385406494,0.5284594297409058,2.3231959342956543,5.3078369972999475,0.0,0.25985825061798096,-1.5829780737506312,0.0,-0.009155964478850365,0.8808996677398682,0.0,0.023909742012619972,0.7706691026687622,0.03264571353793144,-0.001687890850007534
1035.0,1017.0,0.2369,-0.0245,9.88,-0.0043,0.2355,-0.0976,-1.7483769855894984,-0.27156126499176025,2.148181915283203,-2.0631775856018066,0.5232834815979004,2.3071563243865967,5.307833003788748,0.0,0.2582041025161743,-1.5829818884478968,0.0,0.0008805296383798122,0.8808996677398682,0.0,0.031612541526556015,0.7709572911262512,0.03619967773556709,0.07919403165578842
1035.0,1017.0,0.2369,-0.0245,9.88,-0.0043,0.2355,-0.0976,-1.7505761585631312,-0.2640908360481262,2.2319564819335938,-2.0588765144348145,0.5278648138046265,2.3702807426452637,5.307841169625082,0.0,0.25627613067626953,-1.5830262343036097,0.0,0.006549219600856304,0.8808836936950684,0.0,0.027930546551942825,0.771321713924408,0.04083453118801117,-0.014893424697220325
1035.0,1017.0,0.2369,-0.0245,9.88,-0.0043,0.2355,-0.0976,-1.7532922230162562,-0.26848357915878296,2.2373290061950684,-2.0536046028137207,0.5303525328636169,2.3667972087860107,5.307792830258169,0.0,0.25456294417381287,-1.5830257574664515,0.0,0.009745154529809952,0.8809115886688232,0.0,0.03173375874757767,0.7717585563659668,0.04921300709247589,0.02923775091767311
1035.0,1017.0,0.2369,-0.0245,9.88,-0.0043,0.2355,-0.0976,-1.7554785213866175,-0.26498228311538696,2.23246169090271,-2.0494449138641357,0.5285331010818481,2.3834667205810547,5.30786161401824,0.0,0.26671555638313293,-1.5829899946795862,0.0,0.0018370861653238535,0.8809078335762024,0.0,0.02613368257880211,0.7721138000488281,0.05395684018731117,0.019358154386281967
1035.0,1017.0,0.2369,-0.0245,9.88,-0.0043,0.2355,-0.0976,-1.7580534420409144,-0.2561779022216797,2.2195520401000977,-2.0441784858703613,0.5287614464759827,2.3702993392944336,5.307800996094503,0.0,0.2689509987831116,-1.5830500761615198,0.0,0.015387862920761108,0.8808717727661133,0.0,0.012221106328070164,0.7726985216140747,0.057640887796878815,0.08809003978967667
1035.0,1017.0,0.2369,-0.0245,9.88,-0.0043,0.2355,-0.0976,-1.7601644001402796,-0.2629310190677643,2.2230284214019775,-2.0400238037109375,0.531923770904541,2.4177258014678955,5.307828950672903,0.0,0.2649343013763428,-1.5829861799823206,0.0,0.02235131338238716,0.8809157013893127,3.6346425531519344e-06,0.02272213064134121,0.7732111215591431,0.05891503766179085,0.0403783917427063
1035.0,1017.0,0.2369,-0.0245,9.88,-0.0043,0.2355,-0.0976,-1.762719293633932,-0.2558515667915344,2.293534517288208,-2.0347633361816406,0.5285413861274719,2.383466958999634,5.307833003788748,0.0,0.2503976821899414,-1.5829981009112757,0.0,0.02096933126449585,0.8808915019035339,4.313104127323664e-12,0.050070200115442276,0.7737433910369873,0.05758817121386528,0.041410863399505615
1035.0,1017.0,0.2369,-0.0245,9.88,-0.0043,0.2355,-0.0976,-1.764749666253561,-0.25399526953697205,2.32839298248291,-2.030442476272583,0.5192192792892456,2.4302423000335693,5.3078210828597925,0.0,0.25382712483406067,-1.5830062071429651,0.0,0.001976257422938943,0.8808836936950684,7.838854498964102e-17,0.013184456154704094,0.7742319107055664,0.05448518320918083,0.02571229264140129
1035.0,1017.0,0.2369,-0.0245,9.88,-0.0043,0.2355,-0.0976,-1.7671925030150355,-0.24758121371269226,2.3617916107177734,-2.0252270698547363,0.5200428366661072,2.378872871398926,5.307789075165548,0.0,0.2428446114063263,-1.5829981009112757,0.0,0.010709967464208603,0.8808836340904236,9.302098226338541e-23,0.022501526400446892,0.7747117280960083,0.05127980560064316,-0.026903972029685974
1035.0,1017.0,0.2369,-0.0245,9.88,-0.0043,0.2355,-0.0976,-1.7690745792784632,-0.24522215127944946,2.329458713531494,-2.021059513092041,0.5157039165496826,2.3836936950683594,5.307800996094503,0.0,0.2502813935279846,-1.58299428621401,0.0,0.008381938561797142,0.8808754682540894,1.690610386725276e-27,0.009873385541141033,0.7751244306564331,0.045330584049224854,0.016616903245449066
987.0,998.0,-0.2237,-0.5133,9.5282,-0.027,0.2816,-0.0788,-1.7715054951109828,-0.24157114326953888,2.3724286556243896,-2.0159645080566406,0.5154097080230713,2.3867545127868652,5.307825195580282,0.0,0.26607656478881836,-1.5830100218402308,0.0,0.016097404062747955,0.8809439539909363,2.0061886578995507e-33,0.016897788271307945,0.7755609154701233,0.03975857049226761,-0.001776816789060831
987.0,998.0,-0.2237,-0.5133,9.5282,-0.027,0.2816,-0.0788,-1.7733713589110316,-0.24361546337604523,2.309786319732666,-2.0118908882141113,0.5084824562072754,2.3363771438598633,5.3077969429786584,0.0,0.2537915110588074,-1.5830257574664515,0.0,0.004982750862836838,0.8808795809745789,3.6461483361263446e-38,0.011298135854303837,0.7758690118789673,0.03972424566745758,0.0012868978083133698
987.0,998.0,-0.2237,-0.5133,9.5282,-0.027,0.2816,-0.0788,-1.775828023950094,-0.23976898193359375,2.3900039196014404,-2.0067741870880127,0.5140359997749329,2.3690404891967773,5.30775265672759,0.0,0.27005061507225037,-1.5830023924456995,0.0,0.008322808891534805,0.880935788154602,4.344025239406933e-44,0.0045371828600764275,0.7762976288795471,0.044894665479660034,0.02461021952331066
987.0,998.0,-0.2237,-0.5133,9.5282,-0.027,0.2816,-0.0788,-1.7777816257872523,-0.2420988231897354,2.4162864685058594,-2.002715587615967,0.5134493112564087,2.396568536758423,5.307764994889059,0.0,0.2591763138771057,-1.58299428621401,0.0,-0.010441290214657784,0.8808836936950684,0.0,0.035348448902368546,0.7766819596290588,0.051457226276397705,-0.008987320587038994
987.0,998.0,-0.2237,-0.5133,9.5282,-0.027,0.2816,-0.0788,-1.7803460560240687,-0.25474685430526733,2.404465675354004,-1.9974708557128906,0.5030775666236877,2.3867673873901367,5.30777274349288,0.0,0.2781223654747009,-1.5830219427691858,0.0,0.0016563624376431108,0.880843460559845,0.0,0.01303432323038578,0.7771698236465454,0.06037284433841705,0.04280402138829231
987.0,998.0,-0.2237,-0.5133,9.5282,-0.027,0.2816,-0.0788,-1.782344480554098,-0.24364808201789856,2.400536060333252,-1.9934351444244385,0.5010111331939697,2.425487518310547,5.307805108814993,0.0,0.2595054507255554,-1.5829861799823206,0.0,-0.0066731818951666355,0.880843460559845,0.0,0.004847171250730753,0.7776865363121033,0.06695140898227692,0.06681542098522186
987.0,998.0,-0.2237,-0.5133,9.5282,-0.027,0.2816,-0.0788,-1.7848602734007777,-0.25142547488212585,2.4354281425476074,-1.9884177446365356,0.49767404794692993,2.3451197147369385,5.307724463730612,0.0,0.25934603810310364,-1.5830181280719202,0.0,0.009831303730607033,0.8808955550193787,0.0,0.015085103921592236,0.7784514427185059,0.07415249943733215,0.007416131440550089
987.0,998.0,-0.2237,-0.5133,9.5282,-0.027,0.2816,-0.0788,-1.7868668041624964,-0.24636626243591309,2.376145839691162,-1.984586477279663,0.4912167489528656,2.4262237548828125,5.307728576451101,0.0,0.2635299563407898,-1.5829742590533655,0.0,-0.0024207504466176033,0.8808356523513794,0.0,0.017487866804003716,0.7790560126304626,0.07859239727258682,0.08099888265132904
987.0,998.0,-0.2237,-0.5133,9.5282,-0.027,0.2816,-0.0788,-1.7893582783141078,-0.2466629296541214,2.4574809074401855,-1.9797402620315552,0.48269057273864746,2.4098854064941406,5.307757246285238,-0.00010705824388423935,0.2580052614212036,-1.5830023924456995,0.0,0.010386081412434578,0.8808594942092896,0.0,0.011468693614006042,0.779872715473175,0.0801069512963295,0.02050710842013359
987.0,998.0,-0.2237,-0.5133,9.5282,-0.027,0.2816,-0.0788,-1.7912928066649378,-0.25440657138824463,2.4288580417633057,-1.9759575128555298,0.47999104857444763,2.4088802337646484,5.307757305889883,-0.00011650613305391744,0.25472313165664673,-1.5830100218402308,0.0,0.008750750683248043,0.8809197545051575,0.0,0.010832289233803749,0.7805373072624207,0.07937607169151306,0.07815031707286835
960.0,960.0,-0.469,-0.4217,9.8518,-0.0305,0.3076,-0.086,-1.7932878933348597,-0.2468615174293518,2.453951120376587,-1.9721804857254028,0.4750805199146271,2.396641492843628,5.307769048004904,-0.00011634339898591861,0.27207818627357483,-1.5830023924456995,0.0,0.014228899031877518,0.8808836936950684,0.0,0.020311307162046432,0.7811092138290405,0.07540116459131241,0.07066647708415985
960.0,960.0,-0.469,-0.4217,9.8518,-0.0305,0.3076,-0.086,-1.7957312069334925,-0.245153546333313,2.4796142578125,-1.9674301147460938,0.4641132950782776,2.404841899871826,5.307757246285238,-0.00010650887270458043,0.2692713439464569,-1.5830062071429651,0.0,0.009362463839352131,0.8808639645576477,0.0,0.018946079537272453,0.7818459272384644,0.07877583801746368,0.07290138304233551
960.0,960.0,-0.469,-0.4217,9.8518,-0.0305,0.3076,-0.086,-1.797743936578268,-0.24195736646652222,2.511143684387207,-1.9637094736099243,0.45851534605026245,2.3796262741088867,5.307760941773214,-9.976235014619306e-05,0.2662721574306488,-1.5830138365374964,0.0,-0.005274132825434208,0.8808836936950684,0.0,0.020363232120871544,0.7825021743774414,0.085177481174469,0.0830620676279068
960.0,960.0,-0.469,-0.4217,9.8518,-0.0305,0.3076,-0.086,-1.8000699482359828,-0.2397221475839615,2.483668804168701,-1.9591201543807983,0.44529417157173157,2.3388328552246094,5.30773680189208,-0.00010477410251041874,0.26988470554351807,-1.5829899946795862,0.0,0.013230551034212112,0.880863606929779,0.0,0.011836687102913857,0.7834154367446899,0.0903121829032898,0.046007707715034485
960.0,960.0,-0.469,-0.4217,9.8518,-0.0305,0.3076,-0.086,-1.8019081554808558,-0.23329506814479828,2.54055118560791,-1.955639123916626,0.44118359684944153,2.3228559494018555,5.307785081654348,-8.737271855352446e-05,0.25874069333076477,-1.58299428621401,0.0,-0.000752963125705719,0.8808877468109131,0.0,0.01091392245143652,0.7841442227363586,0.09774444252252579,0.12277185916900635
960.0,960.0,-0.469,-0.4217,9.8518,-0.0305,0.3076,-0.086,-1.8042518101134242,-0.23602189123630524,2.5203826427459717,-1.9513357877731323,0.43695303797721863,2.3826746940612793,5.30774091461257,-0.00011305203952360898,0.250788152217865,-1.58299428621401,0.0,-0.008436031639575958,0.8808955550193787,0.0,0.005341441370546818,0.7850804924964905,0.10501041263341904,0.1305713951587677
960.0,960.0,-0.469,-0.4217,9.8518,-0.0305,0.3076,-0.086,-1.806150575677389,-0.23237767815589905,2.5393857955932617,-1.94784414768219,0.4304013252258301,2.356619358062744,5.307781028538503,-0.00012578326277434826,0.25775575637817383,-1.5829656759845179,0.0,0.010414308868348598,0.8808557391166687,0.0,0.00938689336180687,0.7859373092651367,0.10485897213220596,0.06953853368759155
960.0,960.0,-0.469,-0.4217,9.8518,-0.0305,0.3076,-0.086,-1.808526178399557,-0.23476549983024597,2.5290122032165527,-1.9436061382293701,0.43182769417762756,2.351428508758545,5.307757246285238,-0.00012667493137996644,0.24908018112182617,-1.5829899946795862,0.0,-0.0001584353158250451,0.8809238076210022,0.0,0.009297137148678303,0.7870387434959412,0.10528766363859177,0.06827603280544281
960.0,960.0,-0.469,-0.4217,9.8518,-0.0305,0.3076,-0.086,-1.810521741906637,-0.24772100150585175,2.528475046157837,-1.9400932788848877,0.42446762323379517,2.3584303855895996,5.307712721615591,-0.0002443356206640601,0.24194680154323578,-1.5830138365374964,0.0,0.00822443887591362,0.8808955550193787,0.0,0.0036451900377869606,0.7878144979476929,0.10583554953336716,0.09892652928829193
960.0,960.0,-0.469,-0.4217,9.8518,-0.0305,0.3076,-0.086,-1.8130370579161585,-0.24314451217651367,2.584561824798584,-1.9358344078063965,0.4172064960002899,2.4146289825439453,5.307749020844259,-0.0003536427393555641,0.2589505612850189,-1.5830062071429651,0.0,0.01102154329419136,0.8808722496032715,0.0,0.004384517669677734,0.7889359593391418,0.10525990277528763,0.03837352246046066
798.0,847.0,-0.4822,-0.932,9.3039,-0.0651,0.2344,-0.0237,-1.815035959283346,-0.24820716679096222,2.5359933376312256,-1.932489275932312,0.41582372784614563,2.365218162536621,5.307700800686636,-0.00024598289746791124,0.25307711958885193,-1.5829899946795862,0.0,0.020367557182908058,0.8808594942092896,0.0,-0.0019437929149717093,0.7898126244544983,0.10923631489276886,0.11190848052501678
798.0,847.0,-0.4822,-0.932,9.3039,-0.0651,0.2344,-0.0237,-1.8176161251463832,-0.25211697816848755,2.61320161819458,-1.928398609161377,0.40091103315353394,2.3343913555145264,5.30771683433608,-0.00025562988594174385,0.24985471367835999,-1.5829899946795862,0.0,0.010587982833385468,0.8808597922325134,0.0,0.00782022438943386,0.7909296751022339,0.11152280867099762,0.10053595900535583
798.0,847.0,-0.4822,-0.932,9.3039,-0.0651,0.2344,-0.0237,-1.819545408288473,-0.24534115195274353,2.560751438140869,-1.9251816272735596,0.40154677629470825,2.263017177581787,5.307736742287435,-0.0001493784657213837,0.2451750934123993,-1.5829861799823206,0.0,0.015487916767597198,0.8809032440185547,0.0,0.016753720119595528,0.7918502688407898,0.11346390098333359,0.08771543949842453
798.0,847.0,-0.4822,-0.932,9.3039,-0.0651,0.2344,-0.0237,-1.8221341572203578,-0.2576686441898346,2.5391743183135986,-1.9213460683822632,0.39182862639427185,2.352708339691162,5.30773692110137,-0.00013867695815861225,0.24873244762420654,-1.5829499403582972,0.0,0.021981319412589073,0.8808271884918213,0.0,0.005377252586185932,0.7929868102073669,0.11550729721784592,0.06049966812133789
798.0,847.0,-0.4822,-0.932,9.3039,-0.0651,0.2344,-0.0237,-1.8241330585875453,-0.25267326831817627,2.5654187202453613,-1.9182490110397339,0.3781808912754059,2.2908573150634766,5.30771683433608,-0.00019215091015212238,0.24673593044281006,-1.5830300490008753,0.0,0.02428433857858181,0.8808959126472473,0.00019143105600960553,-0.010001707822084427,0.7939037084579468,0.10995998978614807,0.0776408389210701
798.0,847.0,-0.4822,-0.932,9.3039,-0.0651,0.2344,-0.0237,-1.8266054592528285,-0.251215398311615,2.6081318855285645,-1.9144865274429321,0.38580426573753357,2.314910888671875,5.307728755265035,-0.0001422066561644897,0.23580098152160645,-1.5829456488238733,0.0,0.030929680913686752,0.8808836936950684,2.2716459269211953e-10,0.018291790038347244,0.7949684262275696,0.10434409230947495,0.03760808706283569
798.0,847.0,-0.4822,-0.932,9.3039,-0.0651,0.2344,-0.0237,-1.8285967312254847,-0.24703828990459442,2.611788749694824,-1.911473035812378,0.3787003755569458,2.3000946044921875,5.30773280838088,-0.0002871696196962148,0.24389678239822388,-1.5830500761615198,0.0,0.01745341345667839,0.8809316754341125,4.128604179858648e-15,0.015355792827904224,0.7958008050918579,0.10309233516454697,0.02957559935748577
798.0,847.0,-0.4822,-0.932,9.3039,-0.0651,0.2344,-0.0237,-1.8310510120787562,-0.2517574429512024,2.636284589767456,-1.9076616764068604,0.3609507083892822,2.2980895042419434,5.307688879757681,-0.0005539438570849597,0.23587296903133392,-1.5829981009112757,0.0,0.009273569099605083,0.8808597922325134,4.899272022497242e-21,0.008915135636925697,0.7968498468399048,0.10307566821575165,0.055957335978746414
798.0,847.0,-0.4822,-0.932,9.3039,-0.0651,0.2344,-0.0237,-1.8330046139159144,-0.25388139486312866,2.6267099380493164,-1.9047572612762451,0.3630780279636383,2.283795118331909,5.30772094705657,-0.0003793910436797887,0.2476438581943512,-1.5829337278949183,0.0,0.015080107375979424,0.880875825881958,8.904183651210991e-26,0.006275068037211895,0.7976908683776855,0.11310736835002899,0.08120192587375641
798.0,847.0,-0.4822,-0.932,9.3039,-0.0651,0.2344,-0.0237,-1.8354131184019984,-0.2531715929508209,2.642643451690674,-1.9011826515197754,0.34977179765701294,2.3332884311676025,5.307700800686636,-0.00032012868905439973,0.2500538229942322,-1.5829656759845179,0.0,0.03230735659599304,0.8808435201644897,1.056628597166008e-31,0.006863002199679613,0.7988231778144836,0.11050405353307724,0.06588147580623627
529.0,629.0,-0.5127,-0.3511,9.6275,-0.0241,0.1518,0.0031,-1.8374344311156214,-0.2472332864999771,2.632720947265625,-1.8983190059661865,0.34649205207824707,2.335561752319336,5.30771683433608,-0.00021861857385374606,0.25286126136779785,-1.5829861799823206,0.0,0.018261853605508804,0.8808475732803345,1.92037026649772e-36,0.007503509521484375,0.7996842265129089,0.09866846352815628,0.005671456456184387
529.0,629.0,-0.5127,-0.3511,9.6275,-0.0241,0.1518,0.0031,-1.839926382104391,-0.24494700133800507,2.676966428756714,-1.8949086666107178,0.34854793548583984,2.335998296737671,5.307688939362325,-0.00020873684843536466,0.23931756615638733,-1.5829899946795862,0.0,0.016122039407491684,0.880875825881958,2.2785113029921526e-42,0.006334117613732815,0.8006729483604431,0.09279325604438782,0.06704416126012802
529.0,629.0,-0.5127,-0.3511,9.6275,-0.0241,0.1518,0.0031,-1.8420244656004847,-0.26102814078330994,2.638449192047119,-1.8922077417373657,0.3344654142856598,2.25726056098938,5.307737338333883,-0.00021892215590924025,0.23894602060317993,-1.5830019156085413,0.0,0.016225919127464294,0.8809042572975159,0.0,0.013727203011512756,0.8014020919799805,0.08826375752687454,0.05499521270394325
529.0,629.0,-0.5127,-0.3511,9.6275,-0.0241,0.1518,0.0031,-1.8445898495116175,-0.25365057587623596,2.6606554985046387,-1.8889179229736328,0.3354908525943756,2.248567581176758,5.307745086937704,-0.00012872469960711896,0.2378983199596405,-1.5829981009112757,0.0,0.021804766729474068,0.8808478713035583,0.0,-0.002804448828101158,0.8021537661552429,0.0858386680483818,0.019224127754569054
529.0,629.0,-0.5127,-0.3511,9.6275,-0.0241,0.1518,0.0031,-1.8467165432372035,-0.2595871388912201,2.663835048675537,-1.8862708806991577,0.33326131105422974,2.276618480682373,5.30772094705657,-0.00011261511826887727,0.2556822896003723,-1.5829818884478968,0.0,0.0193264689296484,0.8808717131614685,0.0,0.003033270826563239,0.8028704524040222,0.09061498939990997,-0.008195680566132069
529.0,629.0,-0.5127,-0.3511,9.6275,-0.0241,0.1518,0.0031,-1.8493920765318812,-0.2572745084762573,2.733442783355713,-1.8830307722091675,0.32616952061653137,2.2642579078674316,5.307672548085012,-9.738226071931422e-05,0.2464832067489624,-1.5830100218402308,0.0,0.024908501654863358,0.8808313012123108,0.0,0.00109297432936728,0.8037226796150208,0.09243077784776688,0.041166942566633224
529.0,629.0,-0.5127,-0.3511,9.6275,-0.0241,0.1518,0.0031,-1.8514415226378382,-0.2545170783996582,2.6775851249694824,-1.8804763555526733,0.32518714666366577,2.235022783279419,5.307712721615591,-8.787360275164247e-05,0.24310900270938873,-1.5830019156085413,0.0,0.029396547004580498,0.880851686000824,0.0,0.0037606724072247744,0.8044954538345337,0.09105903655290604,0.08228728175163269
529.0,629.0,-0.5127,-0.3511,9.6275,-0.0241,0.1518,0.0031,-1.85406555751943,-0.2667018473148346,2.6942176818847656,-1.8772810697555542,0.3114171028137207,2.286227226257324,5.307717251568594,-5.767658512922935e-05,0.23964279890060425,-1.5829699675189417,0.0,0.017194483429193497,0.880851686000824,0.0,0.010871888138353825,0.8053921461105347,0.08974093943834305,0.03317614644765854
529.0,629.0,-0.5127,-0.3511,9.6275,-0.0241,0.1518,0.0031,-1.8561068973936976,-0.26114553213119507,2.7507119178771973,-1.8747212886810303,0.30625948309898376,2.239699363708496,5.307696747570791,-3.3043830626411363e-05,0.2414526641368866,-1.5829737822162073,0.0,0.012510135769844055,0.8808438181877136,0.0,0.0021945922635495663,0.8060525059700012,0.0774100050330162,0.028723934665322304
529.0,629.0,-0.5127,-0.3511,9.6275,-0.0241,0.1518,0.0031,-1.8581577740111292,-0.2556401193141937,2.753085136413574,-1.8722376823425293,0.3061831593513489,2.2540194988250732,5.307732867985525,-6.005552166676864e-10,0.26160725951194763,-1.5830219427691858,0.0,0.006495636887848377,0.8808519840240479,0.0,0.003425914328545332,0.8066409230232239,0.06724629551172256,0.0561811700463295
443.0,536.0,-1.0415,1.0678,8.9892,-0.0397,0.1193,-0.0371,-1.8606530628600062,-0.24622726440429688,2.816178321838379,-1.869179368019104,0.29912620782852173,2.2455029487609863,5.30770896652297,-7.126581052546612e-16,0.23813897371292114,-1.5829861799823206,0.0,0.012746026739478111,0.8808717131614685,0.0,-0.01224718801677227,0.8073182106018066,0.06401695311069489,0.01945202797651291
443.0,536.0,-1.0415,1.0678,8.9892,-0.0397,0.1193,-0.0371,-1.8626395664610804,-0.24752293527126312,2.761650800704956,-1.8667752742767334,0.29152917861938477,2.1881680488586426,5.30769299247817,-1.2952208096650548e-20,0.24225708842277527,-1.5830262343036097,0.0,0.004870384465903044,0.8808353543281555,0.0,0.009160981513559818,0.807814359664917,0.06902468204498291,0.03893940895795822
443.0,536.0,-1.0415,1.0678,8.9892,-0.0397,0.1193,-0.0371,-1.8650294742979945,-0.24432530999183655,2.7794556617736816,-1.8639405965805054,0.2879899740219116,2.2151296138763428,5.307693052082815,-1.536993784722078e-26,0.25611424446105957,-1.5829618612872522,0.0,-0.0006671405863016844,0.880875825881958,0.0,-0.00572862708941102,0.8084662556648254,0.07603560388088226,0.009070348925888538
