ramyac6/ROB537/final_project/csv/good/good_204.csv
tof_0,tof_1,accelx,accely,accelz,gyrox,gyroy,gyroz,shoulder_lift_joint_position,shoulder_lift_joint_velocity,shoulder_lift_joint_effort,elbow_joint_position,elbow_joint_velocity,elbow_joint_effort,wrist_1_joint_position,wrist_1_joint_velocity,wrist_1_joint_effort,wrist_2_joint_position,wrist_2_joint_velocity,wrist_2_joint_effort,wrist_3_joint_position,wrist_3_joint_velocity,wrist_3_joint_effort,shoulder_pan_joint_position,shoulder_pan_joint_velocity,shoulder_pan_joint_effort
124.0,179.0,5.2612,-3.475,6.8764,-0.0325,0.0177,-0.1086,-1.8788372478880824,0.0,3.45420241355896,-1.1920576095581055,-0.0,2.1773862838745117,3.874558134669922,-0.0,0.26098504662513733,-1.6733034292804163,0.0,-0.0015041357837617397,1.3204150199890137,-0.0,-0.006100139115005732,0.6940154433250427,0.0,-0.017933426424860954
124.0,179.0,5.2612,-3.475,6.8764,-0.0325,0.0177,-0.1086,-1.8789011440672816,0.0,3.4614124298095703,-1.192122220993042,-0.0,2.192335367202759,3.874598188991211,-0.0,0.257262647151947,-1.6732390562640589,0.0,0.011235622689127922,1.3204190731048584,-0.0,-0.0076140547171235085,0.6939992308616638,0.0,0.00653697457164526
124.0,179.0,5.2612,-3.475,6.8764,-0.0325,0.0177,-0.1086,-1.8788415394225062,0.0,3.459789991378784,-1.1921383142471313,-0.0,2.1796176433563232,3.874581499690674,-0.0,0.26986902952194214,-1.6732304731952112,0.0,0.016274215653538704,1.320359230041504,-0.0,-0.0018394486978650093,0.6940154433250427,0.0,0.03738255426287651
124.0,179.0,5.2612,-3.475,6.8764,-0.0325,0.0177,-0.1086,-1.8788491688170375,0.0,3.4781689643859863,-1.1921017169952393,-0.0,2.21126389503479,3.8745457369038085,-0.0,0.267765611410141,-1.6732671896563929,0.0,0.0028035608120262623,1.3204231262207031,-0.0,-0.005525131244212389,0.6939951777458191,0.0,0.018130440264940262
124.0,179.0,5.2612,-3.475,6.8764,-0.0325,0.0177,-0.1086,-1.878841062585348,0.0,3.473635673522949,-1.1920820474624634,-0.0,2.1481432914733887,3.8745099741169433,-0.0,0.2614074647426605,-1.6732471624957483,0.0,0.014271434396505356,1.3204150199890137,-0.0,-0.011754713952541351,0.694015383720398,0.0,0.02019510418176651
124.0,179.0,5.2612,-3.475,6.8764,-0.0325,0.0177,-0.1086,-1.878881116906637,0.0,3.457434892654419,-1.192037582397461,-0.0,2.165938138961792,3.8745342928120117,-0.0,0.2707993984222412,-1.673250977193014,0.0,0.009492242708802223,1.3203551769256592,-0.0,-0.008988017216324806,0.6940394043922424,0.0,-0.028353529050946236
124.0,179.0,5.2612,-3.475,6.8764,-0.0325,0.0177,-0.1086,-1.878869195977682,0.0,3.5030384063720703,-1.1921465396881104,-0.0,2.176276445388794,3.8745900827595214,-0.0,0.25337159633636475,-1.673291031514303,0.0,0.006539066322147846,1.3203829526901245,-0.0,-0.0060444483533501625,0.6939671039581299,0.0,-0.005065881181508303
125.0,184.0,5.3701,-3.4469,6.7496,-0.026,0.0186,-0.1173,-1.8788372478880824,0.0,3.466519355773926,-1.192057728767395,-0.0,2.1963629722595215,3.8745619493671875,-0.0,0.26619380712509155,-1.6732872168170374,0.0,0.00595107302069664,1.320459246635437,-0.0,-0.0033493000082671642,0.693979024887085,0.0,-0.0473862886428833
125.0,184.0,5.3701,-3.4469,6.7496,-0.026,0.0186,-0.1173,-1.8788653812804164,0.0,3.5026473999023438,-1.1920859813690186,-0.0,2.172779083251953,3.8745733934589843,-0.0,0.26325786113739014,-1.6732390562640589,0.0,-7.307750638574362e-05,1.3203554153442383,-0.0,-0.006330500356853008,0.6939711570739746,0.0,-0.008627073839306831
125.0,184.0,5.3701,-3.4469,6.7496,-0.026,0.0186,-0.1173,-1.878812929193014,0.0,3.5004396438598633,-1.1920777559280396,-0.0,2.1592228412628174,3.8745099741169433,-0.0,0.2562508285045624,-1.6732991377459925,0.0,0.011334423907101154,1.320371389389038,-0.0,0.0032734470441937447,0.6939992904663086,0.0,-0.009460543282330036
125.0,184.0,5.3701,-3.4469,6.7496,-0.026,0.0186,-0.1173,-1.8789297542967738,0.0,3.490762233734131,-1.1921180486679077,-0.0,2.1479663848876953,3.874570055598877,-0.0,0.26315146684646606,-1.6732633749591272,0.0,0.02305152267217636,1.3204071521759033,-0.0,-0.007574507966637611,0.6940154433250427,0.0,-0.052912015467882156
125.0,184.0,5.3701,-3.4469,6.7496,-0.026,0.0186,-0.1173,-1.8788296184935511,0.0,3.4661474227905273,-1.192097544670105,-0.0,2.1695187091827393,3.8745733934589843,-0.0,0.26889654994010925,-1.6732428709613245,0.0,0.008422008715569973,1.3203551769256592,-0.0,-0.006516407243907452,0.6940194964408875,0.0,-0.042172640562057495
125.0,184.0,5.3701,-3.4469,6.7496,-0.026,0.0186,-0.1173,-1.8788653812804164,0.0,3.4956789016723633,-1.1921025514602661,-0.0,2.150355339050293,3.8745662409016113,-0.0,0.27267083525657654,-1.6732953230487269,0.0,0.010831101797521114,1.3204354047775269,-0.0,0.003299467731267214,0.693987250328064,0.0,0.02318897284567356
125.0,184.0,5.3701,-3.4469,6.7496,-0.026,0.0186,-0.1173,-1.878857275048727,0.0,3.4656834602355957,-1.1921025514602661,-0.0,2.225266456604004,3.874526186580322,-0.0,0.2610243856906891,-1.6733034292804163,0.0,0.014405662193894386,1.3204152584075928,-0.0,-0.010478239506483078,0.6939831376075745,0.0,0.04869544506072998
125.0,184.0,5.3701,-3.4469,6.7496,-0.026,0.0186,-0.1173,-1.8788448772826136,0.0,3.4710159301757812,-1.1920737028121948,-0.0,2.153902053833008,3.874526186580322,-0.0,0.26540690660476685,-1.6732748190509241,0.0,-0.003554816823452711,1.3203829526901245,-0.0,-0.006291479803621769,0.6940073370933533,0.0,0.007148477714508772
125.0,184.0,5.3701,-3.4469,6.7496,-0.026,0.0186,-0.1173,-1.878869195977682,0.0,3.4912004470825195,-1.192086100578308,-0.0,2.1616427898406982,3.874577684993408,-0.0,0.26288995146751404,-1.6732748190509241,0.0,0.0007371889660134912,1.3203632831573486,-0.0,-0.0067558009177446365,0.6939951777458191,0.0,0.04652070999145508
125.0,184.0,5.3701,-3.4469,6.7496,-0.026,0.0186,-0.1173,-1.8788773022093714,0.0,3.4023795127868652,-1.1921221017837524,-0.0,2.2221083641052246,3.874537630672119,-0.0,0.2683045268058777,-1.6732428709613245,0.0,-0.009984457865357399,1.3204313516616821,-0.0,0.004711462184786797,0.6940433979034424,0.0,-1.8419232219457626e-05
125.0,184.0,5.3701,-3.4469,6.7496,-0.026,0.0186,-0.1173,-1.8788730106749476,0.0,3.484616756439209,-1.192057728767395,-0.0,2.2179276943206787,3.874513788814209,-0.0,0.262535959482193,-1.6732872168170374,0.0,0.011907637119293213,1.3204152584075928,-0.0,-0.013226420618593693,0.6940072774887085,0.0,0.03148839995265007
125.0,184.0,5.3701,-3.4469,6.7496,-0.026,0.0186,-0.1173,-1.8788687191405238,0.0,3.4278218746185303,-1.1920902729034424,-0.0,2.172917366027832,3.874577684993408,-0.0,0.2614559233188629,-1.6732671896563929,0.0,0.017496073618531227,1.3203914165496826,-0.0,0.007908213883638382,0.6940033435821533,0.0,-0.003921232186257839
125.0,184.0,5.3701,-3.4469,6.7496,-0.026,0.0186,-0.1173,-1.8788329563536585,0.0,3.403980016708374,-1.1920576095581055,-0.0,2.202921152114868,3.874549551601074,-0.0,0.2602039575576782,-1.6732633749591272,0.0,-0.0012276825727894902,1.320399284362793,-0.0,-0.0018796190852299333,0.6940072774887085,0.0,0.03316265344619751
125.0,184.0,5.3701,-3.4469,6.7496,-0.026,0.0186,-0.1173,-1.8788534603514613,0.0,3.4843058586120605,-1.1920695304870605,-0.0,2.188559055328369,3.8745662409016113,-0.0,0.275542289018631,-1.6732428709613245,0.0,-0.0037733712233603,1.320451021194458,-0.0,0.006511790212243795,0.6940314173698425,0.0,0.010254088789224625
128.0,179.0,5.2654,-3.4128,6.8237,-0.0376,0.0313,-0.1165,-1.8788448772826136,0.0,3.458120346069336,-1.1921098232269287,-0.0,2.1410112380981445,3.8745099741169433,-0.0,0.2710072696208954,-1.673291031514303,0.0,0.005174560472369194,1.320410966873169,-0.0,-0.009028461761772633,0.6940033435821533,0.0,-0.018170829862356186
128.0,179.0,5.2654,-3.4128,6.8237,-0.0376,0.0313,-0.1165,-1.8788329563536585,0.0,3.5323386192321777,-1.1920617818832397,-0.0,2.1982269287109375,3.874554319972656,-0.0,0.2680002748966217,-1.6732471624957483,0.0,0.0009530432871542871,1.320379376411438,-0.0,-0.0056593879126012325,0.6940113306045532,0.0,0.004908545408397913
128.0,179.0,5.2654,-3.4128,6.8237,-0.0376,0.0313,-0.1165,-1.878897329370016,0.0,3.4859161376953125,-1.1920535564422607,-0.0,2.1740176677703857,3.874537630672119,-0.0,0.2710692882537842,-1.6732752958880823,0.0,0.01962604746222496,1.320359230041504,-0.0,-0.017446687445044518,0.694015383720398,0.0,-0.009441223926842213
128.0,179.0,5.2654,-3.4128,6.8237,-0.0376,0.0313,-0.1165,-1.8788086376585902,0.0,3.4892215728759766,-1.1921546459197998,-0.0,2.162315845489502,3.874526186580322,-0.0,0.2585813105106354,-1.6732872168170374,0.0,-0.0068564871326088905,1.3203550577163696,-0.0,-0.010657176375389099,0.6939952373504639,0.0,0.012132750824093819
128.0,179.0,5.2654,-3.4128,6.8237,-0.0376,0.0313,-0.1165,-1.8788534603514613,0.0,3.494823932647705,-1.192113995552063,-0.0,2.1810171604156494,3.8744942384907226,-0.0,0.26409536600112915,-1.673291031514303,0.0,0.0074941180646419525,1.3204432725906372,-0.0,0.0019095633178949356,0.6940074563026428,0.0,-0.029955139383673668
128.0,179.0,5.2654,-3.4128,6.8237,-0.0376,0.0313,-0.1165,-1.8788534603514613,0.0,3.4819839000701904,-1.1920819282531738,-0.0,2.1266307830810547,3.8745099741169433,-0.0,0.2677019238471985,-1.6732471624957483,0.0,0.00018119317246600986,1.3204231262207031,-0.0,-0.015404174104332924,0.694047212600708,0.0,-0.003525280626490712
128.0,179.0,5.2654,-3.4128,6.8237,-0.0376,0.0313,-0.1165,-1.8788930378355921,0.0,3.5378451347351074,-1.1921263933181763,-0.0,2.177541971206665,3.874526186580322,-0.0,0.2606799900531769,-1.6732710043536585,0.0,0.011712715961039066,1.3203871250152588,-0.0,-0.007423748262226582,0.6940113306045532,0.0,-0.03514409810304642
128.0,179.0,5.2654,-3.4128,6.8237,-0.0376,0.0313,-0.1165,-1.8788653812804164,0.0,3.477586269378662,-1.192094326019287,-0.0,2.112419366836548,3.8745223718830566,-0.0,0.267315149307251,-1.6732872168170374,0.0,0.007978953421115875,1.3204231262207031,-0.0,-0.0050359563902020454,0.6940312385559082,0.0,0.0004923755768686533
128.0,179.0,5.2654,-3.4128,6.8237,-0.0376,0.0313,-0.1165,-1.8788415394225062,0.0,3.5061144828796387,-1.1920415163040161,-0.0,2.1456990242004395,3.874570055598877,-0.0,0.27481430768966675,-1.6732714811908167,0.0,0.0017646937631070614,1.3203911781311035,-0.0,-0.006474152207374573,0.6940194964408875,0.0,-0.05293853208422661
128.0,179.0,5.2654,-3.4128,6.8237,-0.0376,0.0313,-0.1165,-1.8788491688170375,0.0,3.4503097534179688,-1.1921025514602661,-0.0,2.164827823638916,3.874593897456787,-0.0,0.2630695402622223,-1.6732671896563929,0.0,0.017948588356375694,1.3204033374786377,-0.0,-0.0013565791305154562,0.6939952373504639,0.0,0.04929475486278534
128.0,179.0,5.2654,-3.4128,6.8237,-0.0376,0.0313,-0.1165,-1.8788372478880824,0.0,3.4718992710113525,-1.1920819282531738,-0.0,2.1818578243255615,3.8745099741169433,-0.0,0.2599690854549408,-1.6732552687274378,0.0,0.015671612694859505,1.320419430732727,-0.0,-0.0026220479048788548,0.694015383720398,0.0,-0.022331392392516136
128.0,179.0,5.2654,-3.4128,6.8237,-0.0376,0.0313,-0.1165,-1.878869195977682,0.0,3.47145414352417,-1.1921098232269287,-0.0,2.188223123550415,3.874554319972656,-0.0,0.27683836221694946,-1.6732953230487269,0.0,0.012364262714982033,1.3204231262207031,-0.0,-0.01056068204343319,0.6939790844917297,0.0,-0.02031373605132103
128.0,179.0,5.2654,-3.4128,6.8237,-0.0376,0.0313,-0.1165,-1.8788534603514613,0.0,3.466827869415283,-1.1921263933181763,-0.0,2.176072597503662,3.874558134669922,-0.0,0.2651354670524597,-1.6732714811908167,0.0,0.014090720564126968,1.3203792572021484,-0.0,-0.01051873154938221,0.6939911842346191,0.0,0.03887869417667389
128.0,179.0,5.2654,-3.4128,6.8237,-0.0376,0.0313,-0.1165,-1.8788615665831507,0.0,3.495957374572754,-1.192097544670105,-0.0,2.1853890419006348,3.8745733934589843,-0.0,0.26357218623161316,-1.6732872168170374,0.0,0.006384669803082943,1.3204071521759033,-0.0,-0.005769357550889254,0.6940194964408875,0.0,-0.004162428434938192
127.0,188.0,5.333,-3.4666,6.8596,-0.0383,0.022,-0.1292,-1.8788615665831507,0.0,3.4681782722473145,-1.1921181678771973,-0.0,2.150404453277588,3.8745099741169433,-0.0,0.25299933552742004,-1.6733034292804163,0.0,0.006664601620286703,1.3204150199890137,-0.0,-0.004469958133995533,0.6940154433250427,0.0,0.025489645078778267
127.0,188.0,5.333,-3.4666,6.8596,-0.0383,0.022,-0.1292,-1.8788491688170375,0.0,3.442573070526123,-1.192049503326416,-0.0,2.185758590698242,3.874506636256836,-0.0,0.2716429531574249,-1.6732872168170374,0.0,0.002921411767601967,1.3204513788223267,-0.0,-0.00389902968890965,0.694027304649353,0.0,0.004306196700781584
127.0,188.0,5.333,-3.4666,6.8596,-0.0383,0.022,-0.1292,-1.8788610897459925,0.0,3.445516586303711,-1.192113995552063,-0.0,2.1841421127319336,3.874541922206543,-0.0,0.2664228081703186,-1.673279110585348,0.0,0.002578481798991561,1.320439100265503,-0.0,-0.016034016385674477,0.6940113306045532,0.0,-0.01811860501766205
127.0,188.0,5.333,-3.4666,6.8596,-0.0383,0.022,-0.1292,-1.8788448772826136,0.0,3.469473361968994,-1.192097544670105,-0.0,2.1657357215881348,3.8745099741169433,-0.0,0.27129727602005005,-1.673250977193014,0.0,0.014405811205506325,1.3204113245010376,-0.0,-0.017461439594626427,0.6940072774887085,0.0,-0.001229222398251295
127.0,188.0,5.333,-3.4666,6.8596,-0.0383,0.022,-0.1292,-1.878885408441061,0.0,3.460120439529419,-1.1920902729034424,-0.0,2.1530203819274902,3.874577684993408,-0.0,0.2611773908138275,-1.6732633749591272,0.0,-0.002123711397871375,1.3204554319381714,-0.0,-0.019703470170497894,0.694027304649353,0.0,-0.04963461309671402
127.0,188.0,5.333,-3.4666,6.8596,-0.0383,0.022,-0.1292,-1.8788091144957484,0.0,3.49336314201355,-1.1920777559280396,-0.0,2.1991655826568604,3.874549551601074,-0.0,0.2646121382713318,-1.6732671896563929,0.0,0.008171851746737957,1.320379376411438,-0.0,-0.0073075625114142895,0.6939992904663086,0.0,-0.03702463209629059
127.0,188.0,5.333,-3.4666,6.8596,-0.0383,0.022,-0.1292,-1.8788329563536585,0.0,3.484133005142212,-1.1921180486679077,-0.0,2.1875767707824707,3.874541922206543,-0.0,0.26854050159454346,-1.6732953230487269,0.0,0.020704036578536034,1.3204271793365479,-0.0,-0.007225498557090759,0.6939952373504639,0.0,-0.02416229248046875
127.0,188.0,5.333,-3.4666,6.8596,-0.0383,0.022,-0.1292,-1.8788329563536585,0.0,3.4189419746398926,-1.1920777559280396,-0.0,2.187178611755371,3.8745662409016113,-0.0,0.26678144931793213,-1.6732471624957483,0.0,0.014966534450650215,1.3203952312469482,-0.0,0.004275681916624308,0.6940313577651978,0.0,-0.03697987273335457
127.0,188.0,5.333,-3.4666,6.8596,-0.0383,0.022,-0.1292,-1.878881116906637,0.0,3.5220515727996826,-1.1921025514602661,-0.0,2.183320999145508,3.8744780260273437,-0.0,0.256098210811615,-1.6732471624957483,0.0,-0.0005223040352575481,1.3203269243240356,-0.0,0.0017244663322344422,0.694015383720398,0.0,0.06149023026227951
127.0,188.0,5.333,-3.4666,6.8596,-0.0383,0.022,-0.1292,-1.8788372478880824,0.0,3.5177905559539795,-1.1921098232269287,-0.0,2.16996169090271,3.8745056825825195,-0.0,0.26595282554626465,-1.673234764729635,0.0,0.01056727021932602,1.3203469514846802,-0.0,-0.009270723909139633,0.6940232515335083,0.0,-0.02635517343878746
127.0,188.0,5.333,-3.4666,6.8596,-0.0383,0.022,-0.1292,-1.8788491688170375,0.0,3.499720811843872,-1.192105770111084,-0.0,2.1313846111297607,3.874526186580322,-0.0,0.25971314311027527,-1.6733034292804163,0.0,0.0004083744715899229,1.320439100265503,-0.0,0.009699054062366486,0.6940232515335083,0.0,-0.019589411094784737
127.0,188.0,5.333,-3.4666,6.8596,-0.0383,0.022,-0.1292,-1.8788372478880824,0.0,3.4728312492370605,-1.1920819282531738,-0.0,2.2050962448120117,3.874530478114746,-0.0,0.268879234790802,-1.6733034292804163,0.0,0.01161145232617855,1.3204631805419922,-0.0,-0.00030612386763095856,0.6939629912376404,0.0,0.022859327495098114
127.0,188.0,5.333,-3.4666,6.8596,-0.0383,0.022,-0.1292,-1.878829141656393,0.0,3.4680728912353516,-1.1920737028121948,-0.0,2.151804208755493,3.874553843135498,-0.0,0.2734295129776001,-1.6732428709613245,0.0,0.013370303437113762,1.320411205291748,-0.0,-0.019239455461502075,0.6939992904663086,0.0,-0.020823398604989052
132.0,187.0,5.257,-3.4684,6.8034,-0.0365,0.0182,-0.1245,-1.878857275048727,0.0,3.515199661254883,-1.1920984983444214,-0.0,2.137622833251953,3.8745056825825195,-0.0,0.2669566869735718,-1.6732590834247034,0.0,0.007241884712129831,1.3203588724136353,-0.0,0.004757670685648918,0.6940232515335083,0.0,0.01562601700425148
132.0,187.0,5.257,-3.4684,6.8034,-0.0365,0.0182,-0.1245,-1.8788534603514613,0.0,3.4815711975097656,-1.192122220993042,-0.0,2.1744422912597656,3.8745462137409667,-0.0,0.26269519329071045,-1.6732671896563929,0.0,0.010496344417333603,1.3203829526901245,-0.0,-0.009855382144451141,0.6939589381217957,0.0,-0.01234055869281292
132.0,187.0,5.257,-3.4684,6.8034,-0.0365,0.0182,-0.1245,-1.8788491688170375,0.0,3.4834494590759277,-1.1920902729034424,-0.0,2.186107873916626,3.874581499690674,-0.0,0.266010582447052,-1.6732633749591272,0.0,0.012339446693658829,1.3204313516616821,-0.0,-0.01489315740764141,0.6940675377845764,0.0,-0.045145049691200256
132.0,187.0,5.257,-3.4684,6.8034,-0.0365,0.0182,-0.1245,-1.8788172207274378,0.0,3.454946517944336,-1.1921342611312866,-0.0,2.161288261413574,3.874513788814209,-0.0,0.2594812214374542,-1.6732590834247034,0.0,0.01293334923684597,1.3204271793365479,-0.0,-0.0006774540524929762,0.6939790844917297,0.0,0.006591353565454483
132.0,187.0,5.257,-3.4684,6.8034,-0.0365,0.0182,-0.1245,-1.8788205585875453,0.0,3.432584285736084,-1.1921544075012207,-0.0,2.202995777130127,3.8745223718830566,-0.0,0.26606637239456177,-1.6732829252826136,0.0,0.017922887578606606,1.3203829526901245,-0.0,-0.015485445037484169,0.6939952373504639,0.0,-0.03493848070502281
132.0,187.0,5.257,-3.4684,6.8034,-0.0365,0.0182,-0.1245,-1.8788653812804164,0.0,3.498979091644287,-1.1921507120132446,-0.0,2.2035961151123047,3.874558134669922,-0.0,0.26825833320617676,-1.6732590834247034,0.0,0.00683597382158041,1.320399284362793,-0.0,-0.01576315052807331,0.6939470171928406,0.0,0.0071870917454361916
132.0,187.0,5.257,-3.4684,6.8034,-0.0365,0.0182,-0.1245,-1.878829141656393,0.0,3.5100746154785156,-1.1920777559280396,-0.0,2.157447099685669,3.874558134669922,-0.0,0.2732035219669342,-1.6732552687274378,0.0,0.009407823905348778,1.3204152584075928,-0.0,-0.008226318284869194,0.6940634846687317,0.0,-0.0055984314531087875
132.0,187.0,5.257,-3.4684,6.8034,-0.0365,0.0182,-0.1245,-1.8788448772826136,0.0,3.5022635459899902,-1.1920700073242188,-0.0,2.192274332046509,3.874525709743164,-0.0,0.2716515064239502,-1.6732829252826136,0.0,0.016814006492495537,1.3204309940338135,-0.0,-0.0074734166264534,0.6939709782600403,0.0,0.005660805385559797
132.0,187.0,5.257,-3.4684,6.8034,-0.0365,0.0182,-0.1245,-1.8788205585875453,0.0,3.4930167198181152,-1.1921223402023315,-0.0,2.2070393562316895,3.8744985300251464,-0.0,0.2590527832508087,-1.6732428709613245,0.0,0.009700831025838852,1.3204394578933716,-0.0,-0.015675721690058708,0.6939830183982849,0.0,-0.018442507833242416
132.0,187.0,5.257,-3.4684,6.8034,-0.0365,0.0182,-0.1245,-1.8788534603514613,0.0,3.483752965927124,-1.1920654773712158,-0.0,2.1617164611816406,3.8744942384907226,-0.0,0.25918325781822205,-1.67322284380068,0.0,0.0015497440472245216,1.3203911781311035,-0.0,0.007747337222099304,0.6939589381217957,0.0,-0.00512451957911253
132.0,187.0,5.257,-3.4684,6.8034,-0.0365,0.0182,-0.1245,-1.878881116906637,0.0,3.4882864952087402,-1.1920777559280396,-0.0,2.1383166313171387,3.874554319972656,-0.0,0.2616773545742035,-1.6732552687274378,0.0,0.003272852161899209,1.3204231262207031,-0.0,-0.006707211025059223,0.6940033435821533,0.0,-0.03019953891634941
132.0,187.0,5.257,-3.4684,6.8034,-0.0365,0.0182,-0.1245,-1.8788534603514613,0.0,3.4587793350219727,-1.1921181678771973,-0.0,2.2002506256103516,3.874526186580322,-0.0,0.2732197046279907,-1.6732714811908167,0.0,0.009179538115859032,1.3203990459442139,-0.0,-0.011667648330330849,0.6940475106239319,0.0,-0.0182136669754982
132.0,187.0,5.257,-3.4684,6.8034,-0.0365,0.0182,-0.1245,-1.8788329563536585,0.0,3.501990795135498,-1.192130446434021,-0.0,2.1807076930999756,3.874526186580322,-0.0,0.2669604420661926,-1.673250977193014,0.0,0.008793637156486511,1.3204432725906372,-0.0,0.0021292949095368385,0.6939870715141296,0.0,0.010718444362282753
132.0,187.0,5.257,-3.4684,6.8034,-0.0365,0.0182,-0.1245,-1.8788448772826136,0.0,3.4365339279174805,-1.192122220993042,-0.0,2.2481095790863037,3.8745857912250976,-0.0,0.2668115794658661,-1.673250977193014,0.0,-0.006782881915569305,1.3203392028808594,-0.0,-0.010776014998555183,0.6939992904663086,0.0,0.012504201382398605
127.0,187.0,5.1936,-3.466,7.0181,-0.0359,0.0243,-0.1223,-1.8788372478880824,0.0,3.466247320175171,-1.1920900344848633,-0.0,2.1772515773773193,3.8745900827595214,-0.0,0.2681896686553955,-1.673279110585348,0.0,0.001057840185239911,1.3204429149627686,-0.0,-0.013670595362782478,0.6939548254013062,0.0,-0.02128429338335991
127.0,187.0,5.1936,-3.466,7.0181,-0.0359,0.0243,-0.1223,-1.8788935146727503,0.0,3.4344964027404785,-1.19204580783844,-0.0,2.192551374435425,3.874577684993408,-0.0,0.26666170358657837,-1.6732385794269007,0.0,-0.0017199405701830983,1.3204350471496582,-0.0,-0.011850334703922272,0.6940313577651978,0.0,-0.006745064631104469
127.0,187.0,5.1936,-3.466,7.0181,-0.0359,0.0243,-0.1223,-1.878869195977682,0.0,3.5124316215515137,-1.1920859813690186,-0.0,2.1899943351745605,3.874513788814209,-0.0,0.27120524644851685,-1.6732428709613245,0.0,0.009582091122865677,1.3203710317611694,-0.0,-0.01425036322325468,0.6939952373504639,0.0,0.007819265127182007
127.0,187.0,5.1936,-3.466,7.0181,-0.0359,0.0243,-0.1223,-1.8788491688170375,0.0,3.4815866947174072,-1.1921099424362183,-0.0,2.21514892578125,3.874549551601074,-0.0,0.2735849618911743,-1.673250977193014,0.0,0.015241513028740883,1.3203788995742798,-0.0,-0.012496067211031914,0.6939952373504639,0.0,0.05980197340250015
127.0,187.0,5.1936,-3.466,7.0181,-0.0359,0.0243,-0.1223,-1.8788730106749476,0.0,3.4834041595458984,-1.192150592803955,-0.0,2.137352466583252,3.8745457369038085,-0.0,0.27249225974082947,-1.6732590834247034,0.0,0.0056123328395187855,1.3204033374786377,-0.0,-0.01250606682151556,0.6939952373504639,0.0,-0.051760200411081314
127.0,187.0,5.1936,-3.466,7.0181,-0.0359,0.0243,-0.1223,-1.8788615665831507,0.0,3.461010217666626,-1.192061424255371,-0.0,2.1840670108795166,3.8745781618305664,-0.0,0.27591222524642944,-1.6732714811908167,0.0,-0.0005624000914394855,1.3203550577163696,-0.0,-0.006178529001772404,0.6940072774887085,0.0,-0.0028989193961024284
127.0,187.0,5.1936,-3.466,7.0181,-0.0359,0.0243,-0.1223,-1.8788773022093714,0.0,3.4886884689331055,-1.1920417547225952,-0.0,2.2118139266967773,3.874549551601074,-0.0,0.26861968636512756,-1.6732466856585901,0.0,0.017189493402838707,1.320410966873169,-0.0,-0.013083296827971935,0.6940113306045532,0.0,-0.002763521857559681
127.0,187.0,5.1936,-3.466,7.0181,-0.0359,0.0243,-0.1223,-1.8788730106749476,0.0,3.49157452583313,-1.1921263933181763,-0.0,2.170832633972168,3.8746020036884765,-0.0,0.2629338800907135,-1.6732829252826136,0.0,0.012421321123838425,1.3204551935195923,-0.0,-0.0014420000370591879,0.6939992904663086,0.0,-0.021888939663767815
127.0,187.0,5.1936,-3.466,7.0181,-0.0359,0.0243,-0.1223,-1.878824850121969,0.0,3.4831581115722656,-1.1920859813690186,-0.0,2.2061004638671875,3.874570055598877,-0.0,0.2742682099342346,-1.6732671896563929,0.0,0.006829855963587761,1.3204071521759033,-0.0,-0.005873685237020254,0.6940032243728638,0.0,-0.022677846252918243
127.0,187.0,5.1936,-3.466,7.0181,-0.0359,0.0243,-0.1223,-1.8788653812804164,0.0,3.530831813812256,-1.192130446434021,-0.0,2.2121543884277344,3.874530478114746,-0.0,0.27076423168182373,-1.6732390562640589,0.0,0.011812357231974602,1.320447325706482,-0.0,-0.00836124550551176,0.6940113306045532,0.0,-0.0654272735118866
127.0,187.0,5.1936,-3.466,7.0181,-0.0359,0.0243,-0.1223,-1.878869195977682,0.0,3.5516014099121094,-1.1920984983444214,-0.0,2.1532297134399414,3.874570055598877,-0.0,0.26629015803337097,-1.673250977193014,0.0,0.01107769925147295,1.320410966873169,-0.0,-0.014154896140098572,0.6939952373504639,0.0,-0.03329332172870636
127.0,187.0,5.1936,-3.466,7.0181,-0.0359,0.0243,-0.1223,-1.8788086376585902,0.0,3.480762481689453,-1.1920700073242188,-0.0,2.1694154739379883,3.874530478114746,-0.0,0.266423761844635,-1.6732991377459925,0.0,0.014337209984660149,1.3204071521759033,-0.0,5.547126056626439e-05,0.693950891494751,0.0,-0.00432206504046917
127.0,187.0,5.1936,-3.466,7.0181,-0.0359,0.0243,-0.1223,-1.8788372478880824,0.0,3.516659736633301,-1.192105770111084,-0.0,2.17089581489563,3.8745662409016113,-0.0,0.27385222911834717,-1.6732633749591272,0.0,0.011421609669923782,1.320407509803772,-0.0,-0.006074572913348675,0.6940154433250427,0.0,-0.013487108051776886
127.0,187.0,5.1936,-3.466,7.0181,-0.0359,0.0243,-0.1223,-1.8788372478880824,0.0,3.4968652725219727,-1.1920902729034424,-0.0,2.151942729949951,3.874554319972656,-0.0,0.256835401058197,-1.6732872168170374,0.0,0.006985548883676529,1.3204231262207031,-0.0,-0.005014342255890369,0.6939870715141296,0.0,-0.011532677337527275
127.0,180.0,5.074,-3.5462,7.0714,-0.029,0.0385,-0.1287,-1.8788253269591273,0.0,3.479456901550293,-1.1920859813690186,-0.0,2.158858060836792,3.8745342928120117,-0.0,0.26711055636405945,-1.6732390562640589,0.0,0.013333098031580448,1.3204231262207031,-0.0,-0.012034467421472073,0.694027304649353,0.0,-0.022966813296079636
127.0,180.0,5.074,-3.5462,7.0714,-0.029,0.0385,-0.1287,-1.8788930378355921,0.0,3.486985445022583,-1.192113995552063,-0.0,2.1841182708740234,3.874526186580322,-0.0,0.262977659702301,-1.6732552687274378,0.0,0.007226808927953243,1.3204150199890137,-0.0,0.0014075965154916048,0.694015383720398,0.0,-0.007317697629332542
127.0,180.0,5.074,-3.5462,7.0714,-0.029,0.0385,-0.1287,-1.8788048229613246,0.0,3.498633861541748,-1.1920819282531738,-0.0,2.1773605346679688,3.8745457369038085,-0.0,0.27758440375328064,-1.6732667128192347,0.0,0.01434178277850151,1.3204231262207031,-0.0,-0.011280401609838009,0.694015383720398,0.0,0.012185292318463326
127.0,180.0,5.074,-3.5462,7.0714,-0.029,0.0385,-0.1287,-1.8788372478880824,0.0,3.4851760864257812,-1.192037582397461,-0.0,2.1997504234313965,3.8745218950458984,-0.0,0.2627445459365845,-1.6732872168170374,0.0,0.010731862857937813,1.3204350471496582,-0.0,-0.010510314255952835,0.6939992904663086,0.0,0.011653734371066093
127.0,180.0,5.074,-3.5462,7.0714,-0.029,0.0385,-0.1287,-1.8788453541197718,0.0,3.478360176086426,-1.19204580783844,-0.0,2.1587796211242676,3.8746415811726074,-0.0,0.26068609952926636,-1.6733034292804163,0.0,0.005522443912923336,1.3203990459442139,-0.0,-0.0009766186121851206,0.6939952373504639,0.0,-0.00888700783252716
127.0,180.0,5.074,-3.5462,7.0714,-0.029,0.0385,-0.1287,-1.8788734875121058,0.0,3.465257167816162,-1.1920902729034424,-0.0,2.1486377716064453,3.874570055598877,-0.0,0.2649746537208557,-1.6732829252826136,0.0,-0.0011789475101977587,1.320335030555725,-0.0,0.004890404175966978,0.6939589977264404,0.0,-0.04723905026912689
127.0,180.0,5.074,-3.5462,7.0714,-0.029,0.0385,-0.1287,-1.8788086376585902,0.0,3.4683523178100586,-1.1921180486679077,-0.0,2.2089309692382812,3.874537630672119,-0.0,0.26247385144233704,-1.6732309500323694,0.0,0.0009207641123794019,1.3204030990600586,-0.0,0.005703308619558811,0.6939951777458191,0.0,0.017718695104122162
127.0,180.0,5.074,-3.5462,7.0714,-0.029,0.0385,-0.1287,-1.8788329563536585,-8.060780487539887e-08,3.4546403884887695,-1.1920740604400635,-3.12662784551776e-09,2.1728758811950684,3.8745662409016113,-0.0,0.26950883865356445,-1.6732671896563929,0.0,0.00873490609228611,1.3204231262207031,-0.0,-0.0032295044511556625,0.6940113306045532,0.0,0.006390599999576807
127.0,180.0,5.074,-3.5462,7.0714,-0.029,0.0385,-0.1287,-1.8788491688170375,-2.6115901941828248e-15,3.5005974769592285,-1.1920777559280396,-1.0129876127473031e-16,2.2086710929870605,3.8744942384907226,-0.0,0.26067909598350525,-1.6732671896563929,0.0,0.0043095252476632595,1.3203469514846802,-0.0,-0.008775746449828148,0.6939831972122192,0.0,-0.04178491234779358
127.0,180.0,5.074,-3.5462,7.0714,-0.029,0.0385,-0.1287,-1.8788615665831507,-6.306681868458572e-21,3.476644992828369,-1.1921025514602661,-2.446245802622343e-22,2.1572999954223633,3.8745733934589843,-0.0,0.26663732528686523,-1.6732714811908167,0.0,0.01526737306267023,1.3204350471496582,-0.0,-0.002010898431763053,0.6939952373504639,0.0,-0.022322550415992737
127.0,180.0,5.074,-3.5462,7.0714,-0.029,0.0385,-0.1287,-1.8788448772826136,-1.5229895006872627e-26,3.515551805496216,-1.1920700073242188,-5.907395770251733e-28,2.1797196865081787,3.874541922206543,-0.0,0.2596879303455353,-1.6732829252826136,0.0,0.001922802533954382,1.3204388618469238,-0.0,-0.017750773578882217,0.6939911842346191,0.0,0.0001556137576699257
127.0,180.0,5.074,-3.5462,7.0714,-0.029,0.0385,-0.1287,-1.8788534603514613,-4.934292739565059e-34,3.469818592071533,-1.1921098232269287,-1.9139210470335436e-35,2.1281332969665527,3.874593897456787,-0.0,0.26552194356918335,-1.6732714811908167,0.0,0.02315574325621128,1.3203948736190796,-0.0,-0.0019440214382484555,0.6940475106239319,0.0,0.0044608935713768005
127.0,180.0,5.074,-3.5462,7.0714,-0.029,0.0385,-0.1287,-1.8788210354247035,-1.1915731296616433e-39,3.4640774726867676,-1.1921625137329102,-4.621902724882544e-41,2.1794703006744385,3.8745180803486328,-0.0,0.2621614336967468,-1.6732991377459925,0.0,0.013481397181749344,1.3204632997512817,-0.0,-0.0004054708406329155,0.6940313577651978,0.0,0.03110571578145027
127.0,180.0,5.074,-3.5462,7.0714,-0.029,0.0385,-0.1287,-1.8788172207274378,-2.802596928649634e-45,3.4513614177703857,-1.1920777559280396,-0.0,2.2050299644470215,3.8745662409016113,-0.0,0.26895156502723694,-1.6732991377459925,0.0,0.011355435475707054,1.3204350471496582,-0.0,-0.0045106057077646255,0.6939992308616638,0.0,0.009845815598964691
128.0,179.0,5.6172,-3.5264,6.5492,-0.0379,0.0166,-0.1263,-1.8788415394225062,0.0,3.4709205627441406,-1.192065954208374,-0.0,2.175239086151123,3.874541922206543,-0.0,0.2570916414260864,-1.673250977193014,0.0,0.0035092062316834927,1.3204071521759033,-0.0,0.00242798519320786,0.6940313577651978,0.0,0.010567895136773586
128.0,179.0,5.6172,-3.5264,6.5492,-0.0379,0.0166,-0.1263,-1.8788253269591273,0.0,3.439958333969116,-1.192037582397461,-0.0,2.157716989517212,3.8745457369038085,-0.0,0.2658294439315796,-1.6732552687274378,0.0,0.02069786749780178,1.3204354047775269,-0.0,-0.01287317555397749,0.6939911842346191,0.0,-0.02068638615310192
128.0,179.0,5.6172,-3.5264,6.5492,-0.0379,0.0166,-0.1263,-1.8788415394225062,0.0,3.4615912437438965,-1.192057728767395,-0.0,2.2201616764068604,3.8745576578327636,-0.0,0.26775625348091125,-1.6732428709613245,0.0,-0.003101151203736663,1.3203990459442139,-0.0,-0.0071036480367183685,0.6940354108810425,0.0,0.015369758009910583
128.0,179.0,5.6172,-3.5264,6.5492,-0.0379,0.0166,-0.1263,-1.878824850121969,0.0,3.447917938232422,-1.1920862197875977,-0.0,2.165813446044922,3.874553843135498,-0.0,0.2559129297733307,-1.6732748190509241,0.0,0.0160309299826622,1.3204350471496582,-0.0,0.000212161336094141,0.6939911842346191,0.0,-0.007250594440847635
128.0,179.0,5.6172,-3.5264,6.5492,-0.0379,0.0166,-0.1263,-1.8788329563536585,0.0,3.520756244659424,-1.1920777559280396,-0.0,2.1539201736450195,3.8745457369038085,-0.0,0.25948479771614075,-1.6732991377459925,0.0,0.010090043768286705,1.3204350471496582,-0.0,-0.006228962447494268,0.6940634250640869,0.0,-0.0012835357338190079
128.0,179.0,5.6172,-3.5264,6.5492,-0.0379,0.0166,-0.1263,-1.8788048229613246,0.0,3.450026512145996,-1.1921098232269287,-0.0,2.133504867553711,3.874558134669922,-0.0,0.2651063799858093,-1.6732872168170374,0.0,-0.0020884699188172817,1.3204030990600586,-0.0,0.00016138330101966858,0.6939669847488403,0.0,-0.002865205518901348
128.0,179.0,5.6172,-3.5264,6.5492,-0.0379,0.0166,-0.1263,-1.878796239892477,0.0,3.5294737815856934,-1.1920740604400635,-0.0,2.1627471446990967,3.8745457369038085,-0.0,0.263746976852417,-1.6732390562640589,0.0,0.014930324628949165,1.320411205291748,-0.0,-0.0013798046857118607,0.694027304649353,0.0,-0.016948968172073364
128.0,179.0,5.6172,-3.5264,6.5492,-0.0379,0.0166,-0.1263,-1.878885408441061,0.0,3.444497585296631,-1.1921180486679077,-0.0,2.211928367614746,3.874530478114746,-0.0,0.26824289560317993,-1.6732390562640589,0.0,0.008832801133394241,1.3203990459442139,-0.0,0.0022296966053545475,0.6939710974693298,0.0,0.005978072062134743
128.0,179.0,5.6172,-3.5264,6.5492,-0.0379,0.0166,-0.1263,-1.8788491688170375,0.0,3.5208168029785156,-1.1921098232269287,-0.0,2.1780080795288086,3.874598188991211,-0.0,0.26296019554138184,-1.6732552687274378,0.0,0.007310834713280201,1.3204231262207031,-0.0,-0.005797393620014191,0.694015383720398,0.0,-0.017407195642590523
128.0,179.0,5.6172,-3.5264,6.5492,-0.0379,0.0166,-0.1263,-1.8788534603514613,0.0,3.518385410308838,-1.1920900344848633,-0.0,2.210690975189209,3.874610109920166,-0.0,0.2739821970462799,-1.673291031514303,0.0,0.002721671015024185,1.320419430732727,-0.0,-0.020775845274329185,0.6939911842346191,0.0,0.01712515391409397
128.0,179.0,5.6172,-3.5264,6.5492,-0.0379,0.0166,-0.1263,-1.8788448772826136,0.0,3.4770495891571045,-1.1921066045761108,-0.0,2.206249237060547,3.874570055598877,-0.0,0.26400133967399597,-1.6733067671405237,0.0,0.009359490126371384,1.320410966873169,-0.0,-0.01031794585287571,0.6940194964408875,0.0,0.002201507333666086
128.0,179.0,5.6172,-3.5264,6.5492,-0.0379,0.0166,-0.1263,-1.8788448772826136,0.0,3.525022506713867,-1.192150592803955,-0.0,2.190072536468506,3.874526186580322,-0.0,0.27108049392700195,-1.6732953230487269,0.0,-0.0018090654630213976,1.3204673528671265,-0.0,-0.003056558780372143,0.6940553188323975,0.0,-0.006876803003251553
128.0,179.0,5.6172,-3.5264,6.5492,-0.0379,0.0166,-0.1263,-1.878824850121969,0.0,3.4684762954711914,-1.1921098232269287,-0.0,2.1892690658569336,3.8745342928120117,-0.0,0.25980082154273987,-1.6732714811908167,0.0,0.0005457333754748106,1.3204190731048584,-0.0,-0.009319493547081947,0.6940194964408875,0.0,-0.01832549087703228
126.0,182.0,5.0686,-3.2865,7.0038,-0.0308,0.0257,-0.121,-1.8788534603514613,0.0,3.4669723510742188,-1.1921666860580444,-0.0,2.171705484390259,3.8745223718830566,-0.0,0.26831650733947754,-1.6733148733722132,0.0,0.0037679127417504787,1.3204752206802368,-0.0,-0.02054460719227791,0.694015383720398,0.0,-0.030971255153417587
126.0,182.0,5.0686,-3.2865,7.0038,-0.0308,0.0257,-0.121,-1.8788653812804164,0.0,3.4932804107666016,-1.192113995552063,-0.0,2.1640472412109375,3.874530478114746,-0.0,0.271582692861557,-1.6732714811908167,0.0,0.000225749216042459,1.3204231262207031,-0.0,-0.0016919418703764677,0.694015383720398,0.0,0.029930341988801956
126.0,182.0,5.0686,-3.2865,7.0038,-0.0308,0.0257,-0.121,-1.8788329563536585,0.0,3.554755687713623,-1.192113995552063,-0.0,2.2186496257781982,3.874526186580322,-0.0,0.25516316294670105,-1.673250977193014,0.0,0.013327316381037235,1.3203471899032593,-0.0,-0.004945432301610708,0.6940072774887085,0.0,0.03173601254820824
126.0,182.0,5.0686,-3.2865,7.0038,-0.0308,0.0257,-0.121,-1.8788653812804164,0.0,3.4935710430145264,-1.1920535564422607,-0.0,2.1997108459472656,3.874526186580322,-0.0,0.2724478542804718,-1.6732428709613245,0.0,0.017911966890096664,1.320351004600525,-0.0,-0.01250971108675003,0.6939589977264404,0.0,0.018711961805820465
126.0,182.0,5.0686,-3.2865,7.0038,-0.0308,0.0257,-0.121,-1.878869195977682,0.0,3.4606025218963623,-1.192094326019287,-0.0,2.174471855163574,3.874605818385742,-0.0,0.2763368487358093,-1.673302952443258,0.0,0.0041450923308730125,1.3204550743103027,-0.0,-0.0043885307386517525,0.6940433979034424,0.0,-0.007125118747353554
126.0,182.0,5.0686,-3.2865,7.0038,-0.0308,0.0257,-0.121,-1.878824850121969,0.0,3.5011332035064697,-1.1921583414077759,-0.0,2.2263317108154297,3.8745733934589843,-0.0,0.2653566002845764,-1.6732829252826136,0.0,0.004562324844300747,1.3204271793365479,-0.0,0.004298769403249025,0.694015383720398,0.0,-0.04693446680903435
126.0,182.0,5.0686,-3.2865,7.0038,-0.0308,0.0257,-0.121,-1.8788210354247035,0.0,3.4502501487731934,-1.1920819282531738,-0.0,2.190145969390869,3.8745900827595214,-0.0,0.2714293301105499,-1.6732633749591272,0.0,-0.00221705948933959,1.320411205291748,-0.0,-0.0031596096232533455,0.6940032243728638,0.0,0.014569221995770931
126.0,182.0,5.0686,-3.2865,7.0038,-0.0308,0.0257,-0.121,-1.8788935146727503,0.0,3.4762821197509766,-1.1920859813690186,-0.0,2.1747031211853027,3.8745099741169433,-0.0,0.2686893939971924,-1.6732671896563929,0.0,-0.0014026291901245713,1.3203630447387695,-0.0,-0.009411473758518696,0.6939951777458191,0.0,0.0006626285030506551
126.0,182.0,5.0686,-3.2865,7.0038,-0.0308,0.0257,-0.121,-1.8788005314269007,0.0,3.4791295528411865,-1.192113995552063,-0.0,2.2258193492889404,3.8745056825825195,-0.0,0.2762351930141449,-1.673250977193014,0.0,0.006535036489367485,1.3203990459442139,-0.0,-0.0001610894687473774,0.694027304649353,0.0,0.017804579809308052
126.0,182.0,5.0686,-3.2865,7.0038,-0.0308,0.0257,-0.121,-1.8788734875121058,0.0,3.474926471710205,-1.1920580863952637,-0.0,2.183933734893799,3.8745414453693847,-0.0,0.27732014656066895,-1.6732991377459925,0.0,0.020362868905067444,1.3203952312469482,-0.0,-0.006444861181080341,0.6939911842346191,0.0,0.01371091790497303
126.0,182.0,5.0686,-3.2865,7.0038,-0.0308,0.0257,-0.121,-1.8788415394225062,0.0,3.5015993118286133,-1.1920777559280396,-0.0,2.177610158920288,3.874586268062256,-0.0,0.26517510414123535,-1.6732953230487269,0.0,-0.003816488664597273,1.3203990459442139,-0.0,-0.015105603262782097,0.6940191984176636,0.0,-0.022828426212072372
126.0,182.0,5.0686,-3.2865,7.0038,-0.0308,0.0257,-0.121,-1.8788534603514613,0.0,3.485135078430176,-1.192150592803955,-0.0,2.148590564727783,3.874570055598877,-0.0,0.27843865752220154,-1.6732428709613245,0.0,0.009933088906109333,1.320410966873169,-0.0,-0.00598342576995492,0.6939792633056641,0.0,-0.009721611626446247
126.0,182.0,5.0686,-3.2865,7.0038,-0.0308,0.0257,-0.121,-1.8788172207274378,0.0,3.5211434364318848,-1.1921465396881104,-0.0,2.19356369972229,3.874586268062256,-0.0,0.2577165365219116,-1.673291031514303,0.0,0.005071043036878109,1.320383071899414,-0.0,-0.0058148629032075405,0.6940072774887085,0.0,0.013098613359034061
126.0,182.0,5.0686,-3.2865,7.0038,-0.0308,0.0257,-0.121,-1.8788253269591273,0.0,3.483670473098755,-1.192057728767395,-0.0,2.157590866088867,3.8746258455463867,-0.0,0.25328803062438965,-1.6732552687274378,0.0,0.01198473758995533,1.3203752040863037,-0.0,-0.0096176378428936,0.6939911842346191,0.0,0.025029854848980904
130.0,182.0,5.3904,-3.3775,6.7214,-0.0331,0.0263,-0.1161,-1.8788372478880824,-1.121195136732922e-08,3.5103721618652344,-1.19204580783844,-0.0,2.2040863037109375,3.8745733934589843,-2.1362037472272277e-08,0.2635471820831299,-1.673307243977682,0.0,0.006332188844680786,1.3204550743103027,-0.0,-0.004902620799839497,0.694015383720398,0.0,-0.05372295901179314
130.0,182.0,5.3904,-3.3775,6.7214,-0.0331,0.0263,-0.1161,-1.8788615665831507,-2.707554707238706e-14,3.4875569343566895,-1.1920777559280396,-0.0,2.201979637145996,3.874581976527832,-5.9462018642264525e-12,0.2606908082962036,-1.673250977193014,0.0,0.011670107953250408,1.3204190731048584,-0.0,-0.009600315243005753,0.6940032243728638,0.0,0.009279832243919373
130.0,182.0,5.3904,-3.3775,6.7214,-0.0331,0.0263,-0.1161,-1.8787929020323695,-6.538425887470679e-20,3.4848382472991943,-1.192065954208374,-0.0,2.1579604148864746,3.8746139246174316,-1.6551470599228705e-15,0.2751099169254303,-1.673279110585348,0.0,0.008128184825181961,1.3204071521759033,-0.0,-0.008658151142299175,0.6940354704856873,0.0,-0.01908787339925766
130.0,182.0,5.3904,-3.3775,6.7214,-0.0331,0.0263,-0.1161,-1.878824850121969,-2.118366938500464e-27,3.474564790725708,-1.1920700073242188,-0.0,2.216749668121338,3.874526186580322,-3.0081482800650685e-20,0.25814974308013916,-1.6732872168170374,0.0,0.009728960692882538,1.320439100265503,-0.0,-0.005639404058456421,0.6940032243728638,0.0,-0.006965348031371832
130.0,182.0,5.3904,-3.3775,6.7214,-0.0331,0.0263,-0.1161,-1.8787762127318324,-5.1156055800106963e-33,3.4936892986297607,-1.1920338869094849,-0.0,2.154649496078491,3.8745695787617187,-8.373292292126055e-24,0.28679221868515015,-1.6732953230487269,0.0,0.007036687806248665,1.3203752040863037,-0.0,-0.018629055470228195,0.6940032243728638,0.0,-0.010592054575681686
130.0,182.0,5.3904,-3.3775,6.7214,-0.0331,0.0263,-0.1161,-1.8788329563536585,-1.2353586619973223e-38,3.472054958343506,-1.1920900344848633,-0.0,2.198397397994995,3.874570055598877,-2.330736729759117e-27,0.270821213722229,-1.6732710043536585,0.0,0.000961697893217206,1.3204309940338135,-0.0,0.0004976904019713402,0.6940232515335083,0.0,-0.009444544091820717
130.0,182.0,5.3904,-3.3775,6.7214,-0.0331,0.0263,-0.1161,-1.8788415394225062,-0.0,3.426262617111206,-1.1920737028121948,-0.0,2.2003774642944336,3.8745781618305664,-4.2359993938060993e-32,0.2748253643512726,-1.6733034292804163,0.0,0.007812981493771076,1.3204150199890137,-0.0,0.003357216017320752,0.694047212600708,0.0,0.008105841465294361
130.0,182.0,5.3904,-3.3775,6.7214,-0.0331,0.0263,-0.1161,-1.8788615665831507,0.0,3.5016231536865234,-1.1920984983444214,-0.0,2.181528091430664,3.874581976527832,-1.1791059252016633e-35,0.25885385274887085,-1.673291031514303,0.0,0.02295825071632862,1.3204431533813477,-0.0,-0.013303844258189201,0.6940715909004211,0.0,-0.018960271030664444
130.0,182.0,5.3904,-3.3775,6.7214,-0.0331,0.0263,-0.1161,-1.8788730106749476,0.0,3.4838051795959473,-1.1920737028121948,-0.0,2.1660053730010986,3.8745977121540527,-3.282084829381514e-39,0.26081669330596924,-1.6732748190509241,0.0,0.01808728650212288,1.3204073905944824,-0.0,-0.019954945892095566,0.6940271258354187,0.0,-0.0072345854714512825
130.0,182.0,5.3904,-3.3775,6.7214,-0.0331,0.0263,-0.1161,-1.8788086376585902,0.0,3.4909329414367676,-1.1921344995498657,-0.0,2.2115657329559326,3.8745500284382324,-6.025583396596713e-44,0.25317054986953735,-1.6732991377459925,0.0,-0.0007823582855053246,1.3203469514846802,-0.0,-0.0011824268149212003,0.6940352916717529,0.0,-0.008433752693235874
130.0,182.0,5.3904,-3.3775,6.7214,-0.0331,0.0263,-0.1161,-1.8788491688170375,0.0,3.5086593627929688,-1.1920536756515503,-0.0,2.1641619205474854,3.874593897456787,-0.0,0.2799396514892578,-1.6732872168170374,0.0,0.02020205557346344,1.3204313516616821,-0.0,-0.0034916228614747524,0.6940634846687317,0.0,-0.01617775484919548
130.0,182.0,5.3904,-3.3775,6.7214,-0.0331,0.0263,-0.1161,-1.8788534603514613,0.0,3.4614384174346924,-1.1921346187591553,-0.0,2.169434070587158,3.8745614725300292,-0.0,0.26445168256759644,-1.6732991377459925,0.0,0.008196588605642319,1.3203630447387695,-0.0,-0.0134049691259861,0.6940794587135315,0.0002375892217969522,-0.05308564379811287
130.0,182.0,5.3904,-3.3775,6.7214,-0.0331,0.0263,-0.1161,-1.8788086376585902,0.0,3.4434804916381836,-1.1921025514602661,-0.0,2.1878111362457275,3.8745943742939453,-0.0,0.2655128836631775,-1.6732710043536585,0.0,-0.0007911855354905128,1.3204150199890137,-0.0,0.0009910350199788809,0.6940593719482422,0.0003294018970336765,0.029179882258176804
130.0,182.0,5.3904,-3.3775,6.7214,-0.0331,0.0263,-0.1161,-1.8788734875121058,0.0,3.4659204483032227,-1.1921099424362183,-0.0,2.1403920650482178,3.8745500284382324,-0.0,0.2762531340122223,-1.6732748190509241,0.0,0.01051340252161026,1.3204312324523926,-0.0,-0.007059505674988031,0.6940712928771973,0.00027846390730701387,-0.013618252240121365
126.0,186.0,5.0249,-3.7113,6.807,-0.053,0.0458,-0.1261,-1.8788448772826136,0.0,3.4966788291931152,-1.192065954208374,-0.0,2.1514739990234375,3.874526186580322,-0.0,0.2647305727005005,-1.6733387152301233,0.0,0.013491366989910603,1.3204312324523926,-0.0,-0.00508461520075798,0.694047212600708,0.0002411535824649036,-0.011774355545639992
126.0,186.0,5.0249,-3.7113,6.807,-0.053,0.0458,-0.1261,-1.878885408441061,0.0,3.5051867961883545,-1.1921180486679077,-0.0,2.168393850326538,3.8746377664753417,-0.0,0.27879059314727783,-1.6732748190509241,0.0,0.00335796270519495,1.3204231262207031,-0.0,0.0039451634511351585,0.6940430998802185,0.0002046026784228161,-0.0012948820367455482
126.0,186.0,5.0249,-3.7113,6.807,-0.053,0.0458,-0.1261,-1.8788210354247035,0.0,3.452937602996826,-1.1920214891433716,-0.0,2.1875319480895996,3.874537630672119,-0.0,0.26919224858283997,-1.6732748190509241,0.0,0.00905379094183445,1.3204588890075684,-0.0,-0.006725655402988195,0.6940312385559082,0.00018371906480751932,0.03653562068939209
126.0,186.0,5.0249,-3.7113,6.807,-0.053,0.0458,-0.1261,-1.8788005314269007,0.0,3.4964616298675537,-1.192094326019287,-0.0,2.1775364875793457,3.8745500284382324,-0.0,0.2612152099609375,-1.6733229796039026,0.0,0.001135113649070263,1.320410966873169,-0.0,-0.004833665676414967,0.6940393447875977,0.00014004083641339093,-0.003327629528939724
126.0,186.0,5.0249,-3.7113,6.807,-0.053,0.0458,-0.1261,-1.8788372478880824,0.0,3.490035057067871,-1.1920461654663086,-0.0,2.165353775024414,3.874586268062256,-0.0,0.2775391936302185,-1.6733349005328577,0.0,0.0002910082694143057,1.3204431533813477,-0.0,-0.012768508866429329,0.6940113306045532,9.896057599689811e-05,0.04407726973295212
126.0,186.0,5.0249,-3.7113,6.807,-0.053,0.0458,-0.1261,-1.8788296184935511,0.0,3.5366055965423584,-1.1920177936553955,-0.0,2.2077112197875977,3.874581976527832,-0.0,0.26628491282463074,-1.6732991377459925,0.0,0.019276835024356842,1.3204114437103271,-0.0,-0.01101338118314743,0.694027304649353,9.13870389922522e-05,0.0026296135038137436
126.0,186.0,5.0249,-3.7113,6.807,-0.053,0.0458,-0.1261,-1.8788334331908167,0.0,3.4760382175445557,-1.1920700073242188,-0.0,2.1732025146484375,3.8745781618305664,-0.0,0.2763116955757141,-1.6732953230487269,0.0,0.007675808854401112,1.3204312324523926,-0.0,-0.004821213893592358,0.6940593719482422,6.368994945660233e-05,-0.02023508958518505
126.0,186.0,5.0249,-3.7113,6.807,-0.053,0.0458,-0.1261,-1.8788334331908167,0.0,3.5208964347839355,-1.1920942068099976,-0.0,2.157454252243042,3.874581976527832,-0.0,0.27340006828308105,-1.673291031514303,0.0,0.0010434131836518645,1.3204271793365479,-0.0,0.0006755671929568052,0.6939871311187744,-5.264293577056378e-05,0.04297883063554764
126.0,186.0,5.0249,-3.7113,6.807,-0.053,0.0458,-0.1261,-1.8788491688170375,0.0,3.499345302581787,-1.1920498609542847,-0.0,2.2189056873321533,3.8745614725300292,-0.0,0.27188965678215027,-1.6732748190509241,0.0,0.024105824530124664,1.3203871250152588,-0.0,-0.008761489763855934,0.6940755844116211,-4.839871689910069e-05,0.007944495417177677
126.0,186.0,5.0249,-3.7113,6.807,-0.053,0.0458,-0.1261,-1.8788453541197718,0.0,3.4801552295684814,-1.192054033279419,-0.0,2.148151397705078,3.8746258455463867,-0.0,0.27618515491485596,-1.673307243977682,0.0,0.00866351556032896,1.3204431533813477,-0.0,-0.016122233122587204,0.6940512657165527,-4.4786047510569915e-05,-0.04573533311486244
126.0,186.0,5.0249,-3.7113,6.807,-0.053,0.0458,-0.1261,-1.878796716729635,0.0,3.4545183181762695,-1.1920700073242188,-0.0,2.2038869857788086,3.8745333391376953,-0.0,0.2649897634983063,-1.6732872168170374,0.0,-0.004415034782141447,1.3204350471496582,-0.0,-0.01611459255218506,0.694047212600708,-2.0366245735203847e-05,-0.014838645234704018
126.0,186.0,5.0249,-3.7113,6.807,-0.053,0.0458,-0.1261,-1.8788086376585902,0.0,3.483391284942627,-1.1920461654663086,-0.0,2.1973109245300293,3.8745695787617187,-0.0,0.2757035791873932,-1.6732552687274378,0.0,0.01744002290070057,1.3203792572021484,-0.0,0.003953686915338039,0.6940715909004211,-1.9071410861215554e-05,-0.015095281414687634
126.0,186.0,5.0249,-3.7113,6.807,-0.053,0.0458,-0.1261,-1.8788253269591273,0.0,3.523902416229248,-1.1920539140701294,-0.0,2.2008843421936035,3.8745738702961425,5.1205232011852786e-05,0.2728155553340912,-1.673279110585348,0.0,0.00797857716679573,1.3204071521759033,-0.0,-0.004727653227746487,0.694047212600708,-8.396626327566992e-08,0.00034419167786836624
126.0,186.0,5.3934,-3.4265,6.7322,-0.0409,0.0174,-0.1234,-1.8788210354247035,0.0,3.455434799194336,-1.1920663118362427,-0.0,2.171312093734741,3.8745500284382324,1.4892279068590142e-05,0.2687534689903259,-1.6733272711383265,0.0,-0.008874298073351383,1.3203790187835693,-0.0,0.0028584592510014772,0.6940834522247314,-2.7203998348288754e-15,0.0018818196840584278
126.0,186.0,5.3934,-3.4265,6.7322,-0.0409,0.0174,-0.1234,-1.8788496456541957,0.0,3.4632675647735596,-1.1920621395111084,-0.0,2.19826340675354,3.8746258455463867,4.1453209753683495e-09,0.26952242851257324,-1.6732829252826136,0.0,0.006626391317695379,1.3204472064971924,-0.0,0.006588375195860863,0.6940631866455078,-6.569444998882704e-21,0.005968979559838772
126.0,186.0,5.3934,-3.4265,6.7322,-0.0409,0.0174,-0.1234,-1.8788296184935511,0.0,3.5411081314086914,-1.1920539140701294,0.00015741233073640615,2.1682393550872803,3.8746296602436523,1.1538654146742156e-12,0.28609007596969604,-1.6732953230487269,0.0,-0.007604172918945551,1.3204152584075928,-0.0,0.006457978393882513,0.6940350532531738,-1.5864436538253734e-26,-0.07442571967840195
126.0,186.0,5.3934,-3.4265,6.7322,-0.0409,0.0174,-0.1234,-1.8788210354247035,0.0,3.5213050842285156,-1.1920298337936401,0.0001380907342536375,2.177466869354248,3.874549074763916,2.0970931043628124e-17,0.26482439041137695,-1.673250977193014,0.0,-0.0006509379018098116,1.3204832077026367,-0.0,-0.0062774294055998325,0.6940431594848633,-5.139875222086857e-34,-0.005214234814047813
126.0,186.0,5.3934,-3.4265,6.7322,-0.0409,0.0174,-0.1234,-1.8788453541197718,0.0,3.4654977321624756,-1.1920421123504639,0.00012644958042073995,2.229935646057129,3.874649687404297,5.8373352268107225e-21,0.2688249349594116,-1.6732829252826136,0.0,0.007008482702076435,1.3204073905944824,-0.0,-0.017845137044787407,0.6940712928771973,0.000369098357623443,-0.039001334458589554
126.0,186.0,5.3934,-3.4265,6.7322,-0.0409,0.0174,-0.1234,-1.8788296184935511,0.0,3.453247547149658,-1.1920461654663086,0.00011661854659905657,2.1478679180145264,3.8745900827595214,1.624843923577335e-24,0.27022048830986023,-1.6733229796039026,0.0,-0.008808093145489693,1.3203949928283691,-0.0,-0.008957061916589737,0.6940512657165527,0.0006501700263470411,-0.05858664959669113
126.0,186.0,5.3934,-3.4265,6.7322,-0.0409,0.0174,-0.1234,-1.878885408441061,0.0,3.5130558013916016,-1.1920498609542847,0.00010566516721155494,2.2088329792022705,3.8745900827595214,0.00017497192311566323,0.2709837555885315,-1.6732872168170374,0.0,0.0008828644058667123,1.3203670978546143,-0.0,-0.002096652751788497,0.6941033601760864,0.0007378311711363494,0.017514236271381378
126.0,186.0,5.3934,-3.4265,6.7322,-0.0409,0.0174,-0.1234,-1.878812929193014,3.216518962290138e-05,3.470435857772827,-1.192054033279419,9.87116654869169e-05,2.180339813232422,3.874617739314697,0.00015676340262871236,0.26667848229408264,-1.673291031514303,0.0,0.006262655835598707,1.3203911781311035,-0.0,-0.002178408671170473,0.6941194534301758,0.0007445630617439747,0.042559921741485596
126.0,186.0,5.3934,-3.4265,6.7322,-0.0409,0.0174,-0.1234,-1.878885408441061,3.053689579246566e-05,3.45670747756958,-1.1921067237854004,7.40935283829458e-05,2.153928518295288,3.8746020036884765,0.0001419288746546954,0.26980021595954895,-1.673291031514303,0.0,0.0032633477821946144,1.3204472064971924,-0.0,-0.012759752571582794,0.6941158175468445,0.0007113153114914894,0.019250256940722466
126.0,186.0,5.3934,-3.4265,6.7322,-0.0409,0.0174,-0.1234,-1.878812929193014,1.4300842849479523e-05,3.443924903869629,-1.1920300722122192,6.845763709861785e-05,2.1996593475341797,3.8746258455463867,0.00015117536531761289,0.2540135979652405,-1.6733387152301233,0.0,0.0025753353256732225,1.3203909397125244,-0.0,-0.010036511346697807,0.6940470337867737,0.0007679426926188171,0.03101198934018612
126.0,186.0,5.3934,-3.4265,6.7322,-0.0409,0.0174,-0.1234,-1.878869195977682,1.3647733794641681e-05,3.43691349029541,-1.1920864582061768,6.476304406533018e-05,2.202725887298584,3.874645872707031,0.00013951097207609564,0.28375720977783203,-1.6733186880694788,0.0,0.015578866004943848,1.3204190731048584,-0.0,0.0005091722123324871,0.6941518187522888,0.000974176567979157,-0.04061218351125717
126.0,186.0,5.3934,-3.4265,6.7322,-0.0409,0.0174,-0.1234,-1.8788777790465296,1.3053891962044872e-05,3.4787397384643555,-1.1920781135559082,6.144687358755618e-05,2.1857526302337646,3.8746658998676757,0.00012947538925800472,0.2729593515396118,-1.6733349005328577,0.0,0.0005012922920286655,1.3204431533813477,-0.0,-0.00010663713328540325,0.6941878199577332,0.0010864101350307465,0.07751325517892838
126.0,186.0,5.3934,-3.4265,6.7322,-0.0409,0.0174,-0.1234,-1.878869195977682,1.2338091437413823e-05,3.4451489448547363,-1.1920580863952637,5.751981007051654e-05,2.1713345050811768,3.8745977121540527,0.00011814385652542114,0.2827214300632477,-1.6733110586749476,0.0,-0.004564182832837105,1.320411205291748,-0.0,-0.0074314940720796585,0.6941232681274414,0.0010123173706233501,0.0473068505525589
126.0,186.0,5.3934,-3.4265,6.7322,-0.0409,0.0174,-0.1234,-1.8788329563536585,1.185070868814364e-05,3.530695676803589,-1.1920905113220215,5.488888928084634e-05,2.174884796142578,3.874617739314697,0.00011086692393291742,0.2819346785545349,-1.6733267943011683,0.0,0.008052422665059566,1.3204751014709473,-0.0,-0.002876028884202242,0.6941313743591309,0.0008253645501099527,-0.0016338275745511055
124.0,178.0,5.141,-3.597,6.6479,-0.0396,0.0264,-0.1202,-1.8788005314269007,1.1400381481507793e-05,3.4964828491210938,-1.1920342445373535,5.248807792668231e-05,2.2038769721984863,3.874633951778076,0.00010443436622153968,0.28670141100883484,-1.6732872168170374,0.0,0.011394459754228592,1.3204231262207031,-0.0,-0.003232222981750965,0.6941559910774231,0.0007095644250512123,-0.018664315342903137
124.0,178.0,5.141,-3.597,6.6479,-0.0396,0.0264,-0.1202,-1.8787843189635218,2.170118568756152e-05,3.482595920562744,-1.1920700073242188,4.959569196216762e-05,2.174478769302368,3.8746020036884765,9.693535685073584e-05,0.2710106074810028,-1.6733110586749476,0.0,-0.0014685913920402527,1.3204431533813477,-0.0,0.0011143293231725693,0.69416344165802,0.0005789343267679214,0.038131047040224075
124.0,178.0,5.141,-3.597,6.6479,-0.0396,0.0264,-0.1202,-1.8787929020323695,2.094372575811576e-05,3.527812957763672,-1.192002296447754,4.7627330786781386e-05,2.210689067840576,3.8746134477802734,9.198184125125408e-05,0.26783737540245056,-1.6732948462115687,0.0,0.0042936960235238075,1.320411205291748,-0.0,-0.0070059713907539845,0.6941190958023071,0.0004974307375960052,0.005153900943696499
124.0,178.0,5.141,-3.597,6.6479,-0.0396,0.0264,-0.1202,-1.8788172207274378,2.0237330318195745e-05,3.448376178741455,-1.1920663118362427,4.5809221774106845e-05,2.171821117401123,3.8745781618305664,8.75099649420008e-05,0.2718360126018524,-1.6733267943011683,0.0,-0.004724571947008371,1.3204030990600586,-0.0,-0.015300527215003967,0.6941716074943542,0.0005121283465996385,0.010829571634531021
124.0,178.0,5.141,-3.597,6.6479,-0.0396,0.0264,-0.1202,-1.8788415394225062,1.2157964635051144e-09,3.5335354804992676,-1.192025899887085,1.5862760847085156e-05,2.152036190032959,3.8746535021015625,9.587779641151428e-05,0.27879393100738525,-1.6732948462115687,0.0,0.00816782470792532,1.3204271793365479,-0.0,-0.0065586743876338005,0.6942035555839539,0.0006311770994216204,-0.030902434140443802
124.0,178.0,5.141,-3.597,6.6479,-0.0396,0.0264,-0.1202,-1.878796716729635,2.9360055070471163e-15,3.4914650917053223,-1.1920342445373535,2.8372400265652686e-05,2.195978879928589,3.874649687404297,0.0001043519951053895,0.2762397527694702,-1.673370663319723,0.0,0.012784715741872787,1.3204751014709473,-0.0,-0.027583308517932892,0.6942400336265564,0.001260653487406671,-0.0032963515259325504
124.0,178.0,5.141,-3.597,6.6479,-0.0396,0.0264,-0.1202,-1.8788658581175746,7.090108342457952e-21,3.5051021575927734,-1.1920342445373535,4.1362007323186845e-05,2.2112953662872314,3.874645395869873,0.00010040812048828229,0.27812665700912476,-1.673370663319723,0.0,0.008176760748028755,1.3204431533813477,-0.0,-0.005711273290216923,0.6941713094711304,0.0021829279139637947,-0.010141365230083466
124.0,178.0,5.141,-3.597,6.6479,-0.0396,0.0264,-0.1202,-1.8788496456541957,2.297105033660509e-28,3.4512126445770264,-1.192074179649353,4.045756577397697e-05,2.1761317253112793,3.8746134477802734,8.544376760255545e-05,0.2680792510509491,-1.6733306089984339,0.0,-0.0047684721648693085,1.3204312324523926,-0.0,-0.000809577526524663,0.6942190527915955,0.003264982020482421,-0.04269849509000778
124.0,178.0,5.141,-3.597,6.6479,-0.0396,0.0264,-0.1202,-1.8788334331908167,5.547238197589513e-34,3.4671216011047363,-1.19199800491333,3.871717126457952e-05,2.1766953468322754,3.874621554011963,8.08378608780913e-05,0.259089857339859,-1.6733430067645472,0.0,0.006811280269175768,1.3203511238098145,-0.0,-0.012109451927244663,0.6942880153656006,0.003224212909117341,-0.021612685173749924
124.0,178.0,5.141,-3.597,6.6479,-0.0396,0.0264,-0.1202,-1.8788086376585902,1.3395922864482738e-39,3.4813132286071777,-1.1920382976531982,3.712030957103707e-05,2.1883530616760254,3.8746697145649414,7.67040328355506e-05,0.2705453038215637,-1.6732986609088343,0.0,0.0029073795303702354,1.3203551769256592,-0.0,0.008557585999369621,0.6942712664604187,0.0037505438085645437,-0.013665355741977692
124.0,178.0,5.141,-3.597,6.6479,-0.0396,0.0264,-0.1202,-1.8788296184935511,-1.4919826753612142e-05,3.488895893096924,-1.1920136213302612,3.5185406886739656e-05,2.1861133575439453,3.8746859270283203,8.616906416136771e-05,0.2703053057193756,-1.6733225027667444,0.0,0.013947703875601292,1.3203752040863037,-0.0,-0.0025822087191045284,0.6943362355232239,0.004009892698377371,0.004511235281825066
124.0,178.0,5.141,-3.597,6.6479,-0.0396,0.0264,-0.1202,-1.8788567982115687,-1.4596214896300808e-05,3.4619736671447754,-1.1919578313827515,3.3861619158415124e-05,2.2014455795288086,3.874617739314697,8.223299664678052e-05,0.2762353718280792,-1.6732986609088343,0.0,-0.0019754134118556976,1.320383071899414,-0.0,-0.004362564533948898,0.694351851940155,0.003951372113078833,-0.010692214593291283
124.0,178.0,5.141,-3.597,6.6479,-0.0396,0.0264,-0.1202,-1.878885408441061,-2.7837988454848528e-05,3.473207950592041,-1.1921024322509766,3.263384132878855e-05,2.2130138874053955,3.8746258455463867,7.864032522775233e-05,0.27611660957336426,-1.673354450856344,0.0,0.0003511428367346525,1.3204271793365479,-0.0,0.0020856200717389584,0.6943878531455994,0.003887066151946783,-0.015106141567230225
124.0,178.0,5.141,-3.597,6.6479,-0.0396,0.0264,-0.1202,-1.8788086376585902,-3.932435720344074e-05,3.4558327198028564,-1.1919822692871094,3.112889316980727e-05,2.1381943225860596,3.874621554011963,7.431153790093958e-05,0.2779828906059265,-1.6733625570880335,0.0,0.011799676343798637,1.3203473091125488,-0.0,0.0009430669015273452,0.694399893283844,0.0037765318993479013,0.031636953353881836
129.0,181.0,5.3091,-3.5061,6.8459,-0.0338,0.0159,-0.1086,-1.8788773022093714,-5.0237209507031366e-05,3.4837682247161865,-1.1920063495635986,3.0088238418102264e-05,2.1971349716186523,3.8746415811726074,8.28603224363178e-05,0.27285176515579224,-1.673354450856344,0.0,0.005048965569585562,1.3203952312469482,-0.0,-0.008575311861932278,0.6943956017494202,0.004160574171692133,0.026288166642189026
129.0,181.0,5.3091,-3.5061,6.8459,-0.0338,0.0159,-0.1086,-1.878841062585348,-0.00025586996343918145,3.467623710632324,-1.1920461654663086,5.3560880175496095e-09,2.197941541671753,3.8746296602436523,8.008424629224464e-05,0.2605193555355072,-1.6733625570880335,0.0,0.010126780718564987,1.3204312324523926,-0.0,-0.0049288393929600716,0.6944761276245117,0.003881625598296523,0.016832757741212845
129.0,181.0,5.3091,-3.5061,6.8459,-0.0338,0.0159,-0.1086,-1.8788167438902796,-0.0002143902238458395,3.4703447818756104,-1.1920136213302612,1.7353043552901663e-16,2.2176613807678223,3.8746978479572753,8.715805597603321e-05,0.27215245366096497,-1.6734145323382776,-9.481958113610744e-05,-0.011257488280534744,1.320419192314148,-0.0,-0.008398904465138912,0.6944917440414429,0.004236193373799324,0.10085916519165039
129.0,181.0,5.3091,-3.5061,6.8459,-0.0338,0.0159,-0.1086,-1.8788892231383265,-0.0002250938123324886,3.4498019218444824,-1.1920177936553955,4.19055534627885e-22,2.164547920227051,3.874633474940918,0.00012418140249792486,0.27159130573272705,-1.673394505177633,-0.0001358780573355034,-0.004791842307895422,1.3203792572021484,-0.0,-0.0060743591748178005,0.6944591403007507,0.004964910913258791,0.055124711245298386
129.0,181.0,5.3091,-3.5061,6.8459,-0.0338,0.0159,-0.1086,-1.8788649044432582,-0.00023341835185419768,3.435335636138916,-1.1920136213302612,1.0119698744425623e-27,2.156770706176758,3.874621554011963,0.00013763006427325308,0.2665933072566986,-1.673370663319723,-0.00014742524945177138,-0.022452201694250107,1.3203554153442383,-0.0,-0.0145443519577384,0.6945241093635559,0.005179859697818756,0.16370806097984314
129.0,181.0,5.3091,-3.5061,6.8459,-0.0338,0.0159,-0.1086,-1.8788930378355921,-0.0002330642455490306,3.4909021854400635,-1.1919981241226196,3.2786540606193545e-35,2.17170786857605,3.8746296602436523,0.00012490220251493156,0.2689087390899658,-1.6734026114093226,-0.00015398464165627956,-0.020126990973949432,1.3204152584075928,-0.0,-0.010060024447739124,0.6945518255233765,0.0057715848088264465,0.06907463073730469
129.0,181.0,5.3091,-3.5061,6.8459,-0.0338,0.0159,-0.1086,-1.8788730106749476,-0.00025451689725741744,3.4934167861938477,-1.1920300722122192,7.917616583128081e-41,2.1448826789855957,3.8746415811726074,0.00011679727322189137,0.27697694301605225,-1.6733782927142542,-0.00014477601507678628,-0.01210747566074133,1.3203871250152588,-0.0,-0.0034210148733109236,0.6945799589157104,0.006341072730720043,0.1043267473578453
129.0,181.0,5.3091,-3.5061,6.8459,-0.0338,0.0159,-0.1086,-1.8788930378355921,-0.0002611101372167468,3.44464111328125,-1.1920342445373535,0.0,2.156874656677246,3.874709292049072,0.00012793930363841355,0.2737176716327667,-1.6733625570880335,-0.0002680839388631284,-0.023780960589647293,1.3203792572021484,-0.0,-0.004139245487749577,0.6946319937705994,0.006703776307404041,0.13783687353134155
129.0,181.0,5.3091,-3.5061,6.8459,-0.0338,0.0159,-0.1086,-1.8788892231383265,-0.0002552555233705789,3.3886966705322266,-1.1921149492263794,-0.0,2.1417908668518066,3.8746773439594726,0.00011834509496111423,0.2575082778930664,-1.6733744780169886,-0.0002198168367613107,-0.041133198887109756,1.3203914165496826,-0.0,-0.0088654775172472,0.6947451829910278,0.007138037588447332,0.13785690069198608
129.0,181.0,5.3091,-3.5061,6.8459,-0.0338,0.0159,-0.1086,-1.8788649044432582,-0.00026010110741481185,3.4069387912750244,-1.1920782327651978,1.4866380297462456e-05,2.169316053390503,3.8746535021015625,0.00011203148460481316,0.27038928866386414,-1.6733306089984339,-0.00022744272428099066,-0.02282416634261608,1.3203914165496826,-0.0,-0.004021862056106329,0.6947360038757324,0.008281830698251724,0.16687145829200745
129.0,181.0,5.3091,-3.5061,6.8459,-0.0338,0.0159,-0.1086,-1.8788730106749476,-0.00028094847220927477,3.4602091312408447,-1.1921064853668213,2.5912755518220365e-05,2.1445133686065674,3.8746258455463867,0.00010635755461407825,0.2712634205818176,-1.6733306089984339,-0.00020398115157149732,-0.023852039128541946,1.3203914165496826,-0.0,-0.011360503733158112,0.6947960257530212,0.009345495142042637,0.1888289898633957
129.0,181.0,5.3091,-3.5061,6.8459,-0.0338,0.0159,-0.1086,-1.8788930378355921,-0.0002697687305044383,3.442607879638672,-1.1920503377914429,2.4501918232999742e-05,2.1706700325012207,3.8746253687092285,0.00011386023106751963,0.2575935423374176,-1.6734221617328089,-0.00020673561084549874,-0.03672131896018982,1.3203914165496826,-0.0,-0.0018599062459543347,0.6948882937431335,0.011248706839978695,0.19373926520347595
129.0,181.0,5.3091,-3.5061,6.8459,-0.0338,0.0159,-0.1086,-1.8789216480650843,-0.0002737048198468983,3.45274019241333,-1.1920379400253296,2.3540607799077407e-05,2.1767473220825195,3.8746978479572753,0.00010870508413063362,0.2609200179576874,-1.6734102408038538,-0.0002150313521269709,-0.034476157277822495,1.320431113243103,-0.0,-0.013713776133954525,0.6949241161346436,0.01203080452978611,0.21529927849769592
125.0,185.0,4.87,-3.7484,6.9517,-0.0301,0.0328,-0.0996,-1.8789497814574183,-0.00037188519490882754,3.412449359893799,-1.1920382976531982,2.265189505123999e-05,2.1175642013549805,3.874629183406494,0.0001254335802514106,0.26088231801986694,-1.6733344236956995,-0.0001974006008822471,-0.026678655296564102,1.3203314542770386,-0.0,-0.007672395557165146,0.6950200796127319,0.013342487625777721,0.20538762211799622
125.0,185.0,4.87,-3.7484,6.9517,-0.0301,0.0328,-0.0996,-1.878881116906637,-0.0003940882161259651,3.401597261428833,-1.1920983791351318,2.156631489924621e-05,2.1032464504241943,3.8746649461933593,0.00011289597023278475,0.2637356221675873,-1.673342529927389,-0.0001778905716491863,-0.025639038532972336,1.3203673362731934,-0.0,-0.018361207097768784,0.6950842142105103,0.014911736361682415,0.22010302543640137
125.0,185.0,4.87,-3.7484,6.9517,-0.0301,0.0328,-0.0996,-1.8789173565306605,-0.0003796336823143065,3.458383083343506,-1.192054033279419,2.0818046323256567e-05,2.1646907329559326,3.8746773439594726,0.00012589816469699144,0.27605724334716797,-1.6733744780169886,-0.000160420429892838,-0.02776804193854332,1.320294976234436,-0.0,-0.017619799822568893,0.695240318775177,0.016561010852456093,0.23359568417072296
125.0,185.0,4.87,-3.7484,6.9517,-0.0301,0.0328,-0.0996,-1.8789011440672816,-0.0004112481256015599,3.445815086364746,-1.1920580863952637,2.011997094086837e-05,2.149190664291382,3.874713583583496,0.00011774976883316413,0.2637225389480591,-1.673382584248678,-0.00014491917681880295,-0.026580754667520523,1.3203673362731934,-0.0,-0.022414401173591614,0.6953528523445129,0.0183052197098732,0.22886115312576294
125.0,185.0,4.87,-3.7484,6.9517,-0.0301,0.0328,-0.0996,-1.8789135418333949,-0.0003077654109802097,3.414633274078369,-1.1920218467712402,1.4079044874382163e-10,2.1709342002868652,3.8746930795856933,0.00012633288861252367,0.25907763838768005,-1.6733744780169886,-0.00012838006659876555,-0.026778044179081917,1.3203314542770386,-0.0,-0.015254942700266838,0.6955006122589111,0.021279316395521164,0.22502049803733826
125.0,185.0,4.87,-3.7484,6.9517,-0.0301,0.0328,-0.0996,-1.8788725338377894,-0.0003064337943214923,3.4284842014312744,-1.1920095682144165,3.3999238111319613e-16,2.135735511779785,3.874696894282959,0.0001361329632345587,0.2633878290653229,-1.6733782927142542,-0.000118257972644642,-0.032341890037059784,1.3203792572021484,-0.0,-0.02646658942103386,0.6956408619880676,0.0243313480168581,0.2435118854045868
125.0,185.0,4.87,-3.7484,6.9517,-0.0301,0.0328,-0.0996,-1.8789454899229945,-0.0002618505386635661,3.406200647354126,-1.1920781135559082,8.210416338797253e-22,2.1516852378845215,3.8747097688862304,0.00020113863865844905,0.26102742552757263,-1.6733625570880335,-0.0001258675620192662,-0.029365427792072296,1.320399284362793,-0.0,-0.013505364768207073,0.6958009004592896,0.028365101665258408,0.23214200139045715
125.0,185.0,4.87,-3.7484,6.9517,-0.0301,0.0328,-0.0996,-1.8789330921568812,-0.0002558617270551622,3.4301161766052246,-1.192002296447754,2.660070665989899e-29,2.142716407775879,3.874725504512451,0.00020565869635902345,0.2643418312072754,-1.673370663319723,-0.00011919300595764071,-0.021194741129875183,1.3204033374786377,-0.0,-0.0267342459410429,0.6960530281066895,0.03423461690545082,0.22866949439048767
125.0,185.0,4.87,-3.7484,6.9517,-0.0301,0.0328,-0.0996,-1.878897329370016,-0.00026065349811688066,3.427783727645874,-1.1920822858810425,6.423757498894652e-35,2.120435953140259,3.8747097688862304,0.00021554842533078045,0.28138598799705505,-1.673342529927389,-0.00011237610306125134,-0.04141654819250107,1.3203833103179932,-0.0,-0.027791518718004227,0.6963174343109131,0.03951774165034294,0.21390005946159363
125.0,185.0,4.87,-3.7484,6.9517,-0.0301,0.0328,-0.0996,-1.8789011440672816,-0.00025812897365540266,3.4108200073242188,-1.1920864582061768,1.551265425976859e-40,2.1411638259887695,3.8747336107441406,0.00021622459462378174,0.2673518657684326,-1.673382584248678,-0.00010577257489785552,-0.03738658130168915,1.320387363433838,-0.0,-0.02348674088716507,0.6966024041175842,0.04463672265410423,0.23404163122177124
125.0,185.0,4.87,-3.7484,6.9517,-0.0301,0.0328,-0.0996,-1.8789812527098597,-0.00028117274632677436,3.464968681335449,-1.191994071006775,-0.0,2.150930881500244,3.8747293192097167,0.00029095850186422467,0.2785308063030243,-1.673370663319723,-9.808730101212859e-05,-0.03453231230378151,1.3203833103179932,-0.0,-0.02983858436346054,0.6969620585441589,0.04900817573070526,0.20675697922706604
125.0,185.0,4.87,-3.7484,6.9517,-0.0301,0.0328,-0.0996,-1.878977438012594,-0.0005527932662516832,3.4174609184265137,-1.192002296447754,-0.0,2.1611194610595703,3.8747731882282714,0.00026893027825281024,0.27596113085746765,-1.6733983198748987,-7.765013288008049e-05,-0.024285785853862762,1.3203952312469482,-0.0,-0.020328231155872345,0.6972019076347351,0.0511171855032444,0.21970687806606293
125.0,185.0,4.87,-3.7484,6.9517,-0.0301,0.0328,-0.0996,-1.87894930462026,-0.0005718300817534328,3.4701905250549316,-1.1920982599258423,-0.0,2.109821081161499,3.87476555883374,0.00028384049073792994,0.27927371859550476,-1.6733582655536097,-7.370638195425272e-05,-0.022336410358548164,1.3203833103179932,-0.0,-0.018783725798130035,0.6975302696228027,0.052776992321014404,0.13361504673957825
125.0,185.0,4.87,-3.7484,6.9517,-0.0301,0.0328,-0.0996,-1.8789893589415492,-0.000717288872692734,3.429023265838623,-1.1920503377914429,-0.0,2.1916823387145996,3.874737425441406,0.0002483610587660223,0.2801908552646637,-1.6733587423907679,-6.9174260715954e-05,-0.022966299206018448,1.3203712701797485,-0.0,0.0036478545516729355,0.6980592608451843,0.05454709380865097,0.12359556555747986
125.0,182.0,5.4766,-3.283,6.2788,0.0168,0.0111,-0.0848,-1.878920694390768,-0.0005416906788013875,3.4621472358703613,-1.1920382976531982,-0.0,2.158046245574951,3.874765081996582,0.0002527227043174207,0.2770814299583435,-1.6733625570880335,-6.612487050006166e-05,-0.03157013654708862,1.3203352689743042,-0.0,-0.018046937882900238,0.6983885169029236,0.055728890001773834,0.12136341631412506
125.0,182.0,5.4766,-3.283,6.2788,0.0168,0.0111,-0.0848,-1.8789569340147914,-0.0004305922193452716,3.484710216522217,-1.1920218467712402,4.271167563274503e-05,2.186412811279297,3.874765081996582,0.00030540055013261735,0.28498944640159607,-1.673354450856344,-5.0680642743827775e-05,-0.013738660141825676,1.3203754425048828,-0.0,-0.027868300676345825,0.6986514925956726,0.05761609226465225,0.09824809432029724
125.0,182.0,5.4766,-3.283,6.2788,0.0168,0.0111,-0.0848,-1.8789211712279261,-0.00033813389018177986,3.5055274963378906,-1.191965937614441,0.0009742528782226145,2.1978111267089844,3.8748013216206054,0.0006484562181867659,0.28389406204223633,-1.6733587423907679,-4.796604480361566e-05,-0.02479998953640461,1.3203712701797485,-0.0,-0.023054320365190506,0.6992009878158569,0.05866945907473564,0.1288716197013855
125.0,182.0,5.4766,-3.283,6.2788,0.0168,0.0111,-0.0848,-1.8789812527098597,-0.0001167093068943359,3.4719460010528564,-1.1919578313827515,0.001095028594136238,2.19419527053833,3.874788923854492,0.000599217542912811,0.2859021723270416,-1.6733186880694788,-4.6122459025355056e-05,-0.007880144752562046,1.3204312324523926,-0.0,-0.02200954779982567,0.6995243430137634,0.05656823888421059,0.13575097918510437
125.0,182.0,5.4766,-3.283,6.2788,0.0168,0.0111,-0.0848,-1.8789411983885707,-9.244481043424457e-05,3.4898834228515625,-1.191982388496399,0.0011319235200062394,2.18796968460083,3.874725027675293,0.000530923658516258,0.29821839928627014,-1.6733625570880335,-4.4415355660021305e-05,-0.0015472694067284465,1.320347547531128,-0.0,-0.025734011083841324,0.6998525857925415,0.05259875953197479,0.13271744549274445
125.0,182.0,5.4766,-3.283,6.2788,0.0168,0.0111,-0.0848,-1.878937383691305,-7.668892067158595e-05,3.5068397521972656,-1.1920185089111328,0.0014597834087908268,2.16524600982666,3.8748294550129394,0.0005631232634186745,0.3032931685447693,-1.6733625570880335,-3.179110717610456e-05,-0.0062803709879517555,1.320391297340393,-0.0,-0.010311786085367203,0.7002813220024109,0.04704206436872482,0.06781652569770813
125.0,182.0,5.4766,-3.283,6.2788,0.0168,0.0111,-0.0848,-1.8789450130858363,-3.416163599467836e-05,3.495429039001465,-1.1919097900390625,0.0018561499891802669,2.2042300701141357,3.8748294550129394,0.000539442291483283,0.2995392978191376,-1.6733306089984339,-3.066337376367301e-05,0.0033332197926938534,1.3203355073928833,-0.0,-0.029266880825161934,0.7005890607833862,0.04351359233260155,0.09769275784492493
125.0,182.0,5.4766,-3.283,6.2788,0.0168,0.0111,-0.0848,-1.8789612255492152,-3.053772888961248e-05,3.518070936203003,-1.191965937614441,0.0018358700908720493,2.2175750732421875,3.8748089510151367,0.0007084926473908126,0.30967292189598083,-1.6733782927142542,-7.618933068442857e-06,-0.004588043317198753,1.320387363433838,-0.0,-0.02023116871714592,0.7009132504463196,0.04156762734055519,0.078823521733284
125.0,182.0,5.4766,-3.283,6.2788,0.0168,0.0111,-0.0848,-1.8789612255492152,-2.6888277716352604e-05,3.5231919288635254,-1.1919301748275757,0.002060690661892295,2.1578192710876465,3.8747574526020507,0.0009312268230132759,0.2842242121696472,-1.6733387152301233,-1.384703463003234e-10,0.0028398879803717136,1.3203792572021484,-0.0,-0.024827389046549797,0.701156735420227,0.039870668202638626,0.06473197042942047
125.0,182.0,5.4766,-3.283,6.2788,0.0168,0.0111,-0.0848,-1.87894930462026,-2.4676599423401058e-05,3.4932193756103516,-1.1919585466384888,0.0025550248101353645,2.2311811447143555,3.8747851091572265,0.001437605358660221,0.2926107347011566,-1.673370663319723,-3.8543726045038584e-14,-0.0011400682851672173,1.3204270601272583,-0.0,-0.014109369367361069,0.7014367580413818,0.03944001719355583,0.053693052381277084
125.0,182.0,5.4766,-3.283,6.2788,0.0168,0.0111,-0.0848,-1.8789168796935023,-2.280105218233075e-05,3.473710060119629,-1.1919026374816895,0.0029441171791404486,2.2366487979888916,3.874817057246826,0.004056676756590605,0.30821120738983154,-1.6734064261065882,-1.0728790625163885e-17,0.007590103428810835,1.320387363433838,-0.0,-0.015268491581082344,0.7016693353652954,0.03972677141427994,0.05535026639699936
125.0,182.0,5.4766,-3.283,6.2788,0.0168,0.0111,-0.0848,-1.8789130649962367,-2.0703058908111416e-05,3.4706640243530273,-1.1918385028839111,0.0034185005351901054,2.2053656578063965,3.874880476588867,0.013813103549182415,0.31508511304855347,-1.6733744780169886,-1.9499049971301038e-22,0.0007742230081930757,1.3203953504562378,-0.0,-0.02327367290854454,0.7019405364990234,0.03807004168629646,0.1075180321931839
125.0,182.0,5.4766,-3.283,6.2788,0.0168,0.0111,-0.0848,-1.8789612255492152,-1.9366587366675958e-05,3.551281452178955,-1.191891074180603,0.00344309420324862,2.13438081741333,3.874936266536377,0.012443596497178078,0.2981536388397217,-1.6733863989459437,-5.427632966261567e-26,-0.008008478209376335,1.3204151391983032,-0.0,-0.016516171395778656,0.7021488547325134,0.03462405875325203,0.05458945780992508
125.0,182.0,5.4766,-3.283,6.2788,0.0168,0.0111,-0.0848,-1.8789569340147914,-1.81921695912024e-05,3.523730754852295,-1.1918023824691772,0.0035035826731473207,2.2459237575531006,3.875060721034668,0.005173263140022755,0.31350743770599365,-1.6734026114093226,-1.5108016129423665e-29,-0.007036963943392038,1.320387363433838,-0.0,-0.02107788249850273,0.7023449540138245,0.03089856170117855,0.04624257981777191
124.0,177.0,5.6399,-3.3637,6.3793,-0.0304,0.0189,-0.1106,-1.8789168796935023,-1.6831316315801814e-05,3.5281474590301514,-1.1918588876724243,0.003178667975589633,2.2176387310028076,3.875016375178955,-0.0010086408583447337,0.2953498363494873,-1.6733625570880335,-2.7458069483720493e-34,-0.007189706899225712,1.320302963256836,-0.0,-0.004501106683164835,0.7025363445281982,0.02688780426979065,0.03284808248281479
124.0,177.0,5.6399,-3.3637,6.3793,-0.0304,0.0189,-0.1106,-1.8789731464781703,-1.5937159332679585e-05,3.5121335983276367,-1.1917824745178223,0.002408965490758419,2.1796813011169434,3.874976797694824,-0.0006580899935215712,0.30075836181640625,-1.6733663717852991,-7.643054569819063e-38,-0.010032309219241142,1.320419192314148,-0.0,-0.017841562628746033,0.7027083039283752,0.024569185450673103,-0.019888438284397125
124.0,177.0,5.6399,-3.3637,6.3793,-0.0304,0.0189,-0.1106,-1.8789612255492152,-3.0266481189755723e-05,3.5709896087646484,-1.1918067932128906,0.001592896762304008,2.261953830718994,3.874964399928711,-0.0004571018216665834,0.30722635984420776,-1.6733782927142542,-2.1274513285379373e-41,-0.0007628416642546654,1.3203071355819702,-0.0,-0.023301994428038597,0.7028524875640869,0.0229543074965477,0.035890620201826096
124.0,177.0,5.6399,-3.3637,6.3793,-0.0304,0.0189,-0.1106,-1.8788963756956996,-2.835913619492203e-05,3.5583181381225586,-1.1918108463287354,0.0007543822284787893,2.1963353157043457,3.8750240045734863,-0.0003249351866543293,0.3106500506401062,-1.6733625570880335,-0.0,-0.0022882616613060236,1.3203554153442383,-0.0,-0.020468953996896744,0.703012228012085,0.02041003666818142,0.005374027416110039
124.0,177.0,5.6399,-3.3637,6.3793,-0.0304,0.0189,-0.1106,-1.8789049587645472,-2.707923158595804e-05,3.5155887603759766,-1.191794514656067,0.0005014778580516577,2.224342107772827,3.874964399928711,-0.0003034364490304142,0.31527334451675415,-1.6733863989459437,-0.0,-0.009086367674171925,1.3203314542770386,-0.0,-0.00849003903567791,0.7030839323997498,0.019647451117634773,0.05105302482843399
124.0,177.0,5.6399,-3.3637,6.3793,-0.0304,0.0189,-0.1106,-1.8789407215514125,-3.735340214916505e-05,3.4940686225891113,-1.191754698753357,0.0003757870872505009,2.2091407775878906,3.87498061239209,-0.0003057723806705326,0.3100702166557312,-1.6733506361590784,-0.0,-0.0029528746381402016,1.320399284362793,-0.0,-0.022529784590005875,0.7032603025436401,0.020379023626446724,0.021032914519309998
124.0,177.0,5.6399,-3.3637,6.3793,-0.0304,0.0189,-0.1106,-1.878993650475973,-3.6748970160260797e-05,3.5249452590942383,-1.1918026208877563,0.0002254372666357085,2.2172188758850098,3.874993010158203,-0.0003283857076894492,0.30169785022735596,-1.6733625570880335,-0.0,0.004045275505632162,1.320387363433838,-0.0,-0.013302458450198174,0.7033920884132385,0.02020968869328499,0.057292334735393524
124.0,177.0,5.6399,-3.3637,6.3793,-0.0304,0.0189,-0.1106,-1.8789369068541468,-4.702184014604427e-05,3.49552059173584,-1.1918187141418457,0.00018971128156408668,2.228637933731079,3.8749448496052246,-0.0003840945428237319,0.3063381016254425,-1.6733468214618128,-0.0,-0.006122515071183443,1.320387363433838,-0.0,-0.01762377843260765,0.7035240530967712,0.022644853219389915,0.046036869287490845
124.0,177.0,5.6399,-3.3637,6.3793,-0.0304,0.0189,-0.1106,-1.8789283237852992,-3.0225502996472642e-05,3.471477508544922,-1.1918187141418457,0.00016381122986786067,2.2490508556365967,3.8749005037495117,-0.00037640362279489636,0.3021187484264374,-1.6733782927142542,-0.0,-0.014677588827908039,1.320379376411438,-0.0,-0.01801130920648575,0.7036600112915039,0.024704474955797195,0.04547012969851494
124.0,177.0,5.6399,-3.3637,6.3793,-0.0304,0.0189,-0.1106,-1.8790136776366175,-3.9678445318713784e-05,3.4965672492980957,-1.1918026208877563,0.00013858564489055425,2.2275354862213135,3.874936266536377,-0.0003538464370649308,0.3110220432281494,-1.6733387152301233,-0.0,-0.0008875888306647539,1.320351481437683,-0.0,-0.012944133020937443,0.7038801908493042,0.027587290853261948,0.024276427924633026
124.0,177.0,5.6399,-3.3637,6.3793,-0.0304,0.0189,-0.1106,-1.8789049587645472,-3.8168946048244834e-05,3.50665545463562,-1.1918269395828247,0.000124236976262182,2.2223358154296875,3.8749567705341796,-0.0003041254822164774,0.3164384365081787,-1.6733782927142542,-0.0,0.010880098678171635,1.3203554153442383,-0.0,-0.03184742107987404,0.7039757370948792,0.029004845768213272,-0.0020652757957577705
124.0,177.0,5.6399,-3.3637,6.3793,-0.0304,0.0189,-0.1106,-1.8789569340147914,-3.661612936411984e-05,3.5380773544311523,-1.1918187141418457,0.00011258118320256472,2.216360330581665,3.874952955836914,-0.00026564524159766734,0.30322495102882385,-1.6733663717852991,-0.0,0.0013163139810785651,1.320391297340393,-0.0,-0.022019896656274796,0.7041919231414795,0.029793865978717804,-0.0034710802137851715
124.0,177.0,5.6399,-3.3637,6.3793,-0.0304,0.0189,-0.1106,-1.8789612255492152,-4.630942567018792e-05,3.537879705429077,-1.1917784214019775,0.0001000639094854705,2.20717716217041,3.8749043184467773,-0.00022730098862666637,0.3114985227584839,-1.6733344236956995,-3.717655161494804e-08,0.0033991774544119835,1.320351481437683,-0.0,-0.012999447993934155,0.7044841051101685,0.03004709631204605,-0.035866204649209976
124.0,177.0,5.6399,-3.3637,6.3793,-0.0304,0.0189,-0.1106,-1.8789893589415492,-4.458875264390372e-05,3.5305817127227783,-1.1918071508407593,9.236209007212892e-05,2.1746268272399902,3.874952955836914,-0.00020509836031123996,0.3024183511734009,-1.673354450856344,-1.034823095269477e-11,0.011769665405154228,1.3203716278076172,-0.0,-0.021957524120807648,0.7046118974685669,0.030084708705544472,0.038229621946811676
122.0,180.0,5.7691,-2.924,6.5175,0.0215,-0.015,-0.0997,-1.878976961175436,-5.007026993553154e-05,3.5129120349884033,-1.191814661026001,2.4128781660692766e-05,2.2216200828552246,3.8749801355549316,-0.00018684794486034662,0.30207765102386475,-1.6733387152301233,-2.8804685213109672e-15,-0.010424220934510231,1.3203635215759277,-0.0,-0.014450747519731522,0.7048560380935669,0.02970077469944954,0.011469614692032337
122.0,180.0,5.7691,-2.924,6.5175,0.0215,-0.015,-0.0997,-1.8789521656432093,-0.0001384975912515074,3.5267863273620605,-1.1917225122451782,2.1791505787405185e-05,2.2273197174072266,3.8749448496052246,-0.00016703091387171298,0.3073181211948395,-1.673342529927389,-5.235109774574472e-20,-0.0029440061189234257,1.3203554153442383,-0.0,-0.03575156629085541,0.7050677537918091,0.02845750004053116,0.028254292905330658
122.0,180.0,5.7691,-2.924,6.5175,0.0215,-0.015,-0.0997,-1.8789564571776332,-0.00019696865638252348,3.5395946502685547,-1.1917866468429565,2.0315750589361414e-05,2.152858257293701,3.8750006395527343,-6.269464211072773e-05,0.3118668496608734,-1.6733744780169886,-1.457211947572479e-23,-0.009696563705801964,1.320399522781372,-0.0,-0.03595949709415436,0.7052397727966309,0.027382539585232735,0.0481579527258873
122.0,180.0,5.7691,-2.924,6.5175,0.0215,-0.015,-0.0997,-1.878988882104391,-0.00023636824334971607,3.497612953186035,-1.1918187141418457,1.9027294911211357e-05,2.2045345306396484,3.8749324518391113,-5.410120138549246e-05,0.3105640411376953,-1.6733782927142542,-4.056202981803902e-27,0.0018568546511232853,1.320347547531128,-4.209981909752969e-07,-0.04273516684770584,0.7054117918014526,0.025355810299515724,0.01904941163957119
122.0,180.0,5.7691,-2.924,6.5175,0.0215,-0.015,-0.0997,-1.8789850674071253,-0.0006101594190113246,3.5628814697265625,-1.191839337348938,3.3035259548341855e-05,2.234626293182373,3.8749963480183105,-4.829385215998627e-05,0.305924654006958,-1.6733782927142542,-7.371948251972861e-32,-0.012061124667525291,1.3203554153442383,-7.651434173749916e-12,-0.02474471926689148,0.7055875658988953,0.02308332733809948,0.008574258536100388
122.0,180.0,5.7691,-2.924,6.5175,0.0215,-0.015,-0.0997,-1.878976961175436,-0.0006497643771581352,3.5396223068237305,-1.1917908191680908,3.314886998850852e-05,2.191784620285034,3.8750244814106445,-4.4696033000946045e-05,0.31750744581222534,-1.673370663319723,-2.052008916859656e-35,-0.0010026951786130667,1.3203635215759277,-2.1298046300481568e-15,-0.03719985485076904,0.7057517766952515,0.019528739154338837,0.04665228724479675
122.0,180.0,5.7691,-2.924,6.5175,0.0215,-0.015,-0.0997,-1.8790294132628382,-0.0006722498219460249,3.518465042114258,-1.1918067932128906,4.7046738473000005e-05,2.1914706230163574,3.87498061239209,-4.159717354923487e-05,0.31567615270614624,-1.6733668486224573,-5.711841078225173e-39,-0.008752111345529556,1.320359468460083,-5.928390008482595e-19,-0.03980139642953873,0.7058514952659607,0.017041752114892006,-0.017009390518069267
122.0,180.0,5.7691,-2.924,6.5175,0.0215,-0.015,-0.0997,-1.8789850674071253,-0.0007447607931680977,3.563960075378418,-1.1918187141418457,5.8727200666908175e-05,2.180454730987549,3.874920530910156,-3.8077239878475666e-05,0.31923848390579224,-1.673354450856344,-1.0369608636003646e-43,-0.00477485079318285,1.3203229904174805,-1.0774556488626227e-23,-0.04345543310046196,0.70600426197052,0.015408895909786224,-0.0036147069185972214
122.0,180.0,5.7691,-2.924,6.5175,0.0215,-0.015,-0.0997,-1.8790246448912562,-0.0009022803860716522,3.5121572017669678,-1.1918026208877563,0.0001512923918198794,2.206233024597168,3.8749124246784667,-3.5804918297799304e-05,0.3104808032512665,-1.6733506361590784,-0.0,-0.012097042053937912,1.3203431367874146,-2.999137650306507e-27,-0.04174264520406723,0.706095814704895,0.01355587039142847,-0.0306597538292408
122.0,180.0,5.7691,-2.924,6.5175,0.0215,-0.015,-0.0997,-1.8790246448912562,-0.001098457258194685,3.509275197982788,-1.1917505264282227,0.00016381009481847286,2.211775302886963,3.8749682146259765,-3.378853580215946e-05,0.30796733498573303,-1.6733468214618128,-0.0,0.007760087959468365,1.3203272819519043,-8.34821041626298e-31,-0.0413426011800766,0.7061439156532288,0.011255986988544464,0.0541466623544693
122.0,180.0,5.7691,-2.924,6.5175,0.0215,-0.015,-0.0997,-1.8790976009764613,-0.0012696257326751947,3.5115840435028076,-1.1917792558670044,0.0001713436795398593,2.2537648677825928,3.8748885828205566,-3.142867353744805e-05,0.32576805353164673,-1.673354450856344,-0.0,-0.0007084277458488941,1.3203556537628174,-1.5172459439709399e-35,-0.05085955187678337,0.7062114477157593,0.009267600253224373,-0.025450021028518677
122.0,180.0,5.7691,-2.924,6.5175,0.0215,-0.015,-0.0997,-1.8790489635863246,-0.0015461485600098968,3.5624330043792725,-1.191743016242981,0.00018025233293883502,2.2047033309936523,3.874952478999756,-2.986434083140921e-05,0.3163658380508423,-1.6733506361590784,-0.0,-0.00010638218373060226,1.3203309774398804,-0.00016350486839655787,-0.04781864956021309,0.706235408782959,0.008205321617424488,0.006266642361879349
122.0,180.0,5.7691,-2.924,6.5175,0.0215,-0.015,-0.0997,-1.8790484867491664,-0.0016116154147312045,3.5063681602478027,-1.1917462348937988,0.00016844700439833105,2.2123303413391113,3.875008745784424,-2.844834489224013e-05,0.317526638507843,-1.6733663717852991,-0.0,-0.00416758144274354,1.3203392028808594,-0.00014955041115172207,-0.043747808784246445,0.7063275575637817,0.006546584889292717,-0.003263492602854967
123.0,183.0,5.1272,-3.3021,7.0505,-0.0397,0.0255,-0.1115,-1.8790770969786585,-0.0018114640843123198,3.5071725845336914,-1.1917349100112915,0.00015403256111312658,2.2036454677581787,3.874924345607422,-2.675680116226431e-05,0.3233359158039093,-1.6733663717852991,-0.0,-0.00019189511658623815,1.320347547531128,-0.0001320016017416492,-0.048932209610939026,0.7063835859298706,0.004964667838066816,0.016749287024140358
123.0,183.0,5.1272,-3.3021,7.0505,-0.0397,0.0255,-0.1115,-1.8790890179076136,-0.002077185781672597,3.526569366455078,-1.1917834281921387,0.00014474296767730266,2.186588764190674,3.874957247371338,-2.5614528567530215e-05,0.3184655010700226,-1.6733782927142542,-0.0,-0.00036152638494968414,1.3203151226043701,-0.00012132414849475026,-0.04126261547207832,0.7063714861869812,0.004120996221899986,0.010889298282563686
123.0,183.0,5.1272,-3.3021,7.0505,-0.0397,0.0255,-0.1115,-1.8791052303709925,-0.0018961875466629863,3.537797451019287,-1.1918067932128906,0.00013651001791004092,2.206244707107544,3.874960108394287,-2.456579932186287e-05,0.3039124310016632,-1.6733663717852991,-0.0,-0.012312284670770168,1.3203635215759277,-0.00011224499758100137,-0.04729007929563522,0.7063674330711365,0.00399401132017374,-0.004989206790924072
123.0,183.0,5.1272,-3.3021,7.0505,-0.0397,0.0255,-0.1115,-1.8791409931578578,-0.001954834908246994,3.486422538757324,-1.1917710304260254,0.00012688730203080922,2.2073988914489746,3.8750006395527343,-1.1650456144707277e-05,0.3101123869419098,-1.6733267943011683,-0.0,-0.015479613095521927,1.320347547531128,-0.00010206147999269888,-0.03816056251525879,0.7064634561538696,0.004116212483495474,0.016027357429265976
123.0,183.0,5.1272,-3.3021,7.0505,-0.0397,0.0255,-0.1115,-1.8791123829283656,-0.002246212214231491,3.485738754272461,-1.191823124885559,0.00012051566591253504,2.14298677444458,3.8749686914631347,-1.1211803212063387e-05,0.3192491829395294,-1.6733625570880335,-0.0,-0.0058267805725336075,1.3203673362731934,-9.555928409099579e-05,-0.04949340224266052,0.7064714431762695,0.004461911506950855,-0.01250979583710432
123.0,183.0,5.1272,-3.3021,7.0505,-0.0397,0.0255,-0.1115,-1.8791409931578578,-0.002920690458267927,3.455881118774414,-1.191750407218933,0.0001271284418180585,2.1815505027770996,3.874988241786621,-4.7209528730718375e-08,0.32966917753219604,-1.673354450856344,-0.0,0.000660379882901907,1.320339560508728,-8.983600127976388e-05,-0.03476469963788986,0.7065156102180481,0.0049875229597091675,-0.005092829465866089
123.0,183.0,5.1272,-3.3021,7.0505,-0.0397,0.0255,-0.1115,-1.879221101800436,-0.003087224904447794,3.4565606117248535,-1.1917911767959595,0.0001142212058766745,2.204988479614258,3.8749963480183105,-8.580097353091953e-13,0.30171701312065125,-1.6733863989459437,-0.0,0.00566563755273819,1.3203554153442383,-6.711616879329085e-05,-0.03294992446899414,0.706519365310669,0.005706280004233122,-0.029933469370007515
123.0,183.0,5.1272,-3.3021,7.0505,-0.0397,0.0255,-0.1115,-1.8791843853392542,-0.0030602370388805866,3.4391324520111084,-1.1917705535888672,0.00010613902850309387,2.1829841136932373,3.875004931087158,-2.3883017743143097e-16,0.31563717126846313,-1.6733306089984339,-0.0,-0.005892367567867041,1.3203431367874146,-6.305691204033792e-05,-0.05721629410982132,0.7065715789794922,0.006005496717989445,-0.034639038145542145
123.0,183.0,5.1272,-3.3021,7.0505,-0.0397,0.0255,-0.1115,-1.8792811832823695,-0.00367482821457088,3.416287422180176,-1.1917747259140015,9.912499808706343e-05,2.1715195178985596,3.875044985408447,-6.64792456729224e-20,0.3118308484554291,-1.6733625570880335,-0.0,-0.007280806079506874,1.3203716278076172,-5.990866702632047e-05,-0.03464261442422867,0.7066034078598022,0.006892049685120583,-0.026714451611042023
123.0,183.0,5.1272,-3.3021,7.0505,-0.0397,0.0255,-0.1115,-1.879244943658346,-0.0047241756692528725,3.451348304748535,-1.1917948722839355,9.109828533837572e-05,2.2390854358673096,3.8750406938740234,-1.2082276454760065e-24,0.3218768835067749,-1.6733625570880335,-0.0,-0.012968931347131729,1.3203753232955933,-5.616969065158628e-05,-0.036377936601638794,0.706687331199646,0.007932703010737896,0.003329876810312271
123.0,183.0,5.1272,-3.3021,7.0505,-0.0397,0.0255,-0.1115,-1.8793093166747035,-0.005746794864535332,3.4151387214660645,-1.1917989253997803,8.588245691498742e-05,2.1925532817840576,3.8750201898762207,-3.3631460172189748e-28,0.32858288288116455,-1.6733587423907679,-0.0,0.006942279636859894,1.320339560508728,-5.365807737689465e-05,-0.0338284969329834,0.7067233324050903,0.008890095166862011,-0.012748172506690025
123.0,183.0,5.1272,-3.3021,7.0505,-0.0397,0.0255,-0.1115,-1.8793045483031214,-0.006470121908932924,3.3652491569519043,-1.1917307376861572,9.746907744556665e-05,2.2006351947784424,3.8749562936970214,-9.361441290139286e-32,0.31792372465133667,-1.6733587423907679,-0.0,-0.006409184075891972,1.3203271627426147,-2.0815276002394967e-05,-0.03606456518173218,0.7068154215812683,0.010213544592261314,-0.0330345518887043
123.0,183.0,5.1272,-3.3021,7.0505,-0.0397,0.0255,-0.1115,-1.8794008694090785,-0.006663940846920013,3.329671859741211,-1.1917948722839355,0.0001008871040539816,2.2263951301574707,3.874988241786621,-1.7013957005571272e-36,0.32453158497810364,-1.6733587423907679,-0.0,-0.012491518631577492,1.3203033208847046,-1.8611228369991295e-05,-0.04399823397397995,0.7068713903427124,0.011961503885686398,-0.019944950938224792
123.0,183.0,5.1272,-3.3021,7.0505,-0.0397,0.0255,-0.1115,-1.8794733486571253,-0.007011997047811747,3.3067333698272705,-1.1917462348937988,0.00010096624464495108,2.214217185974121,3.874988241786621,-4.735898354955368e-40,0.3188267946243286,-1.6733387152301233,-0.0,-0.009569497779011726,1.3203835487365723,-1.752404023136478e-05,-0.049305230379104614,0.7069633603096008,0.012790023349225521,0.022511551156640053
118.0,182.0,5.1452,-3.408,6.8961,-0.0318,0.0061,-0.1095,-1.8795010052123011,-0.008338256739079952,3.2899508476257324,-1.1917788982391357,0.00011009679292328656,2.179306983947754,3.874981089229248,-1.317220556465328e-43,0.32542943954467773,-1.6733267943011683,-0.0,-0.0033685113303363323,1.3203634023666382,-1.6556870832573622e-05,-0.05704303830862045,0.7070478796958923,0.014153723604977131,0.004494575783610344
118.0,182.0,5.1452,-3.408,6.8961,-0.0318,0.0061,-0.1095,-1.879568716088766,-0.009768614545464516,3.2518556118011475,-1.1917710304260254,0.00010382653272245079,2.168766975402832,3.8750077921101074,-0.0,0.32537516951560974,-1.6733349005328577,-0.0,-0.006093368865549564,1.3203192949295044,-3.0323881219374016e-05,-0.07143723219633102,0.7071513533592224,0.01492970623075962,-0.0005452539771795273
118.0,182.0,5.1452,-3.408,6.8961,-0.0318,0.0061,-0.1095,-1.8796330891051234,-0.011052476242184639,3.240478515625,-1.1917747259140015,0.00011380846990505233,2.211151599884033,3.875012083644531,-0.0,0.3017673194408417,-1.673354450856344,-0.0,-0.001959504559636116,1.3203517198562622,-2.9335817089304328e-05,-0.052674300968647,0.7072561383247375,0.015504857525229454,0.012226682156324387
118.0,182.0,5.1452,-3.408,6.8961,-0.0318,0.0061,-0.1095,-1.8797294102110804,-0.012418658472597599,3.256032943725586,-1.1917184591293335,0.00010578255023574457,2.204329490661621,3.874976797694824,-0.0,0.3116093873977661,-1.673370663319723,-0.0,0.004057091660797596,1.3203637599945068,-3.4856133424909785e-05,-0.06253176927566528,0.7073274254798889,0.015522397123277187,-0.010990803129971027
118.0,182.0,5.1452,-3.408,6.8961,-0.0318,0.0061,-0.1095,-1.879824777642721,-0.014353921636939049,3.2171449661254883,-1.1918030977249146,0.00013533615856431425,2.1276915073394775,3.874924345607422,-0.0,0.3124501705169678,-1.673370663319723,-0.0,0.019111109897494316,1.320339560508728,-3.949769961764105e-05,-0.06805738061666489,0.707451343536377,0.015802420675754547,0.02956852689385414
118.0,182.0,5.1452,-3.408,6.8961,-0.0318,0.0061,-0.1095,-1.8799125156798304,-0.01566009782254696,3.154597282409668,-1.1917752027511597,0.0003227672423236072,2.168215274810791,3.875048800105713,-0.0,0.3133055567741394,-1.6733506361590784,-0.0,0.004511246457695961,1.3203436136245728,-3.783725333050825e-05,-0.05307101458311081,0.7075433731079102,0.015701115131378174,-0.009138046763837337
118.0,182.0,5.1452,-3.408,6.8961,-0.0318,0.0061,-0.1095,-1.8800326786436976,-0.01751313917338848,3.2195725440979004,-1.1917792558670044,0.0003942723269574344,2.1821072101593018,3.874992533321045,-0.0,0.32646700739860535,-1.673354450856344,-0.0,0.016428232192993164,1.320359706878662,-4.836130392504856e-05,-0.05177665501832962,0.7076309323310852,0.015366298146545887,0.009761829860508442
118.0,182.0,5.1452,-3.408,6.8961,-0.0318,0.0061,-0.1095,-1.8801723919310511,-0.019340215250849724,3.1453304290771484,-1.1917225122451782,0.0007061978685669601,2.1776630878448486,3.8750244814106445,-0.0,0.31326860189437866,-1.6733387152301233,-0.0,-0.00859627965837717,1.3203755617141724,-4.5942881115479395e-05,-0.061035193502902985,0.707767128944397,0.01636749878525734,-0.0062912628054618835
118.0,182.0,5.1452,-3.408,6.8961,-0.0318,0.0061,-0.1095,-1.8802563152708949,-0.020746082067489624,3.134580612182617,-1.1918232440948486,0.0006564283394254744,2.1621248722076416,3.874936743373535,-0.0,0.30719977617263794,-1.6732986609088343,-0.0,0.0052033681422472,1.3203113079071045,-4.4248812628211454e-05,-0.04817716032266617,0.7078791260719299,0.01694580167531967,-0.024605896323919296
118.0,182.0,5.1452,-3.408,6.8961,-0.0318,0.0061,-0.1095,-1.8804003200926722,-0.02220981940627098,3.1094045639038086,-1.1917431354522705,0.0005684024072252214,2.128706932067871,3.874981089229248,-0.0,0.31192052364349365,-1.673354450856344,-0.0,0.005837305914610624,1.3202991485595703,-9.174150909529999e-05,-0.06351090222597122,0.7079710960388184,0.018384508788585663,0.004205633420497179
118.0,182.0,5.1452,-3.408,6.8961,-0.0318,0.0061,-0.1095,-1.8806082210936488,-0.0237809456884861,3.139708995819092,-1.191743016242981,0.000603959895670414,2.1440606117248535,3.874992533321045,-0.0,0.3072502315044403,-1.6733110586749476,-0.0,0.013821306638419628,1.3202991485595703,-9.931513341143727e-05,-0.06508967280387878,0.7081311941146851,0.021103983744978905,0.010645698755979538
118.0,182.0,5.1452,-3.408,6.8961,-0.0318,0.0061,-0.1095,-1.880740304986471,-0.025510888546705246,3.1012392044067383,-1.1917388439178467,0.0006556863663718104,2.156085968017578,3.874983950252197,-0.0,0.3158850371837616,-1.6733148733722132,-0.0,0.010805106721818447,1.3203152418136597,-9.31478789425455e-05,-0.054485589265823364,0.7082996964454651,0.023040998727083206,0.06854862719774246
118.0,182.0,5.1452,-3.408,6.8961,-0.0318,0.0061,-0.1095,-1.8809486828246058,-0.02762371301651001,3.100396156311035,-1.191715121269226,0.0005635701236315072,2.188413143157959,3.8749520021625976,-0.0,0.32416966557502747,-1.673354450856344,-0.0,0.019955575466156006,1.3203716278076172,-8.770155545789748e-05,-0.06351425498723984,0.708419144153595,0.025294454768300056,0.016295555979013443
118.0,182.0,5.1452,-3.408,6.8961,-0.0318,0.0061,-0.1095,-1.8811565838255824,-0.029645651578903198,3.1340384483337402,-1.191734790802002,0.00047595304204151034,2.16731595993042,3.875016375178955,-0.0,0.3154639005661011,-1.6733148733722132,-0.0,0.009320870973169804,1.3203636407852173,-8.936794620240107e-05,-0.05476135015487671,0.7086596488952637,0.02876402623951435,0.013499146327376366
117.0,180.0,4.7438,-3.7609,6.9296,-0.0515,-0.0209,-0.0938,-1.8813477955260218,-0.03227227181196213,3.0730578899383545,-1.1917554140090942,0.00043381142313592136,2.2055280208587646,3.874964399928711,-0.0,0.31642311811447144,-1.673370663319723,8.072462378549972e-07,0.024641115218400955,1.3203511238098145,-9.260547813028097e-05,-0.06535646319389343,0.7088229060173035,0.03299945592880249,0.04455557465553284
117.0,180.0,4.7438,-3.7609,6.9296,-0.0515,-0.0209,-0.0938,-1.8814918003477992,-0.03356888145208359,3.0917553901672363,-1.191691279411316,0.00040789777995087206,2.1335926055908203,3.875012083644531,-0.0,0.31370118260383606,-1.6733349005328577,2.2469999472196633e-10,0.01219933945685625,1.3203232288360596,-8.8076303654816e-05,-0.05486215651035309,0.7090190649032593,0.03759962320327759,0.050694242119789124
117.0,180.0,4.7438,-3.7609,6.9296,-0.0515,-0.0209,-0.0938,-1.881831785241598,-0.03598872944712639,3.064488172531128,-1.1917388439178467,0.00041625957237556577,2.1844310760498047,3.875012083644531,-0.0,0.315840482711792,-1.6733105818377894,4.0838109600254725e-15,0.013678869232535362,1.3202991485595703,-8.268193050753325e-05,-0.06640434265136719,0.7092823386192322,0.04468898847699165,0.0870504230260849
117.0,180.0,4.7438,-3.7609,6.9296,-0.0515,-0.0209,-0.0938,-1.882031580010885,-0.03806872293353081,3.0595040321350098,-1.1917709112167358,0.0005006686551496387,2.1386444568634033,3.875032587642334,-0.0,0.31663763523101807,-1.6733148733722132,1.1367437544166836e-18,0.018994977697730064,1.3203390836715698,-7.905076199676841e-05,-0.0676121786236763,0.7096388339996338,0.05029565840959549,0.0535171702504158
117.0,180.0,4.7438,-3.7609,6.9296,-0.0515,-0.0209,-0.0938,-1.882280012170309,-0.040477145463228226,3.1130125522613525,-1.1917355060577393,0.0009064332698471844,2.200470209121704,3.8749801355549316,-0.0,0.31614863872528076,-1.6733267943011683,3.1641677914070674e-22,0.006826385855674744,1.3203113079071045,-7.572511822218075e-05,-0.053069598972797394,0.709951639175415,0.05203418433666229,0.03632671386003494
117.0,180.0,4.7438,-3.7609,6.9296,-0.0515,-0.0209,-0.0938,-1.8825751743712367,-0.04444810748100281,3.0602757930755615,-1.1916592121124268,0.0016794982366263866,2.1491799354553223,3.8750006395527343,-0.0,0.3173673450946808,-1.6733186880694788,5.7507193470493894e-27,0.022340212017297745,1.3203110694885254,-7.170312892412767e-05,-0.0658545270562172,0.7103426456451416,0.05591731145977974,0.02329295501112938
