ramyac6/ROB537/final_project/csv/good/good_95.csv
tof_0,tof_1,accelx,accely,accelz,gyrox,gyroy,gyroz,shoulder_lift_joint_position,shoulder_lift_joint_velocity,shoulder_lift_joint_effort,elbow_joint_position,elbow_joint_velocity,elbow_joint_effort,wrist_1_joint_position,wrist_1_joint_velocity,wrist_1_joint_effort,wrist_2_joint_position,wrist_2_joint_velocity,wrist_2_joint_effort,wrist_3_joint_position,wrist_3_joint_velocity,wrist_3_joint_effort,shoulder_pan_joint_position,shoulder_pan_joint_velocity,shoulder_pan_joint_effort
156.0,132.0,-0.6275,1.7228,9.5486,-0.0437,0.0255,-0.1203,-2.330688615838522,0.0,5.165212631225586,-0.9408233761787415,-0.0,2.211441993713379,4.675362749690674,0.0,0.27176398038864136,-1.60746938387026,0.0,0.009664317592978477,-0.4390752951251429,0.0,0.0013193644117563963,1.4296813011169434,0.0,-0.050286564975976944
156.0,132.0,-0.6275,1.7228,9.5486,-0.0437,0.0255,-0.1203,-2.3307324848570765,0.0,5.1645965576171875,-0.9408555626869202,-0.0,2.176401138305664,4.675354643458984,0.0,0.28216859698295593,-1.6075180212603968,0.0,-0.006439207587391138,-0.43901139894594365,0.0,-0.005595302674919367,1.4297581911087036,0.0,0.00010388484224677086
156.0,132.0,-0.6275,1.7228,9.5486,-0.0437,0.0255,-0.1203,-2.3307038746275843,0.0,5.141969203948975,-0.9409164190292358,-0.0,2.192319869995117,4.675362749690674,0.0,0.27635931968688965,-1.6074941794024866,0.0,-0.014036396518349648,-0.43907148042787725,0.0,0.012602011673152447,1.4297258853912354,0.0,0.0334579274058342
156.0,132.0,-0.6275,1.7228,9.5486,-0.0437,0.0255,-0.1203,-2.3306523762144984,0.0,5.0808563232421875,-0.9408595561981201,-0.0,2.194762945175171,4.675362749690674,0.0,0.2699546813964844,-1.6075099150287073,0.0,-0.0024130544625222683,-0.4390519301043909,0.0,-0.0019078267505392432,1.4297418594360352,0.0,0.0006086487555876374
156.0,132.0,-0.6275,1.7228,9.5486,-0.0437,0.0255,-0.1203,-2.330680032769674,0.0,5.132174968719482,-0.9408555030822754,-0.0,2.1623027324676514,4.675378962154053,0.0,0.2783004939556122,-1.607485596333639,0.0,-0.005780625157058239,-0.4390633741961878,0.0,0.0003572434652596712,1.4297099113464355,0.0,0.020610878244042397
156.0,132.0,-0.6275,1.7228,9.5486,-0.0437,0.0255,-0.1203,-2.3306919536986292,0.0,5.1264801025390625,-0.9408674240112305,-0.0,2.127777099609375,4.675342722530029,0.0,0.27874964475631714,-1.6074731985675257,0.0,0.0015244510723277926,-0.4390752951251429,0.0,-0.004610490053892136,1.4297581911087036,0.0,-0.007485615089535713
156.0,132.0,-0.6275,1.7228,9.5486,-0.0437,0.0255,-0.1203,-2.330696245233053,0.0,5.140720844268799,-0.9408193230628967,-0.0,2.1770591735839844,4.675346537227295,0.0,0.2775932252407074,-1.607485596333639,0.0,-0.0014261894393712282,-0.4390834013568323,0.0,-0.0010998540092259645,1.4297058582305908,0.0,-0.0378250889480114
156.0,132.0,-0.6275,1.7228,9.5486,-0.0437,0.0255,-0.1203,-2.3306919536986292,0.0,5.150322914123535,-0.9408555030822754,-0.0,2.1451189517974854,4.67535845815625,0.0,0.2764003574848175,-1.6074655691729944,0.0,-0.006018195301294327,-0.43905574480165654,0.0,-0.002915526507422328,1.4297499656677246,0.0,0.0009160893969237804
157.0,132.0,-0.615,1.6863,9.5773,-0.0377,0.02,-0.1225,-2.3307000599303187,0.0,5.149250030517578,-0.9408751726150513,-0.0,2.178859233856201,4.675367041225098,0.0,0.27924537658691406,-1.60746938387026,0.0,-0.0077299689874053,-0.43907148042787725,0.0,0.015565312467515469,1.4297295808792114,0.0,-0.025959253311157227
157.0,132.0,-0.615,1.6863,9.5773,-0.0377,0.02,-0.1225,-2.330736299554342,0.0,5.159266471862793,-0.9408555030822754,-0.0,2.13543438911438,4.675374670619629,0.0,0.26822328567504883,-1.6074731985675257,0.0,0.006123904138803482,-0.439035717641012,0.0,-0.0018916435074061155,1.4296977519989014,0.0,0.018086137250065804
157.0,132.0,-0.615,1.6863,9.5773,-0.0377,0.02,-0.1225,-2.330672403375143,0.0,5.136138439178467,-0.9409155249595642,-0.0,2.145840644836426,4.675354643458984,0.0,0.27422475814819336,-1.6075018087970179,0.0,-0.006296879146248102,-0.4390676657306116,0.0,-0.005704802460968494,1.4297058582305908,0.0,-0.025960203260183334
157.0,132.0,-0.615,1.6863,9.5773,-0.0377,0.02,-0.1225,-2.330668111840719,0.0,5.138019561767578,-0.9408233761787415,-0.0,2.172203302383423,4.675358934993408,0.0,0.26518121361732483,-1.6075061003314417,0.0,-0.005947583355009556,-0.4390795866595667,0.0,0.0026166022289544344,1.4297099113464355,0.0,-0.023238126188516617
157.0,132.0,-0.615,1.6863,9.5773,-0.0377,0.02,-0.1225,-2.3307205639281214,0.0,5.1297454833984375,-0.940863311290741,-0.0,2.166282892227173,4.675407572383545,0.0,0.2674925625324249,-1.6075099150287073,0.0,-0.0009414353407919407,-0.43907148042787725,0.0,-0.0034828484058380127,1.429701805114746,0.0,-0.0015850439667701721
157.0,132.0,-0.615,1.6863,9.5773,-0.0377,0.02,-0.1225,-2.3306766949095667,0.0,5.158000946044922,-0.9408151507377625,-0.0,2.2028579711914062,4.675378962154053,0.0,0.27086201310157776,-1.6074941794024866,0.0,-0.008702170103788376,-0.4390476385699671,0.0,0.004462091252207756,1.4297176599502563,0.0,-0.009329895488917828
157.0,132.0,-0.615,1.6863,9.5773,-0.0377,0.02,-0.1225,-2.3306919536986292,0.0,5.18032693862915,-0.9408354163169861,-0.0,2.1407310962677,4.6753551202961425,0.0,0.27186501026153564,-1.6075180212603968,0.0,-0.010920652188360691,-0.4390519301043909,0.0,0.004133846610784531,1.4297541379928589,0.0,0.007665840908885002
157.0,132.0,-0.615,1.6863,9.5773,-0.0377,0.02,-0.1225,-2.3306719265379847,0.0,5.146191120147705,-0.9408674240112305,-0.0,2.1639115810394287,4.675346537227295,0.0,0.2775970697402954,-1.6074817816363733,0.0,0.0030798371881246567,-0.4389999548541468,0.0,0.00903744250535965,1.429685354232788,0.0,0.014891304075717926
157.0,132.0,-0.615,1.6863,9.5773,-0.0377,0.02,-0.1225,-2.3307324848570765,0.0,5.132210731506348,-0.940863311290741,-0.0,2.146454095840454,4.675399466151855,0.0,0.28815555572509766,-1.60746938387026,0.0,0.010924023576080799,-0.4390195051776331,0.0,0.0010934104211628437,1.4297258853912354,0.0,-0.004122353624552488
157.0,132.0,-0.615,1.6863,9.5773,-0.0377,0.02,-0.1225,-2.3306762180724085,0.0,5.155569553375244,-0.9408957958221436,-0.0,2.1573052406311035,4.675391359920166,0.0,0.2721630930900574,-1.60744554201235,0.0,-0.0043104649521410465,-0.4390676657306116,0.0,0.004197471775114536,1.4297418594360352,0.0,0.03133975714445114
157.0,132.0,-0.615,1.6863,9.5773,-0.0377,0.02,-0.1225,-2.330696245233053,0.0,5.15397834777832,-0.9408354163169861,-0.0,2.184696912765503,4.675354643458984,0.0,0.27894651889801025,-1.607502285634176,0.0,-0.008387412875890732,-0.4390676657306116,0.0,-0.013827822171151638,1.4297139644622803,0.0,-0.02123163640499115
157.0,132.0,-0.615,1.6863,9.5773,-0.0377,0.02,-0.1225,-2.3306881390013636,0.0,5.174904823303223,-0.940883457660675,-0.0,2.1369035243988037,4.675346537227295,0.0,0.2676824927330017,-1.6075018087970179,0.0,-0.006103013642132282,-0.43901139894594365,0.0,-0.01060431357473135,1.429774284362793,0.0,0.03862105309963226
157.0,132.0,-0.615,1.6863,9.5773,-0.0377,0.02,-0.1225,-2.3307401142516078,0.0,5.114633083343506,-0.9408875107765198,-0.0,2.194183111190796,4.675375147456787,0.0,0.2738584876060486,-1.6074731985675257,0.0,-0.008276623673737049,-0.43908721605409795,0.0,0.010654613375663757,1.4297502040863037,0.0,-0.0018731122836470604
157.0,132.0,-0.615,1.6863,9.5773,-0.0377,0.02,-0.1225,-2.3306762180724085,0.0,5.130770683288574,-0.9408833980560303,-0.0,2.190091133117676,4.675342722530029,0.0,0.2759086787700653,-1.6075018087970179,0.0,-0.020659539848566055,-0.4390752951251429,0.0,0.0006551455007866025,1.4296811819076538,0.0,0.006530052982270718
158.0,132.0,-0.6072,1.7204,9.591,-0.0345,0.0195,-0.0794,-2.3307205639281214,0.0,5.1482648849487305,-0.9408916234970093,-0.0,2.188227653503418,4.675367041225098,0.0,0.2607298493385315,-1.6075099150287073,0.0,-0.004571342840790749,-0.439035717641012,0.0,-0.00841943733394146,1.4297058582305908,0.0,-0.006517280824482441
158.0,132.0,-0.6072,1.7204,9.591,-0.0345,0.0195,-0.0794,-2.3307043514647425,0.0,5.134517192840576,-0.9408316612243652,-0.0,2.213217258453369,4.675326033229492,0.0,0.2764207422733307,-1.6075261274920862,0.0,-0.009769508615136147,-0.43905574480165654,0.0,-0.004132125526666641,1.429709553718567,0.0,0.020826857537031174
158.0,132.0,-0.6072,1.7204,9.591,-0.0345,0.0195,-0.0794,-2.3307324848570765,0.0,5.133408546447754,-0.9408674240112305,-0.0,2.147644519805908,4.675334139461182,0.0,0.285367488861084,-1.607518498097555,0.0,-0.011241940781474113,-0.4390476385699671,0.0,-0.005856010597199202,1.4297418594360352,0.0,0.010915173217654228
158.0,132.0,-0.6072,1.7204,9.591,-0.0345,0.0195,-0.0794,-2.330656190911764,0.0,5.208613395690918,-0.9408677816390991,-0.0,2.1465156078338623,4.675403757686279,0.0,0.28511640429496765,-1.6074774901019495,0.0,0.00047321151942014694,-0.4391115347491663,0.0,-0.00011238944716751575,1.4297541379928589,0.0,0.0022528134286403656
158.0,132.0,-0.6072,1.7204,9.591,-0.0345,0.0195,-0.0794,-2.3307281933226527,0.0,5.118113994598389,-0.9408637881278992,-0.0,2.1833200454711914,4.675374670619629,0.0,0.2932000160217285,-1.6074612776385706,0.0,0.003582607489079237,-0.4390752951251429,0.0,-0.0047808242961764336,1.4297099113464355,0.0,-0.020128384232521057
158.0,132.0,-0.6072,1.7204,9.591,-0.0345,0.0195,-0.0794,-2.330708166162008,0.0,5.157625198364258,-0.9408833980560303,-0.0,2.1783366203308105,4.675403757686279,0.0,0.28283050656318665,-1.6075061003314417,0.0,-0.005370939616113901,-0.4390476385699671,0.0,-0.005785781890153885,1.4297459125518799,0.0,-0.040157753974199295
158.0,132.0,-0.6072,1.7204,9.591,-0.0345,0.0195,-0.0794,-2.3307205639281214,0.0,5.132813453674316,-0.9408477544784546,-0.0,2.1884384155273438,4.67535845815625,0.0,0.2719496190547943,-1.6074817816363733,0.0,-0.005159381311386824,-0.43909961382021123,0.0,-0.005047166720032692,1.4297139644622803,0.0,-0.0043379622511565685
158.0,132.0,-0.6072,1.7204,9.591,-0.0345,0.0195,-0.0794,-2.3306762180724085,0.0,5.13573694229126,-0.9408755898475647,-0.0,2.1855695247650146,4.675403757686279,0.0,0.27706465125083923,-1.6075061003314417,0.0,0.004300778731703758,-0.4390152136432093,0.0,-0.014109105803072453,1.4297542572021484,0.0,-0.002261255867779255
158.0,132.0,-0.6072,1.7204,9.591,-0.0345,0.0195,-0.0794,-2.3306766949095667,0.0,5.119991302490234,-0.9408591985702515,-0.0,2.191830635070801,4.675314112300537,0.0,0.2812102437019348,-1.6074655691729944,0.0,-0.0029597445391118526,-0.4390195051776331,0.0,0.02011811174452305,1.4297218322753906,0.0,0.015302786603569984
158.0,132.0,-0.6072,1.7204,9.591,-0.0345,0.0195,-0.0794,-2.3307200870909632,0.0,5.087615966796875,-0.9408518671989441,-0.0,2.1820762157440186,4.6753551202961425,0.0,0.26810094714164734,-1.6074817816363733,0.0,0.011552268639206886,-0.439035717641012,0.0,0.0009513491531834006,1.4297218322753906,0.0,-0.013329334557056427
158.0,132.0,-0.6072,1.7204,9.591,-0.0345,0.0195,-0.0794,-2.330680032769674,0.0,5.152978897094727,-0.9408755898475647,-0.0,2.1817197799682617,4.675370855922363,0.0,0.26763293147087097,-1.6074774901019495,0.0,-0.006501068826764822,-0.43902379671205694,0.0,0.002117469906806946,1.4297581911087036,0.0,0.0108805475756526
158.0,132.0,-0.6072,1.7204,9.591,-0.0345,0.0195,-0.0794,-2.330668111840719,0.0,5.126618385314941,-0.9409360885620117,-0.0,2.1759088039398193,4.6753551202961425,0.0,0.2785252034664154,-1.6074731985675257,0.0,-0.024401303380727768,-0.43901139894594365,0.0,0.0035201164428144693,1.4297258853912354,0.0,-0.02862931415438652
158.0,132.0,-0.6072,1.7204,9.591,-0.0345,0.0195,-0.0794,-2.330700536767477,0.0,5.1245198249816895,-0.9408394694328308,-0.0,2.1897106170654297,4.675399466151855,0.0,0.27501994371414185,-1.6074655691729944,0.0,0.004040095489472151,-0.43905955949892217,0.0,-0.004175209440290928,1.4297099113464355,0.0,-0.06788884103298187
158.0,132.0,-0.6072,1.7204,9.591,-0.0345,0.0195,-0.0794,-2.330712457696432,0.0,5.205016136169434,-0.9408316612243652,-0.0,2.1454668045043945,4.675382776851318,0.0,0.2814842462539673,-1.6075099150287073,0.0,-0.005209784023463726,-0.43902761140932256,0.0,-0.0006298902444541454,1.4297581911087036,0.0,0.04252750426530838
158.0,135.0,-0.4588,1.7797,9.2788,-0.042,0.0338,-0.1231,-2.3307281933226527,0.0,5.148558616638184,-0.9408594965934753,-0.0,2.194451332092285,4.675326033229492,0.0,0.26058027148246765,-1.6075142065631312,0.0,-0.008253724314272404,-0.4390676657306116,0.0,-0.011097496375441551,1.4297139644622803,0.0,0.009785821661353111
158.0,135.0,-0.4588,1.7797,9.2788,-0.042,0.0338,-0.1231,-2.3306642971434535,0.0,5.139382362365723,-0.9408233761787415,-0.0,2.1485817432403564,4.675367041225098,0.0,0.2747381329536438,-1.6075261274920862,0.0,-0.0076795099303126335,-0.4390752951251429,0.0,0.012691010721027851,1.4297058582305908,0.0,0.024919454008340836
158.0,135.0,-0.4588,1.7797,9.2788,-0.042,0.0338,-0.1231,-2.3307162723936976,0.0,5.136960029602051,-0.940883457660675,-0.0,2.198274612426758,4.675362749690674,0.0,0.270530641078949,-1.607457462941305,0.0,-0.016313735395669937,-0.43901139894594365,0.0,-0.005634760484099388,1.4297176599502563,0.0,0.01771555282175541
158.0,135.0,-0.4588,1.7797,9.2788,-0.042,0.0338,-0.1231,-2.330639978448385,0.0,5.1773810386657715,-0.9408473372459412,-0.0,2.154229164123535,4.675374670619629,0.0,0.2730903625488281,-1.6074331442462366,0.0,-0.005560130812227726,-0.4390514532672327,0.0,0.004270232282578945,1.4297218322753906,0.0,-0.017064346000552177
158.0,135.0,-0.4588,1.7797,9.2788,-0.042,0.0338,-0.1231,-2.330668111840719,0.0,5.113527297973633,-0.9408028721809387,-0.0,2.1973929405212402,4.675367041225098,0.0,0.2785540223121643,-1.6074898878680628,0.0,0.004768754355609417,-0.43904382387270147,0.0,-0.0007950711296871305,1.4297459125518799,0.0,0.021117698401212692
158.0,135.0,-0.4588,1.7797,9.2788,-0.042,0.0338,-0.1231,-2.3306881390013636,0.0,5.165881156921387,-0.9408959150314331,-0.0,2.1642723083496094,4.675342722530029,0.0,0.2815478444099426,-1.6074898878680628,0.0,0.00692319730296731,-0.43905955949892217,0.0,-0.01918933168053627,1.4297336339950562,0.0,-0.00790712796151638
158.0,135.0,-0.4588,1.7797,9.2788,-0.042,0.0338,-0.1231,-2.3306924305357875,0.0,5.1261138916015625,-0.940879762172699,-0.0,2.178640365600586,4.675334139461182,0.0,0.28270575404167175,-1.6074731985675257,0.0,-0.027866501361131668,-0.439035717641012,0.0,0.008870958350598812,1.4297099113464355,0.0,0.019932201132178307
158.0,135.0,-0.4588,1.7797,9.2788,-0.042,0.0338,-0.1231,-2.330696245233053,0.0,5.162718772888184,-0.9408431649208069,-0.0,2.1924943923950195,4.675367041225098,0.0,0.2894437909126282,-1.6074731985675257,0.0,-0.01585339568555355,-0.4390314261065882,0.0,0.014159726910293102,1.4297258853912354,0.0,-0.01948646456003189
158.0,135.0,-0.4588,1.7797,9.2788,-0.042,0.0338,-0.1231,-2.330684324304098,0.0,5.136405944824219,-0.9408193230628967,-0.0,2.181978225708008,4.675334139461182,0.0,0.2812874913215637,-1.6074774901019495,0.0,0.00791159551590681,-0.43899566331972295,0.0,-0.007501036860048771,1.4297701120376587,0.0,0.00873950868844986
158.0,135.0,-0.4588,1.7797,9.2788,-0.042,0.0338,-0.1231,-2.3306642971434535,0.0,5.148237705230713,-0.94087153673172,-0.0,2.180720806121826,4.67535845815625,0.0,0.2797307074069977,-1.6074774901019495,0.0,-0.0061068348586559296,-0.4390199820147913,0.0,-0.0018152114935219288,1.4296976327896118,0.0,0.003381483256816864
158.0,135.0,-0.4588,1.7797,9.2788,-0.042,0.0338,-0.1231,-2.330672403375143,0.0,5.108343124389648,-0.940802812576294,-0.0,2.1532740592956543,4.675338430995605,0.0,0.26551851630210876,-1.6074774901019495,0.0,-0.014157185330986977,-0.43905955949892217,0.0,0.0009263358078896999,1.4297418594360352,0.0,0.019297931343317032
158.0,135.0,-0.4588,1.7797,9.2788,-0.042,0.0338,-0.1231,-2.3307200870909632,0.0,5.136476993560791,-0.9408233761787415,-0.0,2.219115972518921,4.675330324763916,0.0,0.2738960087299347,-1.6074731985675257,0.0,-0.011972766369581223,-0.4390795866595667,0.0,-0.005307433661073446,1.4297295808792114,0.0,0.018090320751070976
158.0,135.0,-0.4588,1.7797,9.2788,-0.042,0.0338,-0.1231,-2.3306762180724085,0.0,5.134164810180664,-0.9408473372459412,-0.0,2.2120285034179688,4.675350828761719,0.0,0.2746632397174835,-1.6074655691729944,0.0,0.00933019444346428,-0.439035717641012,0.0,0.0010557527421042323,1.4297418594360352,0.0,-0.0167002622038126
158.0,135.0,-0.4588,1.7797,9.2788,-0.042,0.0338,-0.1231,-2.330668111840719,0.0,5.111097812652588,-0.9408591985702515,-0.0,2.1344659328460693,4.675379438991211,0.0,0.2706736922264099,-1.6075061003314417,0.0,-0.00512092188000679,-0.43905574480165654,0.0,0.0029595918022096157,1.4296976327896118,0.0,0.029237931594252586
156.0,135.0,-0.5222,1.7539,9.4122,-0.0324,0.0249,-0.1121,-2.3307200870909632,0.0,5.142825126647949,-0.9408234357833862,-0.0,2.2116568088531494,4.675387068385742,0.0,0.2920127213001251,-1.60746938387026,0.0,0.004224596079438925,-0.4390953222857874,0.0,0.004256298765540123,1.4297341108322144,0.0,0.015729054808616638
156.0,135.0,-0.5222,1.7539,9.4122,-0.0324,0.0249,-0.1121,-2.330700536767477,0.0,5.165375709533691,-0.9409123659133911,-0.0,2.13814640045166,4.675346537227295,0.0,0.2727789282798767,-1.6074731985675257,0.0,0.006454626098275185,-0.4390834013568323,0.0,0.001538461772724986,1.42972993850708,0.0,0.009145909920334816
156.0,135.0,-0.5222,1.7539,9.4122,-0.0324,0.0249,-0.1121,-2.330696245233053,0.0,5.119026184082031,-0.9408313035964966,-0.0,2.1712806224823,4.675375147456787,0.0,0.28603988885879517,-1.60744554201235,0.0,-0.012885689735412598,-0.43903953233827764,0.0,0.003965677693486214,1.4297419786453247,0.0,-0.03405323252081871
156.0,135.0,-0.5222,1.7539,9.4122,-0.0324,0.0249,-0.1121,-2.3307200870909632,0.0,5.132183074951172,-0.940863311290741,-0.0,2.15093731880188,4.675330324763916,0.0,0.27772223949432373,-1.6074736754046839,0.0,0.0020375617314130068,-0.4390314261065882,0.0,-0.004669641610234976,1.4297218322753906,0.0,0.002632334129884839
156.0,135.0,-0.5222,1.7539,9.4122,-0.0324,0.0249,-0.1121,-2.330655714074606,0.0,5.208617687225342,-0.9408751726150513,-0.0,2.1658010482788086,4.67535845815625,0.0,0.2786405682563782,-1.607485596333639,0.0,0.00826282985508442,-0.4390795866595667,0.0,-0.004152672830969095,1.4297139644622803,0.0,-0.023716693744063377
156.0,135.0,-0.5222,1.7539,9.4122,-0.0324,0.0249,-0.1121,-2.330655714074606,0.0,5.17956018447876,-0.9407913684844971,-0.0,2.1686999797821045,4.675362749690674,0.0,0.2769646644592285,-1.6074493567096155,0.0,-0.00739776436239481,-0.4390676657306116,0.0,0.0017001205123960972,1.429762363433838,0.0,0.020660648122429848
156.0,135.0,-0.5222,1.7539,9.4122,-0.0324,0.0249,-0.1121,-2.330724378625387,0.0,5.117523193359375,-0.9408473372459412,-0.0,2.1728179454803467,4.675318403834961,0.0,0.2862080931663513,-1.60753041902651,0.0,-0.0030493696685880423,-0.43905955949892217,0.0,-0.004616292659193277,1.4297581911087036,0.0,0.002213540952652693
156.0,135.0,-0.5222,1.7539,9.4122,-0.0324,0.0249,-0.1121,-2.330668111840719,0.0,5.1308207511901855,-0.9408193230628967,-0.0,2.1800479888916016,4.675346537227295,0.0,0.26665401458740234,-1.6075056234942835,0.0,-0.009909297339618206,-0.43904382387270147,0.0,0.0014928961172699928,1.4297218322753906,0.0,0.019608305767178535
156.0,135.0,-0.5222,1.7539,9.4122,-0.0324,0.0249,-0.1121,-2.3306480846800746,0.0,5.149905204772949,-0.9408193230628967,-0.0,2.131647825241089,4.675326033229492,0.0,0.2814641296863556,-1.6074941794024866,0.0,-0.0028255970682948828,-0.43908721605409795,0.0,-0.007517654914408922,1.4297419786453247,0.0,-0.04731741175055504
156.0,135.0,-0.5222,1.7539,9.4122,-0.0324,0.0249,-0.1121,-2.3307157955565394,0.0,5.1290106773376465,-0.9408395290374756,-0.0,2.1621618270874023,4.675318403834961,0.0,0.26198911666870117,-1.607441250477926,0.0,-0.007131420075893402,-0.43905955949892217,0.0,0.004558085929602385,1.4297258853912354,0.0,0.015033964067697525
156.0,135.0,-0.5222,1.7539,9.4122,-0.0324,0.0249,-0.1121,-2.3307000599303187,0.0,5.145914077758789,-0.9408637881278992,-0.0,2.165945529937744,4.675338430995605,0.0,0.273864209651947,-1.6074898878680628,0.0,-0.0037275615613907576,-0.4390633741961878,0.0,-0.00910213403403759,1.4297581911087036,0.0,-0.02392011135816574
156.0,135.0,-0.5222,1.7539,9.4122,-0.0324,0.0249,-0.1121,-2.3307162723936976,0.0,5.144464492797852,-0.9408069252967834,-0.0,2.1913416385650635,4.675314589137695,0.0,0.28238216042518616,-1.6075142065631312,0.0,-0.003786289133131504,-0.43908721605409795,0.0,-0.00464040320366621,1.4297541379928589,0.0,-0.005479930900037289
156.0,135.0,-0.5222,1.7539,9.4122,-0.0324,0.0249,-0.1121,-2.330667635003561,0.0,5.193720817565918,-0.9408513903617859,-0.0,2.1594278812408447,4.67535845815625,0.0,0.27235034108161926,-1.6075061003314417,0.0,-0.00644856970757246,-0.4390514532672327,0.0,-0.006748883984982967,1.4297378063201904,0.0,-0.026716765016317368
156.0,135.0,-0.5222,1.7539,9.4122,-0.0324,0.0249,-0.1121,-2.3307162723936976,0.0,5.1032209396362305,-0.9408957362174988,-0.0,2.203986644744873,4.675342722530029,0.0,0.2785624563694,-1.6075018087970179,0.0,-0.0054790121503174305,-0.4390834013568323,0.0,0.0010528289712965488,1.4297581911087036,0.0,-0.04366939142346382
156.0,135.0,-0.5222,1.7539,9.4122,-0.0324,0.0249,-0.1121,-2.330748220483297,0.0,5.1389617919921875,-0.9408596158027649,-0.0,2.184502363204956,4.675391359920166,0.0,0.2877969443798065,-1.6074774901019495,0.0,-0.004002152942121029,-0.43911582628359014,0.0,0.004390387330204248,1.4297418594360352,0.0,-0.05122043192386627
155.0,134.0,-0.6676,1.6983,9.6191,-0.0425,0.0264,-0.1167,-2.330708166162008,0.0,5.17410945892334,-0.9408555030822754,-0.0,2.1955208778381348,4.675314112300537,0.0,0.2842681109905243,-1.6074531714068812,0.0,-0.00021862424910068512,-0.43905955949892217,0.0,-0.007606721017509699,1.4297581911087036,0.0,-0.008641615509986877
155.0,134.0,-0.6676,1.6983,9.6191,-0.0425,0.0264,-0.1167,-2.3307401142516078,0.0,5.168713569641113,-0.94087153673172,-0.0,2.165560722351074,4.675334139461182,0.0,0.2745003402233124,-1.6074941794024866,0.0,-0.0003590011037886143,-0.4390319029437464,0.0,-0.006491470150649548,1.4297058582305908,0.0,-0.027644291520118713
155.0,134.0,-0.6676,1.6983,9.6191,-0.0425,0.0264,-0.1167,-2.3306480846800746,0.0,5.151968002319336,-0.9408916234970093,-0.0,2.209397077560425,4.675370855922363,0.0,0.29051685333251953,-1.6074617544757288,0.0,0.0005424246191978455,-0.43903953233827764,0.0,0.0024578433949500322,1.4297581911087036,0.0,-0.029117848724126816
155.0,134.0,-0.6676,1.6983,9.6191,-0.0425,0.0264,-0.1167,-2.330655714074606,0.0,5.139209747314453,-0.94087153673172,-0.0,2.1449244022369385,4.675370855922363,0.0,0.27210095524787903,-1.6075018087970179,0.0,-0.0011374256573617458,-0.4390476385699671,0.0,0.0037829424254596233,1.42972993850708,0.0,0.03401326388120651
155.0,134.0,-0.6676,1.6983,9.6191,-0.0425,0.0264,-0.1167,-2.330696245233053,0.0,5.133829116821289,-0.9408514499664307,-0.0,2.1742680072784424,4.6753551202961425,0.0,0.27203473448753357,-1.6075099150287073,0.0,-0.016426652669906616,-0.43907148042787725,0.0,0.007534652017056942,1.4297258853912354,0.0,0.030778462067246437
155.0,134.0,-0.6676,1.6983,9.6191,-0.0425,0.0264,-0.1167,-2.3306919536986292,0.0,5.150758743286133,-0.9408916234970093,-0.0,2.171748161315918,4.675382776851318,0.0,0.2751622200012207,-1.607485596333639,0.0,-0.007198241539299488,-0.43899566331972295,0.0,0.010311716236174107,1.4297378063201904,0.0,-0.014988679438829422
155.0,134.0,-0.6676,1.6983,9.6191,-0.0425,0.0264,-0.1167,-2.3306642971434535,0.0,5.157075881958008,-0.9408674836158752,-0.0,2.1862380504608154,4.675362749690674,0.0,0.2710578441619873,-1.6074817816363733,0.0,-0.00034496583975851536,-0.4390037695514124,0.0,-0.009475131519138813,1.42972993850708,0.0,-0.01190739031881094
155.0,134.0,-0.6676,1.6983,9.6191,-0.0425,0.0264,-0.1167,-2.3306919536986292,0.0,5.151399612426758,-0.9408714771270752,-0.0,2.170830011367798,4.6753503519245605,0.0,0.2897316813468933,-1.6074817816363733,0.0,-0.0038876014295965433,-0.43900758424867803,0.0,0.007123573217540979,1.4297460317611694,0.0,0.011922653764486313
155.0,134.0,-0.6676,1.6983,9.6191,-0.0425,0.0264,-0.1167,-2.3306881390013636,0.0,5.12457275390625,-0.9408435821533203,-0.0,2.1570885181427,4.67535845815625,0.0,0.28102385997772217,-1.6075142065631312,2.0929342703368548e-09,-0.008754773996770382,-0.4390514532672327,0.0,-0.009946020320057869,1.4297176599502563,0.0,0.013875041157007217
155.0,134.0,-0.6676,1.6983,9.6191,-0.0425,0.0264,-0.1167,-2.3307000599303187,0.0,5.1563920974731445,-0.9409196376800537,-0.0,2.2305397987365723,4.675367041225098,0.0,0.2894423305988312,-1.6075180212603968,5.825759796448948e-13,-0.002911131363362074,-0.43908721605409795,0.0,0.004336466547101736,1.4297459125518799,0.0,-0.00024106772616505623
155.0,134.0,-0.6676,1.6983,9.6191,-0.0425,0.0264,-0.1167,-2.3307205639281214,0.0,5.134615898132324,-0.9408673644065857,-0.0,2.1793084144592285,4.675342722530029,0.0,0.27719223499298096,-1.6074817816363733,1.6216218135079005e-16,0.002848836127668619,-0.43909961382021123,0.0,-0.013004315085709095,1.4297016859054565,0.0,0.017069963738322258
155.0,134.0,-0.6676,1.6983,9.6191,-0.0425,0.0264,-0.1167,-2.330700536767477,0.0,5.143429756164551,-0.940879762172699,-0.0,2.180920124053955,4.675362749690674,0.0,0.2866497039794922,-1.6074450651751917,4.5138435002277506e-20,-0.019518226385116577,-0.43905574480165654,0.0,0.004342665895819664,1.4297254085540771,0.0,-0.03550608456134796
155.0,134.0,-0.6676,1.6983,9.6191,-0.0425,0.0264,-0.1167,-2.3307205639281214,0.0,5.180645942687988,-0.940811038017273,-0.0,2.1715333461761475,4.6753551202961425,0.0,0.26900607347488403,-1.6074774901019495,1.2564448750414683e-23,-0.00921970047056675,-0.43901139894594365,0.0,-0.003947355318814516,1.4297341108322144,0.0,0.013102581724524498
155.0,134.0,-0.6676,1.6983,9.6191,-0.0425,0.0264,-0.1167,-2.330656190911764,0.0,5.163615703582764,-0.9408354163169861,-0.0,2.1840462684631348,4.67535845815625,0.0,0.27806422114372253,-1.6074731985675257,3.497360897258913e-27,-0.011666536331176758,-0.4390633741961878,0.0,-0.0015124916099011898,1.4297218322753906,0.0,-0.032726358622312546
159.0,131.0,-0.7286,1.6869,9.746,-0.0397,0.0189,-0.1133,-2.330724378625387,0.0,5.119124412536621,-0.9408674836158752,-0.0,2.184904098510742,4.675330324763916,0.0,0.2715569734573364,-1.6075142065631312,9.735031379894176e-31,-0.012385040521621704,-0.4390633741961878,0.0,0.0004853296559303999,1.4297418594360352,0.0,0.0012892866507172585
159.0,131.0,-0.7286,1.6869,9.746,-0.0397,0.0189,-0.1133,-2.330724378625387,0.0,5.150235176086426,-0.940827488899231,-0.0,2.2010793685913086,4.675338430995605,0.0,0.2709648609161377,-1.6074941794024866,1.7692937724161684e-35,-0.002961361315101385,-0.43905955949892217,0.0,-0.002791892271488905,1.4297258853912354,0.0,-0.030261559411883354
159.0,131.0,-0.7286,1.6869,9.746,-0.0397,0.0189,-0.1133,-2.3307281933226527,0.0,5.163073539733887,-0.9408591389656067,-0.0,2.1646203994750977,4.6752940851398925,0.0,0.2702556848526001,-1.6074979940997522,4.924894281435785e-39,-0.0017631271621212363,-0.43904382387270147,0.0,-0.0024596399161964655,1.4297181367874146,0.0,0.021981358528137207
159.0,131.0,-0.7286,1.6869,9.746,-0.0397,0.0189,-0.1133,-2.330684324304098,0.0,5.149641036987305,-0.9408354163169861,-0.0,2.154172658920288,4.675338430995605,0.0,0.2801261842250824,-1.6075061003314417,1.3704698981096711e-42,0.0011382331140339375,-0.439035717641012,0.0,-0.006712764501571655,1.4297336339950562,0.0,-0.009996260516345501
159.0,131.0,-0.7286,1.6869,9.746,-0.0397,0.0189,-0.1133,-2.330680032769674,0.0,5.158921241760254,-0.9408711194992065,-0.0,2.167135715484619,4.6752940851398925,0.0,0.2761211395263672,-1.60744554201235,0.0,-0.013480788096785545,-0.43904382387270147,0.0,-0.0018860450945794582,1.4297622442245483,0.0,-0.012491872534155846
159.0,131.0,-0.7286,1.6869,9.746,-0.0397,0.0189,-0.1133,-2.330696245233053,0.0,5.174293518066406,-0.9408514499664307,-0.0,2.2155237197875977,4.675306006068848,0.0,0.2831971049308777,-1.6074898878680628,0.0,0.0011607743799686432,-0.43900758424867803,0.0,-0.004659052938222885,1.4297139644622803,0.0,-0.01675034873187542
159.0,131.0,-0.7286,1.6869,9.746,-0.0397,0.0189,-0.1133,-2.330712457696432,0.0,5.122744560241699,-0.9408917427062988,-0.0,2.167440176010132,4.675370855922363,0.0,0.2772881090641022,-1.6074612776385706,0.0,-0.012226007878780365,-0.439035717641012,0.0,0.0015947951469570398,1.4297581911087036,0.0,0.0352632999420166
159.0,131.0,-0.7286,1.6869,9.746,-0.0397,0.0189,-0.1133,-2.330724378625387,0.0,5.144381523132324,-0.9408555030822754,-0.0,2.1960361003875732,4.675330324763916,0.0,0.2634144127368927,-1.607485596333639,0.0,-0.006795484572649002,-0.4390676657306116,0.0,0.020276112481951714,1.429693579673767,0.0,0.011838818900287151
159.0,131.0,-0.7286,1.6869,9.746,-0.0397,0.0189,-0.1133,-2.3306762180724085,0.0,5.152785778045654,-0.9408637285232544,-0.0,2.184349536895752,4.675338430995605,0.0,0.2669394612312317,-1.607457462941305,0.0,0.002947724424302578,-0.43899614015688115,0.0,-0.003122104099020362,1.429693579673767,0.0,-0.06492946296930313
159.0,131.0,-0.7286,1.6869,9.746,-0.0397,0.0189,-0.1133,-2.330696245233053,0.0,5.129904747009277,-0.9408999681472778,-0.0,2.154256582260132,4.6753222185322265,0.0,0.28192266821861267,-1.6074493567096155,0.0,-0.002675012918189168,-0.4390633741961878,0.0,-0.004985846113413572,1.4296895265579224,0.0,-0.03781558573246002
159.0,131.0,-0.7286,1.6869,9.746,-0.0397,0.0189,-0.1133,-2.3306600056090296,0.0,5.172686576843262,-0.9408234357833862,-0.0,2.1877477169036865,4.675354643458984,0.0,0.2745985984802246,-1.6074774901019495,0.0,-0.0005515334196388721,-0.43901139894594365,0.0,0.0008451531175523996,1.4297181367874146,0.0,0.03157418966293335
159.0,131.0,-0.7286,1.6869,9.746,-0.0397,0.0189,-0.1133,-2.3306766949095667,0.0,5.1603617668151855,-0.9408999681472778,-0.0,2.2097008228302,4.675370855922363,0.0,0.2867162823677063,-1.6075299421893519,0.0,0.0024511797819286585,-0.43905955949892217,0.0,0.0037825137842446566,1.4297622442245483,0.0,0.047585975378751755
159.0,131.0,-0.7286,1.6869,9.746,-0.0397,0.0189,-0.1133,-2.330724378625387,0.0,5.13066291809082,-0.9408595561981201,-0.0,2.13844633102417,4.675334139461182,0.0,0.27116987109184265,-1.6074979940997522,0.0,0.00032903370447456837,-0.43904382387270147,0.0,-0.0049895839765667915,1.4297181367874146,0.0,0.05526087433099747
159.0,131.0,-0.7286,1.6869,9.746,-0.0397,0.0189,-0.1133,-2.3307043514647425,0.0,5.171719074249268,-0.9408109784126282,-0.0,2.143657684326172,4.675391359920166,0.0,0.28011542558670044,-1.607497517262594,0.0,-0.0022819526493549347,-0.43908721605409795,0.0,-0.009940278716385365,1.4297418594360352,0.0,0.01730998605489731
158.0,137.0,-0.6329,1.7438,9.5432,-0.0339,0.0255,-0.1216,-2.3306642971434535,0.0,5.140348434448242,-0.9408555626869202,-0.0,2.1604247093200684,4.675374670619629,0.0,0.2739594876766205,-1.607513729725973,0.0,-0.015728745609521866,-0.4390752951251429,0.0,-0.007910402491688728,1.4297622442245483,0.0,0.04732254147529602
158.0,137.0,-0.6329,1.7438,9.5432,-0.0339,0.0255,-0.1216,-2.330724378625387,0.0,5.151350975036621,-0.9408192038536072,-0.0,2.155785083770752,4.675334139461182,0.0,0.2659623324871063,-1.6074655691729944,0.0,-0.014305584132671356,-0.43905955949892217,0.0,0.008486118167638779,1.4297258853912354,0.0,-0.04402219131588936
158.0,137.0,-0.6329,1.7438,9.5432,-0.0339,0.0255,-0.1216,-2.330668111840719,0.0,5.164173126220703,-0.9408674240112305,-0.0,2.178729772567749,4.675346537227295,0.0,0.28844600915908813,-1.607457462941305,0.0,-0.014874942600727081,-0.439035717641012,0.0,0.01174154318869114,1.4297218322753906,0.0,-0.01649085246026516
158.0,137.0,-0.6329,1.7438,9.5432,-0.0339,0.0255,-0.1216,-2.3306881390013636,0.0,5.117476940155029,-0.9408514499664307,-0.0,2.1621572971343994,4.675362749690674,0.0,0.2764718234539032,-1.6074979940997522,0.0,-0.005509704817086458,-0.43905955949892217,0.0,0.005953945219516754,1.4297058582305908,0.0,-0.007830634713172913
158.0,137.0,-0.6329,1.7438,9.5432,-0.0339,0.0255,-0.1216,-2.330656190911764,0.0,5.1744842529296875,-0.9408674240112305,-0.0,2.1873433589935303,4.675387068385742,0.0,0.26936447620391846,-1.6074774901019495,0.0,0.0011465672869235277,-0.43908721605409795,0.0,-0.009619101881980896,1.4297583103179932,0.0,0.029784858226776123
158.0,137.0,-0.6329,1.7438,9.5432,-0.0339,0.0255,-0.1216,-2.3306881390013636,0.0,5.156270980834961,-0.9408234357833862,-0.0,2.162539482116699,4.675330324763916,0.0,0.2769528329372406,-1.6075180212603968,0.0,-0.018396375700831413,-0.43905574480165654,0.0,0.002369142370298505,1.4297139644622803,0.0,0.07213857024908066
158.0,137.0,-0.6329,1.7438,9.5432,-0.0339,0.0255,-0.1216,-2.3307043514647425,0.0,5.099099159240723,-0.9408431649208069,-0.0,2.2021324634552,4.675382776851318,0.0,0.27445322275161743,-1.6074941794024866,0.0,-0.002472634194418788,-0.4390319029437464,0.0,0.0093810074031353,1.4297057390213013,0.0,-0.007837506942451
158.0,137.0,-0.6329,1.7438,9.5432,-0.0339,0.0255,-0.1216,-2.3306642971434535,0.0,5.165616035461426,-0.9407914280891418,-0.0,2.1753592491149902,4.675370855922363,0.0,0.2805209755897522,-1.6075018087970179,0.0,-0.012106155976653099,-0.43899614015688115,0.0,0.0018344954587519169,1.4297581911087036,0.0,-0.002069532871246338
158.0,137.0,-0.6329,1.7438,9.5432,-0.0339,0.0255,-0.1216,-2.330667635003561,0.0,5.116830825805664,-0.9409000873565674,-0.0,2.1779985427856445,4.675350828761719,0.0,0.27916568517684937,-1.6074655691729944,0.0,0.0005249772220849991,-0.43902379671205694,0.0,-0.004351336043328047,1.4297336339950562,0.0,-0.0017784382216632366
158.0,137.0,-0.6329,1.7438,9.5432,-0.0339,0.0255,-0.1216,-2.3307086429991664,0.0,5.119937896728516,-0.9408637285232544,-0.0,2.1836845874786377,4.675382776851318,0.0,0.2776612639427185,-1.6074898878680628,0.0,-0.0025011911056935787,-0.4390752951251429,0.0,-0.0006789990002289414,1.4297258853912354,0.0,-0.024886930361390114
158.0,137.0,-0.6329,1.7438,9.5432,-0.0339,0.0255,-0.1216,-2.330752512017721,0.0,5.126042366027832,-0.9408431649208069,-0.0,2.1740198135375977,4.675346537227295,0.0,0.2702818810939789,-1.6075142065631312,0.0,-0.0019897809252142906,-0.4390319029437464,0.0,0.013200661167502403,1.4297058582305908,0.0,-0.05223827436566353
158.0,137.0,-0.6329,1.7438,9.5432,-0.0339,0.0255,-0.1216,-2.3306719265379847,0.0,5.132497787475586,-0.9408833980560303,-0.0,2.166841983795166,4.675367041225098,0.0,0.2660720944404602,-1.6075261274920862,0.0,-0.006916092708706856,-0.43905955949892217,0.0,0.0012662099907174706,1.4297139644622803,0.0,0.016424909234046936
158.0,137.0,-0.6329,1.7438,9.5432,-0.0339,0.0255,-0.1216,-2.330680032769674,0.0,5.147326469421387,-0.9408678412437439,-0.0,2.2326455116271973,4.675334139461182,0.0,0.2715408504009247,-1.6074774901019495,0.0,-0.0051990593783557415,-0.43904382387270147,0.0,-0.0008063788991421461,1.4297218322753906,0.0,-0.011270090937614441
158.0,137.0,-0.6329,1.7438,9.5432,-0.0339,0.0255,-0.1216,-2.3307205639281214,0.0,5.127407550811768,-0.9408595561981201,-0.0,2.178964376449585,4.675346537227295,0.0,0.2777670919895172,-1.6074941794024866,0.0,-0.0014444557018578053,-0.43901139894594365,0.0,-0.016057545319199562,1.42972993850708,0.0,-0.021205972880125046
158.0,137.0,-0.6329,1.7438,9.5432,-0.0339,0.0255,-0.1216,-2.330684324304098,0.0,5.148550033569336,-0.9408555030822754,-0.0,2.177691698074341,4.675367041225098,0.0,0.28529074788093567,-1.607497517262594,0.0,-0.0061735124327242374,-0.4389875570880335,0.0,-0.0010733515955507755,1.4296852350234985,0.0,0.02264273166656494
155.0,133.0,-0.5246,1.7815,9.2806,-0.0386,0.0217,-0.1112,-2.3307162723936976,0.0,5.135680198669434,-0.9408554434776306,-0.0,2.127720832824707,4.675367041225098,0.0,0.2829704284667969,-1.6074612776385706,0.0,0.013096842914819717,-0.43905574480165654,0.0,-0.013172212988138199,1.4297258853912354,0.0,-0.001760374172590673
155.0,133.0,-0.5246,1.7815,9.2806,-0.0386,0.0217,-0.1112,-2.3306762180724085,0.0,5.183724403381348,-0.9408555030822754,-0.0,2.165009021759033,4.6753551202961425,0.0,0.2732953727245331,-1.607485596333639,0.0,-0.014385771006345749,-0.43905955949892217,0.0,-0.010104554705321789,1.4297500848770142,0.0,-0.010031633079051971
155.0,133.0,-0.5246,1.7815,9.2806,-0.0386,0.0217,-0.1112,-2.3306719265379847,0.0,5.119990825653076,-0.9408477544784546,-0.0,2.1415646076202393,4.675367041225098,0.0,0.2641265094280243,-1.6075061003314417,0.0,-0.002121659927070141,-0.43905574480165654,0.0,-0.0016745964530855417,1.4297583103179932,0.0,-0.05718623474240303
155.0,133.0,-0.5246,1.7815,9.2806,-0.0386,0.0217,-0.1112,-2.330708166162008,0.0,5.146756172180176,-0.9409040808677673,-0.0,2.1692957878112793,4.675330324763916,0.0,0.2832951545715332,-1.6075261274920862,0.0,-0.004540037363767624,-0.43909913698305303,0.0,-0.014114917255938053,1.4297341108322144,0.0,-0.003191466676071286
155.0,133.0,-0.5246,1.7815,9.2806,-0.0386,0.0217,-0.1112,-2.330736299554342,0.0,5.1575517654418945,-0.940827488899231,-0.0,2.1935949325561523,4.675321741695068,0.0,0.27613064646720886,-1.6074774901019495,0.0,-0.012182319536805153,-0.43904382387270147,0.0,-0.0024510310031473637,1.4297459125518799,0.0,-0.02321147918701172
155.0,133.0,-0.5246,1.7815,9.2806,-0.0386,0.0217,-0.1112,-2.3306881390013636,0.0,5.1660871505737305,-0.9408193826675415,-0.0,2.203157663345337,4.675334139461182,0.0,0.27020925283432007,-1.6074941794024866,0.0,-0.00144797598477453,-0.4390633741961878,0.0,-0.002682956401258707,1.42972993850708,0.0,0.004091735929250717
155.0,133.0,-0.5246,1.7815,9.2806,-0.0386,0.0217,-0.1112,-2.3306919536986292,0.0,5.149575233459473,-0.9408718943595886,-0.0,2.1323294639587402,4.675362749690674,0.0,0.2773215174674988,-1.6075099150287073,0.0,0.006367410998791456,-0.43907148042787725,0.0,0.0032295146957039833,1.4297459125518799,0.0,-0.020259376615285873
155.0,133.0,-0.5246,1.7815,9.2806,-0.0386,0.0217,-0.1112,-2.330724378625387,0.0,5.181147575378418,-0.9408875107765198,-0.0,2.2013258934020996,4.675382776851318,0.0,0.2923971712589264,-1.60746938387026,0.0,-0.009616664610803127,-0.43905574480165654,0.0,0.004391663707792759,1.4297176599502563,0.0,-0.009770161472260952
155.0,133.0,-0.5246,1.7815,9.2806,-0.0386,0.0217,-0.1112,-2.3306919536986292,0.0,5.127706527709961,-0.9408637285232544,-0.0,2.202887535095215,4.675367041225098,0.0,0.2788476049900055,-1.6075061003314417,0.0,-0.006310856901109219,-0.43902761140932256,0.0,0.005810870323330164,1.4297058582305908,0.0,-0.01539760921150446
155.0,133.0,-0.5246,1.7815,9.2806,-0.0386,0.0217,-0.1112,-2.3306719265379847,0.0,5.136640548706055,-0.9408313035964966,-0.0,2.1704373359680176,4.6754066187092285,0.0,0.2975894808769226,-1.6075061003314417,0.0,-0.0028320876881480217,-0.4390676657306116,0.0,-0.003222090657800436,1.4297258853912354,0.0,0.005484207067638636
155.0,133.0,-0.5246,1.7815,9.2806,-0.0386,0.0217,-0.1112,-2.330712457696432,0.0,5.119668960571289,-0.9408714771270752,-0.0,2.1675403118133545,4.675362749690674,0.0,0.27966389060020447,-1.6074941794024866,0.0,-0.011943690478801727,-0.43902379671205694,0.0,0.011468954384326935,1.4297057390213013,0.0,-0.004520650953054428
155.0,133.0,-0.5246,1.7815,9.2806,-0.0386,0.0217,-0.1112,-2.330696245233053,0.0,5.146669387817383,-0.9408271908760071,-0.0,2.2183146476745605,4.675330324763916,0.0,0.2823082208633423,-1.6075180212603968,0.0,-0.010227185674011707,-0.43905955949892217,0.0,-0.0010738983983173966,1.4297176599502563,0.0,0.004124939441680908
155.0,133.0,-0.5246,1.7815,9.2806,-0.0386,0.0217,-0.1112,-2.3306881390013636,0.0,5.148523330688477,-0.9408833980560303,-0.0,2.17600154876709,4.675346537227295,0.0,0.28189221024513245,-1.6075099150287073,0.0,-0.013052213005721569,-0.43903953233827764,0.0,0.0006757856463082135,1.4296976327896118,0.0,0.053456924855709076
155.0,133.0,-0.5246,1.7815,9.2806,-0.0386,0.0217,-0.1112,-2.3307324848570765,0.0,5.185215950012207,-0.9408633708953857,-0.0,2.156834602355957,4.675330324763916,0.0,0.2701389491558075,-1.6074979940997522,0.0,-0.005610285792499781,-0.4390752951251429,0.0,0.005942134652286768,1.4297176599502563,0.0,0.01472519338130951
152.0,130.0,-0.6012,1.7474,9.4929,-0.0402,0.0224,-0.1171,-2.330736299554342,0.0,5.117893218994141,-0.9409040808677673,-0.0,2.136037826538086,4.675350828761719,0.0,0.2645517587661743,-1.60744554201235,0.0,0.003335347166284919,-0.439035717641012,0.0,-0.00244349567219615,1.4297418594360352,0.0,-0.011185112409293652
152.0,130.0,-0.6012,1.7474,9.4929,-0.0402,0.0224,-0.1171,-2.3306881390013636,0.0,5.157995223999023,-0.9408915638923645,-0.0,2.1830427646636963,4.675370855922363,0.0,0.2615550458431244,-1.6075142065631312,0.0,0.00019623665139079094,-0.43910342851747686,0.0,-0.0026399751659482718,1.4297664165496826,0.0,-0.026551585644483566
152.0,130.0,-0.6012,1.7474,9.4929,-0.0402,0.0224,-0.1171,-2.330748220483297,0.0,5.143866539001465,-0.9409081339836121,-0.0,2.166001319885254,4.675334139461182,0.0,0.2719210386276245,-1.6075099150287073,0.0,-0.00029880087822675705,-0.43902761140932256,0.0,0.0011258373269811273,1.4297258853912354,0.0,-0.011198596097528934
152.0,130.0,-0.6012,1.7474,9.4929,-0.0402,0.0224,-0.1171,-2.330680032769674,0.0,5.146825790405273,-0.9408875107765198,-0.0,2.147097110748291,4.675334139461182,0.0,0.27212387323379517,-1.6074612776385706,0.0,0.0010028318502008915,-0.4390319029437464,0.0,-0.005167879164218903,1.4297499656677246,0.0,0.0012040419969707727
152.0,130.0,-0.6012,1.7474,9.4929,-0.0402,0.0224,-0.1171,-2.330656190911764,0.0,5.150078296661377,-0.9408354163169861,-0.0,2.200366497039795,4.675403757686279,0.0,0.2679789066314697,-1.6074774901019495,0.0,-0.015126475133001804,-0.43902761140932256,0.0,-0.008445097133517265,1.4297058582305908,0.0,0.018343202769756317
152.0,130.0,-0.6012,1.7474,9.4929,-0.0402,0.0224,-0.1171,-2.3307320080199183,0.0,5.171598434448242,-0.940827488899231,-0.0,2.1844913959503174,4.6753551202961425,0.0,0.2703607678413391,-1.6074774901019495,0.0,0.00023226148914545774,-0.43899614015688115,0.0,0.009278464131057262,1.429693579673767,0.0,0.01963864080607891
152.0,130.0,-0.6012,1.7474,9.4929,-0.0402,0.0224,-0.1171,-2.330756803552145,0.0,5.137886047363281,-0.9408916234970093,-0.0,2.1663918495178223,4.675334139461182,0.0,0.26908349990844727,-1.6074731985675257,0.0,-0.008914624340832233,-0.4390314261065882,0.0,0.0004276921972632408,1.4297622442245483,0.0,0.046569813042879105
152.0,130.0,-0.6012,1.7474,9.4929,-0.0402,0.0224,-0.1171,-2.330688615838522,0.0,5.130122184753418,-0.9408714771270752,-0.0,2.179035186767578,4.675367041225098,0.0,0.2682441771030426,-1.6075099150287073,0.0,-0.01115262322127819,-0.4390476385699671,0.0,0.00716649554669857,1.4297181367874146,0.0,0.023283421993255615
152.0,130.0,-0.6012,1.7474,9.4929,-0.0402,0.0224,-0.1171,-2.330712457696432,0.0,5.156805038452148,-0.9408793449401855,-0.0,2.1513307094573975,4.675378962154053,0.0,0.2680366039276123,-1.6074979940997522,0.0,0.005313465371727943,-0.4390676657306116,0.0,0.00030850106850266457,1.429693579673767,0.0,-0.004790292587131262
152.0,130.0,-0.6012,1.7474,9.4929,-0.0402,0.0224,-0.1171,-2.3307038746275843,0.0,5.130481719970703,-0.9408633708953857,-0.0,2.198369026184082,4.675382776851318,0.0,0.2688966393470764,-1.6074817816363733,0.0,-0.001824402017518878,-0.4390676657306116,0.0,-0.008108186535537243,1.4297622442245483,0.0,-0.02638763189315796
152.0,130.0,-0.6012,1.7474,9.4929,-0.0402,0.0224,-0.1171,-2.330696245233053,0.0,5.200366973876953,-0.9408674240112305,-0.0,2.141575574874878,4.675375147456787,0.0,0.2739742398262024,-1.6074731985675257,0.0,-0.004808359779417515,-0.4390152136432093,0.0,-0.003210905473679304,1.42972993850708,0.0,-0.018422238528728485
152.0,130.0,-0.6012,1.7474,9.4929,-0.0402,0.0224,-0.1171,-2.3306919536986292,0.0,5.120725631713867,-0.9408674240112305,-0.0,2.1840322017669678,4.675367041225098,0.0,0.2744818925857544,-1.6075261274920862,0.0,-0.0014035818167030811,-0.43908387819399053,0.0,-0.00602217810228467,1.4297583103179932,0.0,-0.005972239188849926
152.0,130.0,-0.6012,1.7474,9.4929,-0.0402,0.0224,-0.1171,-2.3306881390013636,0.0,5.1493730545043945,-0.9408999681472778,-0.0,2.2024121284484863,4.675362749690674,0.0,0.2765945792198181,-1.6074941794024866,0.0,-0.00815683975815773,-0.43904000917543584,0.0,-0.016267476603388786,1.42972993850708,0.0,0.0610802099108696
152.0,130.0,-0.6012,1.7474,9.4929,-0.0402,0.0224,-0.1171,-2.330712457696432,0.0,5.129308223724365,-0.9408431053161621,-0.0,2.165456771850586,4.675362749690674,0.0,0.28361764550209045,-1.6074493567096155,0.0,0.0044411285780370235,-0.439063851033346,0.0,-0.00339243421331048,1.4297258853912354,0.0,0.040070630609989166
155.0,134.0,-0.5515,1.7569,9.4684,-0.0356,0.0296,-0.1159,-2.3306480846800746,0.0,5.1067118644714355,-0.9408555030822754,-0.0,2.1416728496551514,4.675326033229492,0.0,0.28153204917907715,-1.607485596333639,0.0,-0.00875145010650158,-0.4390676657306116,0.0,-0.0005991611396893859,1.4297341108322144,0.0,0.0008009495213627815
155.0,134.0,-0.5515,1.7569,9.4684,-0.0356,0.0296,-0.1159,-2.3306719265379847,0.0,5.16383171081543,-0.9408275485038757,-0.0,2.1648855209350586,4.6753551202961425,0.0,0.26187050342559814,-1.6074817816363733,0.0,0.001876861322671175,-0.439063851033346,0.0,-0.01314474642276764,1.42972993850708,0.0,-0.0347004234790802
155.0,134.0,-0.5515,1.7569,9.4684,-0.0356,0.0296,-0.1159,-2.3306719265379847,0.0,5.1200151443481445,-0.9407913684844971,-0.0,2.1757969856262207,4.675330324763916,0.0,0.28385522961616516,-1.6074774901019495,0.0,-0.002970237284898758,-0.4390519301043909,0.0,-0.00836386438459158,1.4297057390213013,0.0,0.0005655610002577305
155.0,134.0,-0.5515,1.7569,9.4684,-0.0356,0.0296,-0.1159,-2.330668111840719,0.0,5.169426918029785,-0.9408513903617859,-0.0,2.1953208446502686,4.67535845815625,0.0,0.2725406587123871,-1.6075342337237757,0.0,-0.00609996821731329,-0.43907195726503545,0.0,0.0005168330390006304,1.4297139644622803,0.0,-0.017581110820174217
155.0,134.0,-0.5515,1.7569,9.4684,-0.0356,0.0296,-0.1159,-2.330668111840719,0.0,5.1446051597595215,-0.9408394694328308,-0.0,2.152451276779175,4.675375147456787,0.0,0.26523417234420776,-1.6074774901019495,0.0,-7.151439785957336e-05,-0.4389994780169886,0.0,0.0021402877755463123,1.4297500848770142,0.0,-0.002534736879169941
155.0,134.0,-0.5515,1.7569,9.4684,-0.0356,0.0296,-0.1159,-2.330656190911764,0.0,5.155643463134766,-0.94087153673172,-0.0,2.1801323890686035,4.675367041225098,0.0,0.27323049306869507,-1.60746938387026,0.0,0.004321558866649866,-0.4390195051776331,0.0,0.008179518394172192,1.4297176599502563,0.0,-0.022241394966840744
155.0,134.0,-0.5515,1.7569,9.4684,-0.0356,0.0296,-0.1159,-2.330684324304098,0.0,5.134304046630859,-0.9408234357833862,-0.0,2.1762232780456543,4.675338430995605,0.0,0.2731652557849884,-1.607457462941305,0.0,0.007671653758734465,-0.4390519301043909,0.0,0.0017758170142769814,1.4297218322753906,0.0,-0.009742319583892822
155.0,134.0,-0.5515,1.7569,9.4684,-0.0356,0.0296,-0.1159,-2.330736299554342,0.0,5.1340718269348145,-0.9408514499664307,-0.0,2.193683624267578,4.675378962154053,0.0,0.26573193073272705,-1.6074650923358362,0.0,-0.003073702100664377,-0.4390795866595667,0.0,0.012124204076826572,1.4297336339950562,0.0,0.002402558457106352
155.0,134.0,-0.5515,1.7569,9.4684,-0.0356,0.0296,-0.1159,-2.3306919536986292,0.0,5.1664862632751465,-0.9408435821533203,-0.0,2.136090040206909,4.6753551202961425,0.0,0.26872456073760986,-1.6074774901019495,0.0,-0.006192498374730349,-0.439035717641012,0.0,-0.007896299473941326,1.429693579673767,0.0,0.018668171018362045
155.0,134.0,-0.5515,1.7569,9.4684,-0.0356,0.0296,-0.1159,-2.3307401142516078,0.0,5.13720178604126,-0.9408637285232544,-0.0,2.1578001976013184,4.6753551202961425,0.0,0.2668662965297699,-1.60746938387026,0.0,0.00431728083640337,-0.43905574480165654,0.0,-0.01032197568565607,1.4296976327896118,0.0,0.03283577039837837
155.0,134.0,-0.5515,1.7569,9.4684,-0.0356,0.0296,-0.1159,-2.3306719265379847,0.0,5.170650482177734,-0.9408833980560303,-0.0,2.2050278186798096,4.675297899837158,0.0,0.2628616690635681,-1.6075142065631312,0.0,0.004714038223028183,-0.4390676657306116,0.0,-0.0017465127166360617,1.4297139644622803,0.0,0.031377144157886505
155.0,134.0,-0.5515,1.7569,9.4684,-0.0356,0.0296,-0.1159,-2.3306881390013636,0.0,5.1673665046691895,-0.9409040808677673,-0.0,2.1784164905548096,4.6753551202961425,0.0,0.27948036789894104,-1.6075180212603968,0.0,-0.01011719647794962,-0.4390476385699671,0.0,-0.002690519904717803,1.429701566696167,0.0,-0.0331384614109993
155.0,134.0,-0.5515,1.7569,9.4684,-0.0356,0.0296,-0.1159,-2.3307000599303187,0.0,5.1396894454956055,-0.940879762172699,-0.0,2.136258363723755,4.675378962154053,0.0,0.2760330140590668,-1.6074774901019495,0.0,-0.015489303506910801,-0.43908387819399053,0.0,-0.005563740618526936,1.4297419786453247,0.0,-0.0035858452320098877
155.0,134.0,-0.5515,1.7569,9.4684,-0.0356,0.0296,-0.1159,-2.3307043514647425,0.0,5.137552738189697,-0.9408353567123413,-0.0,2.166813373565674,4.675370855922363,0.0,0.26575547456741333,-1.60746938387026,0.0,-0.013836340047419071,-0.4390352408038538,0.0,-0.0003137656021863222,1.4297136068344116,0.0,0.027231872081756592
155.0,134.0,-0.5515,1.7569,9.4684,-0.0356,0.0296,-0.1159,-2.3306762180724085,0.0,5.161131858825684,-0.9408555030822754,-0.0,2.184699773788452,4.675374670619629,0.0,0.2743460237979889,-1.6074898878680628,0.0,0.00018304074183106422,-0.43908387819399053,0.0,-0.005620707757771015,1.4297341108322144,0.0,-0.009698516689240932
154.0,132.0,-0.5264,1.7318,9.4337,-0.0353,0.0215,-0.1197,-2.3306719265379847,0.0,5.1695098876953125,-0.9408078789710999,-0.0,2.172637462615967,4.675382776851318,0.0,0.280481219291687,-1.6075018087970179,0.0,-0.0035094881895929575,-0.43905574480165654,0.0,-0.00013933885202277452,1.429685354232788,0.0,-7.982505485415459e-05
154.0,132.0,-0.5264,1.7318,9.4337,-0.0353,0.0215,-0.1197,-2.3307200870909632,0.0,5.145758152008057,-0.9408271908760071,-0.0,2.1805756092071533,4.675367041225098,0.0,0.2726861536502838,-1.60746938387026,0.0,-0.001651254016906023,-0.43908769289125615,0.0,-0.008198238909244537,1.4297741651535034,0.0,0.007762949913740158
154.0,132.0,-0.5264,1.7318,9.4337,-0.0353,0.0215,-0.1197,-2.3307200870909632,0.0,5.153478622436523,-0.9408637285232544,-0.0,2.2183330059051514,4.675326033229492,0.0,0.27534836530685425,-1.6074774901019495,0.0,0.005540995392948389,-0.43910390535463506,0.0,0.0021684495732188225,1.4297255277633667,0.0,0.0056607527658343315
154.0,132.0,-0.5264,1.7318,9.4337,-0.0353,0.0215,-0.1197,-2.3306766949095667,0.0,5.140686511993408,-0.9408357739448547,-0.0,2.152334213256836,4.675334139461182,0.0,0.28381818532943726,-1.607457462941305,0.0,-0.0006945175118744373,-0.4390671888934534,0.0,-0.00934284832328558,1.4297664165496826,0.0,-0.014572778716683388
154.0,132.0,-0.5264,1.7318,9.4337,-0.0353,0.0215,-0.1197,-2.330724378625387,0.0,5.1610612869262695,-0.9408755898475647,-0.0,2.1784791946411133,4.675346537227295,0.0,0.28080886602401733,-1.607457462941305,0.0,0.0006092304829508066,-0.4390476385699671,0.0,-0.0014337589964270592,1.429786205291748,0.0,0.025295067578554153
154.0,132.0,-0.5264,1.7318,9.4337,-0.0353,0.0215,-0.1197,-2.3307324848570765,0.0,5.162277698516846,-0.9408357739448547,-0.0,2.1944398880004883,4.675362749690674,0.0,0.27318188548088074,-1.607485596333639,0.0,0.0025929484982043505,-0.4390915075885218,0.0,-0.007543627638369799,1.4297499656677246,0.0,-0.005537627264857292
154.0,132.0,-0.5264,1.7318,9.4337,-0.0353,0.0215,-0.1197,-2.3306762180724085,0.0,5.097103118896484,-0.9408678412437439,-0.0,2.167792797088623,4.675378962154053,0.0,0.2681063711643219,-1.6074941794024866,0.0,-0.0015221575740724802,-0.43902331987489873,0.0,-0.007258199155330658,1.4296934604644775,0.0,-0.005901244468986988
154.0,132.0,-0.5264,1.7318,9.4337,-0.0353,0.0215,-0.1197,-2.330655714074606,0.0,5.134639739990234,-0.9407987594604492,-0.0,2.150336503982544,4.675370855922363,0.0,0.26420101523399353,-1.6074898878680628,0.0,0.0028992388397455215,-0.43902331987489873,0.0,0.012687278911471367,1.4297659397125244,0.0,0.005807958543300629
154.0,132.0,-0.5264,1.7318,9.4337,-0.0353,0.0215,-0.1197,-2.330696245233053,0.0,5.118686676025391,-0.9407708048820496,-0.0,2.1746225357055664,4.67535845815625,0.0,0.2740286886692047,-1.6074941794024866,0.0,-0.004359007813036442,-0.4390519301043909,0.0,-0.005452638957649469,1.4297820329666138,0.0,0.005238696932792664
154.0,132.0,-0.5264,1.7318,9.4337,-0.0353,0.0215,-0.1197,-2.3306642971434535,0.0,5.103796482086182,-0.9407954812049866,-0.0,2.1589508056640625,4.67535845815625,0.0,0.27499982714653015,-1.6074979940997522,0.0,-0.0001888819970190525,-0.43902331987489873,0.0,0.0023254493717104197,1.4297738075256348,2.7808679838037254e-12,0.00544954976066947
154.0,132.0,-0.5264,1.7318,9.4337,-0.0353,0.0215,-0.1197,-2.3307205639281214,0.0,5.111238956451416,-0.9408435821533203,-0.0,2.196836471557617,4.675378962154053,0.0,0.2756251394748688,-1.60746938387026,0.0,0.001809355802834034,-0.43910390535463506,0.0,-0.007344101555645466,1.429757833480835,0.0010067662224173546,-0.0336897075176239
154.0,132.0,-0.5264,1.7318,9.4337,-0.0353,0.0215,-0.1197,-2.3307157955565394,0.0,5.10107421875,-0.94083571434021,-0.0,2.1735477447509766,4.675363226527832,0.0,0.2753109633922577,-1.6074736754046839,0.0,-0.011170290410518646,-0.4390757719623011,0.0,0.006487338803708553,1.429818034172058,0.002142489654943347,0.0401984304189682
154.0,132.0,-0.5264,1.7318,9.4337,-0.0353,0.0215,-0.1197,-2.330700536767477,0.0,5.108734130859375,-0.9408233761787415,-0.0,2.173280715942383,4.6753551202961425,0.0,0.2850986123085022,-1.6074374357806605,0.0,-0.009091218933463097,-0.43907195726503545,0.0,0.007407986558973789,1.429825782775879,0.001961961155757308,-0.013839615508913994
154.0,132.0,-0.5264,1.7318,9.4337,-0.0353,0.0215,-0.1197,-2.3307043514647425,0.0,5.113926887512207,-0.9408755898475647,-0.0,2.171678066253662,4.675346537227295,0.0,0.26970240473747253,-1.60746938387026,0.0,-0.011473176069557667,-0.4390314261065882,0.0,-0.011410838924348354,1.4298582077026367,0.0013533361488953233,-0.010264352895319462
153.0,138.0,-0.2459,1.6349,9.131,-0.042,0.0221,-0.108,-2.330655714074606,0.0,5.143355369567871,-0.9408233761787415,-0.0,2.2179036140441895,4.675302191371582,0.0,0.283071368932724,-1.607502285634176,0.0,-0.007725385949015617,-0.43908387819399053,0.0,0.011950619518756866,1.4298336505889893,0.0009413295192644,-0.017622455954551697
153.0,138.0,-0.2459,1.6349,9.131,-0.042,0.0221,-0.108,-2.3307281933226527,0.0,5.131908893585205,-0.9408037066459656,-0.0,2.1867051124572754,4.675346537227295,0.0,0.2751308083534241,-1.60746938387026,0.0,-0.008534436114132404,-0.43902761140932256,0.0,0.0017931493930518627,1.4298017024993896,0.0006657587946392596,-0.004268300719559193
153.0,138.0,-0.2459,1.6349,9.131,-0.042,0.0221,-0.108,-2.330684324304098,0.0,5.146605968475342,-0.9408313035964966,-0.0,2.2076191902160645,4.675338430995605,0.0,0.2742249667644501,-1.6075099150287073,0.0,-0.007651271764189005,-0.4390671888934534,0.0,-0.006347606889903545,1.4298057556152344,0.00043002032907679677,0.029037924483418465
153.0,138.0,-0.2459,1.6349,9.131,-0.042,0.0221,-0.108,-2.330696245233053,0.0,5.152865886688232,-0.9408596158027649,-0.0,2.1711525917053223,4.675375147456787,0.0,0.27039116621017456,-1.6075142065631312,0.0,-0.008844636380672455,-0.4390514532672327,0.0,-0.007206492591649294,1.4297734498977661,0.0001164098284789361,0.06528827548027039
153.0,138.0,-0.2459,1.6349,9.131,-0.042,0.0221,-0.108,-2.330680032769674,0.0,5.122186660766602,-0.9408879280090332,-0.0,2.12642502784729,4.67535845815625,0.0,0.27280953526496887,-1.6074941794024866,0.0,-0.0026479645166546106,-0.4390795866595667,0.0,0.010137757286429405,1.429818034172058,1.680715831753332e-05,0.014413593336939812
153.0,138.0,-0.2459,1.6349,9.131,-0.042,0.0221,-0.108,-2.3307043514647425,0.0,5.150346755981445,-0.94087153673172,-0.0,2.1762943267822266,4.675309820766113,0.0,0.28162211179733276,-1.6074979940997522,0.0,-0.015621737577021122,-0.43902761140932256,0.0,-0.005014487542212009,1.4297819137573242,4.0587307820194596e-11,0.009792598895728588
153.0,138.0,-0.2459,1.6349,9.131,-0.042,0.0221,-0.108,-2.330655714074606,0.0,5.145675182342529,-0.9408596158027649,-0.0,2.1729366779327393,4.6753551202961425,0.0,0.28916460275650024,-1.6075099150287073,0.0,-0.013489710167050362,-0.4390195051776331,0.0,0.0017998896073549986,1.4297376871109009,9.801357045858411e-17,0.039553869515657425
153.0,138.0,-0.2459,1.6349,9.131,-0.042,0.0221,-0.108,-2.3306356869139613,0.0,5.118731498718262,-0.9408634305000305,-0.0,2.2025091648101807,4.675334139461182,0.0,0.28237611055374146,-1.6074817816363733,0.0,-0.014826535247266293,-0.4390471617328089,0.0,-0.002078972291201353,1.4297417402267456,-0.0012480837758630514,0.006991139147430658
153.0,138.0,-0.2459,1.6349,9.131,-0.042,0.0221,-0.108,-2.330684324304098,0.0,5.155586242675781,-0.9408637881278992,-0.0,2.214495897293091,4.675338430995605,0.0,0.2740342915058136,-1.60746938387026,0.0,0.007322435732930899,-0.43904000917543584,0.0,0.009655087254941463,1.4297057390213013,-0.001275479793548584,-0.03164094313979149
153.0,138.0,-0.2459,1.6349,9.131,-0.042,0.0221,-0.108,-2.3307043514647425,0.0,5.160082817077637,-0.9409164190292358,-0.0,2.1754884719848633,4.675370855922363,0.0,0.28312766551971436,-1.6074774901019495,0.0,-0.001439612009562552,-0.43902761140932256,0.0,0.0006787392776459455,1.4297218322753906,-0.0007880815537646413,-0.01573856920003891
153.0,138.0,-0.2459,1.6349,9.131,-0.042,0.0221,-0.108,-2.330712457696432,0.0,5.142242431640625,-0.9408069252967834,-0.0,2.2007040977478027,4.675346537227295,0.0,0.28247353434562683,-1.6074817816363733,0.0,-0.007168648764491081,-0.4390037695514124,0.0,0.005685259588062763,1.4296693801879883,-0.0006393551011569798,-0.01740923337638378
153.0,138.0,-0.2459,1.6349,9.131,-0.042,0.0221,-0.108,-2.3306919536986292,0.0,5.14454984664917,-0.940811038017273,2.6884996259468608e-05,2.162337303161621,4.675367041225098,0.0,0.275097131729126,-1.6075261274920862,0.0,-0.015688827261328697,-0.4390476385699671,0.0,-0.002791407983750105,1.4297218322753906,-0.0004900881904177368,-0.0027266228571534157
153.0,138.0,-0.2459,1.6349,9.131,-0.042,0.0221,-0.108,-2.3307324848570765,2.598352111249369e-08,5.114152908325195,-0.9408596158027649,2.558643973316066e-05,2.1992316246032715,4.6753222185322265,0.0,0.27173951268196106,-1.6074655691729944,0.0,-0.005407202057540417,-0.4390600363360804,0.0,-0.002075997181236744,1.4297376871109009,-0.000397337629692629,-0.02059265226125717
153.0,138.0,-0.2459,1.6349,9.131,-0.042,0.0221,-0.108,-2.3307281933226527,6.27471436354804e-14,5.150810718536377,-0.9408354163169861,2.4539964215364307e-05,2.1610097885131836,4.675330324763916,0.0,0.2852746844291687,-1.6075018087970179,0.0,-0.003502200124785304,-0.43907148042787725,0.0,-0.009849876165390015,1.4297659397125244,-0.00012112825061194599,-0.009145981632173061
157.0,131.0,-0.323,1.599,9.5252,-0.0316,0.0165,-0.1126,-2.3306881390013636,1.5152699003764688e-19,5.147500038146973,-0.9408714771270752,2.357576522626914e-05,2.182473659515381,4.675334139461182,0.0,0.27249810099601746,-1.60746938387026,0.0,-0.007746223360300064,-0.4390957991229456,0.0,0.0037513417191803455,1.4297336339950562,-0.00010005792864831164,0.038551896810531616
157.0,131.0,-0.323,1.599,9.5252,-0.0316,0.0165,-0.1126,-2.330708166162008,3.659198362044607e-25,5.131767272949219,-0.9408514499664307,2.2684440409648232e-05,2.213438034057617,4.675350828761719,0.0,0.280604749917984,-1.6074608008014124,0.0,-0.012616578489542007,-0.43905574480165654,0.0,-0.0026423525996506214,1.4297418594360352,-1.7527484033053042e-06,-0.011052710935473442
157.0,131.0,-0.323,1.599,9.5252,-0.0316,0.0165,-0.1126,-2.330695768395895,8.836532398690614e-31,5.116522789001465,-0.9408555030822754,1.0929719792329706e-05,2.175234794616699,4.675318403834961,0.0,0.27048221230506897,-1.6075061003314417,0.0,-0.0030221398919820786,-0.4390152136432093,0.0,0.0022660535760223866,1.4297738075256348,-4.232680612253903e-12,-0.005769123788923025
157.0,131.0,-0.323,1.599,9.5252,-0.0316,0.0165,-0.1126,-2.3307401142516078,2.862923668317896e-38,5.153353691101074,-0.9408555030822754,1.2142861578468e-06,2.1588428020477295,4.675358934993408,3.0937903350292117e-09,0.27013981342315674,-1.6075857321368616,-0.0018185182707384229,-0.02191571146249771,-0.4390957991229456,0.0,-0.010582491755485535,1.4298464059829712,-1.3713347869255306e-19,0.016273729503154755
157.0,131.0,-0.323,1.599,9.5252,-0.0316,0.0165,-0.1126,-2.3307200870909632,6.866362475191604e-44,5.122032642364502,-0.9408875107765198,2.932357915513828e-12,2.168649196624756,4.675330801601074,8.61167962027537e-13,0.27357518672943115,-1.6076296011554163,-0.0031823767349123955,-0.01095379889011383,-0.4390795866595667,0.0,-0.012194555252790451,1.4298659563064575,0.005314709153026342,0.0828636884689331
157.0,131.0,-0.323,1.599,9.5252,-0.0316,0.0165,-0.1126,-2.3307000599303187,0.0,5.111616134643555,-0.94087153673172,7.081299663803133e-18,2.178391218185425,4.675274057979248,2.3970923881200333e-16,0.26453259587287903,-1.6075852552997034,-0.0017416417831555009,-0.032316654920578,-0.43896323839296514,0.0,-0.0023513170890510082,1.4299299716949463,0.013356523588299751,0.1360856592655182
157.0,131.0,-0.323,1.599,9.5252,-0.0316,0.0165,-0.1126,-2.3307444057860316,0.0,5.1219048500061035,-0.9408477544784546,1.7100505451657706e-23,2.146027088165283,4.675306959743164,6.672395542491885e-20,0.2454022467136383,-1.6076458136187952,-0.0012958188308402896,-0.03195979446172714,-0.4390600363360804,0.0,-0.011386847123503685,1.4300460815429688,0.022464534267783165,0.17899620532989502
157.0,131.0,-0.323,1.599,9.5252,-0.0316,0.0165,-0.1126,-2.3307157955565394,0.0,5.067542552947998,-0.9408473372459412,4.129570861738158e-29,2.102591037750244,4.675286455745361,1.857285911098936e-23,0.2571865916252136,-1.6076820532428187,-0.0021690763533115387,-0.03842337056994438,-0.4390519301043909,0.0,0.0014230157248675823,1.4302138090133667,0.032738231122493744,0.25383052229881287
157.0,131.0,-0.323,1.599,9.5252,-0.0316,0.0165,-0.1126,-2.3306757412352503,0.0,5.045514106750488,-0.9408355951309204,9.972428007233285e-35,2.111482858657837,4.675322695369385,5.169823823897211e-27,0.24832509458065033,-1.6076858679400843,-0.004891021642833948,-0.04032445326447487,-0.4390519301043909,0.0,0.01044504251331091,1.4304016828536987,0.04176168143749237,0.29234999418258667
157.0,131.0,-0.323,1.599,9.5252,-0.0316,0.0165,-0.1126,-2.3307281933226527,0.0,5.044518947601318,-0.9408518671989441,2.408229501834701e-40,2.1318869590759277,4.675306482906006,-0.00011801726941484958,0.25870415568351746,-1.6077020804034632,-0.006200451869517565,-0.04720965027809143,-0.43903953233827764,0.0,-0.0017814399907365441,1.4307337999343872,0.0503784604370594,0.32850897312164307
157.0,131.0,-0.323,1.599,9.5252,-0.0316,0.0165,-0.1126,-2.330712457696432,0.0,5.0950117111206055,-0.9407873153686523,0.0,2.138908863067627,4.675363226527832,-4.670343332691118e-05,0.2447783648967743,-1.60768968263735,-0.004388222936540842,-0.04438594728708267,-0.439035717641012,0.0,0.004178838804364204,1.431157112121582,0.061935905367136,0.33446845412254333
157.0,131.0,-0.323,1.599,9.5252,-0.0316,0.0165,-0.1126,-2.3306762180724085,0.0,5.070009231567383,-0.9408078193664551,0.0017736338777467608,2.130235195159912,4.675382776851318,-1.3000073906255238e-08,0.2553008794784546,-1.607673470173971,-0.0009396906243637204,-0.03436456248164177,-0.43907148042787725,0.0,0.00245628971606493,1.4315814971923828,0.07036029547452927,0.298916757106781
157.0,131.0,-0.323,1.599,9.5252,-0.0316,0.0165,-0.1126,-2.330668111840719,0.0,5.082463264465332,-0.9407317042350769,0.0023144343867897987,2.1153485774993896,4.675346537227295,-3.6186184257380738e-12,0.2614362835884094,-1.60768968263735,-0.00015405291924253106,-0.031861983239650726,-0.43903953233827764,0.0,-0.0018445136956870556,1.432028889656067,0.08033867925405502,0.31505799293518066
157.0,131.0,-0.323,1.599,9.5252,-0.0316,0.0165,-0.1126,-2.330680032769674,0.0,5.119338035583496,-0.9407355189323425,0.0024973400868475437,2.1575560569763184,4.675338430995605,-1.0072557937327925e-15,0.2682825028896332,-1.6076939741717737,-8.124940364950817e-08,-0.03648946434259415,-0.43908769289125615,0.0,-0.009814837947487831,1.4325528144836426,0.0862208753824234,0.2910917401313782
150.0,136.0,0.1298,1.1468,9.3494,-0.0476,0.0452,-0.0872,-2.3306762180724085,0.0,5.0870866775512695,-0.9407798647880554,0.001975943334400654,2.2081222534179688,4.675314589137695,-2.803733339139433e-19,0.27562034130096436,-1.6076696554767054,-2.261607047471248e-11,-0.03879165276885033,-0.43901092210878545,0.0,0.0034027001820504665,1.4331127405166626,0.08537917584180832,0.26463693380355835
150.0,136.0,0.1298,1.1468,9.3494,-0.0476,0.0452,-0.0872,-2.330668111840719,0.0,5.0530009269714355,-0.9406671524047852,0.0012061519082635641,2.1629638671875,4.675338430995605,-7.804294336482648e-23,0.2637799382209778,-1.607645336781637,-6.2952666015736285e-15,-0.019681476056575775,-0.43902331987489873,0.0,0.004611880984157324,1.4335720539093018,0.07949210703372955,0.23351594805717468
150.0,136.0,0.1298,1.1468,9.3494,-0.0476,0.0452,-0.0872,-2.3307320080199183,0.0,5.0850114822387695,-0.940743625164032,0.0006112551200203598,2.1894922256469727,4.6753222185322265,-2.1723540674411426e-26,0.27495312690734863,-1.6076653639422815,-1.7523105765706033e-18,-0.02953585609793663,-0.4390190283404749,0.0,0.011273418553173542,1.4340237379074097,0.07025711238384247,0.16370901465415955
150.0,136.0,0.1298,1.1468,9.3494,-0.0476,0.0452,-0.0872,-2.3307486973204554,0.0,5.09951114654541,-0.9407394528388977,-0.00037631872692145407,2.1371493339538574,4.675306959743164,-3.948146511841287e-31,0.2838537096977234,-1.6076696554767054,-3.1847378128272485e-23,-0.02862345054745674,-0.43904334703554326,0.0,-0.0012828648323193192,1.4344950914382935,0.06028589978814125,0.1276426613330841
150.0,136.0,0.1298,1.1468,9.3494,-0.0476,0.0452,-0.0872,-2.330723901788229,0.0,5.104136943817139,-0.9407675862312317,-0.001626524026505649,2.179965019226074,4.675253553981445,-1.0989810332264061e-34,0.2713319659233093,-1.6076534430133265,0.0003280769451521337,-0.020261719822883606,-0.43904000917543584,0.0,0.0009177288739010692,1.4348387718200684,0.05449744313955307,0.15415732562541962
150.0,136.0,0.1298,1.1468,9.3494,-0.0476,0.0452,-0.0872,-2.3307401142516078,0.0,5.117893695831299,-0.9408316016197205,-0.0014170936774462461,2.18253231048584,4.6752869325825195,-3.0590536052801905e-38,0.2582147419452667,-1.6076539198504847,0.0003247469139751047,-0.015401704236865044,-0.4390795866595667,0.0,0.0030851059127599,1.4351228475570679,0.04723675549030304,0.1274038404226303
150.0,136.0,0.1298,1.1468,9.3494,-0.0476,0.0452,-0.0872,-2.3307486973204554,0.0,5.160820007324219,-0.9408069849014282,-0.0007833595154806972,2.2045249938964844,4.675250692958496,-8.514289469237589e-42,0.2534668445587158,-1.6076458136187952,0.0003439903084654361,-0.015181837603449821,-0.43905955949892217,0.0,-0.00832430925220251,1.4353545904159546,0.038300901651382446,0.08801533281803131
150.0,136.0,0.1298,1.1468,9.3494,-0.0476,0.0452,-0.0872,-2.330719610253805,0.0,5.150246620178223,-0.9408109784126282,-0.0005142653826624155,2.1695969104766846,4.675338907832764,-2.802596928649634e-45,0.26372864842414856,-1.6077106634723108,0.00041559271630831063,-0.018066905438899994,-0.43902713457216436,0.0,0.005712341051548719,1.4355382919311523,0.02579502947628498,0.09887093305587769
150.0,136.0,0.1298,1.1468,9.3494,-0.0476,0.0452,-0.0872,-2.330736299554342,0.0,5.115994453430176,-0.9407835006713867,-0.00038291895180009305,2.2108945846557617,4.67532651006665,-0.0,0.27066096663475037,-1.6076625029193323,0.00040256386273540556,-0.012219805270433426,-0.4391077200519007,0.0,0.008546186611056328,1.4356257915496826,0.014904515817761421,0.024825075641274452
150.0,136.0,0.1298,1.1468,9.3494,-0.0476,0.0452,-0.0872,-2.330764432946676,0.0,5.144375801086426,-0.9407634735107422,-0.00030502938898280263,2.15433669090271,4.675370855922363,-0.0,0.2691608965396881,-1.6076338926898401,0.0003293878398835659,-0.003943478688597679,-0.4390671888934534,0.0,0.0053529213182628155,1.4356491565704346,0.00672558881342411,0.08791320770978928
150.0,136.0,0.1298,1.1468,9.3494,-0.0476,0.0452,-0.0872,-2.3307320080199183,0.0,5.1228742599487305,-0.9408397078514099,-0.00023995741503313184,2.1404192447662354,4.675306959743164,-0.0,0.261927992105484,-1.6075852552997034,0.000308835442410782,-0.012525995261967182,-0.4390757719623011,0.0,-0.002191922627389431,1.435701847076416,0.0010430585825815797,0.07903549075126648
150.0,136.0,0.1298,1.1468,9.3494,-0.0476,0.0452,-0.0872,-2.3307320080199183,0.0,5.147366523742676,-0.9408274292945862,-0.00016549279098398983,2.2007222175598145,4.675318880672119,-0.0,0.2641758918762207,-1.6076090971576136,0.00026927157887257636,-0.012862484902143478,-0.4389870802508753,0.0,-0.0027927032206207514,1.4357143640518188,-0.0026952128391712904,0.049154072999954224
150.0,136.0,0.1298,1.1468,9.3494,-0.0476,0.0452,-0.0872,-2.330703397790426,0.0,5.188749313354492,-0.9407835006713867,-0.00010909481352427974,2.138719320297241,4.67533461629834,-0.0,0.26796871423721313,-1.6075895468341272,0.0002386632259003818,-0.0013239497784525156,-0.43908387819399053,0.0,-0.00903752725571394,1.4356017112731934,-0.0065477085299789906,0.013998311012983322
150.0,136.0,0.1298,1.1468,9.3494,-0.0476,0.0452,-0.0872,-2.330736299554342,0.0,5.07551383972168,-0.9407995939254761,0.00015354699280578643,2.1398191452026367,4.67530266820874,-0.0,0.2757710814476013,-1.6076133886920374,0.000214304294786416,-0.0036616590805351734,-0.43904000917543584,0.0,-0.0017151795327663422,1.4355214834213257,-0.010845665819942951,0.013836138881742954
150.0,136.0,0.1298,1.1468,9.3494,-0.0476,0.0452,-0.0872,-2.3307200870909632,0.0,5.087899208068848,-0.9407477378845215,0.001054798369295895,2.198315143585205,4.675322695369385,-0.0,0.2755683660507202,-1.607577149068014,0.00019445744692347944,0.003394774626940489,-0.439063851033346,0.0,-0.014687509275972843,1.4354174137115479,-0.014198731631040573,0.009016175754368305
158.0,134.0,-1.1127,2.3222,9.4911,-0.0281,0.0027,-0.1225,-2.3307320080199183,0.0,5.139405250549316,-0.9407798647880554,0.0012396092060953379,2.148268699645996,4.675310297603271,-0.0,0.27268436551094055,-1.6075895468341272,0.00017797574400901794,-0.004746117629110813,-0.43908769289125615,0.0,0.004933122545480728,1.4353538751602173,-0.014747964218258858,-0.0008810181170701981
158.0,134.0,-1.1127,2.3222,9.4911,-0.0281,0.0027,-0.1225,-2.330736299554342,0.0,5.145077705383301,-0.9407317042350769,0.000958855205681175,2.17218017578125,4.675342722530029,-0.0,0.28121218085289,-1.607638184224264,0.000164069642778486,-0.008562862873077393,-0.4390190283404749,0.0,-0.0031293872743844986,1.4352701902389526,-0.014512455090880394,0.04425397515296936
158.0,134.0,-1.1127,2.3222,9.4911,-0.0281,0.0027,-0.1225,-2.3307200870909632,0.0,5.150581359863281,-0.940719485282898,0.0007062592776492238,2.124840021133423,4.675306482906006,-0.0,0.2801400423049927,-1.607617203389303,0.0001521795056760311,0.013458394445478916,-0.43905574480165654,0.0,-0.01100839301943779,1.4351775646209717,-0.01190659124404192,0.011088348925113678
158.0,134.0,-1.1127,2.3222,9.4911,-0.0281,0.0027,-0.1225,-2.3307401142516078,0.0,5.16057014465332,-0.9407839179039001,0.0006019417196512222,2.1643943786621094,4.675298376674316,-0.0,0.2850900888442993,-1.607638184224264,0.00015859193808864802,-0.009904790669679642,-0.4390314261065882,0.0,0.0034362156875431538,1.4351383447647095,-0.009844529442489147,0.03975318744778633
158.0,134.0,-1.1127,2.3222,9.4911,-0.0281,0.0027,-0.1225,-2.330696245233053,0.0,5.143368721008301,-0.9407684206962585,0.001621891395188868,2.1498148441314697,4.675229712123535,-0.0,0.2784748077392578,-1.6076296011554163,0.0001487639092374593,-0.002709153573960066,-0.4390795866595667,0.0,-0.002463242970407009,1.4350425004959106,-0.009778084233403206,0.04440087825059891
158.0,134.0,-1.1127,2.3222,9.4911,-0.0281,0.0027,-0.1225,-2.3307401142516078,0.0,5.187255859375,-0.9406836032867432,0.00298690446652472,2.1804068088531494,4.675295038814209,-0.0,0.29207855463027954,-1.6075571219073694,0.00014008054859004915,-0.011733639985322952,-0.43900758424867803,0.0,-0.001349564641714096,1.4350426197052002,-0.009957924485206604,-0.010932805016636848
158.0,134.0,-1.1127,2.3222,9.4911,-0.0281,0.0027,-0.1225,-2.3307200870909632,0.0,5.179359436035156,-0.9407162070274353,0.003838790114969015,2.1600308418273926,4.67530266820874,-0.0,0.2845199704170227,-1.6076338926898401,0.00013235543156042695,-0.018861493095755577,-0.4390519301043909,0.0,-0.001054705586284399,1.4349020719528198,-0.01085509080439806,0.014152522198855877
158.0,134.0,-1.1127,2.3222,9.4911,-0.0281,0.0027,-0.1225,-2.330724378625387,0.0,5.164973735809326,-0.9406358599662781,0.0028945801313966513,2.188267469406128,4.675294561977051,-0.0,0.29263001680374146,-1.6076214949237269,0.00010243296128464863,0.0009616251336410642,-0.4389994780169886,0.0,0.01800115779042244,1.43485426902771,-0.010608439333736897,0.016545062884688377
158.0,134.0,-1.1127,2.3222,9.4911,-0.0281,0.0027,-0.1225,-2.3307401142516078,0.0,5.17574405670166,-0.9405956268310547,0.0017474791966378689,2.1515145301818848,4.675306482906006,-0.0,0.281747430562973,-1.6075814406024378,8.886104478733614e-05,-0.016000578179955482,-0.43899518648256475,0.0,0.0027496085967868567,1.4348063468933105,-0.01014495175331831,-0.010789237916469574
158.0,134.0,-1.1127,2.3222,9.4911,-0.0281,0.0027,-0.1225,-2.3306638203062953,0.0,5.155787467956543,-0.9406280517578125,0.0007989111472852528,2.166327476501465,4.675314589137695,-0.0,0.2935614585876465,-1.6075976530658167,8.38892228784971e-05,-0.007029932923614979,-0.4389994780169886,0.0,0.013351557776331902,1.4347182512283325,-0.009326118975877762,0.05315956473350525
158.0,134.0,-1.1127,2.3222,9.4911,-0.0281,0.0027,-0.1225,-2.330695768395895,0.0,5.145018100738525,-0.9406518936157227,0.0005603354657068849,2.1565797328948975,4.675282641048096,-0.0,0.2861294150352478,-1.6076019446002405,7.8067765571177e-05,-0.0029699273873120546,-0.4390037695514124,0.0,0.035289403051137924,1.4346539974212646,-0.01060708798468113,0.007196143735200167
158.0,134.0,-1.1127,2.3222,9.4911,-0.0281,0.0027,-0.1225,-2.3307687244811,0.0,5.12568473815918,-0.9406560063362122,0.00047547329450026155,2.226634979248047,4.6753269869038085,-0.0,0.2925553321838379,-1.607565704976217,8.902986155590042e-05,-0.01861364208161831,-0.43900758424867803,0.0,0.02725861221551895,1.4346306324005127,-0.011448560282588005,-0.0029129544273018837
158.0,134.0,-1.1127,2.3222,9.4911,-0.0281,0.0027,-0.1225,-2.3306919536986292,0.0,5.170336723327637,-0.9406198859214783,0.0014990913914516568,2.182849645614624,4.675338907832764,-0.0,0.2911745011806488,-1.607565704976217,8.484920545015484e-05,-0.012871386483311653,-0.4390190283404749,0.0,0.014080304652452469,1.434525966644287,-0.013093899935483932,-0.054274652153253555
158.0,134.0,-1.1127,2.3222,9.4911,-0.0281,0.0027,-0.1225,-2.3307157955565394,0.0,5.108806610107422,-0.940623939037323,0.0022648011799901724,2.1630427837371826,4.675314589137695,-0.0,0.29244834184646606,-1.6075575987445276,8.102948777377605e-05,-0.00691911019384861,-0.43905622163881475,0.0,0.025094373151659966,1.4344662427902222,-0.01354457437992096,0.000691629946231842
161.0,132.0,-0.929,1.8945,10.0092,-0.0308,0.0324,-0.1319,-2.3307200870909632,0.0,5.0654425621032715,-0.940632164478302,0.002928942209109664,2.1316657066345215,4.67531077444043,-0.0,0.2767372727394104,-1.6076338926898401,7.753898535156623e-05,-0.02437632530927658,-0.4390037695514124,0.0,0.039157092571258545,1.4343945980072021,-0.013498332351446152,0.006099470891058445
161.0,132.0,-0.929,1.8945,10.0092,-0.0308,0.0324,-0.1319,-2.330724378625387,0.0,5.102916717529297,-0.9405602812767029,0.003065256867557764,2.2145540714263916,4.675295038814209,-0.0,0.28548967838287354,-1.6076057592975062,7.433674181811512e-05,-0.00875373650342226,-0.43897945085634404,0.0,0.02383125200867653,1.4343187808990479,-0.012545938603579998,-0.041172586381435394
161.0,132.0,-0.929,1.8945,10.0092,-0.0308,0.0324,-0.1319,-2.3307401142516078,0.0,5.078120231628418,-0.9405518770217896,0.0026734655257314444,2.2149994373321533,4.67530266820874,-0.0,0.28134146332740784,-1.6075895468341272,7.138848741305992e-05,-0.012524653226137161,-0.43898326555360967,0.0,0.031146861612796783,1.4342586994171143,-0.011875133961439133,-0.04263759404420853
161.0,132.0,-0.929,1.8945,10.0092,-0.0308,0.0324,-0.1319,-2.3307157955565394,0.0,5.050771713256836,-0.9405643939971924,0.001991019584238529,2.1709558963775635,4.675298376674316,-0.0,0.2776196599006653,-1.6075814406024378,6.780307739973068e-05,-0.012158146128058434,-0.43898326555360967,0.0,0.037882473319768906,1.4341788291931152,-0.010785825550556183,-0.012104329653084278
161.0,132.0,-0.929,1.8945,10.0092,-0.0308,0.0324,-0.1319,-2.3307401142516078,-4.6066080727769076e-08,5.093338966369629,-0.9405441284179688,0.001436048187315464,2.180158853530884,4.675298853511475,-0.0,0.2807116210460663,-1.607617203389303,6.534178100991994e-05,-0.0008725719526410103,-0.4389994780169886,0.0,0.036065228283405304,1.434078574180603,-0.010982781648635864,-0.03426431119441986
161.0,132.0,-0.929,1.8945,10.0092,-0.0308,0.0324,-0.1319,-2.330736299554342,-1.1124416410832408e-13,4.9988694190979,-0.9405726194381714,0.0010243477299809456,2.1732070446014404,4.675254507655762,-0.0,0.2753750681877136,-1.6076462904559534,6.305291753960773e-05,0.0024677887558937073,-0.4390037695514124,0.0,0.03586069867014885,1.4340466260910034,-0.01028536818921566,-0.02351541444659233
161.0,132.0,-0.929,1.8945,10.0092,-0.0308,0.0324,-0.1319,-2.3307563267149867,-2.6864158638246855e-19,5.109470367431641,-0.9405280947685242,0.0007870436529628932,2.201488971710205,4.675295038814209,-0.0,0.2720467746257782,-1.6075895468341272,6.09189628448803e-05,-0.004743245430290699,-0.4389603773700159,1.384530150971841e-06,0.028639452531933784,1.4339786767959595,-0.010167388245463371,-0.08896102011203766
161.0,132.0,-0.929,1.8945,10.0092,-0.0308,0.0324,-0.1319,-2.3307320080199183,-6.487378599055126e-25,5.051820755004883,-0.9405482411384583,0.0004962376551702619,2.1856017112731934,4.675246401424072,-0.0,0.27214181423187256,-1.6076019446002405,3.889810159307672e-06,0.0007547039422206581,-0.4389756361590784,0.0003424990572966635,0.05243679881095886,1.4339230060577393,-0.009715824387967587,-0.016795601695775986
161.0,132.0,-0.929,1.8945,10.0092,-0.0308,0.0324,-0.1319,-2.3307277164854945,-1.5666253318493573e-30,5.001110553741455,-0.9405922293663025,0.0005187964998185635,2.167381763458252,4.675290747279785,-0.0,0.2806422710418701,-1.607666317616598,1.0827430063642396e-09,0.0052476744167506695,-0.4390037695514124,0.00036002087290398777,0.03471340984106064,1.433850884437561,-0.009519179351627827,-0.032432347536087036
161.0,132.0,-0.929,1.8945,10.0092,-0.0308,0.0324,-0.1319,-2.3307563267149867,-3.7832156391598506e-36,5.015475749969482,-0.9405849575996399,0.0006751056062057614,2.1759960651397705,4.6752587991901855,-0.0,0.2858308255672455,-1.6075976530658167,3.0138546281040235e-13,0.0018986468203365803,-0.43893558183778936,0.0004985102568753064,0.048132870346307755,1.4338271617889404,-0.009459683671593666,-0.021055815741419792
161.0,132.0,-0.929,1.8945,10.0092,-0.0308,0.0324,-0.1319,-2.3307320080199183,-1.2191296639625909e-43,5.006078720092773,-0.940488338470459,0.0012410171329975128,2.1643614768981934,4.675242109889648,-0.0,0.25905144214630127,-1.607565704976217,5.477530872912352e-18,0.0058805448934435844,-0.4390199820147913,0.0004927560221403837,0.047711893916130066,1.433770775794983,-0.008505688048899174,-0.033501602709293365
161.0,132.0,-0.929,1.8945,10.0092,-0.0308,0.0324,-0.1319,-2.3307486973204554,0.0,5.023062705993652,-0.9404639005661011,0.0014617119450122118,2.1510725021362305,4.675278349513672,-0.0,0.2691812515258789,-1.6076620260821741,1.5246910715397608e-21,0.0018353397026658058,-0.4389241377459925,0.0004565684066619724,0.04451911151409149,1.4337594509124756,-0.008513540029525757,0.005375180393457413
161.0,132.0,-0.929,1.8945,10.0092,-0.0308,0.0324,-0.1319,-2.3307486973204554,0.0,5.011504650115967,-0.9404597878456116,0.0018724020337685943,2.194316864013672,4.675278349513672,-0.0,0.27406978607177734,-1.6076214949237269,4.24403370615798e-25,-0.0004556453786790371,-0.43897945085634404,0.00045278953621163964,0.06336331367492676,1.433670997619629,-0.007940142415463924,-0.0563051775097847
161.0,132.0,-0.929,1.8945,10.0092,-0.0308,0.0324,-0.1319,-2.3307320080199183,0.0,4.970223426818848,-0.9405004978179932,0.0017987678293138742,2.1834118366241455,4.675303145045898,-0.0,0.2570268213748932,-1.6075814406024378,1.1813424370984193e-28,0.010331409052014351,-0.4389560858355921,0.0004361169703770429,0.06773579865694046,1.4336512088775635,-0.008001623675227165,-0.0841170996427536
153.0,130.0,-0.6407,1.6343,9.5276,-0.0435,0.022,-0.137,-2.3307444057860316,0.0,4.977294921875,-0.9404968619346619,0.0016904412768781185,2.169158935546875,4.675306959743164,-0.0,0.26502931118011475,-1.6075895468341272,3.2883105584485924e-32,-0.02188877761363983,-0.438944164906637,0.00042413343908265233,0.05206991732120514,1.4336074590682983,-0.0075749559327960014,-0.06826586276292801
153.0,130.0,-0.6407,1.6343,9.5276,-0.0435,0.022,-0.137,-2.3307486973204554,0.0,4.992897987365723,-0.9404327869415283,0.0019984170794487,2.188288450241089,4.675290747279785,-0.0,0.2737715244293213,-1.6075733343707483,3.806206223089248e-05,0.004701657220721245,-0.4389684836017054,0.0003617880865931511,0.06813621520996094,1.433523178100586,-0.00806277897208929,-0.07826721668243408
153.0,130.0,-0.6407,1.6343,9.5276,-0.0435,0.022,-0.137,-2.3307687244811,0.0,5.018298625946045,-0.9404121041297913,0.0022100473288446665,2.176210641860962,4.675266905421875,-0.000111621011456009,0.26694318652153015,-1.6076338926898401,3.7307148886611685e-05,-0.016476204618811607,-0.4389398733722132,0.00031411583768203855,0.060294799506664276,1.4334591627120972,-0.00859103910624981,-0.05040135607123375
153.0,130.0,-0.6407,1.6343,9.5276,-0.0435,0.022,-0.137,-2.330736299554342,0.0,5.016061305999756,-0.9404246807098389,0.002088587498292327,2.1621522903442383,4.675271196956299,-0.0001293779059778899,0.26946762204170227,-1.6075976530658167,3.582245699362829e-05,-0.017252586781978607,-0.4389236609088343,0.0003115831350442022,0.054948609322309494,1.433451533317566,-0.00973284337669611,-0.03609931468963623
153.0,130.0,-0.6407,1.6343,9.5276,-0.0435,0.022,-0.137,-2.330764432946676,0.0,5.008573532104492,-0.9403882026672363,0.0019480162300169468,2.1222426891326904,4.675271196956299,-0.00013924416271038353,0.25920456647872925,-1.6076057592975062,3.401717549422756e-05,-0.012990998104214668,-0.4389560858355921,0.00029503885889425874,0.06539569795131683,1.43333899974823,-0.01002284325659275,-0.0574817918241024
153.0,130.0,-0.6407,1.6343,9.5276,-0.0435,0.022,-0.137,-2.3307486973204554,0.0,4.97904109954834,-0.9403805136680603,0.0023081086110323668,2.178831100463867,4.675298853511475,-0.00015074078692123294,0.2624228894710541,-1.6076462904559534,3.277825817349367e-05,-0.01906370371580124,-0.43895179430116826,0.00029104965506121516,0.0595402754843235,1.4332550764083862,-0.010451621375977993,-0.038351528346538544
153.0,130.0,-0.6407,1.6343,9.5276,-0.0435,0.022,-0.137,-2.33068384746694,0.0,4.983528137207031,-0.9404088854789734,0.0029229067731648684,2.1904220581054688,4.675286455745361,-0.0001406874362146482,0.24791820347309113,-1.6075895468341272,3.162642315146513e-05,-0.005988672841340303,-0.4389436880694788,0.000263479829300195,0.07778789103031158,1.4332797527313232,-0.009851714596152306,-0.061599552631378174
153.0,130.0,-0.6407,1.6343,9.5276,-0.0435,0.022,-0.137,-2.3307157955565394,0.0,4.961879253387451,-0.9403529167175293,0.0036853724159300327,2.1218624114990234,4.675286455745361,-0.00015052518574520946,0.25609707832336426,-1.60754901567568,3.055279375985265e-05,-0.019310254603624344,-0.4389560858355921,0.00025181620731018484,0.07683547586202621,1.4331997632980347,-0.009947658516466618,-0.0487300381064415
153.0,130.0,-0.6407,1.6343,9.5276,-0.0435,0.022,-0.137,-2.3307277164854945,0.0,4.996545314788818,-0.9402925372123718,0.004197557922452688,2.158486843109131,4.675250216121338,-0.00014178718265611678,0.24030393362045288,-1.607650105153219,3.8483240132336505e-06,0.0012544933706521988,-0.4389599005328577,0.00021591070981230587,0.07839740067720413,1.4331235885620117,-0.008993995375931263,-0.07667694985866547
153.0,130.0,-0.6407,1.6343,9.5276,-0.0435,0.022,-0.137,-2.33070768932485,0.0,4.942375183105469,-0.9402886629104614,0.004758212715387344,2.142652750015259,4.675243063563965,-0.0001338779111392796,0.24509122967720032,-1.6075695196734827,1.0711951325959035e-09,-0.009993769228458405,-0.43894797960390264,0.00022647256264463067,0.07966186106204987,1.4330519437789917,-0.009032849222421646,-0.10957544296979904
153.0,130.0,-0.6407,1.6343,9.5276,-0.0435,0.022,-0.137,-2.3307277164854945,0.0,4.987909317016602,-0.9402008652687073,0.004779972601681948,2.1990737915039062,4.6752587991901855,-0.0001763452310115099,0.2520800828933716,-1.6075738112079065,2.9817110152458026e-13,-0.0010454680304974318,-0.4389398733722132,0.00020116801897529513,0.07978036254644394,1.4329952001571655,-0.008882218040525913,-0.08549074083566666
153.0,130.0,-0.6407,1.6343,9.5276,-0.0435,0.022,-0.137,-2.3307320080199183,0.0,4.954969882965088,-0.9402245879173279,0.004074412863701582,2.1677660942077637,4.675262613887451,-0.00018337505753152072,0.23716074228286743,-1.6075733343707483,5.4191133101023255e-18,-0.0018723916728049517,-0.43890363374818975,0.00017507556185591966,0.07192966341972351,1.432915210723877,-0.009381964802742004,-0.07105237245559692
153.0,130.0,-0.6407,1.6343,9.5276,-0.0435,0.022,-0.137,-2.3307687244811,0.0,4.926515579223633,-0.9402171969413757,0.0034243252594023943,2.1381568908691406,4.675286455745361,-0.00016642299306113273,0.23274514079093933,-1.6075857321368616,1.5084299850887397e-21,-0.0027235737070441246,-0.43888789812196904,0.00015955502749420702,0.08536140620708466,1.4328677654266357,-0.009441923350095749,-0.07033266872167587
153.0,130.0,-0.6407,1.6343,9.5276,-0.0435,0.022,-0.137,-2.330723901788229,0.0,4.9578328132629395,-0.940176784992218,0.0029652463272213936,2.1517229080200195,4.675271196956299,-0.00019650568719953299,0.2343572974205017,-1.6075571219073694,4.198770346530595e-25,0.00307259289547801,-0.43890363374818975,0.00014656232087872922,0.07853137701749802,1.4327552318572998,-0.009475181810557842,-0.09650049358606339
160.0,132.0,-0.7178,1.7653,9.6598,-0.0295,0.033,-0.1466,-2.330736299554342,0.0,4.9564290046691895,-0.9402172565460205,0.002304108114913106,2.15360426902771,4.675262613887451,-0.00033577997237443924,0.24159593880176544,-1.6075900236712855,1.168743244143481e-28,-0.004982731770724058,-0.438944164906637,0.00015810072363819927,0.08727211505174637,1.4327757358551025,-0.009430306032299995,-0.047824591398239136
160.0,132.0,-0.7178,1.7653,9.6598,-0.0295,0.033,-0.1466,-2.3307200870909632,0.0,4.945605278015137,-0.9401323795318604,0.0017209092620760202,2.1557416915893555,4.675210638637207,-0.00035514336195774376,0.23675130307674408,-1.6075900236712855,3.253239390618222e-32,0.004468983039259911,-0.439000431691305,0.00014704237401019782,0.0678928792476654,1.4326839447021484,-0.009360618889331818,-0.12279880046844482
160.0,132.0,-0.7178,1.7653,9.6598,-0.0295,0.033,-0.1466,-2.3307320080199183,0.0,4.936203956604004,-0.9401928782463074,0.0011983580188825727,2.104620933532715,4.675238772029541,-0.000640158832538873,0.24041303992271423,-1.6075900236712855,9.055512997534538e-36,0.0033560143783688545,-0.43893224397768194,0.00013741962902713567,0.08131029456853867,1.4326517581939697,-0.009603684768080711,-0.05678308755159378
160.0,132.0,-0.7178,1.7653,9.6598,-0.0295,0.033,-0.1466,-2.3307486973204554,0.0,4.936385154724121,-0.9401570558547974,0.0009009814239107072,2.126013994216919,4.675218744868896,-0.000657269440125674,0.24071279168128967,-1.6075533072101038,2.520634658150516e-39,-0.012796061113476753,-0.4389403502093714,0.00012897918350063264,0.0820809155702591,1.4325637817382812,-0.009066897444427013,-0.11152883619070053
160.0,132.0,-0.7178,1.7653,9.6598,-0.0295,0.033,-0.1466,-2.3307157955565394,-4.98662338941358e-05,4.927000999450684,-0.9401652216911316,0.0004835722502321005,2.077793836593628,4.675182028407715,-0.0007704253075644374,0.23710253834724426,-1.6075976530658167,4.624284932271896e-44,-0.007668232079595327,-0.4389117399798792,0.00011921625264221802,0.08580940961837769,1.432471513748169,-0.008697538636624813,-0.10025308281183243
160.0,132.0,-0.7178,1.7653,9.6598,-0.0295,0.033,-0.1466,-2.330780645410055,-1.0339205047671385e-09,4.9003705978393555,-0.9402092695236206,0.0004387711232993752,2.1431708335876465,4.6752306657978515,-0.0009592920541763306,0.22650492191314697,-1.6076057592975062,3.0456574677373283e-05,-0.013842064887285233,-0.4389599005328577,0.00011281167826382443,0.07647337019443512,1.4324595928192139,-0.0075998930260539055,-0.09606801718473434
160.0,132.0,-0.7178,1.7653,9.6598,-0.0295,0.033,-0.1466,-2.33070768932485,-2.4967964775226593e-15,4.886943340301514,-0.9401731491088867,0.00035276124253869057,2.113004684448242,4.675138636226318,-0.0013026936212554574,0.22256910800933838,-1.6075251738177698,2.901913831010461e-05,0.0014629848301410675,-0.4389684836017054,0.00010706038301577792,0.07471705973148346,1.432420015335083,-0.006303385365754366,-0.09033048152923584
160.0,132.0,-0.7178,1.7653,9.6598,-0.0295,0.033,-0.1466,-2.3307444057860316,-6.029468926708904e-21,4.856319427490234,-0.9401570558547974,0.00029494831687770784,2.110229015350342,4.6751624780842285,-0.0014113904908299446,0.22933538258075714,-1.6075413862811487,3.4497574233682826e-05,0.0015965853817760944,-0.4389765898333948,0.00010186705185333267,0.07513643801212311,1.432420015335083,-0.004896750673651695,-0.11474771797657013
160.0,132.0,-0.7178,1.7653,9.6598,-0.0295,0.033,-0.1466,-2.330764432946676,-1.456045716564318e-26,4.829658508300781,-0.9401488900184631,0.00025341910077258945,2.140059232711792,4.675186319942139,-0.001457942882552743,0.22777102887630463,-1.6075695196734827,3.96875839214772e-05,-0.007532564923167229,-0.4389560858355921,9.715399210108444e-05,0.08089163154363632,1.4323433637619019,-0.0037735323421657085,-0.11179141700267792
160.0,132.0,-0.7178,1.7653,9.6598,-0.0295,0.033,-0.1466,-2.330723901788229,-3.51617925673473e-32,4.831733226776123,-0.9401612281799316,0.000222141869016923,2.076411724090576,4.675158186549805,-0.0011551197385415435,0.21991580724716187,-1.6075614134417933,3.801317870966159e-05,0.0025146801490336657,-0.4389117399798792,9.285734267905354e-05,0.07498599588871002,1.4323843717575073,-0.0026937879156321287,-0.1000971645116806
160.0,132.0,-0.7178,1.7653,9.6598,-0.0295,0.033,-0.1466,-2.3307606182494105,-8.491159076266057e-38,4.844404697418213,-0.9400888085365295,0.0001977374340640381,2.0860233306884766,4.675151033992432,-0.0008920921245589852,0.2132803350687027,-1.6075900236712855,3.647269113571383e-05,0.001677278196439147,-0.43893558183778936,8.892522600945085e-05,0.07007119059562683,1.4323517084121704,-0.0017096152296289802,-0.07331643998622894
160.0,132.0,-0.7178,1.7653,9.6598,-0.0295,0.033,-0.1466,-2.3307157955565394,-2.802596928649634e-45,4.816691875457764,-0.9402014017105103,0.0002012194599956274,2.1573681831359863,4.675178690547607,-0.0005981297581456602,0.21980829536914825,-1.6075452009784144,3.4602988307597116e-05,0.0046102385967969894,-0.4389765898333948,8.417280332650989e-05,0.07277882099151611,1.4323925971984863,-0.0013987846905365586,-0.10230205953121185
160.0,132.0,-0.7178,1.7653,9.6598,-0.0295,0.033,-0.1466,-2.3307963810362757,0.0,4.8168511390686035,-0.9401571154594421,0.00016037389286793768,2.105451822280884,4.675146742458008,-0.00047873114817775786,0.21963560581207275,-1.6075862089740198,4.4425913074519485e-05,0.003804742358624935,-0.43893176714052373,8.092899224720895e-05,0.06995035707950592,1.432352066040039,-0.0015329282032325864,-0.11077645421028137
160.0,132.0,-0.7178,1.7653,9.6598,-0.0295,0.033,-0.1466,-2.330736299554342,0.0,4.842141628265381,-0.9401447176933289,0.00021916281548328698,2.1571741104125977,4.675194426173828,-0.00039908444159664214,0.2214002013206482,-1.6075738112079065,4.2842912080232054e-05,0.013101756572723389,-0.4389155546771448,7.792589894961566e-05,0.08010569959878922,1.4323441982269287,-0.002070121467113495,-0.14516308903694153
160.0,132.0,-0.7178,1.7653,9.6598,-0.0295,0.033,-0.1466,-2.330776353875631,0.0,4.842922210693359,-0.9401127696037292,0.001075048348866403,2.1114819049835205,4.675194426173828,-0.00034216762287542224,0.21109279990196228,-1.6075738112079065,4.1366049117641523e-05,0.006240350194275379,-0.43895179430116826,7.513768650824204e-05,0.08478046208620071,1.4323081970214844,-0.0020359766203910112,-0.10924015194177628
149.0,131.0,-0.6748,1.812,9.6024,-0.0376,0.0334,-0.1359,-2.3307606182494105,0.0,4.900426864624023,-0.9401895403862,0.0015839518746361136,2.1671693325042725,4.67523114263501,-0.000271797354798764,0.216132253408432,-1.6075494925128382,4.964993422618136e-05,0.013256711885333061,-0.4389117399798792,7.254221418406814e-05,0.08690937608480453,1.4323123693466187,-0.0019342022715136409,-0.12348592281341553
149.0,131.0,-0.6748,1.812,9.6024,-0.0376,0.0334,-0.1359,-2.330808301965231,0.0,4.848869323730469,-0.9401212334632874,0.0018206901149824262,2.1742923259735107,4.675190134639404,-0.0002329598501091823,0.2099449336528778,-1.6075862089740198,5.405635405963949e-08,0.002340084407478571,-0.4389279524432581,7.011996785877272e-05,0.07745455950498581,1.4322514533996582,-0.0016976698534563184,-0.11610892415046692
149.0,131.0,-0.6748,1.812,9.6024,-0.0376,0.0334,-0.1359,-2.3307486973204554,0.0,4.844390392303467,-0.9401291608810425,0.0024690874852240086,2.0997867584228516,4.675206823939941,-0.00020969212346244603,0.2198040783405304,-1.6075452009784144,1.504678673325266e-11,0.01581149734556675,-0.4390037695514124,1.4985454299676348e-07,0.0764627605676651,1.432316541671753,-0.0015118252485990524,-0.09760712087154388
149.0,131.0,-0.6748,1.812,9.6024,-0.0376,0.0334,-0.1359,-2.3307320080199183,0.0,4.862371444702148,-0.9400768280029297,0.0026422133669257164,2.110562562942505,4.675178690547607,-0.00019065295055042952,0.21412694454193115,-1.6075533072101038,4.188328472969549e-15,0.00814795307815075,-0.4389560858355921,4.171257089735647e-11,0.07132018357515335,1.4322962760925293,-0.001543541089631617,-0.10186104476451874
149.0,131.0,-0.6748,1.812,9.6024,-0.0376,0.0334,-0.1359,-2.3307401142516078,0.0,4.863442420959473,-0.9401413798332214,0.003056644694879651,2.141944408416748,4.675154848689697,-0.00017006507550831884,0.21872463822364807,-1.6075251738177698,7.612080473170367e-20,0.002053287345916033,-0.4390037695514124,7.581053404022355e-16,0.06373880803585052,1.4322679042816162,-0.001475937315262854,-0.1172923892736435
149.0,131.0,-0.6748,1.812,9.6024,-0.0376,0.0334,-0.1359,-2.3307486973204554,0.0,4.814969539642334,-0.9400214552879333,0.0034371737856417894,2.106081008911133,4.6751343446918945,-0.00015732354950159788,0.22737011313438416,-1.607565704976217,2.1188502569370583e-23,0.011713173240423203,-0.4388960043536585,2.110214127582464e-19,0.06122786924242973,1.432244062423706,-0.0012282488169148564,-0.11065638065338135
149.0,131.0,-0.6748,1.812,9.6024,-0.0376,0.0334,-0.1359,-2.3307157955565394,0.0,4.8431525230407715,-0.9400649070739746,0.0040232716128230095,2.146125316619873,4.675154848689697,-0.000167083038832061,0.22568216919898987,-1.6075738112079065,5.8978977578414954e-27,0.010061291977763176,-0.43891603151430303,5.873858300275654e-23,0.06917962431907654,1.4322761297225952,-0.0010158754885196686,-0.13333112001419067
149.0,131.0,-0.6748,1.812,9.6024,-0.0376,0.0334,-0.1359,-2.330723901788229,0.0,4.840237617492676,-0.9399970173835754,0.004769209306687117,2.1066949367523193,4.675191088313721,-0.00015636824537068605,0.21918970346450806,-1.6075695196734827,1.6417012408103868e-30,-0.0028267710004001856,-0.4389560858355921,1.6350100603445797e-26,0.07174535095691681,1.4322319030761719,-0.0009058396681211889,-0.10278132557868958
149.0,131.0,-0.6748,1.812,9.6024,-0.0376,0.0334,-0.1359,-2.3307038746275843,0.0,4.9012908935546875,-0.939969539642334,0.004949449095875025,2.104658842086792,4.675198717708252,-0.00014680328604299575,0.21588069200515747,-1.6075738112079065,4.569735666354085e-34,0.0010032104328274727,-0.43894750276674444,4.5511112609599834e-30,0.062265731394290924,1.4322277307510376,-0.0009183129877783358,-0.09427374601364136
149.0,131.0,-0.6748,1.812,9.6024,-0.0376,0.0334,-0.1359,-2.330764432946676,0.0,4.829867362976074,-0.9398971199989319,0.005221437197178602,2.170121192932129,4.675198717708252,-0.00013834114361088723,0.2126000076532364,-1.6075738112079065,1.2720025607874777e-37,-0.001034582150168717,-0.4389236609088343,1.2668184151021749e-33,0.06450451910495758,1.4322117567062378,-0.000935849966481328,-0.0706295520067215
149.0,131.0,-0.6748,1.812,9.6024,-0.0376,0.0334,-0.1359,-2.3307320080199183,0.0,4.817415714263916,-0.9399259090423584,0.0056057460606098175,2.1467599868774414,4.675182982082031,-0.0001308014034293592,0.21962153911590576,-1.6075452009784144,3.5406608298095153e-41,0.0028418467845767736,-0.43895227113832647,3.52623530289837e-37,0.07746219635009766,1.4322603940963745,-0.0007429180550388992,-0.13502830266952515
149.0,131.0,-0.6748,1.812,9.6024,-0.0376,0.0334,-0.1359,-2.330719610253805,0.0,4.817745208740234,-0.9398338198661804,0.006017478182911873,2.0958755016326904,4.675174875850342,-8.050942415138707e-05,0.20583833754062653,-1.6075781027423304,0.0,0.014286009594798088,-0.43896419206728154,6.408137877357388e-42,0.06563958525657654,1.4322441816329956,-0.0004481016076169908,-0.1378856599330902
149.0,131.0,-0.6748,1.812,9.6024,-0.0376,0.0334,-0.1359,-2.330780645410055,0.0,4.808123588562012,-0.9398214221000671,0.006291899364441633,2.1326611042022705,4.675178690547607,-9.116451110458001e-05,0.20542794466018677,-1.6075294653521937,0.0,0.011403584852814674,-0.43896419206728154,1.401298464324817e-45,0.0757342204451561,1.4322559833526611,-0.00027611973928287625,-0.12405537068843842
149.0,131.0,-0.6748,1.812,9.6024,-0.0376,0.0334,-0.1359,-2.3307444057860316,-5.379003778216429e-05,4.767768859863281,-0.9397695660591125,0.00649271160364151,2.110363006591797,4.675198717708252,-0.00010124536493094638,0.2187570184469223,-1.6076419989215296,0.0,0.011768020689487457,-0.43890363374818975,0.0,0.06108266860246658,1.4322761297225952,-0.0002243806520709768,-0.09965342283248901
154.0,130.0,-0.4493,1.4662,9.4648,-0.0481,0.0145,-0.1326,-2.330776353875631,-6.473405665019527e-05,4.790896892547607,-0.939757764339447,0.006315162871032953,2.1335201263427734,4.675118132228516,-0.00033704485394991934,0.22140929102897644,-1.6075738112079065,0.0,0.006480407901108265,-0.4389117399798792,0.0,0.07869074493646622,1.4323128461837769,-0.00018902990268543363,-0.11955337226390839
154.0,130.0,-0.4493,1.4662,9.4648,-0.0481,0.0145,-0.1326,-2.330764432946676,-7.38721719244495e-05,4.766829013824463,-0.9397096037864685,0.0058067236095666885,2.1078062057495117,4.675154848689697,-0.0004581147222779691,0.20982885360717773,-1.6075533072101038,0.0,0.008159578777849674,-0.4389279524432581,0.0,0.08528851717710495,1.4322682619094849,-0.00016330314974766225,-0.17970454692840576
154.0,130.0,-0.4493,1.4662,9.4648,-0.0481,0.0145,-0.1326,-2.330752035180563,-8.186751801986247e-05,4.789870738983154,-0.9396824836730957,0.004715132527053356,2.1467299461364746,4.675154848689697,-0.0009530244278721511,0.200077086687088,-1.6076338926898401,0.0,-0.0001671296777203679,-0.4389155546771448,0.0,0.06204058974981308,1.4323005676269531,-6.246476550586522e-05,-0.10218720883131027
154.0,130.0,-0.4493,1.4662,9.4648,-0.0481,0.0145,-0.1326,-2.3307439289488734,-7.930856372695416e-05,4.817354679107666,-0.9396939277648926,0.004195085261017084,2.0865304470062256,4.675114794368408,-0.0017257259460166097,0.19481797516345978,-1.607598129902975,0.0,-0.005345951300114393,-0.43896419206728154,0.0,0.06364643573760986,1.4321757555007935,-4.398939563543536e-05,-0.13563716411590576
154.0,130.0,-0.4493,1.4662,9.4648,-0.0481,0.0145,-0.1326,-2.3307606182494105,-0.00032706340425647795,4.770932197570801,-0.9396101832389832,0.0035010087303817272,2.116349697113037,4.675142927760742,-0.0024792461190372705,0.19512465596199036,-1.60761005083193,0.0,0.012639209628105164,-0.4389999548541468,0.0,0.07529333233833313,1.4322400093078613,-7.358984294114634e-05,-0.18845058977603912
