ramyac6/ROB537/final_project/csv/good/good_192.csv
tof_0,tof_1,accelx,accely,accelz,gyrox,gyroy,gyroz,shoulder_lift_joint_position,shoulder_lift_joint_velocity,shoulder_lift_joint_effort,elbow_joint_position,elbow_joint_velocity,elbow_joint_effort,wrist_1_joint_position,wrist_1_joint_velocity,wrist_1_joint_effort,wrist_2_joint_position,wrist_2_joint_velocity,wrist_2_joint_effort,wrist_3_joint_position,wrist_3_joint_velocity,wrist_3_joint_effort,shoulder_pan_joint_position,shoulder_pan_joint_velocity,shoulder_pan_joint_effort
460.0,556.0,1.5966,0.0766,9.4445,-0.0374,0.0316,-0.1184,-1.541840099995472,0.0,2.01102352142334,-1.9389266967773438,-0.0,2.1235883235931396,4.789666618197717,0.0,0.2888552248477936,-1.5969460646258753,0.0,-0.008339898660779,0.816534161567688,-0.0,-0.007566219195723534,0.7735670804977417,0.0,0.011355085298418999
460.0,556.0,1.5966,0.0766,9.4445,-0.0374,0.0316,-0.1184,-1.5418759615025301,0.0,1.997124433517456,-1.9388905763626099,-0.0,2.0908517837524414,4.7896625874336145,0.0,0.30661383271217346,-1.5969417730914515,0.0,-0.00967191532254219,0.8165304660797119,-0.0,-0.0002824160037562251,0.7734942436218262,0.0,0.02963259071111679
460.0,556.0,1.5966,0.0766,9.4445,-0.0374,0.0316,-0.1184,-1.54185218111191,0.0,1.9749798774719238,-1.9388576745986938,-0.0,2.057772159576416,4.7896424336131,0.0,0.2912786304950714,-1.5969017187701624,0.0,-0.024347737431526184,0.8165264129638672,-0.0,0.0036456682719290257,0.7735063433647156,0.0,-0.0032664737664163113
460.0,556.0,1.5966,0.0766,9.4445,-0.0374,0.0316,-0.1184,-1.5418602556786318,0.0,1.9525799751281738,-1.9388947486877441,-0.0,2.079838514328003,4.7896829573209665,0.0,0.29417943954467773,-1.5969179312335413,0.0,0.005433591082692146,0.816457986831665,-0.0,0.003250155132263899,0.7735427021980286,0.0,-0.007335472386330366
460.0,556.0,1.5966,0.0766,9.4445,-0.0374,0.0316,-0.1184,-1.5418200895986338,0.0,1.9865403175354004,-1.9388699531555176,-0.0,2.0868630409240723,4.789674746781149,0.0,0.2948535084724426,-1.5969179312335413,0.0,-0.009279795922338963,0.8165104389190674,-0.0,-0.006178413052111864,0.7735992074012756,0.0,0.024924801662564278
460.0,556.0,1.5966,0.0766,9.4445,-0.0374,0.0316,-0.1184,-1.5418920044652005,0.0,1.94247305393219,-1.9388585090637207,-0.0,2.086024045944214,4.789674724429407,0.0,0.29289865493774414,-1.5969341436969202,0.0,-0.006783311255276203,0.8165543675422668,-0.0,-3.591668792068958e-05,0.7735224962234497,0.0,-0.0007817298173904419
460.0,556.0,1.5966,0.0766,9.4445,-0.0374,0.0316,-0.1184,-1.5418240756592532,0.0,1.9385684728622437,-1.9388989210128784,-0.0,2.0524160861968994,4.789682979672708,0.0,0.30624204874038696,-1.59691030183901,0.0,-0.009350234642624855,0.8165547251701355,-0.0,0.000998982461169362,0.7735306620597839,0.0,-0.04787712171673775
460.0,556.0,1.5966,0.0766,9.4445,-0.0374,0.0316,-0.1184,-1.541852045138814,0.0,1.9859663248062134,-1.9388823509216309,-0.0,2.0703282356262207,4.789622354298391,0.0,0.2946017384529114,-1.5969255606280726,0.0,-0.005808250047266483,0.8165461421012878,-0.0,-0.005262995138764381,0.7735670208930969,0.0,-0.02217944711446762
454.0,586.0,1.6792,0.1376,9.2465,-0.0336,0.0243,-0.1234,-1.541856126194336,0.0,1.9593875408172607,-1.9388823509216309,-0.0,2.1050992012023926,4.789646591037073,0.0,0.29852020740509033,-1.5969379583941858,0.0,-0.008229430764913559,0.8165543675422668,-0.0,-0.004612552467733622,0.7735186219215393,0.0,-0.0016695046797394753
454.0,586.0,1.6792,0.1376,9.2465,-0.0336,0.0243,-0.1234,-1.5418759782663365,0.0,1.9686813354492188,-1.9389029741287231,-0.0,2.0383100509643555,4.789682979672708,0.0,0.3015158474445343,-1.5969060103045862,0.0,-0.010772241279482841,0.8165304660797119,-0.0,0.0021196557208895683,0.7734983563423157,0.0,0.03142104297876358
454.0,586.0,1.6792,0.1376,9.2465,-0.0336,0.0243,-0.1234,-1.5418481950512906,0.0,1.9706766605377197,-1.9388823509216309,-0.0,2.1476621627807617,4.789678904205122,0.0,0.30493301153182983,-1.5969541708575647,0.0,-0.020198198035359383,0.816590428352356,-0.0,-0.0036738060880452394,0.77350252866745,0.0,0.029636308550834656
454.0,586.0,1.6792,0.1376,9.2465,-0.0336,0.0243,-0.1234,-1.5418480311385174,0.0,1.9771219491958618,-1.9388699531555176,-0.0,2.0934979915618896,4.789662982314386,0.0,0.294253408908844,-1.5968893210040491,0.0,-0.011284495703876019,0.8165461421012878,-0.0,-0.006340040825307369,0.7735024690628052,0.0,-0.024119198322296143
454.0,586.0,1.6792,0.1376,9.2465,-0.0336,0.0243,-0.1234,-1.5418240756592532,0.0,1.943080186843872,-1.9389021396636963,-0.0,2.067678689956665,4.78965067395524,0.0,0.2943339943885803,-1.5969179312335413,0.0,-0.01201341487467289,0.8165706992149353,-0.0,-0.0029325420036911964,0.7735186219215393,0.0,-0.04325423762202263
454.0,586.0,1.6792,0.1376,9.2465,-0.0336,0.0243,-0.1234,-1.541836154913046,0.0,2.013009786605835,-1.9388699531555176,-0.0,2.0602712631225586,4.789694900601663,0.0,0.29149290919303894,-1.5969341436969202,0.0,-0.011825436726212502,0.8165304660797119,-0.0,-0.0006136005977168679,0.7735306620597839,0.0,-0.005411079153418541
454.0,586.0,1.6792,0.1376,9.2465,-0.0336,0.0243,-0.1234,-1.5418759782663365,0.0,2.013280153274536,-1.938861608505249,-0.0,2.088329315185547,4.789703044086256,0.0,0.29104992747306824,-1.5969060103045862,0.0,0.007856042124330997,0.8165383338928223,-0.0,0.0042192148976027966,0.7735666632652283,0.0,0.01072047371417284
454.0,586.0,1.6792,0.1376,9.2465,-0.0336,0.0243,-0.1234,-1.5418320459178467,0.0,1.9404253959655762,-1.9388864040374756,-0.0,2.114875316619873,4.78969074317769,0.0,0.29481935501098633,-1.5969260374652308,0.0,-0.005232709459960461,0.8165587782859802,-0.0,-0.0012198879849165678,0.7735468149185181,0.0,0.03583691269159317
454.0,586.0,1.6792,0.1376,9.2465,-0.0336,0.0243,-0.1234,-1.541860071276762,0.0,1.897778034210205,-1.9389070272445679,-0.0,2.0884931087493896,4.789666662901201,0.0,0.2965300977230072,-1.5969179312335413,0.0,0.0015191711718216538,0.8165062665939331,-0.0,0.0002646295470185578,0.7735227346420288,0.0,0.03377559408545494
454.0,586.0,1.6792,0.1376,9.2465,-0.0336,0.0243,-0.1234,-1.5418442499688645,0.0,2.006789207458496,-1.9389071464538574,-0.0,2.116602659225464,4.789654376893797,0.0,0.296284556388855,-1.5969222227679651,0.0,-0.0021083210594952106,0.816526472568512,-0.0,-0.003940417431294918,0.7735427021980286,0.0,0.005453772842884064
454.0,586.0,1.6792,0.1376,9.2465,-0.0336,0.0243,-0.1234,-1.5418601122549553,0.0,1.9651741981506348,-1.9389102458953857,-0.0,2.1360795497894287,4.789694900601663,0.0,0.28823691606521606,-1.5969141165362757,0.0,-0.0048180860467255116,0.8165386915206909,-0.0,-0.008439162746071815,0.7735347747802734,0.0,-0.004739124793559313
454.0,586.0,1.6792,0.1376,9.2465,-0.0336,0.0243,-0.1234,-1.5418680303594847,0.0,1.9916834831237793,-1.9389102458953857,-0.0,2.0831363201141357,4.789698961168089,0.0,0.30144810676574707,-1.5969017187701624,0.0,0.0011527343885973096,0.8165746927261353,-0.0,-0.00496335607022047,0.7735064029693604,0.0,0.012702103704214096
454.0,586.0,1.6792,0.1376,9.2465,-0.0336,0.0243,-0.1234,-1.5418481950512906,0.0,1.9833049774169922,-1.9388502836227417,-0.0,2.018383264541626,4.789706732123651,0.0,0.2867312729358673,-1.5968893210040491,0.0,-0.009097695350646973,0.8165304660797119,-0.0,0.00810926966369152,0.7735629677772522,0.0,0.012938383035361767
454.0,586.0,1.6792,0.1376,9.2465,-0.0336,0.0243,-0.1234,-1.5418919802508135,0.0,1.9579691886901855,-1.9389184713363647,-0.0,2.1015753746032715,4.789646591037073,0.0,0.2912848889827728,-1.5969179312335413,0.0,-0.0024653831496834755,0.8165382742881775,-0.0,-0.00045919782132841647,0.7735629677772522,0.0,0.057847943156957626
470.0,607.0,1.6301,0.1226,9.323,-0.0344,0.0215,-0.1161,-1.5418799643269558,0.0,1.940711259841919,-1.9389184713363647,-0.0,2.050689697265625,4.7896747691328905,0.0,0.2960152328014374,-1.5969179312335413,0.0,-0.0027806556317955256,0.8164941072463989,-0.0,0.0010995576158165932,0.7735347747802734,0.0,0.0003104479983448982
470.0,607.0,1.6301,0.1226,9.323,-0.0344,0.0215,-0.1161,-1.5418279164335509,0.0,1.9571068286895752,-1.9388699531555176,-0.0,2.091846466064453,4.789654734521665,0.0,0.28821542859077454,-1.5969098250018519,0.0,0.00215682340785861,0.816534161567688,-0.0,0.008689291775226593,0.7735388875007629,0.0,-0.02344200387597084
470.0,607.0,1.6301,0.1226,9.323,-0.0344,0.0215,-0.1161,-1.5418640498868008,0.0,1.9743506908416748,-1.9388461112976074,-0.0,2.099997043609619,4.789687099843778,0.0,0.29536712169647217,-1.5969179312335413,0.0,0.004370746202766895,0.8165464401245117,-0.0,0.0014327362878248096,0.7735509276390076,0.0,-0.050338178873062134
470.0,607.0,1.6301,0.1226,9.323,-0.0344,0.0215,-0.1161,-1.5418481950512906,0.0,1.932783842086792,-1.9388535022735596,-0.0,2.119992256164551,4.789626392513075,0.0,0.30602410435676575,-1.5969060103045862,0.0,-0.008904431946575642,0.8165345788002014,-0.0,-0.010727237910032272,0.7735306620597839,0.0,0.03385848551988602
470.0,607.0,1.6301,0.1226,9.323,-0.0344,0.0215,-0.1161,-1.5418082077852269,0.0,1.96665358543396,-1.9388823509216309,-0.0,2.0975215435028076,4.789594116597929,0.0,0.29019156098365784,-1.5969179312335413,0.0,-0.008856657892465591,0.8165383338928223,-0.0,-0.008001389913260937,0.7734984159469604,0.0,0.00031711161136627197
470.0,607.0,1.6301,0.1226,9.323,-0.0344,0.0215,-0.1161,-1.54185218111191,0.0,1.9470486640930176,-1.93891441822052,-0.0,2.0648226737976074,4.789650666504659,0.0,0.2847418785095215,-1.5969222227679651,0.0,-0.0029280222952365875,0.8165464401245117,-0.0,0.00917598232626915,0.7735106945037842,0.0,-0.0006279852241277695
470.0,607.0,1.6301,0.1226,9.323,-0.0344,0.0215,-0.1161,-1.5418841124377032,0.0,1.9827944040298462,-1.9389185905456543,-0.0,2.120534896850586,4.789650271623888,0.0,0.28116580843925476,-1.5969260374652308,0.0,-0.0010739397257566452,0.8165383338928223,-0.0,-0.002825421281158924,0.7735468149185181,0.0,0.008184666745364666
470.0,607.0,1.6301,0.1226,9.323,-0.0344,0.0215,-0.1161,-1.541899935608246,0.0,1.9914510250091553,-1.9388617277145386,-0.0,2.083965539932251,4.789678926556864,0.0,0.29019030928611755,-1.5969179312335413,0.0,0.0007219710387289524,0.8165103793144226,-0.0,0.008037731982767582,0.7735468149185181,0.0,0.00837523303925991
470.0,607.0,1.6301,0.1226,9.323,-0.0344,0.0215,-0.1161,-1.5418480795672913,0.0,1.9808735847473145,-1.9388504028320312,-0.0,2.0862014293670654,4.789642403810777,0.0,0.2820204198360443,-1.5969260374652308,0.0,-0.002269512042403221,0.8165624737739563,-0.0,0.0007075383327901363,0.7735588550567627,0.0,-0.029950926080346107
470.0,607.0,1.6301,0.1226,9.323,-0.0344,0.0215,-0.1161,-1.5418161445162077,0.0,1.9399456977844238,-1.938846230506897,-0.0,2.131624698638916,4.7896747318799875,0.0,0.29934558272361755,-1.596877400075094,0.0,-0.005440487526357174,0.8165226578712463,-0.0,0.0024923449382185936,0.7735666632652283,0.0,0.012899319641292095
470.0,607.0,1.6301,0.1226,9.323,-0.0344,0.0215,-0.1161,-1.5418601122549553,0.0,1.9916728734970093,-1.93891441822052,-0.0,2.080502986907959,4.789642403810777,0.0,0.2821802496910095,-1.5968855063067835,0.0,0.0005607549683190882,0.816461980342865,-0.0,0.009050391614437103,0.7734662294387817,0.0,-0.014885912649333477
470.0,607.0,1.6301,0.1226,9.323,-0.0344,0.0215,-0.1161,-1.541868047123291,0.0,1.9516923427581787,-1.9388740062713623,-0.0,2.0995049476623535,4.789687062590875,0.0,0.30661535263061523,-1.5969341436969202,0.0,-0.015541818924248219,0.8165501356124878,-0.0,-0.004157559014856815,0.7735186219215393,0.0,-0.011911176145076752
470.0,607.0,1.6301,0.1226,9.323,-0.0344,0.0215,-0.1161,-1.541884073322155,0.0,1.9355405569076538,-1.9388823509216309,-0.0,2.114865303039551,4.7896989462669275,0.0,0.2921558618545532,-1.5969017187701624,0.0,-0.0194629468023777,0.8165583610534668,-0.0,-0.004810785874724388,0.7735427021980286,0.0,0.02758575603365898
470.0,607.0,1.6301,0.1226,9.323,-0.0344,0.0215,-0.1161,-1.5418480721167107,0.0,1.9707671403884888,-1.9388904571533203,-0.0,2.1017515659332275,4.789658422559061,0.0,0.2984628677368164,-1.5968979040728968,0.0,-0.007709710393100977,0.8165386915206909,-0.0,-0.0003666332922875881,0.7735588550567627,0.0,0.02832365781068802
453.0,678.0,1.5374,0.0903,9.4505,-0.0386,0.022,-0.1165,-1.5418280840716143,0.0,1.9825303554534912,-1.9388904571533203,-0.0,2.0767228603363037,4.789650659054079,0.0,0.3059226870536804,-1.5969341436969202,0.0,-0.020233556628227234,0.8165264129638672,-0.0,0.004563500173389912,0.7735103964805603,0.0,0.031803712248802185
453.0,678.0,1.5374,0.0903,9.4505,-0.0386,0.022,-0.1165,-1.5418880184045811,0.0,1.9838007688522339,-1.938942313194275,-0.0,2.1104342937469482,4.789687025337972,0.0,0.298648864030838,-1.596893612538473,0.0,-0.006541953422129154,0.8165583610534668,-0.0,-0.0021759255323559046,0.7735711932182312,0.0,0.02814723551273346
453.0,678.0,1.5374,0.0903,9.4505,-0.0386,0.022,-0.1165,-1.5418880184045811,0.0,1.9448730945587158,-1.9388617277145386,-0.0,2.07906436920166,4.789662430971422,0.0,0.29241085052490234,-1.5969298521624964,0.0,0.009064527228474617,0.8165706396102905,-0.0,0.013905908912420273,0.7735468149185181,0.0,-0.018540143966674805
453.0,678.0,1.5374,0.0903,9.4505,-0.0386,0.022,-0.1165,-1.5418240756592532,0.0,1.968422532081604,-1.9388585090637207,-0.0,2.114461660385132,4.789674754231729,0.0,0.3079504668712616,-1.5969417730914515,0.0,-0.0045581962913274765,0.8165063261985779,-0.0,-0.006784426048398018,0.7735588550567627,0.0,-0.05255550891160965
453.0,678.0,1.5374,0.0903,9.4505,-0.0386,0.022,-0.1165,-1.5418480721167107,0.0,1.95166015625,-1.9389184713363647,-0.0,2.0814967155456543,4.7896625874336145,0.0,0.28512871265411377,-1.596893612538473,0.0,-0.014778465032577515,0.8165424466133118,-0.0,0.0073670875281095505,0.7735306620597839,0.0,-0.020549098029732704
453.0,678.0,1.5374,0.0903,9.4505,-0.0386,0.022,-0.1165,-1.5418719922057171,0.0,1.9366909265518188,-1.9388823509216309,-0.0,2.061828374862671,4.789678941458025,0.0,0.293781578540802,-1.5969341436969202,0.0,-0.012425728142261505,0.8165464401245117,-0.0,-0.0059295641258358955,0.7734983563423157,0.0,0.0068336790427565575
453.0,678.0,1.5374,0.0903,9.4505,-0.0386,0.022,-0.1165,-1.5418640703758975,0.0,1.9367564916610718,-1.9388823509216309,-0.0,2.065197706222534,4.789703073888578,0.0,0.2987240254878998,-1.5968812147723597,0.0,0.001349159050732851,0.8165746927261353,-0.0,-0.016248291358351707,0.7735103964805603,0.0,-0.038800403475761414
453.0,678.0,1.5374,0.0903,9.4505,-0.0386,0.022,-0.1165,-1.5418321930668135,0.0,1.9194920063018799,-1.9388781785964966,-0.0,2.0671892166137695,4.78967476168231,0.0,0.2919875979423523,-1.59691030183901,0.0,-0.008554283529520035,0.8165104389190674,-0.0,-0.005892075598239899,0.7735265493392944,0.0,0.02062544971704483
453.0,678.0,1.5374,0.0903,9.4505,-0.0386,0.022,-0.1165,-1.541860119705536,0.0,1.962760329246521,-1.9388905763626099,-0.0,2.1025211811065674,4.7896382985408685,0.0,0.29107466340065,-1.5968897978412073,0.0,0.0015079636359587312,0.8165058493614197,-0.0,0.006220669019967318,0.7735670804977417,0.0,-0.008940983563661575
453.0,678.0,1.5374,0.0903,9.4505,-0.0386,0.022,-0.1165,-1.541840099995472,0.0,1.9611268043518066,-1.9388617277145386,-0.0,2.1244704723358154,4.789658437460222,0.0,0.2871795892715454,-1.5969179312335413,0.0,0.006714066956192255,0.8165063858032227,-0.0,-0.0010916326427832246,0.7734942436218262,0.0,-0.06428845226764679
453.0,678.0,1.5374,0.0903,9.4505,-0.0386,0.022,-0.1165,-1.5418640796891232,0.0,1.9876610040664673,-1.9389070272445679,-0.0,2.062730312347412,4.789650659054079,0.0,0.2891375422477722,-1.5969379583941858,0.0,-0.009626053273677826,0.8165746331214905,-0.0,0.0012970113893970847,0.7735509276390076,0.0,-0.051936324685811996
453.0,678.0,1.5374,0.0903,9.4505,-0.0386,0.022,-0.1165,-1.541856126194336,0.0,1.9192529916763306,-1.9388864040374756,-0.0,2.1345176696777344,4.789658467262544,0.0,0.30162638425827026,-1.596921745930807,0.0,0.0006244182586669922,0.8164620995521545,-0.0,-0.008634556084871292,0.7735629677772522,0.0,0.007179848849773407
453.0,678.0,1.5374,0.0903,9.4505,-0.0386,0.022,-0.1165,-1.5418400925448914,0.0,1.9889049530029297,-1.9388781785964966,-0.0,2.095349073410034,4.789658802538671,0.0,0.2967153787612915,-1.5969298521624964,0.0,-0.0020522125996649265,0.8165345191955566,-0.0,-0.0049373554065823555,0.7735224366188049,0.0,0.05688980221748352
453.0,678.0,1.5374,0.0903,9.4505,-0.0386,0.022,-0.1165,-1.5418880184045811,0.0,1.9564731121063232,-1.9388617277145386,-0.0,2.111953020095825,4.789638328343191,0.0,0.29340294003486633,-1.5968731085406702,0.0,-0.0012915926054120064,0.816542387008667,-0.0,-0.011688475497066975,0.7735430002212524,0.0,0.034112367779016495
453.0,678.0,1.5374,0.0903,9.4505,-0.0386,0.022,-0.1165,-1.541856126194336,0.0,1.9363291263580322,-1.9388700723648071,-0.0,2.099250316619873,4.789690772980013,0.0,0.2923703193664551,-1.5969379583941858,0.0,-0.004148842766880989,0.816562831401825,-0.0,-0.0007811379618942738,0.7735468149185181,0.0,-0.014322474598884583
469.0,548.0,1.611,0.1316,9.323,-0.0408,0.0173,-0.1158,-1.5418481950512906,0.0,2.0142619609832764,-1.9388617277145386,-0.0,2.104397773742676,4.789642470866003,0.0,0.3031810522079468,-1.5969098250018519,0.0,-0.011387823149561882,0.8165788054466248,-0.0,-0.007293251808732748,0.7734860181808472,0.0,-0.03430881351232529
469.0,548.0,1.611,0.1316,9.323,-0.0408,0.0173,-0.1158,-1.5418640964529295,0.0,1.9764561653137207,-1.9388419389724731,-0.0,2.071770429611206,4.789658430009641,0.0,0.2939448654651642,-1.5969060103045862,0.0,-0.008356310427188873,0.8165383338928223,-0.0,-0.00278402934782207,0.7735306620597839,0.0,-0.004588283598423004
469.0,548.0,1.611,0.1316,9.323,-0.0408,0.0173,-0.1158,-1.5418440860560914,0.0,1.9357422590255737,-1.9388617277145386,-0.0,2.1252927780151367,4.789634275227346,0.0,0.2966630160808563,-1.5969222227679651,0.0,-0.0013337943237274885,0.8165464997291565,-0.0,0.01411561481654644,0.7735629677772522,0.0,0.011878245510160923
469.0,548.0,1.611,0.1316,9.323,-0.0408,0.0173,-0.1158,-1.5418520171991368,0.0,1.9834060668945312,-1.9388823509216309,-0.0,2.1112260818481445,4.789719055383959,0.0,0.28774502873420715,-1.5968897978412073,0.0,-0.003991199657320976,0.8165341019630432,-0.0,0.0032812871504575014,0.773578941822052,0.0,0.025126071646809578
469.0,548.0,1.611,0.1316,9.323,-0.0408,0.0173,-0.1158,-1.5418719922057171,0.0,1.9366989135742188,-1.93891441822052,-0.0,2.1174306869506836,4.789674746781149,0.0,0.278845876455307,-1.5968893210040491,0.0,-0.006946499925106764,0.8164784908294678,-0.0,0.0017509356839582324,0.7734901309013367,0.0,0.025497660040855408
469.0,548.0,1.611,0.1316,9.323,-0.0408,0.0173,-0.1158,-1.5418759782663365,0.0,2.004469394683838,-1.938846230506897,-0.0,2.048410415649414,4.789674739330568,0.0,0.31119149923324585,-1.5969184080706995,0.0,-0.0035100718960165977,0.8164539337158203,-0.0,-0.00827774778008461,0.7735024690628052,0.0,-0.015139039605855942
469.0,548.0,1.611,0.1316,9.323,-0.0408,0.0173,-0.1158,-1.5419278808734198,0.0,1.93721604347229,-1.9388947486877441,-0.0,2.1053004264831543,4.789658430009641,0.0,0.30674275755882263,-1.596893612538473,0.0,-0.015880372375249863,0.8165345191955566,-0.0,0.001805165782570839,0.7735224366188049,0.0,-0.026269864290952682
469.0,548.0,1.611,0.1316,9.323,-0.0408,0.0173,-0.1158,-1.5418600917658587,0.0,1.975266695022583,-1.9389350414276123,-0.0,2.0939042568206787,4.789666662901201,0.0,0.2971782684326172,-1.5969341436969202,0.0,-0.008505812846124172,0.8165543079376221,-0.0,0.01022728905081749,0.7735306620597839,0.0,-0.013024745509028435
469.0,548.0,1.611,0.1316,9.323,-0.0408,0.0173,-0.1158,-1.5418560945293684,0.0,2.005399465560913,-1.9388617277145386,-0.0,2.1241605281829834,4.789658430009641,0.0,0.2991335988044739,-1.5969417730914515,0.0,-0.0029249389190226793,0.8164780735969543,-0.0,0.00418885750696063,0.7735427021980286,0.0,-0.03988267853856087
469.0,548.0,1.611,0.1316,9.323,-0.0408,0.0173,-0.1158,-1.5418601122549553,0.0,1.9872876405715942,-1.9388823509216309,-0.0,2.0715103149414062,4.789630564838209,0.0,0.2961980700492859,-1.5969060103045862,0.0,-0.0165389496833086,0.8165223002433777,-0.0,0.00810106098651886,0.7735588550567627,0.0,-0.03917236626148224
469.0,548.0,1.611,0.1316,9.323,-0.0408,0.0173,-0.1158,-1.541856126194336,0.0,1.9719481468200684,-1.938906192779541,-0.0,2.104614019393921,4.789719055383959,0.0,0.29249346256256104,-1.5969136396991175,0.0,-0.015266669914126396,0.8165021538734436,-0.0,-0.0038243355229496956,0.7735145092010498,0.0,-0.05622682347893715
469.0,548.0,1.611,0.1316,9.323,-0.0408,0.0173,-0.1158,-1.541856126194336,0.0,1.9548170566558838,-1.938838005065918,-0.0,2.1024410724639893,4.789654741972246,0.0,0.30691051483154297,-1.5969098250018519,0.0,-0.0016537774354219437,0.8165383338928223,-0.0,-0.008477996103465557,0.7735265493392944,0.0,0.03402115777134895
469.0,548.0,1.611,0.1316,9.323,-0.0408,0.0173,-0.1158,-1.5418680433980008,0.0,2.0071253776550293,-1.9388904571533203,-0.0,2.072604179382324,4.789650666504659,0.0,0.2904185354709625,-1.5969017187701624,0.0,-0.001321266172453761,0.816542387008667,-0.0,-0.008635365404188633,0.7735468149185181,0.0,0.0278693325817585
469.0,548.0,1.611,0.1316,9.323,-0.0408,0.0173,-0.1158,-1.5417961601964016,0.0,1.958745002746582,-1.9388699531555176,-0.0,2.100499391555786,4.789646591037073,0.0,0.28376805782318115,-1.5969298521624964,0.0,-0.0085985716432333,0.8164624571800232,-0.0,-0.015124468132853508,0.7734702825546265,0.0,0.026058396324515343
462.0,613.0,1.5709,0.1023,9.4522,-0.0399,0.0202,-0.117,-1.5418680620244523,0.0,1.9199235439300537,-1.9388256072998047,-0.0,2.1010494232177734,4.7896424336131,0.0,0.3046424388885498,-1.5968979040728968,0.0,-0.018294647336006165,0.8164822459220886,-0.0,-0.005545439664274454,0.7735550403594971,0.0,-0.030833791941404343
462.0,613.0,1.5709,0.1023,9.4522,-0.0399,0.0202,-0.117,-1.541868047123291,0.0,1.955723524093628,-1.9388906955718994,-0.0,2.073833703994751,4.789694922953405,0.0,0.283882737159729,-1.5969179312335413,0.0,-0.0030536113772541285,0.8165746927261353,-0.0,-0.009175235405564308,0.7735268473625183,0.0,-0.04187444597482681
462.0,613.0,1.5709,0.1023,9.4522,-0.0399,0.0202,-0.117,-1.5418520171991368,0.0,1.9958128929138184,-1.9388823509216309,-0.0,2.0659220218658447,4.7896223095949075,0.0,0.2819691598415375,-1.5969222227679651,0.0,-0.006546362303197384,0.8165788054466248,-0.0,-0.0029708491638302803,0.7735670208930969,0.0,0.05970825254917145
462.0,613.0,1.5709,0.1023,9.4522,-0.0399,0.0202,-0.117,-1.5418280598572274,0.0,1.9923443794250488,-1.9388864040374756,-0.0,2.0749905109405518,4.7896989835198305,0.0,0.2885837256908417,-1.5969379583941858,0.0,0.006694159936159849,0.8165022134780884,-0.0,-0.0071426816284656525,0.7735629677772522,0.0,-0.014415109530091286
462.0,613.0,1.5709,0.1023,9.4522,-0.0399,0.0202,-0.117,-1.5418759782663365,0.0,1.995657205581665,-1.9388617277145386,-0.0,2.1689114570617676,4.78967476168231,0.0,0.288948118686676,-1.5969298521624964,0.0,-0.003947207238525152,0.8165706396102905,-0.0,-0.009238671511411667,0.7735872268676758,0.0,0.04018037021160126
462.0,613.0,1.5709,0.1023,9.4522,-0.0399,0.0202,-0.117,-1.5418759615025301,0.0,1.92205011844635,-1.9388740062713623,-0.0,2.088367223739624,4.789682979672708,0.0,0.3147750198841095,-1.5969017187701624,0.0,-0.011594980023801327,0.8165144920349121,-0.0,0.002389043103903532,0.7734783291816711,0.0,0.02545985020697117
462.0,613.0,1.5709,0.1023,9.4522,-0.0399,0.0202,-0.117,-1.5418481950512906,0.0,1.9765520095825195,-1.9388699531555176,-0.0,2.1064672470092773,4.7896424336131,0.0,0.31942087411880493,-1.5968855063067835,0.0,-0.003102283924818039,0.8165464401245117,-0.0,-0.01183728314936161,0.7735388875007629,0.0,0.02821994759142399
462.0,613.0,1.5709,0.1023,9.4522,-0.0399,0.0202,-0.117,-1.5418920044652005,0.0,1.9517282247543335,-1.9388657808303833,-0.0,2.1027913093566895,4.78965841510848,0.0,0.2802920639514923,-1.5969136396991175,0.0,0.006751044653356075,0.8165546655654907,-0.0,0.0032980930991470814,0.7735145688056946,0.0,0.005377460736781359
462.0,613.0,1.5709,0.1023,9.4522,-0.0399,0.0202,-0.117,-1.5418759782663365,0.0,1.9441556930541992,-1.9389268159866333,-0.0,2.1229307651519775,4.789682949870386,0.0,0.29526761174201965,-1.5969541708575647,0.0,-0.0071841343306005,0.8164578676223755,-0.0,-0.0021063503809273243,0.7735587954521179,0.0,-0.010733269155025482
462.0,613.0,1.5709,0.1023,9.4522,-0.0399,0.0202,-0.117,-1.541856126194336,0.0,2.0180721282958984,-1.9388947486877441,2.811606156227775e-11,2.0625522136688232,4.789654764323988,0.0,0.30179110169410706,-1.5968979040728968,0.0,-0.008657040074467659,0.8165345191955566,-0.0,-0.008151272311806679,0.7735224366188049,0.0,0.020575666800141335
462.0,613.0,1.5709,0.1023,9.4522,-0.0399,0.0202,-0.117,-1.5418121938458462,0.0,1.9768061637878418,-1.938854455947876,9.10924687960626e-19,2.1261744499206543,4.789662594884195,0.0,0.29796144366264343,-1.5969341436969202,0.0,-0.010346230119466782,0.8165464997291565,-0.0,-0.010369967669248581,0.7735748291015625,0.0,-0.022331545129418373
462.0,613.0,1.5709,0.1023,9.4522,-0.0399,0.0202,-0.117,-1.541888066833355,0.0,1.9673326015472412,-1.9389266967773438,2.1997755134561105e-24,2.0805225372314453,4.789650666504659,0.0,0.2912290096282959,-1.5969060103045862,0.0,-0.00902996864169836,0.8165064454078674,-0.0,-0.013490376062691212,0.773554801940918,0.0,0.012144931592047215
462.0,613.0,1.5709,0.1023,9.4522,-0.0399,0.0202,-0.117,-1.541840099995472,0.0,1.9567772150039673,-1.9389070272445679,5.312198526055247e-30,2.123857021331787,4.789678934007444,0.0,0.2954450249671936,-1.5969541708575647,0.0,-0.0272817499935627,0.8165464401245117,-0.0,-0.00012181041529402137,0.7735224962234497,0.0,0.045911550521850586
462.0,613.0,1.5709,0.1023,9.4522,-0.0399,0.0202,-0.117,-1.5419078704765816,0.0,1.9701614379882812,-1.9388781785964966,1.2828335441402633e-35,2.140202522277832,4.789630639344015,0.0,0.29751208424568176,-1.5969298521624964,0.0,-0.017121197655797005,0.8165386915206909,-0.0,0.0027644664514809847,0.773554801940918,0.0,-0.04589205980300903
461.0,566.0,1.5691,0.1771,9.5145,-0.0319,0.0221,-0.1202,-1.5418640498868008,0.0,1.9935698509216309,-1.9388781785964966,3.097850515082873e-41,2.0644984245300293,4.789694930403986,0.0,0.2789594829082489,-1.5969017187701624,0.0,-0.010227393358945847,0.8165624141693115,-0.0,0.002468779217451811,0.7735671401023865,0.0,0.01509032305330038
461.0,566.0,1.5691,0.1771,9.5145,-0.0319,0.0221,-0.1202,-1.5418480721167107,0.0,2.005331039428711,-1.9388904571533203,0.0,2.0950489044189453,4.789642388909616,0.0,0.2846237123012543,-1.5969179312335413,0.0,-0.013235548511147499,0.8166106343269348,-0.0,-0.007076827809214592,0.7735707759857178,0.0,0.006025117821991444
461.0,566.0,1.5691,0.1771,9.5145,-0.0319,0.0221,-0.1202,-1.5418320459178467,0.0,1.9540168046951294,-1.9388904571533203,-0.0,2.08927059173584,4.789654376893797,0.0,0.3017773926258087,-1.5968893210040491,0.0,-0.0003386924508959055,0.8165304660797119,-0.0,0.0017191828228533268,0.7735386490821838,0.0,-0.0021555768325924873
461.0,566.0,1.5691,0.1771,9.5145,-0.0319,0.0221,-0.1202,-1.5418601122549553,0.0,1.9631892442703247,-1.9388502836227417,-0.0,2.1022939682006836,4.7896707011158846,0.0,0.3000826835632324,-1.5969541708575647,0.0,-0.010850894264876842,0.8164699077606201,-0.0,0.004838940687477589,0.773578941822052,0.0,-0.02174292504787445
461.0,566.0,1.5691,0.1771,9.5145,-0.0319,0.0221,-0.1202,-1.5418959886631747,0.0,1.9505949020385742,-1.9388504028320312,-0.0,2.0960187911987305,4.789658459811964,0.0,0.2916218042373657,-1.5969098250018519,0.0,-0.006428069900721312,0.8165386319160461,-0.0,0.005743679590523243,0.7735468149185181,0.0,-0.014190437272191048
461.0,566.0,1.5691,0.1771,9.5145,-0.0319,0.0221,-0.1202,-1.5418640964529295,0.0,1.97816002368927,-1.9388575553894043,-0.0,2.0877304077148438,4.789683009475031,0.0,0.29497939348220825,-1.5969179312335413,0.0,-0.007300850003957748,0.8165185451507568,-0.0,0.0018491341033950448,0.7735707759857178,0.0,-0.025629213079810143
461.0,566.0,1.5691,0.1771,9.5145,-0.0319,0.0221,-0.1202,-1.541856126194336,0.0,1.9867113828659058,-1.9389071464538574,-0.0,2.080106019973755,4.789642448514261,0.0,0.29181042313575745,-1.5969222227679651,0.0,-0.0006973177660256624,0.8165345191955566,-0.0,0.00015603681094944477,0.773563027381897,0.0,0.0014005377888679504
461.0,566.0,1.5691,0.1771,9.5145,-0.0319,0.0221,-0.1202,-1.5418601122549553,0.0,1.9470852613449097,-1.9388707876205444,-0.0,2.107599973678589,4.789666662901201,0.0,0.2922934889793396,-1.5969136396991175,0.0,-0.011026332154870033,0.8164699673652649,-0.0,-0.0027562810573726892,0.7735468149185181,0.0,0.008132988587021828
461.0,566.0,1.5691,0.1771,9.5145,-0.0319,0.0221,-0.1202,-1.5418721356293936,0.0,1.958781361579895,-1.9388947486877441,-0.0,2.076855182647705,4.789706761925974,0.0,0.2985844612121582,-1.5969179312335413,0.0,4.664994776248932e-06,0.8165022730827332,-0.0,0.0028571211732923985,0.773554801940918,0.0,0.03953385725617409
461.0,566.0,1.5691,0.1771,9.5145,-0.0319,0.0221,-0.1202,-1.5418480721167107,0.0,1.9944016933441162,-1.9388823509216309,-0.0,2.0915229320526123,4.7896747318799875,0.0,0.28658491373062134,-1.5968812147723597,0.0,-0.00539852399379015,0.8164944648742676,-0.0,0.0008602577727288008,0.7735830545425415,0.0,0.04908027499914169
461.0,566.0,1.5691,0.1771,9.5145,-0.0319,0.0221,-0.1202,-1.541856126194336,0.0,1.9180163145065308,-1.9388504028320312,-0.0,2.096986770629883,4.789698953717508,0.0,0.29776591062545776,-1.5969541708575647,0.0,-0.012356806546449661,0.8165625929832458,-0.0,-0.0029281978495419025,0.7735265493392944,4.688123954110779e-05,-0.022422289475798607
461.0,566.0,1.5691,0.1771,9.5145,-0.0319,0.0221,-0.1202,-1.5418481950512906,0.0,1.9817194938659668,-1.9389102458953857,-0.0,2.076476573944092,4.789699043124475,0.0,0.28940311074256897,-1.5969260374652308,0.0,-0.013079049997031689,0.8165827393531799,-0.0,-0.008773584850132465,0.7735427021980286,4.3490952521096915e-05,0.027298923581838608
461.0,566.0,1.5691,0.1771,9.5145,-0.0319,0.0221,-0.1202,-1.5418759782663365,0.0,2.035958766937256,-1.9388699531555176,-0.0,2.1044654846191406,4.789634647756376,0.0,0.3000617027282715,-1.5968893210040491,0.0,-0.00013493141159415245,0.816542387008667,-3.165628825740896e-08,-0.001756537239998579,0.7735347747802734,4.055161844007671e-05,-0.04410861060023308
461.0,566.0,1.5691,0.1771,9.5145,-0.0319,0.0221,-0.1202,-1.5418601122549553,0.0,1.9892245531082153,-1.9388864040374756,-0.0,2.0315237045288086,4.7896625874336145,0.0,0.30206412076950073,-1.5969060103045862,0.0,-0.006816730834543705,0.8165345191955566,-8.811644122697082e-12,0.005955822765827179,0.7735748887062073,3.798440229729749e-05,-0.0014571321662515402
463.0,562.0,1.5894,0.0616,9.2644,-0.0232,0.0234,-0.1246,-1.5418359910002728,0.0,1.96706223487854,-1.9388617277145386,-0.0,2.044887065887451,4.789703073888578,0.0,0.29191887378692627,-1.5969060103045862,0.0,-0.031159747391939163,0.8165185451507568,-2.4527535171225143e-15,0.004487128928303719,0.7735347747802734,1.7861502783489414e-05,-0.02829008176922798
463.0,562.0,1.5894,0.0616,9.2644,-0.0232,0.0234,-0.1246,-1.541840099995472,0.0,1.965904712677002,-1.9388740062713623,-0.0,2.1073265075683594,4.789642448514261,0.0,0.28206872940063477,-1.5969460646258753,0.0,-0.01110724825412035,0.8165022730827332,-6.82733060712613e-19,-0.002623798558488488,0.7735104560852051,1.685778443061281e-05,0.005162469111382961
463.0,562.0,1.5894,0.0616,9.2644,-0.0232,0.0234,-0.1246,-1.5418196965805073,0.0,1.9122767448425293,-1.938793659210205,-0.0,2.074044942855835,4.789687047689714,0.0,0.29915082454681396,-1.5969460646258753,0.0,-0.008360413834452629,0.8165706992149353,-1.2408336332715066e-23,-0.00562398973852396,0.7734983563423157,1.5682784578530118e-05,-0.017966613173484802
463.0,562.0,1.5894,0.0616,9.2644,-0.0232,0.0234,-0.1246,-1.5418320142528792,0.0,1.9326469898223877,-1.938939094543457,-0.0,2.084106922149658,4.789682577341356,0.0,0.2860858738422394,-1.5969098250018519,0.0,-0.02071671187877655,0.8164981603622437,-3.453905369551726e-27,0.0013797527644783258,0.7735509276390076,1.4903687770129181e-05,-0.02118927612900734
463.0,562.0,1.5894,0.0616,9.2644,-0.0232,0.0234,-0.1246,-1.541883909409382,0.0,1.9724013805389404,-1.9388947486877441,-0.0,2.085416316986084,4.7896707383687875,0.0,0.28785908222198486,-1.5969179312335413,0.0,-0.014871920458972454,0.8165624737739563,-9.614072070799082e-31,-0.0056219580583274364,0.7735186219215393,1.4198331882653292e-05,-0.031066682189702988
463.0,562.0,1.5894,0.0616,9.2644,-0.0232,0.0234,-0.1246,-1.5418481950512906,0.0,1.9594337940216064,-1.9389185905456543,-0.0,2.110382318496704,4.7896747318799875,0.0,0.29467853903770447,-1.5969260374652308,0.0,-0.002003758680075407,0.816542387008667,-2.6761123015715285e-34,-0.013330850750207901,0.7735468149185181,1.3556737940234598e-05,-0.02015678584575653
463.0,562.0,1.5894,0.0616,9.2644,-0.0232,0.0234,-0.1246,-1.5418640610626717,0.0,1.9378323554992676,-1.9388617277145386,-0.0,2.088865280151367,4.789674746781149,0.0,0.2932230532169342,-1.5969179312335413,0.0,-0.0011156515683978796,0.816470205783844,-7.449054886782235e-38,0.00716823898255825,0.7735670804977417,1.2970619536645245e-05,0.03149836137890816
463.0,562.0,1.5894,0.0616,9.2644,-0.0232,0.0234,-0.1246,-1.5418561187437554,0.0,2.018202543258667,-1.9388585090637207,-0.0,2.076596736907959,4.789670730918207,0.0,0.2950349748134613,-1.5969341436969202,0.0,-0.020849183201789856,0.8165386915206909,-2.0735013376614318e-41,-0.002811481710523367,0.7735589146614075,1.2433078154572286e-05,0.015492938458919525
463.0,562.0,1.5894,0.0616,9.2644,-0.0232,0.0234,-0.1246,-1.5418279164335509,0.0,1.9920439720153809,-1.9388502836227417,-0.0,2.1296026706695557,4.789662572532453,0.0,0.2883063852787018,-1.5969379583941858,0.0,-0.00522643281146884,0.8165870308876038,-5.605193857299268e-45,0.005097895860671997,0.7735629677772522,1.1938313036807813e-05,-0.027599528431892395
463.0,562.0,1.5894,0.0616,9.2644,-0.0232,0.0234,-0.1246,-1.5418320459178467,0.0,2.0080034732818604,-1.938846230506897,-0.0,2.0804057121276855,4.789690750628271,0.0,0.28011947870254517,-1.5969255606280726,0.0,0.004380478523671627,0.8165428042411804,-0.0,0.012544060125946999,0.7735711932182312,1.1336811439832672e-05,-0.011583350598812103
463.0,562.0,1.5894,0.0616,9.2644,-0.0232,0.0234,-0.1246,-1.5418920044652005,0.0,1.9223040342330933,-1.9388017654418945,-0.0,2.0473248958587646,4.789618278830805,0.0,0.2854624092578888,-1.5969098250018519,0.0,-0.012841526418924332,0.8165264129638672,-0.0,-0.007396513596177101,0.7735629677772522,1.0924002708634362e-05,-0.00670684315264225
463.0,562.0,1.5894,0.0616,9.2644,-0.0232,0.0234,-0.1246,-1.541868047123291,0.0,1.915681004524231,-1.9388699531555176,-0.0,2.0517516136169434,4.789670671313562,0.0,0.29274946451187134,-1.5969541708575647,0.0,-0.003636683337390423,0.816542387008667,-0.0,0.0032035137992352247,0.7735145092010498,2.107974432874471e-05,0.02341519296169281
463.0,562.0,1.5894,0.0616,9.2644,-0.0232,0.0234,-0.1246,-1.5419199106148263,0.0,1.9856793880462646,-1.9389268159866333,-0.0,2.0697121620178223,4.789682979672708,0.0,0.29285159707069397,-1.5968812147723597,0.0,-0.0086060781031847,0.8165185451507568,-0.0,-0.005038158968091011,0.7734901309013367,2.0364926967886277e-05,0.004341719206422567
463.0,562.0,1.5894,0.0616,9.2644,-0.0232,0.0234,-0.1246,-1.5418121621808787,0.0,1.9804432392120361,-1.938818335533142,-0.0,2.1207621097564697,4.789666595845976,0.0,0.29443132877349854,-1.5969298521624964,0.0,-0.0037038573063910007,0.8165746927261353,-0.0,-0.005041203927248716,0.7735831141471863,7.828417665223242e-07,0.07871505618095398
463.0,562.0,1.5894,0.0616,9.2644,-0.0232,0.0234,-0.1246,-1.5419084460339327,0.0,1.927335500717163,-1.9388576745986938,-0.0,2.0963752269744873,4.789654354542055,0.0,0.2871221899986267,-1.5969098250018519,0.0,-0.011089744046330452,0.8165141940116882,-0.0,0.004735600668936968,0.773570716381073,1.8904706359373913e-12,0.0001853159483289346
489.0,642.0,1.7492,-0.0179,9.2758,-0.0183,0.0151,-0.1217,-1.541840099995472,0.0,1.9686698913574219,-1.9388461112976074,-0.0,2.0823912620544434,4.789638745575704,0.0,0.2904427945613861,-1.5969179312335413,0.0,-0.010752230882644653,0.8165103197097778,-0.0,-0.0075218696147203445,0.7735427021980286,4.5652631538296694e-18,0.0012249017599970102
489.0,642.0,1.7492,-0.0179,9.2758,-0.0183,0.0151,-0.1217,-1.5418601029417296,0.0,1.9491934776306152,-1.9388659000396729,-0.0,2.088421583175659,4.789618278830805,0.0,0.28777429461479187,-1.5968812147723597,0.0,-0.011375118046998978,0.8165304064750671,-0.0,0.0037805133033543825,0.773578941822052,1.4790872034552966e-25,-0.0016277050599455833
489.0,642.0,1.7492,-0.0179,9.2758,-0.0183,0.0151,-0.1217,-1.5418601159802456,0.0,1.944401502609253,-1.9388699531555176,-0.0,2.1132214069366455,4.78965030142621,0.0,0.29014134407043457,-1.5969584623919886,0.0,-0.0067691621370613575,0.8165304660797119,-0.0,-0.0019302107393741608,0.7735748291015625,3.571821399380338e-31,0.0019397856667637825
489.0,642.0,1.7492,-0.0179,9.2758,-0.0183,0.0151,-0.1217,-1.5418640964529295,0.0,1.9578583240509033,-1.9388781785964966,-0.0,2.077970266342163,4.7897109044487856,0.0,0.30197322368621826,-1.5969379583941858,0.0,-0.014486231841146946,0.8164981007575989,-0.0,-0.002174865920096636,0.773563027381897,8.625529698114041e-37,0.013095477595925331
489.0,642.0,1.7492,-0.0179,9.2758,-0.0183,0.0151,-0.1217,-1.5418959569982071,0.0,1.944466233253479,-1.9388504028320312,-0.0,2.092771291732788,4.7896707383687875,0.0,0.3132314085960388,-1.5969255606280726,0.0,0.010494925081729889,0.816566526889801,-0.0,-0.00986134447157383,0.7735588550567627,2.0823295179866782e-42,0.023651128634810448
489.0,642.0,1.7492,-0.0179,9.2758,-0.0183,0.0151,-0.1217,-1.5418684755316754,0.0,1.9451887607574463,-1.9388864040374756,-0.0,2.101106643676758,4.789634670108118,0.0,0.30638256669044495,-1.5969017187701624,0.0,0.0019897595047950745,0.8165345191955566,-0.0,-0.008058063685894012,0.7735588550567627,0.0,-0.00047971680760383606
489.0,642.0,1.7492,-0.0179,9.2758,-0.0183,0.0151,-0.1217,-1.5418399565717955,0.0,1.9570579528808594,-1.938818335533142,-0.0,2.1193008422851562,4.789638350694933,0.0,0.2935881018638611,-1.5969379583941858,0.0,0.00684074591845274,0.8165828585624695,-0.0,-0.006974071729928255,0.7735145092010498,0.0,0.02210444025695324
489.0,642.0,1.7492,-0.0179,9.2758,-0.0183,0.0151,-0.1217,-1.5419125513038416,0.0,1.943624496459961,-1.9388947486877441,-0.0,2.0767598152160645,4.789699005871572,0.0,0.28321143984794617,-1.5968812147723597,0.0,-0.0008591454243287444,0.8165664672851562,-0.0,0.0012837254907935858,0.7735386490821838,0.0,0.008718390949070454
489.0,642.0,1.7492,-0.0179,9.2758,-0.0183,0.0151,-0.1217,-1.54185218111191,0.0,1.9712071418762207,-1.9388421773910522,-0.0,2.095625400543213,4.789630594640531,0.0,0.2893142104148865,-1.596961800252096,0.0,-0.00990874134004116,0.8165144920349121,-0.0,0.01389923132956028,0.773554801940918,0.0,0.00859846267849207
489.0,642.0,1.7492,-0.0179,9.2758,-0.0183,0.0151,-0.1217,-1.5418121938458462,0.0,1.9874815940856934,-1.9388740062713623,-0.0,2.1158955097198486,4.789634275227346,0.0,0.30768463015556335,-1.5969460646258753,0.0,0.0023778530303388834,0.8164981603622437,-0.0,-0.007954210042953491,0.7735748291015625,0.0,0.017475944012403488
489.0,642.0,1.7492,-0.0179,9.2758,-0.0183,0.0151,-0.1217,-1.5418759782663365,0.0,1.929150104522705,-1.9388740062713623,-0.0,2.103959083557129,4.7896424336131,0.0,0.30387452244758606,-1.5969494024859827,0.0,0.0008277149754576385,0.8165706992149353,-0.0,-0.007348009385168552,0.7735629677772522,0.0,-0.03225281462073326
489.0,642.0,1.7492,-0.0179,9.2758,-0.0183,0.0151,-0.1217,-1.5418440860560914,0.0,1.9396114349365234,-1.9388864040374756,8.496577746930356e-11,2.1011266708374023,4.789670671313562,0.0,0.30388516187667847,-1.5969098250018519,0.0,-0.003046404803171754,0.8165624141693115,-0.0,-0.0008404389955103397,0.7735707759857178,8.264689910220113e-08,-0.03133964166045189
489.0,642.0,1.7492,-0.0179,9.2758,-0.0183,0.0151,-0.1217,-1.5418759782663365,0.0,2.0064826011657715,-1.9388864040374756,2.0518233623223573e-16,2.1009416580200195,4.789658430009641,0.0,0.29470232129096985,-1.596961800252096,0.0,-0.016583068296313286,0.8165144920349121,-0.0,0.0005626063793897629,0.7735344767570496,1.9958252444381847e-13,-0.0006324909627437592
489.0,642.0,1.7492,-0.0179,9.2758,-0.0183,0.0151,-0.1217,-1.5418803871474047,0.0,1.9466992616653442,-1.9388378858566284,4.954911833646545e-22,2.086885690689087,4.789646591037073,0.0,0.2815444767475128,-1.5969541708575647,0.0,-0.01468607410788536,0.8165021538734436,-0.0,0.00638269679620862,0.7735588550567627,4.819682610350207e-19,-0.004086881410330534
483.0,641.0,1.1372,0.1944,9.7567,-0.0267,0.033,-0.1655,-1.5418201249888916,0.0,1.9681682586669922,-1.9388986825942993,1.6053285115620456e-29,2.1451165676116943,4.789674746781149,0.0,0.2935391962528229,-1.5969460646258753,0.0,-0.00453823059797287,0.8165508508682251,-0.0,0.00832032598555088,0.7735869288444519,1.5615156492203894e-26,0.013895091600716114
483.0,641.0,1.1372,0.1944,9.7567,-0.0267,0.033,-0.1655,-1.541835868065693,0.0,1.9935513734817505,-1.9388946294784546,3.8766793499661304e-35,2.0373916625976562,4.789682979672708,0.0,0.29025742411613464,-1.5969098250018519,0.0,-0.012842681258916855,0.8165304660797119,-0.0,0.005207886919379234,0.7735666632652283,3.7708768503368596e-32,0.03021375462412834
483.0,641.0,1.1372,0.1944,9.7567,-0.0267,0.033,-0.1655,-1.5418196965805073,0.0,1.943082332611084,-1.938846230506897,9.361654650614805e-41,2.0801782608032227,4.7896547866757295,0.0,0.29538634419441223,-1.5969417730914515,0.0,-0.002804961521178484,0.8165264129638672,-0.0,6.961333565413952e-05,0.7735909819602966,9.106223163940749e-38,0.00590747594833374
483.0,641.0,1.1372,0.1944,9.7567,-0.0267,0.033,-0.1655,-1.5418799196234723,0.0,1.9458649158477783,-1.9388378858566284,0.0,2.136629343032837,4.789634670108118,0.0,0.2998093366622925,-1.5969255606280726,0.0,-0.005542399361729622,0.8165144920349121,-0.0,-0.001526501728221774,0.7735629677772522,2.200038588989963e-43,-0.014144012704491615
483.0,641.0,1.1372,0.1944,9.7567,-0.0267,0.033,-0.1655,-1.5418118250421067,1.4060113073810498e-07,1.9889740943908691,-1.9388823509216309,-0.0,2.0848076343536377,4.7896625874336145,0.0,0.29693078994750977,-1.5969579855548304,0.0,-0.007664501667022705,0.8165584206581116,-0.0,-0.003234509378671646,0.7735869288444519,0.0,0.017385056242346764
483.0,641.0,1.1372,0.1944,9.7567,-0.0267,0.033,-0.1655,-1.541896517654397,3.395351220233239e-13,1.924537181854248,-1.938854455947876,-0.0,2.0964863300323486,4.789610433369436,0.0,0.29936933517456055,-1.5969298521624964,0.0,-0.015436356887221336,0.8165706396102905,-0.0,-0.0065959664061665535,0.773546576499939,0.0,-0.022636279463768005
483.0,641.0,1.1372,0.1944,9.7567,-0.0267,0.033,-0.1655,-1.541852020924427,8.199373021216305e-19,2.011594772338867,-1.9388378858566284,0.00014277247828431427,2.0812554359436035,4.789618673711576,0.0,0.2968273162841797,-1.5968855063067835,0.0,-0.007581202778965235,0.8165464401245117,-0.0,0.00045270612463355064,0.7735787630081177,0.0,0.01443338580429554
483.0,641.0,1.1372,0.1944,9.7567,-0.0267,0.033,-0.1655,-1.5419443652829905,2.6564924879684594e-26,1.979927659034729,-1.9388946294784546,0.0001305196201428771,2.108358860015869,4.789650666504659,0.0,0.3110315203666687,-1.5969179312335413,0.0,-0.0023742085322737694,0.816566526889801,-0.0,-0.00241265119984746,0.7736393213272095,0.00013561105879489332,0.0019077868200838566
483.0,641.0,1.1372,0.1944,9.7567,-0.0267,0.033,-0.1655,-1.5418960855207224,6.415116421554658e-32,1.9941256046295166,-1.9388667345046997,0.00012007191253360361,2.1146392822265625,4.789654354542055,0.0,0.30118781328201294,-1.5969541708575647,0.0,-0.005087674129754305,0.8165304660797119,-0.0,-0.006245448254048824,0.7736068964004517,0.00014924135757610202,0.006213437765836716
483.0,641.0,1.1372,0.1944,9.7567,-0.0267,0.033,-0.1655,-1.5419040483287354,1.549175137083595e-37,1.956878423690796,-1.9388419389724731,0.000111172761535272,2.087038040161133,4.789630594640531,0.0,0.2953360676765442,-1.5969179312335413,0.0,-0.006516510620713234,0.8165264129638672,-0.0,0.0021802950650453568,0.7735584378242493,0.00013781475718133152,-0.0023108944296836853
483.0,641.0,1.1372,0.1944,9.7567,-0.0267,0.033,-0.1655,-1.5418714334121724,-0.0010414820862933993,1.9839314222335815,-1.9388659000396729,8.289868128485978e-05,2.1334543228149414,4.7896547494228265,0.0,0.30536699295043945,-1.5968692938434046,0.0,-0.0052951606921851635,0.8165345191955566,-0.0,0.009264770895242691,0.7736228704452515,0.0001493492309236899,0.0008407944114878774
483.0,641.0,1.1372,0.1944,9.7567,-0.0267,0.033,-0.1655,-1.5419642825475712,-0.001129376469179988,1.9459043741226196,-1.9388864040374756,7.745681068627164e-05,2.0690221786499023,4.789646628289976,0.0,0.29189926385879517,-1.5969541708575647,0.0,-0.00983105693012476,0.8165424466133118,-0.0,0.0088041415438056,0.7735666632652283,0.00015934107068460435,-0.019728675484657288
483.0,641.0,1.1372,0.1944,9.7567,-0.0267,0.033,-0.1655,-1.5419279926321288,-0.0013178082881495357,1.9806764125823975,-1.9388904571533203,7.276036194525659e-05,2.0698931217193604,4.7896625874336145,0.0,0.2963182330131531,-1.5968893210040491,0.0,-0.0007846041116863489,0.8165383338928223,-0.0,0.010663220658898354,0.7735626101493835,0.0002520412381272763,0.04382295161485672
483.0,641.0,1.1372,0.1944,9.7567,-0.0267,0.033,-0.1655,-1.541984125306346,-0.0017142965225502849,1.9616599082946777,-1.9388864040374756,6.860082066850737e-05,2.116366147994995,4.789654741972246,0.0,0.29724806547164917,-1.596893612538473,0.0,0.011234775185585022,0.8165706396102905,-0.0,0.009282629005610943,0.7735626101493835,0.00021617354650516063,0.009713636711239815
475.0,568.0,1.7234,-0.0975,9.195,-0.0467,0.0032,-0.1367,-1.5419437915882845,-0.002215440385043621,1.9720525741577148,-1.9388585090637207,6.374235090333968e-05,2.071869373321533,4.789610507875242,0.0,0.311363160610199,-1.5968979040728968,0.0,-0.0191327054053545,0.8165547251701355,-0.0,0.01561654545366764,0.7736029028892517,0.00021611980628222227,-0.03195652365684509
475.0,568.0,1.7234,-0.0975,9.195,-0.0467,0.0032,-0.1367,-1.5419554238072415,-0.0022085842210799456,1.9638841152191162,-1.9388740062713623,6.052721801097505e-05,2.101604461669922,4.789598274021902,1.710688124489934e-08,0.2910231947898865,-1.5968893210040491,0.0,-0.012445418164134026,0.8165223002433777,-0.0,0.0023620426654815674,0.7735947370529175,0.00019412583787925541,-0.03679199516773224
475.0,568.0,1.7234,-0.0975,9.195,-0.0467,0.0032,-0.1367,-1.542028098633029,-0.0027667111717164516,1.958831548690796,-1.938854455947876,2.7424886866356246e-05,2.091552495956421,4.7896588546927354,4.761763466171187e-12,0.30040693283081055,-1.59691030183901,0.0,-0.016943439841270447,0.81657475233078,-0.0,-0.0016949349083006382,0.7735987901687622,0.0002044153807219118,0.02594529464840889
475.0,568.0,1.7234,-0.0975,9.195,-0.0467,0.0032,-0.1367,-1.5420479339412232,-0.0030647788662463427,1.967153787612915,-1.938862681388855,2.5114282834692858e-05,2.080775737762451,4.789574700384893,1.325454308280711e-15,0.3096265196800232,-1.5969422499286097,0.0,-0.017652511596679688,0.8165263533592224,-0.0,0.006693923380225897,0.7735745906829834,0.0002128663909388706,-0.02601030468940735
475.0,568.0,1.7234,-0.0975,9.195,-0.0467,0.0032,-0.1367,-1.5420520522496481,-0.0035720490850508213,2.021846055984497,-1.9388025999069214,2.317425787623506e-05,2.126707077026367,4.789586591511526,3.6894511971973656e-19,0.3019939661026001,-1.5969303289996546,0.0,-0.007548170629888773,0.8164981007575989,-0.0,0.0033950544893741608,0.7736308574676514,0.00030420583789236844,0.007258121389895678
475.0,568.0,1.7234,-0.0975,9.195,-0.0467,0.0032,-0.1367,-1.5421161142042656,-0.003690129378810525,1.9621682167053223,-1.9388419389724731,2.151245098502841e-05,2.10207200050354,4.789626429765978,1.0269724479013497e-22,0.30479976534843445,-1.5969060103045862,0.0,-0.013929037377238274,0.8165870308876038,-0.0,0.012822126969695091,0.7736105918884277,0.0012310049496591091,0.0024520456790924072
475.0,568.0,1.7234,-0.0975,9.195,-0.0467,0.0032,-0.1367,-1.5421037946692486,-0.0033492797520011663,1.9749879837036133,-1.9388387203216553,5.660593888023868e-05,2.0878047943115234,4.789703118592062,1.8664714795861465e-27,0.30550867319107056,-1.5969222227679651,0.0,-0.02267501689493656,0.8165583610534668,-0.0,0.009601353667676449,0.7736428380012512,0.0057184696197509766,0.03197683393955231
475.0,568.0,1.7234,-0.0975,9.195,-0.0467,0.0032,-0.1367,-1.542143778210022,-0.003402776550501585,1.9643001556396484,-1.9388667345046997,5.52868950762786e-05,2.077874183654785,4.789630557387628,5.1953916272445455e-31,0.2971925139427185,-1.596893612538473,0.0,-0.010244825854897499,0.8165505528450012,-0.0,0.02216099575161934,0.7737025618553162,0.012717556208372116,0.02603014186024666
475.0,568.0,1.7234,-0.0975,9.195,-0.0467,0.0032,-0.1367,-1.5421677467278023,-0.0032293566036969423,1.9659255743026733,-1.938818335533142,6.944636697880924e-05,2.1209094524383545,4.789650666504659,1.446156402079557e-34,0.30690789222717285,-1.5968979040728968,0.0,-0.020738499239087105,0.8165706992149353,-0.0,0.017381267622113228,0.773798942565918,0.014450866729021072,0.022902008146047592
475.0,568.0,1.7234,-0.0975,9.195,-0.0467,0.0032,-0.1367,-1.542155347099044,-0.0031421780586242676,1.9698925018310547,-1.9388304948806763,0.00014655280392616987,2.0589935779571533,4.789642835944452,4.025429383674357e-38,0.3096054792404175,-1.5969260374652308,0.0,-0.01652470976114273,0.8165583610534668,-0.0,0.01750975288450718,0.7738831043243408,0.01326789241284132,0.01295227836817503
475.0,568.0,1.7234,-0.0975,9.195,-0.0467,0.0032,-0.1367,-1.5422115431031962,-0.003271658904850483,1.9632863998413086,-1.9388387203216553,0.00023110461188480258,2.108088254928589,4.789642858296194,1.1204782520741237e-41,0.29686859250068665,-1.5969222227679651,0.0,-0.020019199699163437,0.8164538145065308,-0.0,0.020016569644212723,0.773959219455719,0.012835094705224037,0.02530047483742237
475.0,568.0,1.7234,-0.0975,9.195,-0.0467,0.0032,-0.1367,-1.5422194835594674,-0.003273398382589221,1.959722876548767,-1.9388583898544312,0.0006545810028910637,2.093273401260376,4.789650666504659,2.802596928649634e-45,0.3132207989692688,-1.5969222227679651,0.0,-0.03141540661454201,0.8165584802627563,-0.0,0.013554880395531654,0.7740391492843628,0.012170198373496532,0.002589751034975052
475.0,568.0,1.7234,-0.0975,9.195,-0.0467,0.0032,-0.1367,-1.5422513534179707,-0.004232714883983135,1.9993776082992554,-1.9388067722320557,0.0006778722163289785,2.1119658946990967,4.789626429765978,0.0,0.31478142738342285,-1.5969179312335413,0.0,-0.008294682018458843,0.8165781497955322,-0.0,0.014592379331588745,0.7741154432296753,0.010525866411626339,0.011563816107809544
475.0,568.0,1.7234,-0.0975,9.195,-0.0467,0.0032,-0.1367,-1.5423076555928965,-0.005679868161678314,1.9873130321502686,-1.9388108253479004,0.0006974728894419968,2.1450552940368652,4.789646568685331,0.0,0.3108431100845337,-1.596893612538473,0.0,-0.025031913071870804,0.8165781497955322,-0.0,0.023781245574355125,0.7741431593894958,0.009746882133185863,0.006613499950617552
477.0,594.0,1.3436,0.3434,9.4032,-0.0425,0.0118,-0.1185,-1.5423637957176943,-0.0075638554990291595,1.9902088642120361,-1.9387820959091187,0.0006790459738112986,2.0767502784729004,4.789646591037073,0.0,0.3141860365867615,-1.5969222227679651,0.0,-0.023300886154174805,0.8165706396102905,-7.519579625636652e-09,0.03547164425253868,0.7742474675178528,0.009394235908985138,0.008009961806237698
477.0,594.0,1.3436,0.3434,9.4032,-0.0425,0.0118,-0.1185,-1.542451848541834,-0.010004286654293537,1.9221605062484741,-1.9388470649719238,0.0009119411697611213,2.0844905376434326,4.789694893151083,0.0,0.3192186951637268,-1.5969017187701624,0.0,-0.024106251075863838,0.8165981769561768,-2.093102817804504e-12,0.02983633428812027,0.7742832899093628,0.009025667794048786,0.05938985198736191
477.0,594.0,1.3436,0.3434,9.4032,-0.0425,0.0118,-0.1185,-1.5424832937172432,-0.011578693985939026,1.9299577474594116,-1.938754916191101,0.002204590942710638,2.1176116466522217,4.789662617235937,0.0,0.31920409202575684,-1.596949879323141,0.0,-0.0310062188655138,0.8165821433067322,-5.826229306811611e-16,0.03518810123205185,0.7743716239929199,0.007488883566111326,-0.005253396462649107
477.0,594.0,1.3436,0.3434,9.4032,-0.0425,0.0118,-0.1185,-1.5425916046700259,-0.013901934958994389,1.9453535079956055,-1.9388024806976318,0.004861464723944664,2.1016316413879395,4.789618681162157,0.0,0.3012063503265381,-1.5968855063067835,0.0,-0.023191265761852264,0.8165740966796875,-1.6217523436425372e-19,0.032268427312374115,0.7743671536445618,0.006393565330654383,-0.011561406776309013
477.0,594.0,1.3436,0.3434,9.4032,-0.0425,0.0118,-0.1185,-1.5426915374449273,-0.01615035906434059,1.9377977848052979,-1.9387423992156982,0.009447639808058739,2.166897773742676,4.789683009475031,-1.5321555110858753e-05,0.3185098171234131,-1.5969260374652308,0.0,-0.02211257815361023,0.8165664672851562,-4.514207305206754e-23,0.03339160978794098,0.7744317054748535,0.005043217912316322,0.0007039420306682587
477.0,594.0,1.3436,0.3434,9.4032,-0.0425,0.0118,-0.1185,-1.5428113427809258,-0.01876119337975979,1.8825602531433105,-1.9386584758758545,0.010469489730894566,2.115743398666382,4.789638745575704,-1.561557837703731e-05,0.31700095534324646,-1.5969379583941858,0.0,-0.014013292267918587,0.8165981769561768,-1.2565461832706262e-26,0.037160586565732956,0.7743991017341614,0.004154743626713753,-0.026672471314668655
477.0,594.0,1.3436,0.3434,9.4032,-0.0425,0.0118,-0.1185,-1.5429834400168438,-0.021107956767082214,1.8808395862579346,-1.9385466575622559,0.010975181125104427,2.1142284870147705,4.789638745575704,-1.4602431292587426e-05,0.31605613231658936,-1.596893612538473,0.0,-0.017449354752898216,0.8165940642356873,-2.2837106930684824e-31,0.045588575303554535,0.7744553685188293,0.0032162645366042852,-0.05074667930603027
477.0,594.0,1.3436,0.3434,9.4032,-0.0425,0.0118,-0.1185,-1.5431113143316288,-0.024466216564178467,1.8698850870132446,-1.9384182691574097,0.01278010942041874,2.105078935623169,4.789646576135912,-1.3924653103458695e-05,0.31069231033325195,-1.5969141165362757,0.0,-0.02515171468257904,0.8165900707244873,-6.356792777011798e-35,0.04465024173259735,0.7745277881622314,0.0028959328774362803,-0.00017674406990408897
477.0,594.0,1.3436,0.3434,9.4032,-0.0425,0.0118,-0.1185,-1.5432913091829796,-0.025740457698702812,1.8873157501220703,-1.9384068250656128,0.013165884651243687,2.057964324951172,4.789634655206957,-1.3307000699569471e-05,0.29916834831237793,-1.596877400075094,0.0,-0.01830046996474266,0.8166144490242004,0.00016674434300512075,0.042650431394577026,0.7745116353034973,0.002964506158605218,-0.0023474576883018017
477.0,594.0,1.3436,0.3434,9.4032,-0.0425,0.0118,-0.1185,-1.543439057921507,-0.027967065572738647,1.901766300201416,-1.9383032321929932,0.012028578668832779,2.117338180541992,4.7896911827619455,-1.2741822501993738e-05,0.30299001932144165,-1.5968855063067835,0.0,-0.02266780100762844,0.8165501356124878,0.0001501385122537613,0.04436081647872925,0.7745274901390076,0.002959463046863675,0.030850082635879517
477.0,594.0,1.3436,0.3434,9.4032,-0.0425,0.0118,-0.1185,-1.543647301649191,-0.031706470996141434,1.8308498859405518,-1.9382233619689941,0.013126646168529987,2.1025807857513428,4.789638745575704,-1.2222693840158172e-05,0.296732634305954,-1.5968616644488733,0.0,-0.02505926974117756,0.8166345953941345,0.00016370913363061845,0.04391790181398392,0.7745555639266968,0.0034019227605313063,-0.07027390599250793
477.0,594.0,1.3436,0.3434,9.4032,-0.0425,0.0118,-0.1185,-1.5438107524863263,-0.03545650467276573,1.8204021453857422,-1.9381321668624878,0.01480395533144474,2.117499828338623,4.789622734278002,-1.174421140603954e-05,0.3041731119155884,-1.5968979040728968,0.0,-0.01787346787750721,0.8165699243545532,0.0001501127117080614,0.05305171012878418,0.7746201157569885,0.003107690019533038,-0.05847734212875366
477.0,594.0,1.3436,0.3434,9.4032,-0.0425,0.0118,-0.1185,-1.5440265045366068,-0.040296148508787155,1.8037152290344238,-1.9379913806915283,0.015355510637164116,2.1479358673095703,4.78967076817111,-1.1301784070383292e-05,0.3025466799736023,-1.59691030183901,0.0,-0.004693043418228626,0.8165462017059326,0.00013855681754648685,0.05181638523936272,0.774587869644165,0.0024937575217336416,-0.03979495167732239
477.0,594.0,1.3436,0.3434,9.4032,-0.0425,0.0118,-0.1185,-1.544370164429285,-0.048383258283138275,1.7792067527770996,-1.9379156827926636,0.017822260037064552,2.126969337463379,4.789683009475031,-1.0761238627310377e-05,0.2929391860961914,-1.5968816916095179,0.0,-0.0049868011847138405,0.8165818452835083,0.000146601814776659,0.0331047885119915,0.774579644203186,0.0014258812880143523,-0.05336543917655945
477.0,594.0,1.3436,0.3434,9.4032,-0.0425,0.0118,-0.1185,-1.54471434399996,-0.052889157086610794,1.798423409461975,-1.9377872943878174,0.02012021467089653,2.155272960662842,4.789642403810777,-1.0388605915068183e-05,0.30346858501434326,-1.5969017187701624,0.0,-0.014269407838582993,0.8165900707244873,0.00013703537115361542,0.061279650777578354,0.7746036052703857,0.0008951902855187654,-0.037642743438482285
487.0,599.0,1.2012,0.5276,9.1502,-0.0315,0.0006,-0.133,-1.545025809933879,-0.061000388115644455,1.7541453838348389,-1.9376194477081299,0.023092851042747498,2.1146585941314697,4.789630564838209,-1.0040902452601586e-05,0.30347639322280884,-1.5968855063067835,0.0,-0.01165409479290247,0.8165420293807983,0.0001286405313294381,0.0529208704829216,0.7746278047561646,0.0004954260075464845,-0.07883768528699875
487.0,599.0,1.2012,0.5276,9.1502,-0.0315,0.0006,-0.133,-1.5453895528665562,-0.06938452273607254,1.737982988357544,-1.9374960660934448,0.025677362456917763,2.150561809539795,4.789678904205122,-4.233363171124438e-08,0.28968319296836853,-1.5968735853778284,0.0,-0.0020464840345084667,0.8166022300720215,0.0001373784471070394,0.044885776937007904,0.7745514512062073,0.0002979036362376064,-0.10193442553281784
487.0,599.0,1.2012,0.5276,9.1502,-0.0315,0.0006,-0.133,-1.5457888704589386,-0.07790417224168777,1.7011661529541016,-1.9372869729995728,0.028586404398083687,2.199390411376953,4.789662579983034,-1.1783721567959482e-11,0.29599279165267944,-1.5969017187701624,0.0,0.0026275445707142353,0.8165740370750427,0.00013097087503410876,0.05876067280769348,0.7745956182479858,0.00017898701480589807,-0.08220293372869492
487.0,599.0,1.2012,0.5276,9.1502,-0.0315,0.0006,-0.133,-1.5463531085154791,-0.08590063452720642,1.7961740493774414,-1.9371603727340698,0.031536947935819626,2.143833637237549,4.789674754231729,-3.2800425498927905e-15,0.2813253104686737,-1.5969179312335413,0.0,0.0005171974771656096,0.8166182637214661,0.00012419364065863192,0.04637233912944794,0.7745552659034729,-0.0001534886978333816,-0.08209475874900818
487.0,599.0,1.2012,0.5276,9.1502,-0.0315,0.0006,-0.133,-1.5470164355686684,-0.09096799045801163,1.7217389345169067,-1.9368361234664917,0.03594557195901871,2.1844823360443115,4.789662557631292,-5.961314898789503e-20,0.30233651399612427,-1.596877400075094,0.0,-0.010647020302712917,0.8165817856788635,0.00011617772543104365,0.054090339690446854,0.7745514512062073,-0.00011529170296853408,-0.10241454839706421
487.0,599.0,1.2012,0.5276,9.1502,-0.0315,0.0006,-0.133,-1.5475679238191624,-0.09564807265996933,1.7592837810516357,-1.93666410446167,0.03659650310873985,2.15792179107666,4.789678896754541,-1.6593540835473802e-23,0.28672078251838684,-1.5968897978412073,0.0,-0.007073473650962114,0.8166908025741577,0.00011081337288487703,0.07195202261209488,0.7745594382286072,-0.00014505951548926532,-0.1286919116973877
487.0,599.0,1.2012,0.5276,9.1502,-0.0315,0.0006,-0.133,-1.5481912971339007,-0.10479468107223511,1.691860556602478,-1.9364330768585205,0.0372932069003582,2.1394259929656982,4.789682972222128,-4.6188734298923436e-27,0.286817729473114,-1.5968454519854944,0.0,0.0020745284855365753,0.8165900707244873,0.00010300648136762902,0.04690311849117279,0.7745837569236755,-0.00016656344814691693,-0.09585203230381012
487.0,599.0,1.2012,0.5276,9.1502,-0.0315,0.0006,-0.133,-1.5488431689194222,-0.11482737958431244,1.7259669303894043,-1.936229944229126,0.03531702980399132,2.186933994293213,4.78966665545062,-1.2856804892909654e-30,0.2850759029388428,-1.596877400075094,8.981169585808857e-09,0.009391948580741882,0.8165818452835083,9.638526535127312e-05,0.04207497835159302,0.7745555639266968,-0.00018282585369888693,-0.12834271788597107
487.0,599.0,1.2012,0.5276,9.1502,-0.0315,0.0006,-0.133,-1.5495100685260077,-0.1215268149971962,1.6649582386016846,-1.9359978437423706,0.034529998898506165,2.1653239727020264,4.789634677558698,-3.5787390569019423e-34,0.285807728767395,-1.5968616644488733,2.4999418767740478e-12,0.0069052367471158504,0.8166182637214661,9.056566341314465e-05,0.05688171088695526,0.7745475769042969,-0.0002949082409031689,-0.07431475818157196
487.0,599.0,1.2012,0.5276,9.1502,-0.0315,0.0006,-0.133,-1.5502420545420428,-0.12523987889289856,1.6571898460388184,-1.9357781410217285,0.03469684720039368,2.174293279647827,4.7896907580788515,-9.961553886308574e-38,0.2729092240333557,-1.596877400075094,6.958680064159497e-16,0.005318129900842905,0.816646158695221,8.540866838302463e-05,0.04014084115624428,0.7745795845985413,-0.00030918355332687497,-0.14362896978855133
487.0,599.0,1.2012,0.5276,9.1502,-0.0315,0.0006,-0.133,-1.5510173191181202,-0.12690478563308716,1.6701807975769043,-1.9355214834213257,0.03320099040865898,2.153362274169922,4.789682942419805,-2.772889401205948e-41,0.27693215012550354,-1.5968740622149866,1.936974331474245e-19,0.008754775859415531,0.816585898399353,8.080748375505209e-05,0.050347596406936646,0.7745555639266968,-0.00027088189381174743,-0.14576897025108337
487.0,599.0,1.2012,0.5276,9.1502,-0.0315,0.0006,-0.133,-1.5520521824112912,-0.13139046728610992,1.6970503330230713,-1.9352538585662842,0.031238574534654617,2.1015377044677734,4.7896747318799875,-0.0,0.2865161895751953,-1.5969141165362757,3.520354898421183e-24,0.01666056551039219,0.8165981769561768,7.539201033068821e-05,0.05107320845127106,0.7745234370231628,-0.00023112862254492939,-0.12844015657901764
487.0,599.0,1.2012,0.5276,9.1502,-0.0315,0.0006,-0.133,-1.5528965418091794,-0.13315121829509735,1.648845911026001,-1.9351305961608887,0.028488148003816605,2.1421451568603516,4.789658430009641,-0.0,0.26603180170059204,-1.5969098250018519,9.799036223510009e-28,0.010859239846467972,0.8165981769561768,7.17839939170517e-05,0.04324232041835785,0.7745192646980286,-0.00020821155339945108,-0.12179655581712723
487.0,599.0,1.2012,0.5276,9.1502,-0.0315,0.0006,-0.133,-1.5537029852024098,-0.14199088513851166,1.6708002090454102,-1.9349029064178467,0.02570832334458828,2.1628565788269043,4.789606298297205,-0.0,0.26636531949043274,-1.5968535582171839,2.7275980486395526e-31,0.011446068063378334,0.8166584968566895,6.850554200354964e-05,0.05101386085152626,0.7745596766471863,-0.00018942984752357006,-0.10514229536056519
512.0,692.0,1.2383,0.0921,8.8762,-0.0373,-0.1119,-0.1196,-1.5545501702329894,-0.15407773852348328,1.6569695472717285,-1.9348145723342896,0.022857077419757843,2.123502254486084,4.7896424336131,-0.0,0.2655954658985138,-1.5968297163592737,7.592368779279898e-35,0.01565062254667282,0.8166502118110657,6.551344995386899e-05,0.055023059248924255,0.774579644203186,-8.380568760912865e-05,-0.1577809751033783
512.0,692.0,1.2383,0.0921,8.8762,-0.0373,-0.1119,-0.1196,-1.555493558091559,-0.16381490230560303,1.6299324035644531,-1.9346107244491577,0.022647179663181305,2.1112122535705566,4.789658430009641,-0.0,0.2691423296928406,-1.5968578497516077,2.1133642152059263e-38,0.012025008909404278,0.8166182041168213,6.277190550463274e-05,0.040735479444265366,0.7745717167854309,-7.353270484600216e-05,-0.14283843338489532
512.0,692.0,1.2383,0.0921,8.8762,-0.0373,-0.1119,-0.1196,-1.5565371357700606,-0.16905833780765533,1.6119252443313599,-1.9345192909240723,0.023869356140494347,2.1507997512817383,4.789682979672708,-0.0,0.27598607540130615,-1.5968778769122522,5.882650953235582e-42,0.0023760548792779446,0.8165624737739563,6.025052789482288e-05,0.04832838475704193,0.7745110988616943,-9.820271225180477e-05,-0.1740024983882904
512.0,692.0,1.2383,0.0921,8.8762,-0.0373,-0.1119,-0.1196,-1.5575357957607885,-0.16520535945892334,1.6341214179992676,-1.9343268871307373,0.026257986202836037,2.1372785568237305,4.789670671313562,-0.0,0.26958411931991577,-1.5968416372882288,1.401298464324817e-45,0.01792488992214203,0.816569447517395,5.792388037662022e-05,0.06236036866903305,0.7745394110679626,7.831247785361484e-05,-0.14415860176086426
512.0,692.0,1.2383,0.0921,8.8762,-0.0373,-0.1119,-0.1196,-1.5589625791511317,-0.1719612330198288,1.654350757598877,-1.9341309070587158,0.027148466557264328,2.1349034309387207,4.789702664106645,-0.0,0.2881995439529419,-1.5968979040728968,0.0,0.014257040806114674,0.8165781497955322,5.508750837179832e-05,0.04391622915863991,0.7745919823646545,0.00011565646855160594,-0.1239578127861023
512.0,692.0,1.2383,0.0921,8.8762,-0.0373,-0.1119,-0.1196,-1.5600656962818285,-0.19094276428222656,1.6043633222579956,-1.934047818183899,0.025228580459952354,2.089052200317383,4.789686667710104,-0.0,0.2700802981853485,-1.5968697706805628,0.0,0.005092869512736797,0.8166182041168213,5.313610381563194e-05,0.05400454252958298,0.7745755910873413,0.00019501640053931624,-0.10138051211833954
512.0,692.0,1.2383,0.0921,8.8762,-0.0373,-0.1119,-0.1196,-1.5612691410681983,-0.2103658765554428,1.6045888662338257,-1.9338480234146118,0.02352857030928135,2.0832581520080566,4.789622354298391,-0.0,0.26134371757507324,-1.5968697706805628,0.0,0.016443287953734398,0.816598117351532,5.1318187615834177e-05,0.05141856148838997,0.7745311856269836,0.00038813846185803413,-0.1506401002407074
512.0,692.0,1.2383,0.0921,8.8762,-0.0373,-0.1119,-0.1196,-1.5625479335761447,-0.21755951642990112,1.5878543853759766,-1.9336636066436768,0.023779049515724182,2.131762981414795,4.789658430009641,-0.0,0.26193755865097046,-1.596821133290426,0.0,0.024458959698677063,0.816585898399353,2.5151652152999304e-05,0.05911871790885925,0.7745514512062073,0.00018756400095298886,-0.18899253010749817
512.0,692.0,1.2383,0.0921,8.8762,-0.0373,-0.1119,-0.1196,-1.5638474354385217,-0.21065090596675873,1.6117093563079834,-1.9334957599639893,0.02804272435605526,2.098378896713257,4.789694900601663,-0.0,0.26835519075393677,-1.5969017187701624,0.0,0.01948101818561554,0.8166064023971558,7.001053958788361e-09,0.053907863795757294,0.7745555639266968,-0.0003206616675015539,-0.15339702367782593
512.0,692.0,1.2383,0.0921,8.8762,-0.0373,-0.1119,-0.1196,-1.5651974466494103,-0.21550674736499786,1.6261963844299316,-1.9333000183105469,0.03159644827246666,2.0978572368621826,4.789714979916372,-0.0,0.2643783986568451,-1.59682542482485,0.0,0.01692286506295204,0.8165699243545532,1.948769054113675e-12,0.05334495007991791,0.7745473384857178,-0.00023732444969937205,-0.13979795575141907
512.0,692.0,1.2383,0.0921,8.8762,-0.0373,-0.1119,-0.1196,-1.5665884649245818,-0.2312338799238205,1.5659101009368896,-1.9331732988357544,0.03344826027750969,2.1362223625183105,4.789614590793409,-0.0,0.26613375544548035,-1.5968855063067835,0.0,0.025027640163898468,0.8165781497955322,5.424470462621464e-16,0.04489164799451828,0.7745673656463623,-0.00012609650730155408,-0.0997539684176445
512.0,692.0,1.2383,0.0921,8.8762,-0.0373,-0.1119,-0.1196,-1.568530805674829,-0.24328604340553284,1.6155643463134766,-1.932845115661621,0.035647280514240265,2.1473381519317627,4.7896625874336145,-0.0,0.2714267373085022,-1.5968816916095179,0.0,0.004678512457758188,0.8166022896766663,9.858706894273511e-21,0.05567871779203415,0.7745391130447388,-9.794121433515102e-05,-0.1217903196811676
512.0,692.0,1.2383,0.0921,8.8762,-0.0373,-0.1119,-0.1196,-1.5699857534239818,-0.248969167470932,1.60048508644104,-1.9325932264328003,0.03933960944414139,2.1972155570983887,4.789698588639059,-0.0,0.27149707078933716,-1.5968535582171839,0.0,0.0138993626460433,0.8166264891624451,2.7442074727639392e-24,0.048523399978876114,0.7745997309684753,-8.419593359576538e-05,-0.1186094880104065
512.0,692.0,1.2383,0.0921,8.8762,-0.0373,-0.1119,-0.1196,-1.5715204677977503,-0.2622114419937134,1.5874736309051514,-1.9323487281799316,0.04205208644270897,2.145007371902466,4.789698588639059,-0.0,0.26885733008384705,-1.5968697706805628,0.0,0.0053700790740549564,0.8166186213493347,7.638603123164239e-28,0.04409053176641464,0.7745915651321411,-0.00011074432404711843,-0.09960776567459106
711.0,921.0,1.6439,0.082,8.8552,-0.0515,-0.2019,-0.1167,-1.5730511150755824,-0.27141717076301575,1.5984210968017578,-1.9320255517959595,0.04848577082157135,2.1414241790771484,4.789674746781149,-0.0,0.2814156413078308,-1.5968659559832972,0.0,0.024446552619338036,0.8165740966796875,2.126233476470743e-31,0.04699951410293579,0.7745514512062073,-0.00013143332034815103,-0.13367116451263428
711.0,921.0,1.6439,0.082,8.8552,-0.0515,-0.2019,-0.1167,-1.574653764764303,-0.2676134407520294,1.6089482307434082,-1.9317573308944702,0.054797593504190445,2.148799419403076,4.789698588639059,-0.0,0.26802295446395874,-1.5968378225909632,0.0,0.025422967970371246,0.8166223764419556,5.918448752497133e-35,0.054055098444223404,0.7745113968849182,-0.00014862665557302535,-0.15716378390789032
711.0,921.0,1.6439,0.082,8.8552,-0.0515,-0.2019,-0.1167,-1.5762363872923792,-0.2652411162853241,1.6028344631195068,-1.9313945770263672,0.06255017966032028,2.1628658771514893,4.789670358389177,-0.0,0.27414852380752563,-1.5968578497516077,0.0,0.018447181209921837,0.8165706396102905,1.6474219660794422e-38,0.04783038794994354,0.7745676040649414,-0.00019993094610981643,-0.17605215311050415
711.0,921.0,1.6439,0.082,8.8552,-0.0515,-0.2019,-0.1167,-1.5784508190550746,-0.2729030251502991,1.5839662551879883,-1.9309271574020386,0.07060559839010239,2.1652064323425293,4.7897066725190065,-0.0,0.2862551212310791,-1.5968740622149866,0.0,0.0034617516212165356,0.8166104555130005,2.9987787136551085e-43,0.04007916525006294,0.7745391130447388,-0.0002557443513069302,-0.21368221938610077
711.0,921.0,1.6439,0.082,8.8552,-0.0515,-0.2019,-0.1167,-1.5799690685667933,-0.27926263213157654,1.5844290256500244,-1.9304836988449097,0.07376490533351898,2.2037336826324463,4.789662430971422,-0.0,0.2744678258895874,-1.5968335310565394,0.0,0.01571965217590332,0.8165584206581116,0.0,0.04814397543668747,0.774596095085144,-0.00017949477478396147,-0.17606611549854279
711.0,921.0,1.6439,0.082,8.8552,-0.0515,-0.2019,-0.1167,-1.5816270313658656,-0.2852189540863037,1.618708610534668,-1.9300196170806885,0.07435216009616852,2.2069413661956787,4.789746585279264,-0.0,0.28786227107048035,-1.5968459288226526,0.0,0.025881242007017136,0.8165706396102905,0.0,0.050830595195293427,0.7745192646980286,-0.000183260694029741,-0.170800119638443
711.0,921.0,1.6439,0.082,8.8552,-0.0515,-0.2019,-0.1167,-1.5833302936949671,-0.287984162569046,1.565887212753296,-1.9294756650924683,0.07782876491546631,2.2330055236816406,4.789694438665666,-0.0,0.27032485604286194,-1.5968416372882288,4.7266057663364336e-05,0.025330213829874992,0.8165624737739563,0.0,0.047832705080509186,0.7745394110679626,-0.0002178660361096263,-0.13905584812164307
711.0,921.0,1.6439,0.082,8.8552,-0.0515,-0.2019,-0.1167,-1.5849648914732875,-0.2831721305847168,1.6788945198059082,-1.928984522819519,0.08866021037101746,2.224219799041748,4.7897584466035745,0.0009669663268141448,0.2646932005882263,-1.5968497435199183,5.019185846322216e-05,0.0009262326639145613,0.816598117351532,0.0,0.04117928445339203,0.7745072245597839,-0.00018917133274953812,-0.17431387305259705
711.0,921.0,1.6439,0.082,8.8552,-0.0515,-0.2019,-0.1167,-1.586675306359762,-0.28315305709838867,1.6486637592315674,-1.9284127950668335,0.0989508405327797,2.238938808441162,4.789714562683859,0.0009204850066453218,0.29262402653694153,-1.5968979040728968,1.0726628119073212e-07,0.02006172202527523,0.8165781497955322,0.0,0.04342074692249298,0.7745316028594971,-0.00016340866568498313,-0.1645037829875946
711.0,921.0,1.6439,0.082,8.8552,-0.0515,-0.2019,-0.1167,-1.588449617425436,-0.28007230162620544,1.6903316974639893,-1.9278302192687988,0.1072823777794838,2.2296853065490723,4.789750340371885,0.0005698311142623425,0.2839101552963257,-1.5969017187701624,2.985796332399815e-11,0.011300104670226574,0.816594123840332,0.0,0.028593232855200768,0.7745555639266968,-0.00014382260269485414,-0.16444514691829681
711.0,921.0,1.6439,0.082,8.8552,-0.0515,-0.2019,-0.1167,-1.5907641849913539,-0.27955567836761475,1.7280139923095703,-1.9268628358840942,0.11896538734436035,2.2673585414886475,4.7897421074803255,0.00045359067735262215,0.2852246165275574,-1.5968454519854944,5.426536693617172e-16,-0.008981996215879917,0.8165664672851562,0.0,0.041020479053258896,0.7745234370231628,-9.315174975199625e-05,-0.19862493872642517
711.0,921.0,1.6439,0.082,8.8552,-0.0515,-0.2019,-0.1167,-1.5925432644286097,-0.29473069310188293,1.699650764465332,-1.9261913299560547,0.12729285657405853,2.2888050079345703,4.789746272354879,0.0003622720832936466,0.2900941073894501,-1.5968578497516077,1.510496551254155e-19,0.017140675336122513,0.8166304230690002,0.0,0.041455116122961044,0.7745758295059204,3.4276741644134745e-05,-0.0790693610906601
711.0,921.0,1.6439,0.082,8.8552,-0.0515,-0.2019,-0.1167,-1.5943652592101039,-0.3002716898918152,1.7107021808624268,-1.925392508506775,0.12958772480487823,2.262575149536133,4.789786706655779,0.0003015513066202402,0.28934675455093384,-1.5968778769122522,4.204522601922331e-23,0.0045724958181381226,0.8165821433067322,0.0,0.03796040266752243,0.7745473384857178,3.0780309316469356e-05,-0.14515623450279236
711.0,921.0,1.6439,0.082,8.8552,-0.0515,-0.2019,-0.1167,-1.596208234826559,-0.29938191175460815,1.7224351167678833,-1.9245811700820923,0.13371309638023376,2.2703490257263184,4.7897584466035745,0.00029836135217919946,0.29846620559692383,-1.5968378225909632,1.170344486373369e-26,0.00899376068264246,0.8165981769561768,0.0,0.033236339688301086,0.7745596766471863,2.7916026738239452e-05,-0.13482338190078735
711.0,921.0,1.6439,0.082,8.8552,-0.0515,-0.2019,-0.1167,-1.5980187855162562,-0.30453363060951233,1.701756238937378,-1.92377507686615,0.1458732634782791,2.2971582412719727,4.78975027331666,0.0002490967744961381,0.2909545600414276,-1.596893612538473,3.257696583077896e-30,-0.013279227539896965,0.8166144490242004,0.0,0.03989948704838753,0.7745596766471863,3.0007818168087397e-06,-0.11083333194255829
951.0,934.0,2.1757,-0.0269,9.2237,-0.0431,-0.16,-0.1051,-1.5998732052245082,-0.29854604601860046,1.7179298400878906,-1.9228311777114868,0.15923215448856354,2.2733092308044434,4.7897584466035745,0.00029421551153063774,0.29150259494781494,-1.5968416372882288,9.067918624231633e-34,-0.0027716653421521187,0.8166384100914001,0.0,0.03466213122010231,0.7745316028594971,7.246535402988252e-12,-0.17762121558189392
951.0,934.0,2.1757,-0.0269,9.2237,-0.0431,-0.16,-0.1051,-1.6016956768431605,-0.29632946848869324,1.795210361480713,-1.921892523765564,0.16675983369350433,2.306324005126953,4.789770695358076,0.00023052377218846232,0.30723321437835693,-1.596877400075094,2.524088298345691e-37,0.004688904620707035,0.8165699243545532,0.0,0.03405366092920303,0.7745192646980286,1.749953359979011e-17,-0.08963801711797714
951.0,934.0,2.1757,-0.0269,9.2237,-0.0431,-0.16,-0.1051,-1.6041180096068324,-0.30978813767433167,1.791640043258667,-1.920516848564148,0.1705896407365799,2.3023035526275635,4.789770695358076,0.00020022477838210762,0.3057110905647278,-1.5968859831439417,4.587851172199451e-42,-0.004830482881516218,0.8165699243545532,0.0,0.042103834450244904,0.7746159434318542,5.66962615621846e-25,-0.09005662798881531
951.0,934.0,2.1757,-0.0269,9.2237,-0.0431,-0.16,-0.1051,-1.6059323749937953,-0.3135829269886017,1.769235610961914,-1.9194538593292236,0.1741599291563034,2.3352301120758057,4.789778600424089,0.00018279472715221345,0.3115110993385315,-1.5968502203570765,1.401298464324817e-45,0.001659130910411477,0.8165179491043091,0.0,0.02510976605117321,0.7745555639266968,1.3691481113631931e-30,-0.12933340668678284
951.0,934.0,2.1757,-0.0269,9.2237,-0.0431,-0.16,-0.1051,-1.6078077755370082,-0.3108438551425934,1.7279157638549805,-1.9183883666992188,0.18006034195423126,2.3209407329559326,4.789770717709818,0.00019176123896613717,0.30295926332473755,-1.596821133290426,0.0,0.008457282558083534,0.816530168056488,0.0,0.032337456941604614,0.7745717167854309,3.306331485499339e-36,-0.1212463527917862
951.0,934.0,2.1757,-0.0269,9.2237,-0.0431,-0.16,-0.1051,-1.6096059284605921,-0.3088659942150116,1.7516450881958008,-1.9173129796981812,0.19251923263072968,2.3250370025634766,4.789758431702413,0.00017793040024116635,0.28914132714271545,-1.5968816916095179,0.0,-0.01027908269315958,0.8165900111198425,0.0,0.01862110197544098,0.7745195627212524,7.984598649722808e-42,-0.1729336977005005
951.0,934.0,2.1757,-0.0269,9.2237,-0.0431,-0.16,-0.1051,-1.6114093265929164,-0.3031728267669678,1.7687325477600098,-1.9161616563796997,0.2032010704278946,2.343026638031006,4.789738359838285,0.00014496683434117585,0.29031500220298767,-1.596893612538473,0.0,-0.014029601588845253,0.8165900707244873,0.0,0.02470831200480461,0.7745394110679626,0.0,-0.12600275874137878
951.0,934.0,2.1757,-0.0269,9.2237,-0.0431,-0.16,-0.1051,-1.613143106500143,-0.3016584813594818,1.8022127151489258,-1.9148386716842651,0.20728959143161774,2.3880257606506348,4.789762604027548,7.342352182604373e-05,0.29156577587127686,-1.5968897978412073,0.0,0.0009354394860565662,0.8165900707244873,0.0,0.032841525971889496,0.7745634913444519,0.0,-0.13494066894054413
951.0,934.0,2.1757,-0.0269,9.2237,-0.0431,-0.16,-0.1051,-1.6149984798827113,-0.30402860045433044,1.8116981983184814,-1.9135963916778564,0.21131466329097748,2.2991113662719727,4.789722005813875,9.284677798859775e-05,0.2883117198944092,-1.5968778769122522,0.0,0.0027534952387213707,0.8165740966796875,0.0,0.02353977970778942,0.7745352983474731,0.0,-0.1226404458284378
951.0,934.0,2.1757,-0.0269,9.2237,-0.0431,-0.16,-0.1051,-1.6173964939513148,-0.31031709909439087,1.7833645343780518,-1.91189444065094,0.22801034152507782,2.328918695449829,4.789738359838285,8.164626342477277e-05,0.2895371615886688,-1.5969060103045862,0.0,0.0038633791264146566,0.8165821433067322,0.0,0.03243684768676758,0.7745311856269836,0.0,-0.12505537271499634
951.0,934.0,2.1757,-0.0269,9.2237,-0.0431,-0.16,-0.1051,-1.6192590198912562,-0.3130849003791809,1.805452823638916,-1.9104716777801514,0.23929569125175476,2.3981034755706787,4.789714920311727,-8.251021790783852e-05,0.2895627021789551,-1.5968616644488733,0.0,-0.003688853932544589,0.8165658116340637,0.0,0.02992924675345421,0.7745758295059204,0.0,-0.1194404810667038
951.0,934.0,2.1757,-0.0269,9.2237,-0.0431,-0.16,-0.1051,-1.6211382351317347,-0.3073126971721649,1.8304107189178467,-1.909054160118103,0.2372705191373825,2.3546042442321777,4.789726088732042,-0.0001294854882871732,0.29063913226127625,-1.5968816916095179,0.0,0.0006905770860612392,0.8165584206581116,0.0,0.02968462184071541,0.7745516896247864,2.5320847271359526e-05,-0.1078324019908905
951.0,934.0,2.1757,-0.0269,9.2237,-0.0431,-0.16,-0.1051,-1.623019357720846,-0.31358057260513306,1.8179168701171875,-1.9075582027435303,0.24666659533977509,2.3423004150390625,4.789758401900091,-7.266169632202946e-06,0.2860209345817566,-1.5968292395221155,0.0,-0.001719899708405137,0.816594123840332,0.0,0.03224126622080803,0.7745476365089417,4.573813566821627e-05,-0.0828285962343216
951.0,934.0,2.1757,-0.0269,9.2237,-0.0431,-0.16,-0.1051,-1.624930044213766,-0.31593582034111023,1.7915971279144287,-1.9060226678848267,0.2634959816932678,2.4130167961120605,4.7897744355495355,-2.0225650043670385e-09,0.28789740800857544,-1.5969060103045862,0.0,0.005455872043967247,0.8165461421012878,0.0,0.031909868121147156,0.7745394110679626,4.330730371293612e-05,-0.10617712140083313
967.0,971.0,2.0094,0.2423,10.4465,-0.0374,-0.0357,-0.1274,-1.6269375286498011,-0.3116661012172699,1.8579318523406982,-1.904470682144165,0.2736671268939972,2.3833394050598145,4.789774808078565,-5.6298845793612e-13,0.30680912733078003,-1.5969060103045862,0.0,8.866295684129e-05,0.8165664672851562,0.0,0.026664042845368385,0.7745151519775391,2.2561715013580397e-05,-0.08855998516082764
967.0,971.0,2.0094,0.2423,10.4465,-0.0374,-0.0357,-0.1274,-1.6295315227904261,-0.32842522859573364,1.7884972095489502,-1.9022234678268433,0.27096590399742126,2.3980274200439453,4.789738359838285,-1.023203558010129e-17,0.2942238450050354,-1.5968979040728968,0.0,-0.003418984357267618,0.8165781497955322,0.0,0.030822549015283585,0.7745234370231628,1.853245157690253e-05,-0.09021802246570587
967.0,971.0,2.0094,0.2423,10.4465,-0.0374,-0.0357,-0.1274,-1.6314979992308558,-0.32866597175598145,1.8654379844665527,-1.9004915952682495,0.2783680856227875,2.4232754707336426,4.789718660503187,-0.00020370326819829643,0.28376564383506775,-1.5968859831439417,0.0,0.005071201361715794,0.8165420889854431,0.0,0.03060658648610115,0.7745717167854309,1.7454236513003707e-05,-0.10982656478881836
967.0,971.0,2.0094,0.2423,10.4465,-0.0374,-0.0357,-0.1274,-1.633428236047262,-0.3335673213005066,1.7971627712249756,-1.8987836837768555,0.2860253155231476,2.3929224014282227,4.789794619172373,-0.0001651628699619323,0.2848479747772217,-1.5968778769122522,0.0,-0.0018992454279214144,0.8165624737739563,0.0,0.024617306888103485,0.7745758295059204,1.649458681640681e-05,-0.12674987316131592
967.0,971.0,2.0094,0.2423,10.4465,-0.0374,-0.0357,-0.1274,-1.635402341882223,-0.33859124779701233,1.8376498222351074,-1.8970333337783813,0.2920877933502197,2.429896831512451,4.789742100029745,-0.00018539102165959775,0.28316500782966614,-1.5968659559832972,0.0,-0.007616197690367699,0.8165900707244873,0.0,0.026803769171237946,0.7745234370231628,1.5634950614185072e-05,-0.1481550931930542
967.0,971.0,2.0094,0.2423,10.4465,-0.0374,-0.0357,-0.1274,-1.6374012432494105,-0.3309532105922699,1.782768726348877,-1.8952049016952515,0.2986765503883362,2.412086248397827,4.789770352631368,9.34771669562906e-05,0.2718034088611603,-1.5968535582171839,0.0,0.007171599194407463,0.816594123840332,0.0,0.03275240212678909,0.7745072245597839,9.454136362663235e-10,-0.12249872088432312
967.0,971.0,2.0094,0.2423,10.4465,-0.0374,-0.0357,-0.1274,-1.6392957172789515,-0.32505685091018677,1.8237707614898682,-1.8933883905410767,0.3047887980937958,2.4310874938964844,4.789714570134439,7.1447626396548e-05,0.2832752764225006,-1.5968578497516077,0.0,0.007276138290762901,0.8165900111198425,0.0,0.02333236299455166,0.774563729763031,2.2830629598760872e-15,-0.2137136161327362
967.0,971.0,2.0094,0.2423,10.4465,-0.0374,-0.0357,-0.1274,-1.641249795953268,-0.3220169246196747,1.8980066776275635,-1.8915932178497314,0.3167448937892914,2.402202606201172,4.789758431702413,0.00011432853352744132,0.29087239503860474,-1.5968778769122522,0.0,0.007108692079782486,0.8165818452835083,0.0,0.014522736892104149,0.7745394110679626,5.513328823211772e-21,-0.12252011150121689
967.0,971.0,2.0094,0.2423,10.4465,-0.0374,-0.0357,-0.1274,-1.643872400323385,-0.3272181451320648,1.8726778030395508,-1.8890539407730103,0.3261944353580475,2.46427583694458,4.789734984725275,6.223719992703991e-06,0.2782557010650635,-1.5968659559832972,0.0,0.004901244305074215,0.8165220022201538,2.4980273849450896e-08,0.026240862905979156,0.7745473384857178,1.7862480233106628e-28,-0.1362575888633728
967.0,971.0,2.0094,0.2423,10.4465,-0.0374,-0.0357,-0.1274,-1.6457587681212367,-0.3309880197048187,1.8350269794464111,-1.8870865106582642,0.32170554995536804,2.398813009262085,4.7897308869059465,1.7323953382941681e-09,0.2744126319885254,-1.5968416372882288,0.0,0.0006227635312825441,0.8165818452835083,6.953351089356019e-12,0.021877925843000412,0.7745555639266968,4.3135789169206e-34,-0.17240066826343536
967.0,971.0,2.0094,0.2423,10.4465,-0.0374,-0.0357,-0.1274,-1.6476928196349085,-0.33255937695503235,1.9030815362930298,-1.885058045387268,0.3344153165817261,2.463520050048828,4.7897904244954965,4.822185944823587e-13,0.28968220949172974,-1.5968659559832972,0.0,-0.008265405893325806,0.8166144490242004,1.935490825025047e-15,0.023495085537433624,0.7745679020881653,1.0416790355297463e-39,-0.12147955596446991
967.0,971.0,2.0094,0.2423,10.4465,-0.0374,-0.0357,-0.1274,-1.6497279606261195,-0.3322943150997162,1.832499384880066,-1.8831475973129272,0.3444336950778961,2.4266862869262695,4.789738344937124,1.3422732591791885e-16,0.2746770679950714,-1.5969017187701624,0.0,0.007693764287978411,0.8165985345840454,5.387509530631242e-19,0.015566270798444748,0.7745596766471863,2.802596928649634e-45,-0.14602917432785034
967.0,971.0,2.0094,0.2423,10.4465,-0.0374,-0.0357,-0.1274,-1.6516815624632777,-0.3195549547672272,1.894634485244751,-1.8810710906982422,0.3542022705078125,2.45654296875,4.789774450450697,3.736266582564055e-20,0.2791571021080017,-1.5968578497516077,0.0,0.010834491811692715,0.8165140748023987,1.4996335422850268e-22,0.01582830585539341,0.7745357155799866,-4.765025732922368e-05,-0.13078346848487854
967.0,971.0,2.0094,0.2423,10.4465,-0.0374,-0.0357,-0.1274,-1.6536556682982386,-0.31709250807762146,1.9183051586151123,-1.8789565563201904,0.3656724691390991,2.5766658782958984,4.789762589126386,1.0400035307541689e-23,0.2739174962043762,-1.5968535582171839,0.0,0.009973281994462013,0.8164778351783752,4.174285213368183e-26,0.005455367267131805,0.7745357155799866,-5.8680940128397197e-05,-0.10733769088983536
961.0,916.0,1.7067,0.3123,9.7202,-0.0264,0.0954,-0.1223,-1.6557499370970667,-0.3247608542442322,1.9240885972976685,-1.8767211437225342,0.3651665151119232,2.4538698196411133,4.789730275958338,2.8948878327888035e-27,0.27922260761260986,-1.5968940893756312,0.0,0.0093681113794446,0.8166064023971558,1.1619279046917638e-29,0.016621198505163193,0.774563729763031,-4.7438981710001826e-05,-0.12577176094055176
961.0,916.0,1.7067,0.3123,9.7202,-0.0264,0.0954,-0.1223,-1.6583787403502406,-0.32727375626564026,1.934669017791748,-1.8736934661865234,0.37816235423088074,2.48445200920105,4.78971045741395,5.261315818976796e-32,0.28379881381988525,-1.5968497435199183,0.0,0.0016974271275103092,0.816561758518219,2.1117466730709497e-34,0.016797810792922974,0.774604320526123,-1.2928489008523503e-11,-0.1419796645641327
961.0,916.0,1.7067,0.3123,9.7202,-0.0264,0.0954,-0.1223,-1.6603924236693324,-0.341689795255661,1.947520136833191,-1.8713610172271729,0.3791751563549042,2.5071303844451904,4.789718675404348,1.4645065404429585e-35,0.2838384509086609,-1.5968897978412073,0.0,0.0032879288773983717,0.8165746927261353,5.878123638157041e-38,0.02721773460507393,0.7744831442832947,-3.1220777476678906e-17,-0.13527247309684753
961.0,916.0,1.7067,0.3123,9.7202,-0.0264,0.0954,-0.1223,-1.6624299488463343,-0.339721143245697,1.9435923099517822,-1.8690664768218994,0.3809916377067566,2.5109951496124268,4.789734351425924,4.076507553478075e-39,0.29263004660606384,-1.596813980733053,0.0,-0.00681765191257,0.8165624737739563,1.6361560869456564e-41,0.02147814817726612,0.7745799422264099,-7.53945038031716e-23,-0.15039187669754028
961.0,916.0,1.7067,0.3123,9.7202,-0.0264,0.0954,-0.1223,-1.664379735986227,-0.33611735701560974,1.9741778373718262,-1.8667106628417969,0.38512352108955383,2.4920084476470947,4.78971869775609,1.1350517561031018e-42,0.2828454077243805,-1.5968940893756312,0.0,0.002573370700702071,0.8165264129638672,4.203895392974451e-45,0.014866229146718979,0.7745799422264099,-1.8206884655411675e-28,-0.1364205777645111
961.0,916.0,1.7067,0.3123,9.7202,-0.0264,0.0954,-0.1223,-1.6663652859129847,-0.33713117241859436,1.986232042312622,-1.8642905950546265,0.3942568898200989,2.4965970516204834,4.789746272354879,0.0,0.2732698917388916,-1.5968292395221155,0.0,-0.0035416241735219955,0.8165624737739563,0.0,0.010771943256258965,0.7744866609573364,-4.396747897306162e-34,-0.12318867444992065
961.0,916.0,1.7067,0.3123,9.7202,-0.0264,0.0954,-0.1223,-1.6683675251402796,-0.3286285102367401,1.966091275215149,-1.8619842529296875,0.4004042148590088,2.5271997451782227,4.789746272354879,0.0,0.2960209846496582,-1.5968378225909632,0.0,0.004751609638333321,0.8165624737739563,0.0,0.01853349432349205,0.7745274901390076,-1.0617624451204496e-39,-0.1363493949174881
961.0,916.0,1.7067,0.3123,9.7202,-0.0264,0.0954,-0.1223,-1.6703540287413539,-0.3254808187484741,2.0331015586853027,-1.8595952987670898,0.40565040707588196,2.526412010192871,4.789754341333666,0.0,0.2790006697177887,-1.5968897978412073,0.0,0.02033376321196556,0.8165781497955322,0.0,0.018898941576480865,0.7744989991188049,-2.802596928649634e-45,-0.14207082986831665
961.0,916.0,1.7067,0.3123,9.7202,-0.0264,0.0954,-0.1223,-1.6729308567442835,-0.327298641204834,2.0264291763305664,-1.8563414812088013,0.40472760796546936,2.530430793762207,4.789710747986593,0.0,0.27432820200920105,-1.5968740622149866,2.8429006371233356e-10,0.00933011807501316,0.8165420889854431,0.0,0.009844527579843998,0.7745717167854309,0.0,-0.17716822028160095
961.0,916.0,1.7067,0.3123,9.7202,-0.0264,0.0954,-0.1223,-1.6748725376524867,-0.3314949870109558,2.006901741027832,-1.8539254665374756,0.4127624034881592,2.549882173538208,4.789718675404348,0.0,0.2793304920196533,-1.5968459288226526,7.913317895923144e-14,-0.004782815929502249,0.8165501356124878,0.0,0.010733816772699356,0.7745394110679626,0.0,-0.11075472086668015
961.0,916.0,1.7067,0.3123,9.7202,-0.0264,0.0954,-0.1223,-1.6767665348448695,-0.3322346806526184,1.9852029085159302,-1.8514422178268433,0.41606277227401733,2.483961820602417,4.78969074317769,0.0,0.27658990025520325,-1.5968740622149866,2.2027012384009275e-17,0.005754945334047079,0.8166266679763794,0.0,0.02285735122859478,0.7745758295059204,0.0,-0.10536789894104004
961.0,916.0,1.7067,0.3123,9.7202,-0.0264,0.0954,-0.1223,-1.6787039242186488,-0.3283236622810364,1.9982068538665771,-1.8490115404129028,0.42185425758361816,2.529085159301758,4.789734336524763,0.0,0.2727256417274475,-1.5968335310565394,6.131300595448507e-21,0.011979421600699425,0.8165464401245117,0.0,0.010838629677891731,0.7745353579521179,0.0,-0.12384378910064697
961.0,916.0,1.7067,0.3123,9.7202,-0.0264,0.0954,-0.1223,-1.680690427819723,-0.3259802460670471,2.0416789054870605,-1.8463914394378662,0.4223291873931885,2.5401008129119873,4.789702664106645,0.0,0.2794000804424286,-1.5968621412860315,1.7066700000855817e-24,0.0036769837606698275,0.8165820837020874,0.0,0.017715437337756157,0.7745435237884521,0.0,-0.1502954214811325
961.0,916.0,1.7067,0.3123,9.7202,-0.0264,0.0954,-0.1223,-1.6826521358885707,-0.31887540221214294,2.0680134296417236,-1.8438003063201904,0.4239776134490967,2.57489013671875,4.789722668915548,0.0,0.2799721658229828,-1.5968659559832972,4.750578245435762e-28,0.02224530652165413,0.8165378570556641,0.0,0.004679717123508453,0.7745316028594971,0.0,-0.09416677057743073
980.0,919.0,1.6594,0.1238,9.8698,-0.0263,0.1327,-0.115,-1.6852814159789027,-0.3246115446090698,2.139998435974121,-1.8403105735778809,0.43354374170303345,2.542339563369751,4.789778898447313,0.0,0.27711987495422363,-1.5968659559832972,8.633942823968345e-33,0.022857308387756348,0.8166103959083557,0.0,0.004582243971526623,0.7745473980903625,0.0,-0.12323667109012604
980.0,919.0,1.6594,0.1238,9.8698,-0.0263,0.1327,-0.115,-1.687355180779928,-0.32934749126434326,2.0821163654327393,-1.8377387523651123,0.4351518750190735,2.5531811714172363,4.789674351900377,0.0,0.28835806250572205,-1.5968859831439417,2.4032897341713647e-36,0.013625477440655231,0.8165788054466248,0.0,0.006472240202128887,0.7745155096054077,0.0,-0.15310129523277283
980.0,919.0,1.6594,0.1238,9.8698,-0.0263,0.1327,-0.115,-1.6893211803831996,-0.3266417384147644,2.1083006858825684,-1.8350799083709717,0.43129050731658936,2.4845094680786133,4.789670671313562,-0.00015942475874908268,0.2737581729888916,-1.5968697706805628,6.689644725855601e-40,0.021283823996782303,0.8165501356124878,0.0,0.018739085644483566,0.7745276093482971,0.0,-0.10594573616981506
980.0,919.0,1.6594,0.1238,9.8698,-0.0263,0.1327,-0.115,-1.6913262806334437,-0.33439236879348755,2.0598509311676025,-1.8324958086013794,0.4345170557498932,2.5705885887145996,4.789723093598642,-0.00013036324526183307,0.2709657847881317,-1.5968335310565394,1.8637269575520067e-43,0.009208379313349724,0.8165341019630432,0.0,0.009168319404125214,0.7745717167854309,0.0,-0.1419348418712616
980.0,919.0,1.6594,0.1238,9.8698,-0.0263,0.1327,-0.115,-1.693380971948141,-0.3324316143989563,2.0890393257141113,-1.8298453092575073,0.4397720992565155,2.5265767574310303,4.789714920311727,-0.00010549410944804549,0.28835248947143555,-1.5968616644488733,0.0,0.008975593373179436,0.8165699243545532,0.0,0.01363454945385456,0.7745514512062073,0.0,-0.09486056864261627
980.0,919.0,1.6594,0.1238,9.8698,-0.0263,0.1327,-0.115,-1.6952821216978968,-0.32727450132369995,2.1560680866241455,-1.8272910118103027,0.44249749183654785,2.625462532043457,4.789678434818544,-8.316199819091707e-05,0.2767181098461151,-1.5968979040728968,0.0,0.016317099332809448,0.8165624737739563,0.0,0.004017213825136423,0.7745556235313416,0.0,-0.15053386986255646
980.0,919.0,1.6594,0.1238,9.8698,-0.0263,0.1327,-0.115,-1.6973287067809046,-0.3338415026664734,2.17866587638855,-1.8246188163757324,0.4346258342266083,2.575348377227783,4.789638380497255,-0.0007023573853075504,0.2702799439430237,-1.5968621412860315,0.0,0.014256183058023453,0.8165420889854431,0.0,0.018035877496004105,0.7745394706726074,0.0,-0.12182757258415222
980.0,919.0,1.6594,0.1238,9.8698,-0.0263,0.1327,-0.115,-1.700005670587057,-0.3298679292201996,2.169642448425293,-1.8211371898651123,0.43801063299179077,2.570341110229492,4.789726707130232,-0.00046524469507858157,0.2721608281135559,-1.5968697706805628,0.0,0.012544753029942513,0.8166226744651794,0.0,0.011179720051586628,0.7745473384857178,0.0,-0.07576189935207367
980.0,919.0,1.6594,0.1238,9.8698,-0.0263,0.1327,-0.115,-1.7019273243346156,-0.33006027340888977,2.1471991539001465,-1.8185416460037231,0.44244328141212463,2.568753719329834,4.78968712219552,-0.00035297052818350494,0.2714538872241974,-1.5968697706805628,0.0,0.010180585086345673,0.8165543079376221,0.0,-0.004122960846871138,0.7745596766471863,0.0,-0.09153807163238525
980.0,919.0,1.6594,0.1238,9.8698,-0.0263,0.1327,-0.115,-1.7038971386351527,-0.3267430365085602,2.099076747894287,-1.8159428834915161,0.4443150758743286,2.576113224029541,4.78963469991044,-0.00037008168874308467,0.2748749256134033,-1.596877400075094,0.0,0.00813671201467514,0.8165788650512695,0.0,0.02524833008646965,0.7745473384857178,0.0,-0.13547326624393463
980.0,919.0,1.6594,0.1238,9.8698,-0.0263,0.1327,-0.115,-1.7058311901488246,-0.3253280222415924,2.1559433937072754,-1.8132386207580566,0.43206703662872314,2.5733439922332764,4.7896547866757295,-0.0004460165509954095,0.26479437947273254,-1.5968578497516077,0.0,0.012724261730909348,0.8166186213493347,0.0,0.019633164629340172,0.7745676040649414,0.0,-0.1023460179567337
980.0,919.0,1.6594,0.1238,9.8698,-0.0263,0.1327,-0.115,-1.7077404461302699,-0.3262098729610443,2.17803955078125,-1.8106324672698975,0.4296715557575226,2.5422146320343018,4.789706739574232,-0.00023109356698114425,0.27451780438423157,-1.596821133290426,0.0,0.013988724909722805,0.8165903091430664,0.0,0.011023097671568394,0.7744991183280945,0.0,-0.12069865316152573
980.0,919.0,1.6594,0.1238,9.8698,-0.0263,0.1327,-0.115,-1.7096706829466761,-0.324791818857193,2.231398344039917,-1.808052897453308,0.4314185380935669,2.5567502975463867,4.789654369443216,-1.725310539768543e-05,0.28516265749931335,-1.5968940893756312,0.0,0.020254725590348244,0.8166426420211792,0.0,0.010049385018646717,0.774579644203186,0.0,-0.16276803612709045
980.0,919.0,1.6594,0.1238,9.8698,-0.0263,0.1327,-0.115,-1.7116452656187953,-0.32591962814331055,2.191854953765869,-1.8054381608963013,0.43142464756965637,2.577470302581787,4.7896469859178445,-4.802465092268449e-09,0.26534247398376465,-1.5968416372882288,0.0,0.010552390478551388,0.8166143894195557,0.0,0.005182376131415367,0.7745311856269836,0.0,-0.14092426002025604
980.0,919.0,1.6594,0.1238,9.8698,-0.0263,0.1327,-0.115,-1.7141667805113734,-0.31455063819885254,2.2762975692749023,-1.802048683166504,0.42520806193351746,2.58174729347229,4.789658430009641,-8.728244906344718e-14,0.26936769485473633,-1.5969017187701624,0.0,0.018067650496959686,0.8165383338928223,0.0,0.011451108381152153,0.774596095085144,7.414204446831718e-05,-0.09190350770950317
921.0,915.0,1.453,0.0012,8.4006,-0.0299,0.1451,-0.117,-1.7160846195616664,-0.31350988149642944,2.19765567779541,-1.799476146697998,0.4278777241706848,2.552177906036377,4.789658340602674,-2.4295391432174668e-17,0.2876584231853485,-1.5968578497516077,0.0,0.018366936594247818,0.8165944814682007,0.0,0.02683640830218792,0.7745676040649414,9.852229413809255e-05,-0.09138193726539612
921.0,915.0,1.453,0.0012,8.4006,-0.0299,0.1451,-0.117,-1.7181035480894984,-0.3180714249610901,2.2436399459838867,-1.7969447374343872,0.43420112133026123,2.5398507118225098,4.789662572532453,-6.762712033155311e-21,0.2772606313228607,-1.5968697706805628,0.0,-0.0039769792929291725,0.8165584206581116,0.0,0.01746859773993492,0.7745555639266968,0.00011848621215904132,-0.1015344113111496
921.0,915.0,1.453,0.0012,8.4006,-0.0299,0.1451,-0.117,-1.720041891137594,-0.3136412799358368,2.2089128494262695,-1.7943377494812012,0.42918387055397034,2.5385313034057617,4.7896547494228265,-0.00012813438661396503,0.2648341953754425,-1.5968616644488733,0.0,0.03220328688621521,0.8165625333786011,0.0,0.02123788371682167,0.7745837569236755,8.113560761557892e-05,-0.08835241943597794
921.0,915.0,1.453,0.0012,8.4006,-0.0299,0.1451,-0.117,-1.721980711022848,-0.32317081093788147,2.2508339881896973,-1.791847586631775,0.42587053775787354,2.5981428623199463,4.789678904205122,-0.00015918267308734357,0.27712151408195496,-1.5968535582171839,0.0,0.0168844573199749,0.8165382742881775,0.0,0.02330467849969864,0.7745234370231628,7.442540663760155e-05,-0.155640110373497
921.0,915.0,1.453,0.0012,8.4006,-0.0299,0.1451,-0.117,-1.7239138088622035,-0.3308217227458954,2.2515997886657715,-1.7892717123031616,0.4224502146244049,2.5611846446990967,4.789654734521665,-0.00021700531942769885,0.2738831043243408,-1.5969060103045862,0.0,0.027123937383294106,0.8166265487670898,0.0,0.013781862333416939,0.774587869644165,9.13389740162529e-05,-0.11753877997398376
921.0,915.0,1.453,0.0012,8.4006,-0.0299,0.1451,-0.117,-1.7258287868895472,-0.3245585858821869,2.323366641998291,-1.7867320775985718,0.4300728142261505,2.565099000930786,4.789678919106283,-0.00016133059398271143,0.26534008979797363,-1.5968416372882288,0.0,0.015943126752972603,0.8165584206581116,0.0,0.008636236190795898,0.7745514512062073,8.515061927028e-05,-0.1487884521484375
921.0,915.0,1.453,0.0012,8.4006,-0.0299,0.1451,-0.117,-1.72851624111318,-0.32916373014450073,2.275172233581543,-1.783379077911377,0.42261138558387756,2.5395326614379883,4.78962683209733,-0.00023315810540225357,0.2609252631664276,-1.5968859831439417,0.0,0.015120407566428185,0.8165900707244873,0.0,0.015247933566570282,0.7745798826217651,5.860977034899406e-05,-0.10264801979064941
921.0,915.0,1.453,0.0012,8.4006,-0.0299,0.1451,-0.117,-1.730417867700094,-0.32587930560112,2.304029703140259,-1.7807812690734863,0.4138809144496918,2.541978359222412,4.789670723467626,-0.00010384071356384084,0.27555525302886963,-1.5968578497516077,0.0,0.013790372759103775,0.8165740966796875,0.0,0.012702218256890774,0.7745555639266968,5.47911949979607e-05,-0.12291565537452698
921.0,915.0,1.453,0.0012,8.4006,-0.0299,0.1451,-0.117,-1.7323533497252406,-0.32049277424812317,2.3201563358306885,-1.778292179107666,0.4116024971008301,2.5411629676818848,4.7896747691328905,-6.259674023567641e-07,0.271231472492218,-1.5968497435199183,0.0,0.013134332373738289,0.8165706396102905,0.0,0.019697725772857666,0.774579644203186,5.1647039072122425e-05,-0.14176946878433228
921.0,915.0,1.453,0.0012,8.4006,-0.0299,0.1451,-0.117,-1.7342359028258265,-0.3191812038421631,2.3043758869171143,-1.775802493095398,0.41633135080337524,2.5503456592559814,4.789670656412401,-1.7424033049717735e-10,0.2794816493988037,-1.5968659559832972,0.0,0.015447316691279411,0.8165178298950195,0.0,0.0131024569272995,0.7745394110679626,4.8844143748283386e-05,-0.12571492791175842
921.0,915.0,1.453,0.0012,8.4006,-0.0299,0.1451,-0.117,-1.7361051044859828,-0.3145192861557007,2.3355627059936523,-1.7732768058776855,0.41150298714637756,2.565293788909912,4.789650666504659,-4.850044248595059e-14,0.2748897075653076,-1.5968621412860315,0.0,0.011727220378816128,0.8165870308876038,0.0,0.007989436388015747,0.774596095085144,4.632974014384672e-05,-0.1337597668170929
