ramyac6/ROB537/final_project/csv/good/good_62.csv
tof_0,tof_1,accelx,accely,accelz,gyrox,gyroy,gyroz,shoulder_lift_joint_position,shoulder_lift_joint_velocity,shoulder_lift_joint_effort,elbow_joint_position,elbow_joint_velocity,elbow_joint_effort,wrist_1_joint_position,wrist_1_joint_velocity,wrist_1_joint_effort,wrist_2_joint_position,wrist_2_joint_velocity,wrist_2_joint_effort,wrist_3_joint_position,wrist_3_joint_velocity,wrist_3_joint_effort,shoulder_pan_joint_position,shoulder_pan_joint_velocity,shoulder_pan_joint_effort
262.0,309.0,-5.8373,0.3332,8.1745,-0.0391,0.0286,-0.121,-2.3349553547301234,0.0,4.78546667098999,-1.355791449546814,-0.0,1.8514173030853271,5.747942435532369,-0.0,0.18617448210716248,-1.739033047352926,-0.0,0.009945792146027088,0.49083229899406433,0.0,0.0039011004846543074,1.1823134422302246,0.0,0.007727355696260929
262.0,309.0,-5.8373,0.3332,8.1745,-0.0391,0.0286,-0.121,-2.3349715671935023,0.0,4.8127593994140625,-1.3557631969451904,-0.0,1.8221361637115479,5.747938620835104,-0.0,0.19459912180900574,-1.7390454451190394,-0.0,0.004263527691364288,0.4908601939678192,0.0,-0.003486520843580365,1.1823331117630005,0.0,-0.004859053995460272
262.0,309.0,-5.8373,0.3332,8.1745,-0.0391,0.0286,-0.121,-2.334886690179342,0.0,4.797904014587402,-1.3557274341583252,-0.0,1.8618347644805908,5.747946488648214,-0.0,0.1843053102493286,-1.7389968077289026,-0.0,0.014564058743417263,0.49080002307891846,0.0,0.003911170642822981,1.1823453903198242,0.0,0.019183851778507233
262.0,309.0,-5.8373,0.3332,8.1745,-0.0391,0.0286,-0.121,-2.334963460961813,0.0,4.842809200286865,-1.355783224105835,-0.0,1.8118007183074951,5.747942435532369,-0.0,0.19595277309417725,-1.7389891783343714,-0.0,-0.006121315527707338,0.49079596996307373,-1.4588836165785324e-05,0.007051518186926842,1.1823174953460693,0.0,-0.01087726466357708
262.0,309.0,-5.8373,0.3332,8.1745,-0.0391,0.0286,-0.121,-2.3349834881224574,0.0,4.842784881591797,-1.3557347059249878,-0.0,1.8291995525360107,5.747910606652059,-0.0,0.18338920176029205,-1.7390654722796839,-0.0,-0.003466374007984996,0.4907960891723633,-1.3914346709498204e-05,0.01649814285337925,1.1823453903198242,0.0,0.006401022896170616
262.0,309.0,-5.8373,0.3332,8.1745,-0.0391,0.0286,-0.121,-2.3349510631956996,0.0,4.824615478515625,-1.355730652809143,-0.0,1.8034119606018066,5.747918593674459,-0.0,0.19062785804271698,-1.7389605681048792,-0.0,0.003404331859201193,0.49081993103027344,-5.753987153411799e-08,0.007443269714713097,1.1823694705963135,0.0,-0.006579521112143993
262.0,309.0,-5.8373,0.3332,8.1745,-0.0391,0.0286,-0.121,-2.3349834881224574,0.0,4.823616027832031,-1.355698585510254,-0.0,1.8888804912567139,5.747902619629659,-0.0,0.20110629498958588,-1.739077393208639,-0.0,-0.007309611886739731,0.49078819155693054,-1.6016436441002035e-11,-0.001828924985602498,1.182361364364624,0.0,-0.010063872672617435
259.0,301.0,-5.796,0.3428,8.0453,-0.0333,0.0226,-0.1177,-2.3349672756590785,0.0,4.823428153991699,-1.3557634353637695,-0.0,1.835400104522705,5.747902619629659,-0.0,0.18396630883216858,-1.7390454451190394,-0.0,0.007810956332832575,0.49078020453453064,-4.458233827546237e-15,0.010114120319485664,1.1823736429214478,0.0,0.009868825785815716
259.0,301.0,-5.796,0.3428,8.0453,-0.0333,0.0226,-0.1177,-2.3349553547301234,0.0,4.801587104797363,-1.3557631969451904,-0.0,1.8546828031539917,5.747946488648214,-0.0,0.18736383318901062,-1.738981072102682,-0.0,0.012218210846185684,0.49081993103027344,-8.102622487103894e-20,0.008467711508274078,1.1823453903198242,0.0,0.04299210384488106
259.0,301.0,-5.796,0.3428,8.0453,-0.0333,0.0226,-0.1177,-2.334947248498434,0.0,4.796512126922607,-1.355803370475769,-0.0,1.8193540573120117,5.747891294747152,-0.0,0.19463008642196655,-1.7389772574054163,-0.0,-0.007076845038682222,0.4907723367214203,-2.2553946643383063e-23,0.003724432550370693,1.1823253631591797,0.0,0.038096506148576736
259.0,301.0,-5.796,0.3428,8.0453,-0.0333,0.0226,-0.1177,-2.3349954090514125,0.0,4.814197540283203,-1.3557192087173462,-0.0,1.8436980247497559,5.7479145405586145,-0.0,0.18292783200740814,-1.7389848867999476,-0.0,0.020769421011209488,0.4907921254634857,-6.277974254576483e-27,0.010951254516839981,1.1823331117630005,0.0,0.041313111782073975
259.0,301.0,-5.796,0.3428,8.0453,-0.0333,0.0226,-0.1177,-2.3350116215147914,0.0,4.8333234786987305,-1.3557511568069458,-0.0,1.7739176750183105,5.7479145405586145,-0.0,0.18758955597877502,-1.738992993031637,-0.0,0.00016284547746181488,0.4907762110233307,-1.1409907704392114e-31,0.010078692808747292,1.1823736429214478,0.0,-0.013247447088360786
259.0,301.0,-5.796,0.3428,8.0453,-0.0333,0.0226,-0.1177,-2.3349715671935023,0.0,4.828464031219482,-1.3557593822479248,-0.0,1.849360704421997,5.747938620835104,-0.0,0.18671604990959167,-1.7389891783343714,-0.0,0.005720118992030621,0.49078819155693054,-3.1759897245347086e-35,0.007497704587876797,1.1823936700820923,0.0,0.041623711585998535
259.0,301.0,-5.796,0.3428,8.0453,-0.0333,0.0226,-0.1177,-2.3349715671935023,0.0,4.801793098449707,-1.3557593822479248,-0.0,1.849897861480713,5.747926580696859,-0.0,0.19633784890174866,-1.738981072102682,-0.0,0.012264815159142017,0.49074819684028625,-5.7722006082775e-40,0.006724850740283728,1.182353138923645,0.0,-0.005470780655741692
259.0,301.0,-5.796,0.3428,8.0453,-0.0333,0.0226,-0.1177,-2.3349834881224574,0.0,4.799992561340332,-1.3558117151260376,-0.0,1.8033792972564697,5.747942554741659,-0.0,0.19528603553771973,-1.7389772574054163,-0.0,0.009764356538653374,0.4908403754234314,-1.6114932339735396e-43,0.006587032228708267,1.1823211908340454,0.0,0.012190377339720726
259.0,301.0,-5.796,0.3428,8.0453,-0.0333,0.0226,-0.1177,-2.3349629841246546,0.0,4.822690486907959,-1.355715036392212,-0.0,1.8164141178131104,5.74800323227004,-0.0,0.18705281615257263,-1.7390292326556605,-0.0,0.011117689311504364,0.49078014492988586,-0.0,0.008310873061418533,1.1823736429214478,0.0,0.02185571938753128
259.0,301.0,-5.796,0.3428,8.0453,-0.0333,0.0226,-0.1177,-2.3349834881224574,0.0,4.755563735961914,-1.3557593822479248,-0.0,1.8018982410430908,5.747918593674459,-0.0,0.19196242094039917,-1.7390015761004847,-0.0,-9.979447349905968e-05,0.4907723367214203,-0.0,-0.0005760355852544308,1.1823413372039795,0.0,0.0088124331086874
259.0,301.0,-5.796,0.3428,8.0453,-0.0333,0.0226,-0.1177,-2.3349186382689417,0.0,4.809950828552246,-1.3557631969451904,-0.0,1.8731766939163208,5.747918593674459,-0.0,0.18222883343696594,-1.7389729658709925,-0.0,0.008012350648641586,0.4908159077167511,-0.0,0.006032558623701334,1.1823694705963135,0.0,-0.00679786829277873
259.0,301.0,-5.796,0.3428,8.0453,-0.0333,0.0226,-0.1177,-2.3349715671935023,0.0,4.806998252868652,-1.3557511568069458,-0.0,1.8257375955581665,5.747926580696859,-0.0,0.19031983613967896,-1.7390134970294397,-0.0,0.012334901839494705,0.49074816703796387,-0.0,0.009712138213217258,1.1823334693908691,0.0,0.07527025789022446
259.0,301.0,-5.796,0.3428,8.0453,-0.0333,0.0226,-0.1177,-2.334926744500631,0.0,4.828554630279541,-1.3557347059249878,-0.0,1.8111727237701416,5.747906672745504,-0.0,0.1739177703857422,-1.7390254179583948,-0.0,0.00011900067329406738,0.4908357858657837,-0.0,0.016905447468161583,1.1823573112487793,0.0,-0.03949547931551933
270.0,305.0,-5.8199,0.3589,8.0937,-0.035,0.0217,-0.1138,-2.334959646264547,0.0,4.794895648956299,-1.3557509183883667,-0.0,1.845947265625,5.7479145405586145,-0.0,0.17798012495040894,-1.7390292326556605,-0.0,0.018226422369480133,0.4907679259777069,-0.0,-0.00544273154810071,1.1823573112487793,0.0,-0.03520754724740982
270.0,305.0,-5.8199,0.3589,8.0937,-0.035,0.0217,-0.1138,-2.3349510631956996,0.0,4.820038795471191,-1.355747103691101,-0.0,1.843651294708252,5.747922169953146,-0.0,0.18386313319206238,-1.7390010992633265,-0.0,0.010318332351744175,0.4907999634742737,-0.0,0.005702240392565727,1.1823937892913818,0.0,-0.008461556397378445
270.0,305.0,-5.8199,0.3589,8.0937,-0.035,0.0217,-0.1138,-2.334959169427389,0.0,4.797677516937256,-1.3557754755020142,-0.0,1.8391846418380737,5.747938620835104,-0.0,0.2009308934211731,-1.739009205495016,-0.0,0.004314064513891935,0.49080002307891846,-0.0,0.0035463436506688595,1.1823371648788452,0.0,-0.006697619333863258
270.0,305.0,-5.8199,0.3589,8.0937,-0.035,0.0217,-0.1138,-2.3349796734251917,0.0,4.79240608215332,-1.3557873964309692,-0.0,1.8444061279296875,5.747950541764059,-0.0,0.18710476160049438,-1.739049259816305,-0.0,0.008340461179614067,0.490780234336853,-0.0,0.005872076842933893,1.1823453903198242,0.0,-0.01074930839240551
270.0,305.0,-5.8199,0.3589,8.0937,-0.035,0.0217,-0.1138,-2.3349629841246546,0.0,4.80543851852417,-1.355783224105835,-0.0,1.7855939865112305,5.747950541764059,-0.0,0.19228163361549377,-1.739033047352926,-0.0,0.007163490634411573,0.49081990122795105,-0.0,0.0030381244141608477,1.1823813915252686,0.0,0.02985338121652603
270.0,305.0,-5.8199,0.3589,8.0937,-0.035,0.0217,-0.1138,-2.3350311718382777,0.0,4.757998466491699,-1.3557676076889038,-0.0,1.8572115898132324,5.7479145405586145,-0.0,0.18920037150382996,-1.7390254179583948,-0.0,0.006236202083528042,0.4908488392829895,-0.0,0.0021641580387949944,1.1823371648788452,0.0,0.01605384238064289
270.0,305.0,-5.8199,0.3589,8.0937,-0.035,0.0217,-0.1138,-2.3349672756590785,0.0,4.808002471923828,-1.3557469844818115,-0.0,1.8319685459136963,5.747922289162435,-0.0,0.19543464481830597,-1.7390134970294397,-0.0,0.004096563905477524,0.49081990122795105,-0.0,0.014134339056909084,1.1824097633361816,0.0,0.07195925712585449
270.0,305.0,-5.8199,0.3589,8.0937,-0.035,0.0217,-0.1138,-2.3349553547301234,0.0,4.808846473693848,-1.3557347059249878,-0.0,1.8539795875549316,5.74789439418868,-0.0,0.1737528145313263,-1.739021126423971,-0.0,0.00725502148270607,0.49074819684028625,-0.0,0.004102701786905527,1.182353138923645,0.0,0.017788343131542206
270.0,305.0,-5.8199,0.3589,8.0937,-0.035,0.0217,-0.1138,-2.334987302819723,0.0,4.7780914306640625,-1.3557837009429932,-0.0,1.8269166946411133,5.747934567719259,-0.0,0.19077569246292114,-1.738981072102682,-0.0,0.0077795060351490974,0.4908158779144287,-0.0,0.008646657690405846,1.1823813915252686,0.0,0.028113890439271927
270.0,305.0,-5.8199,0.3589,8.0937,-0.035,0.0217,-0.1138,-2.3349715671935023,0.0,4.795893669128418,-1.3557997941970825,-0.0,1.8094143867492676,5.747934567719259,-0.0,0.18009310960769653,-1.739021126423971,-0.0,-0.0007107246201485395,0.490780234336853,-0.0,0.0063090091571211815,1.1823534965515137,0.0,0.04619019478559494
270.0,305.0,-5.8199,0.3589,8.0937,-0.035,0.0217,-0.1138,-2.334987302819723,0.0,4.759605407714844,-1.3557993173599243,-0.0,1.777188777923584,5.74789451339797,-0.0,0.18863815069198608,-1.738992993031637,-0.0,0.02133309654891491,0.4908115863800049,-0.0,0.0015288302674889565,1.1823896169662476,0.0,-0.029716087505221367
270.0,305.0,-5.8199,0.3589,8.0937,-0.035,0.0217,-0.1138,-2.334971090356344,0.0,4.8023762702941895,-1.3557190895080566,-0.0,1.8091464042663574,5.747930633812704,-0.0,0.19643071293830872,-1.7389772574054163,-0.0,0.007989004254341125,0.4907636344432831,-0.0,0.0026457489002496004,1.1823573112487793,0.0,0.05955091118812561
270.0,305.0,-5.8199,0.3589,8.0937,-0.035,0.0217,-0.1138,-2.334987302819723,0.0,4.7985310554504395,-1.355811595916748,-0.0,1.8210341930389404,5.74791048744277,-0.0,0.18889690935611725,-1.7390206495868128,-0.0,0.010162371210753918,0.49081993103027344,-0.0,-0.005674228072166443,1.182353138923645,0.0,-0.031117307022213936
263.0,291.0,-5.7894,0.3422,8.0955,-0.0385,0.0229,-0.113,-2.3349553547301234,0.0,4.824708461761475,-1.3557676076889038,-0.0,1.8681023120880127,5.747922646790304,-0.0,0.1774752140045166,-1.7389891783343714,-0.0,0.0022547454573214054,0.49085670709609985,-0.0,0.00797558669000864,1.1823854446411133,0.0,-0.017957419157028198
263.0,291.0,-5.7894,0.3422,8.0955,-0.0385,0.0229,-0.113,-2.334959646264547,0.0,4.8281755447387695,-1.3557837009429932,-0.0,1.8255302906036377,5.747934567719259,-0.0,0.18747714161872864,-1.7390168348895472,-0.0,0.004001145716756582,0.49079200625419617,-0.0,-0.0038595041260123253,1.182361364364624,0.0,-0.038557324558496475
263.0,291.0,-5.7894,0.3422,8.0955,-0.0385,0.0229,-0.113,-2.3349791965880335,0.0,4.7997331619262695,-1.3557631969451904,-0.0,1.8224635124206543,5.747918593674459,-0.0,0.189852774143219,-1.73903733888735,-0.0,0.007305813021957874,0.49078792333602905,-0.0,0.0061905416660010815,1.1823413372039795,0.0,-0.008323509246110916
263.0,291.0,-5.7894,0.3422,8.0955,-0.0385,0.0229,-0.113,-2.3349229298033656,0.0,4.815373420715332,-1.355715036392212,-0.0,1.7817373275756836,5.747891294747152,-0.0,0.1831042766571045,-1.7389729658709925,-0.0,0.0071340883150696754,0.49081993103027344,-0.0,0.002338896971195936,1.1823375225067139,0.0,-0.03111158311367035
263.0,291.0,-5.7894,0.3422,8.0955,-0.0385,0.0229,-0.113,-2.334959169427389,0.0,4.798236846923828,-1.3557274341583252,-0.0,1.8725919723510742,5.74789451339797,-0.0,0.19514134526252747,-1.739021126423971,-0.0,0.00551263801753521,0.4908001720905304,-0.0,-0.008743048645555973,1.1823453903198242,0.0,0.06292126327753067
263.0,291.0,-5.7894,0.3422,8.0955,-0.0385,0.0229,-0.113,-2.334963460961813,0.0,4.826926231384277,-1.355738878250122,-0.0,1.8170254230499268,5.74791048744277,-0.0,0.1909494698047638,-1.739021126423971,-0.0,0.004949220456182957,0.49082815647125244,-0.0,0.0018665262032300234,1.1823736429214478,0.0,0.04444083198904991
263.0,291.0,-5.7894,0.3422,8.0955,-0.0385,0.0229,-0.113,-2.3348947964110316,0.0,4.845596790313721,-1.3557305335998535,-0.0,1.8127319812774658,5.747918593674459,-0.0,0.1866559088230133,-1.7390411535846155,-0.0,0.00935697928071022,0.4908156991004944,-0.0,0.00822602491825819,1.1823534965515137,0.0,0.017792848870158195
263.0,291.0,-5.7894,0.3422,8.0955,-0.0385,0.0229,-0.113,-2.3349553547301234,0.0,4.786806106567383,-1.355738878250122,-0.0,1.8128957748413086,5.747887241631307,-0.0,0.18046045303344727,-1.7390254179583948,-0.0,0.0008585948380641639,0.49075186252593994,-0.0,-0.0003331048646941781,1.182349443435669,0.0,-0.006849899422377348
263.0,291.0,-5.7894,0.3422,8.0955,-0.0385,0.0229,-0.113,-2.334926744500631,0.0,4.793845176696777,-1.3557590246200562,-0.0,1.8426839113235474,5.747918593674459,-0.0,0.1803092360496521,-1.7390573660479944,-0.0,-0.007023266516625881,0.49082401394844055,-0.0,0.0060489242896437645,1.1823654174804688,0.0,-0.02304058149456978
263.0,291.0,-5.7894,0.3422,8.0955,-0.0385,0.0229,-0.113,-2.3349553547301234,0.0,4.847878456115723,-1.355783224105835,-0.0,1.827775001525879,5.747918593674459,-0.0,0.18754416704177856,-1.739004913960592,-0.0,-0.0014242047909647226,0.49075138568878174,-0.0,-0.005446253810077906,1.1823371648788452,0.0,0.05958757549524307
263.0,291.0,-5.7894,0.3422,8.0955,-0.0385,0.0229,-0.113,-2.3349553547301234,0.0,4.820866584777832,-1.3557511568069458,-0.0,1.8597569465637207,5.747922646790304,-0.0,0.18537941575050354,-1.7390134970294397,-0.0,0.008277449756860733,0.49076762795448303,-0.0,0.01020599715411663,1.1824055910110474,0.0,0.010614516213536263
263.0,291.0,-5.7894,0.3422,8.0955,-0.0385,0.0229,-0.113,-2.33494295696401,0.0,4.767045021057129,-1.355730652809143,-0.0,1.8090009689331055,5.747874843865194,-0.0,0.20053261518478394,-1.7389968077289026,-0.0,0.016475679352879524,0.49080801010131836,-0.0,-0.0003680282970890403,1.182405710220337,0.0,0.04479105398058891
263.0,291.0,-5.7894,0.3422,8.0955,-0.0385,0.0229,-0.113,-2.334959646264547,0.0,4.802387237548828,-1.3557672500610352,-0.0,1.8212077617645264,5.747898566513815,-0.0,0.18588945269584656,-1.7390454451190394,-0.0,-0.0009800171246752143,0.4908120930194855,-0.0,0.001069914549589157,1.1823817491531372,0.0,-0.020256832242012024
263.0,291.0,-5.7894,0.3422,8.0955,-0.0385,0.0229,-0.113,-2.334975381890768,0.0,4.81710147857666,-1.3557672500610352,-0.0,1.8367401361465454,5.7479145405586145,-0.0,0.1888677477836609,-1.738992993031637,-0.0,-0.005842127371579409,0.49079200625419617,-0.0,0.015595171600580215,1.1823416948318481,0.0,-0.03533077612519264
264.0,300.0,-5.7829,0.3589,8.0895,-0.0315,0.0292,-0.1141,-2.3349510631956996,0.0,4.81964635848999,-1.3557796478271484,-0.0,1.8091728687286377,5.747930514603414,-0.0,0.18933767080307007,-1.738992993031637,-0.0,0.0042791590094566345,0.49079200625419617,-0.0,0.017234347760677338,1.1823654174804688,0.0,0.008282461203634739
264.0,300.0,-5.7829,0.3589,8.0895,-0.0315,0.0292,-0.1141,-2.3349510631956996,0.0,4.833969593048096,-1.3557915687561035,-0.0,1.8515516519546509,5.747883188515463,-0.0,0.18572473526000977,-1.7390292326556605,-0.0,0.008600885048508644,0.49082809686660767,-0.0,0.011207293719053268,1.1823413372039795,0.0,-0.005109562072902918
264.0,300.0,-5.7829,0.3589,8.0895,-0.0315,0.0292,-0.1141,-2.334975381890768,0.0,4.779950141906738,-1.35575532913208,-0.0,1.839084267616272,5.747906672745504,-0.0,0.18788737058639526,-1.739021126423971,-0.0,0.004620356485247612,0.4907718300819397,-0.0,0.015269026160240173,1.1823453903198242,0.0,0.015421921387314796
264.0,300.0,-5.7829,0.3589,8.0895,-0.0315,0.0292,-0.1141,-2.3349629841246546,0.0,4.831971168518066,-1.3557631969451904,-0.0,1.7901396751403809,5.747930633812704,-0.0,0.18174198269844055,-1.7390454451190394,-0.0,0.003909334074705839,0.4907955825328827,-0.0,0.0010804611956700683,1.1823736429214478,0.0,-0.00013813748955726624
264.0,300.0,-5.7829,0.3589,8.0895,-0.0315,0.0292,-0.1141,-2.3349434338011683,0.0,4.792489051818848,-1.3557714223861694,-0.0,1.8137688636779785,5.74790250042037,-0.0,0.18891724944114685,-1.7390134970294397,-0.0,0.008192159235477448,0.4907718896865845,-0.0,3.803218714892864e-05,1.1823776960372925,0.0,0.018706614151597023
264.0,300.0,-5.7829,0.3589,8.0895,-0.0315,0.0292,-0.1141,-2.3349715671935023,0.0,4.798018455505371,-1.3557915687561035,-0.0,1.8107309341430664,5.747886168747701,-0.0,0.1872042864561081,-1.739077393208639,-0.0,0.0014247044455260038,0.4908001720905304,-0.0,-0.00022849836386740208,1.1823453903198242,0.0,-0.018084144219756126
264.0,300.0,-5.7829,0.3589,8.0895,-0.0315,0.0292,-0.1141,-2.3349510631956996,0.0,4.788815021514893,-1.3557676076889038,-0.0,1.8487331867218018,5.747926580696859,-0.0,0.19165250658988953,-1.739033047352926,-0.0,0.009264612570405006,0.49079200625419617,-0.0,0.016049185767769814,1.1823331117630005,0.0,0.008242451585829258
264.0,300.0,-5.7829,0.3589,8.0895,-0.0315,0.0292,-0.1141,-2.3349553547301234,0.0,4.819924354553223,-1.3557714223861694,-0.0,1.8486671447753906,5.747891294747152,-0.0,0.19925537705421448,-1.7390010992633265,-0.0,0.009974001906812191,0.490852952003479,-0.0,0.0016812612302601337,1.1823896169662476,0.0,0.009627202525734901
264.0,300.0,-5.7829,0.3589,8.0895,-0.0315,0.0292,-0.1141,-2.3349434338011683,0.0,4.81283712387085,-1.3557590246200562,-0.0,1.816823959350586,5.747930514603414,-0.0,0.19269347190856934,-1.739004913960592,-0.0,0.01310904510319233,0.49082809686660767,-0.0,0.008834057487547398,1.182361364364624,0.0,-0.01701446995139122
264.0,300.0,-5.7829,0.3589,8.0895,-0.0315,0.0292,-0.1141,-2.3349272213377894,0.0,4.821415424346924,-1.355803370475769,-0.0,1.8850758075714111,5.747930514603414,-0.0,0.18446432054042816,-1.7390130201922815,-0.0,0.007173754274845123,0.4908001720905304,-0.0,0.0013596174539998174,1.182353138923645,0.0,0.008063917979598045
264.0,300.0,-5.7829,0.3589,8.0895,-0.0315,0.0292,-0.1141,-2.334959646264547,0.0,4.79285192489624,-1.3557511568069458,-0.0,1.821881651878357,5.747918593674459,-0.0,0.19936922192573547,-1.7389972845660608,-0.0,0.01053682528436184,0.4907841980457306,-0.0,0.005012229084968567,1.182361364364624,0.0,-0.008744806051254272
264.0,300.0,-5.7829,0.3589,8.0895,-0.0315,0.0292,-0.1141,-2.334959169427389,0.0,4.832149982452393,-1.3557833433151245,-0.0,1.8777520656585693,5.747942435532369,-0.0,0.18573667109012604,-1.7389891783343714,-0.0,0.0004075346514582634,0.4907473027706146,-0.0,0.013179095461964607,1.1823413372039795,0.0,0.023100223392248154
264.0,300.0,-5.7829,0.3589,8.0895,-0.0315,0.0292,-0.1141,-2.334947725335592,0.0,4.820313930511475,-1.3557873964309692,-0.0,1.833477258682251,5.747950660973348,-0.0,0.1915300488471985,-1.7390173117267054,-0.0,-0.0013443133793771267,0.4907676875591278,-0.0,0.004099490586668253,1.1823694705963135,0.0,0.0013677636161446571
266.0,300.0,-5.8349,0.3117,8.1823,-0.0367,0.0257,-0.118,-2.3349629841246546,0.0,4.7978515625,-1.3557109832763672,-0.0,1.8205119371414185,5.74790250042037,-0.0,0.18805110454559326,-1.7390087286578577,-0.0,0.0038008654955774546,0.4908404052257538,-0.0,0.00020564334408845752,1.1823371648788452,0.0,0.0031961677595973015
266.0,300.0,-5.8349,0.3117,8.1823,-0.0367,0.0257,-0.118,-2.3348943195738734,0.0,4.822343826293945,-1.3557714223861694,-0.0,1.8273510932922363,5.747898447304525,-0.0,0.1869814097881317,-1.739009205495016,-0.0,0.0069036479108035564,0.4908406734466553,-0.0,-0.009255862794816494,1.1823371648788452,0.0,0.05090239644050598
266.0,300.0,-5.8349,0.3117,8.1823,-0.0367,0.0257,-0.118,-2.3349391422667445,0.0,4.784313678741455,-1.3557192087173462,-0.0,1.8321161270141602,5.747902619629659,-0.0,0.1868019849061966,-1.7389853636371058,-0.0,0.008990604430437088,0.49082034826278687,-0.0,0.005460658110678196,1.1823413372039795,0.0,-0.006802897434681654
266.0,300.0,-5.8349,0.3117,8.1823,-0.0367,0.0257,-0.118,-2.3349715671935023,0.0,4.807714462280273,-1.3557714223861694,-0.0,1.835963487625122,5.747918593674459,-0.0,0.18881011009216309,-1.7389891783343714,-0.0,0.007628625258803368,0.49082401394844055,-0.0,0.01940656639635563,1.1823371648788452,0.0,-0.051552753895521164
266.0,300.0,-5.8349,0.3117,8.1823,-0.0367,0.0257,-0.118,-2.3349834881224574,0.0,4.814714431762695,-1.3557305335998535,-0.0,1.778949499130249,5.747891294747152,-0.0,0.18870413303375244,-1.738992993031637,-0.0,0.013901610858738422,0.4908156991004944,-0.0,-0.004593403544276953,1.1823817491531372,0.0,-0.005626430734992027
266.0,300.0,-5.8349,0.3117,8.1823,-0.0367,0.0257,-0.118,-2.3349715671935023,0.0,4.843640327453613,-1.3558071851730347,-0.0,1.8401275873184204,5.747918593674459,-0.0,0.19840064644813538,-1.7389772574054163,-0.0,0.005519804544746876,0.4908001720905304,-0.0,0.002370865549892187,1.182349443435669,0.0,0.029035329818725586
266.0,300.0,-5.8349,0.3117,8.1823,-0.0367,0.0257,-0.118,-2.334954877892965,0.0,4.799263000488281,-1.355783224105835,-0.0,1.7922314405441284,5.74791048744277,-0.0,0.1786280870437622,-1.7390216032611292,-0.0,0.022135959938168526,0.49079203605651855,-0.0,-0.00495963916182518,1.182361364364624,0.0,0.010092291980981827
266.0,300.0,-5.8349,0.3117,8.1823,-0.0367,0.0257,-0.118,-2.3349434338011683,0.0,4.815153121948242,-1.35575532913208,-0.0,1.8521579504013062,5.747930514603414,-0.0,0.19290006160736084,-1.7390173117267054,-0.0,0.006736695766448975,0.4907836616039276,-0.0,0.0071685402654111385,1.1823573112487793,0.0,-0.038442157208919525
266.0,300.0,-5.8349,0.3117,8.1823,-0.0367,0.0257,-0.118,-2.3349834881224574,0.0,4.817499160766602,-1.3557469844818115,-0.0,1.8441815376281738,5.747942435532369,-0.0,0.18823251128196716,-1.7389972845660608,-0.0,0.0003273937036283314,0.4908120930194855,-0.0,0.00399551447480917,1.1823211908340454,0.0,0.057126857340335846
266.0,300.0,-5.8349,0.3117,8.1823,-0.0367,0.0257,-0.118,-2.3349391422667445,0.0,4.819273948669434,-1.3557192087173462,-0.0,1.8380329608917236,5.74791048744277,-0.0,0.19515013694763184,-1.7390454451190394,-0.0,0.0022104729432612658,0.49077194929122925,-0.0,0.0033634777646511793,1.1823694705963135,0.0,-0.008690369315445423
266.0,300.0,-5.8349,0.3117,8.1823,-0.0367,0.0257,-0.118,-2.3349672756590785,0.0,4.8165974617004395,-1.3557274341583252,-0.0,1.863433599472046,5.747954594879904,-0.0,0.1843855082988739,-1.739021126423971,-0.0,0.005409283563494682,0.4908120930194855,-0.0,0.017405491322278976,1.1823371648788452,0.0,0.01331429835408926
266.0,300.0,-5.8349,0.3117,8.1823,-0.0367,0.0257,-0.118,-2.3349434338011683,0.0,4.774985313415527,-1.355747103691101,-0.0,1.8092350959777832,5.747902619629659,-0.0,0.1860945075750351,-1.7390287558185022,-0.0,0.0051283338107168674,0.49082401394844055,-0.0,-0.0019755568355321884,1.1823174953460693,0.0,0.00289178267121315
266.0,300.0,-5.8349,0.3117,8.1823,-0.0367,0.0257,-0.118,-2.3349715671935023,0.0,4.819545745849609,-1.3557873964309692,-0.0,1.8243411779403687,5.747938620835104,-0.0,0.18448331952095032,-1.739021126423971,-0.0,0.004322381224483252,0.4907636344432831,-0.0,0.012756249867379665,1.1823694705963135,0.0,0.03946427255868912
266.0,309.0,-5.7829,0.4116,8.0243,-0.0308,0.0232,-0.1193,-2.3349715671935023,0.0,4.826363563537598,-1.3557151556015015,-0.0,1.8252195119857788,5.747922646790304,-0.0,0.17750126123428345,-1.7389972845660608,-0.0,0.0039691561833024025,0.4907960891723633,-0.0,0.010355589911341667,1.1823134422302246,0.0,-0.029787546023726463
266.0,309.0,-5.7829,0.4116,8.0243,-0.0308,0.0232,-0.1193,-2.3349629841246546,0.0,4.824174880981445,-1.355799674987793,-0.0,1.772049903869629,5.747906195908346,-0.0,0.19033470749855042,-1.738992993031637,-0.0,-0.0018637897446751595,0.49077191948890686,-0.0,0.005075978580862284,1.1823413372039795,0.0,-0.023547764867544174
266.0,309.0,-5.7829,0.4116,8.0243,-0.0308,0.0232,-0.1193,-2.334931036035055,0.0,4.857839584350586,-1.355738878250122,-0.0,1.842625617980957,5.74789439418868,-0.0,0.19730564951896667,-1.738992993031637,-0.0,0.011048512533307076,0.49082809686660767,-0.0,0.006607048213481903,1.1823211908340454,0.0,0.03831801563501358
266.0,309.0,-5.7829,0.4116,8.0243,-0.0308,0.0232,-0.1193,-2.3349391422667445,0.0,4.77755069732666,-1.3557347059249878,-0.0,1.8590161800384521,5.74791048744277,-0.0,0.18052053451538086,-1.739009205495016,-0.0,-0.0076621174812316895,0.4908447265625,-0.0,0.009968750178813934,1.1823573112487793,0.0,0.007963340729475021
266.0,309.0,-5.7829,0.4116,8.0243,-0.0308,0.0232,-0.1193,-2.3349229298033656,7.860291861838675e-10,4.788421630859375,-1.355738878250122,-0.0,1.7993264198303223,5.747922289162435,-0.0,0.18510717153549194,-1.73903733888735,-0.0,0.005696847103536129,0.4908321499824524,-0.0,0.0018610060214996338,1.1823413372039795,0.0,-0.02883855439722538
266.0,309.0,-5.7829,0.4116,8.0243,-0.0308,0.0232,-0.1193,-2.334959646264547,2.546634665294351e-17,4.815311431884766,-1.35573148727417,-0.0,1.8699185848236084,5.747967231064596,-0.0,0.182796448469162,-1.7389848867999476,-0.0,0.009184122085571289,0.49080395698547363,-0.0,0.004267595242708921,1.1823736429214478,0.0,0.03892140835523605
266.0,309.0,-5.7829,0.4116,8.0243,-0.0308,0.0232,-0.1193,-2.334975381890768,6.149823301938586e-23,4.810186862945557,-1.3557631969451904,-0.0,1.79427170753479,5.747954594879904,-0.0,0.1713903844356537,-1.7389891783343714,-0.0,-0.011067168787121773,0.4908447265625,-0.0,0.011296606622636318,1.1822930574417114,0.0,-0.0628291442990303
266.0,309.0,-5.7829,0.4116,8.0243,-0.0308,0.0232,-0.1193,-2.334991594354147,1.9924644292765464e-30,4.798311710357666,-1.3557754755020142,-0.0,1.8206099271774292,5.747958647995748,-0.0,0.18964198231697083,-1.7390168348895472,-0.0,0.0034702967386692762,0.4907923936843872,-0.0,0.00879538431763649,1.1823413372039795,0.0,-0.01601272076368332
266.0,309.0,-5.7829,0.4116,8.0243,-0.0308,0.0232,-0.1193,-2.334975381890768,2.8199383450555615e-07,4.836854934692383,-1.3557955026626587,-0.0,1.841902494430542,5.7479145405586145,-0.0,0.19039466977119446,-1.73903733888735,-0.0,0.0076172430999577045,0.4908647835254669,-0.0,0.005558599252253771,1.1823334693908691,0.0,0.012569377198815346
266.0,309.0,-5.7829,0.4116,8.0243,-0.0308,0.0232,-0.1193,-2.334975381890768,6.809819635272829e-13,4.787156581878662,-1.3557631969451904,-0.0,1.8617382049560547,5.747950541764059,-0.0,0.1878402829170227,-1.738964859639303,-0.0,0.010739972814917564,0.4907960593700409,-0.0,0.0002466898877173662,1.18234121799469,0.0,-0.029094230383634567
266.0,309.0,-5.7829,0.4116,8.0243,-0.0308,0.0232,-0.1193,-2.3349672756590785,2.2062950654513622e-20,4.7943949699401855,-1.3557671308517456,-0.0,1.825659990310669,5.747967231064596,-0.0,0.19548940658569336,-1.739021126423971,-0.0,0.008652953431010246,0.4907960891723633,-0.0,-0.0014285442885011435,1.1823416948318481,0.0,-0.003033057786524296
266.0,309.0,-5.7829,0.4116,8.0243,-0.0308,0.0232,-0.1193,-2.334959169427389,5.32794313455459e-26,4.834344863891602,-1.3557955026626587,-0.0,1.8378560543060303,5.747934567719259,-0.0,0.18314018845558167,-1.739004913960592,-0.0,0.00943976454436779,0.49079203605651855,-0.0,0.013157833367586136,1.182349443435669,0.0,0.00884819496423006
266.0,309.0,-5.7829,0.4116,8.0243,-0.0308,0.0232,-0.1193,-2.3349391422667445,1.7261857198626895e-33,4.851922035217285,-1.3557027578353882,-0.0,1.8716517686843872,5.747938620835104,-0.0,0.19435596466064453,-1.7390168348895472,-0.0,0.009156182408332825,0.4908401668071747,-0.0,0.0013756775297224522,1.1823655366897583,0.0,0.0030005471780896187
254.0,301.0,-5.8397,0.3182,8.0435,-0.0257,0.0261,-0.1151,-2.3349715671935023,4.168535027525679e-39,4.798415184020996,-1.355738878250122,-0.0,1.8171923160552979,5.747934567719259,-0.0,0.1883140206336975,-1.73903733888735,-0.0,0.025643114000558853,0.4908607602119446,-0.0,0.005537767894566059,1.1823654174804688,0.0,0.012115931138396263
254.0,301.0,-5.8397,0.3182,8.0435,-0.0257,0.0261,-0.1151,-2.3349510631956996,9.80908925027372e-45,4.829127788543701,-1.3557469844818115,-0.0,1.7956640720367432,5.74789439418868,-0.0,0.1910058557987213,-1.73903733888735,-0.0,-0.0016397733706980944,0.4908487796783447,-0.0,0.004542854148894548,1.1823128461837769,0.0,0.05667920410633087
254.0,301.0,-5.8397,0.3182,8.0435,-0.0257,0.0261,-0.1151,-2.3349715671935023,0.0,4.83041524887085,-1.355738878250122,-0.0,1.8641736507415771,5.747918593674459,-0.0,0.1848510354757309,-1.738981072102682,-0.0,0.016064748167991638,0.4907883405685425,-0.0,0.0022611564490944147,1.1823052167892456,0.0,-0.032905176281929016
254.0,301.0,-5.8397,0.3182,8.0435,-0.0257,0.0261,-0.1151,-2.3349834881224574,0.0,4.844320297241211,-1.3557347059249878,-0.0,1.8129956722259521,5.747922646790304,-0.0,0.17951370775699615,-1.73903733888735,-0.0,0.014874573796987534,0.4907960891723633,-0.0,0.0012153338175266981,1.182313323020935,0.0,0.016731247305870056
254.0,301.0,-5.8397,0.3182,8.0435,-0.0257,0.0261,-0.1151,-2.334947248498434,0.0,4.776862144470215,-1.3558235168457031,-0.0,1.8489240407943726,5.7479591248329065,-0.0,0.19143012166023254,-1.7390134970294397,-0.0,-0.0011208879295736551,0.49079200625419617,-0.0,0.010985909029841423,1.1823776960372925,0.0,0.005884494632482529
254.0,301.0,-5.8397,0.3182,8.0435,-0.0257,0.0261,-0.1151,-2.334999223748678,0.0,4.813284873962402,-1.3557791709899902,-0.0,1.8396934270858765,5.747967231064596,-0.0,0.19854296743869781,-1.739049259816305,-0.0,0.019500289112329483,0.4908124804496765,-0.0,-0.0025009112432599068,1.182389736175537,0.0,0.002117765601724386
254.0,301.0,-5.8397,0.3182,8.0435,-0.0257,0.0261,-0.1151,-2.334947248498434,0.0,4.862855911254883,-1.3557634353637695,-0.0,1.8373006582260132,5.747918593674459,-0.0,0.18810296058654785,-1.7389691511737269,-0.0,0.008916934952139854,0.49079203605651855,-0.0,0.009720402769744396,1.182361364364624,0.0,0.06804144382476807
254.0,301.0,-5.8397,0.3182,8.0435,-0.0257,0.0261,-0.1151,-2.3349954090514125,0.0,4.8261871337890625,-1.3557714223861694,-0.0,1.8349220752716064,5.747883188515463,-0.0,0.1774521768093109,-1.739004913960592,-0.0,0.0052121952176094055,0.4908001720905304,-0.0,-0.0074746618047356606,1.1823371648788452,0.0,0.011687122285366058
254.0,301.0,-5.8397,0.3182,8.0435,-0.0257,0.0261,-0.1151,-2.3349629841246546,0.0,4.788544178009033,-1.35575532913208,-0.0,1.8504724502563477,5.747906195908346,-0.0,0.18092317879199982,-1.7390454451190394,-0.0,0.005860890727490187,0.4908203184604645,-0.0,0.004671343602240086,1.1823134422302246,0.0,-0.009844277985394001
254.0,301.0,-5.8397,0.3182,8.0435,-0.0257,0.0261,-0.1151,-2.33494295696401,0.0,4.834474563598633,-1.3557631969451904,-0.0,1.8445323705673218,5.747902619629659,-0.0,0.18067684769630432,-1.7390168348895472,-0.0,0.007437209133058786,0.4907960891723633,-0.0,0.009346510283648968,1.1823654174804688,0.0,-0.0026936782523989677
254.0,301.0,-5.8397,0.3182,8.0435,-0.0257,0.0261,-0.1151,-2.3349796734251917,0.0,4.812473297119141,-1.3557672500610352,-0.0,1.7990682125091553,5.747934567719259,-0.0,0.18414217233657837,-1.7389772574054163,-0.0,0.011925934813916683,0.49081993103027344,-0.0,0.015347685664892197,1.1822850704193115,0.0,-0.042917776852846146
254.0,301.0,-5.8397,0.3182,8.0435,-0.0257,0.0261,-0.1151,-2.3349677524962367,0.0,4.849049091339111,-1.3557305335998535,-0.0,1.8329747915267944,5.747918593674459,-0.0,0.189610093832016,-1.7389848867999476,-0.0,0.016218461096286774,0.4908083975315094,-0.0,0.011722985655069351,1.1823294162750244,0.0,0.009132972918450832
254.0,301.0,-5.8397,0.3182,8.0435,-0.0257,0.0261,-0.1151,-2.334902902642721,0.0,4.858956336975098,-1.355730652809143,-0.0,1.8135424852371216,5.747930753021993,-0.0,0.18878786265850067,-1.7390134970294397,-0.0,0.007230546325445175,0.490808367729187,-0.0,0.010980905964970589,1.1823453903198242,0.0,-0.025956157594919205
265.0,303.0,-5.793,0.3799,8.0225,-0.0319,0.0359,-0.1255,-2.3349229298033656,0.0,4.8298845291137695,-1.355803370475769,-0.0,1.838249683380127,5.747922646790304,-0.0,0.19431892037391663,-1.7389968077289026,-0.0,0.004020054358989,0.4908043146133423,-0.0,0.01744820736348629,1.1823174953460693,0.0,0.020258616656064987
265.0,303.0,-5.793,0.3799,8.0225,-0.0319,0.0359,-0.1255,-2.334987302819723,0.0,4.778384208679199,-1.3557915687561035,-0.0,1.81601881980896,5.7479145405586145,-0.0,0.18860691785812378,-1.739009205495016,-0.0,0.0022878346499055624,0.49077191948890686,-0.0,0.004975020419806242,1.182361364364624,0.0,-0.0034446828067302704
265.0,303.0,-5.793,0.3799,8.0225,-0.0319,0.0359,-0.1255,-2.3349510631956996,0.0,4.810476303100586,-1.355715036392212,-0.0,1.8404619693756104,5.747890221863546,-0.0,0.1860721856355667,-1.738992993031637,-0.0,0.01482291892170906,0.4907556176185608,-0.0,0.010495436377823353,1.1823371648788452,0.0,-0.0329885259270668
265.0,303.0,-5.793,0.3799,8.0225,-0.0319,0.0359,-0.1255,-2.334959646264547,0.0,4.794678688049316,-1.3557510375976562,-0.0,1.8592501878738403,5.747934686928549,-0.0,0.1887645721435547,-1.7389891783343714,-0.0,0.004208161495625973,0.4908161461353302,-0.0,-0.003685831557959318,1.1823011636734009,0.0,0.011564107611775398
265.0,303.0,-5.793,0.3799,8.0225,-0.0319,0.0359,-0.1255,-2.334987302819723,0.0,4.809200286865234,-1.3557593822479248,-0.0,1.825631022453308,5.747946488648214,-0.0,0.19053733348846436,-1.7390292326556605,-0.0,0.008139117620885372,0.4907960891723633,-0.0,-0.010397306643426418,1.1823900938034058,0.0,-0.021846186369657516
265.0,303.0,-5.793,0.3799,8.0225,-0.0319,0.0359,-0.1255,-2.3349954090514125,0.0,4.820391654968262,-1.3557993173599243,-0.0,1.8229159116744995,5.747930514603414,-0.0,0.1780284345149994,-1.7390010992633265,-0.0,0.00732377078384161,0.4908447265625,-0.0,0.015345914289355278,1.182361364364624,0.0,-0.015335403382778168
265.0,303.0,-5.793,0.3799,8.0225,-0.0319,0.0359,-0.1255,-2.334931036035055,0.0,4.837050437927246,-1.35579514503479,-0.0,1.8069636821746826,5.747934686928549,-0.0,0.20068705081939697,-1.7390411535846155,-0.0,0.007003587670624256,0.4907836616039276,-0.0,-0.0029433132149279118,1.1823253631591797,0.0,0.03806563466787338
265.0,303.0,-5.793,0.3799,8.0225,-0.0319,0.0359,-0.1255,-2.335015436212057,0.0,4.7799224853515625,-1.3557593822479248,-0.0,1.8458964824676514,5.747875559120931,-0.0,0.16987748444080353,-1.739009205495016,-0.0,0.00871078297495842,0.4908447563648224,-0.0,0.013547475449740887,1.1823776960372925,0.0,0.015171224251389503
265.0,303.0,-5.793,0.3799,8.0225,-0.0319,0.0359,-0.1255,-2.3349672756590785,0.0,4.807565689086914,-1.3557274341583252,-0.0,1.8220832347869873,5.747922646790304,-0.0,0.19454583525657654,-1.739049259816305,-0.0,0.01388305239379406,0.49083220958709717,-0.0,0.0007415064610540867,1.182353138923645,0.0,-0.0021903840824961662
265.0,303.0,-5.793,0.3799,8.0225,-0.0319,0.0359,-0.1255,-2.334987302819723,0.0,4.813412666320801,-1.3557264804840088,-0.0,1.9148170948028564,5.7479708073432825,-0.0,0.17994806170463562,-1.7390254179583948,-0.0,0.007355833891779184,0.490815669298172,-0.0,-0.0020402059890329838,1.182361364364624,0.0,0.007809542119503021
265.0,303.0,-5.793,0.3799,8.0225,-0.0319,0.0359,-0.1255,-2.3349629841246546,0.0,4.820953369140625,-1.3557915687561035,-0.0,1.8133442401885986,5.74792646148757,-0.0,0.18864287436008453,-1.7390454451190394,-0.0,0.005898987874388695,0.49079200625419617,-0.0,0.00893933605402708,1.1823211908340454,0.0,0.013108938932418823
265.0,303.0,-5.793,0.3799,8.0225,-0.0319,0.0359,-0.1255,-2.334975381890768,0.0,4.793190002441406,-1.3557796478271484,-0.0,1.8351354598999023,5.747902619629659,-0.0,0.18283388018608093,-1.7390254179583948,-0.0,0.009798125363886356,0.4907800853252411,-0.0,0.0023976110387593508,1.1823371648788452,0.0,-0.00532915536314249
265.0,303.0,-5.793,0.3799,8.0225,-0.0319,0.0359,-0.1255,-2.3349715671935023,0.0,4.802428245544434,-1.3557754755020142,-0.0,1.8279917240142822,5.747930514603414,-0.0,0.18794004619121552,-1.739033047352926,-0.0,0.010559258051216602,0.49076375365257263,-0.0,0.018847797065973282,1.1823371648788452,0.0,-0.035015325993299484
264.0,312.0,-5.8301,0.3619,8.1111,-0.0325,0.0238,-0.1148,-2.3349834881224574,0.0,4.80246639251709,-1.3558075428009033,-0.0,1.8299980163574219,5.74790250042037,-0.0,0.18550550937652588,-1.7390134970294397,-0.0,0.009621407836675644,0.4907436966896057,-0.0,0.0005439971573650837,1.182361364364624,0.0,0.0334748849272728
264.0,312.0,-5.8301,0.3619,8.1111,-0.0325,0.0238,-0.1148,-2.334935327569479,0.0,4.812010765075684,-1.3557956218719482,-0.0,1.8758506774902344,5.7479145405586145,-0.0,0.17523741722106934,-1.738981072102682,-0.0,0.004235633183270693,0.4907996952533722,-0.0,0.002778151072561741,1.1823294162750244,0.0,0.021749243140220642
264.0,312.0,-5.8301,0.3619,8.1111,-0.0325,0.0238,-0.1148,-2.334963460961813,0.0,4.816934108734131,-1.355763554573059,-0.0,1.7901089191436768,5.747930514603414,-0.0,0.1816500872373581,-1.7390254179583948,-0.0,0.011855010874569416,0.49078792333602905,-0.0,0.011057336814701557,1.182385802268982,0.0,0.006190139800310135
264.0,312.0,-5.8301,0.3619,8.1111,-0.0325,0.0238,-0.1148,-2.3349954090514125,0.0,4.834824562072754,-1.355799674987793,-0.0,1.8572373390197754,5.74791048744277,-0.0,0.190390482544899,-1.7390254179583948,-0.0,0.005285770632326603,0.4907636344432831,-0.0,0.010003277100622654,1.1823573112487793,0.0,-0.022533120587468147
264.0,312.0,-5.8301,0.3619,8.1111,-0.0325,0.0238,-0.1148,-2.334959646264547,0.0,4.8011274337768555,-1.35579514503479,-0.0,1.806079626083374,5.747906195908346,-0.0,0.18445898592472076,-1.7389524618731897,-0.0,0.01582711935043335,0.49078369140625,-0.0,0.007789179682731628,1.1823334693908691,0.0,0.012308820150792599
264.0,312.0,-5.8301,0.3619,8.1111,-0.0325,0.0238,-0.1148,-2.3349553547301234,0.0,4.823026657104492,-1.3557429313659668,-0.0,1.8159141540527344,5.747902619629659,-0.0,0.1851501762866974,-1.7390130201922815,-0.0,6.283800030359998e-05,0.49080801010131836,-0.0,-0.010597492568194866,1.1823453903198242,0.0,0.0038933721370995045
264.0,312.0,-5.8301,0.3619,8.1111,-0.0325,0.0238,-0.1148,-2.3349796734251917,0.0,4.81903076171875,-1.3557429313659668,-0.0,1.8643243312835693,5.74791048744277,-0.0,0.19467094540596008,-1.7390335241900843,-0.0,0.0045503792352974415,0.4908001720905304,-0.0,0.0060844020918011665,1.1823170185089111,0.0,-0.03350893408060074
264.0,312.0,-5.8301,0.3619,8.1111,-0.0325,0.0238,-0.1148,-2.3350354633727015,0.0,4.793572425842285,-1.355783224105835,-0.0,1.7929850816726685,5.747946488648214,-0.0,0.1842971295118332,-1.7390254179583948,-0.0,0.008848458528518677,0.49081161618232727,-0.0,0.007178300525993109,1.1823453903198242,0.0,0.011625392362475395
264.0,312.0,-5.8301,0.3619,8.1111,-0.0325,0.0238,-0.1148,-2.3349749050536097,0.0,4.886200428009033,-1.3557631969451904,-0.0,1.855466365814209,5.747963177948751,-0.0,0.1954382061958313,-1.738981072102682,-0.0,0.00921525340527296,0.49078792333602905,-0.0,0.005666215904057026,1.1823453903198242,0.0,-0.005791052244603634
264.0,312.0,-5.8301,0.3619,8.1111,-0.0325,0.0238,-0.1148,-2.334914823571676,0.0,4.807090759277344,-1.3557993173599243,-0.0,1.800295352935791,5.747938620835104,-0.0,0.18625086545944214,-1.7390015761004847,-0.0,0.007381626404821873,0.49082818627357483,-0.0,0.0075642880983650684,1.1823453903198242,0.0,-0.0031970134004950523
264.0,312.0,-5.8301,0.3619,8.1111,-0.0325,0.0238,-0.1148,-2.3349553547301234,0.0,4.790846824645996,-1.3557795286178589,-0.0,1.8405625820159912,5.747922169953146,-0.0,0.18804135918617249,-1.73906118074526,-0.0,0.005545056890696287,0.4908161759376526,-0.0,0.002430243417620659,1.1823736429214478,0.0,0.009841341525316238
264.0,312.0,-5.8301,0.3619,8.1111,-0.0325,0.0238,-0.1148,-2.3349715671935023,0.0,4.816752910614014,-1.3557109832763672,-0.0,1.8058044910430908,5.747950541764059,-0.0,0.19463880360126495,-1.7390254179583948,-0.0,0.0026174024678766727,0.49080803990364075,-0.0,0.011025860905647278,1.1823573112487793,0.0,-0.01665639877319336
264.0,312.0,-5.8301,0.3619,8.1111,-0.0325,0.0238,-0.1148,-2.334935327569479,0.0,4.7909016609191895,-1.355799674987793,-0.0,1.8071937561035156,5.747930514603414,-0.0,0.1887534111738205,-1.7390254179583948,-0.0,0.004966276232153177,0.490755558013916,-0.0,0.005411040037870407,1.1823736429214478,0.0,0.014843233861029148
264.0,312.0,-5.8301,0.3619,8.1111,-0.0325,0.0238,-0.1148,-2.3349672756590785,0.0,4.808178424835205,-1.3557190895080566,-0.0,1.8314967155456543,5.747950660973348,-0.0,0.17341764271259308,-1.7390411535846155,-0.0,0.01066111121326685,0.4907636046409607,-0.0,-0.0008118841797113419,1.1823654174804688,0.0,-0.008291345089673996
266.0,302.0,-5.7787,0.3332,8.1595,-0.0315,0.0238,-0.1188,-2.334947248498434,0.0,4.794216156005859,-1.355738878250122,-0.0,1.834295392036438,5.747902619629659,-0.0,0.17481401562690735,-1.7389691511737269,-0.0,0.011786608025431633,0.49081990122795105,-0.0,-0.005123095121234655,1.1823294162750244,0.0,0.029218729585409164
266.0,302.0,-5.7787,0.3332,8.1595,-0.0315,0.0238,-0.1188,-2.3349229298033656,0.0,4.822715759277344,-1.3557634353637695,-0.0,1.8214482069015503,5.747902619629659,-0.0,0.17826026678085327,-1.7390254179583948,-0.0,0.0025206825230270624,0.4907841682434082,-0.0,0.00218182778917253,1.1823817491531372,0.0,0.005238696001470089
266.0,302.0,-5.7787,0.3332,8.1595,-0.0315,0.0238,-0.1188,-2.334931036035055,0.0,4.807004451751709,-1.3557429313659668,-0.0,1.8676221370697021,5.747950780182638,-0.0,0.20097747445106506,-1.7390173117267054,-0.0,0.0011139974230900407,0.4908447861671448,-0.0,-0.002246865537017584,1.1823776960372925,0.0,0.03761608526110649
266.0,302.0,-5.7787,0.3332,8.1595,-0.0315,0.0238,-0.1188,-2.3349834881224574,0.0,4.8502068519592285,-1.355783224105835,-0.0,1.7462549209594727,5.747926580696859,-0.0,0.1985715925693512,-1.7390130201922815,-0.0,0.005455654114484787,0.49080801010131836,-0.0,0.011317390948534012,1.1823453903198242,0.0,0.010736420750617981
266.0,302.0,-5.7787,0.3332,8.1595,-0.0315,0.0238,-0.1188,-2.334926744500631,0.0,4.795838356018066,-1.355783224105835,-0.0,1.8658453226089478,5.747946607857504,-0.0,0.18566037714481354,-1.739009205495016,-0.0,0.015895146876573563,0.4908406138420105,-0.0,0.0071485904045403,1.182349443435669,0.0,-0.00819395575672388
266.0,302.0,-5.7787,0.3332,8.1595,-0.0315,0.0238,-0.1188,-2.334959169427389,0.0,4.835069179534912,-1.3557634353637695,-0.0,1.794421911239624,5.747930514603414,-0.0,0.17288658022880554,-1.738981072102682,-0.0,0.004396038595587015,0.4908115565776825,-0.0,0.003221781924366951,1.1823413372039795,0.0,-0.011890586465597153
266.0,302.0,-5.7787,0.3332,8.1595,-0.0315,0.0238,-0.1188,-2.3349911175169886,0.0,4.7795090675354,-1.3557751178741455,-0.0,1.8558130264282227,5.747963177948751,-0.0,0.1810697466135025,-1.739004913960592,-0.0,0.0022748156916350126,0.49078792333602905,-0.0,-0.001054477645084262,1.1823776960372925,0.0,0.019526571035385132
266.0,302.0,-5.7787,0.3332,8.1595,-0.0315,0.0238,-0.1188,-2.3349629841246546,0.0,4.779792308807373,-1.3557714223861694,-0.0,1.821274995803833,5.747930633812704,-0.0,0.1860204041004181,-1.739021126423971,-0.0,0.008615085855126381,0.49080395698547363,-0.0,0.0022693253122270107,1.1823694705963135,0.0,-0.023767083883285522
266.0,302.0,-5.7787,0.3332,8.1595,-0.0315,0.0238,-0.1188,-2.3349672756590785,0.0,4.794831275939941,-1.35575532913208,-0.0,1.818456768989563,5.747967231064596,-0.0,0.19798707962036133,-1.7390168348895472,-0.0,0.00012108642840757966,0.49080392718315125,-0.0,0.014750974252820015,1.1824055910110474,0.0,-0.008581073954701424
266.0,302.0,-5.7787,0.3332,8.1595,-0.0315,0.0238,-0.1188,-2.3349553547301234,0.0,4.7760844230651855,-1.3557754755020142,-0.0,1.8747243881225586,5.747950541764059,-0.0,0.18636968731880188,-1.7390411535846155,-0.0,0.018668800592422485,0.4908607304096222,-0.0,0.007600744254887104,1.1823694705963135,0.0,0.007321495097130537
266.0,302.0,-5.7787,0.3332,8.1595,-0.0315,0.0238,-0.1188,-2.334975381890768,0.0,4.785098552703857,-1.3557274341583252,-0.0,1.8004032373428345,5.747950541764059,-0.0,0.18686307966709137,-1.7390449682818812,-0.0,0.00015935814008116722,0.4907800853252411,-0.0,0.00812801718711853,1.182397723197937,0.0,0.05129988491535187
266.0,302.0,-5.7787,0.3332,8.1595,-0.0315,0.0238,-0.1188,-2.3349796734251917,0.0,4.8105363845825195,-1.355730652809143,-0.0,1.829779028892517,5.747890221863546,-0.0,0.1723046898841858,-1.7390573660479944,-0.0,0.0031268198508769274,0.49078369140625,-0.0,0.0070908209308981895,1.1823813915252686,0.00018804552382789552,-0.05459437146782875
266.0,302.0,-5.7787,0.3332,8.1595,-0.0315,0.0238,-0.1188,-2.334959646264547,0.0,4.812811374664307,-1.355738878250122,-0.0,1.8264307975769043,5.747902619629659,-0.0,0.19094520807266235,-1.739009205495016,-0.0,0.006803839933127165,0.490776002407074,-0.0,0.006682652980089188,1.182361364364624,0.00019343019812367857,0.03754817694425583
262.0,302.0,-5.9234,0.2584,8.1703,-0.042,0.0333,-0.1197,-2.3349110088744105,0.0,4.798062324523926,-1.355747103691101,-0.0,1.7971916198730469,5.747883188515463,-0.0,0.18994149565696716,-1.7390168348895472,-0.0,-0.005252470262348652,0.49083656072616577,-0.0,-0.004250600468367338,1.1823453903198242,0.00017466023564338684,0.007161970250308514
262.0,302.0,-5.9234,0.2584,8.1703,-0.042,0.0333,-0.1197,-2.3349105320372523,0.0,4.845184326171875,-1.3557347059249878,-0.0,1.898479700088501,5.74789439418868,-0.0,0.18436187505722046,-1.7390411535846155,-0.0,-0.0053098262287676334,0.4907796084880829,-0.0,0.012136463075876236,1.1823694705963135,0.00015921103477012366,0.018835507333278656
262.0,302.0,-5.9234,0.2584,8.1703,-0.042,0.0333,-0.1197,-2.334999223748678,2.9405100576695986e-06,4.782379627227783,-1.35575532913208,-0.0,1.7914419174194336,5.747950660973348,-0.0,0.18457823991775513,-1.73903733888735,-0.0,0.0032528394367545843,0.49084872007369995,-0.0,0.0059859538450837135,1.1823490858078003,0.00016615103231742978,0.0006027300842106342
262.0,302.0,-5.9234,0.2584,8.1703,-0.042,0.0333,-0.1197,-2.334959646264547,7.100986465502501e-12,4.820054531097412,-1.3557955026626587,-0.0,1.8054370880126953,5.747954714089193,-0.0,0.1883029341697693,-1.7390168348895472,-0.0,0.010097398422658443,0.490815669298172,-0.0,0.011863213032484055,1.1823936700820923,0.00015396895469166338,0.04213598743081093
262.0,302.0,-5.9234,0.2584,8.1703,-0.042,0.0333,-0.1197,-2.334947248498434,2.3006291658876103e-19,4.783453941345215,-1.3557631969451904,-0.0,1.8755159378051758,5.747898566513815,-0.0,0.18730445206165314,-1.7390731016742151,-0.0,0.0005612692330032587,0.4907597303390503,-0.0,0.002949184738099575,1.1823655366897583,0.00014025780546944588,0.005381113849580288
262.0,302.0,-5.9234,0.2584,8.1703,-0.042,0.0333,-0.1197,-2.3349796734251917,5.555749647207215e-25,4.826149940490723,-1.3557233810424805,-0.0,1.806655764579773,5.747950541764059,-0.0,0.18956579267978668,-1.73903733888735,-0.0,0.0030783878173679113,0.4908488094806671,-0.0,0.0007409979007206857,1.1823453903198242,0.00013147661229595542,-0.02435757964849472
262.0,302.0,-5.9234,0.2584,8.1703,-0.042,0.0333,-0.1197,-2.334975381890768,1.3416482203618643e-30,4.820720672607422,-1.3557109832763672,-0.0,1.8877899646759033,5.747918593674459,-0.0,0.1894364356994629,-1.7389972845660608,-0.0,0.012851494364440441,0.49082401394844055,-0.0,-0.001382598653435707,1.1823652982711792,0.00012373020581435412,-0.0013204124988988042
262.0,302.0,-5.9234,0.2584,8.1703,-0.042,0.0333,-0.1197,-2.3350073299803675,4.3467698225791595e-38,4.81354284286499,-1.3557151556015015,-0.0,1.824028730392456,5.747934567719259,-0.0,0.19387131929397583,-1.7390731016742151,-0.0,0.0026018458884209394,0.49085304141044617,-0.0,-0.005246220622211695,1.182425618171692,0.00011471807374618948,0.01564190536737442
262.0,302.0,-5.9234,0.2584,8.1703,-0.042,0.0333,-0.1197,-2.334935327569479,1.0509738482436128e-43,4.8231401443481445,-1.355783224105835,-0.0,1.7958589792251587,5.747942554741659,-0.0,0.19216600060462952,-1.7389972845660608,-0.0,0.0010255873203277588,0.49083220958709717,-0.0,0.006479763425886631,1.182353138923645,0.00010877595195779577,-0.02242979034781456
262.0,302.0,-5.9234,0.2584,8.1703,-0.042,0.0333,-0.1197,-2.334931036035055,-2.1452609871630557e-05,4.795638084411621,-1.3557109832763672,-0.0,1.8620458841323853,5.747902619629659,-0.0,0.2002377212047577,-1.739004913960592,-0.0,0.0046983989886939526,0.49076762795448303,-0.0,0.002164720557630062,1.182361364364624,0.00010174884664593264,0.024042479693889618
262.0,302.0,-5.9234,0.2584,8.1703,-0.042,0.0333,-0.1197,-2.334935327569479,-3.3103686291724443e-05,4.832608222961426,-1.3557714223861694,-0.0,1.788122296333313,5.747898566513815,-0.0,0.18614420294761658,-1.738992993031637,-0.0,0.0026067905128002167,0.4908321797847748,-0.0,0.0012475547846406698,1.182353138923645,9.704683907330036e-05,-0.006218763999640942
262.0,302.0,-5.9234,0.2584,8.1703,-0.042,0.0333,-0.1197,-2.334935327569479,-2.981375109811779e-05,4.799056529998779,-1.3557631969451904,-0.0,1.8544225692749023,5.747922646790304,-0.0,0.19849441945552826,-1.7389848867999476,-0.0,-0.0016554140020161867,0.4908161759376526,-0.0,0.0059753949753940105,1.1823813915252686,9.276016498915851e-05,-0.013099508360028267
262.0,302.0,-5.9234,0.2584,8.1703,-0.042,0.0333,-0.1197,-2.3349715671935023,-2.6325395083404146e-05,4.798733711242676,-1.355811595916748,-0.0,1.8201096057891846,5.747954714089193,-0.0,0.18482372164726257,-1.738992993031637,-0.0,0.01360438484698534,0.49082809686660767,-0.0,0.012323766946792603,1.1823453903198242,8.760093624005094e-05,-0.01571158692240715
267.0,305.0,-5.6614,0.3906,8.083,-0.0313,0.024,-0.1251,-2.3350278339781703,-2.4201657652156428e-05,4.8169450759887695,-1.3557109832763672,-0.0,1.820098876953125,5.747906195908346,-0.0,0.2023463249206543,-1.7390254179583948,-0.0,0.003915171604603529,0.4907841384410858,-0.0,0.007018967531621456,1.1823818683624268,8.409305883105844e-05,0.011691829189658165
267.0,305.0,-5.6614,0.3906,8.083,-0.0313,0.024,-0.1251,-2.334975381890768,-2.185124139941763e-05,4.791971683502197,-1.3557672500610352,-0.0,1.8106588125228882,5.747959005623617,-0.0,0.17848801612854004,-1.7390454451190394,-0.0,0.010414326563477516,0.4907514154911041,-0.0,0.007335323374718428,1.1823776960372925,7.983085379237309e-05,0.02169683389365673
267.0,305.0,-5.6614,0.3906,8.083,-0.0313,0.024,-0.1251,-2.3349672756590785,-2.0367708202684298e-05,4.820535659790039,-1.35575532913208,-0.0,1.8162720203399658,5.747938620835104,-0.0,0.19209134578704834,-1.7390254179583948,-0.0,0.015737922862172127,0.4908406436443329,-0.0,0.004638414364308119,1.1823936700820923,7.69072794355452e-05,-0.04808765649795532
267.0,305.0,-5.6614,0.3906,8.083,-0.0313,0.024,-0.1251,-2.334975381890768,-1.907284058688674e-05,4.8062944412231445,-1.355763554573059,-0.0,1.8563024997711182,5.747934686928549,-0.0,0.19510067999362946,-1.7390168348895472,-0.0,0.0017693510744720697,0.4908001720905304,-0.0,0.012372735887765884,1.1823093891143799,7.419032044708729e-05,-0.0460844486951828
267.0,305.0,-5.6614,0.3906,8.083,-0.0313,0.024,-0.1251,-2.3349834881224574,-1.7582402506377548e-05,4.83457612991333,-1.3557264804840088,-0.0,1.7944726943969727,5.747918593674459,-0.0,0.1969175636768341,-1.739004913960592,-0.0,0.004216071218252182,0.49081993103027344,-0.0,0.0018043641466647387,1.1823694705963135,7.08528095856309e-05,-0.019818872213363647
267.0,305.0,-5.6614,0.3906,8.083,-0.0313,0.024,-0.1251,-2.335011144677633,-1.6608992154942825e-05,4.834721565246582,-1.3557873964309692,-0.0,1.810490369796753,5.747891294747152,-0.0,0.18598371744155884,-1.7389934698687952,-0.0,0.007874054834246635,0.49078792333602905,-0.0,0.0024658311158418655,1.1823654174804688,3.172623621594539e-07,-0.019498880952596664
267.0,305.0,-5.6614,0.3906,8.083,-0.0313,0.024,-0.1251,-2.3349672756590785,-1.5467250705114566e-05,4.800397872924805,-1.3557791709899902,-0.0,1.8207744359970093,5.747934567719259,-0.0,0.17061936855316162,-1.7390173117267054,-0.0,0.008859729394316673,0.49077191948890686,-0.0,0.02163853868842125,1.1823854446411133,1.0278898127894388e-14,-0.005640167277306318
267.0,305.0,-5.6614,0.3906,8.083,-0.0313,0.024,-0.1251,-2.3349629841246546,-1.4708903108839877e-05,4.788532257080078,-1.3558075428009033,-0.0,1.8100025653839111,5.7479673502738855,-0.0,0.1829875111579895,-1.7390530745135706,-0.0,0.006323950365185738,0.490816205739975,-0.0,-0.0015359638491645455,1.1823813915252686,2.4822326627175355e-20,0.025958336889743805
267.0,305.0,-5.6614,0.3906,8.083,-0.0313,0.024,-0.1251,-2.3349791965880335,-2.7483632948133163e-05,4.887397766113281,-1.3557791709899902,-0.0,1.8350266218185425,5.7479591248329065,-0.0,0.2017814964056015,-1.7390530745135706,-0.0,0.01466332096606493,0.4907800853252411,-0.0,0.0007230550982058048,1.1823896169662476,5.994300720468183e-26,0.013763688504695892
267.0,305.0,-5.6614,0.3906,8.083,-0.0313,0.024,-0.1251,-2.3349954090514125,-2.6397863621241413e-05,4.81900691986084,-1.3557714223861694,-0.0,1.8309131860733032,5.747883188515463,-0.0,0.1918146014213562,-1.739033047352926,-0.0,0.003890921361744404,0.49081993103027344,-0.0,0.013200783170759678,1.1823694705963135,1.9420775633476878e-33,-0.026051487773656845
267.0,305.0,-5.6614,0.3906,8.083,-0.0313,0.024,-0.1251,-2.3349672756590785,-2.5285431547672488e-05,4.769647598266602,-1.35575532913208,-0.0,1.8164676427841187,5.747922646790304,-0.0,0.1827497035264969,-1.7390287558185022,-0.0,-0.006845529191195965,0.49080801010131836,-0.0,0.006507101934403181,1.1823854446411133,5.86723763262853e-05,0.019447948783636093
267.0,305.0,-5.6614,0.3906,8.083,-0.0313,0.024,-0.1251,-2.3349629841246546,-1.6057383618317544e-05,4.836031436920166,-1.3557595014572144,-0.0,1.8195407390594482,5.747891294747152,-0.0,0.18124237656593323,-1.7390530745135706,-0.0,0.008040163666009903,0.4908199608325958,-0.0,0.007175831124186516,1.182384967803955,2.3672557290410623e-05,0.04791874438524246
267.0,305.0,-5.6614,0.3906,8.083,-0.0313,0.024,-0.1251,-2.3349791965880335,-1.1510854164953344e-05,4.800392150878906,-1.35575532913208,0.0013646762818098068,1.807950735092163,5.747934567719259,-0.0,0.19195252656936646,-1.7390411535846155,-0.0,0.006726951338350773,0.4907837510108948,-0.0,0.002127503277733922,1.1823850870132446,0.0006532528786920011,0.003949877806007862
262.0,301.0,-5.9037,0.2794,8.2146,-0.0423,0.0279,-0.1179,-2.3349677524962367,-1.1085507139796391e-05,4.800597190856934,-1.3557076454162598,0.0021654756274074316,1.8453927040100098,5.747902619629659,-0.0,0.20099450647830963,-1.7389972845660608,-0.0,0.008200072683393955,0.4908643364906311,-0.0,0.0009075013804249465,1.182417392730713,0.0012700313236564398,-0.03529336303472519
262.0,301.0,-5.9037,0.2794,8.2146,-0.0423,0.0279,-0.1179,-2.33494295696401,-3.0817755031914418e-12,4.870331764221191,-1.3557395935058594,0.0034145587123930454,1.8380964994430542,5.747938620835104,-0.0,0.17869624495506287,-1.739049259816305,-0.0,0.0074904486536979675,0.4907676577568054,-0.0,0.005507329013198614,1.1824092864990234,0.0019075649324804544,0.03935694321990013
262.0,301.0,-5.9037,0.2794,8.2146,-0.0423,0.0279,-0.1179,-2.334959646264547,-7.442124945985501e-18,4.829609394073486,-1.3556594848632812,0.00363635434769094,1.8069851398468018,5.747934686928549,-0.0,0.1851663589477539,-1.7390173117267054,-0.0,0.013784139417111874,0.49080392718315125,-0.0,0.016160862520337105,1.182441234588623,0.0025634216144680977,-0.004778023809194565
262.0,301.0,-5.9037,0.2794,8.2146,-0.0423,0.0279,-0.1179,-2.3349715671935023,-2.4111538498460883e-25,4.790177345275879,-1.3556718826293945,0.004284755326807499,1.8627476692199707,5.747846591263571,-0.00021687669504899532,0.18577063083648682,-1.7390449682818812,-1.1246797981812051e-07,-0.0032573172356933355,0.49083226919174194,-0.0,0.006016877479851246,1.1824531555175781,0.00312334718182683,-0.04649883508682251
262.0,301.0,-5.9037,0.2794,8.2146,-0.0423,0.0279,-0.1179,-2.3349715671935023,-5.82265281015971e-31,4.791702747344971,-1.355635643005371,0.003282153280451894,1.8455815315246582,5.747883307724752,-0.00022659690876025707,0.19216597080230713,-1.7390897909747522,-3.1305874559350855e-11,0.009332478046417236,0.4908323287963867,-0.0,0.010509051382541656,1.1824653148651123,0.003015617374330759,0.02060386911034584
262.0,301.0,-5.9037,0.2794,8.2146,-0.0423,0.0279,-0.1179,-2.3350073299803675,-1.4061023396682768e-36,4.811605930328369,-1.3556479215621948,0.0013910142006352544,1.8653151988983154,5.747875559120931,-0.00026217318372800946,0.17305004596710205,-1.739033047352926,-8.714105554762791e-15,0.005547388456761837,0.4907841682434082,-0.0,-0.001653711311519146,1.1824531555175781,0.002135436749085784,-0.08119186758995056
262.0,301.0,-5.9037,0.2794,8.2146,-0.0423,0.0279,-0.1179,-2.334971090356344,-4.624284932271896e-44,4.828059196472168,-1.3556195497512817,0.0001226235181093216,1.8271656036376953,5.747831094055929,-0.000453165645012632,0.1827813982963562,-1.7390692869769495,-1.5837457209411984e-19,0.006531504914164543,0.4907801151275635,-0.0,-0.0003538043238222599,1.1824653148651123,0.0009193299920298159,0.01921190321445465
262.0,301.0,-5.9037,0.2794,8.2146,-0.0423,0.0279,-0.1179,-2.3349391422667445,0.0,4.8463335037231445,-1.3555917739868164,0.0003172944125253707,1.874255895614624,5.747835147171774,-0.0013068579137325287,0.18916583061218262,-1.7390130201922815,-4.408414746929375e-23,0.01510643120855093,0.49080801010131836,-0.0,0.005699585657566786,1.1824371814727783,0.0005069918697699904,-0.004225521348416805
262.0,301.0,-5.9037,0.2794,8.2146,-0.0423,0.0279,-0.1179,-2.3349553547301234,0.0,4.780776023864746,-1.3556281328201294,0.001320607028901577,1.8287999629974365,5.747803318291464,-0.0014106896705925465,0.1931106448173523,-1.7390568892108362,-8.012078013532353e-28,0.007923058234155178,0.4908156991004944,-0.0,0.01631365716457367,1.1824493408203125,0.00027954395045526326,-0.01248384453356266
262.0,301.0,-5.9037,0.2794,8.2146,-0.0423,0.0279,-0.1179,-2.3349796734251917,0.0,4.825588703155518,-1.3555879592895508,0.0018121302127838135,1.8240396976470947,5.747771966248312,-0.001198605285026133,0.19013136625289917,-1.7390735785113733,-0.00016121414955705404,0.008132015354931355,0.4907759726047516,-0.0,0.014183253049850464,1.1824572086334229,0.0001768079964676872,0.016842346638441086
262.0,301.0,-5.9037,0.2794,8.2146,-0.0423,0.0279,-0.1179,-2.3349672756590785,0.0,4.840023517608643,-1.3555594682693481,0.0016688439063727856,1.8402907848358154,5.74779628494338,-0.0007589051965624094,0.19367842376232147,-1.7390735785113733,-0.00019017013255506754,0.010326869785785675,0.49071937799453735,-0.0,0.0065851956605911255,1.1824694871902466,0.0001430087286280468,-0.05952546000480652
262.0,301.0,-5.9037,0.2794,8.2146,-0.0423,0.0279,-0.1179,-2.334947725335592,0.0,4.813648223876953,-1.355568528175354,0.0011600503930822015,1.8172860145568848,5.747819292336263,-0.0005259942263364792,0.1827409863471985,-1.7390525976764124,-0.0001950651640072465,0.009621979668736458,0.4907960891723633,-0.0,0.005034905392676592,1.182433009147644,0.00011800557695096359,0.0010482938960194588
262.0,301.0,-5.9037,0.2794,8.2146,-0.0423,0.0279,-0.1179,-2.3349391422667445,0.0,4.766803741455078,-1.3555357456207275,0.0007818485610187054,1.8454244136810303,5.74778841713027,-0.00047400189214386046,0.18893547356128693,-1.7390530745135706,-0.0001761122839525342,0.007287702988833189,0.4908406436443329,-0.0,0.015742816030979156,1.1824337244033813,0.00010432564886286855,-0.00602942006662488
265.0,305.0,-5.8588,0.0461,8.1422,-0.0359,0.0339,-0.1278,-2.334931036035055,0.0,4.816224098205566,-1.3555399179458618,0.0005450174794532359,1.8192099332809448,5.7477760193641565,-0.00041556425276212394,0.1871354877948761,-1.7390368620501917,-0.00015578731836285442,-0.00634822528809309,0.49076369404792786,-0.0,0.0024353242479264736,1.1824051141738892,-5.837572462041862e-05,0.02786765806376934
265.0,305.0,-5.8588,0.0461,8.1422,-0.0359,0.0339,-0.1278,-2.335019727746481,0.0,4.787490367889404,-1.3555678129196167,0.0004441362398210913,1.843808650970459,5.74772738197402,-0.0003596874012146145,0.18754592537879944,-1.73906118074526,-0.00014337731408886611,0.003872759873047471,0.4907597005367279,-0.0,0.003990393131971359,1.1823810338974,-8.753686415730044e-05,0.045913781970739365
265.0,305.0,-5.8588,0.0461,8.1422,-0.0359,0.0339,-0.1278,-2.3349954090514125,0.0,4.823920249938965,-1.3555357456207275,0.00037477180012501776,1.8105919361114502,5.7477760193641565,-0.0002605404588393867,0.19765426218509674,-1.7390010992633265,-0.0001327988866250962,0.008879318833351135,0.4907841682434082,-0.0,0.008708233013749123,1.1823889017105103,-0.00013261633284855634,0.030075928196310997
265.0,305.0,-5.8588,0.0461,8.1422,-0.0359,0.0339,-0.1278,-2.3349672756590785,0.0,4.827706336975098,-1.3555676937103271,0.00031018504523672163,1.7889564037322998,5.747784364014425,-0.00029574608197435737,0.18759901821613312,-1.7390692869769495,-0.00010075717000290751,-0.0019839643500745296,0.49082401394844055,-0.0,-0.0029526259750127792,1.1823850870132446,-0.0005762230139225721,0.007280070334672928
265.0,305.0,-5.8588,0.0461,8.1422,-0.0359,0.0339,-0.1278,-2.3349553547301234,0.0,4.788607597351074,-1.355523705482483,0.00027468183543533087,1.8360021114349365,5.747759330063619,-0.00043596053728833795,0.1845209300518036,-1.7390254179583948,-9.441220754524693e-05,0.006535018794238567,0.4908607304096222,-0.0,-0.00871214084327221,1.1823813915252686,-0.0005268382374197245,0.03576136752963066
265.0,305.0,-5.8588,0.0461,8.1422,-0.0359,0.0339,-0.1278,-2.3349110088744105,0.0,4.7785325050354,-1.355568528175354,0.00019336582045070827,1.8130757808685303,5.747751700669088,-0.0004885848029516637,0.19363927841186523,-1.739009205495016,-7.417648157570511e-05,0.006244349293410778,0.49086490273475647,-0.0,-0.010710866190493107,1.1823936700820923,-0.0006690759328193963,-0.05096391215920448
265.0,305.0,-5.8588,0.0461,8.1422,-0.0359,0.0339,-0.1278,-2.3349229298033656,0.0,4.799983501434326,-1.3554964065551758,0.0005626568454317749,1.8608533143997192,5.74778841713027,-0.0007880431949160993,0.17984233796596527,-1.7389934698687952,-6.585867231478915e-05,0.019817598164081573,0.4908483326435089,-0.0,0.010339630767703056,1.1823453903198242,-0.0007272844668477774,-0.030148945748806
265.0,305.0,-5.8588,0.0461,8.1422,-0.0359,0.0339,-0.1278,-2.334935327569479,0.0,4.840834617614746,-1.3555200099945068,0.0018163264030590653,1.8022265434265137,5.747739779740133,-0.0012415616074576974,0.17729374766349792,-1.7390134970294397,-6.243107782211155e-05,0.007072953972965479,0.49079564213752747,-0.0,-0.0016015605069696903,1.1823896169662476,-0.0007204602006822824,-0.015519076958298683
265.0,305.0,-5.8588,0.0461,8.1422,-0.0359,0.0339,-0.1278,-2.334947725335592,0.0,4.844053268432617,-1.3555045127868652,0.0022736801765859127,1.8338472843170166,5.747715937882223,-0.0016256747767329216,0.19002221524715424,-1.7389896551715296,-4.3802512664115056e-05,0.01893366500735283,0.4909168779850006,-0.0,-0.002436635550111532,1.1822811365127563,-0.0010385087225586176,-0.052384499460458755
265.0,305.0,-5.8588,0.0461,8.1422,-0.0359,0.0339,-0.1278,-2.3349515400328578,0.0,4.801970481872559,-1.3554682731628418,0.0024585656356066465,1.8995840549468994,5.7477080700691126,-0.0019147638231515884,0.17444242537021637,-1.7389896551715296,-4.177177106612362e-05,-0.0036366921849548817,0.4908156991004944,-0.0,-0.004829138983041048,1.1823216676712036,-0.0012934432597830892,-0.03334731608629227
265.0,305.0,-5.8588,0.0461,8.1422,-0.0359,0.0339,-0.1278,-2.3349391422667445,0.0,4.830226898193359,-1.3554444313049316,0.002482668263837695,1.8190770149230957,5.747683870583334,-0.0022847121581435204,0.19255024194717407,-1.7389853636371058,5.1077702664770186e-05,0.007989640347659588,0.4908323287963867,-0.0,0.019576482474803925,1.1823015213012695,-0.0019033276475965977,-0.03440398722887039
265.0,305.0,-5.8588,0.0461,8.1422,-0.0359,0.0339,-0.1278,-2.334926744500631,0.0,4.859189510345459,-1.3554764986038208,0.0024711228907108307,1.8695652484893799,5.747651803284445,-0.0034534961450845003,0.18717192113399506,-1.7389443556415003,5.262027480057441e-05,0.012063734233379364,0.4908442497253418,-0.0,-0.006013333797454834,1.1823416948318481,-0.0036460268311202526,-0.08582521975040436
265.0,305.0,-5.8588,0.0461,8.1422,-0.0359,0.0339,-0.1278,-2.334975381890768,0.0,4.816873073577881,-1.3554686307907104,0.0025940772611647844,1.8230119943618774,5.747595536499777,-0.005319717340171337,0.1745782345533371,-1.7389772574054163,6.518409645650536e-05,0.006739075295627117,0.4908447265625,-0.0,-0.00434034364297986,1.1822892427444458,-0.005687506403774023,-0.0518965870141983
271.0,302.0,-5.8995,0.2225,7.8562,-0.0299,0.0397,-0.1194,-2.334923406640524,0.0,4.850883483886719,-1.355436086654663,0.0024497092235833406,1.838550329208374,5.747600543289938,-0.005931288935244083,0.1872836798429489,-1.7389853636371058,6.173915608087555e-05,0.029472701251506805,0.4908885657787323,-0.0,0.004299934953451157,1.1822376251220703,-0.005046302918344736,-0.1294042021036148
271.0,302.0,-5.8995,0.2225,7.8562,-0.0299,0.0397,-0.1194,-2.3349715671935023,0.0,4.800973415374756,-1.3554649353027344,0.0023302643094211817,1.8476179838180542,5.747507917671957,-0.004460668656975031,0.18157586455345154,-1.7389686743365687,7.338921568589285e-05,0.029273929074406624,0.4908647835254669,-0.0,0.005538526456803083,1.1822212934494019,-0.0033880954142659903,-0.17303229868412018
271.0,302.0,-5.8995,0.2225,7.8562,-0.0299,0.0397,-0.1194,-2.3349434338011683,0.0,4.818863868713379,-1.3553719520568848,0.0018162921769544482,1.8441470861434937,5.747495996743002,-0.00248691882006824,0.17145010828971863,-1.738936726246969,0.0002156912669306621,0.03760041669011116,0.4908483326435089,-0.0,0.006289452314376831,1.1821653842926025,-0.0027365442365407944,-0.14346501231193542
271.0,302.0,-5.8995,0.2225,7.8562,-0.0299,0.0397,-0.1194,-2.3349715671935023,0.0,4.834221839904785,-1.3553729057312012,0.0012783652637153864,1.9017820358276367,5.747544395714559,-0.0019015383441001177,0.18499086797237396,-1.7389567534076136,0.00022659686510451138,0.02774607390165329,0.4908442497253418,-0.0,0.009523048996925354,1.182161808013916,-0.0025588609278202057,-0.14572350680828094
271.0,302.0,-5.8995,0.2225,7.8562,-0.0299,0.0397,-0.1194,-2.3349510631956996,0.0,4.8667402267456055,-1.3553688526153564,0.0009907676139846444,1.8802109956741333,5.747452485352316,-0.002464139834046364,0.17380507290363312,-1.7389934698687952,0.00021797785302624106,0.01614726334810257,0.4908280670642853,-0.0,0.0038823510985821486,1.18218994140625,-0.002259152242913842,-0.1988404095172882
271.0,302.0,-5.8995,0.2225,7.8562,-0.0299,0.0397,-0.1194,-2.33494295696401,0.0,4.834357261657715,-1.355376958847046,0.0006993907736614347,1.900519609451294,5.747444736748495,-0.004857413936406374,0.17871829867362976,-1.7389896551715296,0.00020457306527532637,0.030818797647953033,0.4908643364906311,-0.0,0.013963705860078335,1.1821695566177368,-0.001320672337897122,-0.19863569736480713
271.0,302.0,-5.8995,0.2225,7.8562,-0.0299,0.0397,-0.1194,-2.334987302819723,0.0,4.8671979904174805,-1.3553564548492432,0.0006135096773505211,1.8916435241699219,5.747384297638693,-0.006517320405691862,0.16485664248466492,-1.7389729658709925,0.0001864121586550027,0.05107700079679489,0.49083656072616577,-0.0,0.015616185963153839,1.1821576356887817,-0.0008592388476245105,-0.14537276327610016
271.0,302.0,-5.8995,0.2225,7.8562,-0.0299,0.0397,-0.1194,-2.334898611108297,0.0,4.900963306427002,-1.3553403615951538,0.0004003039503004402,1.9077484607696533,5.747333037644186,-0.009079506620764732,0.19201770424842834,-1.7390053907977503,0.00019049087131861597,0.04495029151439667,0.4907919466495514,-0.0,0.009435939602553844,1.1821576356887817,-0.0006126990774646401,-0.18825718760490417
271.0,302.0,-5.8995,0.2225,7.8562,-0.0299,0.0397,-0.1194,-2.334914823571676,0.0,4.834061622619629,-1.3553646802902222,0.0003772276104427874,1.902367115020752,5.747300851136007,-0.009061780758202076,0.17858809232711792,-1.7389410177813929,0.00017648519133217633,0.03838593512773514,0.49087628722190857,-0.0,0.008532633073627949,1.1821539402008057,-0.0004805444914381951,-0.19231370091438293
271.0,302.0,-5.8995,0.2225,7.8562,-0.0299,0.0397,-0.1194,-2.3349434338011683,0.0,4.881659030914307,-1.3552883863449097,0.0006390688940882683,1.9217894077301025,5.7472208617027185,-0.008312109857797623,0.17292366921901703,-1.738981072102682,0.00016439575119875371,0.04185200482606888,0.49083656072616577,-0.0,0.012369880452752113,1.182149887084961,-0.0005071707419119775,-0.19669288396835327
271.0,302.0,-5.8995,0.2225,7.8562,-0.0299,0.0397,-0.1194,-2.334991594354147,0.0,4.905125617980957,-1.3553006649017334,0.0013310298090800643,1.9228811264038086,5.747212874680319,-0.006255292799323797,0.1605864316225052,-1.7389686743365687,0.00015063733735587448,0.03764349967241287,0.49086031317710876,-0.0,-0.007461972534656525,1.1821777820587158,-0.000576042803004384,-0.217900812625885
271.0,302.0,-5.8995,0.2225,7.8562,-0.0299,0.0397,-0.1194,-2.3349553547301234,0.0,4.844543933868408,-1.355368733406067,0.0015860232524573803,1.8985724449157715,5.747169244080343,-0.004692234098911285,0.1758793294429779,-1.7389372030841272,0.00014174073294270784,0.045701026916503906,0.49074745178222656,-0.0,0.0015983504708856344,1.1821539402008057,-0.000572516699321568,-0.18924580514431
271.0,302.0,-5.8995,0.2225,7.8562,-0.0299,0.0397,-0.1194,-2.3349834881224574,0.0,4.869344234466553,-1.355324387550354,0.0017547431634739041,1.875964879989624,5.74713300445632,-0.0025226627476513386,0.17051392793655396,-1.7389729658709925,0.0001313939574174583,0.031145216897130013,0.4908282160758972,-0.0,-0.0019616447389125824,1.1821579933166504,-0.00048514359514229,-0.1727379411458969
265.0,310.0,-5.7506,0.3063,8.1661,-0.0315,0.0131,-0.1229,-2.3349954090514125,0.0,4.86431360244751,-1.3552889823913574,0.002112805610522628,1.9177780151367188,5.747128951340475,-0.0011652519460767508,0.17523379623889923,-1.7389610449420374,0.0001245737512363121,0.039302993565797806,0.49086856842041016,-0.0,-0.012388029135763645,1.182206392288208,-0.0003860452270600945,-0.17441287636756897
265.0,310.0,-5.7506,0.3063,8.1661,-0.0315,0.0131,-0.1229,-2.3349553547301234,0.0,4.8900322914123535,-1.3553210496902466,0.0020946883596479893,1.9082748889923096,5.74712489822463,-0.000824020360596478,0.1715439110994339,-1.7389691511737269,0.00011842655658256263,0.03601263836026192,0.49083200097084045,-0.0,0.009222833439707756,1.1821703910827637,-0.0003548276436049491,-0.18744848668575287
265.0,310.0,-5.7506,0.3063,8.1661,-0.0315,0.0131,-0.1229,-2.334931036035055,0.0,4.871609687805176,-1.3553334474563599,0.0019105011597275734,1.9182428121566772,5.74713300445632,-0.0004821822512894869,0.17346860468387604,-1.7389896551715296,0.00011111596541013569,0.03161783888936043,0.4908643066883087,-0.0,0.0040967632085084915,1.1821216344833374,-0.00033283315133303404,-0.1601775884628296
265.0,310.0,-5.7506,0.3063,8.1661,-0.0315,0.0131,-0.1229,-2.3349391422667445,0.0,4.88674259185791,-1.3552693128585815,0.0016637564403936267,1.9146599769592285,5.747137057572164,-0.0008276192820630968,0.17502079904079437,-1.7389448324786585,0.00010619908425724134,0.03665263205766678,0.49086809158325195,-0.0,-0.001819636207073927,1.1822267770767212,-0.000328335736412555,-0.19370505213737488
265.0,310.0,-5.7506,0.3063,8.1661,-0.0315,0.0131,-0.1229,-2.3350278339781703,0.0,4.891708850860596,-1.3553130626678467,0.0011436784407123923,1.9424030780792236,5.74707721450881,-0.0017334570875391364,0.1808374971151352,-1.738936726246969,0.00010028246470028535,0.042341191321611404,0.4908885061740875,-0.0,0.012236544862389565,1.1821298599243164,-0.0003164270019624382,-0.19253408908843994
265.0,310.0,-5.7506,0.3063,8.1661,-0.0315,0.0131,-0.1229,-2.3349715671935023,0.0,4.87306022644043,-1.3553173542022705,0.0009393695509061217,1.933840036392212,5.747057902603903,-0.003382923547178507,0.1686215102672577,-1.7389772574054163,9.626033715903759e-05,0.03234411031007767,0.49083611369132996,-0.0,0.008119951002299786,1.1821621656417847,-0.0002625961496960372,-0.23657725751399994
265.0,310.0,-5.7506,0.3063,8.1661,-0.0315,0.0131,-0.1229,-2.334963460961813,0.0,4.92634916305542,-1.355209231376648,0.0007494428427889943,1.9166796207427979,5.747062194138326,-0.004535362124443054,0.16172070801258087,-1.7389610449420374,9.254836186300963e-05,0.02433367446064949,0.4908561706542969,-0.0,0.0013276434037834406,1.1821739673614502,-0.00022346970217768103,-0.20870594680309296
265.0,310.0,-5.7506,0.3063,8.1661,-0.0315,0.0131,-0.1229,-2.334959169427389,0.0,4.833146572113037,-1.3552212715148926,0.0011341441422700882,1.943993330001831,5.746961700707235,-0.007299396209418774,0.17221146821975708,-1.7389329115497034,8.802266529528424e-05,0.030559564009308815,0.4908525049686432,-0.0,0.011787444353103638,1.1821340322494507,-0.0001864337973529473,-0.16704395413398743
265.0,310.0,-5.7506,0.3063,8.1661,-0.0315,0.0131,-0.1229,-2.335003515283102,0.0,4.860030174255371,-1.35519278049469,0.0019321978325024247,1.8747700452804565,5.746950018196859,-0.00876974780112505,0.15420588850975037,-1.7389448324786585,6.85926279402338e-05,0.03728633373975754,0.4907997250556946,3.955106149078347e-05,-0.0068458192981779575,1.1821699142456055,-0.00016582306125201285,-0.15494991838932037
265.0,310.0,-5.7506,0.3063,8.1661,-0.0315,0.0131,-0.1229,-2.3349067173399867,0.0,4.894276142120361,-1.3551409244537354,0.0022821822203695774,1.9196436405181885,5.746841418534078,-0.01030237227678299,0.16849085688591003,-1.7389567534076136,6.44046813249588e-05,0.03426269441843033,0.49079540371894836,8.303319418700994e-07,0.001417009043507278,1.1821379661560059,-0.0001734083198243752,-0.18554949760437012
265.0,310.0,-5.7506,0.3063,8.1661,-0.0315,0.0131,-0.1229,-2.3349510631956996,0.0,4.946091651916504,-1.3551853895187378,0.0023669712245464325,1.9156543016433716,5.746794211655416,-0.011501295492053032,0.16112279891967773,-1.738908592854635,6.175319867907092e-05,0.027329985052347183,0.4908035099506378,2.3112597946628455e-10,0.006685696076601744,1.1821298599243164,-0.00015818332030903548,-0.21265044808387756
265.0,310.0,-5.7506,0.3063,8.1661,-0.0315,0.0131,-0.1229,-2.334947248498434,0.0,4.833433151245117,-1.3551894426345825,0.002512600738555193,1.9421801567077637,5.746698367386617,-0.011566254310309887,0.14982599020004272,-1.7389448324786585,5.931146370130591e-05,0.033625684678554535,0.49080348014831543,6.433477475796881e-14,-0.0007794250268489122,1.1821056604385376,-0.00014540519623551518,-0.20814739167690277
265.0,310.0,-5.7506,0.3063,8.1661,-0.0315,0.0131,-0.1229,-2.334947248498434,0.0,4.90741491317749,-1.3551651239395142,0.002437534974887967,1.912657380104065,5.746630894928732,-0.010423400439321995,0.15214836597442627,-1.7389610449420374,5.634107947116718e-05,0.04155569523572922,0.4908241927623749,1.1692526762730536e-18,0.004772912710905075,1.1821739673614502,-0.00017414364265277982,-0.1833929717540741
265.0,310.0,-5.7506,0.3063,8.1661,-0.0315,0.0131,-0.1229,-2.3349677524962367,0.0,4.881373405456543,-1.3551610708236694,0.002606526715680957,1.91719651222229,5.746562707215109,-0.008583197370171547,0.14819756150245667,-1.7389128843890589,6.506822683149949e-05,0.03438775986433029,0.490828275680542,3.2546578365183524e-22,0.01823003590106964,1.1821461915969849,-0.0001651295751798898,-0.2356833815574646
268.0,313.0,-5.8828,0.3188,8.0961,-0.0339,0.0195,-0.1225,-2.3349672756590785,0.0,4.928993225097656,-1.3551337718963623,0.0032240834552794695,1.9778549671173096,5.746470439224996,-0.006623563356697559,0.153863787651062,-1.7389209906207483,6.216141628101468e-05,0.056147996336221695,0.49084019660949707,5.915180282790449e-27,0.010068995878100395,1.182105541229248,-0.0007221262785606086,-0.21765348315238953
268.0,313.0,-5.8828,0.3188,8.0961,-0.0339,0.0195,-0.1225,-2.3349186382689417,0.0,4.9122724533081055,-1.3551338911056519,0.003186233574524522,1.939245343208313,5.7464709160621545,-0.005377438385039568,0.15760383009910583,-1.7389491240130823,7.00895834597759e-05,0.06255882233381271,0.49086397886276245,1.6465123040894323e-30,0.011271059513092041,1.182085633277893,-0.001121438923291862,-0.2342587113380432
268.0,313.0,-5.8828,0.3188,8.0961,-0.0339,0.0195,-0.1225,-2.3349553547301234,0.0,4.856476783752441,-1.3550734519958496,0.003874615766108036,1.9680849313735962,5.746415006905355,-0.004207324702292681,0.14657995104789734,-1.7389290968524378,1.4981073093167652e-07,0.049283467233181,0.49089255928993225,4.583128036758805e-34,0.00026341783814132214,1.1821019649505615,-0.0015640400815755129,-0.2532273530960083
268.0,313.0,-5.8828,0.3188,8.0961,-0.0339,0.0195,-0.1225,-2.334931036035055,0.0,4.901561260223389,-1.3550536632537842,0.0037596106994897127,1.9238121509552002,5.7463910458381555,-0.003985241055488586,0.15442469716072083,-1.7389534155475062,8.678585436427966e-05,0.05097470059990883,0.49090439081192017,8.329609542027292e-39,0.01591317728161812,1.1820815801620483,-0.0025431544054299593,-0.2964976131916046
268.0,313.0,-5.8828,0.3188,8.0961,-0.0339,0.0195,-0.1225,-2.3349834881224574,0.0,4.921799659729004,-1.3550217151641846,0.003944926429539919,1.942107915878296,5.746355044632711,-0.0035925586707890034,0.153606116771698,-1.7389171759234827,0.0001271812798222527,0.041414596140384674,0.49083614349365234,2.3191489584575723e-42,0.011675447225570679,1.1820498704910278,-0.003937164321541786,-0.3337845206260681
268.0,313.0,-5.8828,0.3188,8.0961,-0.0339,0.0195,-0.1225,-2.3349672756590785,0.0,4.915886402130127,-1.3550307750701904,0.003782474435865879,2.022488594055176,5.746326911240377,-0.0045356713235378265,0.16799822449684143,-1.738924805318014,0.0001595876383362338,0.05752032250165939,0.49080756306648254,0.0,0.01931712217628956,1.1820499897003174,-0.00556107796728611,-0.33678776025772095
268.0,313.0,-5.8828,0.3188,8.0961,-0.0339,0.0195,-0.1225,-2.3349954090514125,0.0,4.884185791015625,-1.354941964149475,0.003940009046345949,1.9449197053909302,5.746295201569357,-0.004993162117898464,0.15779757499694824,-1.7389290968524378,0.0001697086845524609,0.06623208522796631,0.4907994568347931,0.0,0.008224773220717907,1.1820143461227417,-0.006843306124210358,-0.3101862072944641
268.0,313.0,-5.8828,0.3188,8.0961,-0.0339,0.0195,-0.1225,-2.3349434338011683,0.0,4.917230606079102,-1.3549377918243408,0.0036520615685731173,1.9949476718902588,5.746255862503805,-0.005763978697359562,0.1621113121509552,-1.7389090696917933,0.0003363018622621894,0.05789515748620033,0.49077147245407104,6.364787986967713e-05,0.008239924907684326,1.1819380521774292,-0.008395793847739697,-0.36604106426239014
268.0,313.0,-5.8828,0.3188,8.0961,-0.0339,0.0195,-0.1225,-2.334947248498434,0.0,4.924206733703613,-1.354926347732544,0.003983283881098032,1.9799103736877441,5.746187674790182,-0.00703000882640481,0.15930582582950592,-1.7389691511737269,0.0003085838397964835,0.06804236024618149,0.49079564213752747,9.323439007857814e-05,0.0076860967092216015,1.1819024085998535,-0.009893933311104774,-0.36246758699417114
268.0,313.0,-5.8828,0.3188,8.0961,-0.0339,0.0195,-0.1225,-2.334931036035055,0.0,4.971851825714111,-1.3549304008483887,0.003749422263354063,1.9621806144714355,5.746203887253561,-0.007958239875733852,0.1469983160495758,-1.7389252821551722,0.00026856822660192847,0.06802213191986084,0.4907994270324707,8.777884795563295e-05,0.009878366254270077,1.181842565536499,-0.01045724656432867,-0.3968169391155243
268.0,313.0,-5.8828,0.3188,8.0961,-0.0339,0.0195,-0.1225,-2.3349272213377894,0.0,4.9510297775268555,-1.354889988899231,0.00289250654168427,2.024488925933838,5.7460999367530725,-0.010030697099864483,0.1506541222333908,-1.7389052549945276,0.0002613268152344972,0.05552828684449196,0.490884393453598,8.142551087075844e-05,0.01943180523812771,1.1817705631256104,-0.012221542187035084,-0.3745698034763336
268.0,313.0,-5.8828,0.3188,8.0961,-0.0339,0.0195,-0.1225,-2.334954877892965,0.0,4.925624847412109,-1.3548507690429688,0.002142566256225109,1.9803948402404785,5.746088492661276,-0.011093809269368649,0.14387977123260498,-1.738941494618551,0.00023240287555381656,0.06638171523809433,0.49088025093078613,7.723287853877991e-05,0.015922456979751587,1.181634783744812,-0.012931140139698982,-0.3569703698158264
268.0,313.0,-5.8828,0.3188,8.0961,-0.0339,0.0195,-0.1225,-2.3349510631956996,0.0,4.928847312927246,-1.354870319366455,0.0016774166142567992,2.02371883392334,5.745984422951498,-0.011899741366505623,0.15692198276519775,-1.738917652760641,0.00023517549561802298,0.0751287043094635,0.49085208773612976,7.345091580646113e-05,0.015056724660098553,1.1815589666366577,-0.01425150316208601,-0.38380104303359985
271.0,311.0,-5.7541,0.4217,8.0483,-0.0368,0.0105,-0.1271,-2.334991594354147,0.0,4.935735702514648,-1.3548827171325684,0.0010062968358397484,1.9837818145751953,5.745844590454855,-0.016177508980035782,0.15882240235805511,-1.7389453093158167,0.00021108885994181037,0.06190171837806702,0.49086856842041016,6.894916441524401e-05,-0.0061513502150774,1.181503415107727,-0.01562160812318325,-0.39989274740219116
271.0,311.0,-5.7541,0.4217,8.0483,-0.0368,0.0105,-0.1271,-2.3349629841246546,0.0,4.9321489334106445,-1.3548507690429688,0.0008895175997167826,2.038900852203369,5.745744693070211,-0.021983850747346878,0.15179046988487244,-1.738917652760641,0.00019402238831389695,0.06972163915634155,0.49092456698417664,6.591912097064778e-05,0.0017041054088622332,1.1813390254974365,-0.016401562839746475,-0.4177040755748749
271.0,311.0,-5.7541,0.4217,8.0483,-0.0368,0.0105,-0.1271,-2.334947248498434,0.0,4.945363998413086,-1.3548424243927002,0.0008138262783177197,1.9701107740402222,5.745521294861593,-0.0348937101662159,0.15427875518798828,-1.7388933340655726,0.00017514264618512243,0.057378292083740234,0.4909324049949646,6.227039557415992e-05,0.022120147943496704,1.1812595129013062,-0.01833624392747879,-0.43961548805236816
271.0,311.0,-5.7541,0.4217,8.0483,-0.0368,0.0105,-0.1271,-2.3349672756590785,0.0,4.922998428344727,-1.3548424243927002,0.001119838678278029,2.006598711013794,5.745257723122396,-0.053140781819820404,0.13470318913459778,-1.7389252821551722,0.00016323020099662244,0.06279424577951431,0.49085623025894165,5.978834451525472e-05,0.0006048227660357952,1.1811443567276,-0.01919209584593773,-0.4224160313606262
271.0,311.0,-5.7541,0.4217,8.0483,-0.0368,0.0105,-0.1271,-2.3349672756590785,0.0,4.977193355560303,-1.3548669815063477,0.0017098390962928534,1.9681510925292969,5.744842159539022,-0.07933846116065979,0.12119534611701965,-1.7389090696917933,0.00012965765199624002,0.057477518916130066,0.4908483326435089,5.749658157583326e-05,-0.000497852626722306,1.1809759140014648,-0.020357714965939522,-0.43571436405181885
271.0,311.0,-5.7541,0.4217,8.0483,-0.0368,0.0105,-0.1271,-2.3349434338011683,0.0,4.9864349365234375,-1.3548308610916138,0.0027000741101801395,1.9785399436950684,5.7440727827842615,-0.11913206428289413,0.10425766557455063,-1.738913361226217,0.00011497511150082573,0.06504138559103012,0.49087217450141907,5.470095493365079e-05,0.0020327745005488396,1.180844783782959,-0.02266012132167816,-0.4595760107040405
271.0,311.0,-5.7541,0.4217,8.0483,-0.0368,0.0105,-0.1271,-2.3349553547301234,0.0,4.978836536407471,-1.3547909259796143,0.00412600114941597,2.0367650985717773,5.743246066361227,-0.13636307418346405,0.10536287724971771,-1.7389372030841272,0.00010678933904273435,0.0733833909034729,0.4908885061740875,5.277636228129268e-05,0.011892550624907017,1.1806846857070923,-0.025532331317663193,-0.44470298290252686
271.0,311.0,-5.7541,0.4217,8.0483,-0.0368,0.0105,-0.1271,-2.3349434338011683,0.0,4.974088668823242,-1.3547314405441284,0.007346147205680609,2.0008277893066406,5.742100465088644,-0.14436812698841095,0.1014157235622406,-1.7388690153705042,9.7530813945923e-05,0.060866162180900574,0.490860253572464,5.04114395880606e-05,0.01030229963362217,1.1804693937301636,-0.03047814406454563,-0.4411734342575073
271.0,311.0,-5.7541,0.4217,8.0483,-0.0368,0.0105,-0.1271,-2.33494295696401,0.0,4.936460494995117,-1.3546394109725952,0.008643114939332008,2.0253498554229736,5.7411783812339685,-0.17885343730449677,0.10166828334331512,-1.738941494618551,9.157637396128848e-05,0.06039002537727356,0.4909003973007202,4.1927157212739985e-07,0.010172992944717407,1.180261254310608,-0.03441384807229042,-0.4662272334098816
271.0,311.0,-5.7541,0.4217,8.0483,-0.0368,0.0105,-0.1271,-2.334935327569479,0.0,4.989108562469482,-1.3546154499053955,0.011178011074662209,1.985167384147644,5.739940750389852,-0.20381946861743927,0.07673122733831406,-1.7389090696917933,0.00010298475535819307,0.07784418761730194,0.49085208773612976,1.1670579780354018e-10,0.0036796927452087402,1.1800743341445923,-0.041272640228271484,-0.46785852313041687
271.0,311.0,-5.7541,0.4217,8.0483,-0.0368,0.0105,-0.1271,-2.3349434338011683,0.0,4.994111061096191,-1.3545314073562622,0.013510790653526783,1.993713617324829,5.738234150200643,-0.21206076443195343,0.07681392133235931,-1.7389252821551722,9.618896001484245e-05,0.07096177339553833,0.4908401668071747,2.121070449812544e-15,0.005952483508735895,1.1796990633010864,-0.05133362114429474,-0.5158151388168335
271.0,311.0,-5.7541,0.4217,8.0483,-0.0368,0.0105,-0.1271,-2.334935327569479,0.0,4.929973125457764,-1.3544479608535767,0.015259514562785625,2.022618293762207,5.736876833229818,-0.23454661667346954,0.07535628974437714,-1.738868538533346,9.130949911195785e-05,0.07539185136556625,0.49084794521331787,5.904078653291779e-19,0.005195388570427895,1.1793872117996216,-0.05662202462553978,-0.4628177583217621
271.0,311.0,-5.7541,0.4217,8.0483,-0.0368,0.0105,-0.1271,-2.3349434338011683,0.0,4.952110290527344,-1.3542602062225342,0.01897888258099556,2.032418727874756,5.734965431481161,-0.24352619051933289,0.06533534079790115,-1.738913361226217,8.552482904633507e-05,0.07304947078227997,0.4908762574195862,1.0730371600463893e-23,0.003144991584122181,1.1789122819900513,-0.06164167448878288,-0.47832930088043213
268.0,325.0,-6.6054,0.411,8.3665,0.0322,-0.1452,-0.1264,-2.3349553547301234,0.0,4.917571544647217,-1.3541853427886963,0.021692821756005287,1.973074197769165,5.733357298165121,-0.2784237563610077,0.04511352628469467,-1.7388971487628382,8.164552855305374e-05,0.059822410345077515,0.4909209907054901,2.9868388542746444e-27,0.009339949116110802,1.1785489320755005,-0.06478910893201828,-0.5063940286636353
268.0,325.0,-6.6054,0.411,8.3665,0.0322,-0.1452,-0.1264,-2.3349510631956996,0.0,4.978026390075684,-1.354005217552185,0.025064829736948013,2.019360303878784,5.731661546021261,-0.2865220308303833,0.03215469419956207,-1.738929573689596,7.810288661858067e-05,0.05958210676908493,0.49085262417793274,8.313975318789632e-31,0.008660521358251572,1.1781259775161743,-0.06518206000328064,-0.46228158473968506
268.0,325.0,-6.6054,0.411,8.3665,0.0322,-0.1452,-0.1264,-2.3349515400328578,0.0,4.973590850830078,-1.353801965713501,0.03140917420387268,2.070559024810791,5.729279386788168,-0.30781611800193787,0.0230339914560318,-1.738929573689596,7.383143383776769e-05,0.059130262583494186,0.49083614349365234,1.511024089106236e-35,0.017480000853538513,1.1775710582733154,-0.06827695667743683,-0.46963202953338623
268.0,325.0,-6.6054,0.411,8.3665,0.0322,-0.1452,-0.1264,-2.3349672756590785,0.0,4.983409881591797,-1.353615403175354,0.038071490824222565,2.0183870792388916,5.727412092476644,-0.31209421157836914,0.0462263748049736,-1.7388933340655726,7.970237493282184e-05,0.07352304458618164,0.49088457226753235,4.205990334178617e-39,0.012712438590824604,1.177183985710144,-0.07068954408168793,-0.501198947429657
268.0,325.0,-6.6054,0.411,8.3665,0.0322,-0.1452,-0.1264,-2.3349553547301234,0.0,4.957823753356934,-1.3532763719558716,0.046228691935539246,2.078486919403076,5.724974262505331,-0.31790655851364136,0.0352247916162014,-1.7389453093158167,7.861280755605549e-05,0.06160217523574829,0.4908643364906311,7.707141553786494e-44,0.018294628709554672,1.1765893697738647,-0.07122725993394852,-0.4919036626815796
268.0,325.0,-6.6054,0.411,8.3665,0.0322,-0.1452,-0.1264,-2.335003515283102,3.9450691247111536e-07,4.994048118591309,-1.3529139757156372,0.052521251142024994,2.0509591102600098,5.723038899689474,-0.33338674902915955,0.012289302423596382,-1.7388971487628382,8.111284842016175e-05,0.06901296973228455,0.4907595217227936,0.0,-0.005346149206161499,1.1761902570724487,-0.06860458105802536,-0.5195069313049316
268.0,325.0,-6.6054,0.411,8.3665,0.0322,-0.1452,-0.1264,-2.335015436212057,9.526877984417093e-13,5.036445140838623,-1.352647304534912,0.059182360768318176,2.1300852298736572,5.720976221352377,-0.3364294469356537,0.029736589640378952,-1.7389252821551722,8.358380000572652e-05,0.06023493781685829,0.4908442497253418,0.0,0.0044188834726810455,1.1757755279541016,-0.06859254091978073,-0.5199522376060486
268.0,325.0,-6.6054,0.411,8.3665,0.0322,-0.1452,-0.1264,-2.3349672756590785,3.086587297237543e-20,4.980866432189941,-1.3520610332489014,0.07176095247268677,2.109126091003418,5.718150365143575,-0.3512420654296875,0.02745387703180313,-1.7389057318316858,7.987622666405514e-05,0.07015928626060486,0.49080756306648254,0.0,-0.0012781989062204957,1.1751723289489746,-0.07290765643119812,-0.5196130871772766
268.0,325.0,-6.6054,0.411,8.3665,0.0322,-0.1452,-0.1264,-2.3349791965880335,7.45374516412396e-26,4.978934288024902,-1.351557731628418,0.08045168966054916,2.0737218856811523,5.715987431793966,-0.3554351329803467,0.026914898306131363,-1.7389052549945276,8.653253047441467e-08,0.06156451255083084,0.49087631702423096,0.0,0.006968486122786999,1.1747938394546509,-0.07956048846244812,-0.5326476097106934
268.0,325.0,-6.6054,0.411,8.3665,0.0322,-0.1452,-0.1264,-2.3349749050536097,2.414919063939999e-33,4.956914901733398,-1.3508610725402832,0.09405740350484848,2.0927858352661133,5.713215100556173,-0.35867276787757874,0.02710915543138981,-1.738901440297262,1.5726858834316793e-12,0.07595686614513397,0.490860253572464,0.0,0.0018087703501805663,1.1741065979003906,-0.08743374794721603,-0.5163196325302124
268.0,325.0,-6.6054,0.411,8.3665,0.0322,-0.1452,-0.1264,-2.3350192509093226,5.83174458262359e-39,4.969315052032471,-1.3502988815307617,0.09923115372657776,2.1100378036499023,5.711057293206014,-0.35940974950790405,0.037523701786994934,-1.738929573689596,4.3776293252525706e-16,0.061327941715717316,0.4908159375190735,0.0,-0.0005128108896315098,1.1735918521881104,-0.09008172154426575,-0.5463303327560425
268.0,325.0,-6.6054,0.411,8.3665,0.0322,-0.1452,-0.1264,-2.334986825982565,1.401298464324817e-44,4.965593338012695,-1.3497376441955566,0.09857676923274994,2.1350347995758057,5.70890639999465,-0.3686009645462036,0.02499513328075409,-1.7389009634601038,1.218529195380727e-19,0.06294757127761841,0.4908156991004944,0.0,-0.0005796296172775328,1.173113226890564,-0.0894579142332077,-0.4830569624900818
268.0,325.0,-6.6054,0.411,8.3665,0.0322,-0.1452,-0.1264,-2.3350073299803675,0.0,4.958888530731201,-1.3489283323287964,0.09891223162412643,2.1411216259002686,5.705909776478567,-0.37328362464904785,0.008757134899497032,-1.7389410177813929,2.2146165508812597e-24,0.054990462958812714,0.4908442497253418,0.0,0.005122093483805656,1.1723383665084839,-0.08939813077449799,-0.4701613783836365
271.0,360.0,-6.0066,0.6126,8.47,0.0898,-0.2543,-0.144,-2.334971090356344,0.0,4.94802713394165,-1.3482869863510132,0.10402888059616089,2.1289074420928955,5.703782903939047,-0.3577994406223297,0.04524530470371246,-1.7389615217791956,6.1644669732985965e-28,0.05007424205541611,0.49085256457328796,0.0,-0.0023644345346838236,1.1718196868896484,-0.08812101185321808,-0.4801812767982483
271.0,360.0,-6.0066,0.6126,8.47,0.0898,-0.2543,-0.144,-2.3349787197508753,0.0,4.961939811706543,-1.3474094867706299,0.1127171441912651,2.1189279556274414,5.700954544335165,-0.3538092374801636,0.04679712653160095,-1.7388971487628382,1.1203614617168144e-32,0.05385980010032654,0.4908483326435089,0.0,-0.00023405440151691437,1.1710972785949707,-0.08219471573829651,-0.4529563784599304
271.0,360.0,-6.0066,0.6126,8.47,0.0898,-0.2543,-0.144,-2.335027357141012,0.0,4.95145320892334,-1.3466917276382446,0.11770538985729218,2.1448843479156494,5.698843109398641,-0.3590756356716156,0.02633344754576683,-1.7389052549945276,3.118567356421002e-36,0.05451052635908127,0.49079614877700806,0.0,0.000721871096175164,1.1706665754318237,-0.0738273486495018,-0.45939913392066956
271.0,360.0,-6.0066,0.6126,8.47,0.0898,-0.2543,-0.144,-2.335071702996725,0.0,4.921911716461182,-1.3460229635238647,0.125694140791893,2.104412794113159,5.696748840599813,-0.338093638420105,0.03860419988632202,-1.7389052549945276,8.68065162292223e-40,0.049194201827049255,0.4908401668071747,0.0,-0.0054671671241521835,1.170211672782898,-0.06886900961399078,-0.38959160447120667
271.0,360.0,-6.0066,0.6126,8.47,0.0898,-0.2543,-0.144,-2.335099836389059,-0.0011509205214679241,4.970662593841553,-1.344997525215149,0.13304905593395233,2.142925262451172,5.694215583592214,-0.31375545263290405,0.07618635892868042,-1.738901440297262,1.5414283107572988e-44,0.05655379593372345,0.49081161618232727,0.0,0.006218213587999344,1.1696933507919312,-0.0688888356089592,-0.434883713722229
271.0,360.0,-6.0066,0.6126,8.47,0.0898,-0.2543,-0.144,-2.335106988946432,-0.002008727053180337,4.963675022125244,-1.3441834449768066,0.12741930782794952,2.128741979598999,5.692292022496023,-0.31550106406211853,0.06391678750514984,-1.7389252821551722,0.0,0.05236886441707611,0.49081161618232727,0.0,0.001548578031361103,1.1692733764648438,-0.06835949420928955,-0.4107673168182373
271.0,360.0,-6.0066,0.6126,8.47,0.0898,-0.2543,-0.144,-2.335106988946432,-0.0011530964402481914,4.962882041931152,-1.3432307243347168,0.12278439849615097,2.1668996810913086,5.68985007980422,-0.29291200637817383,0.07440007477998734,-1.738913361226217,0.0,0.061318427324295044,0.49080753326416016,0.0,0.00206075725145638,1.1687829494476318,-0.06605279445648193,-0.3800773620605469
271.0,360.0,-6.0066,0.6126,8.47,0.0898,-0.2543,-0.144,-2.3350588283934535,-0.0006513559492304921,4.935080528259277,-1.3424327373504639,0.12171091884374619,2.101418972015381,5.688127326756277,-0.28938210010528564,0.06977711617946625,-1.7389252821551722,0.0,0.06410441547632217,0.4908115565776825,0.0,-0.0009204940870404243,1.168407917022705,-0.05967450514435768,-0.3751564025878906
271.0,360.0,-6.0066,0.6126,8.47,0.0898,-0.2543,-0.144,-2.335083147088522,-0.0003632527659647167,4.89894437789917,-1.34170401096344,0.12205930054187775,2.1159510612487793,5.686419415264883,-0.2686833441257477,0.09413913637399673,-1.7389496008502405,0.0,0.05650299787521362,0.4908483326435089,0.0,-0.006413956172764301,1.1680526733398438,-0.052331820130348206,-0.3479576110839844
271.0,360.0,-6.0066,0.6126,8.47,0.0898,-0.2543,-0.144,-2.335039278069967,0.0001514905015937984,4.8997368812561035,-1.340653657913208,0.1292569637298584,2.170642375946045,5.684267687588491,-0.2563755512237549,0.09250196814537048,-1.7389128843890589,0.0,0.04444807022809982,0.4908401668071747,0.0,0.013102109543979168,1.167609691619873,-0.049834538251161575,-0.38198617100715637
271.0,360.0,-6.0066,0.6126,8.47,0.0898,-0.2543,-0.144,-2.3350349865355433,0.000186278106411919,4.945807933807373,-1.3398767709732056,0.13169845938682556,2.118326187133789,5.682834434300222,-0.23258310556411743,0.1048254519701004,-1.738941494618551,0.0,0.05534356087446213,0.4908319413661957,0.0,-0.0032023380044847727,1.1673060655593872,-0.05043840408325195,-0.32610881328582764
271.0,360.0,-6.0066,0.6126,8.47,0.0898,-0.2543,-0.144,-2.335026880303854,0.00014598571578972042,4.935983657836914,-1.3387742042541504,0.1354302167892456,2.116359233856201,5.680978286057272,-0.2231840342283249,0.11042092740535736,-1.7389453093158167,0.0,0.05544009432196617,0.4908643364906311,0.0,0.008723294362425804,1.1668988466262817,-0.05014717951416969,-0.3342558741569519
271.0,360.0,-6.0066,0.6126,8.47,0.0898,-0.2543,-0.144,-2.3350588283934535,8.37474362924695e-05,4.929338455200195,-1.338061809539795,0.13771182298660278,2.1661784648895264,5.679732668190756,-0.20380187034606934,0.11150912940502167,-1.7389496008502405,0.0,0.04774395748972893,0.49080753326416016,0.0,-0.007000896148383617,1.166659951210022,-0.04585230350494385,-0.31075161695480347
297.0,430.0,-4.7677,0.2088,8.452,0.0151,-0.1196,-0.1509,-2.3350750408568324,3.69182089343667e-05,4.970775127410889,-1.3372083902359009,0.14013318717479706,2.1208434104919434,5.678470480232992,-0.21392807364463806,0.12010934948921204,-1.7389653364764612,0.0,0.0508430041372776,0.4907996952533722,0.0,0.008545344695448875,1.1663600206375122,-0.039473965764045715,-0.33484354615211487
297.0,430.0,-4.7677,0.2088,8.452,0.0151,-0.1196,-0.1509,-2.3350631199278773,7.218161068855977e-10,4.907810688018799,-1.3360295295715332,0.14048674702644348,2.129596710205078,5.676845419197836,-0.19016605615615845,0.11845113337039948,-1.738901440297262,0.0,0.05449902266263962,0.49084794521331787,0.0,-0.0036959198769181967,1.1660369634628296,-0.03141726925969124,-0.3292568325996399
297.0,430.0,-4.7677,0.2088,8.452,0.0151,-0.1196,-0.1509,-2.335111280480856,1.7431006318251521e-15,4.910209655761719,-1.3352125883102417,0.1414479911327362,2.136183261871338,5.675759422570028,-0.17427034676074982,0.13363082706928253,-1.738913361226217,0.0,0.045411765575408936,0.4908647835254669,0.0,0.005195935256779194,1.1659178733825684,-0.02923094853758812,-0.35754141211509705
297.0,430.0,-4.7677,0.2088,8.452,0.0151,-0.1196,-0.1509,-2.335095544854635,5.647425559307187e-23,4.901740074157715,-1.3340624570846558,0.1389729380607605,2.1480374336242676,5.674365567951956,-0.16309483349323273,0.12833406031131744,-1.7388971487628382,0.0,0.039264485239982605,0.4908442199230194,0.0,0.00012371654156595469,1.1656702756881714,-0.024252479895949364,-0.33016979694366455
297.0,430.0,-4.7677,0.2088,8.452,0.0151,-0.1196,-0.1509,-2.335050722161764,1.3637866233245729e-28,4.960195541381836,-1.3332245349884033,0.13814446330070496,2.1114344596862793,5.673490750580587,-0.13477885723114014,0.14307266473770142,-1.7389333883868616,0.0,0.045898422598838806,0.4908115863800049,0.0,0.023291440680623055,1.1655707359313965,-0.020948762074112892,-0.3062264919281006
297.0,430.0,-4.7677,0.2088,8.452,0.0151,-0.1196,-0.1509,-2.335079332391256,3.293384359408726e-34,4.917888164520264,-1.3323709964752197,0.14160627126693726,2.1535234451293945,5.672764706402578,-0.11554872244596481,0.1678066849708557,-1.7389057318316858,0.0,0.055037111043930054,0.490892618894577,0.0,0.014954907819628716,1.1654589176177979,-0.01598573848605156,-0.36810052394866943
297.0,430.0,-4.7677,0.2088,8.452,0.0151,-0.1196,-0.1509,-2.335038801232809,1.0669486507369157e-41,4.94923210144043,-1.3312379121780396,0.14876338839530945,2.1737866401672363,5.671826052456655,-0.1274252086877823,0.151102676987648,-1.7389372030841272,0.0,0.06685858964920044,0.490828275680542,0.0,0.0007626133738085628,1.1653549671173096,-0.007656479720026255,-0.3324417173862457
297.0,430.0,-4.7677,0.2088,8.452,0.0151,-0.1196,-0.1509,-2.335095544854635,0.0,4.910593509674072,-1.3303643465042114,0.15526345372200012,2.1698708534240723,5.671059357910909,-0.12207619845867157,0.14697100222110748,-1.738917652760641,0.0,0.05114714056253433,0.49085262417793274,0.0,-0.007428411860018969,1.1652871370315552,-0.003513201605528593,-0.3238205313682556
297.0,430.0,-4.7677,0.2088,8.452,0.0151,-0.1196,-0.1509,-2.335038801232809,0.0,4.950873374938965,-1.3290212154388428,0.15849320590496063,2.1655433177948,5.670213746815481,-0.0973188579082489,0.16288402676582336,-1.7388933340655726,0.0,0.05348673835396767,0.4908647835254669,0.0,0.006765431724488735,1.1652793884277344,-0.0012117495061829686,-0.32231730222702026
