ramyac6/ROB537/final_project/csv/good/good_213.csv
tof_0,tof_1,accelx,accely,accelz,gyrox,gyroy,gyroz,shoulder_lift_joint_position,shoulder_lift_joint_velocity,shoulder_lift_joint_effort,elbow_joint_position,elbow_joint_velocity,elbow_joint_effort,wrist_1_joint_position,wrist_1_joint_velocity,wrist_1_joint_effort,wrist_2_joint_position,wrist_2_joint_velocity,wrist_2_joint_effort,wrist_3_joint_position,wrist_3_joint_velocity,wrist_3_joint_effort,shoulder_pan_joint_position,shoulder_pan_joint_velocity,shoulder_pan_joint_effort
165.0,234.0,6.4534,-3.6042,5.4257,-0.0374,0.0261,-0.1223,-2.045269628564352,0.0,3.9664740562438965,-0.7189152836799622,-0.0,2.037087917327881,3.4457875925251464,0.0,0.25634765625,-1.230305020009176,-0.0,-0.042263492941856384,0.9058553576469421,-0.0,0.0010707504115998745,1.436540961265564,0.0,0.011933672241866589
165.0,234.0,6.4534,-3.6042,5.4257,-0.0374,0.0261,-0.1223,-2.0452448330321253,0.0,3.9767065048217773,-0.7188987731933594,-0.0,2.028777599334717,3.445779486293457,0.0,0.24755215644836426,-1.23033315340151,-0.0,-0.031973257660865784,0.905898928642273,-0.0,-0.014881672337651253,1.4365692138671875,0.0,0.012366291135549545
165.0,234.0,6.4534,-3.6042,5.4257,-0.0374,0.0261,-0.1223,-2.045249124566549,0.0,4.003923416137695,-0.7188703417778015,-0.0,2.0049664974212646,3.445734663600586,0.0,0.2610565423965454,-1.2303250471698206,-0.0,-0.022121956571936607,0.905894935131073,-0.0,-0.0017972124041989446,1.4366053342819214,0.0,-0.02022310346364975
165.0,234.0,6.4534,-3.6042,5.4257,-0.0374,0.0261,-0.1223,-2.045248647729391,0.0,4.011586666107178,-0.7188661694526672,-0.0,2.028062105178833,3.445718927974365,0.0,0.25304874777793884,-1.2303207556353968,-0.0,-0.018892738968133926,0.9058672189712524,-0.0,-7.499009370803833e-06,1.4365774393081665,0.0,-0.014171099290251732
165.0,234.0,6.4534,-3.6042,5.4257,-0.0374,0.0261,-0.1223,-2.0452448330321253,0.0,4.034419059753418,-0.7188542485237122,-0.0,2.021186351776123,3.445763273830078,0.0,0.25699299573898315,-1.2303569952594202,-0.0,-0.028086816892027855,0.9059028625488281,-0.0,-0.012434125877916813,1.4365650415420532,0.0,-0.014739258214831352
165.0,234.0,6.4534,-3.6042,5.4257,-0.0374,0.0261,-0.1223,-2.0452853641905726,0.0,4.005490303039551,-0.7188992500305176,-0.0,2.036802291870117,3.445767565364502,0.0,0.25551098585128784,-1.2302854696856897,-0.0,-0.03661120682954788,0.9058672189712524,-0.0,-0.0187828429043293,1.4366134405136108,0.0,-0.0027402699925005436
168.0,237.0,6.3511,-3.6227,5.7171,-0.044,0.0228,-0.1231,-2.045249124566549,0.0,4.015019416809082,-0.718914806842804,-0.0,2.0561184883117676,3.4457995134541015,0.0,0.24900564551353455,-1.23033315340151,-0.0,-0.02118375338613987,0.9059147834777832,-0.0,-0.004600397311151028,1.4365291595458984,0.0,0.0002761757932603359
168.0,237.0,6.3511,-3.6227,5.7171,-0.044,0.0228,-0.1231,-2.045269628564352,0.0,3.9880292415618896,-0.718874454498291,-0.0,2.047254800796509,3.445747061366699,0.0,0.24581089615821838,-1.2303326765643519,-0.0,-0.023674320429563522,0.9059471487998962,-0.0,-0.0070800455287098885,1.4365975856781006,0.0,-0.031269621104002
168.0,237.0,6.3511,-3.6227,5.7171,-0.044,0.0228,-0.1231,-2.045225282708639,0.0,4.039613723754883,-0.7188661694526672,-0.0,2.037109136581421,3.4457670885273437,0.0,0.2501262426376343,-1.230372730885641,-0.0,-0.021842634305357933,0.9058870673179626,-0.0,-0.01612178422510624,1.4365049600601196,0.0,-0.029809292405843735
168.0,237.0,6.3511,-3.6227,5.7171,-0.044,0.0228,-0.1231,-2.0452405414977015,0.0,3.9749531745910645,-0.7189390063285828,-0.0,2.0237841606140137,3.445755644435547,0.0,0.24451524019241333,-1.2303608099566858,-0.0,-0.030258245766162872,0.9058553576469421,-0.0,0.013748024590313435,1.4365975856781006,0.0,-0.002430927474051714
168.0,237.0,6.3511,-3.6227,5.7171,-0.044,0.0228,-0.1231,-2.045224805871481,0.0,4.038700580596924,-0.7188542485237122,-0.0,2.042773962020874,3.4457270342060546,0.0,0.2652450203895569,-1.2303569952594202,-0.0,-0.034272752702236176,0.9058513045310974,-0.0,-0.005532420706003904,1.4366016387939453,0.0,-0.027195848524570465
168.0,237.0,6.3511,-3.6227,5.7171,-0.044,0.0228,-0.1231,-2.0452448330321253,0.0,3.9849302768707275,-0.7189111709594727,-0.0,2.0441551208496094,3.4457270342060546,0.0,0.24970027804374695,-1.2303412596331995,-0.0,-0.035752102732658386,0.9058830142021179,-0.0,-0.00331330019980669,1.4365934133529663,0.0,-0.011826734058558941
168.0,237.0,6.3511,-3.6227,5.7171,-0.044,0.0228,-0.1231,-2.0452405414977015,0.0,4.026088714599609,-0.7189473509788513,-0.0,2.0156843662261963,3.445739431972168,0.0,0.2513039708137512,-1.2303851286517542,-0.0,-0.030164893716573715,0.9058791399002075,-0.0,-0.004727617371827364,1.4365934133529663,0.0,0.002406276762485504
168.0,237.0,6.3511,-3.6227,5.7171,-0.044,0.0228,-0.1231,-2.0452615223326625,0.0,3.9723172187805176,-0.7188625335693359,-0.0,2.032363176345825,3.445755644435547,0.0,0.2545945346355438,-1.2303088347064417,-0.0,-0.0336373932659626,0.905847430229187,-0.0,0.0041421279311180115,1.4366015195846558,0.0,0.013134916312992573
168.0,237.0,6.3511,-3.6227,5.7171,-0.044,0.0228,-0.1231,-2.045269628564352,0.0,3.981595516204834,-0.7188743948936462,-0.0,2.030367136001587,3.445739431972168,0.0,0.24639977514743805,-1.2303250471698206,-0.0,-0.030366308987140656,0.9059346914291382,-0.0,-6.662914529442787e-06,1.436540961265564,0.0,0.016555096954107285
168.0,237.0,6.3511,-3.6227,5.7171,-0.044,0.0228,-0.1231,-2.045196672479147,0.0,3.9741101264953613,-0.718923032283783,-0.0,2.0430049896240234,3.445775194759033,0.0,0.2484569251537323,-1.230305020009176,-0.0,-0.038890291005373,0.9058434367179871,-0.0,-0.014363945461809635,1.436597466468811,0.0,0.02458886429667473
168.0,237.0,6.3511,-3.6227,5.7171,-0.044,0.0228,-0.1231,-2.0452410183348597,0.0,3.9981424808502197,-0.7188867926597595,-0.0,2.034315824508667,3.4457833009907226,0.0,0.2547827363014221,-1.230344597493307,-0.0,-0.02623586356639862,0.9059109687805176,-0.0,-0.00043221923988312483,1.436549186706543,0.0,-0.013769751414656639
165.0,229.0,6.4032,-3.6,5.6315,-0.0385,0.0195,-0.1258,-2.0452290974059046,0.0,4.005914688110352,-0.7189194560050964,-0.0,2.0345284938812256,3.4457475382038574,0.0,0.25746455788612366,-1.230384651814596,-0.0,-0.021237671375274658,0.9059151411056519,-0.0,-0.001073300838470459,1.436552882194519,0.0,0.029770050197839737
165.0,229.0,6.4032,-3.6,5.6315,-0.0385,0.0195,-0.1258,-2.0452286205687464,0.0,4.044719696044922,-0.7188909649848938,-0.0,2.012645959854126,3.445795698756836,0.0,0.25277602672576904,-1.2303689161883753,-0.0,-0.022300470620393753,0.9058789610862732,-0.0,-0.001984609290957451,1.4365732669830322,0.0,-0.005018026567995548
165.0,229.0,6.4032,-3.6,5.6315,-0.0385,0.0195,-0.1258,-2.0452329121031703,0.0,3.9949164390563965,-0.7188987731933594,-0.0,1.9909007549285889,3.445763273830078,0.0,0.25796109437942505,-1.2303369680987757,-0.0,-0.034192152321338654,0.9059032201766968,-0.0,-0.008234316483139992,1.4365895986557007,0.0,-0.013286086730659008
165.0,229.0,6.4032,-3.6,5.6315,-0.0385,0.0195,-0.1258,-2.045237203637594,0.0,4.026403427124023,-0.7188909649848938,-0.0,2.0479183197021484,3.4457270342060546,0.0,0.2672085165977478,-1.2303407827960413,-0.0,-0.024128548800945282,0.9058749079704285,-0.0,-0.014714634045958519,1.4365451335906982,0.0,-0.05092097073793411
165.0,229.0,6.4032,-3.6,5.6315,-0.0385,0.0195,-0.1258,-2.045265337029928,0.0,4.0317769050598145,-0.7189226150512695,-0.0,1.9919273853302002,3.4458200174519042,0.0,0.2550860643386841,-1.2302969137774866,-0.0,-0.02015962451696396,0.9058991074562073,-0.0,-0.009069407358765602,1.4365692138671875,0.0,0.014283368363976479
165.0,229.0,6.4032,-3.6,5.6315,-0.0385,0.0195,-0.1258,-2.045252939263815,0.0,4.020481109619141,-0.7188501358032227,-0.0,2.0191314220428467,3.4457313257404785,0.0,0.24739673733711243,-1.230344597493307,-0.0,-0.03717796877026558,0.9058789610862732,-0.0,-0.009452199563384056,1.4365569353103638,0.0,-0.01584411785006523
165.0,229.0,6.4032,-3.6,5.6315,-0.0385,0.0195,-0.1258,-2.045225282708639,0.0,4.0213422775268555,-0.7188827395439148,-0.0,2.051137685775757,3.4457475382038574,0.0,0.25453346967697144,-1.2303689161883753,-0.0,-0.032905664294958115,0.9059150815010071,-0.0,-0.022848552092909813,1.4365569353103638,0.0,-0.024902548640966415
165.0,229.0,6.4032,-3.6,5.6315,-0.0385,0.0195,-0.1258,-2.045237203637594,0.0,4.0273284912109375,-0.7188868522644043,-0.0,2.0055649280548096,3.4457270342060546,0.0,0.2558472156524658,-1.2303088347064417,-0.0,-0.02765132114291191,0.9058629870414734,-0.0,-0.011553112417459488,1.4365774393081665,0.0,-0.005846394691616297
165.0,229.0,6.4032,-3.6,5.6315,-0.0385,0.0195,-0.1258,-2.0452286205687464,0.0,4.013426303863525,-0.7188909649848938,-0.0,2.0636281967163086,3.4457551675983886,0.0,0.25164514780044556,-1.2303488890277308,-0.0,-0.03259215131402016,0.9058950543403625,-0.0,-0.0064185187220573425,1.436597466468811,0.0,0.025978703051805496
165.0,229.0,6.4032,-3.6,5.6315,-0.0385,0.0195,-0.1258,-2.0452286205687464,0.0,3.9703850746154785,-0.7188987731933594,-0.0,2.027153491973877,3.4457756715961914,0.0,0.24766045808792114,-1.2302926222430628,-0.0,-0.016703452914953232,0.9058589339256287,-0.0,-0.0035731890238821507,1.4365934133529663,0.0,0.03671569749712944
159.0,247.0,6.4355,-3.585,5.461,-0.0338,0.0229,-0.12,-2.0452453098692835,0.0,4.008336544036865,-0.7188661694526672,-0.0,2.0280747413635254,3.4457637506672363,0.0,0.26530376076698303,-1.2303488890277308,-0.0,-0.024600982666015625,0.9058391451835632,-0.0,-0.0009664129465818405,1.436601161956787,0.0,-0.011515765450894833
159.0,247.0,6.4355,-3.585,5.461,-0.0338,0.0229,-0.12,-2.045197149316305,0.0,3.995391368865967,-0.7188827395439148,-0.0,2.0123438835144043,3.445739431972168,0.0,0.23739400506019592,-1.2303169409381312,-0.0,-0.039556629955768585,0.9058709144592285,-0.0,-0.012502629309892654,1.4365934133529663,0.0,0.009685441851615906
159.0,247.0,6.4355,-3.585,5.461,-0.0338,0.0229,-0.12,-2.045252939263815,0.0,4.057632923126221,-0.7188951373100281,-0.0,2.028378486633301,3.445763273830078,0.0,0.2445639818906784,-1.2303569952594202,-0.0,-0.034465402364730835,0.9058389067649841,-0.0,-0.002123436890542507,1.4366015195846558,0.0,0.058846015483140945
159.0,247.0,6.4355,-3.585,5.461,-0.0338,0.0229,-0.12,-2.0452166996397914,0.0,3.999220132827759,-0.7188542485237122,-0.0,2.062056303024292,3.4457270342060546,0.0,0.25471580028533936,-1.2303369680987757,-0.0,-0.04074849933385849,0.9058949947357178,-0.0,-0.010800763964653015,1.4365774393081665,0.0,-0.006591488607227802
159.0,247.0,6.4355,-3.585,5.461,-0.0338,0.0229,-0.12,-2.045213361779684,0.0,4.037189483642578,-0.7189193964004517,-0.0,2.0547871589660645,3.445723219508789,0.0,0.25176313519477844,-1.2303932348834437,-0.0,-0.026785917580127716,0.9058749079704285,-0.0,-0.009670200757682323,1.4365893602371216,0.0,0.030789950862526894
159.0,247.0,6.4355,-3.585,5.461,-0.0338,0.0229,-0.12,-2.0451890430846156,0.0,4.005212783813477,-0.7188951373100281,-0.0,2.0638766288757324,3.445747061366699,0.0,0.2435915768146515,-1.2303245703326624,-0.0,-0.040630221366882324,0.9059311151504517,-0.0,-0.002070341259241104,1.4365451335906982,0.0,-0.004893582779914141
159.0,247.0,6.4355,-3.585,5.461,-0.0338,0.0229,-0.12,-2.0452448330321253,0.0,4.003017425537109,-0.7188785672187805,-0.0,2.0116941928863525,3.4457713800617675,0.0,0.25650474429130554,-1.2303250471698206,-0.0,-0.03960461914539337,0.9058592319488525,-0.0,-0.008876528590917587,1.436540961265564,0.0,0.014508026652038097
159.0,247.0,6.4355,-3.585,5.461,-0.0338,0.0229,-0.12,-2.0452572307982386,0.0,3.963799476623535,-0.7188621163368225,-0.0,2.0232346057891846,3.4457270342060546,0.0,0.26068490743637085,-1.2303245703326624,-0.0,-0.024482347071170807,0.9058670401573181,-0.0,0.0009823478758335114,1.4365975856781006,0.0,0.027665290981531143
159.0,247.0,6.4355,-3.585,5.461,-0.0338,0.0229,-0.12,-2.0452410183348597,0.0,4.043672561645508,-0.7189028859138489,-0.0,2.0875861644744873,3.445747061366699,0.0,0.25474119186401367,-1.2303488890277308,-0.0,-0.034933675080537796,0.9058830738067627,-0.0,-0.011182271875441074,1.4366016387939453,0.0,0.020741116255521774
159.0,247.0,6.4355,-3.585,5.461,-0.0338,0.0229,-0.12,-2.0452286205687464,0.0,4.020327091217041,-0.7188905477523804,-0.0,2.0335495471954346,3.445690317744873,0.0,0.26172494888305664,-1.2303412596331995,-0.0,-0.022443382069468498,0.9058908820152283,-0.0,0.00710762245580554,1.4366134405136108,0.0,-0.002435846021398902
159.0,247.0,6.4355,-3.585,5.461,-0.0338,0.0229,-0.12,-2.045249124566549,0.0,3.988290309906006,-0.7188621163368225,-0.0,2.0620877742767334,3.4457637506672363,0.0,0.24595099687576294,-1.2303207556353968,-0.0,-0.02879442647099495,0.9058831334114075,-0.0,-0.006670184433460236,1.436589241027832,0.0,0.019085237756371498
157.0,239.0,6.3356,-3.5719,5.549,-0.0299,0.0218,-0.1075,-2.0452286205687464,0.0,4.0151166915893555,-0.7188946604728699,-0.0,1.9750627279281616,3.4457313257404785,0.0,0.24628090858459473,-1.2303369680987757,-0.0,-0.031353339552879333,0.9058634042739868,-0.0,-3.166007809340954e-05,1.4365692138671875,0.0,-0.01632036827504635
157.0,239.0,6.3356,-3.5719,5.549,-0.0299,0.0218,-0.1075,-2.045249124566549,0.0,3.997997760772705,-0.7188827395439148,-0.0,2.0288798809051514,3.445747061366699,0.0,0.2452983260154724,-1.230361286793844,-0.0,-0.027784522622823715,0.9058949947357178,-0.0,-0.010225506499409676,1.4366015195846558,0.0,-0.012252108193933964
157.0,239.0,6.3356,-3.5719,5.549,-0.0299,0.0218,-0.1075,-2.0452329121031703,0.0,4.050656795501709,-0.7188827395439148,-0.0,2.0722334384918213,3.445751352901123,0.0,0.26048657298088074,-1.2303488890277308,-0.0,-0.03638462349772453,0.9059270024299622,-0.0,-0.020284133031964302,1.436540961265564,0.0,-0.03228532895445824
157.0,239.0,6.3356,-3.5719,5.549,-0.0299,0.0218,-0.1075,-2.045220991174215,0.0,4.0283098220825195,-0.7188464999198914,-0.0,2.002180576324463,3.4457432466694335,0.0,0.2475488930940628,-1.2303488890277308,-0.0,-0.02004249021410942,0.9059150815010071,-0.0,-0.0048200832679867744,1.4365451335906982,0.0,0.029744157567620277
157.0,239.0,6.3356,-3.5719,5.549,-0.0299,0.0218,-0.1075,-2.045220991174215,0.0,3.9744389057159424,-0.7188785672187805,-0.0,2.0495386123657227,3.4457270342060546,0.0,0.26849305629730225,-1.2303488890277308,-0.0,-0.02214009501039982,0.9059069156646729,-0.0,0.01098982710391283,1.436549186706543,0.0,-0.025715015828609467
157.0,239.0,6.3356,-3.5719,5.549,-0.0299,0.0218,-0.1075,-2.045168539086813,0.0,3.9902241230010986,-0.7189028859138489,-0.0,2.065859079360962,3.4457475382038574,0.0,0.24406205117702484,-1.230344597493307,-0.0,-0.027482260018587112,0.9059069156646729,-0.0,-0.0064687468111515045,1.436561107635498,0.0,-0.031805429607629776
157.0,239.0,6.3356,-3.5719,5.549,-0.0299,0.0218,-0.1075,-2.045237203637594,0.0,3.976797103881836,-0.71888267993927,-0.0,2.0361032485961914,3.445739431972168,0.0,0.2635864317417145,-1.2303770224200647,-0.0,-0.013429168611764908,0.9058345556259155,-0.0,-0.010206585749983788,1.4365413188934326,0.0,0.0050544654950499535
157.0,239.0,6.3356,-3.5719,5.549,-0.0299,0.0218,-0.1075,-2.045225282708639,0.0,4.010225296020508,-0.7188501358032227,-0.0,2.0640666484832764,3.445735140437744,0.0,0.2538550794124603,-1.2303851286517542,-0.0,-0.01257330272346735,0.9058632850646973,-0.0,-0.0005374248139560223,1.4365569353103638,0.0,-0.03748973086476326
157.0,239.0,6.3356,-3.5719,5.549,-0.0299,0.0218,-0.1075,-2.045249124566549,0.0,3.98598575592041,-0.7188506126403809,-0.0,1.9866688251495361,3.4457756715961914,0.0,0.25418606400489807,-1.2303732077227991,-0.0,-0.01940532773733139,0.9059110283851624,-0.0,-0.004367192275822163,1.436597466468811,0.0,0.009813522920012474
157.0,239.0,6.3356,-3.5719,5.549,-0.0299,0.0218,-0.1075,-2.045237203637594,0.0,4.003779411315918,-0.7188584208488464,-0.0,2.03965163230896,3.4457713800617675,0.0,0.2491120994091034,-1.2303646246539515,-0.0,-0.023363014683127403,0.9058749079704285,-0.0,-0.0026380536146461964,1.4365774393081665,0.0,-0.03917146101593971
157.0,239.0,6.3356,-3.5719,5.549,-0.0299,0.0218,-0.1075,-2.045180936852926,0.0,4.0295729637146,-0.7189028859138489,-0.0,2.0496389865875244,3.445755644435547,0.0,0.24111634492874146,-1.2303488890277308,-0.0,-0.023753125220537186,0.9058985710144043,-0.0,-0.009357139468193054,1.4366093873977661,0.0,0.008784832432866096
162.0,242.0,6.4672,-3.5288,5.5035,-0.0304,0.0223,-0.1158,-2.045224805871481,0.0,4.032289981842041,-0.7188868522644043,-0.0,1.9762232303619385,3.4457432466694335,0.0,0.2468428611755371,-1.2303608099566858,-0.0,-0.016334183514118195,0.9059476852416992,-0.0,8.112459909170866e-05,1.4365253448486328,0.0,-0.029784733429551125
162.0,242.0,6.4672,-3.5288,5.5035,-0.0304,0.0223,-0.1158,-2.045196672479147,0.0,4.0378923416137695,-0.7188584208488464,-0.0,2.019659996032715,3.445722742671631,0.0,0.25704625248908997,-1.2302969137774866,-0.0,-0.035638660192489624,0.9058789610862732,-0.0,-0.007176820654422045,1.4365851879119873,0.0,0.052087265998125076
162.0,242.0,6.4672,-3.5288,5.5035,-0.0304,0.0223,-0.1158,-2.0452615223326625,0.0,3.9680252075195312,-0.7188258767127991,-0.0,1.960555076599121,3.4457952219196777,0.0,0.25787675380706787,-1.2303326765643519,-0.0,-0.022096609696745872,0.9058789610862732,-0.0,-0.008959505707025528,1.436540961265564,0.0,0.002975999377667904
162.0,242.0,6.4672,-3.5288,5.5035,-0.0304,0.0223,-0.1158,-2.0452610454955042,0.0,4.002668380737305,-0.7188543081283569,-0.0,2.036163806915283,3.4457437235065917,0.0,0.2573564648628235,-1.2303369680987757,-0.0,-0.014959258958697319,0.9059028625488281,-0.0,-0.007307414896786213,1.4365814924240112,0.0,-0.023594848811626434
162.0,242.0,6.4672,-3.5288,5.5035,-0.0304,0.0223,-0.1158,-2.045196672479147,0.0,3.9913854598999023,-0.7188950777053833,-0.0,2.029494524002075,3.445767565364502,0.0,0.2566748559474945,-1.2303326765643519,-0.0,-0.04108642041683197,0.9058548808097839,-0.0,0.006897089071571827,1.4365569353103638,0.0,-0.0033298977650702
162.0,242.0,6.4672,-3.5288,5.5035,-0.0304,0.0223,-0.1158,-2.0452448330321253,0.0,3.9921422004699707,-0.7188909649848938,-0.0,2.031595230102539,3.445747061366699,0.0,0.25409913063049316,-1.2303527037249964,-0.0,-0.028456926345825195,0.9058470129966736,-0.0,0.0004619618412107229,1.4365569353103638,0.0,-0.019381321966648102
162.0,242.0,6.4672,-3.5288,5.5035,-0.0304,0.0223,-0.1158,-2.0452448330321253,0.0,4.000792026519775,-0.718934953212738,-0.0,2.037623882293701,3.4457713800617675,0.0,0.2382390946149826,-1.2302969137774866,-0.0,-0.0180820245295763,0.9059232473373413,-0.0,-0.006035308353602886,1.4366134405136108,0.0,0.0019177640788257122
162.0,242.0,6.4672,-3.5288,5.5035,-0.0304,0.0223,-0.1158,-2.0452410183348597,0.0,4.010669708251953,-0.7188909649848938,-0.0,2.021207809448242,3.4457995134541015,0.0,0.2533310055732727,-1.2303531805621546,-0.0,-0.020374048501253128,0.9059476852416992,-0.0,-0.005031772423535585,1.436552882194519,0.0,-0.03504018858075142
162.0,242.0,6.4672,-3.5288,5.5035,-0.0304,0.0223,-0.1158,-2.0452448330321253,0.0,4.004670143127441,-0.7189069986343384,-0.0,2.029266357421875,3.4457389551350097,0.0,0.24562959372997284,-1.2303488890277308,-0.0,-0.04102645069360733,0.9058346152305603,-0.0,-6.429210770875216e-05,1.4365814924240112,0.0,-0.02212362363934517
162.0,242.0,6.4672,-3.5288,5.5035,-0.0304,0.0223,-0.1158,-2.0452448330321253,0.0,3.985887050628662,-0.718874454498291,-0.0,1.9780051708221436,3.445722742671631,0.0,0.24916484951972961,-1.2303488890277308,-0.0,-0.025654859840869904,0.9058711528778076,-0.0,-0.007957011461257935,1.4365692138671875,0.0,0.015064537525177002
162.0,242.0,6.4672,-3.5288,5.5035,-0.0304,0.0223,-0.1158,-2.0452286205687464,0.0,4.010569095611572,-0.7189235091209412,-0.0,1.9843835830688477,3.4457432466694335,0.0,0.2519885003566742,-1.230344597493307,-0.0,-0.030180033296346664,0.9058908820152283,-0.0,-0.010465987026691437,1.4365732669830322,0.0,0.027092015370726585
157.0,230.0,6.3888,-3.5462,5.4808,-0.0275,0.0208,-0.1144,-2.0452572307982386,0.0,3.9954423904418945,-0.718890905380249,-0.0,2.0562102794647217,3.445751352901123,0.0,0.25214892625808716,-1.2303488890277308,-0.0,-0.02469613030552864,0.9058789610862732,-0.0,-0.018406955525279045,1.4365651607513428,0.0,-0.0067971195094287395
157.0,230.0,6.3888,-3.5462,5.4808,-0.0275,0.0208,-0.1144,-2.0452329121031703,0.0,3.9977121353149414,-0.7188460826873779,-0.0,2.035125970840454,3.4457713800617675,0.0,0.2584906220436096,-1.2303651014911097,-0.0,-0.026096271350979805,0.9059150815010071,-0.0,-0.008108600042760372,1.4365895986557007,0.0,0.0016056871972978115
157.0,230.0,6.3888,-3.5462,5.4808,-0.0275,0.0208,-0.1144,-2.0452166996397914,0.0,4.009592533111572,-0.7188785672187805,-0.0,2.0465035438537598,3.4457713800617675,0.0,0.25810369849205017,-1.2303450743304651,-0.0,-0.02271316945552826,0.9058748483657837,-0.0,-0.0013406903017312288,1.4365770816802979,0.0,0.008679844439029694
157.0,230.0,6.3888,-3.5462,5.4808,-0.0275,0.0208,-0.1144,-2.0452448330321253,0.0,4.0428032875061035,-0.7188377380371094,-0.0,2.04255747795105,3.445767565364502,0.0,0.2481042742729187,-1.2303651014911097,-0.0,-0.03207523748278618,0.905955970287323,-0.0,-0.007045906037092209,1.436561107635498,0.0,-0.005192030221223831
157.0,230.0,6.3888,-3.5462,5.4808,-0.0275,0.0208,-0.1144,-2.045281549493307,0.0,4.043035507202148,-0.7188909649848938,-0.0,2.0333526134490967,3.4457270342060546,0.0,0.24046140909194946,-1.2303689161883753,-0.0,-0.015851382166147232,0.9058710932731628,-0.0,-0.0023970967158675194,1.4365934133529663,0.0,-0.02433694712817669
157.0,230.0,6.3888,-3.5462,5.4808,-0.0275,0.0208,-0.1144,-2.045269628564352,0.0,4.030879020690918,-0.7189152240753174,-0.0,2.0476250648498535,3.4457432466694335,0.0,0.24625317752361298,-1.2303326765643519,-0.0,-0.0332922600209713,0.9058825969696045,-0.0,-0.003629066748544574,1.4365651607513428,0.0,-0.022719958797097206
157.0,230.0,6.3888,-3.5462,5.4808,-0.0275,0.0208,-0.1144,-2.0452286205687464,0.0,4.030584812164307,-0.7188542485237122,-0.0,2.038846492767334,3.445775194759033,0.0,0.2501317262649536,-1.2303288618670862,-0.0,-0.03671989589929581,0.9058990478515625,-0.0,0.005503276828676462,1.436561107635498,0.0,-0.03369800001382828
157.0,230.0,6.3888,-3.5462,5.4808,-0.0275,0.0208,-0.1144,-2.0452410183348597,0.0,4.052253723144531,-0.7189111113548279,-0.0,2.0475001335144043,3.4457875925251464,0.0,0.24877050518989563,-1.2303450743304651,-0.0,-0.025913294404745102,0.9058871865272522,-0.0,-0.022220904007554054,1.4365732669830322,0.0,0.008627533912658691
157.0,230.0,6.3888,-3.5462,5.4808,-0.0275,0.0208,-0.1144,-2.045249124566549,0.0,4.0035176277160645,-0.7188827395439148,-0.0,2.0407888889312744,3.4457875925251464,0.0,0.2418934553861618,-1.2303326765643519,-0.0,-0.024099890142679214,0.9058949947357178,-0.0,-0.0011119322152808309,1.4365651607513428,0.0,0.00360660906881094
157.0,230.0,6.3888,-3.5462,5.4808,-0.0275,0.0208,-0.1144,-2.045220991174215,0.0,3.980409622192383,-0.7189111709594727,-0.0,2.05006742477417,3.445735140437744,0.0,0.2642209231853485,-1.2303207556353968,-0.0,-0.03326994180679321,0.9059188365936279,-0.0,-0.009884631261229515,1.4365934133529663,0.0,-0.018227679654955864
163.0,239.0,6.3703,-3.6299,5.7619,-0.0299,0.0121,-0.1145,-2.045220991174215,0.0,3.9961061477661133,-0.7188464999198914,-0.0,2.01558780670166,3.4457027155109863,0.0,0.2573307156562805,-1.2303407827960413,-0.0,-0.0319521501660347,0.9059516191482544,-0.0,-0.0064252703450620174,1.436589241027832,0.0,0.023542964830994606
163.0,239.0,6.3703,-3.6299,5.7619,-0.0299,0.0121,-0.1145,-2.0452009640135707,0.0,3.9875497817993164,-0.7189188599586487,-0.0,2.0498313903808594,3.445735140437744,0.0,0.25757527351379395,-1.2303808371173304,-0.0,-0.022813480347394943,0.9059150815010071,-0.0,0.006771937943994999,1.4365572929382324,0.0,0.004491419531404972
163.0,239.0,6.3703,-3.6299,5.7619,-0.0299,0.0121,-0.1145,-2.045269628564352,0.0,4.005118370056152,-0.7188501358032227,-0.0,2.0078487396240234,3.4457875925251464,0.0,0.24781091511249542,-1.2303131262408655,-0.0,-0.03074325993657112,0.9059352278709412,-0.0,0.005754163488745689,1.436589241027832,0.0,0.023953475058078766
163.0,239.0,6.3703,-3.6299,5.7619,-0.0299,0.0121,-0.1145,-2.045265337029928,0.0,3.968743324279785,-0.7189147472381592,-0.0,2.0208089351654053,3.445755644435547,0.0,0.2515881657600403,-1.230344597493307,-0.0,-0.03958107531070709,0.9059354662895203,-0.0,0.002574142999947071,1.4365732669830322,0.0,-0.021608466282486916
163.0,239.0,6.3703,-3.6299,5.7619,-0.0299,0.0121,-0.1145,-2.0452405414977015,0.0,3.9922127723693848,-0.7189069986343384,-0.0,1.9797794818878174,3.445775194759033,0.0,0.24725735187530518,-1.2302888075457972,-0.0,-0.027469133958220482,0.9059072136878967,-0.0,-0.014964960515499115,1.436552882194519,0.0,0.016114268451929092
163.0,239.0,6.3703,-3.6299,5.7619,-0.0299,0.0121,-0.1145,-2.0452448330321253,0.0,4.035510540008545,-0.7188584208488464,-0.0,2.0277132987976074,3.445706530208252,0.0,0.2596948444843292,-1.2303651014911097,-0.0,-0.031056012958288193,0.9059232473373413,-0.0,-0.007510699797421694,1.4366052150726318,0.0,-0.010958844795823097
163.0,239.0,6.3703,-3.6299,5.7619,-0.0299,0.0121,-0.1145,-2.0452286205687464,0.0,4.013769626617432,-0.7188909649848938,-0.0,2.0221683979034424,3.4456869798847656,0.0,0.2433689832687378,-1.2303488890277308,-0.0,-0.030187947675585747,0.9058949947357178,-0.0,-0.0036755665205419064,1.4365934133529663,0.0,-0.020326994359493256
163.0,239.0,6.3703,-3.6299,5.7619,-0.0299,0.0121,-0.1145,-2.045249124566549,0.0,3.9692296981811523,-0.7189111113548279,-0.0,2.0241076946258545,3.445723219508789,0.0,0.2440081089735031,-1.2303689161883753,-0.0,-0.026961013674736023,0.9059113264083862,-0.0,-0.007454292383044958,1.4365488290786743,0.0,-0.025233596563339233
163.0,239.0,6.3703,-3.6299,5.7619,-0.0299,0.0121,-0.1145,-2.0452329121031703,0.0,3.9836883544921875,-0.7188909649848938,-0.0,2.0183141231536865,3.445767565364502,0.0,0.256642609834671,-1.2303369680987757,-0.0,-0.012326337397098541,0.9059150815010071,-0.0,-0.009266059845685959,1.4365732669830322,0.0,0.01643293909728527
163.0,239.0,6.3703,-3.6299,5.7619,-0.0299,0.0121,-0.1145,-2.045237203637594,0.0,4.020776748657227,-0.7189069986343384,-0.0,1.9693255424499512,3.445763273830078,0.0,0.2584368586540222,-1.2303169409381312,-0.0,-0.020854083821177483,0.9058749079704285,-0.0,-0.007503545843064785,1.4365569353103638,0.0,0.022805696353316307
163.0,239.0,6.3703,-3.6299,5.7619,-0.0299,0.0121,-0.1145,-2.045249124566549,0.0,3.979184150695801,-0.718866229057312,-0.0,2.053018093109131,3.445747061366699,0.0,0.25665247440338135,-1.2302969137774866,-0.0,-0.024159684777259827,0.9058868288993835,-0.0,-0.007065717130899429,1.436589241027832,0.0,0.010683969594538212
164.0,234.0,6.4941,-3.5366,5.3689,-0.0345,0.0322,-0.1158,-2.045224805871481,0.0,3.9896531105041504,-0.7188584208488464,-0.0,2.0729074478149414,3.4457833009907226,0.0,0.2512979805469513,-1.2303412596331995,-0.0,-0.036351025104522705,0.9059069156646729,-0.0,-0.006391467992216349,1.4365049600601196,0.0,-0.01766371913254261
164.0,234.0,6.4941,-3.5366,5.3689,-0.0345,0.0322,-0.1158,-2.045249124566549,0.0,3.9875874519348145,-0.7188423275947571,-0.0,2.017758369445801,3.445791407222412,0.0,0.262358158826828,-1.2303689161883753,-0.0,-0.033304717391729355,0.905939519405365,-0.0,-0.006932759657502174,1.4365934133529663,0.0,0.011219792999327183
164.0,234.0,6.4941,-3.5366,5.3689,-0.0345,0.0322,-0.1158,-2.045164724389547,0.0,4.029805660247803,-0.7188992500305176,-0.0,2.0373690128326416,3.4457952219196777,0.0,0.24270854890346527,-1.2303326765643519,-0.0,-0.02748005837202072,0.9059476852416992,-0.0,-0.011601122096180916,1.4365811347961426,0.0,0.01583736017346382
164.0,234.0,6.4941,-3.5366,5.3689,-0.0345,0.0322,-0.1158,-2.0451890430846156,0.0,4.009293556213379,-0.7189189195632935,-0.0,2.0835602283477783,3.4457437235065917,0.0,0.250883549451828,-1.2303169409381312,-0.0,-0.02979471907019615,0.9058867692947388,-0.0,-0.006328120827674866,1.4365332126617432,0.0,0.033191632479429245
164.0,234.0,6.4941,-3.5366,5.3689,-0.0345,0.0322,-0.1158,-2.0452448330321253,0.0,3.9647111892700195,-0.7188621163368225,-0.0,2.051152229309082,3.445803328151367,0.0,0.2528429925441742,-1.23033315340151,-0.0,-0.030411619693040848,0.9059191942214966,-0.0,-0.002433992922306061,1.436561107635498,0.0,0.008209426887333393
164.0,234.0,6.4941,-3.5366,5.3689,-0.0345,0.0322,-0.1158,-2.045220514337057,0.0,3.9750313758850098,-0.7188786864280701,-0.0,2.03867769241333,3.445747061366699,0.0,0.24502292275428772,-1.2303369680987757,-0.0,-0.030186757445335388,0.9058749079704285,-0.0,-0.01322043314576149,1.4366416931152344,0.0,0.015375165268778801
164.0,234.0,6.4941,-3.5366,5.3689,-0.0345,0.0322,-0.1158,-2.0452286205687464,0.0,3.9727590084075928,-0.7189028859138489,-0.0,2.0966453552246094,3.4457432466694335,0.0,0.2657989263534546,-1.2303326765643519,-0.0,-0.012370901182293892,0.9058912396430969,-0.0,-0.004570630844682455,1.4364968538284302,0.0,-0.003915983717888594
164.0,234.0,6.4941,-3.5366,5.3689,-0.0345,0.0322,-0.1158,-2.0452329121031703,0.0,4.002286434173584,-0.7188625335693359,-0.0,2.0024662017822266,3.445763273830078,0.0,0.2521904706954956,-1.230344597493307,-0.0,-0.02762651816010475,0.9058629870414734,-0.0,-0.007370503153651953,1.4365651607513428,0.0,-0.014528711326420307
164.0,234.0,6.4941,-3.5366,5.3689,-0.0345,0.0322,-0.1158,-2.0452615223326625,0.0,4.022717475891113,-0.7188992500305176,-0.0,2.0469751358032227,3.445751352901123,0.0,0.24889302253723145,-1.2303569952594202,-0.0,-0.030637389048933983,0.905903160572052,-0.0,0.0027956299018114805,1.4365934133529663,0.0,0.0401434525847435
164.0,234.0,6.4941,-3.5366,5.3689,-0.0345,0.0322,-0.1158,-2.045249124566549,0.0,4.040472984313965,-0.7188140153884888,-0.0,2.018307685852051,3.445747061366699,0.0,0.2508097290992737,-1.2303326765643519,-0.0,-0.028884727507829666,0.9058830738067627,-0.0,0.004523356910794973,1.436585545539856,0.0,-0.04518250748515129
164.0,234.0,6.4941,-3.5366,5.3689,-0.0345,0.0322,-0.1158,-2.0452329121031703,0.0,3.9580955505371094,-0.7188661694526672,-0.0,2.052504777908325,3.445791407222412,0.0,0.24992069602012634,-1.230321232472555,-0.0,-0.02924872189760208,0.905903160572052,-0.0,0.0042678434401750565,1.436540961265564,0.0,-0.007154114544391632
159.0,236.0,6.4002,-3.5743,5.5478,-0.0318,0.0224,-0.1232,-2.045249124566549,0.0,3.9418206214904785,-0.7189028859138489,-0.0,2.010324001312256,3.445755644435547,0.0,0.253928005695343,-1.2303765455829065,-0.0,-0.025350026786327362,0.9059109687805176,-0.0,-0.012017494067549706,1.4365774393081665,0.0,0.0024963626638054848
159.0,236.0,6.4002,-3.5743,5.5478,-0.0318,0.0224,-0.1232,-2.0451847515501917,0.0,3.9848031997680664,-0.7188703417778015,-0.0,2.0135133266448975,3.4457952219196777,0.0,0.26681461930274963,-1.230305020009176,-0.0,-0.02439841255545616,0.9058830738067627,-0.0,0.0001825828803703189,1.4365934133529663,0.0,0.005792227573692799
159.0,236.0,6.4002,-3.5743,5.5478,-0.0318,0.0224,-0.1232,-2.045196672479147,0.0,4.011904239654541,-0.7188868522644043,-0.0,2.008368968963623,3.445735140437744,0.0,0.25725874304771423,-1.2303765455829065,-0.0,-0.03344825655221939,0.9059188365936279,-0.0,-0.017053309828042984,1.4365651607513428,0.0,0.02576160803437233
159.0,236.0,6.4002,-3.5743,5.5478,-0.0318,0.0224,-0.1232,-2.04520907024526,0.0,4.003359794616699,-0.7188661694526672,-0.0,2.029665946960449,3.4457709032246093,0.0,0.2559483051300049,-1.230305020009176,-0.0,-0.02998444251716137,0.9058629274368286,-0.0,-0.010610395111143589,1.4365814924240112,0.0,0.03758672624826431
159.0,236.0,6.4002,-3.5743,5.5478,-0.0318,0.0224,-0.1232,-2.045265337029928,0.0,3.995147705078125,-0.7188666462898254,-0.0,2.0341148376464844,3.445763273830078,0.0,0.256196528673172,-1.2303689161883753,-0.0,-0.029394380748271942,0.9059150815010071,-0.0,0.003926789853721857,1.436561107635498,0.0,-0.030418777838349342
159.0,236.0,6.4002,-3.5743,5.5478,-0.0318,0.0224,-0.1232,-2.0452286205687464,0.0,3.99682879447937,-0.7188423275947571,-0.0,2.0422348976135254,3.445734663600586,0.0,0.2569829523563385,-1.2303488890277308,-0.0,-0.029879795387387276,0.9058944582939148,-0.0,0.0056625185534358025,1.4365332126617432,0.0,-0.02071373537182808
159.0,236.0,6.4002,-3.5743,5.5478,-0.0318,0.0224,-0.1232,-2.045265337029928,0.0,3.9534568786621094,-0.7188625335693359,-0.0,2.000389337539673,3.445840044612549,0.0,0.24569645524024963,-1.2303646246539515,-0.0,-0.030220303684473038,0.9058868288993835,-0.0,-0.015977686271071434,1.4365569353103638,0.0,0.013997651636600494
159.0,236.0,6.4002,-3.5743,5.5478,-0.0318,0.0224,-0.1232,-2.0452166996397914,0.0,3.974071979522705,-0.7188501358032227,-0.0,2.0557875633239746,3.445779486293457,0.0,0.24296483397483826,-1.230361286793844,-0.0,-0.029955733567476273,0.9058949947357178,-0.0,-0.005070403218269348,1.4365332126617432,0.0,0.012875927612185478
159.0,236.0,6.4002,-3.5743,5.5478,-0.0318,0.0224,-0.1232,-2.0452166996397914,0.0,3.991506576538086,-0.7188987731933594,-0.0,1.977804183959961,3.4457589822956542,0.0,0.2541463375091553,-1.230305020009176,-0.0,-0.02838466316461563,0.9058830738067627,-0.0,0.003021604847162962,1.4365732669830322,0.0,-0.029242681339383125
159.0,236.0,6.4002,-3.5743,5.5478,-0.0318,0.0224,-0.1232,-2.045269628564352,0.0,3.989616870880127,-0.718934953212738,-0.0,2.0039429664611816,3.4457432466694335,0.0,0.2547807991504669,-1.230305020009176,-0.0,-0.024014640599489212,0.9058665633201599,-0.0,-0.0115680992603302,1.436561107635498,0.0,-0.027311015874147415
159.0,236.0,6.4002,-3.5743,5.5478,-0.0318,0.0224,-0.1232,-2.0452329121031703,0.0,3.9693188667297363,-0.7189070582389832,-0.0,2.0718531608581543,3.445779486293457,0.0,0.2526836693286896,-1.2303531805621546,-0.0,-0.025119857862591743,0.9059155583381653,-0.0,-0.006397715769708157,1.436597466468811,0.0,0.012599428184330463
156.0,236.0,6.2997,-3.5192,5.8325,-0.0324,0.0223,-0.1245,-2.0452128849425257,0.0,4.020694255828857,-0.718858003616333,-0.0,2.0037224292755127,3.4457637506672363,0.0,0.2466036081314087,-1.2302969137774866,-0.0,-0.027815591543912888,0.9059113264083862,-0.0,-0.0068456693552434444,1.436561107635498,0.0,0.032523028552532196
156.0,236.0,6.2997,-3.5192,5.8325,-0.0324,0.0223,-0.1245,-2.045265337029928,0.0,3.984886646270752,-0.7189106941223145,-0.0,2.0352330207824707,3.4457713800617675,0.0,0.26270759105682373,-1.23033315340151,-0.0,-0.023930881172418594,0.9059072136878967,-0.0,0.006462260149419308,1.436561107635498,0.0,0.004871167242527008
156.0,236.0,6.2997,-3.5192,5.8325,-0.0324,0.0223,-0.1245,-2.0452448330321253,0.0,4.0009989738464355,-0.7188909649848938,-0.0,2.0078160762786865,3.4458200174519042,0.0,0.25648167729377747,-1.230344597493307,-0.0,-0.03819427266716957,0.9058592319488525,-0.0,2.477201633155346e-06,1.4365569353103638,0.0,-0.015268271788954735
156.0,236.0,6.2997,-3.5192,5.8325,-0.0324,0.0223,-0.1245,-2.0452329121031703,0.0,4.003776550292969,-0.718874454498291,-0.0,2.0416440963745117,3.4457389551350097,0.0,0.25605615973472595,-1.2303889433490198,-0.0,-0.032726045697927475,0.9059232473373413,-0.0,-0.003191002644598484,1.4365692138671875,0.0,-0.02414877340197563
156.0,236.0,6.2997,-3.5192,5.8325,-0.0324,0.0223,-0.1245,-2.045249124566549,0.0,4.008373260498047,-0.7188625335693359,-0.0,2.055352210998535,3.445763273830078,0.0,0.25231391191482544,-1.2303569952594202,-0.0,-0.033422987908124924,0.905879020690918,-0.0,0.011696748435497284,1.436597466468811,0.0,-0.04924420267343521
156.0,236.0,6.2997,-3.5192,5.8325,-0.0324,0.0223,-0.1245,-2.0452329121031703,0.0,4.0309343338012695,-0.7189070582389832,-0.0,2.064640998840332,3.4457952219196777,0.0,0.24795059859752655,-1.2303207556353968,-0.0,-0.03466608002781868,0.9059270024299622,-0.0,-0.010410604998469353,1.4365774393081665,0.0,0.017066940665245056
156.0,236.0,6.2997,-3.5192,5.8325,-0.0324,0.0223,-0.1245,-2.0452009640135707,0.0,3.966031551361084,-0.7188625335693359,-0.0,2.044050693511963,3.445722742671631,0.0,0.2535700500011444,-1.2303651014911097,-0.0,-0.028390392661094666,0.9059229493141174,-0.0,0.008625566959381104,1.436549186706543,0.0,0.003710978664457798
156.0,236.0,6.2997,-3.5192,5.8325,-0.0324,0.0223,-0.1245,-2.045196672479147,0.0,4.022242069244385,-0.7188501358032227,-0.0,2.0666370391845703,3.4457313257404785,0.0,0.25489339232444763,-1.2303288618670862,-0.0,-0.041569724678993225,0.9058949947357178,-0.0,0.00891739223152399,1.4365774393081665,0.0,0.0021777076181024313
156.0,236.0,6.2997,-3.5192,5.8325,-0.0324,0.0223,-0.1245,-2.0452128849425257,0.0,3.995820999145508,-0.7188226580619812,-0.0,2.0116496086120605,3.445751352901123,0.0,0.2564369738101959,-1.2303369680987757,-0.0,-0.02487393468618393,0.9059191942214966,-0.0,-0.004324350971728563,1.4365332126617432,0.0,-0.007232009433209896
156.0,236.0,6.2997,-3.5192,5.8325,-0.0324,0.0223,-0.1245,-2.045252939263815,0.0,3.985538959503174,-0.7189111709594727,-0.0,2.0266125202178955,3.445694609279297,0.0,0.2533895969390869,-1.23033315340151,-0.0,-0.03924588859081268,0.9059188365936279,-0.0,0.006532042752951384,1.4365569353103638,0.0,-0.00013656634837388992
164.0,232.0,6.4319,-3.6168,5.8929,-0.0484,0.0267,-0.1208,-2.0452448330321253,0.0,3.977426528930664,-0.7188666462898254,-0.0,2.0191526412963867,3.445775194759033,0.0,0.25261586904525757,-1.2303488890277308,-0.0,-0.03841351717710495,0.9058708548545837,-0.0,-0.009566749446094036,1.436561107635498,0.0,-0.004509841091930866
164.0,232.0,6.4319,-3.6168,5.8929,-0.0484,0.0267,-0.1208,-2.0452290974059046,0.0,4.031327724456787,-0.7188867926597595,-0.0,2.027466058731079,3.445751352901123,0.0,0.24832141399383545,-1.2303126494037073,-0.0,-0.031668201088905334,0.9059150815010071,-0.0,0.003923328593373299,1.4365774393081665,0.0,0.011295590549707413
164.0,232.0,6.4319,-3.6168,5.8929,-0.0484,0.0267,-0.1208,-2.045265337029928,0.0,4.005984783172607,-0.718874454498291,-0.0,1.9875030517578125,3.4457270342060546,0.0,0.2642931342124939,-1.2303326765643519,-0.0,-0.025728454813361168,0.9058749079704285,-0.0,-0.0091051384806633,1.436561107635498,0.0,-0.013456526212394238
164.0,232.0,6.4319,-3.6168,5.8929,-0.0484,0.0267,-0.1208,-2.0452448330321253,0.0,4.015827655792236,-0.7188382148742676,-0.0,2.0460708141326904,3.445723219508789,0.0,0.2544791102409363,-1.2303608099566858,-0.0,-0.036278076469898224,0.9058789610862732,-0.0,-0.0004966799169778824,1.4365692138671875,0.0,0.0001838207244873047
164.0,232.0,6.4319,-3.6168,5.8929,-0.0484,0.0267,-0.1208,-2.0452329121031703,0.0,4.0486297607421875,-0.7188341021537781,-0.0,2.070249319076538,3.445723219508789,0.0,0.2607577443122864,-1.2303488890277308,-0.0,-0.030237114056944847,0.9059677720069885,-0.0,-0.00521512795239687,1.4365291595458984,0.0,-0.024434920400381088
164.0,232.0,6.4319,-3.6168,5.8929,-0.0484,0.0267,-0.1208,-2.0452972851195277,0.0,3.98046875,-0.7189028859138489,-0.0,2.002955675125122,3.4457833009907226,0.0,0.2561669945716858,-1.2303808371173304,-0.0,-0.019785506650805473,0.9058144092559814,-0.0,-0.008111150935292244,1.4365774393081665,0.0,-0.016087297350168228
164.0,232.0,6.4319,-3.6168,5.8929,-0.0484,0.0267,-0.1208,-2.0452286205687464,0.0,4.037661552429199,-0.7189189195632935,-0.0,2.024461507797241,3.4457995134541015,0.0,0.2587723135948181,-1.2303689161883753,-0.0,-0.032872650772333145,0.9058589339256287,-0.0,-0.004854924976825714,1.4365814924240112,0.0,0.01943512074649334
164.0,232.0,6.4319,-3.6168,5.8929,-0.0484,0.0267,-0.1208,-2.045237203637594,0.0,4.026589393615723,-0.7188501954078674,-0.0,2.042200803756714,3.445767565364502,0.0,0.2422461062669754,-1.2303608099566858,-0.0,-0.04342937096953392,0.9058429002761841,-0.0,-0.005251049064099789,1.4365249872207642,0.0,-0.045016124844551086
164.0,232.0,6.4319,-3.6168,5.8929,-0.0484,0.0267,-0.1208,-2.045249124566549,0.0,3.98604679107666,-0.71888267993927,-0.0,1.9977972507476807,3.4457995134541015,0.0,0.27183541655540466,-1.2303488890277308,-0.0,-0.025670215487480164,0.9058589339256287,-0.0,-0.005274975672364235,1.4365369081497192,0.0,-0.011232989840209484
164.0,232.0,6.4319,-3.6168,5.8929,-0.0484,0.0267,-0.1208,-2.0452009640135707,0.0,4.039058685302734,-0.7188950777053833,-0.0,2.0711708068847656,3.4457670885273437,0.0,0.24833759665489197,-1.2303646246539515,-9.29073262767588e-10,-0.02376745268702507,0.9058424234390259,-0.0,-0.0010810447856783867,1.4365774393081665,0.0,-0.0005488474853336811
164.0,232.0,6.4319,-3.6168,5.8929,-0.0484,0.0267,-0.1208,-2.045196672479147,0.0,4.004547595977783,-0.718874454498291,-0.0,2.0388269424438477,3.4457551675983886,9.223062988894526e-07,0.2586398124694824,-1.230368439351217,-1.6885444255386288e-14,-0.026874125003814697,0.905903160572052,-0.0,-0.01667949929833412,1.4365488290786743,0.0,0.03874404728412628
164.0,237.0,7.0391,-3.6736,5.4036,-0.0432,0.0186,-0.1312,-2.04520907024526,0.0,4.015200614929199,-0.7188423871994019,-0.0,2.085867404937744,3.445779009456299,1.676246294546324e-11,0.24930758774280548,-1.23041278520693,-3.0688460179323854e-19,-0.03270690143108368,0.9059514999389648,-0.0,-0.004444893449544907,1.4365934133529663,0.0005496057565324008,-0.0059331138618290424
164.0,237.0,7.0391,-3.6736,5.4036,-0.0432,0.0186,-0.1312,-2.0452128849425257,1.1570684819162125e-06,3.9711432456970215,-0.7188661694526672,0.00037569855339825153,2.0517380237579346,3.4457952219196777,0.0008446244755759835,0.2474125772714615,-1.2304089705096644,-1.0763853879325325e-06,-0.04214310646057129,0.9059517979621887,-0.0,0.0006222191732376814,1.4365770816802979,0.0010954436147585511,-0.021837616339325905
164.0,237.0,7.0391,-3.6736,5.4036,-0.0432,0.0186,-0.1312,-2.045237203637594,5.0294333542633715e-16,4.000358581542969,-0.7188785672187805,0.00026419665664434433,2.018298387527466,3.445859594936035,0.0007887223619036376,0.25868791341781616,-1.2304132620440882,-0.0003210047143511474,-0.036103539168834686,0.9059109687805176,-0.0,-0.00732602272182703,1.4366732835769653,0.0011620433069765568,0.04777748882770538
164.0,237.0,7.0391,-3.6736,5.4036,-0.0432,0.0186,-0.1312,-2.0452453098692835,1.6294723480019703e-23,3.975727081298828,-0.7188625335693359,0.00016370882804039866,1.9894611835479736,3.445843382472656,0.000525419891346246,0.24283158779144287,-1.2303841749774378,-0.00030898774275556207,-0.025147270411252975,0.9058945178985596,-0.0,-0.01906115934252739,1.4366650581359863,0.0009828147012740374,0.030824005603790283
164.0,237.0,7.0391,-3.6736,5.4036,-0.0432,0.0186,-0.1312,-2.0452329121031703,5.27928383787629e-31,4.0275959968566895,-0.7188785672187805,6.0877449868712574e-05,2.048186779022217,3.445815249080322,0.00044817410525865853,0.25599828362464905,-1.2303884665118616,-0.0002642139734234661,-0.04045923054218292,0.9059311151504517,-0.0,-0.00025119446218013763,1.4366569519042969,0.0007395693683065474,0.01867542415857315
164.0,237.0,7.0391,-3.6736,5.4036,-0.0432,0.0186,-0.1312,-2.045269628564352,-0.00010567842400632799,3.9783225059509277,-0.7188703417778015,4.7376139264088124e-05,1.9942125082015991,3.4458071428486328,0.0003600910713430494,0.23920971155166626,-1.2303884665118616,-0.00023039113148115575,-0.0382969006896019,0.9058510661125183,-0.0,0.0014000586234033108,1.4366815090179443,0.000575169688090682,0.046276964247226715
164.0,237.0,7.0391,-3.6736,5.4036,-0.0432,0.0186,-0.1312,-2.045196672479147,-0.0001225480664288625,3.981905937194824,-0.7188423871994019,5.972035610176188e-14,2.0290565490722656,3.4458233553120117,0.00028804439352825284,0.24823635816574097,-1.230396572743551,-0.00019861190230585635,-0.042839884757995605,0.9059150815010071,-0.0,0.004617168568074703,1.4366371631622314,0.0004109785659238696,0.010473869740962982
164.0,237.0,7.0391,-3.6736,5.4036,-0.0432,0.0186,-0.1312,-2.045293470422262,-0.00010371684766141698,3.974599838256836,-0.7188666462898254,1.9348637042087206e-21,2.047753095626831,3.4458233553120117,0.00024830346228554845,0.25200048089027405,-1.2304089705096644,-0.00017887368449009955,-0.02778039500117302,0.905959963798523,-0.0,-0.005808394402265549,1.4366692304611206,0.00010407218360342085,-0.005501434672623873
164.0,237.0,7.0391,-3.6736,5.4036,-0.0432,0.0186,-0.1312,-2.045224805871481,-5.995181709295139e-05,3.9932150840759277,-0.7188506126403809,6.26871298710466e-29,2.0167694091796875,3.4458395677753906,0.00021820027905050665,0.2644178569316864,-1.2303803602801722,-0.0001627043093321845,-0.03894819691777229,0.905903160572052,-0.0,-0.00868983194231987,1.4366130828857422,4.195692963548936e-05,-0.025853659957647324
164.0,237.0,7.0391,-3.6736,5.4036,-0.0432,0.0186,-0.1312,-2.04520907024526,-5.2890423830831423e-05,4.0183000564575195,-0.7188666462898254,2.0309834311269688e-36,2.0688796043395996,3.4457871156879882,0.00019460772455204278,0.25470733642578125,-1.230396572743551,-0.0001492160081397742,-0.024221807718276978,0.9059069156646729,-0.0,0.0011567606125026941,1.4366008043289185,3.9475124558041585e-12,0.01666758581995964
164.0,237.0,7.0391,-3.6736,5.4036,-0.0432,0.0186,-0.1312,-2.0452572307982386,-6.917273276485503e-05,3.9989490509033203,-0.7188703417778015,1.401298464324817e-45,1.9846385717391968,3.4457828241535644,0.00017143749573733658,0.2512677311897278,-1.2303803602801722,-0.000135205322294496,-0.027936775237321854,0.905903160572052,-0.0,-0.013520839624106884,1.4366334676742554,1.715866425344956e-21,-0.017141880467534065
160.0,227.0,6.4636,-3.5677,5.6536,-0.0487,0.0625,-0.1246,-2.045249124566549,-0.00010212039342150092,3.9956398010253906,-0.7188584208488464,-0.0,2.0421600341796875,3.4458114343830566,0.000156528883962892,0.24127037823200226,-1.2303722540484827,-0.0001257590192835778,-0.02380773052573204,0.9058388471603394,-0.0,-3.2280455343425274e-05,1.4366692304611206,5.55918835853025e-29,0.0029497272334992886
160.0,227.0,6.4636,-3.5677,5.6536,-0.0487,0.0625,-0.1246,-2.0453092060484828,-0.00018527392239775509,3.9967825412750244,-0.718874454498291,-0.0,2.037299156188965,3.445831461543701,0.00014400557847693563,0.25554123520851135,-1.230356518422262,-0.0001175463548861444,-0.029269030317664146,0.9059310555458069,-0.0,-0.01118800975382328,1.4366008043289185,1.801106449243073e-36,-0.05338165909051895
160.0,227.0,6.4636,-3.5677,5.6536,-0.0487,0.0625,-0.1246,-2.0453292332091273,-0.0006212214357219636,3.944702386856079,-0.7188950777053833,-0.0,2.0227832794189453,3.4458276468464355,0.00013333784590940922,0.24899926781654358,-1.230368439351217,-0.0001103406393667683,-0.03822840750217438,0.9059558510780334,-0.0,-0.024725712835788727,1.4366211891174316,5.885453550164232e-44,-0.0032035168260335922
160.0,227.0,6.4636,-3.5677,5.6536,-0.0487,0.0625,-0.1246,-2.0453130207457484,-0.00044934547622688115,4.004228591918945,-0.7189188599586487,-0.0,2.024895668029785,3.4458038049885253,0.000122037687106058,0.25277966260910034,-1.2304046789752405,-0.00010248753824271262,-0.029134150594472885,0.9059516787528992,-0.0,-0.012776634655892849,1.436625361442566,0.0,0.04946121945977211
160.0,227.0,6.4636,-3.5677,5.6536,-0.0487,0.0625,-0.1246,-2.0452729664244593,-0.0002809268480632454,4.0107197761535645,-0.7188625335693359,-0.0,2.0245585441589355,3.4458157259174804,0.00011428899597376585,0.255705326795578,-1.230396572743551,-9.696651977719739e-05,-0.03598658740520477,0.905890941619873,-0.0,3.5563818528316915e-05,1.4366734027862549,-4.066056135343388e-05,0.036535508930683136
160.0,227.0,6.4636,-3.5677,5.6536,-0.0487,0.0625,-0.1246,-2.045276781121725,-0.00018046445620711893,3.9756946563720703,-0.7188702821731567,-0.0,2.0047428607940674,3.4458038049885253,0.00010746561019914225,0.25461819767951965,-1.2303803602801722,-9.201000648317859e-05,-0.035347700119018555,0.9059069156646729,-0.0,-0.013031801208853722,1.4366090297698975,-6.728818698320538e-05,-0.017291216179728508
160.0,227.0,6.4636,-3.5677,5.6536,-0.0487,0.0625,-0.1246,-2.045317312280172,-0.00011293433635728434,3.98490571975708,-0.7188992500305176,-0.0,2.0600321292877197,3.4458071428486328,6.692955503240228e-05,0.24619868397712708,-1.2303808371173304,-8.753550355322659e-05,-0.023551832884550095,0.9058429002761841,-0.0,-0.006472669076174498,1.4366090297698975,-0.00011705746146617457,0.03992987424135208
160.0,227.0,6.4636,-3.5677,5.6536,-0.0487,0.0625,-0.1246,-2.0452448330321253,-9.304092236561701e-05,4.03952169418335,-0.7188588976860046,-0.0,2.002988815307617,3.4458233553120117,7.464880764018744e-05,0.2607821226119995,-1.2303927580462855,-8.251932740677148e-05,-0.026115329936146736,0.9058911800384521,-0.0,-0.017574962228536606,1.4365971088409424,-0.0005216407589614391,0.05449628084897995
160.0,227.0,6.4636,-3.5677,5.6536,-0.0487,0.0625,-0.1246,-2.045281072656149,-8.176973642548546e-05,3.930250883102417,-0.7188867926597595,-0.0,2.0509681701660156,3.445843382472656,7.076219480950385e-05,0.2526034414768219,-1.2303808371173304,-1.0275913155055605e-05,-0.0279326681047678,0.9058911800384521,-0.0,-0.01936734840273857,1.4365692138671875,-0.0004046180984005332,-0.04339110851287842
160.0,227.0,6.4636,-3.5677,5.6536,-0.0487,0.0625,-0.1246,-2.04526486019277,-7.293434464372694e-05,3.994466781616211,-0.7188305258750916,-0.0,2.0402426719665527,3.4458514887043457,0.00024370409664697945,0.2600197196006775,-1.230396572743551,-1.8675964941206047e-10,-0.03116299957036972,0.9058470129966736,-0.0,-0.004329265095293522,1.4366053342819214,-0.00033035114756785333,0.030764419585466385
160.0,227.0,6.4636,-3.5677,5.6536,-0.0487,0.0625,-0.1246,-2.0452853641905726,-6.582209607586265e-05,3.941709518432617,-0.7188428640365601,-0.0,1.985020399093628,3.4458271700092773,0.001088803051970899,0.25779369473457336,-1.2304328123675745,-3.3942643075553225e-15,-0.02946395054459572,0.9059310555458069,-0.0,0.002207450568675995,1.4365770816802979,-0.0002791215665638447,0.004871371202170849
163.0,226.0,5.9163,-3.4588,5.8241,-0.0394,0.0408,-0.1202,-2.045236726800436,-7.82275092205964e-05,4.020474433898926,-0.7188625335693359,-0.0,2.0596132278442383,3.4458786684223632,0.002126536797732115,0.2538643777370453,-1.2303884665118616,-5.006455830880441e-05,-0.039123907685279846,0.9058990478515625,-0.0,-0.0115315280854702,1.436625361442566,-0.00020457613572943956,-0.02561180666089058
163.0,226.0,5.9163,-3.4588,5.8241,-0.0394,0.0408,-0.1202,-2.04526486019277,-7.202823326224461e-05,4.015839099884033,-0.7188222408294678,-0.0,2.03580379486084,3.445967360133789,0.004073666874319315,0.246985524892807,-1.2304328123675745,-7.675359015024696e-09,-0.03269205614924431,0.9059187173843384,-0.0,-0.008852612227201462,1.4366532564163208,-1.2199799130030442e-05,0.07116279006004333
163.0,226.0,5.9163,-3.4588,5.8241,-0.0394,0.0408,-0.1202,-2.045293470422262,-1.885743586171884e-05,3.9597702026367188,-0.7188262939453125,3.3840402466012165e-05,2.011580467224121,3.4459749895283203,0.010582765564322472,0.2542499303817749,-1.2304404417621058,-0.0013207131996750832,-0.04765881970524788,0.9058708548545837,-0.0,0.0026385453529655933,1.4366211891174316,-3.952579095186509e-13,0.01539674587547779
163.0,226.0,5.9163,-3.4588,5.8241,-0.0394,0.0408,-0.1202,-2.0452691517271937,-3.478888174868189e-05,3.9110512733459473,-0.7188144326210022,3.147360257571563e-05,2.0040152072906494,3.446131868953369,0.012472505681216717,0.25735554099082947,-1.2305167357074183,-0.002446848899126053,-0.058110423386096954,0.905890941619873,-0.0,-0.005735799670219421,1.4366732835769653,0.0023196381516754627,0.11178377270698547
163.0,226.0,5.9163,-3.4588,5.8241,-0.0394,0.0408,-0.1202,-2.0452729664244593,-0.0004078861966263503,3.8434531688690186,-0.7188386917114258,2.894323733926285e-05,1.9683558940887451,3.4462243753620605,0.004932729993015528,0.26185479760169983,-1.2305000464068812,-0.0037691781762987375,-0.06056598573923111,0.9058868885040283,-0.0,-0.006492722313851118,1.4366686344146729,0.004043641034513712,0.21262328326702118
163.0,226.0,5.9163,-3.4588,5.8241,-0.0394,0.0408,-0.1202,-2.0452848873534144,-0.0013959811767563224,3.751500368118286,-0.7188423871994019,1.5183993127720896e-05,1.9508578777313232,3.4462362962910156,0.0005907379672862589,0.24246704578399658,-1.2305567900287073,-0.007804213557392359,-0.06451326608657837,0.9059191346168518,-0.0,-0.006569854449480772,1.4367088079452515,0.006497853435575962,0.23714309930801392
163.0,226.0,5.9163,-3.4588,5.8241,-0.0394,0.0408,-0.1202,-2.0453411541380824,-0.004558668937534094,3.7487599849700928,-0.718870222568512,1.745129480923424e-07,1.948706030845642,3.4461676317402343,0.00022630864987149835,0.23724964261054993,-1.230583969746725,-0.0070134359411895275,-0.08236290514469147,0.9058505892753601,-0.0,0.0005259321769699454,1.436797022819519,0.00838621985167265,0.3492656946182251
163.0,226.0,5.9163,-3.4588,5.8241,-0.0394,0.0408,-0.1202,-2.04542936901235,-0.01134752482175827,3.722795009613037,-0.718826413154602,5.6539974389651845e-15,1.9139981269836426,3.4461957651325683,1.0572723141422102e-07,0.2532309889793396,-1.23059589067568,-0.0015919472789391875,-0.06843633949756622,0.9058830738067627,-0.0,-0.013505406677722931,1.436845064163208,0.008639601059257984,0.30783510208129883
163.0,226.0,5.9163,-3.4588,5.8241,-0.0394,0.0408,-0.1202,-2.0455008945860804,-0.011094467714428902,3.6661205291748047,-0.7188909649848938,2.457624955519366e-24,1.9094915390014648,3.4461957651325683,1.2546283185543156e-13,0.2375798225402832,-1.2306163946734827,-0.0005507011082954705,-0.07295571267604828,0.9059110283851624,-0.0,-0.009040888398885727,1.4369049072265625,0.007242371328175068,0.37575116753578186
163.0,226.0,5.9163,-3.4588,5.8241,-0.0394,0.0408,-0.1202,-2.0456725559630335,-0.009222043678164482,3.6984801292419434,-0.7188584208488464,7.962392011424791e-32,1.8274471759796143,3.446143313045166,2.2802246881274585e-18,0.23165962100028992,-1.2305524984942835,-0.00036953442031517625,-0.08434350788593292,0.9058990478515625,-0.0,-0.0012033773818984628,1.4369933605194092,0.00637814961373806,0.3469116687774658
165.0,230.0,6.6634,-3.6048,5.787,-0.0278,-0.0215,-0.117,-2.045720239678854,-0.011587632820010185,3.6489787101745605,-0.718874454498291,-7.820853352313861e-05,1.9341288805007935,3.4461957651325683,4.144195884145184e-23,0.23455294966697693,-1.230583969746725,-0.0002781151852104813,-0.08272607624530792,0.9058350920677185,-0.0,-0.004770486615598202,1.4369888305664062,0.006148177664726973,0.3643288314342499
165.0,230.0,6.6634,-3.6048,5.787,-0.0278,-0.0215,-0.117,-2.045851846734518,-0.0159743744879961,3.660680055618286,-0.7188992500305176,-0.00022934749722480774,1.9464826583862305,3.4461914735981445,7.531871456023701e-28,0.23374244570732117,-1.2305563131915491,-0.00017843255773186684,-0.07778561115264893,0.9059031009674072,-0.0,0.0024697119370102882,1.4370408058166504,0.006515527609735727,0.38004714250564575
165.0,230.0,6.6634,-3.6048,5.787,-0.0278,-0.0215,-0.117,-2.0460239849486292,-0.019412904977798462,3.6821274757385254,-0.7188707590103149,-0.00018277601338922977,1.8850936889648438,3.4461795526691894,8.937810685049799e-34,0.24025100469589233,-1.230584446583883,-0.0001429523399565369,-0.06813520938158035,0.9058432579040527,-0.0,-0.0015473106177523732,1.4371006488800049,0.005991997197270393,0.313882440328598
165.0,230.0,6.6634,-3.6048,5.787,-0.0278,-0.0215,-0.117,-2.0461560688414515,-0.01660793088376522,3.6641416549682617,-0.718923032283783,-0.00015722498937975615,1.9405338764190674,3.44614760457959,1.624402976335825e-38,0.23686833679676056,-1.2305687109576624,-0.0001233560760738328,-0.08700422942638397,0.9059113264083862,-0.0,-0.000483511365018785,1.4371366500854492,0.0057139103300869465,0.29395461082458496
165.0,230.0,6.6634,-3.6048,5.787,-0.0278,-0.0215,-0.117,-2.04628386119985,-0.012787073850631714,3.635995388031006,-0.7189271450042725,-0.00013794582628179342,1.9346776008605957,3.4462601381489257,2.956739759725364e-43,0.2509610652923584,-1.2305687109576624,-8.137210534187034e-05,-0.06745796650648117,0.9058351516723633,-0.0,-0.00012501003220677376,1.4371607303619385,0.005225110799074173,0.3203738331794739
165.0,230.0,6.6634,-3.6048,5.787,-0.0278,-0.0215,-0.117,-2.0463839970030726,-0.01087952870875597,3.6961326599121094,-0.7188542485237122,-0.00012287830759305507,1.9257164001464844,3.446215792293213,0.0,0.23701004683971405,-1.230612579976217,-7.26107755326666e-05,-0.07764330506324768,0.9058473110198975,-0.0,-0.026170087978243828,1.4372409582138062,0.0054016406647861,0.36610251665115356
165.0,230.0,6.6634,-3.6048,5.787,-0.0278,-0.0215,-0.117,-2.046495576898092,-0.011658077128231525,3.6985812187194824,-0.7188868522644043,-0.00010811699030455202,1.9478604793548584,3.446215792293213,0.0,0.24387609958648682,-1.2306245009051722,-6.40199868939817e-05,-0.061586104333400726,0.9058515429496765,-0.0,-0.013302521780133247,1.4372847080230713,0.006413680501282215,0.3563242554664612
165.0,230.0,6.6634,-3.6048,5.787,-0.0278,-0.0215,-0.117,-2.046660085717672,-0.013355052098631859,3.7107739448547363,-0.718914806842804,-9.863761806627735e-05,1.8905644416809082,3.4462200838276367,0.0,0.2325882762670517,-1.230600659047262,3.989663309766911e-05,-0.06465496122837067,0.9058391451835632,-0.0,-0.01969054341316223,1.4373571872711182,0.007731850724667311,0.3062041699886322
165.0,230.0,6.6634,-3.6048,5.787,-0.0278,-0.0215,-0.117,-2.046699186364645,-0.012001964263617992,3.7187957763671875,-0.7188867926597595,-9.068643703358248e-05,1.938631296157837,3.446211977595947,0.0,0.25006937980651855,-1.2306001822101038,5.496818994288333e-05,-0.058023348450660706,0.9058349132537842,-0.0,-0.02037142589688301,1.4374088048934937,0.007758867461234331,0.28745588660240173
165.0,230.0,6.6634,-3.6048,5.787,-0.0278,-0.0215,-0.117,-2.0468198261656703,-0.010080765001475811,3.7010350227355957,-0.7188501358032227,-8.392157178604975e-05,1.9368799924850464,3.446284456843994,0.0,0.2316744178533554,-1.2305367628680628,5.083352152723819e-05,-0.06595685333013535,0.9058555960655212,-0.0,-0.03396032750606537,1.4374604225158691,0.0063111609779298306,0.2826964557170868
165.0,230.0,6.6634,-3.6048,5.787,-0.0278,-0.0215,-0.117,-2.0469070873656214,-0.008401243947446346,3.7179043292999268,-0.718874454498291,-7.676376844756305e-05,1.9146795272827148,3.4461709696003417,0.0,0.2243056744337082,-1.2305567900287073,6.194644811330363e-05,-0.06318230926990509,0.9057910442352295,-0.000180853035999462,-0.028751347213983536,1.437532901763916,0.005169106647372246,0.2671213448047638
160.0,242.0,6.3858,-3.597,5.6662,-0.0231,0.0203,-0.1174,-2.0469752750792445,-0.008788072504103184,3.7312536239624023,-0.7188909649848938,-7.186046423157677e-05,1.9324615001678467,3.4462362962910156,0.0,0.23238453269004822,-1.2305644194232386,5.7957346143666655e-05,-0.05723252147436142,0.9058837890625,-0.00021092375391162932,-0.04238048195838928,1.4375686645507812,0.0053394874557852745,0.2828705608844757
160.0,242.0,6.3858,-3.597,5.6662,-0.0231,0.0203,-0.1174,-2.047075410882467,-0.009970112703740597,3.6966395378112793,-0.7188827395439148,-6.754598871339113e-05,1.8964715003967285,3.4462320047565917,2.940945705631748e-05,0.23527905344963074,-1.2305644194232386,5.4450807510875165e-05,-0.06555435061454773,0.905871570110321,-0.00043147034011781216,-0.045453764498233795,1.4376126527786255,0.006843679118901491,0.2883186638355255
160.0,242.0,6.3858,-3.597,5.6662,-0.0231,0.0203,-0.1174,-2.0470992527403773,-0.009412011131644249,3.6924829483032227,-0.7189111709594727,-6.372021016431972e-05,1.9339020252227783,3.4462238985249023,4.0979419281939045e-05,0.2376709282398224,-1.2305524984942835,5.1344421081012115e-05,-0.06344873458147049,0.9058270454406738,-0.0004399626632221043,-0.04502962529659271,1.4376686811447144,0.008825217373669147,0.29179513454437256
160.0,242.0,6.3858,-3.597,5.6662,-0.0231,0.0203,-0.1174,-2.047211309472555,-0.00741761177778244,3.704745054244995,-0.718874454498291,-4.760576121043414e-05,1.8979461193084717,3.446211977595947,6.403890438377857e-05,0.2499614655971527,-1.2305806318866175,4.792670006281696e-05,-0.08157184720039368,0.9058070182800293,-0.00048563064774498343,-0.0532359778881073,1.4377402067184448,0.008962772786617279,0.324491947889328
160.0,242.0,6.3858,-3.597,5.6662,-0.0231,0.0203,-0.1174,-2.0472308597960414,-0.0059258341789245605,3.7230887413024902,-0.7188909649848938,-4.521417213254608e-05,1.8984192609786987,3.446251555080078,0.00045412685722112656,0.2500165104866028,-1.2305362860309046,4.550357334665023e-05,-0.06313344091176987,0.9058273434638977,-0.00047596386866644025,-0.0646597221493721,1.4378366470336914,0.010076845996081829,0.29816675186157227
160.0,242.0,6.3858,-3.597,5.6662,-0.0231,0.0203,-0.1174,-2.0473109684386195,-0.0054174927063286304,3.739785671234131,-0.7188345789909363,-4.305141919758171e-05,1.9518694877624512,3.446251555080078,0.0009292841423302889,0.24412710964679718,-1.2305524984942835,4.331365926191211e-05,-0.06500659883022308,0.9058352708816528,-0.00040321898995898664,-0.06967267394065857,1.437936782836914,0.009287872351706028,0.32612571120262146
160.0,242.0,6.3858,-3.597,5.6662,-0.0231,0.0203,-0.1174,-2.047330995599264,-0.0057899681851267815,3.7316601276397705,-0.7188304662704468,-4.1086121200351045e-05,1.9036829471588135,3.446267767543457,0.0009586521773599088,0.2521297037601471,-1.2306044737445276,4.132488538743928e-05,-0.09407113492488861,0.9057912826538086,-0.00038759561721235514,-0.059274882078170776,1.4379923343658447,0.009850447997450829,0.2614249289035797
160.0,242.0,6.3858,-3.597,5.6662,-0.0231,0.0203,-0.1174,-2.047382970849508,-0.006890767719596624,3.743746042251587,-0.7189152836799622,-5.363230748400838e-09,1.9576319456100464,3.446267767543457,0.0007204104913398623,0.26612210273742676,-1.230572525654928,3.5459419450489804e-05,-0.08884873986244202,0.9057872295379639,-0.00038756869616918266,-0.07354395091533661,1.4381325244903564,0.011286350898444653,0.34874168038368225
160.0,242.0,6.3858,-3.597,5.6662,-0.0231,0.0203,-0.1174,-2.0473858318724574,-0.006463054567575455,3.7078001499176025,-0.7188506126403809,-1.7376186081207427e-16,1.9197452068328857,3.446267767543457,0.0005104393349029124,0.2657480239868164,-1.230544392262594,3.2869214919628575e-05,-0.08926708996295929,0.9058233499526978,-0.00034630377194844186,-0.061791323125362396,1.4381439685821533,0.010482660494744778,0.28409838676452637
160.0,242.0,6.3858,-3.597,5.6662,-0.0231,0.0203,-0.1174,-2.0475064716734828,-0.006651183124631643,3.7565526962280273,-0.7189395427703857,-5.629663251620869e-24,1.9927799701690674,3.446283980006836,0.0005556661635637283,0.2604074776172638,-1.230584446583883,3.063176336581819e-05,-0.10408977419137955,0.905811071395874,-0.00030948067433200777,-0.056937381625175476,1.4382638931274414,0.009759710170328617,0.326659619808197
160.0,242.0,6.3858,-3.597,5.6662,-0.0231,0.0203,-0.1174,-2.0475388966002406,-0.006385099608451128,3.726959228515625,-0.7189271450042725,-1.823939352532491e-31,1.9316496849060059,3.446340246791504,0.0007425725925713778,0.2555323839187622,-1.2306121031390589,1.4340324014483485e-05,-0.08632753044366837,0.905811071395874,-0.0002670040412340313,-0.06609559059143066,1.4383480548858643,0.00859146099537611,0.3171502947807312
160.0,239.0,6.0514,-3.4971,5.6076,-0.0238,0.017,-0.1179,-2.047630926171774,-0.007272208109498024,3.724437952041626,-0.7188625931739807,-7.928126321610518e-41,1.9565002918243408,3.4463116365620117,0.0006450770306400955,0.26238980889320374,-1.2306082884417933,1.7017167189270488e-11,-0.10806936025619507,0.9057831168174744,-0.0002203096664743498,-0.07553969323635101,1.438440203666687,0.007144535891711712,0.27620166540145874
160.0,239.0,6.0514,-3.4971,5.6076,-0.0238,0.017,-0.1179,-2.047638078729147,-0.008552541956305504,3.731191635131836,-0.7188909649848938,-0.0,1.907618522644043,3.446352644557617,0.0005897742812521756,0.26825231313705444,-1.2306044737445276,3.092786752781796e-16,-0.10217631608247757,0.9058192372322083,-0.00019327150948811322,-0.06355782598257065,1.438528299331665,0.00748901441693306,0.3363182544708252
160.0,239.0,6.0514,-3.4971,5.6076,-0.0238,0.017,-0.1179,-2.0477429829039515,-0.009983768686652184,3.7121148109436035,-0.7188423275947571,-0.0,1.9388339519500732,3.4462873178669433,0.0006055223057046533,0.24524830281734467,-1.2305882612811487,5.620986703052975e-21,-0.10747412592172623,0.9056983590126038,-0.00017214554827660322,-0.08103758096694946,1.4386118650436401,0.007030298002064228,0.3199918568134308
160.0,239.0,6.0514,-3.4971,5.6076,-0.0238,0.017,-0.1179,-2.0478269062437953,-0.011110641062259674,3.7528493404388428,-0.7188909649848938,-5.810422862850828e-07,1.9059293270111084,3.4462992387958984,0.000935691874474287,0.2701074481010437,-1.2306001822101038,1.0215866435450304e-25,-0.10305994749069214,0.9058471322059631,-0.0001551825989736244,-0.062491122633218765,1.438636064529419,0.007155966479331255,0.3514174818992615
160.0,239.0,6.0514,-3.4971,5.6076,-0.0238,0.017,-0.1179,-2.0478984318175257,-0.011179834604263306,3.719191551208496,-0.7188386917114258,-2.5256179911628486e-16,1.9127082824707031,3.4463111597248535,0.0025669315364211798,0.26421546936035156,-1.2306001822101038,1.2122816816301412e-31,-0.1174686849117279,0.9057794213294983,-0.00013816557475365698,-0.05721724033355713,1.4386755228042603,0.0072782584466040134,0.37239938974380493
160.0,239.0,6.0514,-3.4971,5.6076,-0.0238,0.017,-0.1179,-2.047941823998922,-0.011823180131614208,3.695773124694824,-0.7188501954078674,-8.182682987041122e-24,1.8911668062210083,3.4463516908833007,0.003975229803472757,0.2604207396507263,-1.2305720488177698,2.203262158398071e-36,-0.12064720690250397,0.9057950973510742,-0.00012702206731773913,-0.05441182851791382,1.4387520551681519,0.007240949664264917,0.3658904433250427
160.0,239.0,6.0514,-3.4971,5.6076,-0.0238,0.017,-0.1179,-2.048105855981344,-0.01319192349910736,3.6998350620269775,-0.7188226580619812,-2.6510853564434e-31,1.9655752182006836,3.446448488826416,0.004527066834270954,0.27291053533554077,-1.2306488196002405,-0.00021435774397104979,-0.10544146597385406,0.905799150466919,-0.00011754212755477056,-0.042484164237976074,1.4388357400894165,0.008402600884437561,0.32347410917282104
160.0,239.0,6.0514,-3.4971,5.6076,-0.0238,0.017,-0.1179,-2.048185487786764,-0.01569925993680954,3.699737071990967,-0.7188625335693359,-8.589180464364964e-39,1.897186040878296,3.4465085703083496,0.0041138483211398125,0.260540246963501,-1.23059589067568,-0.0001818476739572361,-0.12104271352291107,0.9058029055595398,-0.00010937906336039305,-0.04657436162233353,1.438887596130371,0.009029996581375599,0.3264070749282837
160.0,239.0,6.0514,-3.4971,5.6076,-0.0238,0.017,-0.1179,-2.048393865624899,-0.01828472875058651,3.722419500350952,-0.7188345789909363,-0.0,1.9192029237747192,3.446488543147705,0.002354346215724945,0.26359471678733826,-1.2305639425860804,-0.000173668609932065,-0.1136663407087326,0.9058311581611633,-0.00010064226080430672,-0.046783506870269775,1.4390077590942383,0.010071436874568462,0.3425585925579071
160.0,239.0,6.0514,-3.4971,5.6076,-0.0238,0.017,-0.1179,-2.0485454998412074,-0.019069107249379158,3.7038564682006836,-0.7188867926597595,-0.0,1.9355204105377197,3.4464961725422363,0.0010158746736124158,0.2700377106666565,-1.23059589067568,-0.0001600134710315615,-0.12534086406230927,0.9058271050453186,-9.459744615014642e-05,-0.05894941836595535,1.4390596151351929,0.010926538147032261,0.3088805675506592
160.0,239.0,6.0514,-3.4971,5.6076,-0.0238,0.017,-0.1179,-2.0487214527525843,-0.019377488642930984,3.7337393760681152,-0.7188263535499573,-0.0,1.9968523979187012,3.446488066310547,0.0005812001181766391,0.27957069873809814,-1.2305682341205042,-0.0001430557604180649,-0.11792737245559692,0.9058032631874084,-8.923763380153105e-05,-0.052942536771297455,1.4391393661499023,0.011194160208106041,0.3153618276119232
161.0,228.0,6.545,-3.4887,5.3109,-0.0287,-0.0072,-0.1286,-2.0488811932005824,-0.02039206773042679,3.657399892807007,-0.718890905380249,-0.0,1.9686936140060425,3.4464356142231445,0.00040613918099552393,0.2749366760253906,-1.2306245009051722,-0.0001293483073823154,-0.11557881534099579,0.9057711958885193,-8.445256389677525e-05,-0.041818734258413315,1.439203143119812,0.01268993504345417,0.3231160342693329
161.0,228.0,6.545,-3.4887,5.3109,-0.0287,-0.0072,-0.1286,-2.0491095981993617,-0.02307751588523388,3.740200996398926,-0.7188103199005127,-0.0,1.9639766216278076,3.446484251613281,0.0002951032656710595,0.2727305591106415,-1.23059589067568,-0.00011551317584235221,-0.11400854587554932,0.9058073163032532,-7.914768502814695e-05,-0.04667786881327629,1.439379334449768,0.013578282669186592,0.31841641664505005
161.0,228.0,6.545,-3.4887,5.3109,-0.0287,-0.0072,-0.1286,-2.049333234826559,-0.02585158497095108,3.705937385559082,-0.7188625335693359,-0.0,1.9588898420333862,3.446460409755371,0.00020251605019439012,0.27141958475112915,-1.2306121031390589,-0.00010640796244842932,-0.12979832291603088,0.9057950377464294,-7.536057819379494e-05,-0.056411292403936386,1.4394757747650146,0.013778811320662498,0.3299451470375061
161.0,228.0,6.545,-3.4887,5.3109,-0.0287,-0.0072,-0.1286,-2.0494963131346644,-0.027333147823810577,3.7516870498657227,-0.7189313173294067,-0.0,1.9606926441192627,3.446464701289795,0.00017109731561504304,0.26874688267707825,-1.2306044737445276,-9.863340528681874e-05,-0.11747131496667862,0.9058315753936768,-7.191932672867551e-05,-0.0633745864033699,1.4396072626113892,0.014146372675895691,0.268966943025589
161.0,228.0,6.545,-3.4887,5.3109,-0.0287,-0.0072,-0.1286,-2.0497285328307093,-0.0251285582780838,3.766873836517334,-0.7188868522644043,-0.0,1.9866564273834229,3.4464923578449707,0.0001485081302234903,0.27209746837615967,-1.230612579976217,-9.191766730509698e-05,-0.10203978419303894,0.9058114290237427,-4.5403307922242675e-06,-0.06454338133335114,1.4396789073944092,0.013522372581064701,0.3251155912876129
161.0,228.0,6.545,-3.4887,5.3109,-0.0287,-0.0072,-0.1286,-2.0499359569945277,-0.022348634898662567,3.780580759048462,-0.7188460826873779,-0.0,1.9978817701339722,3.4464847284504394,0.00012747218715958297,0.2636536657810211,-1.2305720488177698,-8.47082119435072e-05,-0.09848681092262268,0.9057912826538086,-5.3878546589503085e-12,-0.06836726516485214,1.4398552179336548,0.013092771172523499,0.24376684427261353
161.0,228.0,6.545,-3.4887,5.3109,-0.0287,-0.0072,-0.1286,-2.050164361993307,-0.02317730523645878,3.782644748687744,-0.7188542485237122,-0.0,2.0191307067871094,3.4464360910603027,0.00011449788871686906,0.26622432470321655,-1.2305524984942835,-7.970689330250025e-05,-0.09807521104812622,0.905735194683075,-9.792160120935801e-17,-0.054021865129470825,1.439959168434143,0.013868113979697227,0.21857821941375732
161.0,228.0,6.545,-3.4887,5.3109,-0.0287,-0.0072,-0.1286,-2.0503598652281703,-0.023978566750884056,3.77897047996521,-0.7188543081283569,-0.0,2.0033655166625977,3.4464117723652343,8.314275328302756e-05,0.2746247351169586,-1.2305362860309046,-7.526313129346818e-05,-0.10290533304214478,0.9057351350784302,-1.7796766645271382e-21,-0.05427436903119087,1.4400386810302734,0.013972543179988861,0.25092431902885437
161.0,228.0,6.545,-3.4887,5.3109,-0.0287,-0.0072,-0.1286,-2.050507207910055,-0.023759637027978897,3.7672829627990723,-0.7189106941223145,-0.0,1.9691342115402222,3.4464399057575683,7.610607281094417e-05,0.2747313380241394,-1.2305720488177698,-5.9414120187284425e-05,-0.07969756424427032,0.9058314561843872,-3.2344748494867574e-26,-0.06419173628091812,1.4401911497116089,0.012734511867165565,0.22818660736083984
161.0,228.0,6.545,-3.4887,5.3109,-0.0287,-0.0072,-0.1286,-2.0507594547667445,-0.02099483832716942,3.809627056121826,-0.7188905477523804,-0.0,1.9955356121063232,3.4464523035236816,6.883030437165871e-05,0.2725297212600708,-1.2305963675128382,-5.5728803999954835e-05,-0.09752710163593292,0.9057995080947876,-3.8382388479843184e-32,-0.06912150979042053,1.4403153657913208,0.010536952875554562,0.20251935720443726
160.0,239.0,6.5121,-3.2853,5.4227,-0.048,0.0313,-0.1376,-2.0509029827513636,-0.018564505502581596,3.829770565032959,-0.7188868522644043,-0.0,1.9945847988128662,3.4464923578449707,6.394023512257263e-05,0.27609771490097046,-1.2305567900287073,-5.3098479838809e-05,-0.0999535620212555,0.9057309627532959,-1.122049453350371e-09,-0.07330266386270523,1.440334439277649,0.007984297350049019,0.15248051285743713
160.0,239.0,6.5121,-3.2853,5.4227,-0.048,0.0313,-0.1376,-2.0510226688780726,-0.016571149230003357,3.81973934173584,-0.7188785672187805,-0.0,2.0638813972473145,3.4464847284504394,5.96988684264943e-05,0.2769114375114441,-1.2305806318866175,-5.070529368822463e-05,-0.0882364809513092,0.9057877659797668,-2.039269428777586e-14,-0.06128576397895813,1.4403386116027832,0.006145644932985306,0.15206602215766907
160.0,239.0,6.5121,-3.2853,5.4227,-0.048,0.0313,-0.1376,-2.051167150537008,-0.015874121338129044,3.879079818725586,-0.7188909649848938,-0.0,1.9873632192611694,3.4465204912373046,2.5396673663635738e-05,0.27121448516845703,-1.2305763403521937,-8.590957634169172e-08,-0.07672734558582306,0.905811071395874,-3.70627165645969e-19,-0.06126011908054352,1.4404023885726929,0.004883900284767151,0.11761371791362762
160.0,239.0,6.5121,-3.2853,5.4227,-0.048,0.0313,-0.1376,-2.05129398922109,-0.01565501093864441,3.9345521926879883,-0.7188868522644043,-0.0,2.045042037963867,3.4464918810078125,0.0005496483063325286,0.27688267827033997,-1.2305644194232386,-1.0194589719928968e-13,-0.08661866188049316,0.9057598114013672,-4.398104650442498e-25,-0.07194690406322479,1.4405146837234497,0.0032343179918825626,0.11610262095928192
160.0,239.0,6.5121,-3.2853,5.4227,-0.048,0.0313,-0.1376,-2.0513984165587367,-0.015546600334346294,3.899298906326294,-0.7188666462898254,-0.0,2.040771961212158,3.446512385005615,0.00234945653937757,0.2906217575073242,-1.2306245009051722,-1.8528161229230932e-18,-0.08133222162723541,0.9057790637016296,-7.99333751146725e-30,-0.0699850395321846,1.4405064582824707,0.0018124260241165757,0.1119493693113327
160.0,239.0,6.5121,-3.2853,5.4227,-0.048,0.0313,-0.1376,-2.05153812984609,-0.016077129170298576,3.9116735458374023,-0.7188624739646912,-0.0,2.078059196472168,3.446572466487549,0.003789176931604743,0.2904443144798279,-1.2305920759784144,-3.3674017108747946e-23,-0.09119843691587448,0.9057633876800537,-0.00016275476082228124,-0.07008124887943268,1.4404901266098022,0.001227706205099821,0.06958182156085968
160.0,239.0,6.5121,-3.2853,5.4227,-0.048,0.0313,-0.1376,-2.051662107507223,-0.01687784679234028,3.8824753761291504,-0.7188263535499573,0.0001417353341821581,2.062330484390259,3.446653051967285,0.0066155302338302135,0.29340994358062744,-1.2305925528155726,-6.120086325142623e-28,-0.08062507212162018,0.9057391881942749,-0.00015785898722242564,-0.05225985497236252,1.4404942989349365,0.0008089784532785416,0.06466099619865417
160.0,239.0,6.5121,-3.2853,5.4227,-0.048,0.0313,-0.1376,-2.0518700085081996,-0.018460633233189583,3.897294044494629,-0.7188510298728943,0.000147450904478319,2.057711601257324,3.4467288690754394,0.010708773508667946,0.3111647665500641,-1.230624024068014,-7.2624942995479515e-34,-0.09690605103969574,0.9057633876800537,-0.0001611560583114624,-0.06488841027021408,1.4404983520507812,0.0003990558616351336,0.08479921519756317
160.0,239.0,6.5121,-3.2853,5.4227,-0.048,0.0313,-0.1376,-2.051929613152975,-0.020097024738788605,3.92999267578125,-0.7188144326210022,0.00017635260883253068,2.0906453132629395,3.446852846736572,0.014773059636354446,0.3158612847328186,-1.2306044737445276,-1.3199224000343927e-38,-0.08627836406230927,0.9057711958885193,-0.00016775491531006992,-0.06958279013633728,1.4404380321502686,0.0002945465093944222,0.08712497353553772
160.0,239.0,6.5121,-3.2853,5.4227,-0.048,0.0313,-0.1376,-2.052157541314596,-0.021358810365200043,3.913510322570801,-0.718834638595581,0.0003560032637324184,2.0693886280059814,3.4469849306293945,0.020447686314582825,0.32035887241363525,-1.2306039969073694,-2.396220373995437e-43,-0.08282370120286942,0.9057431817054749,-0.0001734126708470285,-0.07458733022212982,1.4405064582824707,0.00023342315398622304,0.08382002264261246
160.0,239.0,6.5121,-3.2853,5.4227,-0.048,0.0313,-0.1376,-2.0523015461363734,-0.02274540811777115,3.888505220413208,-0.7188506126403809,0.00038773639244027436,2.108635902404785,3.447237654323242,0.032598644495010376,0.31819331645965576,-1.2305806318866175,-0.0,-0.0722665935754776,0.9057266116142273,-0.000249847857048735,-0.06989377737045288,1.440510630607605,0.00019330988288857043,0.09080741554498672
148.0,227.0,6.9003,-3.3781,6.0341,-0.0021,0.2483,-0.0521,-2.0525289974608363,-0.023843413218855858,3.9116625785827637,-0.7188186049461365,0.00047896860633045435,2.10579252243042,3.4476587015339355,0.0638682171702385,0.3340728282928467,-1.2306163946734827,-0.0,-0.08876831829547882,0.9057351350784302,-0.0006319938111118972,-0.07877922803163528,1.440462350845337,0.00015912922390270978,0.10265033692121506
148.0,227.0,6.9003,-3.3781,6.0341,-0.0021,0.2483,-0.0521,-2.0527130566039027,-0.025241760537028313,3.922146797180176,-0.7188428044319153,0.0003016700502485037,2.0716826915740967,3.4483610826679687,0.12001027911901474,0.36621707677841187,-1.2305367628680628,-0.0,-0.08641689270734787,0.9057230949401855,-0.0019617313519120216,-0.08219411224126816,1.440502405166626,0.00013940951612312347,0.08492989093065262
148.0,227.0,6.9003,-3.3781,6.0341,-0.0021,0.2483,-0.0521,-2.0529328785338343,-0.0285944826900959,3.875692367553711,-0.7188827395439148,0.0002334654564037919,2.1121037006378174,3.449530764217041,0.16054534912109375,0.3829057812690735,-1.2305963675128382,-0.0,-0.09505300223827362,0.9056753516197205,-0.005580045748502016,-0.07620358467102051,1.4404704570770264,0.00012403835717123002,0.11373469233512878
148.0,227.0,6.9003,-3.3781,6.0341,-0.0021,0.2483,-0.0521,-2.053232332269186,-0.03234202787280083,3.885383129119873,-0.7188061475753784,0.00019334000535309315,2.08909273147583,3.4509031015583496,0.17827923595905304,0.389099657535553,-1.2306202093707483,-0.0,-0.09540744125843048,0.90560382604599,-0.012783142738044262,-0.09024979919195175,1.4404783248901367,8.938863902585581e-05,0.053585588932037354
148.0,227.0,6.9003,-3.3781,6.0341,-0.0021,0.2483,-0.0521,-2.0535079441466273,-0.03351316228508949,3.8522281646728516,-0.7188543081283569,0.00015914911637082696,2.0844573974609375,3.45296494543042,0.22948341071605682,0.43685680627822876,-1.2305963675128382,-0.0,-0.09172681719064713,0.9055678844451904,-0.004195446614176035,-0.07696917653083801,1.4404823780059814,5.972344661131501e-05,0.1190476343035698
148.0,227.0,6.9003,-3.3781,6.0341,-0.0021,0.2483,-0.0521,-2.0537878475584925,-0.032275427132844925,3.864084243774414,-0.7188707590103149,0.0001577446673763916,2.1610565185546875,3.454834147090576,0.24463582038879395,0.44770896434783936,-1.2306082884417933,-5.027848359873133e-08,-0.1015392541885376,0.9055280685424805,-0.0010394018609076738,-0.08070442825555801,1.4404823780059814,5.4789976275060326e-05,0.06539286673069
148.0,227.0,6.9003,-3.3781,6.0341,-0.0021,0.2483,-0.0521,-2.054063936273092,-0.03183426335453987,3.8391199111938477,-0.7188666462898254,0.00012405123561620712,2.101223945617676,3.457090063686035,0.2928079664707184,0.447890043258667,-1.2305286566363733,-9.137866244929294e-13,-0.08896081149578094,0.9055240154266357,-0.0005863312399014831,-0.0904708206653595,1.4404864311218262,5.0676590035436675e-05,0.02241216041147709
148.0,227.0,6.9003,-3.3781,6.0341,-0.0021,0.2483,-0.0521,-2.0542785129942835,-0.03374548256397247,3.8593788146972656,-0.7188144326210022,0.00011173034727107733,2.0973048210144043,3.459624930019043,0.33609941601753235,0.48668932914733887,-1.2305401007281702,-1.6607621141221132e-17,-0.10445385426282883,0.9055601358413696,-0.00047640231787227094,-0.0936669260263443,1.4404983520507812,4.7137691581156105e-05,0.015276351943612099
148.0,227.0,6.9003,-3.3781,6.0341,-0.0021,0.2483,-0.0521,-2.0546628437437953,-0.036331258714199066,3.81967830657959,-0.7188830971717834,2.6132334824069403e-05,2.097296953201294,3.46320550023999,0.36960768699645996,0.4945574998855591,-1.2305720488177698,-1.970768758796953e-23,-0.08529984951019287,0.9054800271987915,-0.00027053456869907677,-0.09063263237476349,1.4404664039611816,4.33533095929306e-05,0.03290927782654762
148.0,227.0,6.9003,-3.3781,6.0341,-0.0021,0.2483,-0.0521,-2.054910799066061,-0.035361677408218384,3.8660998344421387,-0.718790590763092,2.9741684670625546e-07,2.089188575744629,3.4663049417683105,0.40919333696365356,0.5164788961410522,-1.2306326071368616,-3.581773973387168e-28,-0.09969134628772736,0.9054597020149231,-0.0003385371237527579,-0.09990707039833069,1.4404942989349365,4.073695163242519e-05,0.08260795474052429
148.0,227.0,6.9003,-3.3781,6.0341,-0.0021,0.2483,-0.0521,-2.0551821194090785,-0.03220947086811066,3.8724498748779297,-0.7188428044319153,9.635926429061963e-15,2.0935256481170654,3.469765825862549,0.44216328859329224,0.5163006782531738,-1.2305243651019495,-6.50969669702182e-33,-0.0873129665851593,0.9054355621337891,-0.0012967480579391122,-0.10416828095912933,1.4404864311218262,3.844248567475006e-05,0.0652114525437355
156.0,227.0,6.1352,-3.8734,5.3282,0.0244,0.5308,0.0531,-2.0554501018919886,-0.03152325004339218,3.8397469520568848,-0.7188707590103149,3.1219176635008784e-22,2.1035008430480957,3.473426027888916,0.4707682728767395,0.5378365516662598,-1.230572525654928,-1.1831050830417285e-37,-0.09472796320915222,0.9054965972900391,-0.0020117817912250757,-0.10112577676773071,1.4404704570770264,-1.3279451195558067e-05,0.06973249465227127
156.0,227.0,6.1352,-3.8734,5.3282,0.0244,0.5308,0.0531,-2.055786272088522,-0.030921775847673416,3.770352363586426,-0.7188506126403809,1.3570049020708936e-31,2.082937240600586,3.478195829982422,0.5002895593643188,0.5417947173118591,-1.2305963675128382,-1.401298464324817e-43,-0.09402421861886978,0.9054639339447021,-0.001851689419709146,-0.10811064392328262,1.4404664039611816,-0.00010074123565573245,0.07286670804023743
156.0,227.0,6.1352,-3.8734,5.3282,0.0244,0.5308,0.0531,-2.0560294590392054,-0.0318261943757534,3.7857298851013184,-0.7188263535499573,4.396523485074398e-39,2.008737564086914,3.4821697908588867,0.5187830328941345,0.5380051732063293,-1.2305763403521937,-0.0,-0.08675228804349899,0.9054561257362366,-0.0020505362190306187,-0.11478576809167862,1.440490484237671,-0.0002003432746278122,0.0387704037129879
156.0,227.0,6.1352,-3.8734,5.3282,0.0244,0.5308,0.0531,-2.056300779382223,-0.03279492259025574,3.7646522521972656,-0.7188707590103149,0.0,2.0470266342163086,3.486391230220459,0.5378580093383789,0.5545676946640015,-1.2305563131915491,-0.0,-0.09218981862068176,0.9053921103477478,-0.003500549588352442,-0.12649518251419067,1.4404667615890503,-0.00021252928127069026,0.0786578357219696
156.0,227.0,6.1352,-3.8734,5.3282,0.0244,0.5308,0.0531,-2.056517263452047,-0.03291578218340874,3.72156023979187,-0.7188992500305176,-0.0,2.048912286758423,3.490691824550293,0.5515428185462952,0.5485420823097229,-1.2305882612811487,-0.0,-0.09472081065177917,0.905348002910614,-0.004662154242396355,-0.12394118309020996,1.4404504299163818,-0.0004276209219824523,0.044949136674404144
156.0,227.0,6.1352,-3.8734,5.3282,0.0244,0.5308,0.0531,-2.0568486652769984,-0.03060663305222988,3.68973970413208,-0.7188107371330261,-0.0,2.0724706649780273,3.49630515157666,0.5460556149482727,0.5319767594337463,-1.23059589067568,-0.0,-0.07411502301692963,0.9053524136543274,-0.004092989955097437,-0.1275114119052887,1.4404265880584717,-0.0011433589970692992,0.033023104071617126
156.0,227.0,6.1352,-3.8734,5.3282,0.0244,0.5308,0.0531,-2.057068010369772,-0.028617460280656815,3.724520683288574,-0.7188624739646912,-0.0,2.047551393508911,3.5006648737141113,0.5543520450592041,0.5448060631752014,-1.2305720488177698,-0.0,-0.06589435786008835,0.905275821685791,-0.0025877458974719048,-0.14688178896903992,1.4404348134994507,-0.0014153196243569255,-0.022800084203481674
156.0,227.0,6.1352,-3.8734,5.3282,0.0244,0.5308,0.0531,-2.0572759113707484,-0.02836049348115921,3.683593511581421,-0.718826413154602,-0.0,2.0262973308563232,3.5049454408833007,0.5316597819328308,0.5256470441818237,-1.2306082884417933,-0.0,-0.08194063603878021,0.9053369164466858,-0.001648967619985342,-0.1439819186925888,1.4404265880584717,-0.001064113574102521,0.008220012299716473
156.0,227.0,6.1352,-3.8734,5.3282,0.0244,0.5308,0.0531,-2.0575276813902796,-0.031347550451755524,3.706448554992676,-0.7188190221786499,-0.0,2.039973020553589,3.509078188533447,0.5074191689491272,0.5225724577903748,-1.2306039969073694,-0.0,-0.07501931488513947,0.9053049087524414,-0.001269265078008175,-0.14941734075546265,1.4404147863388062,-0.0005755436141043901,0.017823927104473114
156.0,227.0,6.1352,-3.8734,5.3282,0.0244,0.5308,0.0531,-2.0578514538206996,-0.03445802256464958,3.6819324493408203,-0.7189032435417175,-0.0,1.9814515113830566,3.5138494211384277,0.46776387095451355,0.5057326555252075,-1.2305720488177698,-0.0,-0.07780672609806061,0.9052525162696838,-0.001520392601378262,-0.15021993219852448,1.4403984546661377,-0.0004211551568005234,0.04510901868343353
156.0,227.0,6.1352,-3.8734,5.3282,0.0244,0.5308,0.0531,-2.0580793819823207,-0.037367258220911026,3.6511449813842773,-0.7188190221786499,-0.0,2.0063915252685547,3.5172602373310546,0.41456109285354614,0.48810023069381714,-1.2306202093707483,-0.0,-0.09165022522211075,0.9051879048347473,-0.0022765430621802807,-0.1399422287940979,1.440366506576538,-0.0003744999412447214,0.06310689449310303
180.0,215.0,2.7846,-2.8911,7.1725,-0.0447,-0.0142,-0.1448,-2.0583306751646937,-0.038939014077186584,3.628471612930298,-0.7188308835029602,-0.0,1.984309196472168,3.5203067499348144,0.35792452096939087,0.4396992623806,-1.230624024068014,-0.0,-0.0916493833065033,0.9052606821060181,-0.0027004170697182417,-0.1508791297674179,1.4404107332229614,-0.00030316278571262956,0.0740552768111229
180.0,215.0,2.7846,-2.8911,7.1725,-0.0447,-0.0142,-0.1448,-2.058634420434469,-0.038592252880334854,3.56547474861145,-0.718798816204071,0.00020736864826176316,1.9657844305038452,3.5228378015705566,0.2740815281867981,0.3905448317527771,-1.2305720488177698,-0.0,-0.09577444195747375,0.9052124619483948,-0.003346273209899664,-0.15955181419849396,1.4403865337371826,-9.457427950110286e-05,0.10337692499160767
180.0,215.0,2.7846,-2.8911,7.1725,-0.0447,-0.0142,-0.1448,-2.0590344868102015,-0.03844764456152916,3.5126757621765137,-0.7188428044319153,0.00025977464974857867,1.9399099349975586,3.5249082285114746,0.17030179500579834,0.3606307804584503,-1.230607811604635,-0.0,-0.10099197924137115,0.9051604270935059,-0.0038154409267008305,-0.15123504400253296,1.4404147863388062,-1.8273169644089649e-07,0.16397032141685486
180.0,215.0,2.7846,-2.8911,7.1725,-0.0447,-0.0142,-0.1448,-2.0593978367247523,-0.03912331536412239,3.4990673065185547,-0.7187822461128235,0.00020642043091356754,1.9809000492095947,3.5257512766071777,0.06334932148456573,0.3012181520462036,-1.2305720488177698,-0.0,-0.10868552327156067,0.9051927924156189,-0.0030937790870666504,-0.15617048740386963,1.440430760383606,-5.920273680879362e-15,0.19219274818897247
180.0,215.0,2.7846,-2.8911,7.1725,-0.0447,-0.0142,-0.1448,-2.0597459278502406,-0.04006277397274971,3.5077972412109375,-0.7188346982002258,0.00018250136054120958,1.9266127347946167,3.52576653539624,-0.033544205129146576,0.25894895195961,-1.2305997053729456,-0.0002069897745968774,-0.11308018118143082,0.9051607847213745,-0.0020829939749091864,-0.1584772914648056,1.4403700828552246,0.001846959930844605,0.2442280650138855
180.0,215.0,2.7846,-2.8911,7.1725,-0.0447,-0.0142,-0.1448,-2.0600534878172816,-0.03960288688540459,3.463475227355957,-0.7188349962234497,5.1865470595657825e-05,1.9412622451782227,3.5252744394489746,-0.08450356870889664,0.22304733097553253,-1.2306039969073694,-0.00022038021415937692,-0.10664159059524536,0.9051001667976379,-0.0015560392057523131,-0.16973043978214264,1.4404304027557373,0.0017375063616782427,0.27642256021499634
180.0,215.0,2.7846,-2.8911,7.1725,-0.0447,-0.0142,-0.1448,-2.0604807339110316,-0.03786386176943779,3.4598588943481445,-0.7188189625740051,5.282703528092236e-13,1.9102871417999268,3.5242253977009277,-0.11401529610157013,0.19932284951210022,-1.2306440512286585,-0.0001834782597143203,-0.11663130670785904,0.9050960540771484,-0.0016330430516973138,-0.16358524560928345,1.4404585361480713,0.0017116910312324762,0.27678507566452026
180.0,215.0,2.7846,-2.8911,7.1725,-0.0447,-0.0142,-0.1448,-2.0608164272704066,-0.0382266566157341,3.3960046768188477,-0.71884685754776,-0.0008303140057250857,1.889782190322876,3.5233375269123535,-0.11422647535800934,0.18417859077453613,-1.23059589067568,-0.00016152313037309796,-0.10760331898927689,0.9050526022911072,-0.0017243210459128022,-0.16479606926441193,1.4404783248901367,0.001471314113587141,0.2371584177017212
180.0,215.0,2.7846,-2.8911,7.1725,-0.0447,-0.0142,-0.1448,-2.0611444912352503,-0.04175180196762085,3.41131591796875,-0.7188262939453125,-0.0007413087296299636,1.8876447677612305,3.5224062639423828,-0.14636163413524628,0.16144372522830963,-1.2306121031390589,-0.00014426151756197214,-0.1185583621263504,0.9050852060317993,-0.0016301495488733053,-0.17927469313144684,1.4405025243759155,0.0014312447747215629,0.26624342799186707
180.0,215.0,2.7846,-2.8911,7.1725,-0.0447,-0.0142,-0.1448,-2.061491628686422,-0.04740740358829498,3.386338710784912,-0.7188707590103149,-0.0004740673175547272,1.832258939743042,3.521101637477539,-0.1722583919763565,0.14198647439479828,-1.2306163946734827,-0.00013033316645305604,-0.1062394380569458,0.9050567150115967,-0.002003084635362029,-0.1729738712310791,1.4405146837234497,0.001113280770368874,0.26917728781700134
182.0,214.0,6.0012,-4.3214,6.0808,-0.1029,-0.1756,-0.1929,-2.061995645562643,-0.051781076937913895,3.3980650901794434,-0.7188547253608704,-0.0003444469184614718,1.8035552501678467,3.5193659502216796,-0.1646677404642105,0.1418321430683136,-1.2305806318866175,-0.0001162979388027452,-0.09813733398914337,0.9050691723823547,-0.0028736721724271774,-0.17436274886131287,1.440510630607605,0.0008226241916418076,0.25584861636161804
182.0,214.0,6.0012,-4.3214,6.0808,-0.1029,-0.1756,-0.1929,-2.0623022518553675,-0.05245455354452133,3.416347026824951,-0.7187662720680237,-6.095424851082498e-06,1.8529711961746216,3.518061800593994,-0.1749519556760788,0.13224509358406067,-1.2305963675128382,-0.0001070737125701271,-0.10811713337898254,0.9050002098083496,-0.00311096990481019,-0.1742534190416336,1.4405183792114258,0.0006183559889905155,0.22465723752975464
182.0,214.0,6.0012,-4.3214,6.0808,-0.1029,-0.1756,-0.1929,-2.0627623997130335,-0.053432442247867584,3.428556203842163,-0.718782365322113,-1.9748405113897277e-13,1.8925845623016357,3.5167462068745117,-0.15050773322582245,0.13635200262069702,-1.2305520216571253,-8.267213706858456e-05,-0.09169954806566238,0.9049564599990845,-0.003546975553035736,-0.1718616783618927,1.4404499530792236,0.00040268906741403043,0.16030696034431458
182.0,214.0,6.0012,-4.3214,6.0808,-0.1029,-0.1756,-0.1929,-2.063265462914938,-0.05635494738817215,3.443251609802246,-0.718790590763092,-6.398231940678082e-21,1.866086721420288,3.5156590181538085,-0.14922529458999634,0.15871986746788025,-1.2305882612811487,-6.362458952935413e-05,-0.08957108855247498,0.9049686789512634,-0.0028779536951333284,-0.18254896998405457,1.440510630607605,6.214786844793707e-05,0.14020414650440216
182.0,214.0,6.0012,-4.3214,6.0808,-0.1029,-0.1756,-0.1929,-2.0639096699156703,-0.06552635878324509,3.5147154331207275,-0.7188272476196289,-2.7811214567573516e-30,1.867340087890625,3.514139338130615,-0.1500270962715149,0.15373799204826355,-1.2305644194232386,-4.258082481101155e-05,-0.09699063748121262,0.9049412608146667,-0.001277078757993877,-0.17369839549064636,1.4404783248901367,2.1770599374897753e-13,0.09854361414909363
182.0,214.0,6.0012,-4.3214,6.0808,-0.1029,-0.1756,-0.1929,-2.0644003353514613,-0.07562926411628723,3.499347448348999,-0.7188625335693359,-9.010480287144835e-38,1.8865699768066406,3.513026400203369,-0.12012041360139847,0.16688573360443115,-1.2305563131915491,3.741938780876808e-05,-0.0931473895907402,0.9049370288848877,-0.0008742084610275924,-0.16267970204353333,1.4404664039611816,7.053398163808077e-21,0.039759062230587006
182.0,214.0,6.0012,-4.3214,6.0808,-0.1029,-0.1756,-0.1929,-2.065132280389303,-0.0837150514125824,3.5232691764831543,-0.71880704164505,-2.802596928649634e-45,1.880162000656128,3.5121957498737792,-0.11017586290836334,0.17606422305107117,-1.2305806318866175,5.191317541175522e-05,-0.0791013240814209,0.9049530625343323,-0.00046532900887541473,-0.17599499225616455,1.440482497215271,-0.0006462029996328056,0.011137504130601883
182.0,214.0,6.0012,-4.3214,6.0808,-0.1029,-0.1756,-0.1929,-2.06581511119985,-0.07865431904792786,3.581362247467041,-0.7187823057174683,3.923073745681904e-05,1.858771800994873,3.511335535640381,-0.10544576495885849,0.17648395895957947,-1.2305806318866175,6.429462519008666e-05,-0.06618238985538483,0.9049246311187744,-0.0003944833588320762,-0.18448087573051453,1.4404664039611816,-0.0005428303265944123,0.021335402503609657
182.0,214.0,6.0012,-4.3214,6.0808,-0.1029,-0.1756,-0.1929,-2.066566606561178,-0.06467800587415695,3.642573595046997,-0.7188107967376709,1.0293460528387754e-11,1.9505423307418823,3.5104123789020996,-0.0752711370587349,0.1891867220401764,-1.2305682341205042,7.328507490456104e-05,-0.05468975752592087,0.9049448370933533,-0.0003371060302015394,-0.16752567887306213,1.4404786825180054,-0.0003748623130377382,-0.027989830821752548
182.0,214.0,6.0012,-4.3214,6.0808,-0.1029,-0.1756,-0.1929,-2.067101617852682,-0.06948722153902054,3.6109540462493896,-0.7188991904258728,-0.0013357027200981975,1.9029486179351807,3.5099565225788574,-0.04112137854099274,0.19359086453914642,-1.230544392262594,0.00022608964354731143,-0.05248941481113434,0.9049690365791321,-0.0003173218865413219,-0.17217540740966797,1.4404664039611816,-0.00028115554596297443,-0.07102959603071213
182.0,214.0,6.0012,-4.3214,6.0808,-0.1029,-0.1756,-0.1929,-2.0677529774107875,-0.08188758790493011,3.5954439640045166,-0.7188867926597595,-0.0012746361317113042,1.9187061786651611,3.5097099977680664,-0.024977141991257668,0.19511349499225616,-1.2305157820331019,0.00026850937865674496,-0.057610850781202316,0.9049530029296875,-0.0002391945308772847,-0.16107217967510223,1.4404864311218262,-0.00022493427968584,-0.06206724792718887
166.0,208.0,6.4295,-4.0726,6.4301,-0.0776,-0.0316,-0.1437,-2.068303724328512,-0.08746188879013062,3.6152660846710205,-0.7189514636993408,-2.9396545642157434e-07,1.8848451375961304,3.5095740991779785,-0.017885958775877953,0.19463536143302917,-1.2305687109576624,0.00026215994148515165,-0.050318408757448196,0.9049326181411743,-0.0001972440368263051,-0.17741194367408752,1.440510630607605,-0.00018745148554444313,-0.050102557986974716
166.0,208.0,6.4295,-4.0726,6.4301,-0.0776,-0.0316,-0.1437,-2.0690280399718226,-0.08810300379991531,3.614957094192505,-0.7188029289245605,0.0016922027571126819,1.8891741037368774,3.509490652675293,-0.012251169420778751,0.20659701526165009,-1.2305482069598597,0.00022926977544557303,-0.05330966040492058,0.9049081206321716,-0.000167815072927624,-0.1632152646780014,1.4404983520507812,-0.0001923661766340956,-0.05814896523952484
166.0,208.0,6.4295,-4.0726,6.4301,-0.0776,-0.0316,-0.1437,-2.0698381863036097,-0.07878826558589935,3.664041757583618,-0.71880704164505,0.0019396643619984388,1.907731056213379,3.509422941798828,-0.0031756660901010036,0.22155433893203735,-1.2305806318866175,0.0001977776555577293,-0.052484914660453796,0.9049203991889954,-0.00016959795902948827,-0.16663017868995667,1.4404704570770264,-0.00014568598999176174,-0.11005554348230362
166.0,208.0,6.4295,-4.0726,6.4301,-0.0776,-0.0316,-0.1437,-2.0704900226988734,-0.06651724129915237,3.7725391387939453,-0.7187864184379578,0.0015106459613889456,1.9835705757141113,3.5094472604938964,-1.0926312370429514e-06,0.2211211770772934,-1.2305524984942835,0.00017819672939367592,-0.0436372235417366,0.9049246311187744,-0.00016310633509419858,-0.17830583453178406,1.4405146837234497,-0.00012159998732386157,-0.0852394551038742
166.0,208.0,6.4295,-4.0726,6.4301,-0.0776,-0.0316,-0.1437,-2.0710493526854457,-0.06394136697053909,3.7644379138946533,-0.7188390493392944,0.00017514036153443158,1.9653340578079224,3.5094873148151855,-1.9858033620256954e-11,0.24554070830345154,-1.2305482069598597,0.0001621440751478076,-0.05876723676919937,0.9049412608146667,-0.0001582255499670282,-0.1693280041217804,1.4405266046524048,-8.782619261182845e-05,-0.09514909982681274
166.0,208.0,6.4295,-4.0726,6.4301,-0.0776,-0.0316,-0.1437,-2.0715681515135707,-0.06774791330099106,3.7694454193115234,-0.7188628911972046,-0.002656617434695363,1.9884378910064697,3.509455366725586,-3.609099656247595e-16,0.24578456580638885,-1.2305081526385706,0.00014874472981318831,-0.045845307409763336,0.9049094319343567,-0.00016457284800708294,-0.16029271483421326,1.4405748844146729,-7.998826913535595e-05,-0.11727813631296158
166.0,208.0,6.4295,-4.0726,6.4301,-0.0776,-0.0316,-0.1437,-2.0722671947874964,-0.0787733793258667,3.7632641792297363,-0.7188341021537781,-0.0013106834376230836,2.0093576908111572,3.5093795496174316,-0.001460295170545578,0.22975239157676697,-1.2305567900287073,0.00012796299415640533,-0.06636261194944382,0.9049013257026672,-0.0001598960952833295,-0.16610674560070038,1.4404982328414917,-7.199051469797269e-05,-0.14534789323806763
166.0,208.0,6.4295,-4.0726,6.4301,-0.0776,-0.0316,-0.1437,-2.0728708706297816,-0.0787925198674202,3.717160701751709,-0.7188748717308044,-8.559474196090378e-08,1.9265856742858887,3.5093557077595214,-0.00445410655811429,0.23569560050964355,-1.2305281797992151,0.00011489005555631593,-0.04908687621355057,0.9049615859985352,-0.00019005306239705533,-0.17062892019748688,1.4405585527420044,-5.007180152460933e-05,-0.09608140587806702
166.0,208.0,6.4295,-4.0726,6.4301,-0.0776,-0.0316,-0.1437,-2.0734383068480433,-0.07060996443033218,3.6939799785614014,-0.7187947630882263,0.0011070462642237544,1.9486103057861328,3.5093118387409667,-0.006363069172948599,0.23450405895709991,-1.230584446583883,8.375522156711668e-05,-0.05302615463733673,0.9049176573753357,-0.0005380258662626147,-0.1804657280445099,1.440530776977539,-6.206189573276788e-05,-0.0715874433517456
166.0,208.0,6.4295,-4.0726,6.4301,-0.0776,-0.0316,-0.1437,-2.073937078515524,-0.06173670291900635,3.6825122833251953,-0.7187947034835815,0.0012575036380439997,1.9546465873718262,3.509272738093994,-0.010328507982194424,0.21092768013477325,-1.2305524984942835,7.632251072209328e-05,-0.05955996736884117,0.9048536419868469,-0.0012743629049509764,-0.16888833045959473,1.4405426979064941,-4.35438851127401e-05,-0.09449189901351929
166.0,208.0,6.4295,-4.0726,6.4301,-0.0776,-0.0316,-0.1437,-2.07452454189443,-0.05494944006204605,3.712188720703125,-0.7187744975090027,0.00040043058106675744,1.9669125080108643,3.5090767580219726,-0.02140820398926735,0.2184600830078125,-1.2305963675128382,6.900733569636941e-05,-0.06903034448623657,0.9048328995704651,-0.0011555289383977652,-0.18662039935588837,1.440550446510315,-4.0294700738741085e-05,-0.014318255707621574
162.0,205.0,6.5133,-3.6072,6.3135,-0.0156,-0.0554,-0.1742,-2.075045248071188,-0.06006551533937454,3.727181911468506,-0.718790590763092,0.00020449479052331299,1.9646395444869995,3.508849783534668,-0.036394376307725906,0.23505020141601562,-1.2305644194232386,6.409296474885195e-05,-0.06762828677892685,0.9047932624816895,-0.0008193016983568668,-0.18450692296028137,1.4405425786972046,2.965250314446166e-05,-0.02885625883936882
162.0,205.0,6.5133,-3.6072,6.3135,-0.0156,-0.0554,-0.1742,-2.0755282841124476,-0.06451621651649475,3.6862425804138184,-0.7188231348991394,0.0001563595433253795,1.9733083248138428,3.5084797578999023,-0.053829971700906754,0.21984383463859558,-1.230584446583883,5.9831996622961015e-05,-0.06925447285175323,0.9048696160316467,-0.0006789487088099122,-0.16872553527355194,1.4405064582824707,1.8661767171579413e-05,-0.004986685700714588
162.0,205.0,6.5133,-3.6072,6.3135,-0.0156,-0.0554,-0.1742,-2.0759674511351527,-0.06264595687389374,3.692979335784912,-0.7187864184379578,0.0001692650985205546,1.965747594833374,3.5079991060444335,-0.05681002885103226,0.21334433555603027,-1.2305362860309046,5.610222797258757e-05,-0.05734602361917496,0.9048128128051758,-0.0004315305850468576,-0.1818382740020752,1.4404983520507812,1.3099867828714196e-05,-0.025789035484194756
162.0,205.0,6.5133,-3.6072,6.3135,-0.0156,-0.0554,-0.1742,-2.076534410516256,-0.051812682300806046,3.6840767860412598,-0.7188830971717834,0.0001370454701827839,1.9874670505523682,3.5075012880512695,-0.034815505146980286,0.19263450801372528,-1.2305806318866175,5.204682383919135e-05,-0.05943353474140167,0.9048860669136047,-0.00034968703403137624,-0.17818604409694672,1.4405146837234497,4.1833057200582613e-13,-0.02875635400414467
