ramyac6/ROB537/final_project/csv/good/good_199.csv
tof_0,tof_1,accelx,accely,accelz,gyrox,gyroy,gyroz,shoulder_lift_joint_position,shoulder_lift_joint_velocity,shoulder_lift_joint_effort,elbow_joint_position,elbow_joint_velocity,elbow_joint_effort,wrist_1_joint_position,wrist_1_joint_velocity,wrist_1_joint_effort,wrist_2_joint_position,wrist_2_joint_velocity,wrist_2_joint_effort,wrist_3_joint_position,wrist_3_joint_velocity,wrist_3_joint_effort,shoulder_pan_joint_position,shoulder_pan_joint_velocity,shoulder_pan_joint_effort
983.0,1003.0,1.666,-0.3954,9.4846,-0.033,0.0203,-0.1151,-1.520323098903038,0.0,1.7716350555419922,-2.066878080368042,-0.0,2.00134539604187,4.883492487459936,-0.0,0.29660746455192566,-1.5972612539874476,0.0,0.0027705091051757336,0.9908074140548706,0.0,0.0045062825083732605,0.7066633701324463,0.0,0.016045715659856796
983.0,1003.0,1.666,-0.3954,9.4846,-0.033,0.0203,-0.1151,-1.5203389909914513,0.0,1.7681808471679688,-2.066882371902466,-0.0,2.00815486907959,4.883444148093023,-0.0,0.3003023862838745,-1.5972541014300745,0.0,-0.0038122483529150486,0.9908037185668945,0.0,0.002440240466967225,0.706667423248291,0.0,-0.013532728888094425
983.0,1003.0,1.666,-0.3954,9.4846,-0.033,0.0203,-0.1151,-1.520315160309412,0.0,1.7949397563934326,-2.066861629486084,-0.0,1.9982271194458008,4.883512529521742,-0.0,0.2898058295249939,-1.5972736517535608,0.0,-0.016233880072832108,0.9907675981521606,0.0,-0.00391783844679594,0.7066715955734253,0.0,-0.015931954607367516
983.0,1003.0,1.666,-0.3954,9.4846,-0.033,0.0203,-0.1151,-1.5203031201711674,0.0,1.831864356994629,-2.066878080368042,-0.0,1.9441075325012207,4.883504378586569,-0.0,0.2996928095817566,-1.597290341054098,0.0,-0.0038117310032248497,0.9907957315444946,0.0,-0.0025425234343856573,0.7066433429718018,0.0,-0.03504248708486557
983.0,1003.0,1.666,-0.3954,9.4846,-0.033,0.0203,-0.1151,-1.520367109482624,0.0,1.797879934310913,-2.0669028759002686,-0.0,2.0323781967163086,4.883512529521742,-0.0,0.28663867712020874,-1.5972335974322718,0.0,-0.008038124069571495,0.9907717704772949,0.0,0.002484220778569579,0.7066269516944885,0.0,0.008896587416529655
983.0,1003.0,1.666,-0.3954,9.4846,-0.033,0.0203,-0.1151,-1.520371065740921,0.0,1.7704651355743408,-2.0669193267822266,-0.0,2.021017551422119,4.8834924576576135,-0.0,0.2830522060394287,-1.597245995198385,0.0,-0.01738140732049942,0.9907753467559814,0.0,0.006913560442626476,0.7066633701324463,0.0,0.024455763399600983
983.0,1003.0,1.666,-0.3954,9.4846,-0.033,0.0203,-0.1151,-1.5203191463700314,0.0,1.8419663906097412,-2.0668864250183105,-0.0,2.0561485290527344,4.883476453810491,-0.0,0.29686132073402405,-1.5972541014300745,0.0,-0.004458238836377859,0.9908158779144287,0.0,0.001405550166964531,0.7066592574119568,0.0,0.00042946403846144676
995.0,8190.0,1.7509,-0.3679,9.3386,-0.0348,0.0217,-0.1194,-1.5203191314688702,0.0,1.7925331592559814,-2.0669071674346924,-0.0,2.0723459720611572,4.883424076228895,-0.0,0.2862808406352997,-1.5973218123065394,0.0,-0.008000507019460201,0.9908277988433838,0.0,-0.006045128218829632,0.7066795229911804,0.0,0.033580150455236435
995.0,8190.0,1.7509,-0.3679,9.3386,-0.0348,0.0217,-0.1194,-1.5203591150096436,0.0,1.7739804983139038,-2.066922664642334,-0.0,2.016099691390991,4.883516016393461,-0.0,0.2914234399795532,-1.597302261983053,0.0,-0.01721402071416378,0.9908478260040283,0.0,0.0010744775645434856,0.7066795229911804,0.0,-0.036361102014780045
995.0,8190.0,1.7509,-0.3679,9.3386,-0.0348,0.0217,-0.1194,-1.5203590256026764,0.0,1.7991329431533813,-2.0669710636138916,-0.0,2.0136518478393555,4.883492845087805,-0.0,0.3021668493747711,-1.597302261983053,0.0,-0.007475261110812426,0.9908843636512756,0.0,-0.0011361748911440372,0.7066754102706909,0.0,0.0019426485523581505
995.0,8190.0,1.7509,-0.3679,9.3386,-0.0348,0.0217,-0.1194,-1.5203430776349087,0.0,1.820984125137329,-2.0669546127319336,-0.0,1.9977357387542725,4.883540454297819,-0.0,0.2956703007221222,-1.5972736517535608,0.0,-0.0043716770596802235,0.9908193945884705,0.0,-0.011406675912439823,0.7066913843154907,0.0,0.018112951889634132
995.0,8190.0,1.7509,-0.3679,9.3386,-0.0348,0.0217,-0.1194,-1.5203550283661862,0.0,1.8510550260543823,-2.0668985843658447,-0.0,1.9785364866256714,4.883452373534002,-0.0,0.31076034903526306,-1.597253147755758,0.0,-0.018894506618380547,0.9908357262611389,0.0,-0.0013121163938194513,0.706695556640625,0.0,0.0023535266518592834
995.0,8190.0,1.7509,-0.3679,9.3386,-0.0348,0.0217,-0.1194,-1.520331037496664,0.0,1.7807536125183105,-2.0668585300445557,-0.0,2.0185861587524414,4.88346420505599,-0.0,0.27702558040618896,-1.5972655455218714,0.0,-0.0034125149250030518,0.9908955693244934,0.0,-0.011969150975346565,0.7066510319709778,0.0,-0.01621132716536522
995.0,8190.0,1.7509,-0.3679,9.3386,-0.0348,0.0217,-0.1194,-1.5203430776349087,0.0,1.826498031616211,-2.0668864250183105,-0.0,2.0068094730377197,4.88343225696639,-0.0,0.29311293363571167,-1.5972583929644983,0.0,-0.0023673076648265123,0.990871787071228,0.0,0.0024377962108701468,0.7066754102706909,0.0,0.03493822365999222
995.0,8190.0,1.7509,-0.3679,9.3386,-0.0348,0.0217,-0.1194,-1.5202991229346772,0.0,1.8002252578735352,-2.0669071674346924,-0.0,2.034574270248413,4.883512529521742,-0.0,0.2982821762561798,-1.5972736517535608,0.0,2.2285617887973785e-05,0.9908318519592285,0.0,0.01290061790496111,0.7066071629524231,0.0,-0.00657089427113533
995.0,8190.0,1.7509,-0.3679,9.3386,-0.0348,0.0217,-0.1194,-1.520315160309412,0.0,1.7653439044952393,-2.0668864250183105,-0.0,1.9869791269302368,4.883504810720243,-0.0,0.28711146116256714,-1.597253147755758,0.0,0.0035507145803421736,0.9907675981521606,0.0,-0.004925254732370377,0.7066754102706909,0.0,0.01865224726498127
995.0,8190.0,1.7509,-0.3679,9.3386,-0.0348,0.0217,-0.1194,-1.5203310672989865,0.0,1.8336727619171143,-2.066898822784424,-0.0,2.0106396675109863,4.883512544422903,-0.0,0.3050387501716614,-1.5972612539874476,0.0,-0.002674383344128728,0.9908638596534729,0.0,0.009879299439489841,0.7066514492034912,0.0,-0.056127339601516724
995.0,8190.0,1.7509,-0.3679,9.3386,-0.0348,0.0217,-0.1194,-1.5202911992422123,0.0,1.8156180381774902,-2.066843032836914,-0.0,2.009582281112671,4.883480521827497,-0.0,0.28321197628974915,-1.5972941557513636,0.0,-0.0023405393585562706,0.990835964679718,0.0,-0.003723486326634884,0.706639289855957,0.0,0.008481387048959732
995.0,8190.0,1.7509,-0.3679,9.3386,-0.0348,0.0217,-0.1194,-1.5203231138041993,0.0,1.7848254442214966,-2.066898822784424,-0.0,2.0383236408233643,4.8834965256746194,-0.0,0.2874385416507721,-1.5972655455218714,0.0,-0.006299613509327173,0.9908199906349182,0.0,0.0012683095410466194,0.7066351175308228,0.0,-0.0023956717923283577
8190.0,985.0,1.7228,-0.3697,9.3942,-0.0353,0.0211,-0.1216,-1.5203070913306256,0.0,1.8225446939468384,-2.0669071674346924,-0.0,2.0212178230285645,4.883500712900915,-0.0,0.30710214376449585,-1.5972779432879847,0.0,-0.008851626887917519,0.9908196330070496,0.0,0.016537513583898544,0.7066715955734253,0.0,-0.03854740411043167
8190.0,985.0,1.7228,-0.3697,9.3942,-0.0353,0.0211,-0.1216,-1.5203270402601738,0.0,1.8102080821990967,-2.066850185394287,-0.0,2.0097293853759766,4.883476453810491,-0.0,0.2969008684158325,-1.5972612539874476,0.0,0.00046835816465318203,0.9908323287963867,0.0,-0.0008620733860880136,0.7066432237625122,0.0,0.01250184141099453
8190.0,985.0,1.7228,-0.3697,9.3942,-0.0353,0.0211,-0.1216,-1.5203550283661862,0.0,1.8012299537658691,-2.0668656826019287,-0.0,2.0300464630126953,4.883508491307058,-0.0,0.2925041913986206,-1.5972822348224085,0.0,-0.004286026116460562,0.9908155798912048,0.0,-0.009272081777453423,0.7066514492034912,0.0,0.013003750704228878
8190.0,985.0,1.7228,-0.3697,9.3942,-0.0353,0.0211,-0.1216,-1.5203829866698761,0.0,1.7942358255386353,-2.066878318786621,-0.0,2.011096715927124,4.883524152427473,-0.0,0.28856706619262695,-1.5972612539874476,0.0,-0.01189018040895462,0.9907835125923157,0.0,0.009813182055950165,0.7066754102706909,0.0,-0.006019730120897293
8190.0,985.0,1.7228,-0.3697,9.3942,-0.0353,0.0211,-0.1216,-1.5203390096179028,0.0,1.805649995803833,-2.0668656826019287,-0.0,2.0330238342285156,4.883504810720243,-0.0,0.2887040376663208,-1.597257439290182,0.0,-0.006636748556047678,0.9908196926116943,0.0,-0.003937453962862492,0.7066351175308228,0.0,0.011391066014766693
8190.0,985.0,1.7228,-0.3697,9.3942,-0.0353,0.0211,-0.1216,-1.5203389909914513,0.0,1.8170721530914307,-2.066878080368042,-0.0,2.014758825302124,4.883476453810491,-0.0,0.3058759570121765,-1.5972378889666956,0.0,-0.004356300458312035,0.9908356666564941,0.0,-0.012503650039434433,0.7066556215286255,0.0,0.009284826926887035
8190.0,985.0,1.7228,-0.3697,9.3942,-0.0353,0.0211,-0.1216,-1.5203429882279416,0.0,1.806401014328003,-2.0669071674346924,-0.0,2.0423731803894043,4.883472490101614,-0.0,0.29306507110595703,-1.5972822348224085,0.0,0.010037780739367008,0.9908196926116943,0.0,-0.01140518393367529,0.7066473364830017,0.0,0.05503172054886818
8190.0,985.0,1.7228,-0.3697,9.3942,-0.0353,0.0211,-0.1216,-1.5203350347331543,0.0,1.8195092678070068,-2.0668699741363525,-0.0,2.0305252075195312,4.883460539370336,-0.0,0.29714131355285645,-1.5972941557513636,0.0,-0.007384997792541981,0.9908237457275391,0.0,-0.0026983204297721386,0.7066473960876465,0.0,-0.023742999881505966
8190.0,985.0,1.7228,-0.3697,9.3942,-0.0353,0.0211,-0.1216,-1.520351057206728,0.0,1.8365294933319092,-2.066894769668579,-0.0,2.0237913131713867,4.883496555476942,-0.0,0.296019583940506,-1.597302261983053,0.0,-0.006423130165785551,0.9908155202865601,0.0,-0.0006122901104390621,0.7066391706466675,0.0,0.009263455867767334
8190.0,985.0,1.7228,-0.3697,9.3942,-0.0353,0.0211,-0.1216,-1.520331037496664,0.0,1.7732850313186646,-2.0669028759002686,-0.0,2.045510768890381,4.88346420505599,-0.0,0.29587289690971375,-1.5972898642169397,0.0,0.005795096512883902,0.9908036589622498,0.0,0.005558169912546873,0.7066712975502014,0.0,0.008771732449531555
8190.0,985.0,1.7228,-0.3697,9.3942,-0.0353,0.0211,-0.1216,-1.5203389909914513,0.0,1.8034220933914185,-2.0668866634368896,-0.0,2.0008749961853027,4.88348055162982,-0.0,0.29838988184928894,-1.5972941557513636,0.0,-0.011370955035090446,0.9908359050750732,0.0,0.003323946613818407,0.7066391110420227,0.0,-0.002718506380915642
8190.0,985.0,1.7228,-0.3697,9.3942,-0.0353,0.0211,-0.1216,-1.520331037496664,0.0,1.7822391986846924,-2.066882371902466,-0.0,2.0261569023132324,4.88348879197196,-0.0,0.28583699464797974,-1.597245995198385,0.0,-0.015576079487800598,0.9908196330070496,0.0,-0.002347450703382492,0.7066795229911804,0.0,0.025170044973492622
990.0,8190.0,1.7737,-0.3547,9.1005,-0.0333,0.026,-0.1179,-1.5203430776349087,0.0,1.8115887641906738,-2.0668625831604004,-0.0,1.9896044731140137,4.883432182460584,-0.0,0.30455803871154785,-1.5972498098956507,0.0,-0.006850820034742355,0.9908924698829651,0.0,-0.001302611082792282,0.7066391706466675,0.0,0.01097759697586298
990.0,8190.0,1.7737,-0.3547,9.1005,-0.0333,0.026,-0.1179,-1.5203070764294644,0.0,1.8066232204437256,-2.066967010498047,-0.0,2.0007429122924805,4.883480521827497,-0.0,0.279738187789917,-1.597229305897848,0.0,0.0030642449855804443,0.9908077120780945,0.0,0.006656800862401724,0.7065787315368652,0.0,-0.019361712038517
990.0,8190.0,1.7737,-0.3547,9.1005,-0.0333,0.026,-0.1179,-1.5202792447856446,0.0,1.8172391653060913,-2.0669028759002686,-0.0,2.0282955169677734,4.883452373534002,-0.0,0.3044710159301758,-1.597245995198385,0.0,-0.003555312054231763,0.9907962679862976,0.0,-0.0026694233529269695,0.7066592574119568,0.0,0.010247553698718548
990.0,8190.0,1.7737,-0.3547,9.1005,-0.0333,0.026,-0.1179,-1.5203031201711674,0.0,1.8144783973693848,-2.066915273666382,-0.0,2.047675371170044,4.883468377381124,-0.0,0.3002212345600128,-1.5972736517535608,0.0,-0.002112397225573659,0.9907920360565186,0.0,0.0016925439704209566,0.706631064414978,0.0,0.010870938189327717
990.0,8190.0,1.7737,-0.3547,9.1005,-0.0333,0.026,-0.1179,-1.5203550283661862,0.0,1.750164270401001,-2.0668740272521973,-0.0,1.9891736507415771,4.8834924576576135,-0.0,0.2833464741706848,-1.597257439290182,0.0,-0.006295869592577219,0.9908636212348938,0.0,0.001857665367424488,0.7066715955734253,0.0,0.013941846787929535
990.0,8190.0,1.7737,-0.3547,9.1005,-0.0333,0.026,-0.1179,-1.5203910295716305,0.0,1.8319270610809326,-2.0668740272521973,-0.0,2.01955509185791,4.8834924576576135,-0.0,0.30020105838775635,-1.5972655455218714,0.0,-0.003427183721214533,0.9908036589622498,0.0,-0.011908126063644886,0.7066028714179993,0.0,0.006750652566552162
990.0,8190.0,1.7737,-0.3547,9.1005,-0.0333,0.026,-0.1179,-1.520331037496664,0.0,1.7612354755401611,-2.066861629486084,-0.0,2.0042483806610107,4.883488777070799,-0.0,0.30202460289001465,-1.597245995198385,0.0,0.006316286511719227,0.9908598065376282,0.0,0.00024637862225063145,0.706643283367157,0.0,-0.0148794986307621
990.0,8190.0,1.7737,-0.3547,9.1005,-0.0333,0.026,-0.1179,-1.5203750629774113,0.0,1.7883553504943848,-2.066830635070801,-0.0,2.0593979358673096,4.883472355991163,-0.0,0.29083162546157837,-1.5972698370562952,0.0,0.001965146977454424,0.9907876253128052,0.0,-0.0038137093652039766,0.7066392302513123,0.0,0.026377620175480843
990.0,8190.0,1.7737,-0.3547,9.1005,-0.0333,0.026,-0.1179,-1.5203191575459023,0.0,1.7855618000030518,-2.0669028759002686,-0.0,2.0259289741516113,4.883452373534002,-0.0,0.29499346017837524,-1.5972822348224085,0.0,0.0018826602026820183,0.9908036589622498,0.0,-0.001107250340282917,0.7066351175308228,0.0,0.04867839813232422
990.0,8190.0,1.7737,-0.3547,9.1005,-0.0333,0.026,-0.1179,-1.5202832420221348,0.0,1.8081774711608887,-2.0669186115264893,-0.0,1.9730186462402344,4.8834805367286584,-0.0,0.2865683436393738,-1.597330395375387,0.0,-0.0032207563053816557,0.9908433556556702,0.0,-0.008653963916003704,0.7066190838813782,0.0,1.0211952030658722e-06
990.0,8190.0,1.7737,-0.3547,9.1005,-0.0333,0.026,-0.1179,-1.5203750890544434,0.0,1.7375538349151611,-2.0668575763702393,-0.0,2.014838933944702,4.883476453810491,-0.0,0.2983302175998688,-1.5972583929644983,0.0,0.00025443173944950104,0.9908196330070496,0.0,-0.003299714531749487,0.7065989375114441,0.0,-0.0033532583620399237
990.0,8190.0,1.7737,-0.3547,9.1005,-0.0333,0.026,-0.1179,-1.520331037496664,0.0,1.7573211193084717,-2.0668740272521973,-0.0,2.0119524002075195,4.883500697999754,-0.0,0.294838011264801,-1.5973098913775843,0.0,-0.0017436705529689789,0.9908037185668945,0.0,0.0005274576833471656,0.7066514492034912,0.0,0.0010699732229113579
991.0,8190.0,1.7868,-0.3326,9.2273,-0.037,0.0295,-0.1208,-1.5203389909914513,0.0,1.808284044265747,-2.066826581954956,-0.0,2.0280544757843018,4.883500697999754,-0.0,0.29563915729522705,-1.597257439290182,0.0,-0.010868045501410961,0.9908356070518494,0.0,0.006822871044278145,0.7066556215286255,0.0,-0.04630856215953827
991.0,8190.0,1.7868,-0.3326,9.2273,-0.037,0.0295,-0.1208,-1.5203270626119156,0.0,1.80977201461792,-2.066850185394287,-0.0,2.031859874725342,4.883464219957151,-0.0,0.29656291007995605,-1.5973299185382288,0.0,-0.0045088003389537334,0.9908196330070496,0.0,-0.0013283751904964447,0.7066351175308228,0.0,0.015071632340550423
991.0,8190.0,1.7868,-0.3326,9.2273,-0.037,0.0295,-0.1208,-1.5203510721078892,0.0,1.8057351112365723,-2.0668699741363525,-0.0,2.0053956508636475,4.883476573019781,-0.0,0.3051671087741852,-1.597314182912008,0.0,-0.005308759398758411,0.9908359050750732,0.0,0.00030194781720638275,0.7066351175308228,0.0,0.033095747232437134
991.0,8190.0,1.7868,-0.3326,9.2273,-0.037,0.0295,-0.1208,-1.520315160309412,0.0,1.8412208557128906,-2.0668904781341553,-0.0,2.0256357192993164,4.883464219957151,-0.0,0.29659146070480347,-1.5972541014300745,0.0,-0.0015833413926884532,0.9909197092056274,0.0,-0.002134609967470169,0.7066795825958252,0.0,0.03335154801607132
991.0,8190.0,1.7868,-0.3326,9.2273,-0.037,0.0295,-0.1208,-1.5203070764294644,0.0,1.7825855016708374,-2.0669028759002686,-0.0,2.0222856998443604,4.883500668197431,-0.0,0.2859693169593811,-1.5972655455218714,0.0,-0.020134299993515015,0.990835964679718,0.0,-0.0026596388779580593,0.706659197807312,0.0,0.006658324971795082
991.0,8190.0,1.7868,-0.3326,9.2273,-0.037,0.0295,-0.1208,-1.520295125698187,0.0,1.8067524433135986,-2.0668699741363525,-0.0,2.0134856700897217,4.88348454514102,-0.0,0.2974609136581421,-1.5973060766803187,0.0,-0.0030209962278604507,0.9908318519592285,0.0,0.002942124381661415,0.7066633701324463,0.0,-0.021280990913510323
991.0,8190.0,1.7868,-0.3326,9.2273,-0.037,0.0295,-0.1208,-1.520331000243761,0.0,1.8340253829956055,-2.0669028759002686,-0.0,2.0156984329223633,4.883436682611265,-0.0,0.29604384303092957,-1.5972655455218714,0.0,-0.011177733540534973,0.9907917380332947,0.0,0.003912501037120819,0.7066555619239807,0.0,-0.003219625912606716
991.0,8190.0,1.7868,-0.3326,9.2273,-0.037,0.0295,-0.1208,-1.5203389909914513,0.0,1.8232011795043945,-2.0668625831604004,-0.0,2.0467400550842285,4.883524271636762,-0.0,0.2858105003833771,-1.5972860495196741,0.0,-0.01768972910940647,0.9908400177955627,0.0,-0.009063087403774261,0.706619143486023,0.0,0.0259707011282444
991.0,8190.0,1.7868,-0.3326,9.2273,-0.037,0.0295,-0.1208,-1.520371065740921,0.0,1.8035413026809692,-2.066915273666382,-0.0,2.019092082977295,4.883492472558775,-0.0,0.2949942648410797,-1.5972417036639612,0.0,0.010699070058763027,0.9908158183097839,0.0,-0.004337754100561142,0.706643283367157,0.0,-0.009010469540953636
991.0,8190.0,1.7868,-0.3326,9.2273,-0.037,0.0295,-0.1208,-1.5203350347331543,0.0,1.800243854522705,-2.0669071674346924,-0.0,1.9744741916656494,4.883488553553381,-0.0,0.30843329429626465,-1.597245995198385,0.0,-0.0045895022340118885,0.9908158779144287,0.0,-0.00482981838285923,0.7066715955734253,0.0,-0.006170064210891724
991.0,8190.0,1.7868,-0.3326,9.2273,-0.037,0.0295,-0.1208,-1.5203430776349087,0.0,1.7996140718460083,-2.0669028759002686,-0.0,2.0212812423706055,4.883476573019781,-0.0,0.28860071301460266,-1.5972941557513636,0.0,-0.005350358784198761,0.990851640701294,0.0,-0.0006039851577952504,0.7066269516944885,0.0,0.029988784343004227
991.0,8190.0,1.7868,-0.3326,9.2273,-0.037,0.0295,-0.1208,-1.5203031201711674,0.0,1.7673084735870361,-2.066850423812866,-0.0,2.054266929626465,4.883484649449148,-0.0,0.2960624098777771,-1.597302261983053,0.0,-0.007700311951339245,0.9907995462417603,0.0,0.0066760992631316185,0.706703782081604,0.0,-0.016945011913776398
992.0,994.0,1.6762,-0.3535,9.4774,-0.0321,0.0246,-0.1283,-1.5203750629774113,0.0,1.7562741041183472,-2.0668656826019287,-0.0,2.020263433456421,4.883460405259886,-0.0,0.30184638500213623,-1.5973060766803187,0.0,-0.005919051822274923,0.9908240437507629,0.0,0.008673455566167831,0.7066633701324463,0.0,0.00018922891467809677
992.0,994.0,1.6762,-0.3535,9.4774,-0.0321,0.0246,-0.1283,-1.5203629855862637,0.0,1.7978037595748901,-2.066898822784424,-0.0,2.001582384109497,4.883520263224401,-0.0,0.29694604873657227,-1.5972779432879847,0.0,0.0002909128088504076,0.9908036589622498,0.0,-0.013424559496343136,0.7066754102706909,0.0,-0.006810442544519901
992.0,994.0,1.6762,-0.3535,9.4774,-0.0321,0.0246,-0.1283,-1.520287239258625,0.0,1.7596864700317383,-2.066861629486084,-0.0,2.0469913482666016,4.883452552347936,-0.0,0.29512888193130493,-1.597274128590719,0.0,-0.014447566121816635,0.9908158779144287,0.0,-0.006040816195309162,0.706639289855957,0.0,0.04346827417612076
992.0,994.0,1.6762,-0.3535,9.4774,-0.0321,0.0246,-0.1283,-1.5203191575459023,0.0,1.811112880706787,-2.0668866634368896,-0.0,2.0100765228271484,4.883456486254492,-0.0,0.2970919609069824,-1.5972378889666956,0.0,-0.0031983149237930775,0.9908277988433838,0.0,-0.005147580057382584,0.7066233158111572,0.0,-0.028468411415815353
992.0,994.0,1.6762,-0.3535,9.4774,-0.0321,0.0246,-0.1283,-1.520367109482624,0.0,1.7719511985778809,-2.0669143199920654,-0.0,2.0204837322235107,4.883484560042181,-0.0,0.2815472483634949,-1.5972498098956507,0.0,-0.0022249314934015274,0.9908199310302734,0.0,-0.0015018857084214687,0.7066877484321594,0.0,-0.033255353569984436
992.0,994.0,1.6762,-0.3535,9.4774,-0.0321,0.0246,-0.1283,-1.5203231138041993,0.0,1.7679377794265747,-2.0669071674346924,-0.0,1.988769769668579,4.88349640646533,-0.0,0.29880058765411377,-1.5972941557513636,0.0,-0.02343796379864216,0.9908277988433838,0.0,-0.0018236621981486678,0.7066596746444702,0.0,-0.027612552046775818
992.0,994.0,1.6762,-0.3535,9.4774,-0.0321,0.0246,-0.1283,-1.5203350347331543,0.0,1.7951302528381348,-2.066882371902466,-0.0,2.058290958404541,4.883476587920942,-0.0,0.29168838262557983,-1.5973103682147425,0.0,-0.03425976634025574,0.990863561630249,0.0,0.00212467135861516,0.7066715955734253,0.0,-0.03147294372320175
992.0,994.0,1.6762,-0.3535,9.4774,-0.0321,0.0246,-0.1283,-1.5203510721078892,0.0,1.7728135585784912,-2.0668699741363525,-0.0,2.004121780395508,4.883476587920942,-0.0,0.3044213354587555,-1.5972736517535608,0.0,-0.018002759665250778,0.9909036755561829,0.0,0.0034733214415609837,0.706631064414978,0.0,-0.06510065495967865
992.0,994.0,1.6762,-0.3535,9.4774,-0.0321,0.0246,-0.1283,-1.5203429882279416,0.0,1.7885491847991943,-2.0669307708740234,-0.0,1.990879774093628,4.88348055162982,-0.0,0.310292512178421,-1.5972860495196741,0.0,-0.007914436981081963,0.990811824798584,0.0,-0.005782064516097307,0.7066514492034912,0.0,0.012008260935544968
992.0,994.0,1.6762,-0.3535,9.4774,-0.0321,0.0246,-0.1283,-1.5203629855862637,0.0,1.7985917329788208,-2.0669267177581787,-0.0,2.0045976638793945,4.8834963766630075,-0.0,0.29517680406570435,-1.5972822348224085,0.0,-0.002943663392215967,0.9908356666564941,0.0,0.01527311559766531,0.7066514492034912,0.0,-0.013247731141746044
992.0,994.0,1.6762,-0.3535,9.4774,-0.0321,0.0246,-0.1283,-1.52031513423238,0.0,1.7995291948318481,-2.0668656826019287,-0.0,2.0395452976226807,4.883488508849897,-0.0,0.2954869568347931,-1.5972822348224085,0.0,-0.016809619963169098,0.9908036589622498,0.0,-0.010613209567964077,0.706631064414978,0.0,0.023610295727849007
992.0,994.0,1.6762,-0.3535,9.4774,-0.0321,0.0246,-0.1283,-1.520347074871399,0.0,1.8070725202560425,-2.06689453125,-0.0,2.0351879596710205,4.883476587920942,-0.0,0.29425472021102905,-1.597245995198385,0.0,-0.005153067409992218,0.9908356070518494,0.0,-0.003303966950625181,0.706667423248291,0.0,0.005644436925649643
974.0,8190.0,1.7426,-0.3996,9.3039,-0.0421,0.0293,-0.118,-1.5203550283661862,0.0,1.8164753913879395,-2.0668864250183105,-0.0,2.0233592987060547,4.883496436267652,-0.0,0.309795618057251,-1.597302261983053,0.0,-0.0029796198941767216,0.9908155798912048,0.0,-0.0034249164164066315,0.7066637873649597,0.0,-0.03495664894580841
974.0,8190.0,1.7426,-0.3996,9.3039,-0.0421,0.0293,-0.118,-1.5203390021673222,0.0,1.8220349550247192,-2.0668864250183105,-0.0,2.0292131900787354,4.883484560042181,-0.0,0.311422199010849,-1.5973179976092737,0.0,-0.017267869785428047,0.9909117817878723,0.0,0.00010778242722153664,0.7066269516944885,0.0,0.01792082004249096
974.0,8190.0,1.7426,-0.3996,9.3039,-0.0421,0.0293,-0.118,-1.5203590256026764,0.0,1.7794915437698364,-2.066850185394287,-0.0,1.9795985221862793,4.88349640646533,-0.0,0.30266594886779785,-1.5972254912005823,0.0,-0.014441167935729027,0.9908237457275391,0.0,-0.0065723592415452,0.7066877484321594,0.0,-0.018193474039435387
974.0,8190.0,1.7426,-0.3996,9.3039,-0.0421,0.0293,-0.118,-1.5203790229609986,0.0,1.782524824142456,-2.0668346881866455,-0.0,2.02278733253479,4.883516299515524,-0.0,0.29616162180900574,-1.5972655455218714,0.0,-0.01029744278639555,0.9908077716827393,0.0,0.007728537078946829,0.706687331199646,0.0,-0.010961722582578659
974.0,8190.0,1.7426,-0.3996,9.3039,-0.0421,0.0293,-0.118,-1.5203430776349087,0.0,1.7886489629745483,-2.0668904781341553,-0.0,2.0196452140808105,4.883464354067602,-0.0,0.29817309975624084,-1.5972417036639612,0.0,-0.003405994735658169,0.9908962845802307,0.0,-0.002640780294314027,0.7066351175308228,0.0,0.005260341335088015
974.0,8190.0,1.7426,-0.3996,9.3039,-0.0421,0.0293,-0.118,-1.520331037496664,0.0,1.8174620866775513,-2.0668225288391113,-0.0,1.9825263023376465,4.8834924576576135,-0.0,0.3000791370868683,-1.5972736517535608,0.0,-0.005811674986034632,0.9908680319786072,0.0,-0.0011255154386162758,0.706639289855957,0.0,-0.03935856372117996
974.0,8190.0,1.7426,-0.3996,9.3039,-0.0421,0.0293,-0.118,-1.5203510721078892,0.0,1.7919113636016846,-2.0668389797210693,-0.0,1.9848954677581787,4.883508327394285,-0.0,0.2891227900981903,-1.597245995198385,0.0,-0.013399713672697544,0.9908639192581177,0.0,-0.011690974235534668,0.7066552042961121,0.0,-0.021121645346283913
974.0,8190.0,1.7426,-0.3996,9.3039,-0.0421,0.0293,-0.118,-1.5203271110406895,0.0,1.762715220451355,-2.066898822784424,-0.0,2.050541400909424,4.883476587920942,-0.0,0.29963040351867676,-1.5972979704486292,0.0,-0.005954427644610405,0.9908679723739624,0.0,-0.016676168888807297,0.7066473960876465,0.0,-0.004607663489878178
974.0,8190.0,1.7426,-0.3996,9.3039,-0.0421,0.0293,-0.118,-1.5203191575459023,0.0,1.790717601776123,-2.066882371902466,-0.0,2.043487548828125,4.883468377381124,-0.0,0.2979569435119629,-1.5972541014300745,0.0,0.0006530922837555408,0.9908356666564941,0.0,-0.004526504315435886,0.7067157626152039,0.0,0.01173325814306736
974.0,8190.0,1.7426,-0.3996,9.3039,-0.0421,0.0293,-0.118,-1.5203429882279416,0.0,1.8171560764312744,-2.0668656826019287,-0.0,2.0301265716552734,4.8834805367286584,-0.0,0.28571730852127075,-1.5972898642169397,0.0,-0.012553315609693527,0.9907999038696289,0.0,0.003544675884768367,0.7066757082939148,0.0,-0.0012969630770385265
974.0,8190.0,1.7426,-0.3996,9.3039,-0.0421,0.0293,-0.118,-1.5203270402601738,0.0,1.7774333953857422,-2.06689453125,-0.0,2.0352582931518555,4.8834805367286584,-0.0,0.28114214539527893,-1.5972541014300745,0.0,-0.008250546641647816,0.9908397197723389,0.0,-0.002200688933953643,0.7066269516944885,0.0,0.07861410081386566
974.0,8190.0,1.7426,-0.3996,9.3039,-0.0421,0.0293,-0.118,-1.5203231212547799,0.0,1.7795555591583252,-2.0668904781341553,-0.0,2.001314163208008,4.883531841426649,-0.0,0.3049497902393341,-1.5972374121295374,0.0,-0.0064048124477267265,0.9908314943313599,0.0,0.004880319815129042,0.7066432237625122,0.0,0.03848881274461746
978.0,977.0,1.6098,-0.5031,9.4863,-0.0272,0.0287,-0.1235,-1.5203389909914513,0.0,1.8034167289733887,-2.0668821334838867,-0.0,2.0153627395629883,4.883468377381124,-0.0,0.30122101306915283,-1.597245995198385,0.0,-0.020131289958953857,0.9908356666564941,0.0,-0.00278833438642323,0.7066794633865356,0.0,-0.031062547117471695
978.0,977.0,1.6098,-0.5031,9.4863,-0.0272,0.0287,-0.1235,-1.520315160309412,0.0,1.7664313316345215,-2.066850185394287,-0.0,1.9996448755264282,4.883488508849897,-0.0,0.2991246283054352,-1.597245995198385,0.0,-0.005080845206975937,0.9908556938171387,0.0,-0.005461925640702248,0.706643283367157,0.0,-0.006399535574018955
978.0,977.0,1.6098,-0.5031,9.4863,-0.0272,0.0287,-0.1235,-1.5203389798155804,0.0,1.7908456325531006,-2.0669267177581787,-0.0,1.9523831605911255,4.883464354067602,-0.0,0.28603291511535645,-1.5972498098956507,0.0,-0.0026509524323046207,0.990851640701294,0.0,0.0057215443812310696,0.7066555619239807,0.0,-0.0007128724828362465
978.0,977.0,1.6098,-0.5031,9.4863,-0.0272,0.0287,-0.1235,-1.5203430217555542,0.0,1.7773573398590088,-2.0668904781341553,-0.0,1.991912603378296,4.883488508849897,-0.0,0.28316184878349304,-1.5972698370562952,0.0,-0.016687646508216858,0.9908555746078491,0.0,-0.006241178140044212,0.706627368927002,0.0,-0.058062825351953506
978.0,977.0,1.6098,-0.5031,9.4863,-0.0272,0.0287,-0.1235,-1.5203310635736962,0.0,1.8374308347702026,-2.0668699741363525,-0.0,2.042513847351074,4.883484560042181,-0.0,0.30182433128356934,-1.5972822348224085,0.0,0.0012810507323592901,0.9908196926116943,0.0,0.0006673943717032671,0.7066514492034912,0.0,-0.016667326912283897
978.0,977.0,1.6098,-0.5031,9.4863,-0.0272,0.0287,-0.1235,-1.5203550283661862,0.0,1.7885801792144775,-2.0669028759002686,-0.0,2.002784013748169,4.883472639113226,-0.0,0.30270135402679443,-1.5972612539874476,0.0,-0.008023698814213276,0.9908598065376282,0.0,0.001118463696911931,0.706699550151825,0.0,0.0006839786656200886
978.0,977.0,1.6098,-0.5031,9.4863,-0.0272,0.0287,-0.1235,-1.5203591150096436,0.0,1.7851468324661255,-2.066882371902466,-0.0,1.9939205646514893,4.883472639113226,-0.0,0.2984118163585663,-1.5972498098956507,0.0,-2.3651577066630125e-05,0.990799605846405,0.0,0.00830274261534214,0.706667423248291,0.0,-0.04697909951210022
978.0,977.0,1.6098,-0.5031,9.4863,-0.0272,0.0287,-0.1235,-1.5203111109188576,0.0,1.7952194213867188,-2.06691837310791,-0.0,2.0368809700012207,4.8834484843309305,-0.0,0.29435038566589355,-1.5972498098956507,0.0,0.003118280554190278,0.9908273816108704,0.0,0.0026731714606285095,0.7066551446914673,0.0,-0.041787609457969666
978.0,977.0,1.6098,-0.5031,9.4863,-0.0272,0.0287,-0.1235,-1.520371065740921,0.0,1.8190116882324219,-2.0668740272521973,-0.0,1.995333194732666,4.883488508849897,-0.0,0.29589009284973145,-1.5972655455218714,0.0,-0.015554919838905334,0.9908557534217834,0.0,0.0013700290583074093,0.7066473960876465,0.0,0.0069497255608439445
978.0,977.0,1.6098,-0.5031,9.4863,-0.0272,0.0287,-0.1235,-1.5202831861427804,0.0,1.8120012283325195,-2.0668740272521973,-0.0,2.001171588897705,4.883420783072271,-0.0,0.2956443130970001,-1.5973098913775843,0.0,-0.011707448400557041,0.9908277988433838,0.0,-0.004645294975489378,0.7066754102706909,0.0,-0.0628950372338295
978.0,977.0,1.6098,-0.5031,9.4863,-0.0272,0.0287,-0.1235,-1.5203591150096436,0.0,1.7848803997039795,-2.0669028759002686,-0.0,2.001657485961914,4.883476587920942,-0.0,0.293782114982605,-1.5972698370562952,0.0,-0.007538493722677231,0.9908966422080994,0.0,-0.0053374869748950005,0.7066754102706909,2.4729238656817643e-09,-0.030710585415363312
978.0,977.0,1.6098,-0.5031,9.4863,-0.0272,0.0287,-0.1235,-1.5203191128424187,0.0,1.7523554563522339,-2.0669028759002686,-0.0,2.047739028930664,4.883472639113226,-0.0,0.29395440220832825,-1.597302261983053,0.0,-0.010736444965004921,0.9908277988433838,0.0,0.005046556703746319,0.7066795229911804,8.011959578369809e-17,0.019004367291927338
992.0,990.0,2.0154,-0.6144,9.1196,-0.0646,-0.0185,-0.1063,-1.5202792447856446,0.0,1.8218839168548584,-2.066894769668579,-0.0,1.9790689945220947,4.883504378586569,-0.0,0.29968127608299255,-1.5972736517535608,0.0,-0.001354126026853919,0.9908277988433838,0.0,-0.005414670333266258,0.7067075371742249,2.5957726438243853e-24,-0.00657516997307539
992.0,990.0,2.0154,-0.6144,9.1196,-0.0646,-0.0185,-0.1063,-1.5203191202929993,0.0,1.7451356649398804,-2.0669031143188477,-0.0,1.984045147895813,4.883464354067602,-0.0,0.29101479053497314,-1.5972612539874476,0.0,0.0012098478619009256,0.9907875657081604,0.0,0.002428125822916627,0.7066993713378906,8.409973828191061e-32,-0.006110984832048416
992.0,990.0,2.0154,-0.6144,9.1196,-0.0646,-0.0185,-0.1063,-1.5202991378358384,0.0,1.808442234992981,-2.066894769668579,-0.0,2.0003206729888916,4.883444535523214,-0.0,0.2845512330532074,-1.5972736517535608,0.0,-0.01755445823073387,0.9908318519592285,0.0,0.004080547485500574,0.7066795229911804,2.7247253716886397e-39,-0.008595754392445087
992.0,990.0,2.0154,-0.6144,9.1196,-0.0646,-0.0185,-0.1063,-1.520367109482624,0.0,1.789180040359497,-2.0669143199920654,-0.0,2.024089813232422,4.883500429778852,-0.0,0.29345497488975525,-1.5973261038409632,0.0,-0.001056573586538434,0.9908676147460938,0.0,-0.008718245662748814,0.7066713571548462,7.006492321624085e-45,0.033465854823589325
992.0,990.0,2.0154,-0.6144,9.1196,-0.0646,-0.0185,-0.1063,-1.5203110587647934,0.0,1.7715699672698975,-2.066898822784424,-0.0,1.9880638122558594,4.883484649449148,-0.0,0.2928369641304016,-1.5972936789142054,0.0,0.0031711298506706953,0.9907349348068237,0.0,-0.013939162716269493,0.7067396640777588,0.0,-0.020664777606725693
992.0,990.0,2.0154,-0.6144,9.1196,-0.0646,-0.0185,-0.1063,-1.5202871796539803,0.0,1.8086268901824951,-2.0668907165527344,-0.0,2.045309543609619,4.883512306004324,-0.0,0.300350159406662,-1.5972941557513636,0.0,-0.010685735382139683,0.9908077120780945,0.0,-0.000359480211045593,0.7066469788551331,0.0001584649580763653,-0.023959137499332428
992.0,990.0,2.0154,-0.6144,9.1196,-0.0646,-0.0185,-0.1063,-1.5203469817391415,0.0,1.8105050325393677,-2.0669069290161133,-0.0,1.9852588176727295,4.8835238991077325,-0.0,0.2818094491958618,-1.597330395375387,0.0,-0.001485286746174097,0.9907798171043396,0.0,0.0027619029860943556,0.7066993713378906,0.00013889945694245398,-0.02876616269350052
992.0,990.0,2.0154,-0.6144,9.1196,-0.0646,-0.0185,-0.1063,-1.5202951443246384,0.0,1.842634916305542,-2.0668904781341553,-0.0,2.0206565856933594,4.883472668915548,-0.0,0.2915797233581543,-1.5972941557513636,0.0,-0.00045066745951771736,0.9907876253128052,0.0,-0.007711802609264851,0.7067238688468933,0.0001438381732441485,0.023147545754909515
992.0,990.0,2.0154,-0.6144,9.1196,-0.0646,-0.0185,-0.1063,-1.520319053237774,0.0,1.82344388961792,-2.0669102668762207,-0.0,2.014862298965454,4.883476587920942,-0.0,0.29551711678504944,-1.5972979704486292,0.0,-0.008127047680318356,0.9908798933029175,0.0,0.004417829215526581,0.7066510319709778,0.0001370641402900219,-0.004279161337763071
992.0,990.0,2.0154,-0.6144,9.1196,-0.0646,-0.0185,-0.1063,-1.5203310449472447,0.00016566425620112568,1.8020825386047363,-2.066938877105713,-0.0,2.0452816486358643,4.88348055162982,-0.0,0.2949291169643402,-1.5973747412311,0.0,0.006220201961696148,0.9908158779144287,0.0,-0.017201682552695274,0.706687331199646,0.00012443079322110862,0.010503672994673252
992.0,990.0,2.0154,-0.6144,9.1196,-0.0646,-0.0185,-0.1063,-1.52029516295109,0.00014868153084535152,1.7466623783111572,-2.0669143199920654,-0.0,1.992620825767517,4.883444535523214,-0.0,0.29885056614875793,-1.59731370607485,0.0,-0.0158175490796566,0.9908273816108704,0.0,0.0030920335557311773,0.7066631317138672,0.00011392986925784498,0.02443433180451393
992.0,990.0,2.0154,-0.6144,9.1196,-0.0646,-0.0185,-0.1063,-1.5202712018838902,0.00013132509775459766,1.7771869897842407,-2.066894769668579,-0.0,1.992037296295166,4.883476587920942,-0.0,0.31143587827682495,-1.59731370607485,0.0,-0.004282623063772917,0.9908237457275391,0.0,-0.004246159456670284,0.7066913843154907,0.00010506333637749776,-0.005773214623332024
1008.0,957.0,1.4435,-1.2676,9.743,-0.0492,0.0683,-0.1078,-1.520367083405592,0.00012075305130565539,1.7560608386993408,-2.0669028759002686,-0.0,2.018758773803711,4.883488508849897,-0.0,0.299221396446228,-1.5972612539874476,0.0,-0.016477754339575768,0.9908077120780945,0.0,-0.0013371787499636412,0.7067114114761353,0.00011387980339350179,0.03775963559746742
1008.0,957.0,1.4435,-1.2676,9.743,-0.0492,0.0683,-0.1078,-1.5203709577075024,8.724001963855699e-05,1.787072777748108,-2.0669071674346924,1.1678226094491428e-11,2.0015182495117188,4.883476274996557,-0.0,0.2998691499233246,-1.5972941557513636,0.0,-0.014081563800573349,0.9908400774002075,0.0,-0.0006445291801355779,0.7066671848297119,0.00010788138024508953,-0.03763663396239281
1008.0,957.0,1.4435,-1.2676,9.743,-0.0492,0.0683,-0.1078,-1.5203591150096436,7.95295782154426e-05,1.812982201576233,-2.0669267177581787,3.7835962416272056e-19,1.9947561025619507,4.883500504284658,-0.0,0.2967213988304138,-1.5972779432879847,0.0,-0.011576355434954166,0.9908037185668945,0.0,0.005076210014522076,0.7066589593887329,0.00011969512706855312,-0.01146281324326992
1008.0,957.0,1.4435,-1.2676,9.743,-0.0492,0.0683,-0.1078,-1.520311177974083,7.30725223547779e-05,1.806736707687378,-2.066950559616089,1.2258371532701739e-26,2.010342597961426,4.883392545371809,-0.0,0.2987963557243347,-1.597342316304342,0.0,-0.005820362828671932,0.9908437728881836,0.0,-0.0041439649648964405,0.7067314982414246,0.00013044022489339113,0.046355754137039185
1008.0,957.0,1.4435,-1.2676,9.743,-0.0492,0.0683,-0.1078,-1.5203910630992432,6.887826748425141e-05,1.8007395267486572,-2.0669028759002686,-4.074434036738239e-05,2.0415356159210205,4.883484560042181,-0.0,0.3032040596008301,-1.5973337332354944,2.6163741040363675e-07,-0.011330602690577507,0.9907757639884949,0.0,-0.0013954243622720242,0.7067233324050903,0.00016189049347303808,0.023095794022083282
1008.0,957.0,1.4435,-1.2676,9.743,-0.0492,0.0683,-0.1078,-1.520371028488018,4.799506496055983e-05,1.7995474338531494,-2.0668904781341553,-4.9825001042336226e-05,2.031083345413208,4.883504423290052,-0.0,0.2980080246925354,-1.5973580519305628,4.755129883599052e-12,0.004132022149860859,0.9908432960510254,0.0,-0.016413886100053787,0.7067114114761353,0.00046563849900849164,0.045122180134058
1008.0,957.0,1.4435,-1.2676,9.743,-0.0492,0.0683,-0.1078,-1.520303101544716,4.480139978113584e-05,1.827217698097229,-2.0669071674346924,-8.074213297959432e-09,2.0039916038513184,4.8835278181131265,-0.0,0.3101296126842499,-1.5973017851458948,8.642212309875602e-17,-0.0017330913105979562,0.9908036589622498,0.0,0.0017546439776197076,0.7067477107048035,0.0004616201331373304,-0.0020153988152742386
1008.0,957.0,1.4435,-1.2676,9.743,-0.0492,0.0683,-0.1078,-1.5203111220947285,4.201292904326692e-05,1.7957193851470947,-2.0668740272521973,-2.615941878888903e-16,1.984149694442749,4.883484574943342,-0.0,0.2843271493911743,-1.5972698370562952,1.5706794661253856e-21,-0.004410736728459597,0.9908237457275391,0.0,-0.015461521223187447,0.7067313194274902,0.0005765360547229648,-0.0439910814166069
1008.0,957.0,1.4435,-1.2676,9.743,-0.0492,0.0683,-0.1078,-1.5203750629774113,3.9551254303660244e-05,1.7596453428268433,-2.0669186115264893,-8.475321195024625e-24,1.988692045211792,4.883460420161047,-0.0,0.29532378911972046,-1.597325627003805,2.8546324687958093e-26,-0.004091042559593916,0.9908356666564941,0.0,0.0009314545895904303,0.7067554593086243,0.0008284381474368274,0.0030067572370171547
1008.0,957.0,1.4435,-1.2676,9.743,-0.0492,0.0683,-0.1078,-1.5203630861691018,3.788631875067949e-05,1.7932651042938232,-2.06689453125,-2.0466902657986227e-29,2.003383159637451,4.8834924576576135,-0.0,0.3059166371822357,-1.59731370607485,7.945974681163015e-30,-0.016454480588436127,0.9907793998718262,0.0,0.006196008063852787,0.7067151665687561,0.0015621042111888528,0.008701932616531849
1008.0,957.0,1.4435,-1.2676,9.743,-0.0492,0.0683,-0.1078,-1.5203030940941353,3.5872904845746234e-05,1.805607557296753,-2.0668346881866455,0.0017720779869705439,2.001314878463745,4.8834805367286584,-0.0,0.2834557890892029,-1.5972936789142054,1.4441414164994804e-34,-0.009881136007606983,0.9908519387245178,0.0,0.0016176614444702864,0.7068035006523132,0.0037593136075884104,0.008535506203770638
1008.0,957.0,1.4435,-1.2676,9.743,-0.0492,0.0683,-0.1078,-1.5203150709024449,3.406269024708308e-05,1.7787154912948608,-2.06689453125,0.0010372475953772664,2.017110586166382,4.883496421366491,-0.0,0.3054147958755493,-1.597297493611471,2.624655845754276e-39,-0.012571883387863636,0.99085932970047,0.0,-0.011787108145654202,0.7068275213241577,0.005766294430941343,-0.005137620028108358
990.0,8190.0,1.7037,0.1149,9.2692,-0.0078,0.0388,-0.1426,-1.5203430366567154,3.24263637594413e-05,1.7971596717834473,-2.066842794418335,0.0005159289576113224,1.9731395244598389,4.883464339166441,-0.0,0.2983971834182739,-1.5973175207721155,4.764414778704378e-44,-0.015766115859150887,0.9908237457275391,0.0,0.0006160767516121268,0.7068473696708679,0.004912407137453556,-0.0019442900083959103
990.0,8190.0,1.7037,0.1149,9.2692,-0.0078,0.0388,-0.1426,-1.5203429994038125,3.1298721296479926e-05,1.8096027374267578,-2.066842794418335,0.000609064765740186,1.983278751373291,4.883452552347936,-0.0,0.29498356580734253,-1.5973175207721155,0.0,-0.002751657273620367,0.990900456905365,0.0,0.0006404162850230932,0.7068955302238464,0.002884854795411229,0.03587643802165985
990.0,8190.0,1.7037,0.1149,9.2692,-0.0078,0.0388,-0.1426,-1.5203151118806382,-2.774881068035029e-05,1.7882144451141357,-2.066809892654419,0.001080027548596263,1.9996867179870605,4.883504438191213,-0.0,0.2964479923248291,-1.5973380247699183,0.0,-0.014727803878486156,0.9908433556556702,0.0,0.003221208928152919,0.7068508863449097,0.001118191285058856,-0.047688864171504974
990.0,8190.0,1.7037,0.1149,9.2692,-0.0078,0.0388,-0.1426,-1.520359081482031,-3.932732215616852e-05,1.8313528299331665,-2.066842794418335,0.0006961787585169077,2.0014891624450684,4.883504408388891,-4.933564223819076e-09,0.2913942337036133,-1.5973461310016077,0.0,-0.008789816871285439,0.9908475875854492,0.0,-0.008193199522793293,0.7068914175033569,0.0006113567505963147,-0.005473977420479059
990.0,8190.0,1.7037,0.1149,9.2692,-0.0078,0.0388,-0.1426,-1.5203591150096436,-4.954989344696514e-05,1.823230266571045,-2.06681489944458,0.0004592260520439595,1.9742270708084106,4.883464339166441,-8.966510531022848e-14,0.29852554202079773,-1.597309414540426,0.0,-0.010745641775429249,0.990863561630249,0.0,-0.004043758846819401,0.7068468928337097,0.00042073833174072206,-0.011923043057322502
990.0,8190.0,1.7037,0.1149,9.2692,-0.0078,0.0388,-0.1426,-1.5203350831619282,-4.758508293889463e-05,1.7951380014419556,-2.0668387413024902,0.00042682429193519056,1.9902973175048828,4.883452492743292,-2.4958614921152335e-17,0.29953745007514954,-1.5973742643939417,0.0,0.005405757110565901,0.990863561630249,0.0,-0.004065651446580887,0.7069153785705566,0.0003954947169404477,0.05051414668560028
990.0,8190.0,1.7037,0.1149,9.2692,-0.0078,0.0388,-0.1426,-1.5203710210374375,-0.0002688445965759456,1.810354232788086,-2.0668346881866455,0.0003358145186211914,2.0045082569122314,4.8834683922822855,-4.536104695540496e-22,0.2965106964111328,-1.597325627003805,0.0,0.0068987333215773106,0.99078768491745,9.083250596120251e-09,-0.0016792796086519957,0.7068752646446228,0.00036298009217716753,0.008547723293304443
990.0,8190.0,1.7037,0.1149,9.2692,-0.0078,0.0388,-0.1426,-1.5203791049173851,-0.0003486142377369106,1.836380958557129,-2.066859483718872,0.00027679302729666233,2.008568286895752,4.8834405718143366,-8.24414650515169e-27,0.29808562994003296,-1.597309414540426,0.0,-0.016393441706895828,0.9908277988433838,1.6508356368103577e-13,0.0015543815679848194,0.7069073915481567,0.0003020627482328564,0.01832931861281395
990.0,8190.0,1.7037,0.1149,9.2692,-0.0078,0.0388,-0.1426,-1.5203747947565098,-0.0006714715273119509,1.8110089302062988,-2.066826343536377,0.00019395380513742566,2.0265607833862305,4.883444535523214,-1.498332707079296e-31,0.2952561378479004,-1.597309414540426,0.0,0.003945102449506521,0.9908316135406494,3.0003125015199302e-18,0.0018634562147781253,0.7069272994995117,0.00020720575412269682,-0.009388799779117107
990.0,8190.0,1.7037,0.1149,9.2692,-0.0078,0.0388,-0.1426,-1.5203950193575402,-0.0005575160030275583,1.8100221157073975,-2.06681489944458,0.0002643901971168816,2.0134472846984863,4.883396896510877,-2.7231454132753074e-36,0.2946387827396393,-1.597325627003805,0.0,0.0014145589666441083,0.9908639788627625,5.452919596894825e-23,-0.0036118358839303255,0.7069475650787354,0.0007787047070451081,-0.027097487822175026
990.0,8190.0,1.7037,0.1149,9.2692,-0.0078,0.0388,-0.1426,-1.5203990016928692,-0.0005273245042189956,1.781907320022583,-2.0668344497680664,0.0008193425601348281,2.0111582279205322,4.883444535523214,-0.00019036572484765202,0.28915590047836304,-1.5973380247699183,0.0,-0.005340832285583019,0.9908274412155151,1.5178401803135535e-26,-0.0009157794993370771,0.7069553732872009,0.0015397915849462152,-0.006124284118413925
990.0,8190.0,1.7037,0.1149,9.2692,-0.0078,0.0388,-0.1426,-1.5203791607967396,-0.0006837380933575332,1.745621919631958,-2.066854953765869,0.0016428346280008554,2.024254560470581,4.883420455246725,-0.0008924805442802608,0.30718767642974854,-1.5972893873797815,0.0,-0.005619580391794443,0.9908356666564941,2.7586000664503993e-31,0.012990076094865799,0.7069833874702454,0.0030580295715481043,0.0074972896836698055
1012.0,8190.0,1.529,-0.0485,9.481,-0.0026,0.0121,-0.1017,-1.5204391752234478,-0.0006811494240537286,1.7828943729400635,-2.0667505264282227,0.003072619205340743,2.0025599002838135,4.883444505720892,-0.0009852057555690408,0.3047219514846802,-1.597297493611471,0.0,-0.013739475980401039,0.9908434152603149,5.013619007106852e-36,0.009247601963579655,0.7069710493087769,0.008554179221391678,0.06654496490955353
1012.0,8190.0,1.529,-0.0485,9.481,-0.0026,0.0121,-0.1017,-1.5204311174205323,-0.0007857661112211645,1.7842214107513428,-2.0667383670806885,0.003932969179004431,2.011354446411133,4.883428293257513,-0.0009163464419543743,0.30681413412094116,-1.5973380247699183,0.0,-0.017977077513933182,0.9908356666564941,0.0001459262566640973,0.003398418892174959,0.7070914506912231,0.00982469692826271,0.024493861943483353
1012.0,8190.0,1.529,-0.0485,9.481,-0.0026,0.0121,-0.1017,-1.5204390299371262,-0.0010880441404879093,1.7711818218231201,-2.0667154788970947,0.00461481511592865,1.964087963104248,4.883396836906233,-0.0007315343245863914,0.30313149094581604,-1.597297493611471,0.0,-0.011808576062321663,0.9909036159515381,0.0001624634169274941,0.0020349230617284775,0.7071391940116882,0.011308790184557438,0.05269189551472664
1012.0,8190.0,1.529,-0.0485,9.481,-0.0026,0.0121,-0.1017,-1.5204990294626732,-0.0027729682624340057,1.80189847946167,-2.0666863918304443,0.004979890771210194,2.0402395725250244,4.883472281485357,-0.0005431934259831905,0.2921171188354492,-1.597285572682516,0.0,-0.014879077672958374,0.9908433556556702,0.00016946313553489745,-0.009442326612770557,0.7072714567184448,0.013870379887521267,0.027579396963119507
1012.0,8190.0,1.529,-0.0485,9.481,-0.0026,0.0121,-0.1017,-1.5205066067031403,-0.005256363190710545,1.7512354850769043,-2.0666191577911377,0.0057043638080358505,2.0049753189086914,4.883392888098516,-0.00043850031215697527,0.2952062487602234,-1.59731370607485,0.0,-0.010520704090595245,0.9908433556556702,0.00015829056792426854,-0.0012621997157111764,0.7073794603347778,0.017345037311315536,0.03308888524770737
1012.0,8190.0,1.529,-0.0485,9.481,-0.0026,0.0121,-0.1017,-1.5205671165934582,-0.006883546710014343,1.7684271335601807,-2.0666275024414062,0.006050559692084789,2.008610725402832,4.883420455246725,-0.00033134318073280156,0.27390748262405396,-1.59731370607485,0.0,-0.010777518153190613,0.99089115858078,0.0003079354064539075,-6.824824959039688e-05,0.7075636386871338,0.01929161511361599,0.04533812403678894
1012.0,8190.0,1.529,-0.0485,9.481,-0.0026,0.0121,-0.1017,-1.5206789945117016,-0.006549298297613859,1.751765251159668,-2.0665476322174072,0.006771785207092762,2.0170092582702637,4.883428308158674,-0.00026602434809319675,0.30163562297821045,-1.5972817579852503,0.0,-0.0070082698948681355,0.9908473491668701,0.0006888948264531791,0.010285750031471252,0.7076869606971741,0.02234674245119095,0.04082656279206276
1012.0,8190.0,1.529,-0.0485,9.481,-0.0026,0.0121,-0.1017,-1.5206867766431351,-0.010071518830955029,1.7360241413116455,-2.0665030479431152,0.006417816039174795,2.018693208694458,4.883389043598928,-0.0002690425608307123,0.2946195602416992,-1.5973179976092737,0.0,-0.009857717901468277,0.9909313321113586,0.0007433952414430678,0.006521799601614475,0.7078715562820435,0.02411205880343914,0.059620682150125504
1012.0,8190.0,1.529,-0.0485,9.481,-0.0026,0.0121,-0.1017,-1.5208106723478814,-0.010937610641121864,1.744004249572754,-2.0664398670196533,0.004883276764303446,2.0026004314422607,4.883396851807394,-0.0002307653339812532,0.29526662826538086,-1.597297493611471,0.0,-0.016260918229818344,0.9909193515777588,0.0006209206185303628,0.0013003749772906303,0.7080715298652649,0.026245292276144028,0.0600350983440876
1012.0,8190.0,1.529,-0.0485,9.481,-0.0026,0.0121,-0.1017,-1.5209026870182534,-0.009210717864334583,1.82741117477417,-2.066439628601074,0.0043622758239507675,2.029120445251465,4.883420455246725,-0.00020127149764448404,0.28832122683525085,-1.597314182912008,0.0,-0.009110532701015472,0.990871250629425,0.0005575020913966,0.008664354681968689,0.708271324634552,0.026962529867887497,0.09919998049736023
1012.0,8190.0,1.529,-0.0485,9.481,-0.0026,0.0121,-0.1017,-1.5209746931544323,-0.00844730157405138,1.7791104316711426,-2.0664117336273193,0.0034200139343738556,2.0240378379821777,4.883392888098516,-0.00017846320406533778,0.2818373143672943,-1.5972898642169397,0.0,-0.016748828813433647,0.990923285484314,0.00047170481411740184,0.009368965402245522,0.7084265947341919,0.027306515723466873,0.05696661025285721
1012.0,8190.0,1.529,-0.0485,9.481,-0.0026,0.0121,-0.1017,-1.5210227270475407,-0.00804514903575182,1.7845845222473145,-2.0663797855377197,0.002626971108838916,1.969794750213623,4.883360820799627,-0.00016448406677227467,0.2927263379096985,-1.5973017851458948,0.0,0.0004528104327619076,0.9908832907676697,0.0004125329724047333,0.0086235785856843,0.7086677551269531,0.028520062565803528,0.062248311936855316
997.0,8190.0,1.657,-0.5073,9.2847,-0.0163,0.0079,-0.0732,-1.521046483223774,-0.008201126009225845,1.8052680492401123,-2.0663962364196777,0.002885299501940608,2.015791893005371,4.883389013796606,-0.0001702040171949193,0.299797385931015,-1.5972736517535608,0.0,-0.006609812378883362,0.9909034371376038,0.0003777557867579162,0.00013129785656929016,0.7089160084724426,0.030467059463262558,0.07270734012126923
997.0,8190.0,1.657,-0.5073,9.2847,-0.0163,0.0079,-0.0732,-1.5211221699467679,-0.008447568863630295,1.7636630535125732,-2.066275119781494,0.0036451113410294056,2.029984712600708,4.883392888098516,-0.00011610511865001172,0.2999834716320038,-1.5972779432879847,0.0,-0.012309089303016663,0.9909194111824036,0.0003285380662418902,-0.006072423420846462,0.7090789675712585,0.03432871773838997,0.07847465574741364
997.0,8190.0,1.657,-0.5073,9.2847,-0.0163,0.0079,-0.0732,-1.5212102693370362,-0.008864429779350758,1.7834296226501465,-2.066356658935547,0.003545065876096487,2.009408712387085,4.883396866708555,-0.0001257571275345981,0.2871990501880646,-1.597245995198385,0.0,-0.005741041619330645,0.9908638596534729,0.0002937040408141911,0.0052943238988518715,0.709406852722168,0.039801955223083496,0.037370577454566956
997.0,8190.0,1.657,-0.5073,9.2847,-0.0163,0.0079,-0.0732,-1.5213262823275109,-0.009754771366715431,1.7519960403442383,-2.0662314891815186,0.00411685835570097,1.9957160949707031,4.883377033263006,-0.00013423716882243752,0.3047880530357361,-1.5972822348224085,0.0,-0.011496792547404766,0.9908759593963623,0.00022874315618537366,0.019641607999801636,0.7097346782684326,0.045523062348365784,0.05516630783677101
997.0,8190.0,1.657,-0.5073,9.2847,-0.0163,0.0079,-0.0732,-1.521370307808258,-0.0112500274553895,1.8201217651367188,-2.0662646293640137,0.004534723237156868,2.05214786529541,4.883408802538671,-0.00012646430695895106,0.30030882358551025,-1.5972417036639612,0.0,-0.0010524331592023373,0.9909034371376038,0.00019795159460045397,0.020770950242877007,0.7100832462310791,0.051531385630369186,0.052414484322071075
997.0,8190.0,1.657,-0.5073,9.2847,-0.0163,0.0079,-0.0732,-1.5214380708387871,-0.012666693888604641,1.7641558647155762,-2.0661683082580566,0.005710709374397993,2.01214599609375,4.883400815516271,-0.0001337873691227287,0.2981903553009033,-1.5972822348224085,0.0,-0.014199623838067055,0.9909030795097351,0.00016832702385727316,-0.0014039583038538694,0.7104788422584534,0.055953919887542725,0.07181357592344284
997.0,8190.0,1.657,-0.5073,9.2847,-0.0163,0.0079,-0.0732,-1.5215338815799733,-0.013588796369731426,1.7678978443145752,-2.066108465194702,0.00697232224047184,1.9817883968353271,4.883388998895445,-0.00020841755031142384,0.2923985719680786,-1.5972736517535608,0.0,-0.001791228773072362,0.9909353852272034,0.00014641659799963236,0.0031549218110740185,0.7109387516975403,0.05721842125058174,0.07462440431118011
997.0,8190.0,1.657,-0.5073,9.2847,-0.0163,0.0079,-0.0732,-1.5216819655946274,-0.014516795054078102,1.7647218704223633,-2.0660719871520996,0.00865082535892725,2.0097129344940186,4.883416729956426,-0.00018040789291262627,0.30052629113197327,-1.5972860495196741,0.0,-0.009247523732483387,0.9909554123878479,0.00012955379497725517,-0.0015533211408182979,0.7113785743713379,0.055792033672332764,0.07193160057067871
997.0,8190.0,1.657,-0.5073,9.2847,-0.0163,0.0079,-0.0732,-1.5217660044184704,-0.01631857454776764,1.7718310356140137,-2.0659682750701904,0.010503972880542278,2.0556039810180664,4.883376973658361,-0.00016103670350275934,0.2871067523956299,-1.5972498098956507,0.0,-0.011586316861212254,0.9909435510635376,0.00011925306898774579,0.002193162450566888,0.7117511034011841,0.05581958591938019,0.11028826236724854
997.0,8190.0,1.657,-0.5073,9.2847,-0.0163,0.0079,-0.0732,-1.5218735088459034,-0.018409766256809235,1.8031935691833496,-2.0658843517303467,0.012176303192973137,1.9864096641540527,4.883364829211988,-0.00014086949522607028,0.2948809564113617,-1.5972941557513636,0.0,-0.01780671998858452,0.9909152984619141,0.00010782283789012581,-0.009205421432852745,0.7121908068656921,0.056107379496097565,0.07795801758766174
997.0,8190.0,1.657,-0.5073,9.2847,-0.0163,0.0079,-0.0732,-1.5220375818065186,-0.020215222612023354,1.7590047121047974,-2.065772771835327,0.012694746255874634,2.0154268741607666,4.883408802538671,-0.0001251919020432979,0.29647594690322876,-1.5972493330584925,0.0,-0.012912580743432045,0.9908802509307861,0.00011740290938178077,0.00380853284150362,0.7126143574714661,0.05225161835551262,0.04573516175150871
997.0,8190.0,1.657,-0.5073,9.2847,-0.0163,0.0079,-0.0732,-1.5222133596292515,-0.023413237184286118,1.7376278638839722,-2.0656492710113525,0.013033260591328144,2.0504634380340576,4.883392873197355,-0.00011265469947829843,0.2967316210269928,-1.5972779432879847,0.0,-0.003002458019182086,0.9908353090286255,0.00010857432062039152,0.017990577965974808,0.713046133518219,0.050114914774894714,0.0730418786406517
998.0,971.0,1.3274,0.0927,9.1496,0.0023,-0.0476,-0.0376,-1.5224575635841866,-0.025664690881967545,1.712677240371704,-2.065577507019043,0.01239162776619196,2.014064073562622,4.883388969093122,-0.00010240026313113049,0.29927101731300354,-1.5972417036639612,0.0,-0.015894323587417603,0.9908432364463806,0.00010049208503914997,-0.0033017664682120085,0.713401734828949,0.05079301446676254,0.08714708685874939
998.0,971.0,1.3274,0.0927,9.1496,0.0023,-0.0476,-0.0376,-1.5226093505373974,-0.028226729482412338,1.8009493350982666,-2.0654659271240234,0.010507258586585522,2.0632054805755615,4.883404868632116,-9.585614316165447e-05,0.286126971244812,-1.5972612539874476,0.0,-0.00474055390805006,0.9908639192581177,9.517822763882577e-05,-0.00955865066498518,0.7137702107429504,0.05388060584664345,0.10082966089248657
998.0,971.0,1.3274,0.0927,9.1496,0.0023,-0.0476,-0.0376,-1.522801150833704,-0.03161463886499405,1.7703278064727783,-2.065429449081421,0.009579823352396488,2.0251071453094482,4.8833889839942834,-7.066512625897303e-05,0.2861553728580475,-1.5972941557513636,0.0,-0.005764702335000038,0.9909391403198242,8.890977187547833e-05,-0.002918083220720291,0.7142223119735718,0.06004486605525017,0.058330267667770386
998.0,971.0,1.3274,0.0927,9.1496,0.0023,-0.0476,-0.0376,-1.5230931279114266,-0.03499528765678406,1.7597662210464478,-2.0653414726257324,0.006529056001454592,2.01220440864563,4.8833727715309045,-6.551939441123977e-05,0.2975519001483917,-1.5972779432879847,0.0,-0.0065666441805660725,0.9909073114395142,8.341603825101629e-05,-0.00954551063477993,0.7147018313407898,0.06992258131504059,0.10372927784919739
998.0,971.0,1.3274,0.0927,9.1496,0.0023,-0.0476,-0.0376,-1.5233844307116051,-0.03987016901373863,1.7785053253173828,-2.0653340816497803,0.0043623801320791245,2.0049519538879395,4.883424329548635,-6.107328226789832e-05,0.30046960711479187,-1.5972612539874476,0.0,-0.009131318889558315,0.9909233450889587,9.165145456790924e-05,0.002199752489104867,0.7153021693229675,0.0784628614783287,0.08575329184532166
998.0,971.0,1.3274,0.0927,9.1496,0.0023,-0.0476,-0.0376,-1.523620468830206,-0.043898940086364746,1.7442021369934082,-2.0652337074279785,0.0031112285796552896,2.017695903778076,4.883348929672994,-5.8115470892516896e-05,0.30690088868141174,-1.597257439290182,0.0,0.0035828426480293274,0.9909231662750244,8.782220538705587e-05,-0.002981478115543723,0.7157459259033203,0.08462666720151901,0.15411651134490967
998.0,971.0,1.3274,0.0927,9.1496,0.0023,-0.0476,-0.0376,-1.5240405400148411,-0.04897250235080719,1.6962352991104126,-2.065314292907715,0.0016561906086280942,2.009986162185669,4.8834243444497965,-5.459040403366089e-05,0.30363449454307556,-1.5972655455218714,0.0,0.002647724002599716,0.9909470081329346,9.504089393885806e-05,-0.004526411183178425,0.7164497375488281,0.08784834295511246,0.06433224678039551
998.0,971.0,1.3274,0.0927,9.1496,0.0023,-0.0476,-0.0376,-1.5244152967682858,-0.05198773369193077,1.7086822986602783,-2.0652172565460205,0.0005535584059543908,2.0392374992370605,4.883392888098516,-5.146851981407963e-05,0.3142043352127075,-1.597245995198385,0.0,0.009716231375932693,0.9909112453460693,9.029817738337442e-05,0.006392526440322399,0.717254102230072,0.09397745877504349,0.12220732867717743
998.0,971.0,1.3274,0.0927,9.1496,0.0023,-0.0476,-0.0376,-1.5249038946679612,-0.05497726425528526,1.7194011211395264,-2.0652410984039307,0.00033614394487813115,2.0367062091827393,4.883408772736349,-4.868443284067325e-05,0.29777950048446655,-1.5972612539874476,0.0,-0.012282993644475937,0.9909112453460693,8.59847423271276e-05,0.0027268098201602697,0.7179978489875793,0.09201151132583618,0.10631626844406128
998.0,971.0,1.3274,0.0927,9.1496,0.0023,-0.0476,-0.0376,-1.5252585683814068,-0.05680553615093231,1.7378928661346436,-2.065281391143799,0.000262568355537951,1.9939589500427246,4.883404868632116,-4.6786299208179116e-05,0.3068316876888275,-1.5972736517535608,0.0,0.00013879034668207169,0.9908989667892456,6.628751725656912e-05,0.0018339324742555618,0.7184892296791077,0.08731134980916977,0.14579707384109497
998.0,971.0,1.3274,0.0927,9.1496,0.0023,-0.0476,-0.0376,-1.5256942597082634,-0.055311620235443115,1.7326241731643677,-2.0653018951416016,0.00020325873629190028,2.0120441913604736,4.8834243444497965,-4.447431274456903e-05,0.30310940742492676,-1.5972979704486292,0.0,-0.017430929467082024,0.9909231662750244,6.247179408092052e-05,0.016695791855454445,0.7192051410675049,0.08420674502849579,0.12890300154685974
998.0,971.0,1.3274,0.0927,9.1496,0.0023,-0.0476,-0.0376,-1.5261460852674027,-0.05481977388262749,1.747835636138916,-2.065314292907715,0.00016580797091592103,2.0348196029663086,4.883396851807394,-4.238009569235146e-05,0.29953011870384216,-1.5972655455218714,0.0,-0.007104809861630201,0.9909436106681824,7.102052768459544e-05,-0.003609093837440014,0.7199010848999023,0.08876153826713562,0.10069537907838821
1021.0,941.0,1.194,0.1125,9.0239,-0.0192,-0.0505,-0.0159,-1.5266059798053284,-0.052824247628450394,1.7615611553192139,-2.065253496170044,0.00010500953067094088,2.036435842514038,4.8833849457796,-1.4002944226376712e-05,0.29821741580963135,-1.5972698370562952,0.0,-0.008410428650677204,0.9908829927444458,6.747257430106401e-05,0.008043362759053707,0.7206690907478333,0.09512980282306671,0.10310124605894089
1021.0,941.0,1.194,0.1125,9.0239,-0.0192,-0.0505,-0.0159,-1.5270619255355378,-0.052770987153053284,1.7611181735992432,-2.065293788909912,9.087162470677868e-05,2.0218560695648193,4.883344965964117,-1.2366907867544796e-05,0.3002372980117798,-1.5972655455218714,0.0,-0.0114724300801754,0.9908308386802673,7.221784471767023e-05,0.008878493681550026,0.721412718296051,0.10058221966028214,0.13631118834018707
1021.0,941.0,1.194,0.1125,9.0239,-0.0192,-0.0505,-0.0159,-1.5273331229439755,-0.05387003719806671,1.741138219833374,-2.065253496170044,0.00010966969421133399,1.9763798713684082,4.883400830417433,-2.3702561520622112e-05,0.29294055700302124,-1.5972979704486292,0.0,-0.0058172522112727165,0.9909874200820923,7.238601392600685e-05,-0.004382169805467129,0.7220449447631836,0.1057896539568901,0.14502987265586853
1021.0,941.0,1.194,0.1125,9.0239,-0.0192,-0.0505,-0.0159,-1.5277808134308835,-0.05641115456819534,1.7024657726287842,-2.0652740001678467,5.386110569816083e-05,2.0285346508026123,4.883364754706182,-2.256348670925945e-05,0.3060162365436554,-1.5972612539874476,5.902828226211909e-10,-0.00929041113704443,0.9909071326255798,1.778152545739431e-05,-0.0016539881471544504,0.7229129076004028,0.11326991021633148,0.15367530286312103
1021.0,941.0,1.194,0.1125,9.0239,-0.0192,-0.0505,-0.0159,-1.5282728125206013,-0.06077248975634575,1.7355338335037231,-2.065218210220337,9.357983071822673e-05,1.9960434436798096,4.883412736445226,-2.1486153855221346e-05,0.2813451886177063,-1.5972779432879847,1.0728100028614077e-14,-0.003142885398119688,0.9908475875854492,3.2317040710161393e-10,0.0021269081626087427,0.7238645553588867,0.11298517882823944,0.14113406836986542
1021.0,941.0,1.194,0.1125,9.0239,-0.0192,-0.0505,-0.0159,-1.528735676114895,-0.06622521579265594,1.734649419784546,-2.0652058124542236,0.0011642405297607183,2.007896900177002,4.883400815516271,-2.0507013687165454e-05,0.3013651371002197,-1.5972335974322718,1.9497790873565658e-19,-0.0038565867580473423,0.9908989667892456,5.873461981532879e-15,-0.016993343830108643,0.7247520685195923,0.11373158544301987,0.11607137322425842
1021.0,941.0,1.194,0.1125,9.0239,-0.0192,-0.0505,-0.0159,-1.5292031180909653,-0.07383912801742554,1.6944003105163574,-2.065217971801758,0.0019305150490254164,2.022369861602783,4.8834363398845575,-1.0051235221908428e-05,0.30980926752090454,-1.5972698370562952,5.427281617475142e-23,-0.01027064397931099,0.9909152984619141,1.6348995264490609e-18,0.008668739348649979,0.7254438996315002,0.11745256185531616,0.124422088265419
1021.0,941.0,1.194,0.1125,9.0239,-0.0192,-0.0505,-0.0159,-1.5297947463444252,-0.08289992809295654,1.699831247329712,-2.0652098655700684,0.0027834849897772074,1.9560601711273193,4.883412736445226,-1.8267624912748914e-10,0.3028685450553894,-1.5972822348224085,9.863816803119418e-28,-0.010760867968201637,0.9909712076187134,2.971349044698792e-23,0.014452135190367699,0.7264038324356079,0.11839515715837479,0.1432553380727768
1021.0,941.0,1.194,0.1125,9.0239,-0.0192,-0.0505,-0.0159,-1.530502126818039,-0.08470113575458527,1.7655225992202759,-2.0651702880859375,0.004801752045750618,2.036297559738159,4.883416715055265,-3.3200500335739793e-15,0.29169872403144836,-1.5972822348224085,1.7926998554754193e-32,-0.004633227363228798,0.9909231662750244,5.400280119560102e-28,0.010353918187320232,0.7273960709571838,0.1200912594795227,0.16306744515895844
1021.0,941.0,1.194,0.1125,9.0239,-0.0192,-0.0505,-0.0159,-1.5312534061125298,-0.08235438168048859,1.7505770921707153,-2.065157890319824,0.00580947520211339,2.0292069911956787,4.883392947703161,-6.034026659572328e-20,0.2977217137813568,-1.5972779432879847,3.2581440374820946e-37,-0.01977725699543953,0.9909112453460693,9.814741593048718e-33,-0.00868736207485199,0.72838294506073,0.1260664463043213,0.16220438480377197
1021.0,941.0,1.194,0.1125,9.0239,-0.0192,-0.0505,-0.0159,-1.5319246102920552,-0.07652704417705536,1.7803096771240234,-2.0651466846466064,0.004376713186502457,2.0141522884368896,4.8833727715309045,-0.00011136654211441055,0.31175893545150757,-1.5972698370562952,5.921887310236677e-42,-0.0036401906982064247,0.9908638596534729,1.7837810865002416e-37,-0.0027536889538168907,0.7294675707817078,0.13193568587303162,0.1450682431459427
1021.0,941.0,1.194,0.1125,9.0239,-0.0192,-0.0505,-0.0159,-1.5324242834797879,-0.07612740993499756,1.7436485290527344,-2.065082550048828,0.0020376925822347403,2.025902509689331,4.8833168027694605,-0.00016696924285497516,0.2963234782218933,-1.5972860495196741,1.401298464324817e-45,-0.01163460873067379,0.9909592270851135,4.965220848642124e-41,-0.019530335441231728,0.7302833795547485,0.13727106153964996,0.16794249415397644
1001.0,942.0,2.5214,-1.4859,9.3858,-0.0646,-0.1145,0.022,-1.5330159787884732,-0.08128675818443298,1.7587401866912842,-2.06512188911438,0.0006778287352062762,1.9853342771530151,4.883332732110777,-0.002406146377325058,0.2977125644683838,-1.5972698370562952,0.0,-0.017771737650036812,0.9909071922302246,1.401298464324817e-45,-0.002750563435256481,0.7313711047172546,0.13545538485050201,0.14378219842910767
1001.0,942.0,2.5214,-1.4859,9.3858,-0.0646,-0.1145,0.022,-1.5336871419898053,-0.08585934340953827,1.7221132516860962,-2.0650618076324463,0.0005882432451471686,2.0433101654052734,4.883332702308454,-0.0018018126720562577,0.2958454489707947,-1.597262207661764,0.0,-0.008194776251912117,0.9909959435462952,0.0,-0.0019503168296068907,0.7323949933052063,0.1289350688457489,0.16410891711711884
1001.0,942.0,2.5214,-1.4859,9.3858,-0.0646,-0.1145,0.022,-1.5344001439264794,-0.09075623750686646,1.7332637310028076,-2.065058469772339,0.0040696049109101295,2.054999828338623,4.883304986148634,-0.0010404362110421062,0.30167242884635925,-1.5972655455218714,0.0,-0.009749030694365501,0.9909112453460693,0.0,0.010534172877669334,0.7333782315254211,0.12503619492053986,0.16472598910331726
1001.0,942.0,2.5214,-1.4859,9.3858,-0.0646,-0.1145,0.022,-1.5349462640336533,-0.09325353801250458,1.747011423110962,-2.0649614334106445,0.007683726958930492,2.0318548679351807,4.883360925107755,-0.0006347182206809521,0.3109592795372009,-1.5972417036639612,0.0,-0.007780658081173897,0.9909152388572693,0.0,0.006462347228080034,0.7340937852859497,0.12054973840713501,0.14823506772518158
1001.0,942.0,2.5214,-1.4859,9.3858,-0.0646,-0.1145,0.022,-1.535693609421589,-0.09940073639154434,1.7205783128738403,-2.0649302005767822,0.00928582064807415,1.9927502870559692,4.883304986148634,-0.00045222952030599117,0.29367542266845703,-1.5972498098956507,0.0,-0.018642567098140717,0.9909231662750244,0.0,-0.0017045973800122738,0.7350935935974121,0.12307916581630707,0.09584750980138779
1001.0,942.0,2.5214,-1.4859,9.3858,-0.0646,-0.1145,0.022,-1.536537793730833,-0.10208558291196823,1.7264543771743774,-2.0649144649505615,0.008111243136227131,2.048880100250244,4.883324849396505,-0.00035130578908137977,0.2853831648826599,-1.597302261983053,0.0,-0.005804957821965218,0.9909471273422241,0.0,-0.003780531696975231,0.7360737919807434,0.1275041401386261,0.15973451733589172
1001.0,942.0,2.5214,-1.4859,9.3858,-0.0646,-0.1145,0.022,-1.5374241483262558,-0.09681055694818497,1.7658321857452393,-2.0647945404052734,0.005884717684239149,1.9885891675949097,4.883320885687628,-0.0002872191835194826,0.3062950670719147,-1.5972779432879847,0.0,-0.003064113901928067,0.9908791780471802,0.0,-0.003744260873645544,0.7370530366897583,0.11977817118167877,0.07400354743003845
1001.0,942.0,2.5214,-1.4859,9.3858,-0.0646,-0.1145,0.022,-1.5381554004601021,-0.09656829386949539,1.740652322769165,-2.064750909805298,0.00393903162330389,2.0484352111816406,4.8833327172096155,-0.00027753147878684103,0.30353713035583496,-1.5972860495196741,0.0,-0.0024017593823373318,0.9908432960510254,0.0,-0.011733876541256905,0.7380131483078003,0.11095894128084183,0.12397706508636475
1001.0,942.0,2.5214,-1.4859,9.3858,-0.0646,-0.1145,0.022,-1.5386988383582612,-0.09768218547105789,1.7436859607696533,-2.064758062362671,0.002293018624186516,1.9970524311065674,4.883328813105383,-0.00024882692378014326,0.306089848279953,-1.597245995198385,0.0,-0.006706790067255497,0.9909071922302246,0.0,0.00043948693200945854,0.7386006712913513,0.10703608393669128,0.14103123545646667
1001.0,942.0,2.5214,-1.4859,9.3858,-0.0646,-0.1145,0.022,-1.5395099830678483,-0.10013049840927124,1.7041995525360107,-2.064758062362671,0.001041562296450138,1.993830680847168,4.883320885687628,-0.0002186040801461786,0.3034708499908447,-1.5972374121295374,0.0,-0.001761066960170865,0.9909514784812927,0.0,0.006171629298478365,0.7393887042999268,0.09598622471094131,0.08723339438438416
1001.0,942.0,2.5214,-1.4859,9.3858,-0.0646,-0.1145,0.022,-1.5402186171016474,-0.10462519526481628,1.7264254093170166,-2.0647072792053223,0.002600069623440504,2.012484550476074,4.883316832571783,-0.00017067239969037473,0.2856721878051758,-1.5972498098956507,0.0,-0.007428484503179789,0.9908993244171143,0.0,0.0035203921142965555,0.7401283383369446,0.09156619012355804,0.10914438962936401
1001.0,942.0,2.5214,-1.4859,9.3858,-0.0646,-0.1145,0.022,-1.5410338894328852,-0.10428357869386673,1.6907978057861328,-2.0646629333496094,0.005517845042049885,2.0033950805664062,4.883324849396505,-0.00015389572945423424,0.3118093013763428,-1.597290341054098,0.0,-0.009927403181791306,0.9908952713012695,0.0,-0.005654789507389069,0.7408685088157654,0.09519083052873611,0.07070449739694595
947.0,965.0,1.6181,-0.0191,10.0044,-0.0648,-0.0076,-0.0793,-1.5416654844633122,-0.10388550162315369,1.722794771194458,-2.0646183490753174,0.007846069522202015,2.0470094680786133,4.883348914771833,-6.891852535773069e-05,0.2988536059856415,-1.5972698370562952,0.0,-0.005864684469997883,0.9909030795097351,0.0,0.006484266836196184,0.7414523959159851,0.09463962912559509,0.12276380509138107
947.0,965.0,1.6181,-0.0191,10.0044,-0.0648,-0.0076,-0.0793,-1.5425073702684422,-0.10049352794885635,1.7607629299163818,-2.0645954608917236,0.009054903872311115,1.967613697052002,4.883336785226621,-3.913166801794432e-05,0.29426109790802,-1.5972297827350062,0.0,0.0036602397449314594,0.9909112453460693,0.0,-0.017317578196525574,0.7421764135360718,0.08944014459848404,0.10088492184877396
947.0,965.0,1.6181,-0.0191,10.0044,-0.0648,-0.0076,-0.0793,-1.5433358208141108,-0.09760947525501251,1.765880823135376,-2.0645434856414795,0.009525485336780548,2.037855386734009,4.88335299769,-3.6000568798044696e-05,0.3070710003376007,-1.597262207661764,0.0,-0.004696588031947613,0.9909115433692932,0.0,0.006474267225712538,0.7428194880485535,0.08358591794967651,0.04856196790933609
947.0,965.0,1.6181,-0.0191,10.0044,-0.0648,-0.0076,-0.0793,-1.5441059742918988,-0.0999007299542427,1.7238104343414307,-2.064476251602173,0.009152382612228394,1.9910335540771484,4.883376735239782,-4.992680987925269e-05,0.30552226305007935,-1.5972664991961878,0.0,-0.0030584940686821938,0.9908990263938904,0.0,-0.0018363604322075844,0.7434672713279724,0.07601543515920639,0.043373554944992065
947.0,965.0,1.6181,-0.0191,10.0044,-0.0648,-0.0076,-0.0793,-1.5449631114355107,-0.10266826301813126,1.7582437992095947,-2.0643393993377686,0.009938497096300125,2.0251882076263428,4.883320900588789,-4.6552206185879186e-05,0.31500089168548584,-1.5972541014300745,0.0,-0.0025482899509370327,0.9908513426780701,0.0,-0.006125515326857567,0.7439749240875244,0.06248059496283531,0.044217005372047424
947.0,965.0,1.6181,-0.0191,10.0044,-0.0648,-0.0076,-0.0793,-1.5455288768610735,-0.10386776924133301,1.7126448154449463,-2.0643041133880615,0.01219871360808611,2.0398786067962646,4.883332747011938,4.60958581243176e-05,0.29592809081077576,-1.597290341054098,0.0,-0.02090286836028099,0.9908639192581177,0.0,-0.0030540809966623783,0.7443592548370361,0.05475376546382904,0.042471472173929214
947.0,965.0,1.6181,-0.0191,10.0044,-0.0648,-0.0076,-0.0793,-1.5463335954448958,-0.10210947692394257,1.6872961521148682,-2.0641963481903076,0.017349138855934143,2.05122971534729,4.883368897228994,0.00011385481775505468,0.2918696701526642,-1.5972698370562952,0.0,-0.01228269562125206,0.9908996224403381,0.0,-0.016253456473350525,0.7447671890258789,0.047991007566452026,0.07953334599733353
947.0,965.0,1.6181,-0.0191,10.0044,-0.0648,-0.0076,-0.0793,-1.5471530829421063,-0.09576418250799179,1.761918306350708,-2.0640439987182617,0.02185169607400894,2.0166218280792236,4.883356886893072,9.840702841756865e-05,0.313434898853302,-1.5972698370562952,0.0,-0.012265164405107498,0.9908955693244934,0.0,-0.008988071233034134,0.745103120803833,0.04337700456380844,0.02419319376349449
947.0,965.0,1.6181,-0.0191,10.0044,-0.0648,-0.0076,-0.0793,-1.5478877567550917,-0.09348999708890915,1.7660598754882812,-2.0638327598571777,0.02394712157547474,2.066333055496216,4.8833128837640665,8.588457421865314e-05,0.302280992269516,-1.5972498098956507,0.0,-0.0024832102935761213,0.990879237651825,0.0,-0.009080481715500355,0.7454023361206055,0.045670945197343826,0.08766631782054901
947.0,965.0,1.6181,-0.0191,10.0044,-0.0648,-0.0076,-0.0793,-1.5484510988793154,-0.10037210583686829,1.798125147819519,-2.0637011528015137,0.024178577587008476,2.0005335807800293,4.8833287236984155,9.13033218239434e-05,0.31785035133361816,-1.5972779432879847,0.0,-0.00997772067785263,0.9909272193908691,0.0,-0.011125092394649982,0.7457550168037415,0.04908846318721771,0.02221785858273506
947.0,965.0,1.6181,-0.0191,10.0044,-0.0648,-0.0076,-0.0793,-1.5492225729725142,-0.10115106403827667,1.7254722118377686,-2.063493013381958,0.026302890852093697,2.0704596042633057,4.8833168027694605,8.53562232805416e-05,0.29400283098220825,-1.5972016493426722,4.92614672111813e-05,-0.017645277082920074,0.990887463092804,0.0,-0.008024348877370358,0.7460662722587585,0.050738826394081116,0.06488054990768433
947.0,965.0,1.6181,-0.0191,10.0044,-0.0648,-0.0076,-0.0793,-1.5499822099557896,-0.0955672338604927,1.7915979623794556,-2.06325364112854,0.03233333304524422,2.030535936355591,4.883376750140943,0.00010761557496152818,0.2958660423755646,-1.5972817579852503,2.7376701794423752e-08,-0.015912862494587898,0.9908517003059387,0.0,-0.006466150749474764,0.7464986443519592,0.04964872822165489,0.024182869121432304
976.0,921.0,1.7372,0.4439,9.2166,0.009,0.0377,-0.0938,-1.5507133987597008,-0.08683660626411438,1.7669684886932373,-2.0629584789276123,0.039198219776153564,2.0742928981781006,4.8833287236984155,9.281675011152402e-05,0.30344295501708984,-1.597222153340475,4.975580494490095e-13,-0.005418935790657997,0.9908952713012695,0.0,-0.010115577839314938,0.7468944787979126,0.0495404377579689,0.06628230959177017
976.0,921.0,1.7372,0.4439,9.2166,0.009,0.0377,-0.0938,-1.551269145017006,-0.08761011064052582,1.8591169118881226,-2.062730312347412,0.04304777458310127,2.020463705062866,4.883332702308454,8.413855539401993e-05,0.2898755967617035,-1.597245995198385,1.3849711312590937e-16,-0.015166250057518482,0.9908720850944519,0.0,-0.0003421823785174638,0.7471741437911987,0.0495886392891407,0.02353314310312271
976.0,921.0,1.7372,0.4439,9.2166,0.009,0.0377,-0.0938,-1.5519922033748408,-0.08905110508203506,1.8368806838989258,-2.062376022338867,0.04683897644281387,2.0639071464538574,4.8833608506019495,-4.702635123976506e-05,0.3040389120578766,-1.5972698370562952,2.517116258553832e-21,-0.008595888502895832,0.9908592700958252,0.0,-0.00605249498039484,0.7475664019584656,0.051286131143569946,0.10147010535001755
976.0,921.0,1.7372,0.4439,9.2166,0.009,0.0377,-0.0938,-1.5526835464737196,-0.09115727245807648,1.8244730234146118,-2.061920166015625,0.05403821915388107,2.0662341117858887,4.883388998895445,-3.8920938095543534e-05,0.3148645758628845,-1.59723407426943,4.5747347363152836e-26,-0.00590878538787365,0.990863561630249,0.0,-0.006141559220850468,0.748022198677063,0.05202144384384155,0.04872927814722061
976.0,921.0,1.7372,0.4439,9.2166,0.009,0.0377,-0.0938,-1.553391308789589,-0.08965721726417542,1.8198788166046143,-2.0614891052246094,0.06403744220733643,2.0602872371673584,4.883364829211988,-3.3180251193698496e-05,0.31075751781463623,-1.5972417036639612,8.314355238563818e-31,-0.01167323999106884,0.9908883571624756,5.7947854514850405e-08,-0.010915907099843025,0.7484061121940613,0.05133127421140671,0.05281286686658859
976.0,921.0,1.7372,0.4439,9.2166,0.009,0.0377,-0.0938,-1.5541066539338608,-0.09272149205207825,1.7933231592178345,-2.0608251094818115,0.07388266175985336,2.1119754314422607,4.883344951062956,-2.8915568691445515e-05,0.30780333280563354,-1.5972216765033167,1.5110929657283545e-35,-0.011371240951120853,0.990887463092804,1.0531736073515763e-12,0.0028015528805553913,0.7487980127334595,0.04673103615641594,0.060201339423656464
976.0,921.0,1.7372,0.4439,9.2166,0.009,0.0377,-0.0938,-1.554694491704442,-0.09574328362941742,1.7945544719696045,-2.0603907108306885,0.07991233468055725,2.150886058807373,4.883312824159422,-2.6373336368124e-05,0.2929916977882385,-1.5972254912005823,4.2061837133666936e-39,-0.02133791148662567,0.9908843040466309,2.9315474138270393e-16,-0.01800556667149067,0.7490898370742798,0.04021220654249191,0.004576887935400009
976.0,921.0,1.7372,0.4439,9.2166,0.009,0.0377,-0.0938,-1.5554333406365295,-0.09763839095830917,1.8158214092254639,-2.0596883296966553,0.08573808521032333,2.0751149654388428,4.883368703513899,-1.400931282091733e-08,0.31087130308151245,-1.5972860495196741,7.707141553786494e-44,-0.009545234963297844,0.9908556938171387,5.32794343077186e-21,-0.007092293817549944,0.749373733997345,0.033823590725660324,0.0023839096538722515
976.0,921.0,1.7372,0.4439,9.2166,0.009,0.0377,-0.0938,-1.5562688245302816,-0.09762422740459442,1.8097074031829834,-2.0590062141418457,0.09052865952253342,2.0877535343170166,4.883364829211988,-2.546123305680742e-13,0.3050849437713623,-1.5972655455218714,0.0,-0.01485910452902317,0.9909036755561829,9.683274390861324e-26,-0.015249770134687424,0.7496095895767212,0.02921939641237259,0.026066411286592484
976.0,921.0,1.7372,0.4439,9.2166,0.009,0.0377,-0.0938,-1.5569992580315848,-0.09087955206632614,1.8292236328125,-2.058227062225342,0.09746628254652023,2.095489501953125,4.8833409426505945,-4.62745348741355e-18,0.31448325514793396,-1.5972541014300745,0.0,-0.011685176752507687,0.9908676743507385,1.7598869474748287e-30,-0.03165220469236374,0.7498254776000977,0.025144711136817932,0.01972321607172489
976.0,921.0,1.7372,0.4439,9.2166,0.009,0.0377,-0.0938,-1.5576356782442708,-0.08808023482561111,1.8210647106170654,-2.0575921535491943,0.09800253808498383,2.092557191848755,4.883340972452917,-1.2880686458129905e-21,0.30379098653793335,-1.5972541014300745,0.0,-0.012438526377081871,0.990851640701294,4.8987101582236835e-34,-0.03373124822974205,0.7499774098396301,0.023125985637307167,0.02299017459154129
976.0,921.0,1.7372,0.4439,9.2166,0.009,0.0377,-0.0938,-1.5583461199751873,-0.09097441285848618,1.8356040716171265,-2.0568222999572754,0.10458208620548248,2.0996267795562744,4.883372875839033,-2.3410009733977286e-26,0.30891165137290955,-1.5972541014300745,0.0,-0.012151563540101051,0.9908639192581177,8.903162404773904e-39,-0.03147469460964203,0.7501936554908752,0.022207586094737053,0.016548413783311844
950.0,896.0,3.0042,-1.1145,8.9127,-0.0244,0.0376,-0.088,-1.5591060903719445,-0.09831040352582932,1.8448598384857178,-2.0559632778167725,0.1128581091761589,2.1231069564819336,4.883304926543989,-4.254653842631756e-31,0.28845542669296265,-1.5972779432879847,0.0,-0.010687878355383873,0.9908432960510254,-0.0004006033414043486,-0.03070053458213806,0.7503092288970947,0.0226236954331398,0.009871000424027443
950.0,896.0,3.0042,-1.1145,8.9127,-0.0244,0.0376,-0.088,-1.5598974016359826,-0.10658673942089081,1.8682337999343872,-2.055041790008545,0.11773024499416351,2.1578128337860107,4.883336785226621,-7.732622675378675e-36,0.30305835604667664,-1.5971973578082483,0.0,-0.011380632407963276,0.9908318519592285,-0.0003611269930843264,-0.03938551992177963,0.7505015134811401,0.02271381765604019,-0.01763097755610943
950.0,896.0,3.0042,-1.1145,8.9127,-0.0244,0.0376,-0.088,-1.56068421274934,-0.11043956130743027,1.844692587852478,-2.0539913177490234,0.12762707471847534,2.1153244972229004,4.883356976300039,-1.405362229871359e-40,0.30376166105270386,-1.5972374121295374,0.0,-0.0018546321662142873,0.9908556938171387,-0.0003820426936727017,-0.04434394836425781,0.7506410479545593,0.022918932139873505,0.004620716907083988
950.0,896.0,3.0042,-1.1145,8.9127,-0.0244,0.0376,-0.088,-1.561408181940653,-0.10979519039392471,1.842792272567749,-2.053196668624878,0.138633593916893,2.1207075119018555,4.883332702308454,-0.00010090966679854318,0.2912646532058716,-1.5972779432879847,0.0,-0.00809948705136776,0.9907916784286499,-0.00040151370922103524,-0.03634539991617203,0.7508374452590942,0.02486393041908741,0.000424790196120739
950.0,896.0,3.0042,-1.1145,8.9127,-0.0244,0.0376,-0.088,-1.5623754693991323,-0.10845986753702164,1.7884814739227295,-2.052107810974121,0.14665478467941284,2.147541046142578,4.883332702308454,-0.00012605087249539793,0.3018777370452881,-1.5972860495196741,0.0,0.003089234232902527,0.9908080101013184,-0.000557596969883889,-0.0476793497800827,0.751029372215271,0.02750290557742119,0.03841128200292587
950.0,896.0,3.0042,-1.1145,8.9127,-0.0244,0.0376,-0.088,-1.563302792408951,-0.10610318183898926,1.8631234169006348,-2.0508902072906494,0.15215317904949188,2.196592330932617,4.88333677032546,-0.00014197107520885766,0.305833637714386,-1.5972541014300745,0.0,-0.021794989705085754,0.9907472729682922,-0.0005973897641524673,-0.057005248963832855,0.7512491345405579,0.02900460734963417,-0.028287658467888832
950.0,896.0,3.0042,-1.1145,8.9127,-0.0244,0.0376,-0.088,-1.5641657312265416,-0.11504792422056198,1.7984864711761475,-2.0497004985809326,0.1557588428258896,2.1321301460266113,4.8833206472690485,-0.00012263315147720277,0.3065387010574341,-1.5972583929644983,0.0,-0.004195739049464464,0.9908400177955627,-0.0007080987561494112,-0.054259974509477615,0.7515333890914917,0.03383667767047882,-0.0038219839334487915
950.0,896.0,3.0042,-1.1145,8.9127,-0.0244,0.0376,-0.088,-1.5648937055705865,-0.119607113301754,1.8110369443893433,-2.048729658126831,0.15467973053455353,2.1775379180908203,4.883336785226621,-0.00011126157914986834,0.30454546213150024,-1.5972583929644983,0.0,-0.012320076115429401,0.9908199906349182,-0.0006138772587291896,-0.048465222120285034,0.7516970634460449,0.03487856313586235,-0.019829411059617996
950.0,896.0,3.0042,-1.1145,8.9127,-0.0244,0.0376,-0.088,-1.565796769955643,-0.12352896481752396,1.8132140636444092,-2.0474488735198975,0.16603195667266846,2.191727638244629,4.88333677032546,-9.90193584584631e-05,0.30409806966781616,-1.5972541014300745,0.0,-0.011660832911729813,0.9907636046409607,-0.0005508048925548792,-0.07218746840953827,0.7519772052764893,0.03410547226667404,-0.0041047330014407635
950.0,896.0,3.0042,-1.1145,8.9127,-0.0244,0.0376,-0.088,-1.5667803052677591,-0.12179186195135117,1.7754483222961426,-2.0460150241851807,0.1802876740694046,2.1933727264404297,4.88333677032546,-6.839624984422699e-05,0.29357314109802246,-1.5972498098956507,0.0,-0.008163532242178917,0.9907273054122925,-0.0005047303275205195,-0.06274421513080597,0.7522369623184204,0.03207540512084961,0.047173380851745605
950.0,896.0,3.0042,-1.1145,8.9127,-0.0244,0.0376,-0.088,-1.567754758787789,-0.11764703691005707,1.835807204246521,-2.0445423126220703,0.1891029328107834,2.187680244445801,4.883316817670622,-6.0869806475238875e-05,0.28562015295028687,-1.5972541014300745,0.0,-0.005337293725460768,0.9907712936401367,-0.0004410027468111366,-0.05873097851872444,0.7525249719619751,0.03303711488842964,-0.033200010657310486
950.0,896.0,3.0042,-1.1145,8.9127,-0.0244,0.0376,-0.088,-1.568726171306782,-0.11287088692188263,1.8795526027679443,-2.0429697036743164,0.19242548942565918,2.2277331352233887,4.8833608506019495,-7.320514851016924e-05,0.2888229489326477,-1.5972822348224085,0.0,-0.022638438269495964,0.990767240524292,-0.0004506885597947985,-0.06485259532928467,0.7528330683708191,0.038135603070259094,0.031119219958782196
947.0,938.0,2.5573,-0.6772,9.3852,-0.0431,0.1078,-0.0712,-1.5694015093943854,-0.11657322198152542,1.8882694244384766,-2.0418477058410645,0.20144601166248322,2.1717967987060547,4.883312958269872,-5.237094228505157e-05,0.2869548201560974,-1.5972216765033167,0.0,-0.01873626746237278,0.9907758831977844,-0.0005722178611904383,-0.06779471039772034,0.7530288100242615,0.04102009907364845,-0.01277770847082138
947.0,938.0,2.5573,-0.6772,9.3852,-0.0431,0.1078,-0.0712,-1.5702640858692867,-0.12074283510446548,1.8552088737487793,-2.040250778198242,0.20846523344516754,2.21165132522583,4.883293244033613,-0.0026227424386888742,0.2893149256706238,-1.5972779432879847,0.0,-0.030026741325855255,0.9907398223876953,-0.0004844460927415639,-0.07794153690338135,0.7534133791923523,0.04305843263864517,0.034236785024404526
947.0,938.0,2.5573,-0.6772,9.3852,-0.0431,0.1078,-0.0712,-1.5711914501585902,-0.12325344234704971,1.861250638961792,-2.0385990142822266,0.21050673723220825,2.238227128982544,4.883301216154852,-0.0026340135373175144,0.29045066237449646,-1.5972374121295374,0.0,-0.005164431408047676,0.9908044934272766,-0.0004252058861311525,-0.0672910213470459,0.7537494897842407,0.040974486619234085,0.027553729712963104
947.0,938.0,2.5573,-0.6772,9.3852,-0.0431,0.1078,-0.0712,-1.5721026859679164,-0.11897697299718857,1.8508729934692383,-2.0367867946624756,0.22713182866573334,2.2754526138305664,4.883316862374105,-5.83657092647627e-05,0.2952181398868561,-1.597269360219137,0.0,-0.009498191997408867,0.9907318949699402,-0.00038515430060215294,-0.07764849066734314,0.7540324926376343,0.03768070787191391,0.07078664749860764
947.0,938.0,2.5573,-0.6772,9.3852,-0.0431,0.1078,-0.0712,-1.5728737316527308,-0.11554404348134995,1.8231887817382812,-2.0354201793670654,0.2416321039199829,2.2888216972351074,4.883301245957174,-1.6246310963197175e-08,0.29909220337867737,-1.597245995198385,0.0,-0.004857480991631746,0.9907920360565186,-0.0003682715760078281,-0.0651569589972496,0.7543133497238159,0.0357823371887207,0.03941855579614639
947.0,938.0,2.5573,-0.6772,9.3852,-0.0431,0.1078,-0.0712,-1.5738169155516566,-0.11662579327821732,1.8444361686706543,-2.033468246459961,0.24004043638706207,2.264078378677368,4.88328908660964,-2.9526866520378225e-13,0.29626142978668213,-1.5972498098956507,0.0,-0.022322891280055046,0.9907237887382507,-0.00030087577761150897,-0.07466964423656464,0.7545404434204102,0.03491797670722008,0.06879331171512604
947.0,938.0,2.5573,-0.6772,9.3852,-0.0431,0.1078,-0.0712,-1.574808260003561,-0.12251334637403488,1.837461233139038,-2.0314691066741943,0.24308346211910248,2.284799575805664,4.8833055076892755,-0.0021317864302545786,0.28362032771110535,-1.5972612539874476,0.0,-0.026446852833032608,0.990791916847229,-0.0002886916045099497,-0.088516965508461,0.7548888325691223,0.03524463623762131,0.09202483296394348
947.0,938.0,2.5573,-0.6772,9.3852,-0.0431,0.1078,-0.0712,-1.5757314167418421,-0.1251375377178192,1.8409802913665771,-2.0295116901397705,0.2587645947933197,2.280418872833252,4.8832533089216135,-0.0012951227836310863,0.2885794937610626,-1.5972541014300745,0.0,-0.027150209993124008,0.9907233119010925,-0.0002487862657289952,-0.09290451556444168,0.7551363110542297,0.03480252996087074,0.04471626877784729
947.0,938.0,2.5573,-0.6772,9.3852,-0.0431,0.1078,-0.0712,-1.576702734033102,-0.1252305954694748,1.8342584371566772,-2.0274717807769775,0.25456807017326355,2.3281121253967285,4.883289265423574,-0.0036636090371757746,0.2750280499458313,-1.5972541014300745,0.0,-0.033843833953142166,0.990852415561676,-0.00021857218234799802,-0.08182154595851898,0.7553803324699402,0.03320692852139473,0.0611761137843132
947.0,938.0,2.5573,-0.6772,9.3852,-0.0431,0.1078,-0.0712,-1.5773607693114222,-0.12412133812904358,1.8026418685913086,-2.0258660316467285,0.25741589069366455,2.2526659965515137,4.883277255087652,-0.0023124273866415024,0.2795514762401581,-1.597269360219137,0.0,-0.022728286683559418,0.9908720254898071,-0.00017696773284114897,-0.06778958439826965,0.7555922865867615,0.0325179323554039,0.10037212818861008
947.0,938.0,2.5573,-0.6772,9.3852,-0.0431,0.1078,-0.0712,-1.578353067437643,-0.11713148653507233,1.8624202013015747,-2.023698568344116,0.272301584482193,2.3343958854675293,4.883249345212736,0.0004608769959304482,0.2753405272960663,-1.5972417036639612,0.0,-0.031979359686374664,0.9908323287963867,-0.00015773059567436576,-0.0716341957449913,0.7558481693267822,0.034536294639110565,0.08319519460201263
947.0,938.0,2.5573,-0.6772,9.3852,-0.0431,0.1078,-0.0712,-1.5793529949583949,-0.11938081681728363,1.8138434886932373,-2.0215437412261963,0.2765767574310303,2.3040714263916016,4.88320933559493,3.6635321976064006e-07,0.2777646481990814,-1.5972541014300745,0.0,-0.025670163333415985,0.990828275680542,-0.00014337150787469,-0.07262083888053894,0.7561361193656921,0.03836759179830551,0.1291671097278595
948.0,901.0,1.3412,-0.4062,8.9222,-0.0093,0.1794,-0.0869,-1.580287595788473,-0.12629713118076324,1.854891300201416,-2.019277572631836,0.2768082916736603,2.365872859954834,4.8832332519586465,-0.0012697722995653749,0.2773169279098511,-1.5972374121295374,0.0,-0.02657599188387394,0.990828275680542,-0.0001314580295002088,-0.06254354119300842,0.7564759850502014,0.04157925769686699,0.12714485824108124
948.0,901.0,1.3412,-0.4062,8.9222,-0.0093,0.1794,-0.0869,-1.5810777149596156,-0.13141782581806183,1.839492678642273,-2.017634153366089,0.2738777697086334,2.314647912979126,4.88319348075942,-0.0011192108504474163,0.2605152130126953,-1.5972541014300745,1.264741342765774e-07,-0.03957217186689377,0.9908443093299866,-4.4041811634087935e-05,-0.04712967574596405,0.756712019443512,0.04026409983634949,0.15400245785713196
948.0,901.0,1.3412,-0.4062,8.9222,-0.0093,0.1794,-0.0869,-1.5820619068541468,-0.12898898124694824,1.874938726425171,-2.015390634536743,0.28581586480140686,2.299600124359131,4.88318549373702,-0.0004091662704013288,0.2809208333492279,-1.5972259680377405,2.298604882822186e-12,-0.044036880135536194,0.9908560514450073,-4.0096081647789106e-05,-0.0543469563126564,0.7570440769195557,0.03872797638177872,0.12677088379859924
948.0,901.0,1.3412,-0.4062,8.9222,-0.0093,0.1794,-0.0869,-1.5831290684142054,-0.1310405135154724,1.852853775024414,-2.0131568908691406,0.2861776351928711,2.38169527053833,4.883209842234411,-0.0003108858363702893,0.2837613821029663,-1.5972498098956507,4.1776009065716915e-17,-0.026083387434482574,0.9908199906349182,-3.681556700030342e-05,-0.04462151229381561,0.7573964595794678,0.036986708641052246,0.09390184283256531
948.0,901.0,1.3412,-0.4062,8.9222,-0.0093,0.1794,-0.0869,-1.5842043362059535,-0.1346801221370697,1.85939621925354,-2.0108020305633545,0.28943055868148804,2.2833523750305176,4.88321732261733,-0.0002091023197863251,0.2792719304561615,-1.597245995198385,7.592583002183054e-22,-0.01844581961631775,0.9907553195953369,-1.7035106793628074e-05,-0.04241543635725975,0.7576758861541748,0.03794657438993454,0.12330679595470428
948.0,901.0,1.3412,-0.4062,8.9222,-0.0093,0.1794,-0.0869,-1.585048337975973,-0.13817468285560608,1.8817126750946045,-2.009075880050659,0.30052894353866577,2.3717193603515625,4.88319348075942,-0.0002918118261732161,0.2957002520561218,-1.5972216765033167,2.1134234461117714e-25,-0.02589462697505951,0.990751326084137,-1.610235995030962e-05,-0.04887894541025162,0.7579038143157959,0.03975497931241989,0.1397629678249359
948.0,901.0,1.3412,-0.4062,8.9222,-0.0093,0.1794,-0.0869,-1.586203237573141,-0.14799192547798157,1.8524258136749268,-2.006833553314209,0.2955276072025299,2.3970956802368164,4.883173498302259,-0.0010714046657085419,0.28005337715148926,-1.5972335974322718,3.841043083797753e-30,-0.033487606793642044,0.9908323287963867,-1.5026903383841272e-05,-0.04809136688709259,0.7582356333732605,0.042210210114717484,0.11076642572879791
948.0,901.0,1.3412,-0.4062,8.9222,-0.0093,0.1794,-0.0869,-1.587416788140768,-0.1556190699338913,1.842868685722351,-2.004281997680664,0.3012184798717499,2.3553667068481445,4.88316165187911,-0.0006497259601019323,0.2830811142921448,-1.5972374121295374,6.980906234929655e-35,-0.02529507502913475,0.9907919764518738,-1.4086122973822057e-05,-0.04998737573623657,0.7585756182670593,0.043971382081508636,0.10972563922405243
948.0,901.0,1.3412,-0.4062,8.9222,-0.0093,0.1794,-0.0869,-1.5887018642821253,-0.15034733712673187,1.9149956703186035,-2.0018670558929443,0.3019312620162964,2.3003218173980713,4.88322530963973,-0.00040948225068859756,0.2822563648223877,-1.597217861806051,1.2687454386889396e-39,-0.031590886414051056,0.9908401370048523,-1.3256209967948962e-05,-0.059394437819719315,0.7589277029037476,0.04406672716140747,0.11199583113193512
948.0,901.0,1.3412,-0.4062,8.9222,-0.0093,0.1794,-0.0869,-1.5899597607054652,-0.15256452560424805,1.9304649829864502,-1.9994498491287231,0.3042075037956238,2.384791374206543,4.88316165187911,-0.00030014137155376375,0.2871275842189789,-1.5972541014300745,2.2420775429197073e-44,-0.019269239157438278,0.9908199310302734,-1.251866251550382e-05,-0.034950170665979385,0.7593115568161011,0.04381978511810303,0.09376545250415802
948.0,901.0,1.3412,-0.4062,8.9222,-0.0093,0.1794,-0.0869,-1.5909539661803187,-0.16580067574977875,1.8783634901046753,-1.9976707696914673,0.3033052086830139,2.3256354331970215,4.88316963890151,-0.00037258531665429473,0.2907419800758362,-1.5972860495196741,0.0,-0.03867697715759277,0.9907713532447815,-1.2017184417345561e-05,-0.04566185921430588,0.7596078515052795,0.04527720808982849,0.09675772488117218
948.0,901.0,1.3412,-0.4062,8.9222,-0.0093,0.1794,-0.0869,-1.592386385003561,-0.18675431609153748,1.8442134857177734,-1.9951353073120117,0.292837530374527,2.3803319931030273,4.883145439415731,-0.0003754238423425704,0.28420042991638184,-1.5972374121295374,0.0,-0.02586936205625534,0.9907476305961609,-1.1407903912186157e-05,-0.049028996378183365,0.7599634528160095,0.045941196382045746,0.0973309576511383
961.0,910.0,1.529,0.1095,9.0317,0.0159,0.0938,-0.0991,-1.593903204003805,-0.1846691519021988,1.9468220472335815,-1.9927051067352295,0.3007090985774994,2.3628408908843994,4.883173498302259,-1.9672303096740507e-05,0.27470332384109497,-1.5972455183612269,0.0,-0.028499972075223923,0.9907392263412476,-2.1621284759021364e-05,-0.0544542595744133,0.7602791786193848,0.044289249926805496,0.11698165535926819
961.0,910.0,1.529,0.1095,9.0317,0.0159,0.0938,-0.0991,-1.5953518352904261,-0.1714850664138794,1.933813214302063,-1.9903112649917603,0.30292436480522156,2.3690083026885986,4.883205669909277,-3.57534446493446e-10,0.2881038784980774,-1.5972583929644983,0.0,-0.021327391266822815,0.990840494632721,-2.0715209757327102e-05,-0.06624661386013031,0.7606634497642517,0.04104388505220413,0.09601464122533798
961.0,910.0,1.529,0.1095,9.0317,0.0159,0.0938,-0.0991,-1.5964509449400843,-0.179532989859581,1.9249721765518188,-1.9885400533676147,0.3011647164821625,2.402008533477783,4.883125382452764,-9.95210316066808e-14,0.2763610780239105,-1.5972297827350062,0.0,-0.019760116934776306,0.9907393455505371,-2.0023868273710832e-05,-0.06600639224052429,0.7609151601791382,0.0421680323779583,0.12269045412540436
961.0,910.0,1.529,0.1095,9.0317,0.0159,0.0938,-0.0991,-1.5980836353697718,-0.20478443801403046,1.9120466709136963,-1.9861654043197632,0.2905935049057007,2.3329081535339355,4.883169504791059,-0.002030139323323965,0.2748112082481384,-1.5972135702716272,0.0,-0.015712888911366463,0.9907717704772949,-1.4163452632942608e-09,-0.06684830784797668,0.7612790465354919,0.04658297821879387,0.10965924710035324
961.0,910.0,1.529,0.1095,9.0317,0.0159,0.0938,-0.0991,-1.5997377834715785,-0.20925386250019073,1.9055564403533936,-1.9838911294937134,0.2886330485343933,2.3369288444519043,4.883125650673666,-0.0011121482821181417,0.29096588492393494,-1.5972541014300745,0.0,-0.02359076775610447,0.9907233119010925,-2.5741375312771445e-14,-0.06232718378305435,0.7616186738014221,0.04539928957819939,0.07061071693897247
961.0,910.0,1.529,0.1095,9.0317,0.0159,0.0938,-0.0991,-1.601323743859762,-0.20625291764736176,1.8852301836013794,-1.9815973043441772,0.2851336598396301,2.317098617553711,4.883153575449743,-0.0006088191876187921,0.28018543124198914,-1.59723407426943,0.0,-0.018621627241373062,0.9907717704772949,-4.678367591489531e-19,-0.06317183375358582,0.7620190978050232,0.04044982045888901,0.05303899943828583
961.0,910.0,1.529,0.1095,9.0317,0.0159,0.0938,-0.0991,-1.6029964886107386,-0.21415793895721436,1.8958206176757812,-1.9793052673339844,0.28388383984565735,2.3320376873016357,4.883149552136221,-0.0004194233915768564,0.27827519178390503,-1.5972335974322718,0.0,-0.021243365481495857,0.9907799363136292,-8.502703345905751e-24,-0.08447487652301788,0.7622823715209961,0.036293599754571915,0.06625988334417343
961.0,910.0,1.529,0.1095,9.0317,0.0159,0.0938,-0.0991,-1.6043554745116175,-0.21909496188163757,1.8323228359222412,-1.9777077436447144,0.28950825333595276,2.364462375640869,4.883157494455137,-0.00038184711593203247,0.2775423526763916,-1.5972817579852503,0.0,-0.021242069080471992,0.9908085465431213,-2.5425608328077942e-05,-0.07825256139039993,0.7625066041946411,0.03337135910987854,0.03379733860492706
961.0,910.0,1.529,0.1095,9.0317,0.0159,0.0938,-0.0991,-1.60612215618276,-0.220619335770607,1.896622657775879,-1.9754283428192139,0.2808201014995575,2.3060479164123535,4.883133637696066,-0.0002940164413303137,0.27902570366859436,-1.5972583929644983,0.0,-0.016996324062347412,0.9907599091529846,-3.610246130847372e-05,-0.08454729616641998,0.762786865234375,0.027543729171156883,0.07639435678720474
961.0,910.0,1.529,0.1095,9.0317,0.0159,0.0938,-0.0991,-1.6078750095763148,-0.22785553336143494,1.8789827823638916,-1.9731699228286743,0.2843766212463379,2.397883892059326,4.883133637696066,-0.0002452714543323964,0.27455198764801025,-1.5972541014300745,0.0,-0.01683935895562172,0.9907717704772949,-5.692643389920704e-05,-0.0920412689447403,0.7629830241203308,0.021962331607937813,0.0475773960351944
961.0,910.0,1.529,0.1095,9.0317,0.0159,0.0938,-0.0991,-1.6096822224059046,-0.23814471065998077,1.927600383758545,-1.9709590673446655,0.2753099501132965,2.2952616214752197,4.883137750416555,-0.0002762373478617519,0.29301124811172485,-1.5972498098956507,0.0,-0.03731173276901245,0.9908164143562317,-0.0003081300528720021,-0.09955703467130661,0.7631350159645081,0.018846021965146065,0.0806761234998703
961.0,910.0,1.529,0.1095,9.0317,0.0159,0.0938,-0.0991,-1.6111251316466273,-0.2390521615743637,1.887963056564331,-1.9692366123199463,0.2669755816459656,2.366851568222046,4.883113774448194,-0.0003599475894588977,0.28228995203971863,-1.5971978346454065,0.0,-0.00924571044743061,0.990752100944519,-0.0003071388346143067,-0.10807725787162781,0.7632432579994202,0.01615908555686474,0.050626322627067566
961.0,910.0,1.529,0.1095,9.0317,0.0159,0.0938,-0.0991,-1.6130153141417445,-0.2417207807302475,1.9221179485321045,-1.9670798778533936,0.27111613750457764,2.287585973739624,4.883129793196478,-0.00027268449775874615,0.2767676115036011,-1.5972374121295374,0.0,-0.006422595586627722,0.9907520413398743,-0.00031237181974574924,-0.10069557279348373,0.7633711099624634,0.012010140344500542,-0.004215455614030361
952.0,908.0,0.9619,0.0006,9.216,-0.0229,0.0095,-0.1168,-1.614917894402975,-0.23837167024612427,1.9304778575897217,-1.9648979902267456,0.26752978563308716,2.271135091781616,4.883129659086027,-0.00021946783817838877,0.29238659143447876,-1.5972822348224085,0.0,-0.010939976200461388,0.9907399415969849,-0.00033203818020410836,-0.09022630751132965,0.763455331325531,0.009671194478869438,-0.026409432291984558
952.0,908.0,0.9619,0.0006,9.216,-0.0229,0.0095,-0.1168,-1.616800447503561,-0.24465718865394592,1.9011363983154297,-1.9628171920776367,0.26174089312553406,2.318728446960449,4.883125725179472,-0.00022033914865460247,0.2768622636795044,-1.5972541014300745,0.0,-0.026164673268795013,0.9906842708587646,-0.0003138342290185392,-0.09678887575864792,0.7634668946266174,0.008906136266887188,0.009325695224106312
952.0,908.0,0.9619,0.0006,9.216,-0.0229,0.0095,-0.1168,-1.618847986260885,-0.25482380390167236,1.9210481643676758,-1.9606993198394775,0.2589564919471741,2.3247859477996826,4.8831336227949045,-0.00022097007604315877,0.2813745141029358,-1.5972541014300745,0.0,-0.024534214287996292,0.9907399415969849,-0.0002970517089124769,-0.10937990248203278,0.7635590434074402,0.007732962258160114,0.030176185071468353
952.0,908.0,0.9619,0.0006,9.216,-0.0229,0.0095,-0.1168,-1.6203662357726039,-0.251743346452713,1.9023703336715698,-1.9591846466064453,0.2581287622451782,2.318723678588867,4.883109691530027,-0.00019996067567262799,0.2745101749897003,-1.5972736517535608,0.0,-0.022750578820705414,0.9906599521636963,-0.000296921469271183,-0.11313121020793915,0.7635712623596191,0.006769084837287664,-0.03461060672998428
952.0,908.0,0.9619,0.0006,9.216,-0.0229,0.0095,-0.1168,-1.6224199734129847,-0.2546592652797699,1.939237117767334,-1.9571237564086914,0.2628665864467621,2.3552563190460205,4.883141594916143,-0.00010450314584886655,0.2713867127895355,-1.5972822348224085,0.0,-0.016783088445663452,0.9907600283622742,-0.00028675852809101343,-0.1186576634645462,0.763643205165863,0.005156452301889658,0.03484980762004852
952.0,908.0,0.9619,0.0006,9.216,-0.0229,0.0095,-0.1168,-1.6245318851866664,-0.26531070470809937,1.9007502794265747,-1.9551424980163574,0.2547798454761505,2.2959280014038086,4.883169430285253,-0.00024466164177283645,0.2781742215156555,-1.5972655455218714,0.0,-0.02185465767979622,0.9907050132751465,-0.000271366850938648,-0.11370360851287842,0.7637035846710205,0.003851207671687007,0.0005036983639001846
952.0,908.0,0.9619,0.0006,9.216,-0.0229,0.0095,-0.1168,-1.6266566715636195,-0.260077565908432,1.9195538759231567,-1.9530798196792603,0.259891539812088,2.2861948013305664,4.883113804250517,-0.0001132249235524796,0.26829710602760315,-1.5972417036639612,0.0,-0.020739799365401268,0.9906759262084961,-0.0002281158958794549,-0.1135951429605484,0.76365065574646,0.003944601863622665,0.05720016360282898
