ramyac6/ROB537/final_project/csv/good/good_171.csv
tof_0,tof_1,accelx,accely,accelz,gyrox,gyroy,gyroz,shoulder_lift_joint_position,shoulder_lift_joint_velocity,shoulder_lift_joint_effort,elbow_joint_position,elbow_joint_velocity,elbow_joint_effort,wrist_1_joint_position,wrist_1_joint_velocity,wrist_1_joint_effort,wrist_2_joint_position,wrist_2_joint_velocity,wrist_2_joint_effort,wrist_3_joint_position,wrist_3_joint_velocity,wrist_3_joint_effort,shoulder_pan_joint_position,shoulder_pan_joint_velocity,shoulder_pan_joint_effort
478.0,8190.0,1.9298,-0.536,9.454,-0.0336,0.0234,-0.1153,-1.4458944138935585,0.0,1.460007905960083,-2.164517641067505,-0.0,1.9915663003921509,4.862935724645414,-0.0,0.2863430976867676,-1.479893986378805,0.0,-0.020520884543657303,0.639004647731781,-0.0,0.003143851412460208,0.8472991585731506,0.0,0.03471758961677551
478.0,8190.0,1.9298,-0.536,9.454,-0.0336,0.0234,-0.1153,-1.4458742824247857,0.0,1.45946204662323,-2.164433240890503,-0.0,2.0001442432403564,4.8629358289535425,-0.0,0.29696062207221985,-1.47988206544985,0.0,-0.02555105835199356,0.6390292048454285,-0.0,-0.004152293782681227,0.8473069667816162,0.0,0.01842990517616272
478.0,8190.0,1.9298,-0.536,9.454,-0.0336,0.0234,-0.1153,-1.445878342991211,0.0,1.4677553176879883,-2.1644535064697266,-0.0,1.9841920137405396,4.862947585969724,-0.0,0.30467426776885986,-1.4798334280597132,0.0,-0.010307157412171364,0.6390812397003174,-0.0,-0.003912297077476978,0.8473110198974609,0.0,0.03531348705291748
478.0,8190.0,1.9298,-0.536,9.454,-0.0336,0.0234,-0.1153,-1.4459264066866417,0.0,1.4756723642349243,-2.164473295211792,-0.0,2.003174304962158,4.862987610488691,-0.0,0.30153167247772217,-1.4798858801471155,0.0,-0.02603694051504135,0.6389815807342529,-0.0,-0.0008966079913079739,0.847278892993927,0.0,-0.007249217014759779
478.0,8190.0,1.9298,-0.536,9.454,-0.0336,0.0234,-0.1153,-1.4458863672665139,0.0,1.434321403503418,-2.164449691772461,-0.0,1.9999337196350098,4.862963440805235,-0.0,0.29351603984832764,-1.479853932057516,0.0,-0.021999571472406387,0.6390169262886047,-0.0,-0.0015585883520543575,0.8472991585731506,0.0,0.06784544885158539
460.0,1063.0,2.12,-0.4588,9.1167,-0.0365,0.0209,-0.1165,-1.4458823588541527,0.0,1.4741557836532593,-2.1644206047058105,-0.0,1.9648430347442627,4.862951609283247,-0.0,0.2967679500579834,-1.4798291365252894,0.0,-0.043820276856422424,0.6391057372093201,-0.0,-0.00736596155911684,0.847278892993927,0.0,-0.018724054098129272
460.0,1063.0,2.12,-0.4588,9.1167,-0.0365,0.0209,-0.1165,-1.4459064242294808,0.0,1.4752342700958252,-2.164461135864258,-0.0,1.9737275838851929,4.86297536173419,-0.0,0.2900819182395935,-1.4798696676837366,0.0,-0.016887815669178963,0.6390894055366516,-0.0,-0.013732452876865864,0.8472912311553955,0.0,0.008543669246137142
460.0,1063.0,2.12,-0.4588,9.1167,-0.0365,0.0209,-0.1165,-1.445890375678875,0.0,1.4110455513000488,-2.1644692420959473,-0.0,2.0022292137145996,4.8629915592964075,-0.0,0.28974324464797974,-1.4797971884356897,0.0,-0.024797886610031128,0.6390414237976074,-0.0,0.00709286704659462,0.847278892993927,0.0,-0.04713726043701172
460.0,1063.0,2.12,-0.4588,9.1167,-0.0365,0.0209,-0.1165,-1.4459023934653779,0.0,1.4715027809143066,-2.1644537448883057,-0.0,1.9857852458953857,4.862947585969724,-0.0,0.3063468337059021,-1.4798415342914026,0.0,-0.02328098937869072,0.6390169262886047,-0.0,0.0006659893551841378,0.8472424745559692,0.0,-0.028508268296718597
460.0,1063.0,2.12,-0.4588,9.1167,-0.0365,0.0209,-0.1165,-1.4459023785642167,0.0,1.4323426485061646,-2.164449691772461,-0.0,1.9871625900268555,4.862979638367452,-0.0,0.2900947332382202,-1.479877773915426,0.0,-0.01418726984411478,0.6390373706817627,-0.0,-0.00042062101420015097,0.847266674041748,0.0,0.045373521745204926
460.0,1063.0,2.12,-0.4588,9.1167,-0.0365,0.0209,-0.1165,-1.4458984595588227,0.0,1.4613767862319946,-2.164445400238037,-0.0,2.0475172996520996,4.862995508104124,-0.0,0.29781925678253174,-1.4798901716815394,0.0,-0.024144543334841728,0.639121413230896,-0.0,0.005638731177896261,0.8472830057144165,0.0,0.004884453024715185
460.0,1063.0,2.12,-0.4588,9.1167,-0.0365,0.0209,-0.1165,-1.4458742824247857,0.0,1.4687633514404297,-2.164449453353882,-0.0,1.962458610534668,4.8629595068986795,-0.0,0.29049646854400635,-1.4798415342914026,0.0,-0.020720433443784714,0.6390530467033386,-0.0,-0.0029686889611184597,0.8472868800163269,0.0,-0.05591105297207832
460.0,1063.0,2.12,-0.4588,9.1167,-0.0365,0.0209,-0.1165,-1.445890375678875,0.0,1.3831191062927246,-2.1644372940063477,-0.0,2.0002379417419434,4.8630034802253626,-0.0,0.3009956181049347,-1.479853932057516,0.0,-0.018485859036445618,0.6389693021774292,-0.0,0.003172076540067792,0.8472627401351929,0.0,-0.005305846221745014
460.0,1063.0,2.12,-0.4588,9.1167,-0.0365,0.0209,-0.1165,-1.445914441054203,0.0,1.4357600212097168,-2.164466142654419,-0.0,1.9592409133911133,4.862959477096357,-0.0,0.2874811291694641,-1.479861084614889,0.0,-0.02300511859357357,0.6390292644500732,-0.0,-0.002871460048481822,0.8472991585731506,0.0,0.011203735135495663
460.0,1063.0,2.12,-0.4588,9.1167,-0.0365,0.0209,-0.1165,-1.4459023785642167,0.0,1.431499719619751,-2.164496898651123,-0.0,1.961970567703247,4.862947585969724,-0.0,0.30331629514694214,-1.479861084614889,0.0,-0.01767776347696781,0.6390414237976074,-0.0,-0.008408752270042896,0.8473432064056396,0.0,-0.03961171954870224
490.0,1050.0,2.0818,-0.4804,9.2034,-0.0348,0.0113,-0.1141,-1.4459064689329644,0.0,1.4947108030319214,-2.1644816398620605,-0.0,1.9939295053482056,4.8630034802253626,-0.0,0.3039237856864929,-1.4798529783831995,0.0,-0.024818258360028267,0.6390696167945862,-0.0,-0.00756287295371294,0.8472830057144165,0.0,-0.007860671728849411
490.0,1050.0,2.0818,-0.4804,9.2034,-0.0348,0.0113,-0.1141,-1.4458182913115998,0.0,1.4435914754867554,-2.164477586746216,-0.0,1.9765852689743042,4.863011139422216,-0.0,0.2941634953022003,-1.4798696676837366,0.0,-0.029100872576236725,0.6391016840934753,-0.0,-0.009865209460258484,0.8473151326179504,0.0,-0.02039443328976631
490.0,1050.0,2.0818,-0.4804,9.2034,-0.0348,0.0113,-0.1141,-1.4459223237684746,0.0,1.437217116355896,-2.164445400238037,-0.0,1.9790420532226562,4.862955558090963,-0.0,0.29229599237442017,-1.4799020926104944,0.0,-0.03307744115591049,0.6390855312347412,-0.0,-0.009491115808486938,0.8473151326179504,0.0,0.006536503322422504
490.0,1050.0,2.0818,-0.4804,9.2034,-0.0348,0.0113,-0.1141,-1.445878342991211,0.0,1.4624779224395752,-2.1644742488861084,-0.0,1.987422227859497,4.862987610488691,-0.0,0.30184686183929443,-1.4798696676837366,0.0,-0.024566011503338814,0.6390210390090942,-0.0,-0.001681715715676546,0.8472991585731506,0.0,-0.01092341635376215
490.0,1050.0,2.0818,-0.4804,9.2034,-0.0348,0.0113,-0.1141,-1.4458943989923974,0.0,1.4126977920532227,-2.1645054817199707,-0.0,2.033705949783325,4.862931701331892,-0.0,0.2988142967224121,-1.47988206544985,0.0,-0.026835257187485695,0.6390013098716736,-0.0,0.0035006427206099033,0.8472830057144165,0.0,0.006722191348671913
490.0,1050.0,2.0818,-0.4804,9.2034,-0.0348,0.0113,-0.1141,-1.4458541956594964,0.0,1.4826686382293701,-2.1644816398620605,-0.0,2.024786949157715,4.862995537906446,-0.0,0.2941789925098419,-1.4798696676837366,0.0,-0.020649723708629608,0.6391255259513855,-0.0,-0.004433964379131794,0.8472909927368164,0.0,-0.006773479748517275
490.0,1050.0,2.0818,-0.4804,9.2034,-0.0348,0.0113,-0.1141,-1.4458863523653527,0.0,1.4728366136550903,-2.1644411087036133,-0.0,1.979675531387329,4.862951579480924,-0.0,0.2944367527961731,-1.479853932057516,0.0,-0.02422749064862728,0.639073371887207,-0.0,-0.004613025579601526,0.8473032712936401,0.0,-0.028790537267923355
490.0,1050.0,2.0818,-0.4804,9.2034,-0.0348,0.0113,-0.1141,-1.4458582785776635,0.0,1.4209654331207275,-2.1644816398620605,-0.0,2.005129814147949,4.8629357544477365,-0.0,0.2993782162666321,-1.4798901716815394,0.0,-0.015223847702145576,0.639045238494873,-0.0,-0.00545355211943388,0.8472909927368164,0.0,-0.03532589599490166
490.0,1050.0,2.0818,-0.4804,9.2034,-0.0348,0.0113,-0.1141,-1.4458181795528908,0.0,1.4514827728271484,-2.164477586746216,-0.0,2.0303313732147217,4.862975406437673,-0.0,0.2967875003814697,-1.4798372427569788,0.0,-0.006000970024615526,0.6390693187713623,-0.0,0.0032204221934080124,0.8472950458526611,0.0,-0.03877487778663635
471.0,1075.0,2.0518,-0.4576,9.3003,-0.0409,0.0237,-0.1176,-1.4458903831294556,0.0,1.4736913442611694,-2.164462089538574,-0.0,1.9816763401031494,4.862975376635351,-0.0,0.3000134229660034,-1.4798415342914026,0.0,-0.031299788504838943,0.6390414237976074,-0.0,-0.01514801848679781,0.8473231196403503,0.0,0.03665102273225784
471.0,1075.0,2.0518,-0.4576,9.3003,-0.0409,0.0237,-0.1176,-1.4458984670094033,0.0,1.4739547967910767,-2.164412498474121,-0.0,1.963620901107788,4.862967508822241,-0.0,0.29645469784736633,-1.4798973242389124,0.0,-0.02027159184217453,0.6390615701675415,-0.0,0.0001980033703148365,0.8472950458526611,0.0,0.007195360492914915
471.0,1075.0,2.0518,-0.4576,9.3003,-0.0409,0.0237,-0.1176,-1.445834332411625,0.0,1.4607350826263428,-2.164433240890503,-0.0,1.9670212268829346,4.8629555133874796,-0.0,0.29518237709999084,-1.479877773915426,0.0,-0.02208377793431282,0.6390169858932495,-0.0,0.003056649584323168,0.8473234176635742,0.0,-0.016541339457035065
471.0,1075.0,2.0518,-0.4576,9.3003,-0.0409,0.0237,-0.1176,-1.4458582264235993,0.0,1.4468646049499512,-2.164433240890503,-0.0,1.9906342029571533,4.862931716233053,-0.0,0.29158687591552734,-1.479877773915426,0.0,-0.019502945244312286,0.6390013098716736,-0.0,0.002726178616285324,0.8472506999969482,0.0,0.012032680213451385
471.0,1075.0,2.0518,-0.4576,9.3003,-0.0409,0.0237,-0.1176,-1.4459184494665642,0.0,1.395727276802063,-2.164466142654419,-0.0,1.9633314609527588,4.862939688354292,-0.0,0.27834025025367737,-1.4798696676837366,0.0,-0.033337175846099854,0.6390893459320068,-0.0,-0.010188325308263302,0.847278892993927,0.0,0.001570322667248547
471.0,1075.0,2.0518,-0.4576,9.3003,-0.0409,0.0237,-0.1176,-1.4458702516606827,0.0,1.4306892156600952,-2.1644370555877686,-0.0,2.000123977661133,4.862923833518781,-0.0,0.29647499322891235,-1.4798653761493128,0.0,-0.023206323385238647,0.6390975117683411,-0.0,0.0012436029501259327,0.8472909927368164,0.0,-0.022308412939310074
471.0,1075.0,2.0518,-0.4576,9.3003,-0.0409,0.0237,-0.1176,-1.4458743271282692,0.0,1.4248909950256348,-2.164433240890503,-0.0,1.998258113861084,4.8630034802253626,-0.0,0.2973284423351288,-1.4798901716815394,0.0,-0.014519525691866875,0.6390652656555176,-0.0,-0.0033972938545048237,0.8472830057144165,0.0,-0.028655465692281723
471.0,1075.0,2.0518,-0.4576,9.3003,-0.0409,0.0237,-0.1176,-1.4458944138935585,0.0,1.4325978755950928,-2.164405107498169,-0.0,1.9659483432769775,4.863015118032255,-0.0,0.2985418140888214,-1.4798458258258265,0.0,-0.03314623236656189,0.6391015648841858,-0.0,-0.007637768052518368,0.8473069667816162,0.0,-0.029878048226237297
471.0,1075.0,2.0518,-0.4576,9.3003,-0.0409,0.0237,-0.1176,-1.4458984670094033,0.0,1.4317142963409424,-2.164466142654419,-0.0,2.022216558456421,4.862979638367452,-0.0,0.30816957354545593,-1.4798734823810022,0.0,-0.027555208653211594,0.6391294002532959,-0.0,-0.010605400428175926,0.8472747802734375,0.0,-0.03109654039144516
471.0,1075.0,2.0518,-0.4576,9.3003,-0.0409,0.0237,-0.1176,-1.445878342991211,0.0,1.4547919034957886,-2.1644651889801025,-0.0,2.004528045654297,4.862951594382086,-0.0,0.30728018283843994,-1.47988206544985,0.0,-0.026626277714967728,0.6390414237976074,-0.0,-0.002512010745704174,0.8473110198974609,0.0,-0.003275216557085514
501.0,1060.0,2.1529,-0.5073,9.149,-0.0467,0.025,-0.1164,-1.4458463800004502,0.0,1.4219415187835693,-2.164445400238037,-0.0,1.9980757236480713,4.862951594382086,-0.0,0.29784095287323,-1.4798334280597132,0.0,-0.013732763938605785,0.6390812397003174,-0.0,0.0007712508086115122,0.8472991585731506,0.0,-0.005630721338093281
501.0,1060.0,2.1529,-0.5073,9.149,-0.0467,0.025,-0.1164,-1.4458663177541276,0.0,1.4596543312072754,-2.1644692420959473,-0.0,1.996897578239441,4.862971442728796,-0.0,0.304740846157074,-1.4798858801471155,0.0,-0.02618628367781639,0.6390652656555176,-0.0,-0.0045254165306687355,0.8472748398780823,0.0,-0.0344529002904892
501.0,1060.0,2.1529,-0.5073,9.149,-0.0467,0.025,-0.1164,-1.445886344914772,0.0,1.496135950088501,-2.1644887924194336,-0.0,2.019422769546509,4.863019022136488,-0.0,0.2908861041069031,-1.4798696676837366,0.0,-0.028725042939186096,0.6390492916107178,-0.0,-0.008983960375189781,0.8472991585731506,0.0,-0.0037521207705140114
501.0,1060.0,2.1529,-0.5073,9.149,-0.0467,0.025,-0.1164,-1.445874312227108,0.0,1.4961827993392944,-2.1645052433013916,-0.0,1.9932433366775513,4.862975689559736,-0.0,0.29424500465393066,-1.4798653761493128,0.0,-0.010837324894964695,0.6390129923820496,-0.0,-0.011695880442857742,0.8473033308982849,0.0,-0.014905927702784538
501.0,1060.0,2.1529,-0.5073,9.149,-0.0467,0.025,-0.1164,-1.4458863374641915,0.0,1.4386019706726074,-2.164461851119995,-0.0,1.9557148218154907,4.86297960856513,-0.0,0.30067580938339233,-1.4799178282367151,0.0,-0.02632208541035652,0.639101505279541,-0.0,-0.00254433648660779,0.8472912311553955,0.0,-0.006830951198935509
501.0,1060.0,2.1529,-0.5073,9.149,-0.0467,0.025,-0.1164,-1.4459064242294808,0.0,1.4653258323669434,-2.164480686187744,-0.0,2.037933826446533,4.862903582840719,-0.0,0.3044204115867615,-1.479861084614889,0.0,-0.027267776429653168,0.6390492916107178,-0.0,0.00045326375402510166,0.8472830057144165,0.0,0.01899750903248787
501.0,1060.0,2.1529,-0.5073,9.149,-0.0467,0.025,-0.1164,-1.4458943989923974,0.0,1.4266889095306396,-2.1644537448883057,-0.0,2.000835418701172,4.862995523005285,-0.0,0.29416754841804504,-1.4798577467547815,0.0,-0.02408425509929657,0.6391015648841858,-0.0,-0.008435963653028011,0.8472465872764587,0.0,0.008541107177734375
501.0,1060.0,2.1529,-0.5073,9.149,-0.0467,0.025,-0.1164,-1.4459464263967057,0.0,1.4044057130813599,-2.1644887924194336,-0.0,1.9711904525756836,4.862999501615324,-0.0,0.2953029274940491,-1.479825798665182,0.0,-0.02941388636827469,0.6390812397003174,-0.0,-0.0037003837060183287,0.8472868204116821,0.0,-0.011288752779364586
501.0,1060.0,2.1529,-0.5073,9.149,-0.0467,0.025,-0.1164,-1.4458984074047585,0.0,1.458579182624817,-2.1644928455352783,-0.0,2.0226948261260986,4.862999561219969,-0.0,0.3116734027862549,-1.4798734823810022,0.0,-0.02143121138215065,0.6390852928161621,-0.0,-0.007957927882671356,0.847295343875885,0.0,-0.02241937443614006
483.0,1050.0,2.0447,-0.4923,9.2812,-0.0321,0.0319,-0.1142,-1.4458944213441391,0.0,1.4774739742279053,-2.164461851119995,-0.0,2.0186452865600586,4.862951624184408,-0.0,0.2892780601978302,-1.4798653761493128,0.0,-0.026963263750076294,0.6390612125396729,-0.0,-0.006709747947752476,0.8472909331321716,0.0,-0.028127605095505714
483.0,1050.0,2.0447,-0.4923,9.2812,-0.0321,0.0319,-0.1142,-1.4458622869900246,0.0,1.4864768981933594,-2.164473295211792,-0.0,2.0094878673553467,4.862979653268614,-0.0,0.30317580699920654,-1.479853932057516,0.0,-0.011245489120483398,0.6390693187713623,-0.0,-0.010176317766308784,0.8472586870193481,0.0,0.0218106247484684
483.0,1050.0,2.0447,-0.4923,9.2812,-0.0321,0.0319,-0.1142,-1.4458743271282692,0.0,1.4144716262817383,-2.1644577980041504,-0.0,1.993106722831726,4.862987655192175,-0.0,0.3051658272743225,-1.479809586201803,0.0,-0.038322754204273224,0.6390814185142517,-0.0,-2.58107902482152e-05,0.8473151326179504,0.0,0.0012554563581943512
483.0,1050.0,2.0447,-0.4923,9.2812,-0.0321,0.0319,-0.1142,-1.4459064465812226,0.0,1.421065092086792,-2.1644537448883057,-0.0,2.030360221862793,4.862943622260847,-0.0,0.3023039698600769,-1.47988206544985,0.0,-0.028308827430009842,0.639033317565918,-0.0,0.003112183650955558,0.8473110795021057,0.0,-0.00217366311699152
483.0,1050.0,2.0447,-0.4923,9.2812,-0.0321,0.0319,-0.1142,-1.445922577088215,0.0,1.46974515914917,-2.164457082748413,-0.0,1.9989174604415894,4.862999561219969,-0.0,0.298421710729599,-1.4798415342914026,0.0,-0.03525634855031967,0.6390934586524963,-0.0,-0.012167315930128098,0.8472830057144165,0.0,0.03527253866195679
483.0,1050.0,2.0447,-0.4923,9.2812,-0.0321,0.0319,-0.1142,-1.4459023562124749,0.0,1.4580671787261963,-2.1644816398620605,-0.0,1.9675109386444092,4.862983676582136,-0.0,0.29365044832229614,-1.4798691908465784,0.0,-0.02477041259407997,0.6390694975852966,-0.0,-0.016730330884456635,0.8473151326179504,0.0,-0.04755236580967903
483.0,1050.0,2.0447,-0.4923,9.2812,-0.0321,0.0319,-0.1142,-1.4458783727935334,0.0,1.4360308647155762,-2.164466142654419,-0.0,2.024170398712158,4.862955558090963,-0.0,0.31002455949783325,-1.4798291365252894,0.0,-0.032127439975738525,0.6389854550361633,-0.0,0.00841132365167141,0.8472627401351929,0.0,0.020344076678156853
483.0,1050.0,2.0447,-0.4923,9.2812,-0.0321,0.0319,-0.1142,-1.4459104400924225,0.0,1.43611741065979,-2.164461851119995,-0.0,2.002728223800659,4.862959521799841,-0.0,0.30419424176216125,-1.4798696676837366,0.0,-0.019931532442569733,0.6390652656555176,-0.0,0.003968863282352686,0.8472991585731506,0.0,-0.01987396739423275
483.0,1050.0,2.0447,-0.4923,9.2812,-0.0321,0.0319,-0.1142,-1.4458983850530167,0.0,1.4649631977081299,-2.164461851119995,-0.0,1.94333815574646,4.862979638367452,-0.0,0.3012809753417969,-1.4798577467547815,0.0,-0.016929350793361664,0.6390652656555176,-0.0,0.01031986903399229,0.8472991585731506,0.0,-0.01871989108622074
484.0,8190.0,2.0279,-0.4636,9.3159,-0.033,0.0257,-0.1147,-1.4458823812058945,0.0,1.427750587463379,-2.1644537448883057,-0.0,2.0024280548095703,4.862963440805235,-0.0,0.29868972301483154,-1.4798696676837366,0.0,-0.014374889433383942,0.6391292214393616,-0.0,0.0004865403752774,0.8472586870193481,0.0,-0.017812523990869522
484.0,8190.0,2.0279,-0.4636,9.3159,-0.033,0.0257,-0.1147,-1.4458582636765023,0.0,1.465233564376831,-2.164405107498169,-0.0,1.9785919189453125,4.86289960423068,-0.0,0.2966722249984741,-1.4798691908465784,0.0,-0.031949806958436966,0.639025092124939,-0.0,0.008763816207647324,0.8472791314125061,0.0,0.007492981851100922
484.0,8190.0,2.0279,-0.4636,9.3159,-0.033,0.0257,-0.1147,-1.4458823812058945,0.0,1.4371109008789062,-2.1644537448883057,-0.0,2.027843475341797,4.862979653268614,-0.0,0.2967405617237091,-1.4798291365252894,0.0,-0.025179728865623474,0.6390372514724731,-0.0,0.000983716920018196,0.8472666144371033,0.0,-0.04036258906126022
484.0,8190.0,2.0279,-0.4636,9.3159,-0.033,0.0257,-0.1147,-1.445870318715908,0.0,1.4326488971710205,-2.1645138263702393,-0.0,2.0227420330047607,4.862943607359686,-0.0,0.3013477623462677,-1.4798219839679163,0.0,-0.01670731231570244,0.6390171051025391,-0.0,-0.0009295138297602534,0.8472991585731506,0.0,0.03891027718782425
484.0,8190.0,2.0279,-0.4636,9.3159,-0.033,0.0257,-0.1147,-1.4459105145982285,0.0,1.4931230545043945,-2.1644206047058105,-0.0,1.952964425086975,4.862947556167402,-0.0,0.297776997089386,-1.4798653761493128,0.0,-0.02055501937866211,0.6390654444694519,-0.0,0.002026811009272933,0.8472991585731506,0.0,0.005598402116447687
484.0,8190.0,2.0279,-0.4636,9.3159,-0.033,0.0257,-0.1147,-1.4458903831294556,0.0,1.4001145362854004,-2.164445638656616,-0.0,2.0124125480651855,4.862983676582136,-0.0,0.2942683696746826,-1.4798501173602503,0.0,-0.01490202359855175,0.6390652656555176,-0.0,-0.01359595451503992,0.8473395705223083,0.0,0.010583807714283466
484.0,8190.0,2.0279,-0.4636,9.3159,-0.033,0.0257,-0.1147,-1.4459064316800614,0.0,1.4286339282989502,-2.1644816398620605,-0.0,1.967580795288086,4.862963440805235,-0.0,0.28635579347610474,-1.47990590730776,0.0,-0.02047669142484665,0.639069139957428,-0.0,-0.0018600164912641048,0.8473073840141296,0.0,-0.013018110767006874
484.0,8190.0,2.0279,-0.4636,9.3159,-0.033,0.0257,-0.1147,-1.4458984744599839,0.0,1.4675894975662231,-2.1644537448883057,-0.0,1.9749021530151367,4.8629876402910135,-0.0,0.30384141206741333,-1.4798691908465784,0.0,-0.02977394498884678,0.6390333771705627,-0.0,-0.005196033976972103,0.8472991585731506,0.0,-0.01701478287577629
484.0,8190.0,2.0279,-0.4636,9.3159,-0.033,0.0257,-0.1147,-1.4459104922464867,0.0,1.4767656326293945,-2.1644413471221924,-0.0,2.002095937728882,4.8629915592964075,-0.0,0.2833370268344879,-1.4798734823810022,0.0,-0.023987390100955963,0.6390130519866943,-0.0,-0.002844842616468668,0.847287118434906,0.0,0.05506347864866257
484.0,8190.0,2.0279,-0.4636,9.3159,-0.033,0.0257,-0.1147,-1.4458663550070305,0.0,1.4728827476501465,-2.164484739303589,-0.0,1.995587944984436,4.863030987768926,-0.0,0.2861006557941437,-1.479861084614889,0.0,-0.024711525067687035,0.6390171051025391,-0.0,-0.0093227569013834,0.8473151326179504,0.0,-0.0035974793136119843
492.0,1054.0,2.0608,-0.4905,9.2321,-0.0455,0.0281,-0.117,-1.4459263694337388,0.0,1.442610740661621,-2.164501190185547,-0.0,1.9852516651153564,4.862975674658575,-0.0,0.28262582421302795,-1.47988206544985,0.0,-0.017315639182925224,0.639105498790741,-0.0,0.0025526578538119793,0.8472748398780823,0.0,-0.025674693286418915
492.0,1054.0,2.0608,-0.4905,9.2321,-0.0455,0.0281,-0.117,-1.4458944138935585,0.0,1.442655324935913,-2.1644577980041504,-0.0,2.0134692192077637,4.8629876402910135,-0.0,0.28545233607292175,-1.4799140135394495,0.0,-0.022711392492055893,0.6390130519866943,-0.0,-0.006942504085600376,0.8472868800163269,0.0,-0.005884753540158272
492.0,1054.0,2.0608,-0.4905,9.2321,-0.0455,0.0281,-0.117,-1.4458702814630051,0.0,1.4046632051467896,-2.1644699573516846,-0.0,1.9773223400115967,4.863026949554243,-0.0,0.30229446291923523,-1.4798653761493128,0.0,-0.030042249709367752,0.6390374302864075,-0.0,-0.0056184036657214165,0.8472627401351929,0.0,-0.04109041392803192
492.0,1054.0,2.0608,-0.4905,9.2321,-0.0455,0.0281,-0.117,-1.4458823514035721,0.0,1.42092764377594,-2.164433002471924,-0.0,1.9961044788360596,4.862963440805235,-0.0,0.29754960536956787,-1.4798858801471155,0.0,-0.037336867302656174,0.6390411853790283,-0.0,-0.003402752336114645,0.8473028540611267,0.0,-0.006953790783882141
492.0,1054.0,2.0608,-0.4905,9.2321,-0.0455,0.0281,-0.117,-1.4458903831294556,0.0,1.3900569677352905,-2.1644577980041504,-0.0,1.980751395225525,4.862959491997518,-0.0,0.30270296335220337,-1.4798415342914026,0.0,-0.01453300379216671,0.6390571594238281,-0.0,-0.0010764568578451872,0.8472830057144165,0.0,0.010306251235306263
492.0,1054.0,2.0608,-0.4905,9.2321,-0.0455,0.0281,-0.117,-1.4459343713572999,0.0,1.4329769611358643,-2.1644370555877686,-0.0,1.9974143505096436,4.863051149040022,-0.0,0.3087148368358612,-1.47988206544985,0.0,-0.028568651527166367,0.6390292644500732,-0.0,0.007193695288151503,0.8473069667816162,0.0,0.010053207166492939
492.0,1054.0,2.0608,-0.4905,9.2321,-0.0455,0.0281,-0.117,-1.4459104624441643,0.0,1.4732228517532349,-2.1644535064697266,-0.0,1.9658191204071045,4.862951594382086,-0.0,0.29188933968544006,-1.47988206544985,0.0,-0.024434633553028107,0.6390374302864075,-0.0,-0.0067810919135808945,0.8473069667816162,0.0,-0.02321459725499153
492.0,1054.0,2.0608,-0.4905,9.2321,-0.0455,0.0281,-0.117,-1.4458702740124245,0.0,1.4373739957809448,-2.164433240890503,-0.0,1.9864311218261719,4.86299158909873,-0.0,0.2907267212867737,-1.4798291365252894,0.0,-0.03303522616624832,0.6390293836593628,-0.0,-0.0071902647614479065,0.8472991585731506,0.0,0.018122883513569832
492.0,1054.0,2.0608,-0.4905,9.2321,-0.0455,0.0281,-0.117,-1.445878342991211,0.0,1.435353398323059,-2.1644816398620605,-0.0,2.0030345916748047,4.862935724645414,-0.0,0.29904481768608093,-1.479877773915426,0.0,-0.026889998465776443,0.6390251517295837,-0.0,-0.0018557740841060877,0.8472909927368164,0.0,-0.013648654334247112
477.0,8190.0,1.9358,-0.5037,9.5133,-0.0235,0.0186,-0.115,-1.4458783578923722,0.0,1.4911308288574219,-2.164473295211792,-0.0,1.991304874420166,4.863003510027685,-0.0,0.2851479649543762,-1.4798772970782679,0.0,-0.02962101623415947,0.6390652656555176,-0.0,0.002005467191338539,0.8473110198974609,0.0,-0.006824941374361515
477.0,8190.0,1.9358,-0.5037,9.5133,-0.0235,0.0186,-0.115,-1.4458463800004502,0.0,1.4082448482513428,-2.164445400238037,-0.0,1.9859384298324585,4.862983676582136,-0.0,0.28225576877593994,-1.479853932057516,0.0,-0.01848747581243515,0.6390811800956726,-0.0,-0.004116042051464319,0.8472868800163269,0.0,0.039608076214790344
477.0,8190.0,1.9358,-0.5037,9.5133,-0.0235,0.0186,-0.115,-1.4458743420294304,0.0,1.443210482597351,-2.164433002471924,-0.0,1.958295464515686,4.862999561219969,-0.0,0.2930447459220886,-1.4798501173602503,0.0,-0.027311742305755615,0.6390652656555176,-0.0,0.005177341401576996,0.8473073840141296,0.0,0.052706848829984665
477.0,8190.0,1.9358,-0.5037,9.5133,-0.0235,0.0186,-0.115,-1.445866384809353,0.0,1.4606990814208984,-2.1644535064697266,-0.0,1.9840636253356934,4.862931686430731,-0.0,0.3021203279495239,-1.4798334280597132,0.0,-0.013161984272301197,0.6391290426254272,-0.0,0.01022433489561081,0.8472950458526611,0.0,0.02283715084195137
477.0,8190.0,1.9358,-0.5037,9.5133,-0.0235,0.0186,-0.115,-1.4458903831294556,0.0,1.455599308013916,-2.1644370555877686,-0.0,1.969853401184082,4.8629876402910135,-0.0,0.2953680753707886,-1.4798572699176233,0.0,-0.022751905024051666,0.6390771865844727,-0.0,-0.008224080316722393,0.8472950458526611,0.0,0.030397756025195122
477.0,8190.0,1.9358,-0.5037,9.5133,-0.0235,0.0186,-0.115,-1.4459144261530419,0.0,1.4817695617675781,-2.164445400238037,-0.0,2.0354294776916504,4.862959521799841,-0.0,0.2986553907394409,-1.4798291365252894,0.0,-0.0234176404774189,0.6390693187713623,-0.0,-0.006801006384193897,0.847295343875885,0.0,-0.015892881900072098
477.0,8190.0,1.9358,-0.5037,9.5133,-0.0235,0.0186,-0.115,-1.445906401877739,0.0,1.4698330163955688,-2.1644577980041504,-0.0,1.9604829549789429,4.863011079817571,-0.0,0.30392253398895264,-1.4799178282367151,0.0,-0.0120671596378088,0.6390934586524963,-0.0,-0.004953361582010984,0.8473151922225952,0.0,-0.0047892071306705475
477.0,8190.0,1.9358,-0.5037,9.5133,-0.0235,0.0186,-0.115,-1.4459423807314415,0.0,1.4356417655944824,-2.16446590423584,-0.0,1.9539958238601685,4.862971442728796,-0.0,0.2952364385128021,-1.4798896948443812,0.0,-0.024550195783376694,0.6390652656555176,-0.0,0.005019496660679579,0.8473151326179504,0.0,-0.011787941679358482
477.0,8190.0,1.9358,-0.5037,9.5133,-0.0235,0.0186,-0.115,-1.4459144857576867,0.0,1.4366190433502197,-2.1644537448883057,-0.0,2.004486083984375,4.862943607359686,-0.0,0.29910528659820557,-1.4798458258258265,0.0,-0.028292076662182808,0.6390812993049622,-0.0,0.0003740270622074604,0.8473073840141296,0.0,0.012643012218177319
477.0,8190.0,1.9358,-0.5037,9.5133,-0.0235,0.0186,-0.115,-1.4458502543023606,0.0,1.4284744262695312,-2.164449691772461,-0.0,2.003542900085449,4.862963440805235,-0.0,0.29090115427970886,-1.4798691908465784,0.0,-0.009941356256604195,0.6390533447265625,-0.0,0.01185635756701231,0.8472830057144165,0.0,-0.02259230427443981
489.0,1074.0,2.0315,-0.5306,9.2955,-0.0368,0.0267,-0.1179,-1.4458582413247605,0.0,1.4604843854904175,-2.164466142654419,-0.0,1.9827234745025635,4.862963440805235,-0.0,0.2941032350063324,-1.479853932057516,0.0,-0.01884707808494568,0.6390171051025391,-0.0,-0.00022776098921895027,0.8472707271575928,0.0,-0.005738833453506231
489.0,1074.0,2.0315,-0.5306,9.2955,-0.0368,0.0267,-0.1179,-1.445890338425972,0.0,1.4559580087661743,-2.164466142654419,-0.0,2.0283186435699463,4.862971442728796,-0.0,0.28676483035087585,-1.4798458258258265,0.0,-0.018449857831001282,0.6390493512153625,-0.0,0.0008544088341295719,0.8472668528556824,0.0,-0.03473754972219467
489.0,1074.0,2.0315,-0.5306,9.2955,-0.0368,0.0267,-0.1179,-1.445874312227108,0.0,1.4249796867370605,-2.1644246578216553,-0.0,1.9861446619033813,4.863026994257726,-0.0,0.29964742064476013,-1.4798572699176233,0.0,-0.030354760587215424,0.6390851736068726,-0.0,-0.004248292185366154,0.8472586274147034,0.0,-0.02568388357758522
489.0,1074.0,2.0315,-0.5306,9.2955,-0.0368,0.0267,-0.1179,-1.4458743271282692,0.0,1.420989990234375,-2.164428949356079,-0.0,1.92366623878479,4.862967479019918,-0.0,0.286652147769928,-1.4798501173602503,0.0,-0.013155341148376465,0.639053225517273,-0.0,0.0005295759183354676,0.8472424745559692,0.0,-0.006380314007401466
489.0,1074.0,2.0315,-0.5306,9.2955,-0.0368,0.0267,-0.1179,-1.4458863598159333,0.0,1.44736647605896,-2.1644246578216553,-0.0,2.0247859954833984,4.862955602794447,-0.0,0.29525139927864075,-1.4799140135394495,0.0,-0.02249201014637947,0.6390612721443176,-0.0,0.0007520210929214954,0.8472344279289246,0.0,-0.03824944421648979
489.0,1074.0,2.0315,-0.5306,9.2955,-0.0368,0.0267,-0.1179,-1.4459104549935837,0.0,1.4607162475585938,-2.1644206047058105,-0.0,1.99960458278656,4.862975391536512,-0.0,0.2916526794433594,-1.4798858801471155,0.0,-0.01387779787182808,0.6390573382377625,-0.0,-0.006879726424813271,0.8473190069198608,0.0,0.01800575666129589
489.0,1074.0,2.0315,-0.5306,9.2955,-0.0368,0.0267,-0.1179,-1.4458903533271332,0.0,1.4770681858062744,-2.1644577980041504,7.761614701645714e-13,2.017486810684204,4.862963440805235,-0.0,0.28738436102867126,-1.4798896948443812,0.0,-0.015012514777481556,0.6390893459320068,-0.0,-0.0015091472305357456,0.8473151326179504,0.0,0.04848527908325195
489.0,1074.0,2.0315,-0.5306,9.2955,-0.0368,0.0267,-0.1179,-1.4459023264101525,0.0,1.4643664360046387,-2.1644248962402344,2.514664281960723e-20,1.9717860221862793,4.862995523005285,-0.0,0.29164308309555054,-1.4798653761493128,0.0,-0.011954901739954948,0.6390533447265625,-0.0,-0.013853395357728004,0.8473271727561951,0.0,0.013072198256850243
489.0,1074.0,2.0315,-0.5306,9.2955,-0.0368,0.0267,-0.1179,-1.4458463800004502,0.0,1.4285695552825928,-2.1644370555877686,1.0930501047279309e-29,1.9567184448242188,4.8629198400075815,-0.0,0.3026217222213745,-1.4798291365252894,0.0,-0.02105073072016239,0.6390251517295837,-0.0,-0.0033057373948395252,0.8472786545753479,0.0,0.016058994457125664
456.0,1094.0,1.9681,-0.5049,9.5151,-0.0313,0.0176,-0.1217,-1.4458943617394944,0.0,1.4813718795776367,-2.1644577980041504,4.7511641004257226e-39,1.9765830039978027,4.862935724645414,-0.0,0.28944888710975647,-1.4798501173602503,0.0,-0.004540896508842707,0.6390733122825623,-0.0,-0.005087275058031082,0.8472748398780823,0.0,-0.035509951412677765
456.0,1094.0,1.9681,-0.5049,9.5151,-0.0313,0.0176,-0.1217,-1.4459182557514687,0.0,1.3934073448181152,-2.1644370555877686,-0.0,2.001086711883545,4.863034951477804,-0.0,0.29859858751296997,-1.4798691908465784,0.0,-0.02693399041891098,0.6390652656555176,-0.0,0.004505807533860207,0.8472748398780823,0.0,-0.009970401413738728
456.0,1094.0,1.9681,-0.5049,9.5151,-0.0313,0.0176,-0.1217,-1.4458743196776886,0.0,1.4671623706817627,-2.1644206047058105,-0.0,1.9922012090682983,4.862975674658575,-0.0,0.3013765215873718,-1.47988206544985,0.0,-0.022767873480916023,0.6390811800956726,-0.0,-0.011259712278842926,0.8473395705223083,0.0,-0.007643206976354122
456.0,1094.0,1.9681,-0.5049,9.5151,-0.0313,0.0176,-0.1217,-1.4458823514035721,0.0,1.4741313457489014,-2.164433240890503,-0.0,1.994005560874939,4.862943607359686,-0.0,0.2775978446006775,-1.4798653761493128,0.0,-0.008885473012924194,0.6390851736068726,-0.0,-0.002780584618449211,0.847278892993927,0.0,-0.01617729663848877
456.0,1094.0,1.9681,-0.5049,9.5151,-0.0313,0.0176,-0.1217,-1.445878342991211,0.0,1.4792861938476562,-2.164480686187744,-0.0,2.026745319366455,4.862951594382086,-0.0,0.30647557973861694,-1.4798653761493128,0.0,-0.020737111568450928,0.6390056014060974,-0.0,-0.0061450498178601265,0.8473190069198608,0.0,-0.024065906181931496
456.0,1094.0,1.9681,-0.5049,9.5151,-0.0313,0.0176,-0.1217,-1.4458823663047333,0.0,1.4621708393096924,-2.164480686187744,-0.0,1.9485129117965698,4.862971800356664,-0.0,0.28677529096603394,-1.4798653761493128,0.0,-0.013437304645776749,0.6390934586524963,-0.0,-0.02424164116382599,0.8472950458526611,0.0,-0.03873233124613762
456.0,1094.0,1.9681,-0.5049,9.5151,-0.0313,0.0176,-0.1217,-1.4458743792823334,0.0,1.4860472679138184,-2.1644816398620605,-0.0,1.9981963634490967,4.862963470607557,-0.0,0.2877470850944519,-1.4798334280597132,0.0,-0.01457301713526249,0.6390652656555176,-0.0,-0.0004923155065625906,0.8472950458526611,0.0,0.033925965428352356
456.0,1094.0,1.9681,-0.5049,9.5151,-0.0313,0.0176,-0.1217,-1.4458343845656891,0.0,1.410426378250122,-2.1644370555877686,-0.0,2.0198092460632324,4.862995523005285,-0.0,0.28713124990463257,-1.4798896948443812,0.0,-0.008121819235384464,0.6390652656555176,-0.0,0.0008405303815379739,0.8473151326179504,0.0,0.01121380552649498
456.0,1094.0,1.9681,-0.5049,9.5151,-0.0313,0.0176,-0.1217,-1.4458663028529664,0.0,1.4575096368789673,-2.164416790008545,-0.0,1.9757044315338135,4.862951594382086,-0.0,0.3005889654159546,-1.479922119771139,0.0,-0.014446664601564407,0.6390453577041626,-0.0,-0.010232867673039436,0.8473151326179504,0.0,-0.021654600277543068
456.0,1094.0,1.9681,-0.5049,9.5151,-0.0313,0.0176,-0.1217,-1.4458622720888634,0.0,1.4727052450180054,-2.1644577980041504,-0.0,1.9721506834030151,4.862975674658575,-0.0,0.29065507650375366,-1.4798696676837366,0.0,-0.02202216163277626,0.6391209959983826,-0.0,0.0005949650658294559,0.8473110198974609,0.0,0.017948362976312637
493.0,8190.0,1.9202,-0.2644,9.6329,-0.0334,0.0199,-0.1141,-1.4458504182151337,0.0,1.4260706901550293,-2.164428949356079,-0.0,1.9931073188781738,4.862995523005285,-0.0,0.2772623896598816,-1.479865852986471,0.0,-0.015560116618871689,0.6390533447265625,-0.0,-0.0077043077908456326,0.8472950458526611,0.0,0.018087239935994148
493.0,8190.0,1.9202,-0.2644,9.6329,-0.0334,0.0199,-0.1141,-1.4458702516606827,0.0,1.46461820602417,-2.164433002471924,-0.0,2.0060346126556396,4.862971800356664,-0.0,0.28818777203559875,-1.4798978010760706,0.0,-0.03336668014526367,0.6390692591667175,-0.0,-0.0013885569060221314,0.8473069667816162,0.0,0.01819418929517269
493.0,8190.0,1.9202,-0.2644,9.6329,-0.0334,0.0199,-0.1141,-1.4458622720888634,0.0,1.414684772491455,-2.1645052433013916,-0.0,2.01530122756958,4.862951594382086,-0.0,0.293032169342041,-1.4798896948443812,0.0,-0.011039515025913715,0.6390692591667175,-0.0,-0.0077142794616520405,0.8473028540611267,0.0,0.006005030125379562
493.0,8190.0,1.9202,-0.2644,9.6329,-0.0334,0.0199,-0.1141,-1.4458184254220505,5.539508129004389e-05,1.4304161071777344,-2.1644766330718994,-0.0,1.9943339824676514,4.862931731134214,-0.0,0.2871432900428772,-1.479849640523092,0.0,-0.031181011348962784,0.6390812397003174,-0.0,-0.002771192230284214,0.8473151326179504,0.0,-0.05243740603327751
493.0,8190.0,1.9202,-0.2644,9.6329,-0.0334,0.0199,-0.1141,-1.4458423939398308,4.800776514457539e-05,1.4517122507095337,-2.1644887924194336,-0.0,1.9541614055633545,4.8629876402910135,-0.0,0.27802205085754395,-1.4798739592181605,0.0,-0.03144898638129234,0.6390175223350525,-0.0,-0.0006881162989884615,0.8472830057144165,0.0,-0.03304491192102432
493.0,8190.0,1.9202,-0.2644,9.6329,-0.0334,0.0199,-0.1141,-1.4458863672665139,2.1701913283322938e-05,1.4468059539794922,-2.164416790008545,-0.0,1.9886260032653809,4.862915801792898,-0.0,0.276766836643219,-1.479861084614889,0.0,-0.02722383290529251,0.6390174031257629,-0.0,-0.009126449935138226,0.8473069667816162,0.0,-0.007603960111737251
493.0,8190.0,1.9202,-0.2644,9.6329,-0.0334,0.0199,-0.1141,-1.4458542180112381,1.9357357814442366e-05,1.451029896736145,-2.1644248962402344,-0.0,1.9784445762634277,4.862967508822241,-0.0,0.30263596773147583,-1.47988206544985,0.0,-0.012987049296498299,0.6390973925590515,-0.0,0.006311998702585697,0.8473191857337952,0.0,-0.010049860924482346
493.0,8190.0,1.9202,-0.2644,9.6329,-0.0334,0.0199,-0.1141,-1.445918434565403,1.1195859794810303e-09,1.4671295881271362,-2.1644651889801025,-0.0,2.0191197395324707,4.862959521799841,-0.0,0.28529787063598633,-1.4798615614520472,0.0,-0.009598536416888237,0.6390613317489624,-0.0,0.006784022785723209,0.8473151326179504,0.0,0.03469114378094673
493.0,8190.0,1.9202,-0.2644,9.6329,-0.0334,0.0199,-0.1141,-1.445874349480011,4.866507753863186e-19,1.4512393474578857,-2.164461135864258,-0.0,2.0254623889923096,4.862943637162008,-0.0,0.30315065383911133,-1.4798577467547815,0.0,-0.022501308470964432,0.6390970349311829,-0.0,-0.007270848844200373,0.847307026386261,0.0,0.07257389277219772
509.0,1112.0,2.3133,-0.4361,9.0832,-0.0399,0.0113,-0.1153,-1.4459303852966805,1.576686738652712e-26,1.5038983821868896,-2.164497137069702,-0.0,2.009247303009033,4.86295165398673,-0.00020576966926455498,0.30185002088546753,-1.4798291365252894,0.0,-0.016773046925663948,0.6391169428825378,-0.0,-0.0009192795259878039,0.8473069667816162,0.0,0.01606406643986702
509.0,1112.0,2.3133,-0.4361,9.0832,-0.0399,0.0113,-0.1153,-1.4458703261664887,6.853388200232439e-36,1.4310510158538818,-2.164497137069702,-0.0,2.016772747039795,4.862891721516409,-0.00046321432455442846,0.28553831577301025,-1.479877773915426,0.0,-0.019352838397026062,0.6390573382377625,-0.0,0.006553920451551676,0.8473032712936401,0.0,-0.045424509793519974
509.0,1112.0,2.3133,-0.4361,9.0832,-0.0399,0.0113,-0.1153,-1.445842371588089,2.802596928649634e-45,1.4713706970214844,-2.164484977722168,-0.00019489879196044058,2.0359139442443848,4.8629396734531305,-0.0003448811767157167,0.2907502353191376,-1.4798334280597132,0.0,-0.019831646233797073,0.6390771865844727,-0.0,-0.0010625177528709173,0.8473191857337952,0.0,0.014221805147826672
509.0,1112.0,2.3133,-0.4361,9.0832,-0.0399,0.0113,-0.1153,-1.4458783355406304,0.0,1.4418039321899414,-2.164401054382324,-0.00013560062507167459,2.009953022003174,4.86297935524539,-0.0002492950588930398,0.29188257455825806,-1.4798653761493128,0.0,-0.01781296543776989,0.6390933990478516,-0.0,-0.012401051819324493,0.8472586870193481,0.0,-0.010600565001368523
509.0,1112.0,2.3133,-0.4361,9.0832,-0.0399,0.0113,-0.1153,-1.4458943915418168,0.0,1.456510305404663,-2.1644651889801025,-0.00010419647878734395,1.9816038608551025,4.862955558090963,-0.00020406144903972745,0.2939755916595459,-1.4798458258258265,0.0,-0.015271339565515518,0.6391129493713379,-0.0,0.0076111918315291405,0.847278892993927,0.0,0.04174589365720749
509.0,1112.0,2.3133,-0.4361,9.0832,-0.0399,0.0113,-0.1153,-1.4459263321808358,0.0,1.4910016059875488,-2.164449691772461,-4.0403028833679855e-05,2.0198209285736084,4.862935724645414,-0.00016633904306218028,0.29149284958839417,-1.4798458258258265,0.0,-0.027589287608861923,0.6391049027442932,-0.0,-0.009889703243970871,0.8472950458526611,0.0,-0.028373608365654945
509.0,1112.0,2.3133,-0.4361,9.0832,-0.0399,0.0113,-0.1153,-1.445862316792347,0.0,1.4360812902450562,-2.164496898651123,-3.2996194931911305e-05,1.9196767807006836,4.862967479019918,-0.00014038881636224687,0.2997816503047943,-1.479877773915426,0.0,-0.018297050148248672,0.6390973925590515,-0.0,-0.006179402582347393,0.8472909927368164,0.0,-0.00639094365760684
509.0,1112.0,2.3133,-0.4361,9.0832,-0.0399,0.0113,-0.1153,-1.4458622944406052,0.0,1.4393999576568604,-2.1644930839538574,-2.7884480005013756e-05,1.9597584009170532,4.8630074737365625,-9.715666237752885e-05,0.2972618341445923,-1.4798691908465784,0.0,-0.006239749491214752,0.6390851140022278,-0.0,0.0009473438840359449,0.8472830057144165,0.0,0.011505687609314919
509.0,1112.0,2.3133,-0.4361,9.0832,-0.0399,0.0113,-0.1153,-1.445878342991211,0.0,1.4437828063964844,-2.1644766330718994,-6.531414992183571e-11,1.994254469871521,4.862955558090963,-8.768835687078536e-05,0.29629701375961304,-1.479837719594137,0.0,-0.020075760781764984,0.6390454173088074,-0.0,-0.002190318424254656,0.847287118434906,0.0,-0.029895126819610596
493.0,8190.0,1.9687,-0.6084,9.4409,-0.0389,0.0104,-0.118,-1.4458743345788498,0.0,1.4548498392105103,-2.164517641067505,-2.8390127861352756e-20,1.9541640281677246,4.862951609283247,-7.81678972998634e-05,0.2907053530216217,-1.4799297491656702,0.0,-0.02692617103457451,0.6390771865844727,-0.0,0.004722462967038155,0.8473192453384399,0.0,0.019764654338359833
493.0,8190.0,1.9687,-0.6084,9.4409,-0.0389,0.0104,-0.118,-1.4459263321808358,-1.749263537931256e-05,1.4950565099716187,-2.1644577980041504,-1.234034571346345e-29,1.9704902172088623,4.862955558090963,-7.051237480482087e-05,0.2941332459449768,-1.479893986378805,0.0,-0.011732127517461777,0.6391292214393616,-0.0,-0.0067741358652710915,0.8473190069198608,0.0,0.06884085386991501
493.0,8190.0,1.9687,-0.6084,9.4409,-0.0389,0.0104,-0.118,-1.4458663550070305,-3.1249572202796116e-05,1.459857702255249,-2.164466142654419,-5.363981346142716e-39,2.0094797611236572,4.862951624184408,-6.422268779715523e-05,0.292228102684021,-1.4798858801471155,0.0,-0.025192830711603165,0.6390814781188965,-0.0,0.0023107498418539762,0.8473271727561951,0.0,-0.055272653698921204
493.0,8190.0,1.9687,-0.6084,9.4409,-0.0389,0.0104,-0.118,-1.4459064316800614,-4.407060987432487e-05,1.4484827518463135,-2.164496898651123,-0.0,1.9915887117385864,4.862967479019918,-2.2778833226766437e-05,0.2994021773338318,-1.4798896948443812,0.0,-0.01902630180120468,0.6391049027442932,-0.0,0.0038161512929946184,0.8472707271575928,0.0,0.011134368367493153
493.0,8190.0,1.9687,-0.6084,9.4409,-0.0389,0.0104,-0.118,-1.4459064316800614,-5.481642801896669e-05,1.4725914001464844,-2.1644577980041504,-0.0,1.969822645187378,4.8629396734531305,-1.5690377040300518e-05,0.3044111132621765,-1.4799140135394495,0.0,-0.02663153037428856,0.6391049027442932,-0.0,0.01433019619435072,0.847298800945282,0.0,0.020686423406004906
493.0,8190.0,1.9687,-0.6084,9.4409,-0.0389,0.0104,-0.118,-1.4459462401321908,-0.00019634398631751537,1.4501969814300537,-2.1644370555877686,-0.0,2.016594886779785,4.862951639085569,-1.4432313946599606e-05,0.2867281138896942,-1.4799016157733362,0.0,-0.017509032040834427,0.6391609311103821,-0.0,0.010944086126983166,0.847278892993927,0.0,0.026535939425230026
493.0,8190.0,1.9687,-0.6084,9.4409,-0.0389,0.0104,-0.118,-1.4459383723190804,-0.00016119921929202974,1.4438115358352661,-2.1644370555877686,-0.0,2.0511322021484375,4.8629396734531305,-1.3361023775360081e-05,0.3101780116558075,-1.4799297491656702,0.0,-0.01274159923195839,0.6391171216964722,-6.361626105899632e-07,0.021733134984970093,0.8473028540611267,0.0,0.03058447130024433
493.0,8190.0,1.9687,-0.6084,9.4409,-0.0389,0.0104,-0.118,-1.4459224131754418,-0.00014099568943493068,1.4299781322479248,-2.1644577980041504,-0.0,1.9826343059539795,4.862935724645414,-1.2612092177732848e-05,0.30044203996658325,-1.479861084614889,0.0,-0.0154529744759202,0.6390731334686279,-1.1561939773641061e-11,0.02435131184756756,0.8473073244094849,0.0,0.005023169331252575
493.0,8190.0,1.9687,-0.6084,9.4409,-0.0389,0.0104,-0.118,-1.4459103357842942,-0.00014623874449171126,1.416703462600708,-2.164433240890503,0.00034120125928893685,2.015817403793335,4.862979638367452,-2.6170432931849064e-08,0.2882194519042969,-1.479861084614889,0.0,-0.022317755967378616,0.6390694975852966,-1.3720152825660839e-17,0.03270740061998367,0.8473073840141296,0.0,0.07293874770402908
493.0,8190.0,1.9687,-0.6084,9.4409,-0.0389,0.0104,-0.118,-1.4459263843349,-0.00012882925511803478,1.4163382053375244,-2.1644370555877686,0.0010360816959291697,2.017098903656006,4.862947556167402,-3.10555448273641e-14,0.2948041558265686,-1.479877773915426,0.0,-0.020745987072587013,0.6390893459320068,-1.6281230803096803e-23,0.02476661279797554,0.8473069667816162,0.0,0.054191507399082184
492.0,1079.0,1.7539,-0.6197,9.2267,-0.0351,0.0333,-0.1161,-1.4459024232677002,-0.00013401967589743435,1.3539917469024658,-2.164438009262085,0.0005894433706998825,1.9966353178024292,4.862983676582136,-3.6852540956939686e-20,0.2783079147338867,-1.4798896948443812,0.0,-0.026112079620361328,0.639104962348938,-1.9320370983335432e-29,0.04138031601905823,0.8473149538040161,0.00018273337627761066,0.09519152343273163
492.0,1079.0,1.7539,-0.6197,9.2267,-0.0351,0.0333,-0.1161,-1.4459503454020997,-0.00016405743372160941,1.366868495941162,-2.164445400238037,0.00022179335064720362,2.0076143741607666,4.862979638367452,-4.373163210550222e-26,0.2805137634277344,-1.4798572699176233,0.0,-0.04179428517818451,0.6391410231590271,-2.2926813406831272e-35,0.028203608468174934,0.8473309278488159,0.00018809006724040955,0.1131952702999115
492.0,1079.0,1.7539,-0.6197,9.2267,-0.0351,0.0333,-0.1161,-1.4459828373840828,-0.0013145910343155265,1.3664617538452148,-2.1644175052642822,0.00021526693308260292,2.0333261489868164,4.8629876402910135,-7.94800819235039e-31,0.28150615096092224,-1.479877773915426,0.0,-0.035107485949993134,0.6391089558601379,-4.16683104859306e-40,0.026877421885728836,0.8473268151283264,0.00043059460585936904,0.12701313197612762
492.0,1079.0,1.7539,-0.6197,9.2267,-0.0351,0.0333,-0.1161,-1.445990504031517,-0.006482815369963646,1.4040850400924683,-2.1643967628479004,6.136645970400423e-05,1.9925317764282227,4.862991633802213,-9.431625630781998e-37,0.281269371509552,-1.4798978010760706,0.0,-0.03128024563193321,0.6391568779945374,0.0001275904942303896,0.03414468467235565,0.8473472595214844,0.0016376074636355042,0.1753554493188858
492.0,1079.0,1.7539,-0.6197,9.2267,-0.0351,0.0333,-0.1161,-1.4460658964565773,-0.012412860058248043,1.3036800622940063,-2.1644091606140137,9.152200073003769e-05,1.9769878387451172,4.862967479019918,-1.1196374729955288e-42,0.2755682170391083,-1.4798415342914026,0.0,-0.049361519515514374,0.6391370296478271,0.0001423624053131789,0.023583967238664627,0.8473670482635498,0.002536734798923135,0.17240382730960846
492.0,1079.0,1.7539,-0.6197,9.2267,-0.0351,0.0333,-0.1161,-1.4462345850518723,-0.012894055806100368,1.2806296348571777,-2.1644256114959717,3.64849365723785e-05,2.057607650756836,4.862979638367452,-0.0,0.290983647108078,-1.4798739592181605,0.0,-0.04003455117344856,0.6391409635543823,0.0001467702240915969,0.031448572874069214,0.8474031686782837,0.003436087863519788,0.18860536813735962
492.0,1079.0,1.7539,-0.6197,9.2267,-0.0351,0.0333,-0.1161,-1.446354666059353,-0.015353488735854626,1.305143117904663,-2.164353370666504,6.278593355091289e-05,1.991283893585205,4.862943637162008,-0.0,0.2618790864944458,-1.4799216429339808,0.0,-0.04481752961874008,0.6391648054122925,0.00015341817925218493,0.04326514154672623,0.8475034832954407,0.00486617861315608,0.2592581510543823
492.0,1079.0,1.7539,-0.6197,9.2267,-0.0351,0.0333,-0.1161,-1.4465146672776719,-0.018937496468424797,1.2797770500183105,-2.1644134521484375,5.346322723198682e-05,1.997173547744751,4.862923803716459,-0.0,0.24604035913944244,-1.4799016157733362,1.0569578101637944e-08,-0.04687090218067169,0.6391727924346924,0.0002479812828823924,0.04812607169151306,0.8475232720375061,0.006287463940680027,0.27995699644088745
492.0,1079.0,1.7539,-0.6197,9.2267,-0.0351,0.0333,-0.1161,-1.4467027571848412,-0.020436730235815048,1.223205327987671,-2.164384365081787,4.6550056140404195e-05,2.0097951889038086,4.862951639085569,-0.0003263664257247001,0.25638020038604736,-1.4798978010760706,1.254255217481709e-14,-0.05292468145489693,0.6391489505767822,0.0002795209002215415,0.0496610589325428,0.8475595116615295,0.006580772344022989,0.32413288950920105
472.0,1083.0,2.1165,-0.4211,9.0514,-0.0275,0.0111,-0.1287,-1.4468707230738183,-0.020540934056043625,1.1944974660873413,-2.164400815963745,8.234332199208438e-05,2.0160422325134277,4.862943637162008,-0.00033883863943628967,0.2443307638168335,-1.4799097220050257,1.488381457524895e-20,-0.054190460592508316,0.6391810178756714,0.0003773545613512397,0.05016540735960007,0.8475788235664368,0.006829417776316404,0.33523762226104736
472.0,1083.0,2.1165,-0.4211,9.0514,-0.0275,0.0111,-0.1287,-1.4470427644303818,-0.021965274587273598,1.159582495689392,-2.164388418197632,0.00012689930736087263,2.006161689758301,4.862975391536512,-0.0005552194197662175,0.2394798994064331,-1.4799054304706019,-0.00034578240592963994,-0.05860786885023117,0.6391608715057373,0.0003687799908220768,0.05843907222151756,0.8476350903511047,0.008157497271895409,0.3683862090110779
472.0,1083.0,2.1165,-0.4211,9.0514,-0.0275,0.0111,-0.1287,-1.4473108437708397,-0.024324873462319374,1.165894627571106,-2.164400815963745,0.00013348770153243095,2.038797378540039,4.86299158909873,-0.0006048660143278539,0.2604670524597168,-1.4799254576312464,-0.00034643200342543423,-0.07917213439941406,0.6392326951026917,0.00032608892070129514,0.06058088317513466,0.8477673530578613,0.009017051197588444,0.378229558467865
472.0,1083.0,2.1165,-0.4211,9.0514,-0.0275,0.0111,-0.1287,-1.447494239812233,-0.02599974162876606,1.1676878929138184,-2.1643409729003906,0.0005339902127161622,2.0434048175811768,4.862947600870886,-0.0005166708142496645,0.23040354251861572,-1.4799779097186487,-0.0003410984354559332,-0.06784936040639877,0.6392005681991577,0.0002760440402198583,0.05420918017625809,0.8478350043296814,0.009379292838275433,0.4362207353115082
472.0,1083.0,2.1165,-0.4211,9.0514,-0.0275,0.0111,-0.1287,-1.4477827933481713,-0.02377588488161564,1.158721685409546,-2.164369583129883,0.0009456403786316514,2.004836320877075,4.862955572992124,-0.0004217415989842266,0.25043410062789917,-1.479941193257467,-0.00034290243638679385,-0.08793675899505615,0.6392406225204468,0.00029282993637025356,0.06514611095190048,0.8478789925575256,0.010082283057272434,0.3994458317756653
472.0,1083.0,2.1165,-0.4211,9.0514,-0.0275,0.0111,-0.1287,-1.4479387638023873,-0.022519851103425026,1.146496295928955,-2.164369583129883,0.000704644713550806,2.040025234222412,4.862951922207632,-0.000401752651669085,0.23969745635986328,-1.479929272328512,-0.00038145799771882594,-0.09957429766654968,0.6392085552215576,0.00028329933411441743,0.061650246381759644,0.8480192422866821,0.011742356233298779,0.4383853077888489
472.0,1083.0,2.1165,-0.4211,9.0514,-0.0275,0.0111,-0.1287,-1.4481501516750832,-0.021816466003656387,1.073886752128601,-2.164369583129883,0.0005580401630140841,1.989713430404663,4.862915503769674,-0.00041439427877776325,0.23784580826759338,-1.4799812475787562,-0.0003277190262451768,-0.07961483299732208,0.6392562389373779,0.0002503905852790922,0.06813785433769226,0.8481276035308838,0.012262011878192425,0.43819737434387207
472.0,1083.0,2.1165,-0.4211,9.0514,-0.0275,0.0111,-0.1287,-1.4484232676080246,-0.01904839277267456,1.0778934955596924,-2.164337635040283,0.0007329584914259613,2.046379804611206,4.862911554961958,-0.0003996000159531832,0.2098570019006729,-1.4799497763263147,-0.0003771146002691239,-0.0876459926366806,0.6392640471458435,0.0002352875890210271,0.08038127422332764,0.848259449005127,0.013368724845349789,0.5615925192832947
472.0,1083.0,2.1165,-0.4211,9.0514,-0.0275,0.0111,-0.1287,-1.4485467386296769,-0.0160903912037611,1.0145378112792969,-2.164313793182373,0.0020376136526465416,2.0390706062316895,4.862971442728796,-0.00034331169445067644,0.22882047295570374,-1.480025593434469,-0.0003468862851150334,-0.09959425032138824,0.6391331553459167,0.0002254172577522695,0.09565292298793793,0.8484320044517517,0.015510939061641693,0.5220503807067871
472.0,1083.0,2.1165,-0.4211,9.0514,-0.0275,0.0111,-0.1287,-1.4486385148814698,-0.014005881734192371,1.0551753044128418,-2.164297342300415,0.0030648456886410713,1.9776394367218018,4.862887772708692,-0.0003156056336592883,0.21261806786060333,-1.480008904133932,-0.000355930911609903,-0.10099827498197556,0.6391927003860474,0.00019719883857760578,0.09328578412532806,0.8485680222511292,0.016595646739006042,0.5514940619468689
481.0,1065.0,2.184,-0.4349,9.454,-0.026,0.0102,-0.0997,-1.4487658602050324,-0.01182146742939949,1.0698703527450562,-2.164234161376953,0.004875196143984795,2.0607354640960693,4.862939658551969,-0.0002742767974268645,0.21193534135818481,-1.4799898306476038,-0.00031954754376783967,-0.10124935209751129,0.6391808390617371,0.00019484061340335757,0.0996960699558258,0.8487281203269958,0.020143643021583557,0.5723087787628174
481.0,1065.0,2.184,-0.4349,9.454,-0.026,0.0102,-0.0997,-1.4488581356457253,-0.009907236322760582,1.1278972625732422,-2.1641905307769775,0.0049044545739889145,2.023642063140869,4.862971442728796,-0.00023236472043208778,0.23131126165390015,-1.4800050894366663,-0.00023620619322173297,-0.10383626818656921,0.6392443180084229,0.0001716406550258398,0.08157457411289215,0.8489482998847961,0.02387296035885811,0.5723640322685242
481.0,1065.0,2.184,-0.4349,9.454,-0.026,0.0102,-0.0997,-1.448982873266079,-0.008241824805736542,1.0550267696380615,-2.164154291152954,0.004596870858222246,2.0146849155426025,4.862995523005285,-0.00019618103397078812,0.2241063416004181,-1.480025593434469,-0.00022450805408880115,-0.1000838428735733,0.6391649842262268,0.00015336000069510192,0.09733030200004578,0.8491359949111938,0.026431461796164513,0.5651615858078003
481.0,1065.0,2.184,-0.4349,9.454,-0.026,0.0102,-0.0997,-1.449014202957489,-0.00659133167937398,1.0475850105285645,-2.1640942096710205,0.003611897584050894,2.01509428024292,4.862967553525724,-0.00018668507982511073,0.21641585230827332,-1.47998553911318,-0.00019249110482633114,-0.09968747198581696,0.6392640471458435,0.0001413192949257791,0.09395239502191544,0.8494488000869751,0.028278401121497154,0.5917151570320129
481.0,1065.0,2.184,-0.4349,9.454,-0.026,0.0102,-0.0997,-1.449102760558464,-0.006361599080264568,1.0603408813476562,-2.1640825271606445,0.002396427793428302,1.9854522943496704,4.862959521799841,-0.0001751235540723428,0.21411511301994324,-1.4800174872027796,-0.00019059813348576427,-0.09351087361574173,0.6392085552215576,0.0001286896876990795,0.09749022871255875,0.8496929407119751,0.028946952894330025,0.5902368426322937
481.0,1065.0,2.184,-0.4349,9.454,-0.026,0.0102,-0.0997,-1.449146532719471,-0.006710253190249205,1.071342945098877,-2.164050579071045,0.0014846017584204674,2.011286973953247,4.862935724645414,-0.00015613451250828803,0.23210343718528748,-1.479992691670553,-0.00018914943211711943,-0.10346060246229172,0.6391569375991821,0.00011813227320089936,0.09436006844043732,0.8499488830566406,0.028612321242690086,0.6099705696105957
481.0,1065.0,2.184,-0.4349,9.454,-0.026,0.0102,-0.0997,-1.4492305901697655,-0.006203578319400549,1.0889250040054321,-2.164090871810913,0.001428021932952106,2.0155258178710938,4.862959521799841,-0.00014086089504417032,0.22051826119422913,-1.4800012747394007,-0.00016722986765671521,-0.09621375799179077,0.6391768455505371,0.0001091758458642289,0.0911402478814125,0.8502412438392639,0.027976984158158302,0.6365054845809937
481.0,1065.0,2.184,-0.4349,9.454,-0.026,0.0102,-0.0997,-1.4492868793061753,-0.005474253557622433,1.0904004573822021,-2.16402268409729,0.0014482230180874467,1.9851527214050293,4.862947600870886,-9.70398832578212e-05,0.2072308361530304,-1.4800413290606897,-0.0001498292403994128,-0.09847941994667053,0.639149010181427,0.00010148177534574643,0.07354103028774261,0.8505659103393555,0.02652519941329956,0.5847228169441223
481.0,1065.0,2.184,-0.4349,9.454,-0.026,0.0102,-0.0997,-1.4493063700250168,-0.005443957634270191,1.0480786561965942,-2.1639864444732666,0.0014373766025528312,2.033806085586548,4.862927782326498,-0.00010485792154213414,0.22458556294441223,-1.4800289312945765,-0.00013831569231115282,-0.094688281416893,0.6392005681991577,9.606574167264625e-05,0.08166205137968063,0.8507736325263977,0.02465493604540825,0.5722969174385071
492.0,1014.0,2.184,-0.3846,9.1095,-0.0305,0.016,-0.0906,-1.449350268845894,-0.005517149809747934,1.0701110363006592,-2.1640422344207764,0.0013736451510339975,1.9888968467712402,4.862927752524175,-9.752064943313599e-05,0.22320601344108582,-1.480037037526266,-0.00010155470226891339,-0.10436613112688065,0.6392287611961365,9.005769243231043e-05,0.0974016785621643,0.8510381579399109,0.025204937905073166,0.5801098942756653
492.0,1014.0,2.184,-0.3846,9.1095,-0.0305,0.016,-0.0906,-1.4493944284370919,-0.004928105976432562,1.066323161125183,-2.163987159729004,0.0014127962058410048,2.019545078277588,4.862967508822241,-0.0001043501979438588,0.20757518708705902,-1.4800093809710901,-0.000104796803498175,-0.10558943450450897,0.6392366290092468,8.475703361909837e-05,0.08670065551996231,0.8512420058250427,0.025895463302731514,0.5716795325279236
492.0,1014.0,2.184,-0.3846,9.1095,-0.0305,0.016,-0.0906,-1.4494705286673089,-0.0035274175461381674,1.0698391199111938,-2.163954257965088,0.002868655836209655,2.047631025314331,4.8629237590129755,-9.637004404794425e-05,0.22554534673690796,-1.479997460042135,-9.942657925421372e-05,-0.11393959820270538,0.6392247676849365,8.004562550922856e-05,0.08772537857294083,0.8515703082084656,0.02815060131251812,0.6029655933380127
492.0,1014.0,2.184,-0.3846,9.1095,-0.0305,0.016,-0.0906,-1.4494705510190506,-0.0035374360159039497,1.0808773040771484,-2.1639583110809326,0.0034834875259548426,2.0034432411193848,4.8628917066152475,-9.08134097699076e-05,0.20844094455242157,-1.4799888769732874,-9.260610386263579e-05,-0.10037759691476822,0.6392085552215576,5.661875412954487e-09,0.08531075716018677,0.8517584204673767,0.029814964160323143,0.5842556953430176
492.0,1014.0,2.184,-0.3846,9.1095,-0.0305,0.016,-0.0906,-1.449454427962639,-0.00310706440359354,1.084533452987671,-2.1638827323913574,0.004813499748706818,2.041217088699341,4.862963470607557,-8.470816828776151e-05,0.20510509610176086,-1.4800413290606897,-8.529258775524795e-05,-0.09969521313905716,0.639244556427002,6.718752158498204e-15,0.09317182004451752,0.8520788550376892,0.03019469417631626,0.5579919815063477
492.0,1014.0,2.184,-0.3846,9.1095,-0.0305,0.016,-0.0906,-1.449530617599823,-0.0032195833045989275,1.0780982971191406,-2.1638309955596924,0.006948406808078289,2.0504038333892822,4.8629357544477365,-7.937212649267167e-05,0.22109238803386688,-1.4800570646869105,-9.22244944376871e-05,-0.07659593224525452,0.6391966938972473,7.972910388856636e-21,0.08002088218927383,0.8524361848831177,0.029601017013192177,0.6000816822052002
492.0,1014.0,2.184,-0.3846,9.1095,-0.0305,0.016,-0.0906,-1.4495261547020455,-0.003034873865544796,1.0672125816345215,-2.1637396812438965,0.008779903873801231,2.0076045989990234,4.862951609283247,-7.466849638149142e-05,0.21664786338806152,-1.4800012747394007,-8.593468373874202e-05,-0.1038169264793396,0.6391769051551819,9.461177844492939e-27,0.0841967910528183,0.8527030348777771,0.029118826612830162,0.6044780611991882
492.0,1014.0,2.184,-0.3846,9.1095,-0.0305,0.016,-0.0906,-1.449574427013733,-0.0036208443343639374,1.0643078088760376,-2.163627862930298,0.011464066803455353,2.0758419036865234,4.862939658551969,-7.128885044949129e-05,0.22243714332580566,-1.4800413290606897,-8.148856431944296e-05,-0.10470502078533173,0.6392561793327332,1.7195220701399084e-31,0.0760972797870636,0.8529393076896667,0.027876559644937515,0.5900868773460388
492.0,1014.0,2.184,-0.3846,9.1095,-0.0305,0.016,-0.0906,-1.4495943647674103,-0.003967358730733395,1.09566068649292,-2.163520097732544,0.01614036038517952,2.056140422821045,4.862903567939558,-3.828086292401167e-08,0.20648950338363647,-1.4800251165973108,-7.653857755940408e-05,-0.0931849479675293,0.6392523646354675,6.622704518122191e-08,0.09219315648078918,0.853171169757843,0.027964210137724876,0.6156942248344421
492.0,1014.0,2.184,-0.3846,9.1095,-0.0305,0.016,-0.0906,-1.4496868786266823,-0.004042948130518198,1.0435583591461182,-2.16333270072937,0.02067839540541172,2.0314600467681885,4.862927767425337,-4.5426587025419046e-14,0.21588635444641113,-1.4800408522235315,-8.246344077633694e-05,-0.09650726616382599,0.6391679048538208,7.858934314951271e-14,0.08914771676063538,0.8534877300262451,0.028434470295906067,0.590179979801178
490.0,1052.0,2.1709,-0.594,9.5186,-0.0292,0.0397,-0.0903,-1.449698732500412,-0.004935063887387514,1.0547764301300049,-2.1630496978759766,0.02699633315205574,2.0674352645874023,4.862951594382086,-5.3906161754427465e-20,0.2350526750087738,-1.4800732771502894,-6.705064947709616e-07,-0.09377182275056839,0.6391847729682922,9.325925031606935e-20,0.10311078280210495,0.8538000583648682,0.029303772374987602,0.6082832217216492
490.0,1052.0,2.1709,-0.594,9.5186,-0.0292,0.0397,-0.0903,-1.4497544330409546,-0.005258599296212196,1.0696611404418945,-2.1628661155700684,0.035011015832424164,2.0737013816833496,4.8629396734531305,-9.797178140225702e-25,0.21647143363952637,-1.48008901277651,-7.882275531301275e-05,-0.08835891634225845,0.6392249464988708,1.694940821716303e-24,0.08856771141290665,0.8540362119674683,0.03031722828745842,0.59776771068573
490.0,1052.0,2.1709,-0.594,9.5186,-0.0292,0.0397,-0.0903,-1.4497702729753037,-0.0070373304188251495,1.0406017303466797,-2.162431001663208,0.04658740013837814,2.0302581787109375,4.862947600870886,-1.1625972970028057e-30,0.21603967249393463,-1.480060879384176,-7.309864304261282e-05,-0.10544034838676453,0.6392126083374023,2.0113274460648695e-30,0.08706939965486526,0.8542841672897339,0.03023955598473549,0.6163009405136108
490.0,1052.0,2.1709,-0.594,9.5186,-0.0292,0.0397,-0.0903,-1.4498782765916367,-0.008930889889597893,1.0321271419525146,-2.1618964672088623,0.05954548344016075,2.081533670425415,4.862959521799841,-1.3796138974776131e-36,0.23313236236572266,-1.4800532499896448,-8.112896466627717e-05,-0.08312142640352249,0.6391802430152893,2.386772438595777e-36,0.09995363652706146,0.8546528816223145,0.026727110147476196,0.6186948418617249
490.0,1052.0,2.1709,-0.594,9.5186,-0.0292,0.0397,-0.0903,-1.4500146818212052,-0.009843814186751842,1.0391250848770142,-2.16123104095459,0.07382071763277054,2.172156810760498,4.862935739546575,-1.6367166063313863e-42,0.21761716902256012,-1.4800613562213343,-8.720430923858657e-05,-0.10133934020996094,0.6391803026199341,2.8320241964004553e-42,0.10180789977312088,0.8548685312271118,0.02356642298400402,0.6127235293388367
490.0,1052.0,2.1709,-0.594,9.5186,-0.0292,0.0397,-0.0903,-1.4500384640744706,-0.011527047492563725,1.040295958518982,-2.1606287956237793,0.08948788791894913,2.1676440238952637,4.862931716233053,-0.0,0.23351402580738068,-1.4800451437579554,-9.449949720874429e-05,-0.0908808708190918,0.6391843557357788,0.0,0.10569505393505096,0.8550809621810913,0.01972602680325508,0.5785171389579773
490.0,1052.0,2.1709,-0.594,9.5186,-0.0292,0.0397,-0.0903,-1.450222910647728,-0.013882137835025787,1.0431946516036987,-2.159579277038574,0.1058240681886673,2.185899496078491,4.862907635956564,-4.9863039748743176e-05,0.22144156694412231,-1.48008901277651,-0.0001774092233972624,-0.10800497233867645,0.6392483115196228,0.0,0.10698699206113815,0.8552166819572449,0.013950446620583534,0.5852981805801392
490.0,1052.0,2.1709,-0.594,9.5186,-0.0292,0.0397,-0.0903,-1.4503226292184372,-0.01601482555270195,1.0600229501724243,-2.1584105491638184,0.11468300223350525,2.2173924446105957,4.862915518670835,-1.037119390367991e-09,0.2259608507156372,-1.4800847212420862,-0.0002064650907414034,-0.10131467878818512,0.6392319798469543,0.0,0.09714712202548981,0.8552926182746887,0.00945780985057354,0.5719578266143799
490.0,1052.0,2.1709,-0.594,9.5186,-0.0292,0.0397,-0.0903,-1.4505229604295273,-0.015367583371698856,1.0455284118652344,-2.1571569442749023,0.12590129673480988,2.1578660011291504,4.862919586687841,-1.2307133554929624e-15,0.2269330769777298,-1.480133358632223,-0.0002031527110375464,-0.09987640380859375,0.6392888426780701,0.0,0.11294752359390259,0.8553485870361328,0.004524721764028072,0.5926744341850281
560.0,1075.0,2.2205,-0.3553,9.9386,-0.0545,0.1381,-0.1119,-1.450606883769371,-0.013151911087334156,1.0534993410110474,-2.1561193466186523,0.13705362379550934,2.2480432987213135,4.862947630673208,-2.236760838270029e-20,0.2424774467945099,-1.4801128546344202,-0.000263191235717386,-0.10958735644817352,0.6392687559127808,0.0,0.09514275193214417,0.8554089069366455,0.0019335289252921939,0.5771173238754272
560.0,1075.0,2.2205,-0.3553,9.9386,-0.0545,0.1381,-0.1119,-1.4507868525436898,-0.01409592479467392,1.086894154548645,-2.154616117477417,0.15422087907791138,2.2397878170013428,4.862967598229208,-2.6542867589217516e-26,0.2289503514766693,-1.4800847212420862,-0.000244436610955745,-0.10296917706727982,0.6392483115196228,0.0,0.10178560018539429,0.8553966283798218,0.0009252597228623927,0.5952929258346558
560.0,1075.0,2.2205,-0.3553,9.9386,-0.0545,0.1381,-0.1119,-1.4509710383466263,-0.0186509620398283,1.012398362159729,-2.1529862880706787,0.16637900471687317,2.2604827880859375,4.862899783044615,-0.0002253904240205884,0.2251604199409485,-1.4800966421710413,-0.00019931630231440067,-0.09995879232883453,0.6392126679420471,0.0,0.10200415551662445,0.855461061000824,0.0004036931786686182,0.5965767502784729
560.0,1075.0,2.2205,-0.3553,9.9386,-0.0545,0.1381,-0.1119,-1.4511308383992692,-0.02116333320736885,1.0625009536743164,-2.151153326034546,0.17734359204769135,2.2784230709075928,4.8628956256206415,-0.0002372496819589287,0.21394723653793335,-1.480060879384176,-0.0001682596339378506,-0.09472241997718811,0.6392643451690674,0.0,0.09792506694793701,0.8554089069366455,0.0002786650729831308,0.5833954811096191
560.0,1075.0,2.2205,-0.3553,9.9386,-0.0545,0.1381,-0.1119,-1.4512865853360672,-0.019370928406715393,1.0562729835510254,-2.149348735809326,0.19663435220718384,2.270357608795166,4.862939703255453,-0.00020368816331028938,0.22853419184684753,-1.4801009337054651,-0.00014557724352926016,-0.08366161584854126,0.6392480731010437,0.0,0.11551283299922943,0.8554207682609558,0.00021277563064359128,0.6317059993743896
560.0,1075.0,2.2205,-0.3553,9.9386,-0.0545,0.1381,-0.1119,-1.4514548939517518,-0.01967347413301468,1.0640044212341309,-2.147669792175293,0.20200985670089722,2.304109811782837,4.862907635956564,-0.000341150356689468,0.23927916586399078,-1.4800728003131312,-0.0001314063265454024,-0.09040030092000961,0.6392166018486023,0.0,0.09944652020931244,0.8553887009620667,0.0001431452255928889,0.6155723333358765
560.0,1075.0,2.2205,-0.3553,9.9386,-0.0545,0.1381,-0.1119,-1.4516865772059937,-0.021970337256789207,1.021515130996704,-2.1456215381622314,0.2167041152715683,2.307150363922119,4.8628794876630685,-0.0003078246081713587,0.21887896955013275,-1.4800689856158655,-0.00011715161963365972,-0.10097914189100266,0.6391962766647339,0.0,0.09279234707355499,0.8554088473320007,3.943545380025171e-05,0.5419931411743164
560.0,1075.0,2.2205,-0.3553,9.9386,-0.0545,0.1381,-0.1119,-1.4519509685090561,-0.02614053338766098,1.0371781587600708,-2.1433722972869873,0.22793839871883392,2.3396694660186768,4.862851816206732,-0.0017180000431835651,0.2219773828983307,-1.4800809065448206,-0.00010568706784397364,-0.10174882411956787,0.6392248868942261,0.0,0.08454762399196625,0.8554328680038452,3.234807445551269e-05,0.6223214864730835
560.0,1075.0,2.2205,-0.3553,9.9386,-0.0545,0.1381,-0.1119,-1.452234463100769,-0.029569724574685097,1.006206750869751,-2.141075849533081,0.23316332697868347,2.313746929168701,4.862820002227583,-0.004132509231567383,0.22252990305423737,-1.4800251165973108,-9.626635437598452e-05,-0.09532761573791504,0.6392483115196228,0.0,0.11029703915119171,0.8553928136825562,2.742019933066331e-05,0.5926050543785095
601.0,8190.0,2.0339,-0.524,9.3075,-0.0663,0.2624,-0.11,-1.4524426770261307,-0.032243989408016205,1.0567166805267334,-2.1390819549560547,0.2505740225315094,2.396864891052246,4.862755465298452,-0.0090758902952075,0.22944119572639465,-1.4800728003131312,-8.98585858521983e-05,-0.09960848093032837,0.6392204165458679,0.0,0.09368506819009781,0.8553927540779114,2.4441555069643073e-05,0.616462230682373
601.0,8190.0,2.0339,-0.524,9.3075,-0.0663,0.2624,-0.11,-1.4527625304511567,-0.0349113903939724,1.0610923767089844,-2.1366147994995117,0.255283921957016,2.3434500694274902,4.86268429735259,-0.011018052697181702,0.22154325246810913,-1.4800570646869105,-8.295641600852832e-05,-0.09884865581989288,0.6392483115196228,0.0,0.0858536958694458,0.8554248809814453,2.1519494111998938e-05,0.6193082332611084
601.0,8190.0,2.0339,-0.524,9.3075,-0.0663,0.2624,-0.11,-1.4531671044281502,-0.03779516741633415,1.0348355770111084,-2.134033679962158,0.27627766132354736,2.378282070159912,4.862640517741003,-0.0029682773165404797,0.21259649097919464,-1.4801047484027308,-7.703891606070101e-05,-0.10145638883113861,0.6392167210578918,0.0,0.08901865780353546,0.8554328680038452,7.685511809540913e-05,0.5930106043815613
601.0,8190.0,2.0339,-0.524,9.3075,-0.0663,0.2624,-0.11,-1.4535425838879128,-0.040981363505125046,0.9966272115707397,-2.131293773651123,0.2767687737941742,2.3960366249084473,4.862552690296926,-0.005195531062781811,0.2229391485452652,-1.4800570646869105,-7.190949690993875e-05,-0.0914810374379158,0.639256477355957,0.0,0.09904010593891144,0.8554808497428894,0.00016200621030293405,0.5798635482788086
601.0,8190.0,2.0339,-0.524,9.3075,-0.0663,0.2624,-0.11,-1.453878567819931,-0.043763816356658936,0.9903564453125,-2.129016160964966,0.28702986240386963,2.404959201812744,4.862548815995016,-0.004733068402856588,0.2168504148721695,-1.4800809065448206,-6.827285687904805e-05,-0.10139165818691254,0.6392085552215576,0.0,0.0899147242307663,0.8554610013961792,0.00048441207036376,0.6002699732780457
601.0,8190.0,2.0339,-0.524,9.3075,-0.0663,0.2624,-0.11,-1.4543265265277405,-0.04829735681414604,1.063122034072876,-2.1260368824005127,0.2926825284957886,2.4056167602539062,4.862485039025106,-0.0026938472874462605,0.2180422842502594,-1.4800809065448206,-6.421358557417989e-05,-0.10430727154016495,0.6392003297805786,0.0,0.10217401385307312,0.8554569482803345,0.0007185698486864567,0.6511601209640503
601.0,8190.0,2.0339,-0.524,9.3075,-0.0663,0.2624,-0.11,-1.4547752451947709,-0.05250192806124687,1.0145211219787598,-2.1230411529541016,0.3029838800430298,2.433311700820923,4.86245687583045,-0.0015381244011223316,0.20275923609733582,-1.4801247755633753,-6.060994928702712e-05,-0.10179851204156876,0.6392565369606018,0.0,0.0739191323518753,0.8554971814155579,0.000518124143127352,0.5972944498062134
601.0,8190.0,2.0339,-0.524,9.3075,-0.0663,0.2624,-0.11,-1.4553031858852883,-0.0559203214943409,1.0262694358825684,-2.119961977005005,0.3070651590824127,2.4381966590881348,4.86245687583045,-0.0007552139577455819,0.22679200768470764,-1.480060879384176,-4.239579798337445e-09,-0.09686893224716187,0.6392807960510254,0.0,0.08120888471603394,0.8555091023445129,0.0004668165638577193,0.5755847692489624
601.0,8190.0,2.0339,-0.524,9.3075,-0.0663,0.2624,-0.11,-1.45575916141782,-0.058042846620082855,1.0446951389312744,-2.1173839569091797,0.31256935000419617,2.4902007579803467,4.862493175059118,-0.0006000843131914735,0.20417800545692444,-1.480048958455221,-7.705227650584359e-14,-0.10718419402837753,0.639192521572113,0.0,0.08884106576442719,0.8554931282997131,0.0003820809652097523,0.5989425182342529
601.0,8190.0,2.0339,-0.524,9.3075,-0.0663,0.2624,-0.11,-1.4563633886030694,-0.059399642050266266,1.074370265007019,-2.1143572330474854,0.3184431493282318,2.425257444381714,4.862429457693853,-0.0007560297381132841,0.22886362671852112,-1.4800570646869105,-9.143527829129871e-20,-0.10396713018417358,0.6392766237258911,0.0,0.09411515295505524,0.8555009365081787,0.0003762963751796633,0.5633870959281921
779.0,1046.0,1.7384,-0.5151,9.1705,-0.0754,0.2709,-0.0915,-1.4569913756898423,-0.062044061720371246,1.0726463794708252,-2.11116623878479,0.3182298243045807,2.4015562534332275,4.862393292575636,-0.0011741445632651448,0.23555666208267212,-1.4800332228290003,-1.0850308434771885e-25,-0.09743553400039673,0.639184296131134,0.0,0.08735845237970352,0.8554890751838684,0.0003371619386598468,0.539124608039856
779.0,1046.0,1.7384,-0.5151,9.1705,-0.0754,0.2709,-0.0915,-1.4575795394233246,-0.06579513102769852,1.1145095825195312,-2.1079421043395996,0.32514485716819763,2.4671359062194824,4.86245724835948,-0.0011411343002691865,0.22518067061901093,-1.4800451437579554,-1.287568333218386e-31,-0.08981355279684067,0.6392207145690918,0.0,0.0952853411436081,0.855452835559845,0.0002452623739372939,0.5527137517929077
779.0,1046.0,1.7384,-0.5151,9.1705,-0.0754,0.2709,-0.0915,-1.4581306812218209,-0.06765657663345337,1.077141284942627,-2.1053473949432373,0.32468104362487793,2.457406997680664,4.862464877754011,-0.0013115736655890942,0.22344830632209778,-1.4800570646869105,-2.340091666687375e-36,-0.06986728310585022,0.6391963362693787,0.0,0.08129915595054626,0.8555090427398682,0.00020135979866608977,0.4646315574645996
779.0,1046.0,1.7384,-0.5151,9.1705,-0.0754,0.2709,-0.0915,-1.4587505844286461,-0.06517571955919266,1.1152653694152832,-2.1021194458007812,0.33869633078575134,2.4750895500183105,4.862389254360952,-0.0007490065763704479,0.2075796127319336,-1.4800532499896448,-2.666183593347249e-11,-0.07333739101886749,0.6392366886138916,0.0,0.08337149769067764,0.8555009365081787,0.0001645443553570658,0.4811267852783203
779.0,1046.0,1.7384,-0.5151,9.1705,-0.0754,0.2709,-0.0915,-1.4594507378390809,-0.06570684164762497,1.1405411958694458,-2.0987765789031982,0.33273932337760925,2.441365957260132,4.86237325051383,-0.003030342049896717,0.22300581634044647,-1.4800413290606897,-3.1638679048308046e-17,-0.07401061058044434,0.6392043828964233,0.0,0.07171659916639328,0.8554489016532898,0.0001391100522596389,0.47095951437950134
779.0,1046.0,1.7384,-0.5151,9.1705,-0.0754,0.2709,-0.0915,-1.4601919513991852,-0.07410189509391785,1.117650032043457,-2.095365524291992,0.333766371011734,2.448820114135742,4.862341332226553,-0.0031338015105575323,0.22182728350162506,-1.4800289312945765,-3.754452527489139e-23,-0.06576269865036011,0.6392166614532471,0.0,0.08110292255878448,0.8554284572601318,9.638933261157945e-05,0.4284305274486542
779.0,1046.0,1.7384,-0.5151,9.1705,-0.0754,0.2709,-0.0915,-1.4607153695872803,-0.08207995444536209,1.1221439838409424,-2.092647075653076,0.3359791934490204,2.469165563583374,4.862317266851225,-0.0014875441556796432,0.21565772593021393,-1.4800012747394007,0.0002786735421977937,-0.07712814956903458,0.6391925811767578,1.6270835789811144e-09,0.06864947080612183,0.8554688692092896,-5.539454286918044e-05,0.4303615391254425
779.0,1046.0,1.7384,-0.5151,9.1705,-0.0754,0.2709,-0.0915,-1.4615801286748429,-0.08123495429754257,1.1559510231018066,-2.089165687561035,0.3422638773918152,2.4656546115875244,4.86236538270072,-0.0006692219176329672,0.24217729270458221,-1.4800012747394007,0.00022949975391384214,-0.053055062890052795,0.6392085552215576,1.9308035564531787e-15,0.06608172506093979,0.8554610013961792,-0.0011524506844580173,0.3316878378391266
779.0,1046.0,1.7384,-0.5151,9.1705,-0.0754,0.2709,-0.0915,-1.4624148991755028,-0.08159255981445312,1.1424665451049805,-2.0856683254241943,0.3474399149417877,2.394984483718872,4.86237325051383,-0.00013980922813061625,0.2278929203748703,-1.480037037526266,0.0002208151126978919,-0.05850762873888016,0.6391847133636475,2.2912175953508615e-21,0.06967960298061371,0.8554729223251343,-0.0006377642275765538,0.3240109086036682
890.0,1015.0,1.9065,-0.186,9.39,-0.075,0.2529,-0.0994,-1.4633224543980141,-0.08296608924865723,1.2249674797058105,-2.0821595191955566,0.35116925835609436,2.4697532653808594,4.86237325051383,1.7935588402906433e-05,0.21668948233127594,-1.4799969832049769,0.0002146960177924484,-0.04224104434251785,0.6391445398330688,2.718908680422342e-27,0.0657709538936615,0.8554609417915344,-0.0004379781021270901,0.22981366515159607
890.0,1015.0,1.9065,-0.186,9.39,-0.075,0.2529,-0.0994,-1.4641219836524506,-0.0776667669415474,1.2222321033477783,-2.0787465572357178,0.34866610169410706,2.4145333766937256,4.862293797522344,-0.0009880668949335814,0.23277845978736877,-1.480032745991842,0.0002662861079443246,-0.05049736052751541,0.6392166614532471,3.226434445999627e-33,0.05478643625974655,0.8554569482803345,-0.0004193078784737736,0.2302449345588684
890.0,1015.0,1.9065,-0.186,9.39,-0.075,0.2529,-0.0994,-1.4647572872093697,-0.07649193704128265,1.2310508489608765,-2.0760693550109863,0.34781312942504883,2.546947956085205,4.862349170237341,-0.0016194428317248821,0.22580726444721222,-1.4800055662738245,0.0005147792981006205,-0.014913741499185562,0.6391690373420715,5.863885885240116e-38,0.062140364199876785,0.8554851412773132,-0.0013872494455426931,0.12601354718208313
890.0,1015.0,1.9065,-0.186,9.39,-0.075,0.2529,-0.0994,-1.4655046251467247,-0.08008571714162827,1.2103943824768066,-2.0725958347320557,0.3510308861732483,2.4830191135406494,4.862293469696798,-0.0015010761562734842,0.20971578359603882,-1.4799969832049769,0.00045916406088508666,-0.03480903059244156,0.6391527056694031,7.006492321624085e-44,0.04746567830443382,0.8554691672325134,-0.002149379113689065,0.13558611273765564
890.0,1015.0,1.9065,-0.186,9.39,-0.075,0.2529,-0.0994,-1.466332958345749,-0.08300134539604187,1.2091857194900513,-2.069115161895752,0.3480488955974579,2.4896044731140137,4.862297537713804,-0.0011228133225813508,0.23139938712120056,-1.479941193257467,0.00039240732439793646,-0.014374146237969398,0.6391887664794922,0.0,0.049681492149829865,0.8554129600524902,-0.0027723193634301424,0.09408363699913025
890.0,1015.0,1.9065,-0.186,9.39,-0.075,0.2529,-0.0994,-1.4671833378127594,-0.09324680268764496,1.242492914199829,-2.0655503273010254,0.3522088825702667,2.4490103721618652,4.8622538326080225,-0.002094102092087269,0.22729341685771942,-1.479945484791891,0.00032973670749925077,-0.014899018220603466,0.639212965965271,0.0,0.03954436630010605,0.8553649187088013,-0.004558582790195942,0.04038779065012932
890.0,1015.0,1.9065,-0.186,9.39,-0.075,0.2529,-0.0994,-1.4680103001049538,-0.1003846824169159,1.2385797500610352,-2.062703847885132,0.34680354595184326,2.448610305786133,4.862281727581777,-0.0012112060794606805,0.2254382073879242,-1.4799731413470667,0.00026532390620559454,0.006144150625914335,0.6390964388847351,0.0,0.038207557052373886,0.8553244471549988,-0.004524911288172007,0.019749153405427933
890.0,1015.0,1.9065,-0.186,9.39,-0.075,0.2529,-0.0994,-1.4690612492016335,-0.09414520114660263,1.2513333559036255,-2.05915904045105,0.34942367672920227,2.4177846908569336,4.862237605243482,-0.0004977339413017035,0.22749744355678558,-1.4799898306476038,0.00024375935026910156,0.008784913457930088,0.6391527056694031,0.0,0.033812567591667175,0.8552523851394653,-0.004479855764657259,0.030199479311704636
890.0,1015.0,1.9065,-0.186,9.39,-0.075,0.2529,-0.0994,-1.4700135451606293,-0.08549891412258148,1.2618683576583862,-2.0557703971862793,0.3386285901069641,2.4197797775268555,4.862201708346166,-0.004148170351982117,0.2329893410205841,-1.4799535910235804,0.00020754769502673298,-0.001704702852293849,0.6391727924346924,0.0,0.04128769040107727,0.8552728295326233,-0.0031490889377892017,-0.029743243008852005
890.0,1015.0,1.9065,-0.186,9.39,-0.075,0.2529,-0.0994,-1.4709157359651108,-0.09302860498428345,1.2283406257629395,-2.0524368286132812,0.33223557472229004,2.4083597660064697,4.862130018859663,-0.007591155357658863,0.2123071700334549,-1.4799731413470667,0.00020364719966892153,0.01681280881166458,0.6391727924346924,0.0,0.021468540653586388,0.8552567958831787,-0.0013999405782669783,-0.05309735983610153
730.0,653.0,0.9595,-0.8207,8.5113,-0.0701,0.2329,-0.0958,-1.471583106820919,-0.09879468381404877,1.2147349119186401,-2.049870491027832,0.3283746838569641,2.440213680267334,4.86209816017703,-0.01090950332581997,0.20016151666641235,-1.4799731413470667,0.00015836613602004945,0.008920537307858467,0.639164924621582,0.0,0.035194408148527145,0.8552167415618896,-0.0009289293084293604,0.050458237528800964
730.0,653.0,0.9595,-0.8207,8.5113,-0.0701,0.2329,-0.0958,-1.4726116371205826,-0.09694373607635498,1.2352391481399536,-2.046576976776123,0.3279366195201874,2.4140141010284424,4.8619945524032495,-0.00807735975831747,0.19094717502593994,-1.4799769560443323,0.00016134034376591444,0.02602139487862587,0.6391288638114929,0.0,0.023280177265405655,0.8552166819572449,-0.0025385229382663965,-0.03398578241467476
730.0,653.0,0.9595,-0.8207,8.5113,-0.0701,0.2329,-0.0958,-1.4736292225173493,-0.0991494432091713,1.2427961826324463,-2.0432679653167725,0.3228207230567932,2.3893489837646484,4.861966672330656,-0.004146200604736805,0.19564944505691528,-1.4799373785602015,0.00014055040082894266,0.01686464063823223,0.6391687393188477,0.0,0.017670173197984695,0.8551807403564453,-0.0020143964793533087,-0.010066093876957893
730.0,653.0,0.9595,-0.8207,8.5113,-0.0701,0.2329,-0.0958,-1.4746681612781067,-0.10077599436044693,1.2481095790863037,-2.0401298999786377,0.33048346638679504,2.4509048461914062,4.861942770868101,-0.0028337801340967417,0.2035922408103943,-1.4799893538104456,0.00012436469842214137,0.01634192280471325,0.6391690373420715,0.0,0.029825400561094284,0.8552046418190002,-0.0009323407430201769,-0.05446677282452583
730.0,653.0,0.9595,-0.8207,8.5113,-0.0701,0.2329,-0.0958,-1.4754286345890542,-0.09662459790706635,1.2313143014907837,-2.037515640258789,0.31528910994529724,2.3584187030792236,4.861842858582296,-0.008915114216506481,0.20736753940582275,-1.480025593434469,0.00011387415725039318,0.018708523362874985,0.6391608715057373,-9.507927461527288e-05,0.018098846077919006,0.8552330136299133,-0.0006892597302794456,-0.006353197619318962
730.0,653.0,0.9595,-0.8207,8.5113,-0.0701,0.2329,-0.0958,-1.4764225643924256,-0.0940508097410202,1.205960988998413,-2.034397840499878,0.316023051738739,2.4250879287719727,4.8617272702749155,-0.00856410525739193,0.19592726230621338,-1.4799893538104456,0.00010301228030584753,0.001561907585710287,0.6391933560371399,-0.00010227738675894216,0.01261850818991661,0.8551686406135559,-0.0007536100456491113,0.004982772283256054
730.0,653.0,0.9595,-0.8207,8.5113,-0.0701,0.2329,-0.0958,-1.4773298513940354,-0.10000170022249222,1.1909229755401611,-2.0313262939453125,0.3031750023365021,2.3555827140808105,4.861707585840978,-0.006323578301817179,0.191117525100708,-1.4799254576312464,9.404225420439616e-05,0.00723554752767086,0.639116644859314,-0.00010212929191766307,0.006083560176193714,0.8551607728004456,-0.0006665291730314493,0.04906900227069855
730.0,653.0,0.9595,-0.8207,8.5113,-0.0701,0.2329,-0.0958,-1.4783690583756943,-0.105351023375988,1.1831380128860474,-2.028247117996216,0.30293214321136475,2.3552236557006836,4.8616474447544,-0.0018009680788964033,0.17846372723579407,-1.47998553911318,8.650930249132216e-05,-0.013083159923553467,0.6391087770462036,-0.00011524510046001524,0.02021780237555504,0.8551325798034668,-0.0006053787656128407,0.041605815291404724
730.0,653.0,0.9595,-0.8207,8.5113,-0.0701,0.2329,-0.0958,-1.47918155909095,-0.1047649085521698,1.2253894805908203,-2.025801420211792,0.29692184925079346,2.391058921813965,4.861643421440878,-0.0008991060894913971,0.19680610299110413,-1.4799578825580042,8.12994985608384e-05,0.020091257989406586,0.6391047239303589,-0.00021073754760436714,0.008205333724617958,0.8551608324050903,-0.0013609894085675478,0.06839445978403091
509.0,447.0,0.9793,-0.4828,9.8219,-0.0605,0.2129,-0.1048,-1.480203279559948,-0.10016606003046036,1.2270631790161133,-2.0228071212768555,0.2961615324020386,2.369882583618164,4.861639353423872,-0.00042754324385896325,0.1802104264497757,-1.4799211660968226,7.560799713246524e-05,0.0016943308291956782,0.6391288638114929,-0.0002079134719679132,0.017280584201216698,0.8551206588745117,-0.0016431231051683426,0.08324170112609863
509.0,447.0,0.9793,-0.4828,9.8219,-0.0605,0.2129,-0.1048,-1.4812395361116906,-0.1001763865351677,1.2077980041503906,-2.019956588745117,0.2931705415248871,2.3595528602600098,4.861623900919714,-0.002281422261148691,0.17104563117027283,-1.4800007979022425,7.066118996590376e-05,0.001483905129134655,0.6390365362167358,-0.00019587177666835487,0.01800527051091194,0.8551126718521118,-0.0012522507458925247,0.04510636627674103
509.0,447.0,0.9793,-0.4828,9.8219,-0.0605,0.2129,-0.1048,-1.4822185051492234,-0.10257226228713989,1.1717941761016846,-2.017030715942383,0.2834055721759796,2.3700437545776367,4.861571657448568,-0.007367844693362713,0.1609669327735901,-1.4799936453448694,6.632194708799943e-05,0.017573924735188484,0.6391370296478271,-0.0001751414965838194,0.0020613675005733967,0.8551248908042908,-0.0012943213805556297,0.08884140849113464
509.0,447.0,0.9793,-0.4828,9.8219,-0.0605,0.2129,-0.1048,-1.483004891579487,-0.10800586640834808,1.106243371963501,-2.014711618423462,0.28547704219818115,2.410533905029297,4.861511784582891,-0.008833012543618679,0.15970686078071594,-1.4799655119525355,6.321630644379184e-05,0.01705421693623066,0.6391209959983826,-0.00018012773944064975,0.0022324766032397747,0.8550405502319336,-0.0013305230531841516,0.042399339377880096
509.0,447.0,0.9793,-0.4828,9.8219,-0.0605,0.2129,-0.1048,-1.4840799582055588,-0.10698184370994568,1.1484946012496948,-2.0119292736053467,0.2791213393211365,2.3465805053710938,4.861359688430586,-0.009940152056515217,0.1666671484708786,-1.479957405720846,5.9720714489230886e-05,0.013692811131477356,0.6391129493713379,-0.00016010136459954083,0.008094892837107182,0.8550405502319336,-0.0026641609147191048,0.10329338908195496
509.0,447.0,0.9793,-0.4828,9.8219,-0.0605,0.2129,-0.1048,-1.485120305126049,-0.10154705494642258,1.1712651252746582,-2.0091958045959473,0.29131370782852173,2.422718048095703,4.861292454391279,-0.007218475919216871,0.15192142128944397,-1.479929272328512,7.08684916306268e-11,0.024515880271792412,0.6390886902809143,-0.0001485304965171963,0.007065188139677048,0.8550204634666443,-0.0019891003612428904,0.0627567246556282
509.0,447.0,0.9793,-0.4828,9.8219,-0.0605,0.2129,-0.1048,-1.4862435099533577,-0.11221897602081299,1.0840610265731812,-2.0062737464904785,0.27944594621658325,2.4005210399627686,4.861156779318609,-0.015910238027572632,0.1595393270254135,-1.4799616972552698,8.409717647722058e-17,0.006947348825633526,0.6390964984893799,-0.0001281423756154254,-0.009855708107352257,0.8550286293029785,-0.0014170771464705467,0.10015570372343063
509.0,447.0,0.9793,-0.4828,9.8219,-0.0605,0.2129,-0.1048,-1.4873263773373147,-0.12123147398233414,1.0758581161499023,-2.0034468173980713,0.28323227167129517,2.393528461456299,4.86096906939105,-0.024307208135724068,0.16233235597610474,-1.4799659887896937,9.97951959137824e-23,0.013384893536567688,0.6391693353652954,-0.00011217043356737122,0.001140001928433776,0.8549885153770447,-0.0013833742123097181,0.09378033876419067
509.0,447.0,0.9793,-0.4828,9.8219,-0.0605,0.2129,-0.1048,-1.4882453319481392,-0.12052849680185318,1.069525957107544,-2.0012121200561523,0.2722584307193756,2.307934045791626,4.860782298236646,-0.03308715298771858,0.12434234470129013,-1.479945484791891,1.813728539908141e-27,0.003269495675340295,0.63918536901474,-0.00010199975804425776,-0.003960824105888605,0.8549966812133789,-0.0021023969165980816,0.11220593005418777
509.0,447.0,0.9793,-0.4828,9.8219,-0.0605,0.2129,-0.1048,-1.4894484293511887,-0.11626578122377396,1.0529686212539673,-1.9983701705932617,0.2792905271053314,2.3920745849609375,4.860342624574461,-0.05287972465157509,0.1172109842300415,-1.479929272328512,2.152289197724322e-33,0.014148373156785965,0.6390969157218933,-9.161618072539568e-05,-0.005792389623820782,0.854920506477356,-0.0024517399724572897,0.12777800858020782
448.0,398.0,-0.2489,-0.6395,9.3236,-0.0457,0.1552,-0.1165,-1.4906472724727173,-0.11832557618618011,1.0812432765960693,-1.995643973350525,0.26980820298194885,2.341846227645874,4.859624746232786,-0.09034068882465363,0.11077748239040375,-1.4799535910235804,2.554047218733877e-39,0.012966727837920189,0.6391452550888062,-8.315150626003742e-05,0.002253044629469514,0.8549245595932007,-0.002014321042224765,0.066949762403965
448.0,398.0,-0.2489,-0.6395,9.3236,-0.0457,0.1552,-0.1165,-1.4918943730047722,-0.13063500821590424,1.053378701210022,-1.992876648902893,0.26677826046943665,2.3427157402038574,4.858543920307913,-0.1201913133263588,0.08492006361484528,-1.479945484791891,2.802596928649634e-45,0.0176265649497509,0.6391494274139404,-7.611862383782864e-05,-0.000985975144430995,0.8549407124519348,-0.001540169003419578,0.012920728884637356
448.0,398.0,-0.2489,-0.6395,9.3236,-0.0457,0.1552,-0.1165,-1.4929133144072075,-0.1422012895345688,1.0531666278839111,-1.9907350540161133,0.2638944089412689,2.3051185607910156,4.85760389545516,-0.11363101005554199,0.08121142536401749,-1.4799492994891565,0.0,0.014859780669212341,0.6391612887382507,-7.129476580303162e-05,0.0018917466513812542,0.8548804521560669,-0.0023181927390396595,0.10063015669584274
448.0,398.0,-0.2489,-0.6395,9.3236,-0.0457,0.1552,-0.1165,-1.4943601575544854,-0.13592690229415894,1.0881872177124023,-1.988128662109375,0.2679426670074463,2.335832118988037,4.856341871410169,-0.1412777453660965,0.0673874169588089,-1.479945484791891,0.0,0.013546867296099663,0.6391047239303589,-6.606149690924212e-05,0.004555105697363615,0.8548685312271118,-0.004561961628496647,0.08671267330646515
448.0,398.0,-0.2489,-0.6395,9.3236,-0.0457,0.1552,-0.1165,-1.4957947146943589,-0.13208109140396118,1.0152711868286133,-1.9855071306228638,0.2647372782230377,2.3051862716674805,4.8547226814325235,-0.16791440546512604,0.05618086829781532,-1.4799850622760218,0.0,0.020065415650606155,0.6391292810440063,-6.154402944957837e-05,-0.0029818969778716564,0.854812502861023,-0.003812755923718214,0.07386939227581024
448.0,398.0,-0.2489,-0.6395,9.3236,-0.0457,0.1552,-0.1165,-1.4972414162806054,-0.15358629822731018,1.049677848815918,-1.9828836917877197,0.26132822036743164,2.343095302581787,4.852951842337408,-0.18827398121356964,0.05038910359144211,-1.4799769560443323,0.0,0.027425089851021767,0.6391170620918274,-5.7604866015026346e-05,-0.0007762432796880603,0.8548085689544678,-0.0014447595458477736,0.0668947771191597
448.0,398.0,-0.2489,-0.6395,9.3236,-0.0457,0.1552,-0.1165,-1.4985329446247597,-0.170098677277565,1.0243314504623413,-1.980858325958252,0.251507431268692,2.3274941444396973,4.851320388704099,-0.22855010628700256,0.02394404634833336,-1.479917351399557,0.0,0.018899591639637947,0.6390771269798279,-5.479892934090458e-05,0.011526819318532944,0.8547563552856445,-0.0010400260798633099,0.08252687007188797
448.0,398.0,-0.2489,-0.6395,9.3236,-0.0457,0.1552,-0.1165,-1.5002034169486542,-0.1634589284658432,0.9903957843780518,-1.978274941444397,0.27148354053497314,2.3598814010620117,4.848959359317579,-0.26694154739379883,0.005541207268834114,-1.479941193257467,0.0,0.031779732555150986,0.6390969157218933,-6.198384653544053e-05,0.0025687464512884617,0.8547201752662659,-0.002635624259710312,0.005610929802060127
448.0,398.0,-0.2489,-0.6395,9.3236,-0.0457,0.1552,-0.1165,-1.5019016873887558,-0.15118007361888885,1.0755946636199951,-1.9756526947021484,0.2689666450023651,2.3355112075805664,4.8461238769586465,-0.29169297218322754,-0.01105760969221592,-1.4799817244159144,2.1871411348683978e-08,0.014247920364141464,0.6391411423683167,-9.942052656697342e-07,-0.005065882578492165,0.8547283411026001,-0.0042348080314695835,0.04094165191054344
426.0,398.0,-0.0455,-0.3356,9.0066,0.0228,-0.2169,-0.1506,-1.503624053006508,-0.18017373979091644,1.0268561840057373,-1.9730144739151,0.26835504174232483,2.3374547958374023,4.842904108553686,-0.33412957191467285,-0.026375001296401024,-1.47998553911318,2.5954051733299843e-14,0.018946969881653786,0.6391697525978088,-1.1797887970385612e-12,0.0026378054171800613,0.8547403812408447,-0.0017442296957597136,0.06382492929697037
426.0,398.0,-0.0455,-0.3356,9.0066,0.0228,-0.2169,-0.1506,-1.5050022986582299,-0.19752906262874603,0.9557877779006958,-1.970880150794983,0.2567532956600189,2.3068361282348633,4.839813682227888,-0.3867050111293793,-0.05530662089586258,-1.4799731413470667,4.717020707538368e-19,0.025283649563789368,0.6391489505767822,-2.1442076576926077e-17,-0.005863340571522713,0.8546802997589111,-0.001250615925528109,0.09045806527137756
426.0,398.0,-0.0455,-0.3356,9.0066,0.0228,-0.2169,-0.1506,-1.5068613824299355,-0.18199419975280762,1.0671169757843018,-1.9682308435440063,0.2590075135231018,2.3258872032165527,4.835641334741869,-0.4377162754535675,-0.0864633172750473,-1.479969326649801,5.597524762519325e-25,0.025592122226953506,0.6390969753265381,-2.5444571236106227e-23,-0.005257017444819212,0.8546243906021118,-0.004076641984283924,0.005496874451637268
426.0,398.0,-0.0455,-0.3356,9.0066,0.0228,-0.2169,-0.1506,-1.508623508071043,-0.17310544848442078,0.9926486015319824,-1.9655650854110718,0.26236608624458313,2.2957019805908203,4.830972748785772,-0.4848925471305847,-0.08882395178079605,-1.47998553911318,-1.372235232111052e-07,0.029108677059412003,0.6391575336456299,-3.0194191009571763e-29,-0.008145038038492203,0.8546123504638672,-0.005739238578826189,0.020669011399149895
426.0,398.0,-0.0455,-0.3356,9.0066,0.0228,-0.2169,-0.1506,-1.5104420644095917,-0.1851208508014679,1.038335919380188,-1.9630043506622314,0.2546288073062897,2.3816616535186768,4.8256825906927965,-0.541588544845581,-0.09497974812984467,-1.4799969832049769,-1.6283838426972563e-13,0.024072423577308655,0.6391251683235168,-3.5830399427757614e-35,-0.002786188153550029,0.8545602560043335,-0.0029701259918510914,0.08002397418022156
426.0,398.0,-0.0455,-0.3356,9.0066,0.0228,-0.2169,-0.1506,-1.511940737520792,-0.1893007606267929,1.065314531326294,-1.9609273672103882,0.25098365545272827,2.3009226322174072,4.821282247989931,-0.5807332992553711,-0.10771581530570984,-1.480025593434469,-2.9595074751075362e-18,0.02372746169567108,0.6390730738639832,-6.512002119533144e-40,-0.006988300010561943,0.8545562028884888,-0.0013657775707542896,0.046087682247161865
426.0,398.0,-0.0455,-0.3356,9.0066,0.0228,-0.2169,-0.1506,-1.5136991900256653,-0.18074919283390045,1.1288114786148071,-1.9583982229232788,0.2540907561779022,2.3144302368164062,4.815286102681913,-0.6201836466789246,-0.08985801041126251,-1.47998553911318,-3.511944852310622e-24,0.01964758336544037,0.6390770673751831,-1.401298464324817e-45,-0.0003317419905215502,0.8545161485671997,-0.0014517429517582059,0.04724636673927307
426.0,398.0,-0.0455,-0.3356,9.0066,0.0228,-0.2169,-0.1506,-1.515493569230177,-0.17977575957775116,1.1706815958023071,-1.9559768438339233,0.24827292561531067,2.3379287719726562,4.808786178916254,-0.6633715629577637,-0.0844215452671051,-1.4799936453448694,-4.167503631857272e-30,0.022179212421178818,0.6390969753265381,-0.0,-0.006516118999570608,0.854544460773468,-0.001634157495573163,0.028856229037046432
426.0,398.0,-0.0455,-0.3356,9.0066,0.0228,-0.2169,-0.1506,-1.5172158268145104,-0.17537899315357208,1.1837602853775024,-1.9535406827926636,0.25295767188072205,2.3530735969543457,4.801900628000059,-0.6892374157905579,-0.05986989289522171,-1.4799578825580042,-4.945432227406764e-36,0.007595163304358721,0.6391493678092957,-0.0,-0.013583517633378506,0.8544961214065552,-0.0010629420867189765,0.01755284145474434
426.0,398.0,-0.0455,-0.3356,9.0066,0.0228,-0.2169,-0.1506,-1.5185745035162945,-0.17387114465236664,1.2950758934020996,-1.951485276222229,0.2518826425075531,2.24422287940979,4.796216974943437,-0.711982786655426,-0.07235288619995117,-1.4799817244159144,-8.988068480025809e-41,0.013450486585497856,0.6391010284423828,-0.0,-0.0041861142963171005,0.8545001745223999,-0.0009158647735603154,0.04683682322502136
415.0,418.0,2.0967,-0.463,9.1854,0.0466,-0.6524,-0.1799,-1.5201926988414307,-0.16705188155174255,1.3286290168762207,-1.949000597000122,0.2494123876094818,2.3465983867645264,4.789177860110559,-0.7159691452980042,-0.06523051857948303,-1.4799650351153772,-0.0,0.01279423013329506,0.6391533613204956,-0.0,-0.002620347775518894,0.8545122146606445,-0.0006385048036463559,-0.009516306221485138
415.0,418.0,2.0967,-0.463,9.1854,0.0466,-0.6524,-0.1799,-1.5218433824232598,-0.15453271567821503,1.4283831119537354,-1.9464828968048096,0.25922444462776184,2.3562943935394287,4.7820981843169115,-0.7121435403823853,-0.028128359466791153,-1.4799373785602015,-0.0,-0.002371779875829816,0.6390969157218933,-0.0,-0.011790594086050987,0.8545083403587341,-0.0004277668194845319,0.01704717054963112
415.0,418.0,2.0967,-0.463,9.1854,0.0466,-0.6524,-0.1799,-1.5233457845500489,-0.14980381727218628,1.4697239398956299,-1.943938136100769,0.2524634897708893,2.332366466522217,4.775045956462183,-0.7061159014701843,-0.010597452521324158,-1.479917351399557,-0.0,-0.0025254085194319487,0.6390812397003174,-0.0,-0.0014649619115516543,0.8545283079147339,-0.00034676786162890494,-0.06546686589717865
415.0,418.0,2.0967,-0.463,9.1854,0.0466,-0.6524,-0.1799,-1.5248444837382813,-0.14692893624305725,1.4867112636566162,-1.9413964748382568,0.2634631097316742,2.365370273590088,4.768101035594501,-0.6822414398193359,-0.011364428326487541,-1.4799969832049769,-0.0,0.002958460943773389,0.6391373872756958,-0.0,-0.009148756042122841,0.854544460773468,-0.000262479210505262,-0.017046600580215454
415.0,418.0,2.0967,-0.463,9.1854,0.0466,-0.6524,-0.1799,-1.5260073703578492,-0.1320202648639679,1.5676623582839966,-1.9392602443695068,0.255858838558197,2.420663595199585,4.762735615461626,-0.6628013253211975,-0.008741459809243679,-1.47998553911318,-0.0,0.008138052187860012,0.6391050219535828,-0.0,-0.004991224966943264,0.8545162677764893,-0.00021975017443764955,-0.012986861169338226
415.0,418.0,2.0967,-0.463,9.1854,0.0466,-0.6524,-0.1799,-1.5272777912071724,-0.1131940633058548,1.6221303939819336,-1.9366388320922852,0.26291951537132263,2.403878688812256,4.756300202548065,-0.6313749551773071,0.011060310527682304,-1.4800131956683558,-0.0,-0.008021306246519089,0.6391087770462036,-0.0,-0.002581128152087331,0.8545161485671997,-0.00015221275680232793,0.011621777899563313
415.0,418.0,2.0967,-0.463,9.1854,0.0466,-0.6524,-0.1799,-1.5283926513842125,-0.1125836968421936,1.6598355770111084,-1.9340134859085083,0.25677940249443054,2.4019298553466797,4.750126543432035,-0.6032092571258545,0.04940745234489441,-1.4799650351153772,-0.0,0.00033042137511074543,0.6391252279281616,-0.0,-0.006721344776451588,0.8545242547988892,-0.00013015687000006437,0.006513614673167467
415.0,418.0,2.0967,-0.463,9.1854,0.0466,-0.6524,-0.1799,-1.5294797916761418,-0.11106803268194199,1.7903715372085571,-1.9313476085662842,0.25646352767944336,2.406066417694092,4.744235190540113,-0.5814575552940369,0.01778479665517807,-1.4800050894366663,-0.0,-0.01373419351875782,0.6391010880470276,-0.0,-0.004665767773985863,0.8545281887054443,-0.00011371190339559689,-0.006891100201755762
415.0,418.0,2.0967,-0.463,9.1854,0.0466,-0.6524,-0.1799,-1.5303353306702157,-0.09663543850183487,1.7165961265563965,-1.9292709827423096,0.2660662531852722,2.3434677124023438,4.739787342935362,-0.5341881513595581,0.029078416526317596,-1.47998553911318,-0.0,-0.026765387505292892,0.6390649676322937,-0.0,-0.011233428493142128,0.854544460773468,-0.00010327321797376499,0.010340702719986439
449.0,565.0,3.8189,-0.1418,10.4465,0.0247,-0.31,-0.1545,-1.531266276990511,-0.07142612338066101,1.7961905002593994,-1.926637053489685,0.2741096019744873,2.462139129638672,4.734627739503541,-0.49926629662513733,0.054278627038002014,-1.4799774328814905,-0.0,-0.011639917269349098,0.6390886902809143,-0.0,-0.008512141183018684,0.8545444011688232,-9.264276741305366e-05,-0.037693366408348083
449.0,565.0,3.8189,-0.1418,10.4465,0.0247,-0.31,-0.1545,-1.5320052926293393,-0.06239572912454605,1.84816575050354,-1.923931360244751,0.268024206161499,2.4336435794830322,4.729935261398115,-0.46372488141059875,0.05683315917849541,-1.480037037526266,-0.0,-0.021037835627794266,0.6391370892524719,-0.0,-0.006846021860837936,0.854580283164978,9.840678103500977e-06,-0.04329698532819748
449.0,565.0,3.8189,-0.1418,10.4465,0.0247,-0.31,-0.1545,-1.5325642389110108,-0.06061189994215965,1.8573484420776367,-1.9212993383407593,0.2664839029312134,2.3893191814422607,4.725469370349803,-0.43579190969467163,0.08006833493709564,-1.4800007979022425,-0.0,-0.01834286004304886,0.6391693353652954,-0.0,0.008178472518920898,0.8545403480529785,7.399595051538199e-05,0.03030969947576523
449.0,565.0,3.8189,-0.1418,10.4465,0.0247,-0.31,-0.1545,-1.5329879944077511,-0.05414325371384621,1.806481122970581,-1.919137954711914,0.26021403074264526,2.3776535987854004,4.7221222566212795,-0.4137151837348938,0.08119703829288483,-1.47998553911318,-0.0,-0.02571006864309311,0.6390812993049622,-0.0,0.012562623247504234,0.8545404076576233,6.856273830635473e-05,0.005515832919627428
449.0,565.0,3.8189,-0.1418,10.4465,0.0247,-0.31,-0.1545,-1.5334397417357941,-0.03768065571784973,1.8243184089660645,-1.9164447784423828,0.27834731340408325,2.417975902557373,4.718291048869052,-0.36746907234191895,0.11376610398292542,-1.480008904133932,-0.0,-0.018619898706674576,0.6390966176986694,-0.0,-0.004359339829534292,0.8545359969139099,0.00018796839867718518,0.04651765525341034
449.0,565.0,3.8189,-0.1418,10.4465,0.0247,-0.31,-0.1545,-1.5338233311525364,-0.031413573771715164,1.90596342086792,-1.9136642217636108,0.28150108456611633,2.460547685623169,4.714691314124995,-0.3293474018573761,0.1270844042301178,-1.4800007979022425,-0.0,-0.011964689940214157,0.6390730738639832,-0.0,0.0015056026168167591,0.8545359969139099,0.00018547514628153294,0.03908625245094299
449.0,565.0,3.8189,-0.1418,10.4465,0.0247,-0.31,-0.1545,-1.5341947835734864,-0.03900733217597008,1.8104233741760254,-1.9108635187149048,0.2889463007450104,2.46737003326416,4.71167962133374,-0.2837926745414734,0.16329532861709595,-1.4800007979022425,-0.0,-0.028978385031223297,0.6391370296478271,-3.691750407597283e-06,0.015678590163588524,0.8545884490013123,0.0012051864759996533,0.062408268451690674
