ramyac6/ROB537/final_project/csv/good/good_19.csv
tof_0,tof_1,accelx,accely,accelz,gyrox,gyroy,gyroz,shoulder_lift_joint_position,shoulder_lift_joint_velocity,shoulder_lift_joint_effort,elbow_joint_position,elbow_joint_velocity,elbow_joint_effort,wrist_1_joint_position,wrist_1_joint_velocity,wrist_1_joint_effort,wrist_2_joint_position,wrist_2_joint_velocity,wrist_2_joint_effort,wrist_3_joint_position,wrist_3_joint_velocity,wrist_3_joint_effort,shoulder_pan_joint_position,shoulder_pan_joint_velocity,shoulder_pan_joint_effort
441.0,639.0,0.0664,0.2154,9.6796,-0.0359,0.0183,-0.1191,-1.8006745777525843,0.0,2.918591260910034,-1.853986382484436,-0.0,1.9681010246276855,5.14545230844573,0.0,0.27765125036239624,-1.5933492819415491,-0.0,-0.018250003457069397,0.7769695520401001,-0.0,0.006549709476530552,0.8136501908302307,0.0,0.008425864391028881
441.0,639.0,0.0664,0.2154,9.6796,-0.0359,0.0183,-0.1191,-1.800695081750387,0.0,2.9055068492889404,-1.8539412021636963,-0.0,1.9486825466156006,5.14551209190444,0.0,0.278499573469162,-1.59337026277651,-0.0,-0.01773865334689617,0.7769457697868347,-0.0,-0.002548809163272381,0.8135858774185181,0.0,0.0037561822682619095
441.0,639.0,0.0664,0.2154,9.6796,-0.0359,0.0183,-0.1191,-1.8007317982115687,0.0,2.8745017051696777,-1.853901982307434,-0.0,1.924763560295105,5.1454962370689294,0.0,0.2817333936691284,-1.5933054129229944,-0.0,-0.0034970776177942753,0.7769375443458557,-0.0,-0.01475352793931961,0.8135938048362732,0.0,-0.06140036880970001
441.0,639.0,0.0664,0.2154,9.6796,-0.0359,0.0183,-0.1191,-1.800638814965719,0.0,2.8981285095214844,-1.853945255279541,-0.0,1.9470584392547607,5.145484316139974,0.0,0.27875378727912903,-1.593342129384176,-0.0,-0.027394577860832214,0.7769575715065002,-0.0,-0.00987597182393074,0.813609778881073,0.0,-0.033511944115161896
441.0,639.0,0.0664,0.2154,9.6796,-0.0359,0.0183,-0.1191,-1.8006864986815394,0.0,2.934844970703125,-1.8539937734603882,-0.0,1.9379841089248657,5.145476090698995,0.0,0.27306967973709106,-1.5933578650103968,-0.0,-0.013679537922143936,0.7769941091537476,-0.0,-0.010265265591442585,0.813585638999939,0.0,0.006381639279425144
441.0,639.0,0.0664,0.2154,9.6796,-0.0359,0.0183,-0.1191,-1.8006869755186976,0.0,2.912264347076416,-1.8539296388626099,-0.0,1.942144751548767,5.145488369255819,0.0,0.27109232544898987,-1.5933454672442835,-0.0,-0.004232871811836958,0.7769899964332581,-0.0,-0.012719327583909035,0.8135533332824707,0.0,-0.03857458755373955
441.0,639.0,0.0664,0.2154,9.6796,-0.0359,0.0183,-0.1191,-1.8007031879820765,0.0,2.8774962425231934,-1.8539739847183228,-0.0,1.9837164878845215,5.14550410488204,0.0,0.2933178246021271,-1.593381706868307,-0.0,0.0017912759212777019,0.776965856552124,-0.0,-0.01549040898680687,0.8136301040649414,0.0,-0.06153491511940956
441.0,639.0,0.0664,0.2154,9.6796,-0.0359,0.0183,-0.1191,-1.8006788692870082,0.0,2.9576921463012695,-1.8540061712265015,-0.0,1.9274230003356934,5.145476090698995,0.0,0.28213977813720703,-1.5933297316180628,-0.0,-0.014819907024502754,0.7770097851753235,-0.0,-0.017657101154327393,0.813614010810852,0.0,-0.02154197171330452
466.0,641.0,0.0712,0.2518,9.6604,-0.0376,0.0266,-0.1161,-1.8007074795165003,0.0,2.914363384246826,-1.8539420366287231,-0.0,1.9165064096450806,5.1454882500465295,0.0,0.27583473920822144,-1.5933297316180628,-0.0,-0.018902286887168884,0.7769818305969238,-0.0,-0.011126924306154251,0.8135979175567627,0.0,0.03346896544098854
466.0,641.0,0.0712,0.2518,9.6604,-0.0376,0.0266,-0.1161,-1.8006907902159632,0.0,2.9278604984283447,-1.8539329767227173,-0.0,1.95767343044281,5.1454562721546075,0.0,0.27601712942123413,-1.5933054129229944,-0.0,-0.0043789660558104515,0.7769174575805664,-0.0,-0.014899642206728458,0.813593864440918,0.0,-0.00601976690813899
466.0,641.0,0.0712,0.2518,9.6604,-0.0376,0.0266,-0.1161,-1.8006988964476527,0.0,2.922917366027832,-1.8539215326309204,-0.0,1.9854003190994263,5.145484316139974,0.0,0.2894870638847351,-1.5933740774737757,-0.0,-0.010382597334682941,0.7770261168479919,-0.0,0.0003067662473767996,0.813654363155365,0.0,0.01177387684583664
466.0,641.0,0.0712,0.2518,9.6604,-0.0376,0.0266,-0.1161,-1.8006588421263636,0.0,2.9462480545043945,-1.8538730144500732,-0.0,1.970341682434082,5.14546416977004,0.0,0.28519782423973083,-1.5933492819415491,-0.0,-0.0021916781552135944,0.776981770992279,-0.0,-0.011038921773433685,0.8135938048362732,0.0,-0.016024677082896233
466.0,641.0,0.0712,0.2518,9.6604,-0.0376,0.0266,-0.1161,-1.8006588421263636,0.0,2.9045116901397705,-1.8539533615112305,-0.0,1.9578864574432373,5.14550410488204,0.0,0.2862643599510193,-1.593353573475973,-0.0,-0.0029209915082901716,0.7770018577575684,-0.0,-0.01232275739312172,0.8136584162712097,0.0,-0.005217183381319046
466.0,641.0,0.0712,0.2518,9.6604,-0.0376,0.0266,-0.1161,-1.8007108173766078,0.0,2.927190065383911,-1.853945255279541,-0.0,1.933243751525879,5.145508128195562,0.0,0.27010059356689453,-1.5933736006366175,-0.0,-0.011057145893573761,0.7769696116447449,-0.0,-0.010279352776706219,0.8135817646980286,0.0,-0.02836926281452179
466.0,641.0,0.0712,0.2518,9.6604,-0.0376,0.0266,-0.1161,-1.8006588421263636,0.0,2.9264636039733887,-1.8539494276046753,-0.0,1.8935450315475464,5.1454882500465295,0.0,0.2710067629814148,-1.5933383146869105,-0.0,-0.005745379254221916,0.7770101428031921,-0.0,-0.01914600096642971,0.8136420249938965,0.0,0.022458728402853012
466.0,641.0,0.0712,0.2518,9.6604,-0.0376,0.0266,-0.1161,-1.8007108173766078,0.0,2.8860583305358887,-1.8539937734603882,-0.0,1.9063937664031982,5.145452248841085,0.0,0.2766163647174835,-1.5933411757098597,-0.0,-0.008804027922451496,0.7770063877105713,-0.0,-0.005401524715125561,0.8136219382286072,0.0,0.0037353537045419216
466.0,641.0,0.0712,0.2518,9.6604,-0.0376,0.0266,-0.1161,-1.8006788692870082,0.0,2.883932590484619,-1.853961706161499,-0.0,1.9369080066680908,5.145452219038763,0.0,0.2740180790424347,-1.5933659712420862,-0.0,-0.004505202639847994,0.7770022749900818,-0.0,-0.007868888787925243,0.8135897517204285,0.0,-0.05066486448049545
466.0,641.0,0.0712,0.2518,9.6604,-0.0376,0.0266,-0.1161,-1.800666948358053,0.0,2.9225921630859375,-1.853961706161499,-0.0,1.9961010217666626,5.145484316139974,0.0,0.28192830085754395,-1.5933340231524866,-0.0,-0.018423963338136673,0.7769376039505005,-0.0,-0.007362179923802614,0.8135815262794495,0.0,-0.016577526926994324
466.0,641.0,0.0712,0.2518,9.6604,-0.0376,0.0266,-0.1161,-1.8006626568236292,0.0,2.9291138648986816,-1.8539338111877441,-0.0,1.985457420349121,5.145468133478918,0.0,0.28567567467689514,-1.5933216253863733,-0.0,-0.010543283075094223,0.776981770992279,-0.0,-0.0043306793086230755,0.8136177659034729,0.0,-0.008953005075454712
466.0,641.0,0.0712,0.2518,9.6604,-0.0376,0.0266,-0.1161,-1.8006988964476527,0.0,2.916381597518921,-1.8539183139801025,-0.0,1.9172451496124268,5.145519989519872,0.0,0.27440646290779114,-1.5933659712420862,-0.0,-0.01552813034504652,0.7769899368286133,-0.0,-0.010801875963807106,0.8136419653892517,0.0,0.03643923997879028
466.0,641.0,0.0712,0.2518,9.6604,-0.0376,0.0266,-0.1161,-1.8006988964476527,0.0,2.8966867923736572,-1.8539493083953857,-0.0,1.9351089000701904,5.14550410488204,0.0,0.2820824980735779,-1.5933502356158655,-0.0,-0.005313969682902098,0.7769654393196106,-0.0,-0.01859705150127411,0.8136583566665649,0.0,-0.027168164029717445
466.0,641.0,0.0712,0.2518,9.6604,-0.0376,0.0266,-0.1161,-1.8006869755186976,0.0,2.944303035736084,-1.8539338111877441,-0.0,1.906069278717041,5.145504134684362,0.0,0.2900174856185913,-1.5933297316180628,-0.0,-0.003090383717790246,0.7769696116447449,-0.0,-0.006197670940309763,0.8136057257652283,0.0,0.012514677830040455
466.0,641.0,0.0712,0.2518,9.6604,-0.0376,0.0266,-0.1161,-1.800695081750387,0.0,2.938727617263794,-1.8539223670959473,-0.0,1.9238510131835938,5.145476001292028,0.0,0.27322977781295776,-1.5933297316180628,-0.0,-0.004869186319410801,0.7769899368286133,-0.0,-0.019338957965373993,0.8135855793952942,0.0,-0.042668938636779785
466.0,641.0,0.0712,0.2518,9.6604,-0.0376,0.0266,-0.1161,-1.8007031879820765,0.0,2.943727731704712,-1.8539297580718994,-0.0,1.9433178901672363,5.14546416977004,0.0,0.2758939266204834,-1.5933492819415491,-0.0,0.0007076297188177705,0.7769977450370789,-0.0,-0.010051427409052849,0.8136139512062073,0.0,0.03266684710979462
451.0,637.0,0.1926,0.3182,9.4134,-0.0428,0.0195,-0.1173,-1.8007594547667445,0.0,2.952454090118408,-1.8539897203445435,-0.0,1.956169843673706,5.145484286337652,0.0,0.2947903275489807,-1.5933659712420862,-0.0,0.0012117852456867695,0.7769134640693665,-0.0,-0.0031276382505893707,0.8136138916015625,0.0,-0.030907927080988884
451.0,637.0,0.1926,0.3182,9.4134,-0.0428,0.0195,-0.1173,-1.8007027111449183,0.0,2.921173572540283,-1.853969931602478,-0.0,1.9218801259994507,5.145484316139974,0.0,0.27606722712516785,-1.5933859984027308,-0.0,-0.00757688470184803,0.7770064473152161,-0.0,-0.021609239280223846,0.8135735392570496,0.0,0.0012473282404243946
451.0,637.0,0.1926,0.3182,9.4134,-0.0428,0.0195,-0.1173,-1.8007189236082972,0.0,2.9123501777648926,-1.8539657592773438,-0.0,1.9311528205871582,5.145484286337652,0.0,0.28491830825805664,-1.5933740774737757,-0.0,0.004935070872306824,0.7769736051559448,-0.0,-0.01263674721121788,0.8136020302772522,0.0,0.007122320588678122
451.0,637.0,0.1926,0.3182,9.4134,-0.0428,0.0195,-0.1173,-1.800695081750387,0.0,2.8925626277923584,-1.853885531425476,-0.0,1.9155964851379395,5.145520019322195,0.0,0.2874530553817749,-1.5933941046344202,-0.0,-0.002881520427763462,0.7770018577575684,-0.0,-0.0017410769360139966,0.8136460185050964,0.0,0.012253237888216972
451.0,637.0,0.1926,0.3182,9.4134,-0.0428,0.0195,-0.1173,-1.800695081750387,0.0,2.9421467781066895,-1.8539453744888306,-0.0,1.9242572784423828,5.145496266871252,0.0,0.28154420852661133,-1.593342129384176,-0.0,-0.008605856448411942,0.7769535183906555,-0.0,-0.00837131030857563,0.8135978579521179,0.0,-0.04129825532436371
451.0,637.0,0.1926,0.3182,9.4134,-0.0428,0.0195,-0.1173,-1.8007108173766078,0.0,2.927680015563965,-1.8539897203445435,-0.0,1.9173498153686523,5.1454681036765955,0.0,0.2760700583457947,-1.5933340231524866,-0.0,-0.01117856428027153,0.7769941091537476,-0.0,-0.013898874633014202,0.8136057257652283,0.0,0.013525139540433884
451.0,637.0,0.1926,0.3182,9.4134,-0.0428,0.0195,-0.1173,-1.8006745777525843,0.0,2.93648099899292,-1.8539297580718994,-0.0,1.943887710571289,5.145500170975485,0.0,0.277908593416214,-1.593353573475973,-0.0,0.0019860921893268824,0.7769860029220581,-0.0,-0.010969609022140503,0.8136301040649414,0.0,0.0317528173327446
451.0,637.0,0.1926,0.3182,9.4134,-0.0428,0.0195,-0.1173,-1.8007151089110316,0.0,2.9543681144714355,-1.8539493083953857,-0.0,1.9150357246398926,5.145571666746893,0.0,0.2779024541378021,-1.5933740774737757,-0.0,0.0006398545810952783,0.7769981622695923,-0.0,0.0009072080720216036,0.8136138916015625,0.0,-0.03030211478471756
451.0,637.0,0.1926,0.3182,9.4134,-0.0428,0.0195,-0.1173,-1.8007317982115687,0.0,2.903830051422119,-1.853885293006897,-0.0,1.9626562595367432,5.1454681036765955,0.0,0.27827462553977966,-1.5933383146869105,-0.0,-0.01698770560324192,0.7770542502403259,-0.0,-0.006536589004099369,0.8136420249938965,0.0,0.005628675222396851
451.0,637.0,0.1926,0.3182,9.4134,-0.0428,0.0195,-0.1173,-1.800662179986471,0.0,2.8925552368164062,-1.8539174795150757,-0.0,1.9386873245239258,5.145484286337652,0.0,0.2885228991508484,-1.5933464209186,-0.0,-0.007543989457190037,0.7770219445228577,-0.0,-0.0016192772891372442,0.8135979175567627,0.0,-0.02698477730154991
451.0,637.0,0.1926,0.3182,9.4134,-0.0428,0.0195,-0.1173,-1.8006988964476527,0.0,2.9164111614227295,-1.8539576530456543,-0.0,1.9632303714752197,5.1454882500465295,0.0,0.2768649458885193,-1.5933135191546839,-0.0,-2.1611456759274006e-05,0.7769777774810791,-0.0,-0.010951371863484383,0.8136136531829834,0.0,0.02253388985991478
451.0,637.0,0.1926,0.3182,9.4134,-0.0428,0.0195,-0.1173,-1.8006545505919398,0.0,2.938994884490967,-1.853901743888855,-0.0,1.958760380744934,5.145464139967718,0.0,0.2811048626899719,-1.593342129384176,-0.0,-0.017368000000715256,0.7769818305969238,-0.0,-0.006650018505752087,0.8135735392570496,0.0,-0.010245095007121563
451.0,637.0,0.1926,0.3182,9.4134,-0.0428,0.0195,-0.1173,-1.8007394276061,0.0,2.919541120529175,-1.853937029838562,-0.0,1.925084114074707,5.1454882500465295,0.0,0.26645421981811523,-1.5933340231524866,-0.0,-0.013322025537490845,0.776929497718811,-0.0,-0.016483396291732788,0.8135451078414917,0.0,-0.02285134047269821
451.0,637.0,0.1926,0.3182,9.4134,-0.0428,0.0195,-0.1173,-1.800695081750387,0.0,2.954733371734619,-1.8540018796920776,-0.0,1.9740779399871826,5.145508128195562,0.0,0.28954046964645386,-1.5933383146869105,-0.0,0.004748974926769733,0.7769695520401001,-0.0,-0.010017933323979378,0.8136098384857178,0.0,-0.01253684051334858
451.0,637.0,0.1926,0.3182,9.4134,-0.0428,0.0195,-0.1173,-1.800683160821432,0.0,2.923600196838379,-1.8540061712265015,-0.0,1.9169814586639404,5.145440298109808,0.0,0.28051552176475525,-1.5933740774737757,-0.0,-0.004294976592063904,0.7770379781723022,-0.0,-0.0030965020414441824,0.8136138916015625,0.0,-0.0009936783462762833
451.0,637.0,0.1926,0.3182,9.4134,-0.0428,0.0195,-0.1173,-1.8007151089110316,0.0,2.9231762886047363,-1.8539657592773438,-0.0,1.9410738945007324,5.145452219038763,0.0,0.2891065180301666,-1.5933659712420862,-0.0,-0.001193180913105607,0.7769494652748108,-0.0,-0.008645704947412014,0.8135896921157837,0.0,0.0006731061730533838
446.0,628.0,0.195,0.2985,9.4528,-0.0333,0.0232,-0.1177,-1.8006907902159632,0.0,2.9095115661621094,-1.8539533615112305,-0.0,1.971889853477478,5.1454641101653955,0.0,0.28178995847702026,-1.5933454672442835,-0.0,-0.005145327653735876,0.7769699096679688,-0.0,-0.009972449392080307,0.8135776519775391,0.0,-0.0018896525725722313
446.0,628.0,0.195,0.2985,9.4528,-0.0333,0.0232,-0.1177,-1.8006707630553187,0.0,2.9015259742736816,-1.8539576530456543,-0.0,1.9284217357635498,5.1454922435577295,0.0,0.28046467900276184,-1.5933616797076624,-0.0,0.00156747130677104,0.7769899368286133,-0.0,-0.011048763990402222,0.8135735988616943,0.0,-0.04095599055290222
446.0,628.0,0.195,0.2985,9.4528,-0.0333,0.0232,-0.1177,-1.8006707630553187,0.0,2.8845808506011963,-1.8539257049560547,-0.0,1.9388694763183594,5.1454681036765955,0.0,0.2852776050567627,-1.5933659712420862,-0.0,-0.01936487667262554,0.7769535183906555,-0.0,-0.016854548826813698,0.8135735392570496,0.0,0.011822819709777832
446.0,628.0,0.195,0.2985,9.4528,-0.0333,0.0232,-0.1177,-1.800683160821432,0.0,2.9030370712280273,-1.8539257049560547,-0.0,1.942615270614624,5.145456212549963,0.0,0.27131032943725586,-1.593342129384176,-0.0,-0.0006679454818367958,0.776953935623169,-0.0,-0.00633183354511857,0.8136542439460754,0.0,-0.04085000231862068
446.0,628.0,0.195,0.2985,9.4528,-0.0333,0.0232,-0.1177,-1.800683160821432,0.0,2.941181182861328,-1.8539698123931885,-0.0,1.9838178157806396,5.145512121706762,0.0,0.28072577714920044,-1.5933383146869105,-0.0,-0.0038088620640337467,0.776965856552124,-0.0,0.0018007289618253708,0.8135975003242493,0.0,-0.03139476850628853
446.0,628.0,0.195,0.2985,9.4528,-0.0333,0.0232,-0.1177,-1.800671239892477,0.0,2.9191794395446777,-1.8539329767227173,-0.0,1.9779725074768066,5.145476090698995,0.0,0.28250056505203247,-1.593353573475973,-0.0,-0.014567259699106216,0.7769818902015686,-0.0,-0.019574832171201706,0.8136460781097412,0.0,-0.004307306371629238
446.0,628.0,0.195,0.2985,9.4528,-0.0333,0.0232,-0.1177,-1.800638338128561,0.0,2.941861152648926,-1.8538658618927002,-0.0,1.9239064455032349,5.145448285132208,0.0,0.2683248221874237,-1.593342129384176,-0.0,-0.006207107100635767,0.7770219445228577,-0.0,-0.012279633432626724,0.8135776519775391,0.0,0.029772069305181503
446.0,628.0,0.195,0.2985,9.4528,-0.0333,0.0232,-0.1177,-1.8006864986815394,0.0,2.9129908084869385,-1.8539412021636963,-0.0,1.9515302181243896,5.145484286337652,0.0,0.29239171743392944,-1.5933492819415491,-0.0,-0.018250659108161926,0.7770224809646606,-0.0,-0.0057454295456409454,0.8136057257652283,0.0,-0.0036049294285476208
446.0,628.0,0.195,0.2985,9.4528,-0.0333,0.0232,-0.1177,-1.800666948358053,0.0,2.9258193969726562,-1.8539412021636963,-0.0,1.8886702060699463,5.14553992727355,0.0,0.28164583444595337,-1.5933740774737757,-0.0,-0.005577046889811754,0.7769859433174133,-0.0,-0.008652513846755028,0.8136057257652283,0.0,-0.01979305036365986
446.0,628.0,0.195,0.2985,9.4528,-0.0333,0.0232,-0.1177,-1.800695081750387,0.0,2.9050207138061523,-1.8539257049560547,-0.0,1.9351396560668945,5.1455081579978845,0.0,0.28219324350357056,-1.5933573881732386,-0.0,-0.011150133796036243,0.7769777774810791,-0.0,-0.004893665201961994,0.8135979175567627,0.0,-0.024208135902881622
446.0,628.0,0.195,0.2985,9.4528,-0.0333,0.0232,-0.1177,-1.8007108173766078,0.0,2.9213032722473145,-1.8539698123931885,-0.0,1.9514529705047607,5.145500170975485,0.0,0.2823755741119385,-1.5933340231524866,-0.0,-0.014731080271303654,0.7770141959190369,-0.0,-0.005733158439397812,0.8136098384857178,0.0,0.043246567249298096
446.0,628.0,0.195,0.2985,9.4528,-0.0333,0.0232,-0.1177,-1.8006545505919398,0.0,2.9339466094970703,-1.8539700508117676,-0.0,1.926513433456421,5.1454840181167505,0.0,0.27215376496315,-1.5933659712420862,-0.0,-0.017417510971426964,0.7769695520401001,-0.0,-0.01331869326531887,0.8136420249938965,0.0,-0.02537955529987812
446.0,628.0,0.195,0.2985,9.4528,-0.0333,0.0232,-0.1177,-1.8006588421263636,0.0,2.9220571517944336,-1.853937029838562,-0.0,1.9283486604690552,5.145496296673574,0.0,0.2890967130661011,-1.5933573881732386,-0.0,-0.023032426834106445,0.7769740223884583,-0.0,-0.01141592487692833,0.813593864440918,0.0,-0.008014528080821037
446.0,628.0,0.195,0.2985,9.4528,-0.0333,0.0232,-0.1177,-1.8007108173766078,0.0,2.877915382385254,-1.8539823293685913,-0.0,1.931077241897583,5.145504164486685,0.0,0.28173741698265076,-1.5933740774737757,-0.0,0.004424473270773888,0.7769818305969238,-0.0,-0.017018938437104225,0.813637912273407,0.0,0.04382460564374924
446.0,628.0,0.195,0.2985,9.4528,-0.0333,0.0232,-0.1177,-1.8006907902159632,0.0,2.917701482772827,-1.8539412021636963,-0.0,1.9102060794830322,5.1455081579978845,0.0,0.28130629658699036,-1.5933492819415491,-0.0,-0.011128832586109638,0.7769575715065002,-0.0,-0.004971144255250692,0.813637912273407,0.0,-0.003977939486503601
446.0,628.0,0.195,0.2985,9.4528,-0.0333,0.0232,-0.1177,-1.8007394276061,0.0,2.9217891693115234,-1.8539257049560547,-0.0,1.8811354637145996,5.1454641101653955,0.0,0.28423306345939636,-1.5933492819415491,-0.0,-0.002136372495442629,0.776965856552124,-0.0,-0.015407431870698929,0.8135735392570496,0.0,-0.01654374971985817
463.0,623.0,0.1579,-0.0401,9.6431,-0.0319,0.025,-0.1121,-1.800666948358053,0.0,2.8989474773406982,-1.8539823293685913,-0.0,1.941245436668396,5.145500170975485,0.0,0.28521716594696045,-1.5933821837054651,-0.0,-0.00505381915718317,0.7770260572433472,-0.0,-0.014842517673969269,0.813593864440918,0.0,0.01300371065735817
463.0,623.0,0.1579,-0.0401,9.6431,-0.0319,0.025,-0.1121,-1.800671239892477,0.0,2.9013710021972656,-1.8539657592773438,-0.0,1.9558072090148926,5.145496207266607,0.0,0.2647467255592346,-1.5933173338519495,-0.0,-0.0013444112846627831,0.7770344018936157,-0.0,-0.012278133071959019,0.8135892748832703,0.0,-0.049380019307136536
463.0,623.0,0.1579,-0.0401,9.6431,-0.0319,0.025,-0.1121,-1.8007399044432582,0.0,2.940182685852051,-1.8539659976959229,-0.0,1.9562865495681763,5.145452159434118,0.0,0.28368228673934937,-1.5933454672442835,-0.0,-0.019676515832543373,0.7769699096679688,-0.0,-0.010321065783500671,0.8136098980903625,0.0,0.027602054178714752
463.0,623.0,0.1579,-0.0401,9.6431,-0.0319,0.025,-0.1121,-1.8006745777525843,0.0,2.898959159851074,-1.8539576530456543,-0.0,1.9450972080230713,5.145504194289007,0.0,0.2808314859867096,-1.59337026277651,-0.0,-0.008377347141504288,0.7770265340805054,-0.0,0.0028372120577841997,0.8136259913444519,0.0,-0.030017072334885597
463.0,623.0,0.1579,-0.0401,9.6431,-0.0319,0.025,-0.1121,-1.800671239892477,0.0,2.9497900009155273,-1.8539378643035889,-0.0,1.9529117345809937,5.145492303162374,0.0,0.2825186252593994,-1.5933340231524866,-0.0,-0.014232983812689781,0.7769535183906555,-0.0,-0.017736446112394333,0.8136259913444519,0.0,0.043579377233982086
463.0,623.0,0.1579,-0.0401,9.6431,-0.0319,0.025,-0.1121,-1.800683160821432,0.0,2.9013328552246094,-1.8539615869522095,-0.0,1.952085018157959,5.14548425653533,0.0,0.2691105604171753,-1.5933454672442835,-0.0,-0.0007343542529270053,0.7769777774810791,-0.0,-0.011057085357606411,0.8135855793952942,0.0,-0.0041959090158343315
463.0,623.0,0.1579,-0.0401,9.6431,-0.0319,0.025,-0.1121,-1.800683160821432,0.0,2.9177186489105225,-1.8539493083953857,-0.0,1.9079670906066895,5.145456212549963,0.0,0.29172807931900024,-1.5933383146869105,-0.0,0.0049792747013270855,0.7769777774810791,-0.0,-0.0031795359682291746,0.8136139512062073,0.0,0.05618930608034134
463.0,623.0,0.1579,-0.0401,9.6431,-0.0319,0.025,-0.1121,-1.8007108173766078,0.0,2.9387526512145996,-1.853945255279541,-0.0,1.9554957151412964,5.145512181311407,0.0,0.280434787273407,-1.5933173338519495,-0.0,-0.0010129758156836033,0.7769818305969238,-0.0,-0.008286608383059502,0.8136138916015625,0.0,0.020067717880010605
463.0,623.0,0.1579,-0.0401,9.6431,-0.0319,0.025,-0.1121,-1.8007031879820765,0.0,2.9629342555999756,-1.85395348072052,-0.0,1.9177963733673096,5.145496207266607,0.0,0.2945747375488281,-1.5933573881732386,-0.0,-0.021240368485450745,0.776925802230835,-0.0,-0.014275465160608292,0.813585638999939,0.0,-0.022522415965795517
463.0,623.0,0.1579,-0.0401,9.6431,-0.0319,0.025,-0.1121,-1.8006507358946742,0.0,2.9207866191864014,-1.8539576530456543,-0.0,1.9598643779754639,5.145452248841085,0.0,0.2798914611339569,-1.593342129384176,-0.0,-0.0190180204808712,0.7769736051559448,-0.0,-0.0009706966811791062,0.8136139512062073,0.0,-0.007889649830758572
463.0,623.0,0.1579,-0.0401,9.6431,-0.0319,0.025,-0.1121,-1.8007108173766078,0.0,2.892373561859131,-1.8539174795150757,-0.0,1.932758092880249,5.145508217602529,0.0,0.2747509777545929,-1.5933573881732386,-0.0,-0.0049753012135624886,0.77694171667099,-0.0,-0.004208170808851719,0.8136180639266968,0.0,-0.004769768565893173
463.0,623.0,0.1579,-0.0401,9.6431,-0.0319,0.025,-0.1121,-1.8006912670531214,0.0,2.9363369941711426,-1.8538936376571655,-0.0,1.9309020042419434,5.145412552147665,0.0,0.2858228087425232,-1.5933979193316858,-0.0,-0.017252665013074875,0.7769531607627869,-0.0,-0.01404214184731245,0.8136259913444519,0.0,0.022913387045264244
463.0,623.0,0.1579,-0.0401,9.6431,-0.0319,0.025,-0.1121,-1.8006626568236292,0.0,2.9334936141967773,-1.853945255279541,-0.0,1.894531488418579,5.145496207266607,0.0,0.26839643716812134,-1.5933740774737757,-0.0,-0.012246942147612572,0.7769818305969238,-0.0,-0.006174271926283836,0.8135975003242493,0.0,-0.010101841762661934
463.0,623.0,0.1579,-0.0401,9.6431,-0.0319,0.025,-0.1121,-1.8006788692870082,0.0,2.9271223545074463,-1.8539700508117676,-0.0,1.8995983600616455,5.145468073874273,0.0,0.28095442056655884,-1.5933778921710413,-0.0,-0.027568325400352478,0.7769818305969238,-0.0,-0.018325481563806534,0.8136138916015625,0.0,0.03667689487338066
463.0,623.0,0.1579,-0.0401,9.6431,-0.0319,0.025,-0.1121,-1.800655027429098,0.0,2.9340081214904785,-1.8539412021636963,-0.0,1.9033124446868896,5.145500170975485,0.0,0.2811279296875,-1.5933492819415491,4.231202055393624e-09,-0.007623560726642609,0.7769293785095215,-0.0,0.0053533511236310005,0.8136218786239624,0.0,-0.04101121425628662
463.0,623.0,0.1579,-0.0401,9.6431,-0.0319,0.025,-0.1121,-1.800671239892477,0.0,2.9174931049346924,-1.853901743888855,-0.0,1.9107532501220703,5.145508187800207,0.0,0.28206339478492737,-1.5933616797076624,1.1777706631146967e-12,-0.005631244741380215,0.7769818305969238,-0.0,-0.008794406428933144,0.813585638999939,0.0,0.017550084739923477
473.0,617.0,0.2925,1.5248,9.4702,0.0128,0.0111,-0.1168,-1.8006426296629847,5.8914658040976065e-08,2.907933473587036,-1.8539742231369019,-0.0,1.939544439315796,5.145500170975485,1.7582158307050122e-06,0.28132882714271545,-1.593393627797262,3.2783674363604767e-16,-0.008020257577300072,0.7769859433174133,-0.0,-0.01686694845557213,0.8136501908302307,0.0,-0.019484147429466248
473.0,617.0,0.2925,1.5248,9.4702,0.0128,0.0111,-0.1168,-1.800683160821432,1.4227194997194076e-13,2.9256174564361572,-1.8539739847183228,-0.0,1.9384920597076416,5.145516055613317,4.894058491800024e-10,0.28196245431900024,-1.5933855215655726,9.125457163919855e-20,-0.02876550704240799,0.7769941687583923,-0.0,-0.008623283356428146,0.8136420249938965,0.0,-0.029251575469970703
473.0,617.0,0.2925,1.5248,9.4702,0.0128,0.0111,-0.1168,-1.8006593189635218,2.5608451319096444e-17,2.9282608032226562,-1.8539823293685913,-0.0,1.9397608041763306,5.145516055613317,2.086413940921572e-12,0.2853008508682251,-1.5933898130999964,3.8903252356068095e-22,-0.0009848140180110931,0.7770224809646606,-0.0,-0.016945060342550278,0.8135814666748047,0.0,-0.0002125872706528753
473.0,617.0,0.2925,1.5248,9.4702,0.0128,0.0111,-0.1168,-1.8006869755186976,7.0106630118971225e-06,2.9190478324890137,-1.8539257049560547,-0.0,1.9468796253204346,5.145615684777059,5.80761099323537e-16,0.27648547291755676,-1.5934017340289515,1.0828863744101517e-25,-0.008901858702301979,0.7769617438316345,-0.0,-0.0057276771403849125,0.813637912273407,0.0,0.00587326567620039
473.0,617.0,0.2925,1.5248,9.4702,0.0128,0.0111,-0.1168,-1.8006302318968714,0.0004497780464589596,2.8936197757720947,-1.8539575338363647,-0.0,1.9428415298461914,5.145559805422582,0.0004059599305037409,0.27923667430877686,-1.5933855215655726,3.014253696661019e-29,0.0050819204188883305,0.7769777774810791,-0.0,-0.015760105103254318,0.8136135935783386,0.0,-0.02878245711326599
473.0,617.0,0.2925,1.5248,9.4702,0.0128,0.0111,-0.1168,-1.800666948358053,0.0004198465612716973,2.8911571502685547,-1.8539060354232788,-0.0,1.9721903800964355,5.145504164486685,0.00031961072818376124,0.28751111030578613,-1.5933855215655726,8.39028782429784e-33,0.00015023304149508476,0.7769699692726135,-0.0,-0.011031699366867542,0.8136459589004517,0.0,-0.025778841227293015
473.0,617.0,0.2925,1.5248,9.4702,0.0128,0.0111,-0.1168,-1.8006345234312953,0.0003498851729091257,2.9652938842773438,-1.8539533615112305,-0.0,1.9327460527420044,5.145508217602529,0.0002634460979606956,0.28738439083099365,-1.5934060255633753,2.3354677853290608e-36,-0.005966559983789921,0.776925802230835,-0.0,-0.024842163547873497,0.8136255145072937,0.0003352364292368293,-0.030137697234749794
473.0,617.0,0.2925,1.5248,9.4702,0.0128,0.0111,-0.1168,-1.8007108173766078,0.0002999120915774256,2.9555933475494385,-1.853945255279541,-0.0,1.9034174680709839,5.14551608541564,0.0002240761969005689,0.2893398106098175,-1.5933979193316858,6.500861796741762e-40,-0.002942725783213973,0.7769618034362793,-0.0,-0.025920607149600983,0.8136501312255859,0.00027437787503004074,0.0038805431686341763
473.0,617.0,0.2925,1.5248,9.4702,0.0128,0.0111,-0.1168,-1.8007151089110316,0.00026242982130497694,2.9036672115325928,-1.8540061712265015,-0.0,1.923258662223816,5.145536321192541,0.0001949463039636612,0.28075337409973145,-1.5933178106891077,1.807675018979014e-43,-0.016526833176612854,0.7769899368286133,-0.0,-0.002630491042509675,0.8136214017868042,0.00018578258459456265,-0.00600593164563179
473.0,617.0,0.2925,1.5248,9.4702,0.0128,0.0111,-0.1168,-1.8007074795165003,0.00010054717859020457,2.9000673294067383,-1.8539257049560547,2.170913795951357e-11,1.942117691040039,5.145472037583151,0.000172520536580123,0.2806291878223419,-1.5933340231524866,0.0,-0.00573623226955533,0.7770101428031921,-0.0,-0.0073883323930203915,0.8136378526687622,0.0001607042649993673,-0.016339948400855064
473.0,617.0,0.2925,1.5248,9.4702,0.0128,0.0111,-0.1168,-1.8007027111449183,9.043972386280075e-05,2.9185824394226074,-1.8539493083953857,3.907567544140849e-15,1.9397839307785034,5.145468014269628,0.00016023240459617227,0.2795455753803253,-1.5933821837054651,0.0,-0.008401092141866684,0.777018666267395,-0.0,-0.00860135443508625,0.8136661052703857,9.752844925969839e-05,-0.01543373428285122
473.0,617.0,0.2925,1.5248,9.4702,0.0128,0.0111,-0.1168,-1.8006707630553187,7.859230390749872e-05,2.9142065048217773,-1.8539265394210815,0.0017932188929989934,1.944618821144104,5.14551608541564,0.00014476625074166805,0.2820158898830414,-1.5933902899371546,0.0,-0.014761731028556824,0.776981770992279,-0.0,-0.004324272274971008,0.8136902451515198,0.001175998360849917,-0.020958561450242996
473.0,617.0,0.2925,1.5248,9.4702,0.0128,0.0111,-0.1168,-1.800683160821432,6.948942609596997e-05,2.936555862426758,-1.8539338111877441,0.0013290457427501678,1.9768438339233398,5.145508247404852,0.0001320232404395938,0.29272377490997314,-1.5933616797076624,0.0,-0.01243969239294529,0.776921272277832,-0.0,-0.008871026337146759,0.8137102127075195,0.004196329973638058,-0.005631871987134218
473.0,617.0,0.2925,1.5248,9.4702,0.0128,0.0111,-0.1168,-1.8006588421263636,6.227660196600482e-05,2.880237340927124,-1.8539338111877441,-0.0005869785672985017,1.9311280250549316,5.14550809839324,0.00012134245480410755,0.2855624556541443,-1.593325440083639,0.0,-0.007750142365694046,0.7769335508346558,-0.0,-0.010464649647474289,0.8137582540512085,0.0030972964596003294,-0.00631205178797245
473.0,617.0,0.2925,1.5248,9.4702,0.0128,0.0111,-0.1168,-1.8006593189635218,5.64203473913949e-05,2.8901021480560303,-1.8539305925369263,-0.00028243663837201893,1.930711269378662,5.145480292826452,0.00013320929429028183,0.2864845097064972,-1.5933859984027308,0.0,-0.014607911929488182,0.7769941091537476,-0.0,-0.004107896238565445,0.813697874546051,0.0012408136390149593,0.010517816059291363
473.0,617.0,0.2925,1.5248,9.4702,0.0128,0.0111,-0.1168,-1.800723215142721,7.735607505310327e-05,2.8901727199554443,-1.8539378643035889,-9.21017344808206e-05,1.9749410152435303,5.14551608541564,0.0001670036872383207,0.26484543085098267,-1.5933492819415491,0.0,-0.009133401326835155,0.777066171169281,-0.0,-0.014208327978849411,0.8137341141700745,0.000733942084480077,0.03704774007201195
471.0,606.0,-0.0754,0.0664,9.6174,-0.0347,0.0266,-0.1171,-1.8006788692870082,9.486599446972832e-05,2.9299423694610596,-1.8539305925369263,-1.8263395240580849e-09,1.9158594608306885,5.1455558119113824,0.00012920403969474137,0.2764376401901245,-1.5933740774737757,0.0,-0.001482322346419096,0.7769981622695923,-0.0,-0.007652570493519306,0.8137179613113403,0.0005212549585849047,-0.024406544864177704
471.0,606.0,-0.0754,0.0664,9.6174,-0.0347,0.0266,-0.1171,-1.800671239892477,8.803731179796159e-05,2.9189703464508057,-1.853909969329834,-4.410394677234735e-15,1.9122225046157837,5.145535963564672,0.00013307541667018086,0.27407947182655334,-1.593342129384176,0.0,-0.015671459957957268,0.7769899368286133,-0.0,-0.01094968430697918,0.8137220740318298,0.00040417243144474924,0.04397159069776535
471.0,606.0,-0.0754,0.0664,9.6174,-0.0347,0.0266,-0.1171,-1.8006226025023402,6.572387792402878e-05,2.916045665740967,-1.853833556175232,-7.938554185284327e-19,1.9631158113479614,5.14555977562026,0.00014787826512474567,0.2905314266681671,-1.5933902899371546,0.0,-0.0076199304312467575,0.7769978046417236,-0.0,-0.012379121035337448,0.8136856555938721,0.0002999604621436447,0.015880510210990906
471.0,606.0,-0.0754,0.0664,9.6174,-0.0347,0.0266,-0.1171,-1.8006426296629847,7.868622924434021e-05,2.8885834217071533,-1.8538738489151,0.00020697878790087998,1.9473152160644531,5.145559805422582,0.0001382320624543354,0.28317174315452576,-1.5933573881732386,0.0,-0.0069578904658555984,0.7769375443458557,-0.0,0.0026811733841896057,0.8136774301528931,0.00024507640046067536,-0.013066386803984642
471.0,606.0,-0.0754,0.0664,9.6174,-0.0347,0.0266,-0.1171,-1.800655027429098,8.086550224106759e-05,2.958418369293213,-1.8538490533828735,0.0001538724754936993,1.9601624011993408,5.14557574966506,0.0001296946284128353,0.2665073275566101,-1.5933621565448206,0.0,-0.013056531548500061,0.7769452929496765,-0.0,-0.005622653290629387,0.8137138485908508,0.0002527860051486641,-0.020276736468076706
471.0,606.0,-0.0754,0.0664,9.6174,-0.0347,0.0266,-0.1171,-1.800655027429098,7.419862959068269e-05,2.905543088912964,-1.8539378643035889,0.00012245849939063191,1.94435453414917,5.145492183953085,0.00013843874330632389,0.2826141119003296,-1.5933740774737757,0.0,0.009007400833070278,0.7769899368286133,-0.0,-3.487186040729284e-05,0.813758373260498,0.00022165561676956713,-0.04324938729405403
471.0,606.0,-0.0754,0.0664,9.6174,-0.0347,0.0266,-0.1171,-1.8006507358946742,6.85473860357888e-05,2.907583236694336,-1.8539223670959473,0.00010169845336349681,1.9389714002609253,5.145520019322195,0.00013192631013225764,0.28496649861335754,-1.5933659712420862,0.0,-0.00890297256410122,0.7769457697868347,-0.0,0.005681825801730156,0.8137344717979431,0.00016446664812974632,0.051708295941352844
471.0,606.0,-0.0754,0.0664,9.6174,-0.0347,0.0266,-0.1171,-1.800683160821432,8.407604036619887e-05,2.9413185119628906,-1.8539501428604126,8.695774886291474e-05,1.9528608322143555,5.145471709757604,0.00011735688167391345,0.2830163240432739,-1.59337026277651,0.0,-0.008660555817186832,0.7769415974617004,-0.0,0.00266492017544806,0.8136696219444275,8.906741277314723e-05,0.0730893611907959
471.0,606.0,-0.0754,0.0664,9.6174,-0.0347,0.0266,-0.1171,-1.8006750545897425,9.9050288554281e-05,2.9246654510498047,-1.8539420366287231,3.797738827415742e-05,1.9432199001312256,5.14546828249053,0.00010400414612377062,0.2871854305267334,-1.5933135191546839,0.0,-0.00834239087998867,0.7770338654518127,-0.0,-0.009789681993424892,0.8136979937553406,-8.414024341618642e-05,-0.005460265092551708
471.0,606.0,-0.0754,0.0664,9.6174,-0.0347,0.0266,-0.1171,-1.8006183109679164,0.00023432393209077418,2.9293081760406494,-1.8539183139801025,3.3707758120726794e-05,1.9463084936141968,5.145559865027227,9.909422806231305e-05,0.27929311990737915,-1.5933411757098597,0.0,0.006735951639711857,0.7769818305969238,-0.0,0.004476485308259726,0.8136699199676514,-0.0001291014632442966,0.020496176555752754
471.0,606.0,-0.0754,0.0664,9.6174,-0.0347,0.0266,-0.1171,-1.8006874523558558,0.00021697263582609594,2.922250986099243,-1.853901743888855,3.135871884296648e-05,1.9358673095703125,5.14557574966506,9.607199172023684e-05,0.27932411432266235,-1.5933941046344202,0.0,-0.0029472406022250652,0.7769858837127686,-0.0,0.0010613339254632592,0.8136336207389832,-0.0007340115262195468,0.022174082696437836
471.0,606.0,-0.0754,0.0664,9.6174,-0.0347,0.0266,-0.1171,-1.8006469211974085,0.00019363149476703256,2.944673538208008,-1.8539575338363647,2.8390939405653626e-05,1.9457927942276,5.14553593376235,9.186903480440378e-05,0.27808940410614014,-1.5933778921710413,0.0,-0.0017851453740149736,0.7770379185676575,-0.0,0.012938153930008411,0.8137025833129883,-0.0006954328855499625,0.012258228845894337
471.0,606.0,-0.0754,0.0664,9.6174,-0.0347,0.0266,-0.1171,-1.8006593189635218,0.0001748243666952476,2.900621175765991,-1.853901743888855,1.2284158401598688e-07,1.9339383840560913,5.14551209190444,8.8018539827317e-05,0.2874811589717865,-1.5933492819415491,0.0,0.0006243790849111974,0.7769899368286133,-0.0,-0.0017435313202440739,0.8136942386627197,-0.0005596091505140066,0.034764595329761505
471.0,606.0,-0.0754,0.0664,9.6174,-0.0347,0.0266,-0.1171,-1.800671239892477,0.00015934748807922006,2.9126338958740234,-1.8540061712265015,2.966479058924554e-13,1.9620013236999512,5.14547626951293,8.447779691778123e-05,0.28159016370773315,-1.5933573881732386,0.0,-0.018378423526883125,0.776957631111145,-0.0,0.005676203407347202,0.8136458992958069,-0.0004075228644069284,-0.031730249524116516
471.0,606.0,-0.0754,0.0664,9.6174,-0.0347,0.0266,-0.1171,-1.800655027429098,0.00014638810534961522,2.9766483306884766,-1.8539183139801025,7.163696882378341e-19,1.9619382619857788,5.145528006344595,8.121084829326719e-05,0.285999059677124,-1.5933621565448206,0.0,-0.009031528607010841,0.776953935623169,-0.0,0.0062634884379804134,0.8135690689086914,-0.000320436927722767,0.004726980347186327
471.0,606.0,-0.0754,0.0664,9.6174,-0.0347,0.0266,-0.1171,-1.800655027429098,0.0001353783009108156,2.865895986557007,-1.8539297580718994,1.7299484965377486e-24,1.9109692573547363,5.145508247404852,7.818728045094758e-05,0.2828723192214966,-1.5933340231524866,0.0,-0.0020821650978177786,0.7770059704780579,-0.0,-0.004556600470095873,0.8136698603630066,-0.0002985916507896036,-0.017209360376000404
473.0,646.0,0.0497,0.2207,9.4564,-0.0443,0.0217,-0.1174,-1.8006631336607875,0.00012590867117978632,2.937868595123291,-1.8539297580718994,4.177621911070958e-30,1.9473347663879395,5.145492183953085,7.538070349255577e-05,0.2837214469909668,-1.5934017340289515,0.0,-0.0083865225315094,0.7769654989242554,-0.0,0.0012237541377544403,0.8136661648750305,-0.00026940435054712,0.003856094554066658
473.0,646.0,0.0497,0.2207,9.4564,-0.0443,0.0217,-0.1174,-1.8006750545897425,0.0001176773221231997,2.9270477294921875,-1.8539215326309204,1.0088465026488162e-35,1.934931755065918,5.14553992727355,7.276864198502153e-05,0.28157246112823486,-1.5933216253863733,0.0,-0.0002841781824827194,0.7769613862037659,-0.0,0.008707785978913307,0.8136578798294067,-0.0001953394094016403,-0.0646372064948082
473.0,646.0,0.0497,0.2207,9.4564,-0.0443,0.0217,-0.1174,-1.8006507358946742,0.00011276273289695382,2.9254322052001953,-1.8539183139801025,1.8158880292784218e-39,1.9365243911743164,5.14553992727355,7.112557796062902e-05,0.2917409837245941,-1.5933216253863733,0.0,-0.020228050649166107,0.7769859433174133,-0.0,0.0022180776577442884,0.8136537671089172,-0.00017967964231502265,-0.0382109098136425
473.0,646.0,0.0497,0.2207,9.4564,-0.0443,0.0217,-0.1174,-1.800655027429098,0.0001061149887391366,2.9048776626586914,-1.8539100885391235,4.203895392974451e-45,1.8858665227890015,5.14553593376235,4.5414485612127464e-06,0.2868104577064514,-1.5933941046344202,0.0,-0.008297300897538662,0.7769895792007446,-0.0,0.001584356650710106,0.8136255741119385,-0.00016045810480136424,0.014851768501102924
473.0,646.0,0.0497,0.2207,9.4564,-0.0443,0.0217,-0.1174,-1.8007074795165003,0.00010020755871664733,2.9316606521606445,-1.8539297580718994,-0.0,1.9117965698242188,5.145547884493627,1.2641288016368435e-09,0.27942192554473877,-1.5933454672442835,0.0,0.008188562467694283,0.7770182490348816,-0.0,-0.0036891764029860497,0.8137103319168091,-0.0001449518313165754,-0.0014712503179907799
473.0,646.0,0.0497,0.2207,9.4564,-0.0443,0.0217,-0.1174,-1.8006788692870082,9.49231325648725e-05,2.948183536529541,-1.8538976907730103,-0.0,1.887650966644287,5.145504164486685,3.518749419444134e-13,0.28495699167251587,-1.5933740774737757,0.0,-0.007211653515696526,0.7770584225654602,-0.0,-0.010316092520952225,0.8136173486709595,-0.0001321786257904023,0.014334063045680523
473.0,646.0,0.0497,0.2207,9.4564,-0.0443,0.0217,-0.1174,-1.8006869755186976,7.51412080717273e-05,2.9583969116210938,-1.8539296388626099,-0.0,1.940145492553711,5.14551209190444,9.794568870879556e-17,0.2805376350879669,-1.5933383146869105,0.0,-0.008614761754870415,0.7769617438316345,-0.0,-0.0030277420300990343,0.8136699199676514,-0.00012147430970799178,0.02598387934267521
473.0,646.0,0.0497,0.2207,9.4564,-0.0443,0.0217,-0.1174,-1.8006302318968714,7.155578350648284e-05,2.892789840698242,-1.8539057970046997,-0.0,1.9650633335113525,5.145543890982427,2.726354017879821e-20,0.2855408191680908,-1.5933659712420862,0.0,-0.0063532437197864056,0.7770178318023682,-0.0,-0.006655870471149683,0.813649594783783,-0.00011237389117013663,-0.0036171036772429943
473.0,646.0,0.0497,0.2207,9.4564,-0.0443,0.0217,-0.1174,-1.8007194004454554,6.829778430983424e-05,2.927346706390381,-1.8539576530456543,-0.0,1.9229611158370972,5.14551209190444,7.588907383681267e-24,0.28261396288871765,-1.5933740774737757,0.0,-0.002041303552687168,0.7770101428031921,-0.0,-0.007629840634763241,0.8136575222015381,-0.00010454209404997528,-0.027665747329592705
473.0,646.0,0.0497,0.2207,9.4564,-0.0443,0.0217,-0.1174,-1.800699373284811,6.532356201205403e-05,2.9254913330078125,-1.853945255279541,-0.0,1.928715467453003,5.145527976542272,2.1124000223467635e-27,0.279596209526062,-1.5933492819415491,0.0,-0.00439325999468565,0.7769418358802795,-0.0,-0.013120274990797043,0.8136740326881409,-9.773073543328792e-05,0.033702317625284195
473.0,646.0,0.0497,0.2207,9.4564,-0.0443,0.0217,-0.1174,-1.8006545505919398,6.348054012050852e-05,2.9587111473083496,-1.8538738489151,-0.0,1.9302699565887451,5.145528006344595,9.005492690463118e-30,0.29032987356185913,-1.5934060255633753,0.0,-0.00612325593829155,0.7769131064414978,-0.0,-0.008942175656557083,0.8136699199676514,-9.366241283714771e-05,-0.03628327324986458
473.0,646.0,0.0497,0.2207,9.4564,-0.0443,0.0217,-0.1174,-1.800638338128561,6.0903130361111835e-05,2.910761833190918,-1.8539255857467651,-0.0,1.9067118167877197,5.14550410488204,2.5067121320987652e-33,0.30138424038887024,-1.59337026277651,0.0,-0.003755242330953479,0.7770063877105713,-0.0,-0.009084738790988922,0.8136781454086304,-8.815782348392531e-05,-0.021593566983938217
473.0,646.0,0.0497,0.2207,9.4564,-0.0443,0.0217,-0.1174,-1.8006593189635218,7.023013313300908e-05,2.917705535888672,-1.85395348072052,-0.0,1.9364458322525024,5.145480322628774,2.263311944261659e-05,0.28805285692214966,-1.593381706868307,0.0,0.004688376560807228,0.7770342230796814,-0.0,-0.00494537316262722,0.8136778473854065,-8.326421084348112e-05,0.030092138797044754
473.0,646.0,0.0497,0.2207,9.4564,-0.0443,0.0217,-0.1174,-1.8006302318968714,6.75949122523889e-05,2.927834987640381,-1.8539265394210815,-0.0,1.8884413242340088,5.14550809839324,3.216397817595862e-05,0.2884082496166229,-1.5933736006366175,0.0,-0.002127347281202674,0.7769498229026794,-0.0,-0.005924892611801624,0.813681960105896,-7.888540130807087e-05,0.0010825106874108315
473.0,646.0,0.0497,0.2207,9.4564,-0.0443,0.0217,-0.1174,-1.8006426296629847,6.51484660920687e-05,2.915239095687866,-1.8539494276046753,-0.0,1.9115957021713257,5.14551608541564,3.1224793929141015e-05,0.29111355543136597,-1.5933659712420862,0.0,-0.013757450506091118,0.776981770992279,-0.0,-0.01074494980275631,0.8136537671089172,-7.494412420783192e-05,-0.0404747873544693
473.0,646.0,0.0497,0.2207,9.4564,-0.0443,0.0217,-0.1174,-1.800671239892477,6.287292490014806e-05,2.934353828430176,-1.8538851737976074,-0.0,1.9600911140441895,5.145508128195562,3.0177852750057355e-05,0.29001882672309875,-1.5933383146869105,0.0,-0.004467392805963755,0.7770178318023682,-0.0,-0.0007387293735519052,0.8136822581291199,-8.565346070099622e-05,0.0077761379070580006
456.0,655.0,0.1926,0.28,9.594,-0.0315,0.0224,-0.1118,-1.8006307087340296,6.075096462154761e-05,2.8910999298095703,-1.853868842124939,-0.0,1.936241626739502,5.145456093340673,1.2723091913358076e-07,0.27221766114234924,-1.5933578650103968,0.0,-0.004527727607637644,0.777058482170105,-0.0,0.00019221962429583073,0.813649594783783,-8.176285336958244e-05,-0.02183479070663452
456.0,655.0,0.1926,0.28,9.594,-0.0315,0.0224,-0.1118,-1.8006788692870082,2.7202565888728714e-07,2.9292783737182617,-1.8538975715637207,-2.8556274628499523e-05,1.8814306259155273,5.145496266871252,3.5415195082100226e-11,0.28800487518310547,-1.5933859984027308,0.0,-0.012886028736829758,0.7769736051559448,-0.0,-0.00018047122284770012,0.8136336207389832,-7.821030885679647e-05,-0.009194355458021164
456.0,655.0,0.1926,0.28,9.594,-0.0315,0.0224,-0.1118,-1.8006426296629847,4.896365257689439e-11,2.9464633464813232,-1.853945255279541,-2.713447429414373e-05,1.9568817615509033,5.14551608541564,1.509805464244146e-13,0.2808884382247925,-1.5933216253863733,0.0,-0.013157563284039497,0.7770100831985474,-0.0,-0.010322889313101768,0.8136336207389832,-7.60086186346598e-05,0.04866931587457657
456.0,655.0,0.1926,0.28,9.594,-0.0315,0.0224,-0.1118,-1.8006469211974085,1.1824145839284565e-16,2.91317081451416,-1.8539183139801025,-2.4883804144337773e-05,1.9425594806671143,5.1455121515090845,-1.4776841226193937e-06,0.2790251076221466,-1.593381706868307,0.0,-0.023720653727650642,0.7770379781723022,-0.0,-0.006283577997237444,0.8135933876037598,-7.292911323020235e-05,0.04578983783721924
456.0,655.0,0.1926,0.28,9.594,-0.0315,0.0224,-0.1118,-1.8006469211974085,2.8553922345386935e-22,2.902714252471924,-1.8538811206817627,-1.4932776126741487e-09,1.9752905368804932,5.145551937609472,-4.113188123433531e-10,0.28789201378822327,-1.5933454672442835,0.0,0.00027513690292835236,0.7770503759384155,-0.0,-0.006302964873611927,0.8136740922927856,-7.00893797329627e-05,-9.086122736334801e-05
456.0,655.0,0.1926,0.28,9.594,-0.0315,0.0224,-0.1118,-1.8006226025023402,6.8954368318037585e-28,2.9175539016723633,-1.8539297580718994,-3.606089883488204e-15,1.9740116596221924,5.145508128195562,-1.1449211533270248e-13,0.2824459671974182,-1.5933616797076624,0.0,-0.0008768292609602213,0.7769858837127686,-0.0,-0.0153429564088583,0.8136619925498962,-6.746259896317497e-05,-0.02632378414273262
456.0,655.0,0.1926,0.28,9.594,-0.0315,0.0224,-0.1118,-1.8006144962706507,1.6651669101374584e-33,2.9168758392333984,-1.8539057970046997,-8.708282031351947e-21,1.910348653793335,5.145563798933782,-3.186929700308783e-17,0.2838830053806305,-1.5933340231524866,0.0,-0.013203144073486328,0.7769617438316345,-0.0,0.0064683579839766026,0.8136661648750305,-6.502553878817707e-05,0.021773725748062134
456.0,655.0,0.1926,0.28,9.594,-0.0315,0.0224,-0.1118,-1.8006307087340296,4.0211814875096026e-39,2.9012012481689453,-1.8539223670959473,-2.1029477122541065e-26,1.957306981086731,5.145535784750738,-8.870935305024422e-21,0.28291118144989014,-1.5933941046344202,0.0,0.0018117281142622232,0.7769776582717896,-0.0,0.002692216308787465,0.8136661648750305,-6.275840860325843e-05,-0.013852248899638653
456.0,655.0,0.1926,0.28,9.594,-0.0315,0.0224,-0.1118,-1.8005863628783167,9.80908925027372e-45,2.978445053100586,-1.8539223670959473,-5.078371282169622e-32,1.9508939981460571,5.1455159960086725,-2.4692576956429814e-24,0.29510700702667236,-1.5933659712420862,0.0,0.0006266708951443434,0.7770100831985474,-0.0,0.005245788022875786,0.8137062191963196,-6.064402259653434e-05,-0.017687072977423668
456.0,655.0,0.1926,0.28,9.594,-0.0315,0.0224,-0.1118,-1.800638338128561,0.0,2.897721290588379,-1.8539183139801025,-1.2263672023750128e-37,1.9511021375656128,5.14553194025115,-6.8732698596263475e-28,0.29443955421447754,-1.5933778921710413,0.0,-0.012105279602110386,0.7769941091537476,-0.0,0.0010229123290628195,0.8136942982673645,-7.730397300065306e-08,-0.054652415215969086
456.0,655.0,0.1926,0.28,9.594,-0.0315,0.0224,-0.1118,-1.8006507358946742,0.0,2.902719020843506,-1.8539142608642578,-2.956739759725364e-43,1.9238778352737427,5.145547675877371,0.0005503954598680139,0.2722717523574829,-1.5933902899371546,0.0,-0.004466323647648096,0.7770342230796814,-0.0,-0.009763158857822418,0.8136617541313171,6.975659744057339e-06,0.006205334328114986
456.0,655.0,0.1926,0.28,9.594,-0.0315,0.0224,-0.1118,-1.800655027429098,0.0,2.916097640991211,-1.8538893461227417,-0.0,1.9489660263061523,5.145571934967794,0.0004483301308937371,0.2798629105091095,-1.5933941046344202,0.0,-0.011337311938405037,0.7769899368286133,-0.0,-0.005768783390522003,0.813681960105896,3.8500995287904516e-05,-0.012679656967520714
456.0,655.0,0.1926,0.28,9.594,-0.0315,0.0224,-0.1118,-1.8006426296629847,0.0,2.925619125366211,-1.8539183139801025,-0.0,1.9797475337982178,5.14555977562026,0.0003451006778050214,0.27980366349220276,-1.593381706868307,0.0,0.001990583259612322,0.7769654393196106,-0.0,-0.0009948535589501262,0.8136897087097168,0.0010467673419043422,0.0061595244333148
456.0,655.0,0.1926,0.28,9.594,-0.0315,0.0224,-0.1118,-1.8006750545897425,0.0,2.902587413787842,-1.8539378643035889,-0.0,1.9454593658447266,5.1455120024974725,0.00028051959816366434,0.2893288731575012,-1.5933979193316858,0.0,-0.003107510507106781,0.7770420908927917,-0.0,0.009460179135203362,0.813738226890564,0.001115640508942306,0.011940576136112213
456.0,655.0,0.1926,0.28,9.594,-0.0315,0.0224,-0.1118,-1.8007074795165003,0.0,2.9225974082946777,-1.8538728952407837,-0.0,1.9407906532287598,5.14556376913146,0.00018907659978140146,0.28516316413879395,-1.593421761189596,0.0,-0.00313580478541553,0.7769454121589661,-0.0,-0.011456310749053955,0.8137258887290955,0.0013601434184238315,0.031710170209407806
469.0,646.0,-0.0239,0.6018,9.6359,-0.0308,0.011,-0.1167,-1.8006302318968714,0.0,2.9351067543029785,-1.8539223670959473,-0.0,1.8843456506729126,5.145520019322195,0.00016331073129549623,0.28644153475761414,-1.5933974424945276,0.0,-0.014641940593719482,0.7769613862037659,-0.0,-0.013254945166409016,0.813762366771698,0.001897078356705606,-7.785949856042862e-05
469.0,646.0,-0.0239,0.6018,9.6359,-0.0308,0.011,-0.1167,-1.8006426296629847,0.0,2.9499850273132324,-1.8539223670959473,-0.0,1.947108268737793,5.145551848202505,0.0001437439932487905,0.275554358959198,-1.5934136549579065,0.0,-0.004186154808849096,0.7769777774810791,-0.0,-0.007293412461876869,0.8137660026550293,0.002433009212836623,0.02653016708791256
469.0,646.0,-0.0239,0.6018,9.6359,-0.0308,0.011,-0.1167,-1.8006345234312953,0.0,2.932811737060547,-1.8539412021636963,-0.0,1.907972812652588,5.145607965975561,0.00012836493260692805,0.28863662481307983,-1.5934179464923304,-3.0280176588348695e-07,-0.010836951434612274,0.7769213318824768,-0.0,0.01281781867146492,0.813789963722229,0.0029469041619449854,-0.019441550597548485
469.0,646.0,-0.0239,0.6018,9.6359,-0.0308,0.011,-0.1167,-1.8006307087340296,0.0,2.9092135429382324,-1.853885293006897,-0.0,1.9500854015350342,5.145571785956182,3.972349804826081e-05,0.28641021251678467,-1.5934017340289515,-8.428598791132558e-11,-0.017714183777570724,0.7769941091537476,-0.0,-0.0007769817020744085,0.8138099312782288,0.004385086707770824,0.043204374611377716
469.0,646.0,-0.0239,0.6018,9.6359,-0.0308,0.011,-0.1167,-1.8006426296629847,0.0,2.980762004852295,-1.8538861274719238,-0.0,1.960716724395752,5.145580011397161,3.4214557672385126e-05,0.2828589677810669,-1.593421761189596,-3.593243595462897e-13,-0.026591885834932327,0.7770301699638367,-0.0,0.005099175032228231,0.8138500452041626,0.004821951035410166,0.06949052214622498
469.0,646.0,-0.0239,0.6018,9.6359,-0.0308,0.011,-0.1167,-1.8006426296629847,0.0,2.9531736373901367,-1.8539142608642578,-0.0,1.8833627700805664,5.145555543690481,3.070211459998973e-05,0.28414130210876465,-1.593421761189596,-1.0001927168578839e-16,-0.009370376355946064,0.7769736647605896,-0.0,-0.0023325274232774973,0.8138861656188965,0.006100533064454794,0.03592958673834801
469.0,646.0,-0.0239,0.6018,9.6359,-0.0308,0.011,-0.1167,-1.8006507358946742,4.309732730689575e-07,2.96351957321167,-1.853969931602478,-0.0,1.8841114044189453,5.145555722504415,5.474669160321355e-05,0.2900557219982147,-1.593409840260641,-2.784072806942696e-20,-0.0036141430027782917,0.7769415974617004,-0.0,0.0016625927528366446,0.8139261603355408,0.006822541821748018,0.030258597806096077
469.0,646.0,-0.0239,0.6018,9.6359,-0.0308,0.011,-0.1167,-1.8006631336607875,1.0407495178166304e-12,2.962634563446045,-1.8539223670959473,-0.0,1.902573585510254,5.145576017885961,7.634021312696859e-05,0.3048585057258606,-1.5934136549579065,-7.749568373360389e-24,-0.026150010526180267,0.7769618034362793,-0.0,-0.0035249090287834406,0.8139783143997192,0.007705171592533588,0.08778731524944305
469.0,646.0,-0.0239,0.6018,9.6359,-0.0308,0.011,-0.1167,-1.800626894036764,2.51328716841249e-18,2.9916906356811523,-1.8539947271347046,-0.0,1.9046990871429443,5.145575988083639,9.385285375174135e-05,0.2937018871307373,-1.5934341589557093,-2.1571210786204073e-27,-0.024852629750967026,0.7769092917442322,-0.0,-0.006433944217860699,0.814054548740387,0.007803994696587324,0.060380034148693085
469.0,646.0,-0.0239,0.6018,9.6359,-0.0308,0.011,-0.1167,-1.8006469211974085,0.00044857809552922845,2.9555797576904297,-1.8539305925369263,-0.0,1.937851905822754,5.145507919579305,8.713549323147163e-05,0.29796934127807617,-1.5934303442584437,-6.004425614197985e-31,-0.01779419556260109,0.7769498825073242,-0.0,-0.009850796312093735,0.8140583634376526,0.0061401561833918095,0.025292597711086273
469.0,646.0,-0.0239,0.6018,9.6359,-0.0308,0.011,-0.1167,-1.8006264171996058,0.0004145297280047089,2.968318462371826,-1.8539305925369263,-0.0,1.944742202758789,5.145552027016439,8.123637962853536e-05,0.3019413948059082,-1.5934341589557093,-1.6713537986370002e-34,-0.030381537973880768,0.7770261764526367,-0.0,0.0009606641251593828,0.8139933943748474,0.004504518583416939,0.035281822085380554
469.0,646.0,-0.0239,0.6018,9.6359,-0.0308,0.011,-0.1167,-1.8006507358946742,0.00033692148281261325,2.938673973083496,-1.8539057970046997,-0.0,1.9156701564788818,5.145539986878195,7.608549640281126e-05,0.2942482829093933,-1.593421761189596,-4.65227446779832e-38,-0.028714021667838097,0.7769818305969238,-0.0,-0.01900462806224823,0.8140984773635864,0.002682883059605956,0.026631858199834824
469.0,646.0,-0.0239,0.6018,9.6359,-0.0308,0.011,-0.1167,-1.8006264171996058,0.00029953819466754794,2.947683811187744,-1.8539460897445679,-0.0,1.9279015064239502,5.14553992727355,7.299969729501754e-05,0.2895717918872833,-1.5934622923480433,-1.983341794466773e-40,-0.01625305786728859,0.7770022749900818,-0.0,-0.006780277471989393,0.8140943646430969,0.0017325077205896378,0.039840344339609146
469.0,646.0,-0.0239,0.6018,9.6359,-0.0308,0.011,-0.1167,-1.8006507358946742,0.00025679945247247815,3.0049662590026855,-1.8539460897445679,-0.0,1.9269917011260986,5.145567822247305,6.881350418552756e-05,0.29011696577072144,-1.593438450490133,-5.465064010866787e-44,-0.02048102766275406,0.776974081993103,-0.0,-0.021542929112911224,0.8141188025474548,0.0007907167891971767,0.05322660505771637
469.0,646.0,-0.0239,0.6018,9.6359,-0.0308,0.011,-0.1167,-1.8006631336607875,0.00018728646682575345,2.9600441455841064,-1.853978157043457,-0.0,1.9156996011734009,5.14550809839324,4.882959183305502e-05,0.2870457172393799,-1.5934179464923304,-0.0,-0.012064794078469276,0.7769699096679688,-0.0,-0.021347790956497192,0.8140745759010315,0.0004140602541156113,-0.010659009218215942
469.0,646.0,-0.0239,0.6018,9.6359,-0.0308,0.011,-0.1167,-1.8006507358946742,0.00013712239160668105,2.9021289348602295,-1.8539297580718994,-0.0,1.9567031860351562,5.145488160639562,4.6299948735395446e-05,0.28765881061553955,-1.5934179464923304,-0.0,-0.006363936699926853,0.7769858837127686,-0.0,-0.010712211020290852,0.8140621781349182,0.0002308980474481359,0.0018557892180979252
469.0,640.0,0.1729,0.548,9.9188,-0.0212,0.0107,-0.1231,-1.8006469211974085,9.033044625539333e-05,2.9518141746520996,-1.8539420366287231,-0.0,1.9653558731079102,5.14551608541564,4.723706661025062e-05,0.28420501947402954,-1.5934341589557093,-0.0,-0.01502935215830803,0.7769498825073242,-0.0,-0.010268106125295162,0.8140745759010315,-0.00021602262859232724,0.03632298484444618
469.0,640.0,0.1729,0.548,9.9188,-0.0212,0.0107,-0.1231,-1.8007151089110316,-7.051147986203432e-05,2.9452719688415527,-1.8539183139801025,-0.0,1.9007933139801025,5.145535963564672,2.4784165361779742e-05,0.2842258810997009,-1.593377415333883,-0.0,-0.0035616117529571056,0.7769657969474792,-0.0,-0.012358978390693665,0.8140301704406738,-0.00023464648984372616,0.029122913256287575
469.0,640.0,0.1729,0.548,9.9188,-0.0212,0.0107,-0.1231,-1.8006302318968714,-9.590374247636646e-05,2.8954648971557617,-1.8539575338363647,-0.0,1.9820687770843506,5.145476209908285,2.0413028323673643e-05,0.27966806292533875,-1.5934341589557093,-0.0,-0.012662776745855808,0.7770224213600159,-0.0,-0.006861316040158272,0.8140057325363159,-0.00019646759028546512,0.022108690813183784
469.0,640.0,0.1729,0.548,9.9188,-0.0212,0.0107,-0.1231,-1.8007151089110316,-8.773879380896688e-05,2.9711813926696777,-1.853901743888855,-0.0,1.9300103187561035,5.145532029658117,5.682041059884568e-09,0.2896449565887451,-1.5933974424945276,-0.0,-0.005286032799631357,0.776957631111145,-0.0,-0.012954900041222572,0.8140662908554077,-0.00016882437921594828,0.049569081515073776
469.0,640.0,0.1729,0.548,9.9188,-0.0212,0.0107,-0.1231,-1.8006788692870082,-8.238440932473168e-05,2.934119701385498,-1.8538532257080078,-0.0,1.9156516790390015,5.14554791429595,2.422343055308307e-11,0.2772931754589081,-1.5934179464923304,-0.0,-0.007243429310619831,0.776925802230835,-0.0,-0.013768766075372696,0.8140460252761841,-0.0001419227191945538,0.06530188024044037
469.0,640.0,0.1729,0.548,9.9188,-0.0212,0.0107,-0.1231,-1.8006907902159632,-7.547537825303152e-05,2.886378288269043,-1.8538737297058105,-0.0,1.918649673461914,5.1455479739005945,6.7426812627746115e-15,0.28450721502304077,-1.593409840260641,-0.0,-0.015178635716438293,0.7770301699638367,-0.0,-0.011036443524062634,0.814046323299408,-0.00011077189992647618,-0.015877846628427505
469.0,640.0,0.1729,0.548,9.9188,-0.0212,0.0107,-0.1231,-1.8006788692870082,-6.963560008443892e-05,2.967831611633301,-1.8539140224456787,-0.0,1.947864055633545,5.145488190441885,1.876850476006281e-18,0.2748381495475769,-1.593405548726217,-0.0,-0.01924169808626175,0.7769978046417236,-0.0,-0.0065825702622532845,0.8140946626663208,-9.350631444249302e-05,-0.03907924145460129
469.0,640.0,0.1729,0.548,9.9188,-0.0212,0.0107,-0.1231,-1.8006869755186976,-6.463469617301598e-05,2.9082231521606445,-1.8539305925369263,-0.0,1.9227756261825562,5.145484286337652,5.224282715448299e-22,0.28203877806663513,-1.5934260527240198,-0.0,-0.003654263447970152,0.7770182490348816,-0.0,-0.009314463473856449,0.814078688621521,-8.089778566500172e-05,-0.04096836596727371
469.0,640.0,0.1729,0.548,9.9188,-0.0212,0.0107,-0.1231,-1.800695081750387,-8.031074685277417e-05,2.925940990447998,-1.8539056777954102,0.0004158806405030191,1.9752238988876343,5.145500170975485,1.4541983953765408e-25,0.27793794870376587,-1.5933898130999964,-0.0,-0.01122208684682846,0.7770018577575684,-0.0,-0.01668168604373932,0.8140339255332947,-7.128569995984435e-05,-0.01174241118133068
469.0,640.0,0.1729,0.548,9.9188,-0.0212,0.0107,-0.1231,-1.8006507358946742,-7.535597251262516e-05,2.900423526763916,-1.8538737297058105,0.0005359907518140972,1.9723851680755615,5.145551967411794,4.047815436525474e-29,0.28022104501724243,-1.593405548726217,-0.0,-0.004217416979372501,0.7770101428031921,-0.0,-0.0016209811437875032,0.8140580654144287,-3.561422636266798e-05,-0.013681580312550068
469.0,640.0,0.1729,0.548,9.9188,-0.0212,0.0107,-0.1231,-1.800683160821432,-8.861970127327368e-05,2.9487998485565186,-1.8539016246795654,0.0009133995044976473,1.9720232486724854,5.145508247404852,1.1267242657010216e-32,0.28170180320739746,-1.593353573475973,-0.0,-0.011158091016113758,0.7770338654518127,-0.0,-0.0009710858575999737,0.8140905499458313,-2.8799402571166866e-05,-0.007566438056528568
469.0,640.0,0.1729,0.548,9.9188,-0.0212,0.0107,-0.1231,-1.8006545505919398,-0.0002091981441481039,2.935295343399048,-1.8538614511489868,0.0007607878069393337,1.955909252166748,5.145496326475897,3.136278692812847e-36,0.27383318543434143,-1.5933659712420862,-0.0,-0.005760942120105028,0.7770178318023682,-0.0,0.007100279442965984,0.8140704035758972,-2.627680623845663e-05,0.012727297842502594
469.0,640.0,0.1729,0.548,9.9188,-0.0212,0.0107,-0.1231,-1.8006907902159632,-0.00022560359502676874,2.964176654815674,-1.853901743888855,0.0005796473706141114,1.943490982055664,5.145480084210195,1.3370447258401312e-38,0.29115384817123413,-1.5933898130999964,-0.0,-0.011505838483572006,0.7769778370857239,-0.0,-0.013415616005659103,0.814069926738739,-2.482706622686237e-05,0.023059846833348274
469.0,640.0,0.1729,0.548,9.9188,-0.0212,0.0107,-0.1231,-1.8007108173766078,-0.0006911633536219597,2.8795387744903564,-1.8538737297058105,0.00041801630868576467,1.9224512577056885,5.145480084210195,3.721848721246714e-42,0.29009127616882324,-1.5934260527240198,-0.0,-0.00866146944463253,0.776981770992279,-0.0,0.006576336454600096,0.81402188539505,-2.2929471015231684e-05,0.002472725696861744
469.0,640.0,0.1729,0.548,9.9188,-0.0212,0.0107,-0.1231,-1.8007470570006312,-0.0005825816188007593,2.893375873565674,-1.853857159614563,0.0003844251041300595,1.9488834142684937,5.145484077721395,-8.461900142719969e-05,0.28349536657333374,-1.5933859984027308,-2.2172524040797725e-05,-0.01940804347395897,0.777042031288147,-0.0,0.01122862659394741,0.8140666484832764,-2.1301384549587965e-05,-0.021633245050907135
469.0,640.0,0.1729,0.548,9.9188,-0.0212,0.0107,-0.1231,-1.8007227383055628,-0.00045603158650919795,2.940354347229004,-1.8538737297058105,0.0003749793104361743,1.9674928188323975,5.145504194289007,-0.0004450631677173078,0.27424681186676025,-1.5933659712420862,-2.1390307665569708e-05,-0.020486649125814438,0.7770178914070129,-0.0,-0.007129231933504343,0.8140583634376526,-1.9889163013431244e-05,0.045455001294612885
489.0,634.0,-0.0042,0.192,9.6371,-0.0386,0.0171,-0.1205,-1.8006860218443812,-0.0004281772708054632,2.9226903915405273,-1.8538531064987183,0.00041774180135689676,1.9589885473251343,5.1454282877738855,-0.0003700515953823924,0.28003811836242676,-1.5933736006366175,-2.0653991668950766e-05,-0.010667450726032257,0.7770702838897705,-0.0,-0.005944305099546909,0.814078688621521,-1.865255217126105e-05,0.043616488575935364
489.0,634.0,-0.0042,0.192,9.6371,-0.0386,0.0171,-0.1205,-1.8007313213744105,-0.0003633461892604828,2.8980839252471924,-1.8538581132888794,0.0026351811829954386,1.974487066268921,5.145496326475897,-0.0003446231421548873,0.2819669544696808,-1.5933659712420862,-1.996668470383156e-05,-0.027028679847717285,0.7770460247993469,-0.0,0.01090865395963192,0.8140422105789185,-1.7560718333697878e-05,0.03640510141849518
489.0,634.0,-0.0042,0.192,9.6371,-0.0386,0.0171,-0.1205,-1.8006741009154261,-0.0003155668964609504,2.9113659858703613,-1.853821873664856,0.005198077764362097,1.9615811109542847,5.145472007780828,-0.00030589548987336457,0.2858806848526001,-1.5933859984027308,-1.0964323671203147e-08,-0.02318098396062851,0.7769777178764343,-0.0,-0.002998916432261467,0.8140905499458313,-1.6589652659604326e-05,0.05532465875148773
489.0,634.0,-0.0042,0.192,9.6371,-0.0386,0.0171,-0.1205,-1.8007432423033656,-0.0002788944693747908,2.8925135135650635,-1.8537650108337402,0.0068456693552434444,2.0220398902893066,5.145468342095175,-0.0002856507489923388,0.29960209131240845,-1.59337026277651,-3.051959726607656e-12,-0.0279216505587101,0.7770214676856995,-0.0,-0.01003485918045044,0.8140704035758972,-1.5720339433755726e-05,0.09757447987794876
489.0,634.0,-0.0042,0.192,9.6371,-0.0386,0.0171,-0.1205,-1.8006864986815394,-0.00025884044589474797,2.864360809326172,-1.8536895513534546,0.006405478809028864,1.996939778327942,5.145460355072775,-0.00028120906790718436,0.29162585735321045,-1.5933659712420862,-1.3010983417505347e-14,-0.03031666949391365,0.7770338654518127,-0.0,0.002617647871375084,0.8140745759010315,-1.5189702025963925e-05,0.1338743269443512
489.0,634.0,-0.0042,0.192,9.6371,-0.0386,0.0171,-0.1205,-1.8006946049132289,-0.0002336419274797663,2.8603451251983643,-1.8537379503250122,0.005283975973725319,1.9779473543167114,5.1454442022140405,-0.00025177773204632103,0.2983783185482025,-1.5933454672442835,-3.621654802108272e-18,-0.027995532378554344,0.7770580649375916,-0.0,-0.009063786827027798,0.8140580654144287,-3.140364635001447e-10,0.13409927487373352
489.0,634.0,-0.0042,0.192,9.6371,-0.0386,0.0171,-0.1205,-1.8007270298399867,-0.0002129140921169892,2.8969295024871826,-1.8536614179611206,0.0045116194523870945,2.0016915798187256,5.145468312292852,-0.0002278695465065539,0.28882789611816406,-1.5934060255633753,-1.0081010270258395e-21,-0.026243168860673904,0.7770256996154785,-0.0,0.000577663304284215,0.8140501379966736,-7.583611972918655e-16,0.17208358645439148
489.0,634.0,-0.0042,0.192,9.6371,-0.0386,0.0171,-0.1205,-1.8006864986815394,-0.00019556446932256222,2.8378844261169434,-1.8536614179611206,0.003784890752285719,2.0015947818756104,5.145472007780828,-0.00020810859859921038,0.288027822971344,-1.5933979193316858,-2.8060859686885082e-25,-0.052146486937999725,0.7770421504974365,-0.0,-0.0071469442918896675,0.814086377620697,-1.8313532384886114e-21,0.2014208734035492
489.0,634.0,-0.0042,0.192,9.6371,-0.0386,0.0171,-0.1205,-1.8007151089110316,-0.000180829330929555,2.872791290283203,-1.853637456893921,0.0027818833477795124,1.9840633869171143,5.145440119295873,-0.00019150172010995448,0.2906525135040283,-1.5933378378497522,-7.810843612174407e-29,-0.03729318827390671,0.77707439661026,-3.8139427260830416e-07,0.0011326406383886933,0.8140704035758972,-4.42250253127471e-27,0.14222536981105804
489.0,634.0,-0.0042,0.192,9.6371,-0.0386,0.0171,-0.1205,-1.8006745777525843,-0.00016815916751511395,2.776759147644043,-1.8536458015441895,0.002416834933683276,1.9783748388290405,5.145468193083563,-0.00017734989523887634,0.3017076253890991,-1.5933941046344202,-2.1741770127392283e-32,-0.043991848826408386,0.7770055532455444,-1.0616249546124834e-10,0.005852149799466133,0.8140662908554077,0.0005835279007442296,0.19117896258831024
489.0,634.0,-0.0042,0.192,9.6371,-0.0386,0.0171,-0.1205,-1.800751348535055,-0.00015714843175373971,2.867673397064209,-1.8535609245300293,0.002606855472549796,2.0022575855255127,5.145516323834219,-0.00016514565504621714,0.2822950482368469,-1.5933821837054651,-6.051901799626522e-36,-0.03415941074490547,0.7770378589630127,-2.9550719645799264e-14,-0.0032236173283308744,0.8140943646430969,0.0008162003941833973,0.25834065675735474
489.0,634.0,-0.0042,0.192,9.6371,-0.0386,0.0171,-0.1205,-1.80076326946401,-0.00010267666220897809,2.84545636177063,-1.8535981178283691,0.0025988114066421986,1.998187780380249,5.145471977978506,-0.00015451302169822156,0.29257839918136597,-1.59337026277651,-1.6845695475896145e-39,-0.057747870683670044,0.7770215272903442,-8.225551012856924e-18,0.002759559080004692,0.8140621781349182,0.001563307479955256,0.26512935757637024
489.0,634.0,-0.0042,0.192,9.6371,-0.0386,0.0171,-0.1205,-1.8007470570006312,-0.00011681689647957683,2.8181052207946777,-1.853574275970459,0.002405148930847645,2.0496935844421387,5.145460146456518,-0.00014815408212598413,0.2895720899105072,-1.5933578650103968,-7.181654629664687e-42,-0.05243591219186783,0.7770580053329468,-3.506681634197682e-20,0.020010126754641533,0.81412672996521,0.0019238132517784834,0.21103745698928833
489.0,634.0,-0.0042,0.192,9.6371,-0.0386,0.0171,-0.1205,-1.8007108173766078,-0.0001464490342186764,2.7929599285125732,-1.8535774946212769,0.001837873482145369,2.021808624267578,5.14545230844573,-0.00013953997404314578,0.2990684509277344,-1.5933821837054651,-1.401298464324817e-45,-0.056976016610860825,0.7769854664802551,-9.760978299361242e-24,0.02130640484392643,0.814102292060852,0.002227573189884424,0.23035120964050293
489.0,634.0,-0.0042,0.192,9.6371,-0.0386,0.0171,-0.1205,-1.8007751903929652,-0.0005775995086878538,2.823066234588623,-1.8535618782043457,0.001488115289248526,2.0223374366760254,5.1454403577144525,-9.834628144744784e-05,0.2805517613887787,-1.593409840260641,-0.0,-0.062086328864097595,0.7770137786865234,-2.717003935707343e-27,0.013971284031867981,0.8141788244247437,0.002758723683655262,0.2639256417751312
489.0,634.0,-0.0042,0.192,9.6371,-0.0386,0.0171,-0.1205,-1.8007832966246546,-0.0005810451693832874,2.8022356033325195,-1.8535494804382324,0.0012240773066878319,2.04162859916687,5.145444172411718,-0.00010583985567791387,0.27136120200157166,-1.593381706868307,-0.0,-0.06840011477470398,0.7770814299583435,-7.562880978190483e-31,0.01388498954474926,0.8140899538993835,0.003389874240383506,0.2781289219856262
453.0,628.0,-0.003,0.1789,9.6233,-0.0315,0.0255,-0.0973,-1.8007103405394496,-0.00054905004799366,2.784858226776123,-1.8535422086715698,0.0014159479178488255,2.0273778438568115,5.145388173847952,-0.0001041950672515668,0.2817588150501251,-1.5933621565448206,-0.0,-0.05764448642730713,0.7770497798919678,-2.1051554099229503e-34,0.022275758907198906,0.8141784071922302,0.00405808025971055,0.2998630702495575
453.0,628.0,-0.003,0.1789,9.6233,-0.0315,0.0255,-0.0973,-1.8007708988585414,-0.0005350590217858553,2.746328353881836,-1.853493571281433,0.001683542039245367,2.049306631088257,5.145384180336752,-0.00011490102770039812,0.27150577306747437,-1.5933740774737757,-0.0,-0.06517283618450165,0.7770378589630127,0.0001717673585517332,0.020702306181192398,0.8142268657684326,0.005071322899311781,0.31467244029045105
453.0,628.0,-0.003,0.1789,9.6233,-0.0315,0.0255,-0.0973,-1.8007389507689417,-0.0005071040941402316,2.7588884830474854,-1.853501796722412,0.0027176295407116413,2.0184144973754883,5.1454442022140405,-0.00010894885053858161,0.2690030038356781,-1.5933979193316858,-0.0,-0.06955145299434662,0.7770460247993469,0.00017711601685732603,0.009468857198953629,0.8142063021659851,0.00677897036075592,0.2945840656757355
453.0,628.0,-0.003,0.1789,9.6233,-0.0315,0.0255,-0.0973,-1.8007708988585414,-0.0005848149303346872,2.778316020965576,-1.8535058498382568,0.0038280971348285675,2.022552013397217,5.145416009217062,-0.00011787308903876692,0.2899036407470703,-1.5933411757098597,-0.0,-0.07123427838087082,0.7770777940750122,0.00016786795458756387,0.03202907741069794,0.8142865300178528,0.009127538651227951,0.3023489713668823
453.0,628.0,-0.003,0.1789,9.6233,-0.0315,0.0255,-0.0973,-1.8007828197874964,-0.0005952670471742749,2.782442331314087,-1.8534334897994995,0.0046557276509702206,1.971803903579712,5.1454122243221185,-0.00011460128735052422,0.27466079592704773,-1.5933902899371546,-0.0,-0.07528628408908844,0.777097761631012,0.00017755263252183795,0.012256946414709091,0.8143225312232971,0.009848015382885933,0.2906680703163147
453.0,628.0,-0.003,0.1789,9.6233,-0.0315,0.0255,-0.0973,-1.8008233509459437,-0.0013837432488799095,2.749382972717285,-1.8534376621246338,0.005627720151096582,2.02223539352417,5.145480859070577,-0.0002049229951808229,0.2724922299385071,-1.593342129384176,-0.0,-0.06553955376148224,0.7770614624023438,0.0001694981037871912,0.031908415257930756,0.8143541216850281,0.011858600191771984,0.3106882870197296
453.0,628.0,-0.003,0.1789,9.6233,-0.0315,0.0255,-0.0973,-1.8007828197874964,-0.0020157929975539446,2.758133888244629,-1.853413701057434,0.006379393860697746,2.0981199741363525,5.145403671055593,-0.00023443071404471993,0.2597557604312897,-1.5933902899371546,-0.0,-0.07276180386543274,0.7770695686340332,0.0001568399602547288,0.028851870447397232,0.8144062161445618,0.013062434270977974,0.28523552417755127
453.0,628.0,-0.003,0.1789,9.6233,-0.0315,0.0255,-0.0973,-1.8007947407164515,-0.0032988921739161015,2.7019951343536377,-1.853317379951477,0.007232906762510538,2.0525269508361816,5.1454122243221185,-0.0002568616473581642,0.26720130443573,-1.5933821837054651,-0.0,-0.06644947826862335,0.7770137786865234,0.00014593987725675106,0.01520641427487135,0.814498245716095,0.014236140996217728,0.25744742155075073
453.0,628.0,-0.003,0.1789,9.6233,-0.0315,0.0255,-0.0973,-1.800814767877096,-0.0038675011601299047,2.7229645252227783,-1.8533700704574585,0.008816903457045555,2.0691351890563965,5.14544444063262,-0.00023293824051506817,0.26556238532066345,-1.5933492819415491,-0.0,-0.07263024151325226,0.7770737409591675,0.00013645642320625484,0.02804619073867798,0.8146429657936096,0.01659223437309265,0.28729501366615295
453.0,628.0,-0.003,0.1789,9.6233,-0.0315,0.0255,-0.0973,-1.8008667431273402,-0.0033213216811418533,2.7200920581817627,-1.8532698154449463,0.009532412514090538,2.070383071899414,5.145384180336752,-0.0002123284648405388,0.2658958435058594,-1.5933821837054651,-0.0,-0.06326182186603546,0.7770774364471436,0.0001281302684219554,0.0077646696008741856,0.8147187829017639,0.017496636137366295,0.2921784818172455
453.0,628.0,-0.003,0.1789,9.6233,-0.0315,0.0255,-0.0973,-1.8009120426573695,-0.0026565047446638346,2.747389793395996,-1.853166103363037,0.009754587896168232,2.037785530090332,5.145492303162374,-0.00019506925309542567,0.2739536166191101,-1.5933778921710413,-0.0,-0.07153429090976715,0.7770620584487915,0.0001207617242471315,0.02077336609363556,0.8148633241653442,0.019385475665330887,0.2656291127204895
453.0,628.0,-0.003,0.1789,9.6233,-0.0315,0.0255,-0.0973,-1.8008748493590296,-0.0016098885098472238,2.738109827041626,-1.8531537055969238,0.009199397638440132,2.0677216053009033,5.145436304598608,-0.00018040512804873288,0.2747877240180969,-1.5933659712420862,-0.0,-0.05825386196374893,0.777033805847168,0.00011419481597840786,0.031028948724269867,0.8149428367614746,0.021657457575201988,0.2550727128982544
453.0,628.0,-0.003,0.1789,9.6233,-0.0315,0.0255,-0.0973,-1.800927301446432,-0.0011674414854496717,2.776460886001587,-1.853081226348877,0.00834465492516756,2.057870626449585,5.145460355072775,-0.00016779192083049566,0.2770008444786072,-1.5933898130999964,-0.0,-0.06920403987169266,0.7770538330078125,0.00010830505925696343,0.012704616412520409,0.8151035308837891,0.024186203256249428,0.2244204580783844
453.0,628.0,-0.003,0.1789,9.6233,-0.0315,0.0255,-0.0973,-1.8008786640562953,-0.0011147410841658711,2.750694751739502,-1.853089451789856,0.0071316249668598175,2.0973434448242188,5.145436304598608,-0.0001603191631147638,0.2708509564399719,-1.5933979193316858,-0.0,-0.05954863131046295,0.7770501375198364,0.00010470511188032106,0.017168302088975906,0.815183162689209,0.024935748428106308,0.2229567915201187
453.0,628.0,-0.003,0.1789,9.6233,-0.0315,0.0255,-0.0973,-1.800939222375387,-0.001044829492457211,2.776888370513916,-1.853037714958191,0.004762682132422924,2.0754647254943848,5.145492303162374,-0.00015028023335617036,0.27027320861816406,-1.5933778921710413,-1.0267564903188031e-05,-0.06764610856771469,0.7770256400108337,9.973243868444115e-05,0.012864639982581139,0.8153436183929443,0.027466410771012306,0.28306442499160767
453.0,628.0,-0.003,0.1789,9.6233,-0.0315,0.0255,-0.0973,-1.8008748493590296,-0.000996375922113657,2.7432284355163574,-1.8530254364013672,0.0026674179825931787,2.0641369819641113,5.145480382233419,-0.00014142447616904974,0.2828262746334076,-1.5934060255633753,-2.8580138256018017e-09,-0.060381509363651276,0.7770737409591675,0.00010869443940464407,0.024708105251193047,0.8155195713043213,0.02832566574215889,0.25546208024024963
482.0,638.0,-0.0951,0.2949,9.664,-0.0345,0.0247,-0.1179,-1.800955434838766,-0.0008507127640768886,2.7576961517333984,-1.8530335426330566,0.0014716098085045815,2.0308921337127686,5.145468193083563,-0.000133554422063753,0.2859363853931427,-1.5933578650103968,-7.955386024417754e-13,-0.07475590705871582,0.7770774364471436,0.00010409286187496036,0.03365853428840637,0.8156518936157227,0.027481094002723694,0.25061729550361633
482.0,638.0,-0.0951,0.2949,9.664,-0.0345,0.0247,-0.1179,-1.800882955590719,-0.0005759094492532313,2.7302980422973633,-1.852993369102478,0.0009121612529270351,2.0110037326812744,5.145436215191641,-0.00012651397264562547,0.26828792691230774,-1.5933859984027308,-2.2144109395011262e-16,-0.07515539228916168,0.7770015001296997,9.976579895010218e-05,0.021623220294713974,0.8157958388328552,0.025767602026462555,0.28280025720596313
482.0,638.0,-0.0951,0.2949,9.664,-0.0345,0.0247,-0.1179,-1.8009191952147425,-0.0004946976550854743,2.732175827026367,-1.853018045425415,0.0006608444964513183,1.9929356575012207,5.145456540375509,-0.00011316183372400701,0.27201423048973083,-1.5933821837054651,-6.163894661978007e-20,-0.05908277630805969,0.7770654559135437,9.578405297361314e-05,0.024366671219468117,0.8159434795379639,0.023492315784096718,0.2756550908088684
482.0,638.0,-0.0951,0.2949,9.664,-0.0345,0.0247,-0.1179,-1.8009187183775843,-0.0005150146898813546,2.7698237895965576,-1.8530097007751465,0.0005181352607905865,1.9873242378234863,5.145376252918997,-0.00012062182213412598,0.26245179772377014,-1.5933979193316858,-1.7157424921413023e-23,-0.08238127082586288,0.7770378589630127,9.212248551193625e-05,0.015921110287308693,0.8161002397537231,0.02023260109126568,0.2491634637117386
482.0,638.0,-0.0951,0.2949,9.664,-0.0345,0.0247,-0.1179,-1.8009230099120082,-0.0005665773642249405,2.7301316261291504,-1.853026270866394,0.0003396620159037411,2.0369813442230225,5.1454122243221185,-0.0001348575606243685,0.2745129466056824,-1.5934060255633753,-4.7758328685000145e-27,-0.0587567463517189,0.7769814729690552,7.847381493775174e-05,0.029635559767484665,0.8162402510643005,0.016658490523695946,0.20560917258262634
482.0,638.0,-0.0951,0.2949,9.664,-0.0345,0.0247,-0.1179,-1.800894399682516,-0.0005473078927025199,2.721198797225952,-1.8530097007751465,0.0002587648341432214,2.0517330169677734,5.1454122243221185,-0.00014923881099093705,0.2726483941078186,-1.5933659712420862,-2.0360123384264876e-29,-0.05736258998513222,0.7770573496818542,7.582660327898338e-05,0.022115524858236313,0.8162683248519897,0.014284142293035984,0.2735840678215027
482.0,638.0,-0.0951,0.2949,9.664,-0.0345,0.0247,-0.1179,-1.8009349308409632,-0.0006233478779904544,2.7457871437072754,-1.8530622720718384,0.00026481025270186365,2.060925245285034,5.145396280079641,-0.00043427530908957124,0.2602672576904297,-1.593353573475973,-5.6673154047034905e-33,-0.0702238604426384,0.77701336145401,7.217781967483461e-05,0.020957350730895996,0.8163520693778992,0.010278887115418911,0.23685377836227417
482.0,638.0,-0.0951,0.2949,9.664,-0.0345,0.0247,-0.1179,-1.8009797535338343,-0.000614400370977819,2.7382559776306152,-1.8530303239822388,0.0002308540279045701,2.0242958068847656,5.145376133709707,-0.00047401944175362587,0.26104605197906494,-1.5933740774737757,-1.577518225817762e-36,-0.06639157235622406,0.7770614624023438,6.886420305818319e-05,0.021613167598843575,0.8163719177246094,0.007296204566955566,0.26593098044395447
482.0,638.0,-0.0951,0.2949,9.664,-0.0345,0.0247,-0.1179,-1.8009878597655238,-0.0006335098878480494,2.6840994358062744,-1.8529819250106812,0.0002387094427831471,1.998931884765625,5.1453802464301965,-0.0007796648424118757,0.27419736981391907,-1.5933502356158655,-4.39108084183896e-40,-0.07793308794498444,0.7770695686340332,6.584137008758262e-05,0.020658208057284355,0.8164080381393433,0.004679765552282333,0.18716248869895935
482.0,638.0,-0.0951,0.2949,9.664,-0.0345,0.0247,-0.1179,-1.8009106121458949,-0.0006325579597614706,2.6921398639678955,-1.8530303239822388,0.0003693056933116168,2.016416549682617,5.145408350020208,-0.0007847551023587584,0.25483208894729614,-1.593353573475973,-1.2191296639625909e-43,-0.05598226189613342,0.7770498394966125,6.307284638751298e-05,0.028999455273151398,0.8164237141609192,0.0025973620358854532,0.2159121334552765
482.0,638.0,-0.0951,0.2949,9.664,-0.0345,0.0247,-0.1179,-1.8009597263731898,-0.0008289300603792071,2.670543670654297,-1.8529942035675049,0.0004175397625658661,2.0417261123657227,5.145372110396185,-0.0008033315534703434,0.25181829929351807,-1.5933783690081995,-0.0,-0.045741114765405655,0.776997447013855,6.0527709138114005e-05,0.014750652015209198,0.8164681196212769,0.0015014481032267213,0.17896246910095215
482.0,638.0,-0.0951,0.2949,9.664,-0.0345,0.0247,-0.1179,-1.8010035953917445,-0.001003815676085651,2.7088587284088135,-1.853017807006836,0.0009683811804279685,2.049083948135376,5.1453802464301965,-0.0008443021797575057,0.24485069513320923,-1.593342129384176,-0.0,-0.0438789427280426,0.7770654559135437,5.818007775815204e-05,0.03229799121618271,0.8164598941802979,0.0010975670302286744,0.15558522939682007
482.0,638.0,-0.0951,0.2949,9.664,-0.0345,0.0247,-0.1179,-1.8009668789305628,-0.001439474755898118,2.7015812397003174,-1.8529942035675049,0.0011450699530541897,2.05509614944458,5.145380484848776,-0.0010130411246791482,0.24439531564712524,-1.5933383146869105,-0.0,-0.050946228206157684,0.7770174741744995,5.600773874903098e-05,0.023173604160547256,0.8164963126182556,0.0006319375243037939,0.20465967059135437
482.0,638.0,-0.0951,0.2949,9.664,-0.0345,0.0247,-0.1179,-1.8010360203185023,-0.0018911106744781137,2.701129913330078,-1.8529539108276367,0.0009852505754679441,2.0752291679382324,5.145336407213964,-0.0012393163051456213,0.24407000839710236,-1.5933383146869105,-0.0,-0.03821694850921631,0.7770695090293884,5.4647425713483244e-05,0.03232693299651146,0.8164519667625427,0.0004931844887323678,0.1666155755519867
482.0,638.0,-0.0951,0.2949,9.664,-0.0345,0.0247,-0.1179,-1.8010274372496546,-0.002137373434379697,2.700605630874634,-1.8530187606811523,0.0007145052659325302,2.066730499267578,5.145316231041708,-0.0028692299965769053,0.25277402997016907,-1.5933135191546839,-0.0,-0.04072926193475723,0.7771220207214355,5.272652197163552e-05,0.031360264867544174,0.8165246844291687,0.0003711127210408449,0.16378989815711975
482.0,638.0,-0.0951,0.2949,9.664,-0.0345,0.0247,-0.1179,-1.8010193310179652,-0.0029621259309351444,2.716329574584961,-1.853026270866394,0.0005113818915560842,2.0483627319335938,5.145284342556753,-0.006087013985961676,0.2407756745815277,-1.593342129384176,-0.0,-0.039529938250780106,0.7770774960517883,5.093607978778891e-05,0.02426905930042267,0.8165004253387451,0.0002974920498672873,0.12323407828807831
484.0,651.0,0.1364,0.2542,9.4953,-0.0357,0.0302,-0.1219,-1.8010593853392542,-0.0032629496417939663,2.6534018516540527,-1.8530385494232178,0.00046361752902157605,2.031155586242676,5.145236718445577,-0.008804447948932648,0.23054321110248566,-1.593325440083639,-0.0,-0.03651420772075653,0.7770417332649231,6.415663847292308e-06,0.01849478855729103,0.8164519667625427,0.0002482493582647294,0.11370010673999786
484.0,651.0,0.1364,0.2542,9.4953,-0.0357,0.0302,-0.1219,-1.801091810266012,-0.003707235911861062,2.6608502864837646,-1.853010654449463,0.0003804064472205937,2.0488767623901367,5.145200717240133,-0.005895056761801243,0.23970869183540344,-1.5933616797076624,-0.0,-0.03851715847849846,0.7770695090293884,1.7858237111312292e-09,0.03822765871882439,0.8164758682250977,0.0001704672904452309,0.10745403170585632
484.0,651.0,0.1364,0.2542,9.4953,-0.0357,0.0302,-0.1219,-1.8011161289610804,-0.00395988579839468,2.695570468902588,-1.8529744148254395,0.00032205841853283346,2.0636730194091797,5.145160960942068,-0.002686969470232725,0.2341860979795456,-1.5933464209186,-0.0,-0.02901904657483101,0.7770695090293884,4.970905956823424e-13,0.02560330182313919,0.8164882063865662,0.00014920771354809403,0.060953713953495026
484.0,651.0,0.1364,0.2542,9.4953,-0.0357,0.0302,-0.1219,-1.801103254357809,-0.005092164035886526,2.6345136165618896,-1.8529942035675049,0.00031909989775158465,2.041694402694702,5.1451205787952325,-0.0014079147949814796,0.25409314036369324,-1.5933216253863733,-0.0,-0.0235960241407156,0.7770733833312988,1.3836698768938743e-16,0.031579725444316864,0.8164478540420532,0.00013270614726934582,0.07596911489963531
484.0,651.0,0.1364,0.2542,9.4953,-0.0357,0.0302,-0.1219,-1.8011514149107875,-0.004898402374237776,2.6139888763427734,-1.8529300689697266,0.0002450592874083668,2.074228525161743,5.145192968636312,-0.0012387301540002227,0.22186949849128723,-1.5933783690081995,-0.0,-0.022634223103523254,0.7770256996154785,3.851495749949533e-20,0.030548956245183945,0.8164277076721191,0.00011949142208322883,0.07670046389102936
484.0,651.0,0.1364,0.2542,9.4953,-0.0357,0.0302,-0.1219,-1.8012038669981898,-0.005227298941463232,2.616684675216675,-1.852989912033081,0.00029979125247336924,2.0722293853759766,5.145129012852468,-0.0014648844953626394,0.2336612045764923,-1.593313995991842,-0.0,-0.012632847763597965,0.7770897150039673,1.6419530110467806e-22,0.029302995651960373,0.8165445327758789,0.00011205276678083465,0.08687163889408112
484.0,651.0,0.1364,0.2542,9.4953,-0.0357,0.0302,-0.1219,-1.801187654534811,-0.005371701437979937,2.611783504486084,-1.852957844734192,0.0018050812650471926,2.055922746658325,5.145161169558325,-0.002329402370378375,0.2202317714691162,-1.5933378378497522,-0.0,-0.02931126207113266,0.7770614624023438,4.570436060679411e-26,0.03081056848168373,0.8164722323417664,0.00010248294711345807,0.13227246701717377
484.0,651.0,0.1364,0.2542,9.4953,-0.0357,0.0302,-0.1219,-1.8012720547118128,-0.00559214549139142,2.6009650230407715,-1.8529226779937744,0.0030707709956914186,2.0052566528320312,5.145088124066152,-0.004298228304833174,0.21003061532974243,-1.5933464209186,-0.0,-0.020634010434150696,0.7770174145698547,1.2721975502791242e-29,0.03635739907622337,0.8164478540420532,9.441921429242939e-05,0.12432684749364853
484.0,651.0,0.1364,0.2542,9.4953,-0.0357,0.0302,-0.1219,-1.8012753925719203,-0.005897358525544405,2.602881908416748,-1.8529226779937744,0.004488231614232063,2.069464683532715,5.145073014288702,-0.005349974613636732,0.19770507514476776,-1.5933502356158655,-0.0,-0.01671415939927101,0.7770774960517883,6.386641325661913e-05,0.03806840628385544,0.8165123462677002,6.564903014805168e-05,0.03838345408439636
484.0,651.0,0.1364,0.2542,9.4953,-0.0357,0.0302,-0.1219,-1.801335950891012,-0.006364293396472931,2.599424362182617,-1.8528739213943481,0.006097475998103619,2.09511661529541,5.145088779717245,-0.003677968867123127,0.21215182542800903,-1.5933135191546839,-0.0,-0.011195674538612366,0.777085542678833,7.168925367295742e-05,0.03287121653556824,0.8164483904838562,6.118583405623212e-05,0.052539438009262085
484.0,651.0,0.1364,0.2542,9.4953,-0.0357,0.0302,-0.1219,-1.8013717136778773,-0.00749614741653204,2.548804521560669,-1.8528624773025513,0.007886849343776703,2.0759763717651367,5.145108926087179,-0.0011692133266478777,0.21873977780342102,-1.5933135191546839,-0.0,-0.01881658285856247,0.7771015763282776,8.210261148633435e-05,0.03161352500319481,0.8164401054382324,5.729108670493588e-05,0.0968935564160347
484.0,651.0,0.1364,0.2542,9.4953,-0.0357,0.0302,-0.1219,-1.8014160595335902,-0.008209182880818844,2.567485809326172,-1.8527743816375732,0.00941731408238411,2.0870697498321533,5.145092952042379,-0.0006549198878929019,0.22052991390228271,-1.593325440083639,-0.0,-0.01816572993993759,0.7770450115203857,9.160837362287566e-05,0.05141070485115051,0.8165164589881897,5.386233897297643e-05,0.03871193528175354
484.0,651.0,0.1364,0.2542,9.4953,-0.0357,0.0302,-0.1219,-1.801455637017721,-0.008458857424557209,2.584683656692505,-1.8527226448059082,0.011994686909019947,2.0663554668426514,5.145065027266302,-0.00045555116957984865,0.21892550587654114,-1.5933659712420862,-0.0,-0.019656794145703316,0.7770814299583435,9.709611185826361e-05,0.0475928895175457,0.8164800405502319,5.082093412056565e-05,0.1093488335609436
484.0,651.0,0.1364,0.2542,9.4953,-0.0357,0.0302,-0.1219,-1.8014637432494105,-0.009254825301468372,2.5834693908691406,-1.8526335954666138,0.013098527677357197,2.057504653930664,5.145081269532003,-0.0003787656023632735,0.21325723826885223,-1.5933221022235315,9.405157470609993e-05,-0.021016672253608704,0.7770974636077881,9.758929081726819e-05,0.039314381778240204,0.8164681196212769,4.8977166443364695e-05,0.02576686441898346
484.0,651.0,0.1364,0.2542,9.4953,-0.0357,0.0302,-0.1219,-1.8015757999815882,-0.011490384116768837,2.5892651081085205,-1.8525415658950806,0.014834705740213394,2.0660958290100098,5.1450649974639795,-0.0003626742691267282,0.22172662615776062,-1.5933340231524866,9.771613258635625e-05,-0.012766939587891102,0.7770491242408752,9.378886898048222e-05,0.04576314985752106,0.8164520263671875,4.644949149223976e-05,0.03141205012798309
484.0,651.0,0.1364,0.2542,9.4953,-0.0357,0.0302,-0.1219,-1.8016602001585902,-0.01227852888405323,2.5400938987731934,-1.8525019884109497,0.016889287158846855,2.130037307739258,5.14500908830718,-0.0003517869336064905,0.21167203783988953,-1.5933340231524866,9.174218575935811e-05,-0.0015097623690962791,0.7771617770195007,0.00021261592337395996,0.04363279044628143,0.8164800405502319,4.4169915781822056e-05,0.07138237357139587
486.0,643.0,-0.6132,0.4828,9.7328,-0.0325,0.0637,-0.124,-1.801732679406637,-0.013465461321175098,2.5537524223327637,-1.8523539304733276,0.01928463764488697,2.1141629219055176,5.145073163300314,-0.00026161057758145034,0.22321200370788574,-1.593342129384176,8.64544344949536e-05,-0.014046567492187023,0.7770774364471436,0.0001932819141075015,0.03672647476196289,0.8164359927177429,4.2103580199182034e-05,0.0843057632446289
486.0,643.0,-0.6132,0.4828,9.7328,-0.0325,0.0637,-0.124,-1.8018127880492152,-0.014506349340081215,2.5503883361816406,-1.852242112159729,0.021765735000371933,2.129199743270874,5.145045268326559,-0.0002997298142872751,0.21337297558784485,-1.593342129384176,8.174301183316857e-05,-0.005540621466934681,0.7770215272903442,0.00017121747077908367,0.049814946949481964,0.816447913646698,5.356693873181939e-05,0.025336124002933502
486.0,643.0,-0.6132,0.4828,9.7328,-0.0325,0.0637,-0.124,-1.801896711389059,-0.01640275865793228,2.5355215072631836,-1.8520938158035278,0.02629069983959198,2.1256628036499023,5.145048725395956,-0.0010545693803578615,0.21956777572631836,-1.593313995991842,7.751853263471276e-05,-0.01770714484155178,0.7771376967430115,0.00018439847917761654,0.04475788772106171,0.8164681196212769,5.1335140597075224e-05,0.06586826592683792
486.0,643.0,-0.6132,0.4828,9.7328,-0.0325,0.0637,-0.124,-1.8020531139769496,-0.018978385254740715,2.4857983589172363,-1.851861834526062,0.03127027675509453,2.115035057067871,5.145045268326559,-0.001894370187073946,0.19925454258918762,-1.593302075062887,7.370925595751032e-05,-0.012158061377704144,0.7771057486534119,0.00019146133854519576,0.047743700444698334,0.8165004253387451,1.383577455271734e-05,0.09022508561611176
486.0,643.0,-0.6132,0.4828,9.7328,-0.0325,0.0637,-0.124,-1.8021494350829066,-0.023784970864653587,2.507603168487549,-1.8517136573791504,0.03630110248923302,2.1608762741088867,5.14501707532958,-0.0020645319018512964,0.20066659152507782,-1.5933135191546839,7.025690138107166e-05,-0.007276734337210655,0.7770614624023438,0.00017855234909802675,0.05631851404905319,0.8164635896682739,2.5556160835549235e-05,0.04475682973861694
486.0,643.0,-0.6132,0.4828,9.7328,-0.0325,0.0637,-0.124,-1.8022290668883265,-0.02549838274717331,2.520122528076172,-1.8515944480895996,0.04106200486421585,2.146946668624878,5.145025360375204,-0.0019195708446204662,0.19539101421833038,-1.5933464209186,6.812951323809102e-05,-0.0068939607590436935,0.7771175503730774,0.00018686200201045722,0.06190374493598938,0.8165284395217896,3.711008685058914e-05,0.057168904691934586
486.0,643.0,-0.6132,0.4828,9.7328,-0.0325,0.0637,-0.124,-1.8024054966368617,-0.03140977397561073,2.490225076675415,-1.8512495756149292,0.05054140463471413,2.178015947341919,5.145033734827795,-0.001607401529327035,0.19404098391532898,-1.5933340231524866,6.516949360957369e-05,-0.011400085873901844,0.7770970463752747,0.00017873020260594785,0.0491979718208313,0.8165485858917236,4.7566336434101686e-05,0.06155776232481003
486.0,643.0,-0.6132,0.4828,9.7328,-0.0325,0.0637,-0.124,-1.8025976620116175,-0.037847310304641724,2.4712064266204834,-1.8509864807128906,0.057899169623851776,2.159970283508301,5.144961046963491,-0.00140095641836524,0.18697142601013184,-1.5933502356158655,5.079186303191818e-05,-0.026749441400170326,0.777085542678833,0.00018870775238610804,0.04235495999455452,0.8164478540420532,0.0004451795539353043,0.07892142236232758
486.0,643.0,-0.6132,0.4828,9.7328,-0.0325,0.0637,-0.124,-1.8028584919371546,-0.046433571726083755,2.4381420612335205,-1.8506340980529785,0.06790187954902649,2.194657325744629,5.144961046963491,-0.0016241521807387471,0.19132278859615326,-1.5933783690081995,4.796782013727352e-05,-0.01375821977853775,0.7771294713020325,0.00016767240595072508,0.05404625087976456,0.8164758682250977,0.000423229590523988,0.10854864120483398
486.0,643.0,-0.6132,0.4828,9.7328,-0.0325,0.0637,-0.124,-1.803171297112936,-0.05575140565633774,2.3894293308258057,-1.8501782417297363,0.07793086767196655,2.2104406356811523,5.144989537983694,-0.0019294330850243568,0.18765488266944885,-1.593325440083639,4.612387783708982e-05,-0.02145736664533615,0.7770933508872986,0.000178936606971547,0.07261311262845993,0.8164921998977661,0.000554308295249939,0.13007712364196777
486.0,643.0,-0.6132,0.4828,9.7328,-0.0325,0.0637,-0.124,-1.8035437069334925,-0.06426987797021866,2.373013496398926,-1.8495818376541138,0.0892946720123291,2.208695888519287,5.144997644215383,-0.0024729606229811907,0.17407315969467163,-1.5933135191546839,4.441666533239186e-05,-0.02761094644665718,0.7771093249320984,0.00016443892673123628,0.06671403348445892,0.8165041208267212,0.0005681836628355086,0.14261183142662048
486.0,643.0,-0.6132,0.4828,9.7328,-0.0325,0.0637,-0.124,-1.8039566479124964,-0.0714786946773529,2.394190549850464,-1.849029541015625,0.10484505444765091,2.246495246887207,5.144921082049169,-0.003521793521940708,0.18270325660705566,-1.5933659712420862,4.2831350583583117e-05,-0.03216303512454033,0.7770897150039673,0.00015067338244989514,0.06520300358533859,0.8164880871772766,0.0007447820389643312,0.12067089974880219
486.0,643.0,-0.6132,0.4828,9.7328,-0.0325,0.0637,-0.124,-1.8043772182860316,-0.07877101749181747,2.344959259033203,-1.8483902215957642,0.11538141965866089,2.2900054454803467,5.144941764860906,-0.004299058113247156,0.18638071417808533,-1.5933297316180628,4.135526978643611e-05,-0.026813557371497154,0.7770375609397888,0.00013903426588512957,0.06532391905784607,0.8165363073348999,0.0011999739799648523,0.1329566240310669
486.0,643.0,-0.6132,0.4828,9.7328,-0.0325,0.0637,-0.124,-1.8047176800169886,-0.0811140239238739,2.3779256343841553,-1.8478702306747437,0.11950556933879852,2.279094696044922,5.144841360836782,-0.005316917318850756,0.18507787585258484,-1.5933464209186,4.0426482883049175e-05,-0.024430276826024055,0.7771216630935669,0.00013222519191913307,0.07020214945077896,0.8165121078491211,0.0014832675224170089,0.11067448556423187
486.0,643.0,-0.6132,0.4828,9.7328,-0.0325,0.0637,-0.124,-1.8052059612669886,-0.08734071999788284,2.3652241230010986,-1.8471139669418335,0.123121477663517,2.3255836963653564,5.144878375321188,-0.006035784725099802,0.16440492868423462,-1.593313995991842,6.632998292843695e-07,-0.030669303610920906,0.7770851254463196,0.00014369359996635467,0.06943108886480331,0.8166005611419678,0.0018135952996090055,0.11589507758617401
486.0,643.0,-0.6132,0.4828,9.7328,-0.0325,0.0637,-0.124,-1.8057266674437464,-0.09160245954990387,2.3363845348358154,-1.8463752269744873,0.1247946172952652,2.209106206893921,5.144833910256185,-0.006369239185005426,0.17007555067539215,-1.593325440083639,1.846319763743054e-10,-0.020474009215831757,0.7770567536354065,0.00013450131518766284,0.08403468132019043,0.8165724873542786,0.0019406926585361362,0.09099522233009338
459.0,624.0,-1.0169,-0.253,8.7356,-0.0434,-0.0446,-0.1364,-1.806286951104635,-0.09592799097299576,2.3174662590026855,-1.8455599546432495,0.13141340017318726,2.2860093116760254,5.144793736725607,-0.007451498880982399,0.1704564392566681,-1.5933659712420862,5.139298546192467e-14,-0.02399887517094612,0.7771334648132324,0.00012640496424864978,0.05739663168787956,0.8165438771247864,0.0016788587672635913,0.13691456615924835
459.0,624.0,-1.0169,-0.253,8.7356,-0.0434,-0.0446,-0.1364,-1.8069611988463343,-0.09699022769927979,2.3333563804626465,-1.844806432723999,0.13729920983314514,2.297947406768799,5.144697892456808,-0.010710624977946281,0.1566331833600998,-1.5933135191546839,1.430542694961457e-17,-0.01623746007680893,0.7770813703536987,0.00011922818521270528,0.06737080961465836,0.8165439367294312,0.0011624206090345979,0.1275842934846878
459.0,624.0,-1.0169,-0.253,8.7356,-0.0434,-0.0446,-0.1364,-1.8075300655760707,-0.10533302277326584,2.2958853244781494,-1.84391450881958,0.14270342886447906,2.284696578979492,5.144613849907675,-0.013789992779493332,0.16379143297672272,-1.593325440083639,3.981967901163931e-21,-0.02813021093606949,0.7770897150039673,0.00011282244668109342,0.05739279463887215,0.8165560364723206,0.000788003730122,0.1395164579153061
459.0,624.0,-1.0169,-0.253,8.7356,-0.0434,-0.0446,-0.1364,-1.808178564111227,-0.11546420305967331,2.3418362140655518,-1.8430203199386597,0.15414316952228546,2.2826764583587646,5.144538271218099,-0.01775107905268669,0.14521759748458862,-1.5933216253863733,1.1083955229832507e-24,-0.028429176658391953,0.777085542678833,0.00010707008186727762,0.05793318897485733,0.8165963888168335,0.0006355125224217772,0.09063228964805603
459.0,624.0,-1.0169,-0.253,8.7356,-0.0434,-0.0446,-0.1364,-1.8089519939818324,-0.1296934187412262,2.292926549911499,-1.8420183658599854,0.15931741893291473,2.33599853515625,5.1444823620613,-0.02070385403931141,0.1398547887802124,-1.5933178106891077,3.0852598448156598e-28,-0.017339449375867844,0.7771175503730774,0.00010187571751885116,0.06575245410203934,0.8165722489356995,0.0005591171211563051,0.10968773066997528
459.0,624.0,-1.0169,-0.253,8.7356,-0.0434,-0.0446,-0.1364,-1.809793611566061,-0.14042015373706818,2.2350614070892334,-1.8410245180130005,0.16481292247772217,2.3240456581115723,5.144314306765356,-0.022808218374848366,0.13618990778923035,-1.5933173338519495,1.2926603631058242e-05,-0.02411004528403282,0.777125358581543,9.716206113807857e-05,0.057807669043540955,0.8165642023086548,0.0003802897990681231,0.14745333790779114
459.0,624.0,-1.0169,-0.253,8.7356,-0.0434,-0.0446,-0.1364,-1.8103062115111292,-0.1452922523021698,2.216538906097412,-1.8403654098510742,0.17351484298706055,2.386176109313965,5.144274818688192,-0.023551082238554955,0.14956684410572052,-1.593325440083639,1.2383420653350186e-05,-0.02400425262749195,0.7770897150039673,9.42548576858826e-05,0.06983907520771027,0.8165680170059204,0.00031797948759049177,0.12482170760631561
459.0,624.0,-1.0169,-0.253,8.7356,-0.0434,-0.0446,-0.1364,-1.811239858666891,-0.14842814207077026,2.2530081272125244,-1.8392466306686401,0.18478910624980927,2.359781503677368,5.144053774863043,-0.026890486478805542,0.12964271008968353,-1.5933297316180628,1.189176327898167e-05,-0.022046390920877457,0.7770450711250305,9.020604193210602e-05,0.07671788334846497,0.816527783870697,0.00036654650466516614,0.11472836881875992
459.0,624.0,-1.0169,-0.253,8.7356,-0.0434,-0.0446,-0.1364,-1.8121286831297816,-0.14382106065750122,2.309792995452881,-1.8380613327026367,0.19535912573337555,2.38226318359375,5.143898862391271,-0.03637387603521347,0.13470424711704254,-1.5933578650103968,9.866081285281325e-08,-0.012440744787454605,0.7771015167236328,8.649082155898213e-05,0.06976088881492615,0.8165680170059204,0.0003418808337301016,0.1549222469329834
459.0,624.0,-1.0169,-0.253,8.7356,-0.0434,-0.0446,-0.1364,-1.813106199304098,-0.14847911894321442,2.297203302383423,-1.8368148803710938,0.20261350274085999,2.3490419387817383,5.143647241383352,-0.05416671931743622,0.12524095177650452,-1.5933297316180628,2.746259816777119e-11,-0.008294165134429932,0.7770610451698303,8.306951349368319e-05,0.0674193799495697,0.8166043162345886,0.0005178881692700088,0.1497393399477005
459.0,624.0,-1.0169,-0.253,8.7356,-0.0434,-0.0446,-0.1364,-1.814096590081686,-0.1674422025680542,2.2837531566619873,-1.8356261253356934,0.20663203299045563,2.3549294471740723,5.143231886416235,-0.07955195754766464,0.12448623031377792,-1.5933545271502894,7.644315647874819e-15,-0.019124865531921387,0.7771015167236328,7.990858284756541e-05,0.07102806121110916,0.8165878653526306,0.0015803469577804208,0.14564090967178345
459.0,624.0,-1.0169,-0.253,8.7356,-0.0434,-0.0446,-0.1364,-1.8151575527586878,-0.19052456319332123,2.2700953483581543,-1.8344004154205322,0.2124895602464676,2.404885768890381,5.14271371343688,-0.10591104626655579,0.10212038457393646,-1.5933216253863733,2.1278234845046167e-18,-0.017311761155724525,0.7771056890487671,3.0050889108679257e-05,0.052955642342567444,0.8166043162345886,0.001999352592974901,0.11955956369638443
459.0,624.0,-1.0169,-0.253,8.7356,-0.0434,-0.0446,-0.1364,-1.8163076839842738,-0.205842986702919,2.2617545127868652,-1.833029866218567,0.22279252111911774,2.4068355560302734,5.142031419068136,-0.11971636116504669,0.09251711517572403,-1.5934022108661097,5.922874709046977e-22,-0.0394081212580204,0.7771257758140564,2.8523576474981382e-05,0.045492853969335556,0.8165960311889648,0.0010424074716866016,0.12050610780715942
459.0,624.0,-1.0169,-0.253,8.7356,-0.0434,-0.0446,-0.1364,-1.8175131283202113,-0.19764509797096252,2.2722127437591553,-1.8317251205444336,0.2354602962732315,2.4372379779815674,5.141320305853643,-0.11700001358985901,0.110147625207901,-1.593297306691305,1.648653964368201e-25,-0.022717449814081192,0.7770974636077881,2.7229129045736045e-05,0.05916934460401535,0.8165960907936096,0.0004923114320263267,0.148262619972229
459.0,624.0,-1.0169,-0.253,8.7356,-0.0434,-0.0446,-0.1364,-1.8183261356749476,-0.18964189291000366,2.307758331298828,-1.8307055234909058,0.24271194636821747,2.393789052963257,5.140830504685201,-0.11478463560342789,0.10150022804737091,-1.5933573881732386,7.028469961229821e-28,-0.02364923059940338,0.7770651578903198,2.6429479476064444e-05,0.041536737233400345,0.8166444301605225,0.000386099040042609,0.13609515130519867
487.0,667.0,0.8369,0.2865,9.6425,-0.0113,-0.0043,-0.1145,-1.8195120296873988,-0.1855737417936325,2.2744710445404053,-1.829261064529419,0.25740838050842285,2.4460341930389404,5.1400880990322015,-0.1342441290616989,0.11088952422142029,-1.5933578650103968,1.9564004036526407e-31,-0.029144439846277237,0.7771056890487671,1.3495411621988751e-05,0.0551038533449173,0.8166443705558777,0.0003529588575474918,0.1085297018289566
