ramyac6/ROB537/final_project/csv/good/good_140.csv
tof_0,tof_1,accelx,accely,accelz,gyrox,gyroy,gyroz,shoulder_lift_joint_position,shoulder_lift_joint_velocity,shoulder_lift_joint_effort,elbow_joint_position,elbow_joint_velocity,elbow_joint_effort,wrist_1_joint_position,wrist_1_joint_velocity,wrist_1_joint_effort,wrist_2_joint_position,wrist_2_joint_velocity,wrist_2_joint_effort,wrist_3_joint_position,wrist_3_joint_velocity,wrist_3_joint_effort,shoulder_pan_joint_position,shoulder_pan_joint_velocity,shoulder_pan_joint_effort
396.0,700.0,0.9033,0.5521,9.5354,-0.0354,0.0203,-0.1264,-1.8295642338194789,0.0,3.14534330368042,-1.7265340089797974,-0.0,1.9857778549194336,4.934249940305509,0.0,0.2937835454940796,-1.638846222554342,-0.0,-0.008629378862679005,0.8117714524269104,-0.0,-0.0073690516874194145,0.718720555305481,0.0,-0.021974608302116394
396.0,700.0,0.9033,0.5521,9.5354,-0.0354,0.0203,-0.1264,-1.8295766315855921,0.0,3.114839792251587,-1.7265503406524658,-0.0,2.0443294048309326,4.934269580035963,0.0,0.2771141827106476,-1.6388829390155237,-0.0,0.00028865644708275795,0.8118279576301575,-0.0,0.0015748072182759643,0.7187325954437256,0.0,-0.01814630627632141
396.0,700.0,0.9033,0.5521,9.5354,-0.0354,0.0203,-0.1264,-1.8295890293517054,0.0,3.157196521759033,-1.726597785949707,-0.0,2.0246810913085938,4.934265586524763,0.0,0.2865842580795288,-1.638879124318258,-0.0,-0.015170729719102383,0.8118201494216919,-0.0,-0.0025551123544573784,0.7186886668205261,0.0,0.042289525270462036
396.0,700.0,0.9033,0.5521,9.5354,-0.0354,0.0203,-0.1264,-1.82960905651235,0.0,3.145451545715332,-1.7265379428863525,-0.0,2.0689949989318848,4.934209677367964,0.0,0.290833055973053,-1.6388424078570765,-0.0,0.0053268978372216225,0.8117311596870422,-0.0,-0.008091898635029793,0.7187485098838806,0.0,0.007768323179334402
396.0,700.0,0.9033,0.5521,9.5354,-0.0354,0.0203,-0.1264,-1.829580923120016,0.0,3.149280071258545,-1.7265503406524658,-0.0,2.028306245803833,4.934277716069975,0.0,0.2780129313468933,-1.638879124318258,-0.0,-0.008228185586631298,0.8117878437042236,-0.0,-0.010032299906015396,0.7187524437904358,0.0,0.05319289490580559
396.0,700.0,0.9033,0.5521,9.5354,-0.0354,0.0203,-0.1264,-1.8295685253539027,0.0,3.174567699432373,-1.7265584468841553,-0.0,2.0546255111694336,4.93424608090476,0.0,0.29091858863830566,-1.6388948599444788,-0.0,-0.0037248246371746063,0.8118279576301575,-0.0,-0.01138979010283947,0.7187724113464355,0.0,0.0022952975705266
387.0,678.0,1.008,0.5731,9.4176,-0.0308,0.0264,-0.1251,-1.8295966587462367,0.0,3.1205666065216064,-1.726546049118042,-0.0,2.07200288772583,4.93424608090476,0.0,0.29085302352905273,-1.6388748327838343,-0.0,-0.012685418128967285,0.8117635250091553,-0.0,0.0009282374521717429,0.7187405228614807,0.0,-0.016761615872383118
387.0,678.0,1.008,0.5731,9.4176,-0.0308,0.0264,-0.1251,-1.8295728168883265,0.0,3.118953227996826,-1.7265379428863525,-0.0,2.035074234008789,4.934269594937124,0.0,0.2852480411529541,-1.638850514088766,-0.0,-0.0034520700573921204,0.8117755055427551,-0.0,0.004587104078382254,0.7187126278877258,0.0,0.043114807456731796
387.0,678.0,1.008,0.5731,9.4176,-0.0308,0.0264,-0.1251,-1.8295642338194789,0.0,3.1686487197875977,-1.7265464067459106,-0.0,2.021812915802002,4.934197473316946,0.0,0.28208455443382263,-1.6388586203204554,-0.0,0.0029320581816136837,0.8117755651473999,-0.0,0.003991277888417244,0.7187524437904358,0.0,0.0058746556751430035
387.0,678.0,1.008,0.5731,9.4176,-0.0308,0.0264,-0.1251,-1.8296171627440394,0.0,3.15069842338562,-1.726525902748108,-0.0,2.0879883766174316,4.934237915068426,0.0,0.29081234335899353,-1.638850514088766,-0.0,-0.010410606861114502,0.8117795586585999,-0.0,-0.020384930074214935,0.718716561794281,0.0,-0.01509726233780384
387.0,678.0,1.008,0.5731,9.4176,-0.0308,0.0264,-0.1251,-1.8295361004271449,0.0,3.1986231803894043,-1.7265822887420654,-0.0,1.9888637065887451,4.934273677855291,0.0,0.2969036400318146,-1.6388586203204554,-0.0,0.0019487286917865276,0.8117594718933105,-0.0,0.0039860885590314865,0.718720555305481,0.0,0.006156037095934153
387.0,678.0,1.008,0.5731,9.4176,-0.0308,0.0264,-0.1251,-1.8296247921385707,0.0,3.1560606956481934,-1.7265299558639526,-0.0,2.055732250213623,4.934285911708631,0.0,0.29242026805877686,-1.638879124318258,-0.0,-0.0009083191398531199,0.8117795586585999,-0.0,0.0014231379609555006,0.7186567783355713,0.0,-0.006869613192975521
387.0,678.0,1.008,0.5731,9.4176,-0.0308,0.0264,-0.1251,-1.8295604191222132,0.0,3.1265201568603516,-1.7265701293945312,-0.0,2.0563230514526367,4.934258001833715,0.0,0.28969675302505493,-1.6388748327838343,-0.0,-0.015379630960524082,0.8117517232894897,-0.0,-0.005531912669539452,0.7187047004699707,0.0,-0.04443483427166939
387.0,678.0,1.008,0.5731,9.4176,-0.0308,0.0264,-0.1251,-1.8296128712096156,0.0,3.1683132648468018,-1.7265299558639526,-0.0,2.0295639038085938,4.934221926122465,0.0,0.2888932228088379,-1.6388748327838343,-0.0,-0.004756665322929621,0.8117234706878662,-0.0,-0.006068958435207605,0.7187284827232361,0.0,0.057170599699020386
387.0,678.0,1.008,0.5731,9.4176,-0.0308,0.0264,-0.1251,-1.8295322857298792,0.0,3.1411046981811523,-1.7265658378601074,-0.0,2.0001120567321777,4.934249925404348,0.0,0.2906845808029175,-1.6388261953936976,-0.0,-0.006589708384126425,0.8117713928222656,-0.0,-0.005246336571872234,0.7186926007270813,0.0,0.008766688406467438
387.0,678.0,1.008,0.5731,9.4176,-0.0308,0.0264,-0.1251,-1.8295642338194789,0.0,3.1334519386291504,-1.7265903949737549,-0.0,2.0210461616516113,4.934273677855291,0.0,0.2851117253303528,-1.6388629118548792,-0.0,0.00658585038036108,0.8117795586585999,-0.0,-0.007410893216729164,0.718732476234436,0.0,0.020219214260578156
387.0,678.0,1.008,0.5731,9.4176,-0.0308,0.0264,-0.1251,-1.8296128712096156,0.0,3.167072296142578,-1.72659432888031,-0.0,2.0216331481933594,4.934269594937124,0.0,0.28994929790496826,-1.6388142744647425,-0.0,-0.01727653294801712,0.811731219291687,-0.0,-0.000999411684460938,0.718720555305481,0.0,-0.009337516501545906
387.0,678.0,1.008,0.5731,9.4176,-0.0308,0.0264,-0.1251,-1.8295642338194789,0.0,3.105492115020752,-1.7265536785125732,-0.0,2.0598013401031494,4.934273677855291,0.0,0.29369884729385376,-1.6388261953936976,-0.0,-0.003928368911147118,0.8117230534553528,-0.0,-0.0023926817812025547,0.7187445163726807,0.0,-0.04427172616124153
402.0,658.0,0.9482,0.5198,9.4487,-0.0446,0.02,-0.1179,-1.829592844048971,0.0,3.1322808265686035,-1.7265143394470215,-0.0,2.019479513168335,4.934265616327085,0.0,0.28476452827453613,-1.6388548056231897,-0.0,0.006190276704728603,0.8118000626564026,-0.0,-0.006268803961575031,0.7187485098838806,0.0,0.01239017304033041
402.0,658.0,0.9482,0.5198,9.4487,-0.0446,0.02,-0.1179,-1.8295642338194789,0.0,3.1521830558776855,-1.7265658378601074,-0.0,2.045898675918579,4.934269624739446,0.0,0.2928420305252075,-1.6388548056231897,-0.0,-0.0023163578007370234,0.8117194175720215,-0.0,-0.003000115742906928,0.7186765670776367,0.0,-0.02044503390789032
402.0,658.0,0.9482,0.5198,9.4487,-0.0446,0.02,-0.1179,-1.8296052418150843,0.0,3.077678680419922,-1.7265617847442627,-0.0,2.0177383422851562,4.934253918915548,0.0,0.2924891710281372,-1.6388872305499476,-0.0,-0.006419213488698006,0.8117311000823975,-0.0,-0.0060341982170939445,0.7187445163726807,0.0,-0.040960535407066345
402.0,658.0,0.9482,0.5198,9.4487,-0.0446,0.02,-0.1179,-1.8295442066588343,0.0,3.101829767227173,-1.7265340089797974,-0.0,2.0150203704833984,4.934265586524763,0.0,0.298275351524353,-1.6388586203204554,-0.0,-0.019629590213298798,0.8118201494216919,-0.0,-0.0045442134141922,0.7187086343765259,0.0,-0.02919226512312889
402.0,658.0,0.9482,0.5198,9.4487,-0.0446,0.02,-0.1179,-1.8296171627440394,0.0,3.1917104721069336,-1.7265698909759521,-0.0,2.015740394592285,4.9343179045017145,0.0,0.28265899419784546,-1.6388829390155237,-0.0,0.0023747116792947054,0.8117918372154236,-0.0,0.003643023781478405,0.7186926007270813,0.0,0.010496137663722038
402.0,658.0,0.9482,0.5198,9.4487,-0.0446,0.02,-0.1179,-1.8295971355833949,0.0,3.1296143531799316,-1.7265340089797974,-0.0,2.049588680267334,4.9342300472553156,0.0,0.285065621137619,-1.638879124318258,-0.0,-0.0031365856993943453,0.8117996454238892,-0.0,-0.0014674412086606026,0.7186527848243713,0.0,-0.007875866256654263
402.0,658.0,0.9482,0.5198,9.4487,-0.0446,0.02,-0.1179,-1.8296171627440394,0.0,3.1611547470092773,-1.7265543937683105,-0.0,2.0107204914093018,4.934241685062208,0.0,0.2779933512210846,-1.6388586203204554,-0.0,0.0031539867632091045,0.8117512464523315,-0.0,-0.0031300855334848166,0.718732476234436,0.0,0.06327825784683228
402.0,658.0,0.9482,0.5198,9.4487,-0.0446,0.02,-0.1179,-1.8295971355833949,0.0,3.157787799835205,-1.7265779972076416,-0.0,2.0392560958862305,4.9343216744954965,0.0,0.28826308250427246,-1.6388261953936976,-0.0,-0.003541860030964017,0.811735212802887,-0.0,0.0034617860801517963,0.7187005877494812,0.0,-0.02256740815937519
402.0,658.0,0.9482,0.5198,9.4487,-0.0446,0.02,-0.1179,-1.8296247921385707,0.0,3.1051154136657715,-1.7265738248825073,-0.0,2.04136323928833,4.934249895602026,0.0,0.2815559208393097,-1.638846222554342,-0.0,0.007508465088903904,0.8117638826370239,-0.0,0.005282596684992313,0.7187244892120361,0.0,-0.003852683585137129
402.0,658.0,0.9482,0.5198,9.4487,-0.0446,0.02,-0.1179,-1.8295604191222132,0.0,3.163426399230957,-1.7265503406524658,-0.0,2.053740978240967,4.934273677855291,0.0,0.28890717029571533,-1.638879124318258,-0.0,-0.010704778134822845,0.8117110729217529,-0.0,-0.0035373917780816555,0.7187364101409912,0.0,-0.03149937838315964
402.0,658.0,0.9482,0.5198,9.4487,-0.0446,0.02,-0.1179,-1.8295685253539027,0.0,3.1156632900238037,-1.7265264987945557,-0.0,2.020979881286621,4.934245767980375,0.0,0.29091817140579224,-1.6388829390155237,-0.0,0.0024512812960892916,0.8117676973342896,-0.0,-0.014439313672482967,0.7187365889549255,0.0,0.021098710596561432
402.0,658.0,0.9482,0.5198,9.4487,-0.0446,0.02,-0.1179,-1.8295728168883265,0.0,3.1668756008148193,-1.7265503406524658,-0.0,2.0552549362182617,4.934249865799703,0.0,0.2872956693172455,-1.6388586203204554,-0.0,0.007495017256587744,0.8117917776107788,-0.0,0.0015607061795890331,0.7186965942382812,0.0,-0.0401201955974102
396.0,668.0,0.9482,0.5444,9.4511,-0.0376,0.0263,-0.1127,-1.8295642338194789,0.0,3.1521260738372803,-1.7265863418579102,-0.0,2.0170042514801025,4.934221881418981,0.0,0.2838831841945648,-1.6388261953936976,-0.0,8.238200098276138e-05,0.811731219291687,-0.0,-0.009125001728534698,0.7187086343765259,0.0,0.0008376436308026314
396.0,668.0,0.9482,0.5444,9.4511,-0.0376,0.0263,-0.1127,-1.829592844048971,0.0,3.1097843647003174,-1.726497769355774,-0.0,2.059084892272949,4.934258001833715,0.0,0.280928373336792,-1.638846222554342,-0.0,0.00116452993825078,0.8117635846138,-0.0,-0.00014925235882401466,0.7187764048576355,0.0,0.007873204536736012
396.0,668.0,0.9482,0.5444,9.4511,-0.0376,0.0263,-0.1127,-1.8295971355833949,0.0,3.133113384246826,-1.7265543937683105,-0.0,1.9988160133361816,4.934273677855291,0.0,0.2853476405143738,-1.6388829390155237,-0.0,-0.0020906419958919287,0.811755359172821,-0.0,0.007115640677511692,0.7187803983688354,0.0,-0.010464406572282314
396.0,668.0,0.9482,0.5444,9.4511,-0.0376,0.0263,-0.1127,-1.8295604191222132,0.0,3.123514175415039,-1.726546049118042,-0.0,2.0504674911499023,4.9342218963201425,0.0,0.29282981157302856,-1.6388748327838343,-0.0,-0.007332105189561844,0.8117918372154236,-0.0,2.4295412003993988e-05,0.7187086939811707,0.0,-0.011678129434585571
396.0,668.0,0.9482,0.5444,9.4511,-0.0376,0.0263,-0.1127,-1.8295442066588343,0.0,3.141016960144043,-1.7265257835388184,-0.0,2.0418314933776855,4.934257346182623,0.0,0.2902452051639557,-1.6388629118548792,-0.0,-0.010435092262923717,0.8117393851280212,-0.0,0.0018218427430838346,0.7186926007270813,0.0,0.03803873807191849
396.0,668.0,0.9482,0.5444,9.4511,-0.0376,0.0263,-0.1127,-1.829580923120016,0.0,3.1598963737487793,-1.7265379428863525,-0.0,2.0333056449890137,4.934233906656065,0.0,0.2965664863586426,-1.638890568410055,-0.0,-0.014352923259139061,0.8117517232894897,-0.0,-0.002585045527666807,0.7187405824661255,0.0,-0.028135990723967552
396.0,668.0,0.9482,0.5444,9.4511,-0.0376,0.0263,-0.1127,-1.8296052418150843,0.0,3.112550735473633,-1.7265464067459106,-0.0,2.044433832168579,4.934265601425924,0.0,0.2858298718929291,-1.6388872305499476,-0.0,-0.010045034810900688,0.8118239045143127,-0.0,-0.0032335652504116297,0.7187603712081909,0.0,0.045136984437704086
396.0,668.0,0.9482,0.5444,9.4511,-0.0376,0.0263,-0.1127,-1.8295971355833949,0.0,3.153280735015869,-1.7265536785125732,-0.0,2.0278282165527344,4.934265601425924,0.0,0.2902345657348633,-1.6388829390155237,-0.0,-0.008637051098048687,0.8117714524269104,-0.0,-0.0020407140254974365,0.718720555305481,0.0,0.05394836142659187
396.0,668.0,0.9482,0.5444,9.4511,-0.0376,0.0263,-0.1127,-1.829580923120016,0.0,3.1193785667419434,-1.7265264987945557,-0.0,2.0641491413116455,4.934301945358076,0.0,0.28879955410957336,-1.6388748327838343,-0.0,-0.0011327927932143211,0.8117594718933105,-0.0,0.011831313371658325,0.7187286615371704,0.0,-0.06317826360464096
396.0,668.0,0.9482,0.5444,9.4511,-0.0376,0.0263,-0.1127,-1.8296004734435023,0.0,3.1550066471099854,-1.726505994796753,-0.0,2.0732874870300293,4.934229793935575,0.0,0.29583045840263367,-1.638890568410055,-0.0,0.00849249679595232,0.8117594718933105,-0.0,0.0012417989782989025,0.718716561794281,0.0,0.04053027555346489
396.0,668.0,0.9482,0.5444,9.4511,-0.0376,0.0263,-0.1127,-1.8295279941954554,0.0,3.1622567176818848,-1.7265739440917969,-0.0,2.0094680786132812,4.934269594937124,0.0,0.2809181213378906,-1.6388829390155237,-0.0,-0.002934166230261326,0.8118000030517578,-0.0,-0.009859010577201843,0.7187046408653259,0.0,-0.02277769148349762
388.0,654.0,0.9021,0.5109,9.5462,-0.0368,0.0179,-0.1116,-1.8296128712096156,0.0,3.1346230506896973,-1.7265183925628662,-0.0,2.0190818309783936,4.934245753079214,0.0,0.28973624110221863,-1.6388748327838343,-0.0,-0.004271389916539192,0.811731219291687,-0.0,0.009587762877345085,0.718720555305481,0.0,0.04471287131309509
388.0,654.0,0.9021,0.5109,9.5462,-0.0368,0.0179,-0.1116,-1.8296004734435023,0.0,3.1696434020996094,-1.726546287536621,-0.0,2.0425233840942383,4.934258001833715,0.0,0.2921794652938843,-1.638846222554342,-0.0,-0.010791078209877014,0.8118000626564026,-0.0,-0.008350906893610954,0.718716561794281,0.0,-0.04983196407556534
388.0,654.0,0.9021,0.5109,9.5462,-0.0368,0.0179,-0.1116,-1.8295971355833949,0.0,3.1713123321533203,-1.7265421152114868,-0.0,2.0206894874572754,4.934273648052969,0.0,0.28824207186698914,-1.6388667265521448,-0.0,-0.009656036272644997,0.8117430210113525,-0.0,-0.014888274483382702,0.7187086343765259,0.0,-0.0007844911888241768
388.0,654.0,0.9021,0.5109,9.5462,-0.0368,0.0179,-0.1116,-1.829592844048971,0.0,3.114060401916504,-1.726546287536621,-0.0,2.0279786586761475,4.934229779034414,0.0,0.2853526175022125,-1.6388829390155237,-0.0,-0.006206270772963762,0.8117393851280212,-0.0,0.006351824384182692,0.718720555305481,0.0,0.012399415485560894
388.0,654.0,0.9021,0.5109,9.5462,-0.0368,0.0179,-0.1116,-1.8295685253539027,0.0,3.1652567386627197,-1.7265264987945557,-0.0,1.9942352771759033,4.934221955924787,0.0,0.29222750663757324,-1.6388748327838343,-0.0,0.01976204290986061,0.8118036985397339,-0.0,-0.012596827000379562,0.7187365889549255,0.0,-0.024683773517608643
388.0,654.0,0.9021,0.5109,9.5462,-0.0368,0.0179,-0.1116,-1.8295885525145472,0.0,3.105396270751953,-1.7265779972076416,-0.0,2.019693374633789,4.934245782881536,0.0,0.2918109893798828,-1.6388424078570765,-0.0,0.004400494508445263,0.8117434978485107,-0.0,-0.0020490342285484076,0.7187047004699707,0.0,0.004936582874506712
388.0,654.0,0.9021,0.5109,9.5462,-0.0368,0.0179,-0.1116,-1.829592844048971,0.0,3.1915464401245117,-1.7265658378601074,-0.0,1.983980417251587,4.934258016734876,0.0,0.28516027331352234,-1.6389029661761683,-0.0,-0.010538829490542412,0.8117230534553528,-0.0,0.006820262409746647,0.7187126278877258,0.0,0.006260449532419443
388.0,654.0,0.9021,0.5109,9.5462,-0.0368,0.0179,-0.1116,-1.8295890293517054,0.0,3.1506423950195312,-1.7265379428863525,-0.0,2.002934694290161,4.934249895602026,0.0,0.28247058391571045,-1.6389029661761683,-0.0,-0.007901417091488838,0.8117676973342896,-0.0,-0.0003951496910303831,0.718720555305481,0.0,0.002405528910458088
388.0,654.0,0.9021,0.5109,9.5462,-0.0368,0.0179,-0.1116,-1.829592844048971,0.0,3.1246514320373535,-1.7265338897705078,-0.0,2.0090348720550537,4.934249925404348,0.0,0.2828919589519501,-1.6388748327838343,-0.0,-0.007024073041975498,0.8117635846138,-0.0,-0.005512150935828686,0.7187244892120361,0.0,-0.006179762072861195
388.0,654.0,0.9021,0.5109,9.5462,-0.0368,0.0179,-0.1116,-1.829592844048971,0.0,3.139810085296631,-1.7265183925628662,-0.0,2.0191659927368164,4.934257375984945,0.0,0.27464595437049866,-1.6388586203204554,-0.0,-0.0052852937951684,0.8117755055427551,-0.0,0.002111151348799467,0.7187284827232361,0.0,-0.016399461776018143
388.0,654.0,0.9021,0.5109,9.5462,-0.0368,0.0179,-0.1116,-1.8295604191222132,0.0,3.143381118774414,-1.7265665531158447,-0.0,2.045417070388794,4.934253918915548,0.0,0.2856523096561432,-1.6388629118548792,-0.0,-0.0014143442967906594,0.811771810054779,-0.0,0.0013759809080511332,0.7187005281448364,0.0,-0.021425360813736916
388.0,654.0,0.9021,0.5109,9.5462,-0.0368,0.0179,-0.1116,-1.8296367130675257,0.0,3.110861301422119,-1.7265698909759521,-0.0,2.0730535984039307,4.934270310192861,0.0,0.2932598888874054,-1.6388753096209925,-0.0,-0.002290853299200535,0.8117393851280212,-0.0,-0.017225883901119232,0.7187166213989258,0.0,-0.04901902377605438
397.0,655.0,0.9894,0.5749,9.4325,-0.0217,0.0199,-0.118,-1.8296052418150843,0.0,3.125028610229492,-1.7265738248825073,-0.0,2.0258398056030273,4.934290039330282,0.0,0.29579952359199524,-1.6388667265521448,-0.0,0.002162999240681529,0.8117311000823975,-0.0,0.014047228731215,0.7187166213989258,0.0,-0.025736568495631218
397.0,655.0,0.9894,0.5749,9.4325,-0.0217,0.0199,-0.118,-1.82960905651235,0.0,3.1139743328094482,-1.7265820503234863,-0.0,2.042062282562256,4.934285911708631,0.0,0.2845839858055115,-1.6388586203204554,-0.0,-0.01650341786444187,0.8117353320121765,-0.0,-0.011749790981411934,0.7187365889549255,0.0,0.008860385045409203
397.0,655.0,0.9894,0.5749,9.4325,-0.0217,0.0199,-0.118,-1.8295804462828578,0.0,3.168652296066284,-1.726514220237732,-0.0,2.035789966583252,4.9342457977826975,0.0,0.286504864692688,-1.638867203389303,-0.0,-0.00421484000980854,0.8117152452468872,-0.0,0.004753407556563616,0.7187284827232361,0.0,0.0022549713030457497
397.0,655.0,0.9894,0.5749,9.4325,-0.0217,0.0199,-0.118,-1.8295766315855921,0.0,3.1335017681121826,-1.726522445678711,-0.0,2.0482840538024902,4.934249925404348,0.0,0.30556434392929077,-1.6388829390155237,-0.0,-0.007646537385880947,0.811735212802887,-0.0,0.0037692992482334375,0.7187047004699707,0.0,0.007061996031552553
397.0,655.0,0.9894,0.5749,9.4325,-0.0217,0.0199,-0.118,-1.8295766315855921,0.0,3.107004165649414,-1.7265944480895996,-0.0,2.0282647609710693,4.934253918915548,0.0,0.2828553318977356,-1.638879124318258,-0.0,-0.013788682408630848,0.8117271065711975,-0.0,-0.004672256298363209,0.7187284827232361,0.0,-0.02273818477988243
397.0,655.0,0.9894,0.5749,9.4325,-0.0217,0.0199,-0.118,-1.8296410046019496,0.0,3.1204423904418945,-1.7264937162399292,-0.0,2.039050340652466,4.934249925404348,0.0,0.2779009938240051,-1.6388829390155237,-0.0,0.004379968158900738,0.8117475509643555,-0.0,0.005816936027258635,0.7187007069587708,0.0,-0.04357839375734329
397.0,655.0,0.9894,0.5749,9.4325,-0.0217,0.0199,-0.118,-1.8295484981932582,0.0,3.179180860519409,-1.7265419960021973,-0.0,2.0586304664611816,4.934221926122465,0.0,0.2880849242210388,-1.6389148871051233,-0.0,-0.003131302073597908,0.8117918372154236,-0.0,0.008929487317800522,0.7186686396598816,0.0,0.0018440278945490718
397.0,655.0,0.9894,0.5749,9.4325,-0.0217,0.0199,-0.118,-1.8296009502806605,0.0,3.1481881141662598,-1.7265698909759521,-0.0,2.0370066165924072,4.934253918915548,0.0,0.293473482131958,-1.6388829390155237,-0.0,0.0012657670304179192,0.8117714524269104,-0.0,-0.012518297880887985,0.7186567783355713,0.0,0.007091762498021126
397.0,655.0,0.9894,0.5749,9.4325,-0.0217,0.0199,-0.118,-1.8296047649779261,0.0,3.101775884628296,-1.7264772653579712,-0.0,2.053682804107666,4.934229749232092,0.0,0.28499749302864075,-1.6388748327838343,-0.0,-0.00503722857683897,0.8117597699165344,-0.0,0.015391651540994644,0.7186686396598816,0.0,-0.013201689347624779
397.0,655.0,0.9894,0.5749,9.4325,-0.0217,0.0199,-0.118,-1.8295728168883265,0.0,3.1428184509277344,-1.7265019416809082,-0.0,2.0320425033569336,4.934265601425924,0.0,0.29841798543930054,-1.638879124318258,-0.0,-0.010633597150444984,0.8117475509643555,-0.0,-0.008095902390778065,0.7187047004699707,0.0,0.004727075807750225
397.0,655.0,0.9894,0.5749,9.4325,-0.0217,0.0199,-0.118,-1.8296004734435023,0.0,3.121812105178833,-1.7265584468841553,-0.0,2.076324224472046,4.934261444001951,0.0,0.29066312313079834,-1.6388829390155237,-0.0,-0.0028156819753348827,0.8118082284927368,-0.0,0.0035546147264540195,0.7187126874923706,0.0,0.018274398520588875
398.0,667.0,0.9302,0.5378,9.4959,-0.0446,0.0199,-0.1119,-1.8295971355833949,0.0,3.0983214378356934,-1.7265503406524658,-0.0,2.0373339653015137,4.934197458415785,0.0,0.28855109214782715,-1.6388748327838343,-0.0,-0.001482320949435234,0.8117554187774658,-0.0,-0.005375212989747524,0.7187126874923706,0.0,-0.011366968043148518
398.0,667.0,0.9302,0.5378,9.4959,-0.0446,0.0199,-0.1119,-1.8296047649779261,0.0,3.102325916290283,-1.7265738248825073,-0.0,2.0813183784484863,4.934294062643804,0.0,0.29060426354408264,-1.638879124318258,-0.0,0.013297059573233128,0.8116992115974426,-0.0,0.0018131677061319351,0.7187445163726807,0.0,-0.025273438543081284
398.0,667.0,0.9302,0.5378,9.4959,-0.0446,0.0199,-0.1119,-1.8295971355833949,0.0,3.149717330932617,-1.7265541553497314,-0.0,2.027678966522217,4.934273677855291,0.0,0.2929644286632538,-1.6388829390155237,-0.0,0.0026037837378680706,0.8116868734359741,-0.0,-0.0025277864187955856,0.7187724113464355,0.0,-0.02155175432562828
398.0,667.0,0.9302,0.5378,9.4959,-0.0446,0.0199,-0.1119,-1.829592844048971,0.0,3.1274573802948,-1.7265779972076416,-0.0,2.0296554565429688,4.934237900167265,0.0,0.29028022289276123,-1.638867203389303,-0.0,-0.002074369229376316,0.8118197321891785,-0.0,-0.010709329508244991,0.7187244892120361,0.0,0.03059173934161663
398.0,667.0,0.9302,0.5378,9.4959,-0.0446,0.0199,-0.1119,-1.8295642338194789,0.0,3.1080288887023926,-1.7265625,-0.0,2.03987979888916,4.934277760773458,0.0,0.3009205162525177,-1.6389148871051233,-0.0,-0.007006885018199682,0.8117517232894897,-0.0,-0.004941321909427643,0.7187365889549255,0.0,0.022363001480698586
398.0,667.0,0.9302,0.5378,9.4959,-0.0446,0.0199,-0.1119,-1.829592844048971,0.0,3.1591906547546387,-1.7265338897705078,-0.0,2.0428824424743652,4.934249925404348,0.0,0.30012011528015137,-1.6388748327838343,-0.0,-0.007700436282902956,0.8118361830711365,-0.0,-0.011328560300171375,0.7186765670776367,0.0,0.020268213003873825
398.0,667.0,0.9302,0.5378,9.4959,-0.0446,0.0199,-0.1119,-1.8295804462828578,0.0,3.1329755783081055,-1.7265903949737549,-0.0,2.012190580368042,4.934313970595159,0.0,0.27765145897865295,-1.638867203389303,-0.0,-0.012095041573047638,0.811743438243866,-0.0,-0.0011448003351688385,0.7186647057533264,0.0,0.0059547726996243
398.0,667.0,0.9302,0.5378,9.4959,-0.0446,0.0199,-0.1119,-1.829580923120016,0.0,3.1524016857147217,-1.726546049118042,-0.0,2.0606942176818848,4.934258001833715,0.0,0.2753117084503174,-1.6388748327838343,-0.0,-0.010730575770139694,0.8117877244949341,-0.0,-0.0023765061050653458,0.7187284827232361,0.0,-0.007003025151789188
398.0,667.0,0.9302,0.5378,9.4959,-0.0446,0.0199,-0.1119,-1.829592844048971,0.0,3.1409919261932373,-1.7264935970306396,-0.0,2.0180866718292236,4.9342620996530435,0.0,0.2893710136413574,-1.638867203389303,-0.0,-0.010403547435998917,0.811722993850708,-0.0,0.006724302191287279,0.7187086343765259,0.0,0.047233812510967255
398.0,667.0,0.9302,0.5378,9.4959,-0.0446,0.0199,-0.1119,-1.8295604191222132,0.0,3.1298227310180664,-1.7265739440917969,-0.0,2.061945915222168,4.934262069850721,0.0,0.29334455728530884,-1.6388948599444788,-0.0,0.0002923381980508566,0.8118078112602234,-0.0,0.0010967880953103304,0.718716561794281,0.0,-0.03377438709139824
398.0,667.0,0.9302,0.5378,9.4959,-0.0446,0.0199,-0.1119,-1.8295728168883265,0.0,3.1403117179870605,-1.7265584468841553,-0.0,2.033949613571167,4.934261458903112,0.0,0.3008670508861542,-1.6388910452472132,-0.0,-0.002650678623467684,0.8117837309837341,-0.0,-0.008280497044324875,0.7187405228614807,0.0,-0.022062044590711594
398.0,667.0,0.9302,0.5378,9.4959,-0.0446,0.0199,-0.1119,-1.82960905651235,0.0,3.1608386039733887,-1.7265256643295288,-0.0,2.054940700531006,4.934273677855291,0.0,0.3019799590110779,-1.6388424078570765,-0.0,0.0009455118561163545,0.8117631673812866,-0.0,-0.009294047951698303,0.7187284231185913,0.0,-0.02524520456790924
369.0,659.0,0.9936,0.5222,9.5151,-0.0426,0.022,-0.1199,-1.8296128712096156,0.0,3.1585469245910645,-1.7265822887420654,-0.0,2.107360601425171,4.934265616327085,0.0,0.29912883043289185,-1.638850514088766,-0.0,-0.008670531213283539,0.8118360638618469,-0.0,-0.0054176258854568005,0.718756377696991,0.0,0.012005375698208809
369.0,659.0,0.9936,0.5222,9.5151,-0.0426,0.022,-0.1199,-1.8295852146544398,0.0,3.14965558052063,-1.7265822887420654,-0.0,2.0346126556396484,4.9342937646205804,0.0,0.2953243851661682,-1.6388629118548792,-0.0,-0.0007841112674213946,0.8117837309837341,-0.0,-0.010196002200245857,0.7186567783355713,0.0,-0.001880391500890255
369.0,659.0,0.9936,0.5222,9.5151,-0.0426,0.022,-0.1199,-1.8295642338194789,0.0,3.1472322940826416,-1.7265257835388184,-0.0,2.0122547149658203,4.934289994626798,0.0,0.2922847867012024,-1.638850514088766,-0.0,0.0009355888469144702,0.8117434978485107,-0.0,0.001251802546903491,0.7186686396598816,0.0,0.03693666309118271
369.0,659.0,0.9936,0.5222,9.5151,-0.0426,0.022,-0.1199,-1.8296290836729945,0.0,3.1436662673950195,-1.7265698909759521,-0.0,2.004713535308838,4.934285911708631,0.0,0.27918413281440735,-1.638867203389303,-0.0,0.006755326874554157,0.811679482460022,-0.0,0.0028375512920320034,0.7187047004699707,0.0,-0.03569010645151138
369.0,659.0,0.9936,0.5222,9.5151,-0.0426,0.022,-0.1199,-1.8295685253539027,0.0,3.1245768070220947,-1.7265143394470215,-0.0,2.032433032989502,4.9341895309980295,0.0,0.2929786145687103,-1.6388629118548792,-0.0,-0.01576383411884308,0.8117271065711975,-0.0,0.0038627968169748783,0.7186926007270813,0.0,-0.027220964431762695
369.0,659.0,0.9936,0.5222,9.5151,-0.0426,0.022,-0.1199,-1.8296052418150843,0.0,3.135416030883789,-1.7265461683273315,-0.0,2.0502567291259766,4.934265586524763,0.0,0.2878234088420868,-1.6388872305499476,-0.0,-0.012073076330125332,0.8117753863334656,-0.0,-0.019916260614991188,0.7187603712081909,0.0,-0.0140756256878376
369.0,659.0,0.9936,0.5222,9.5151,-0.0426,0.022,-0.1199,-1.8296534023680628,0.0,3.1072261333465576,-1.7265779972076416,-0.0,1.9926987886428833,4.934253918915548,0.0,0.28838908672332764,-1.6388991514789026,-0.0,-0.007082823198288679,0.8118119239807129,-0.0,-0.013333046808838844,0.718720555305481,0.0,-0.017614657059311867
369.0,659.0,0.9936,0.5222,9.5151,-0.0426,0.022,-0.1199,-1.8295971355833949,0.0,3.134578227996826,-1.7266058921813965,-0.0,2.050384998321533,4.934237900167265,0.0,0.2952081263065338,-1.6388261953936976,-0.0,-0.005351038184016943,0.8117393851280212,-0.0,0.001273621921427548,0.7186846733093262,0.0,0.016478803008794785
369.0,659.0,0.9936,0.5222,9.5151,-0.0426,0.022,-0.1199,-1.8295971355833949,0.0,3.166584014892578,-1.7265698909759521,-0.0,2.0002217292785645,4.934273692756452,0.0,0.2920346260070801,-1.638879124318258,-0.0,0.003645384218543768,0.8117713928222656,-0.0,-0.0008984068408608437,0.7187405228614807,0.0,-0.0027089668437838554
369.0,659.0,0.9936,0.5222,9.5151,-0.0426,0.022,-0.1199,-1.8296047649779261,0.0,3.1664443016052246,-1.7265625,-0.0,2.0361642837524414,4.934269594937124,0.0,0.2946115732192993,-1.6388829390155237,-0.0,-0.0019413747359067202,0.8117635250091553,-0.0,-0.006083933636546135,0.7186805605888367,0.0,-0.02699996531009674
369.0,659.0,0.9936,0.5222,9.5151,-0.0426,0.022,-0.1199,-1.8296047649779261,0.0,3.0980961322784424,-1.7265340089797974,-0.0,1.987986445426941,4.934233936458387,0.0,0.2901459038257599,-1.6388548056231897,-0.0,0.0035625435411930084,0.8117434978485107,-0.0,-0.0043303086422383785,0.7187244892120361,0.0,-0.00488671101629734
369.0,659.0,0.9936,0.5222,9.5151,-0.0426,0.022,-0.1199,-1.8295766315855921,0.0,3.0869336128234863,-1.7265584468841553,-0.0,2.1059465408325195,4.934233861952581,0.0,0.2755662500858307,-1.638846222554342,-0.0,0.005013944115489721,0.8117954730987549,-0.0,0.008524702861905098,0.7187365889549255,0.0,-0.024573445320129395
381.0,683.0,1.0032,0.542,9.4217,-0.0478,0.014,-0.1133,-1.8296410046019496,0.0,3.1599605083465576,-1.7265503406524658,-0.0,2.023165702819824,4.934261444001951,0.0,0.2944992184638977,-1.638834301625387,-0.0,0.00226482842117548,0.8117836713790894,-0.0,-0.007462356239557266,0.7187047004699707,0.0,-0.06200907751917839
381.0,683.0,1.0032,0.542,9.4217,-0.0478,0.014,-0.1133,-1.8295685253539027,0.0,3.1211206912994385,-1.7265698909759521,-0.0,2.0463390350341797,4.9342777756746194,0.0,0.29042714834213257,-1.6388872305499476,-0.0,0.008865432813763618,0.8117594718933105,-0.0,0.0077661629766225815,0.7186567783355713,0.0,0.010912974365055561
381.0,683.0,1.0032,0.542,9.4217,-0.0478,0.014,-0.1133,-1.8296128712096156,0.0,3.1482605934143066,-1.726529836654663,-0.0,2.0100789070129395,4.934269594937124,0.0,0.2999562621116638,-1.6388829390155237,-0.0,-0.01035507395863533,0.8117835521697998,-0.0,-0.016010131686925888,0.7187484502792358,0.0,0.03200162947177887
381.0,683.0,1.0032,0.542,9.4217,-0.0478,0.014,-0.1133,-1.829620977441305,0.0,3.1142539978027344,-1.7265100479125977,-0.0,2.0427215099334717,4.934197458415785,0.0,0.2937265634536743,-1.638846222554342,-0.0,0.006715077906847,0.8117230534553528,-0.0,-0.01622501015663147,0.7186726331710815,0.0,0.06490065902471542
381.0,683.0,1.0032,0.542,9.4217,-0.0478,0.014,-0.1133,-1.8296009502806605,0.0,3.130419969558716,-1.7265706062316895,-0.0,2.025052070617676,4.934270354896345,0.0,0.28970399498939514,-1.638850514088766,-0.0,-0.008675639517605305,0.811743438243866,-0.0,-0.009341781958937645,0.718732476234436,0.0,-0.0268736332654953
381.0,683.0,1.0032,0.542,9.4217,-0.0478,0.014,-0.1133,-1.8295685253539027,0.0,3.177584648132324,-1.7265665531158447,-0.0,2.038703441619873,4.934269580035963,0.0,0.2952411472797394,-1.6388548056231897,-0.0,-9.280245285481215e-05,0.8117958903312683,-0.0,-0.0043813809752464294,0.7186846733093262,0.0,0.023533586412668228
381.0,683.0,1.0032,0.542,9.4217,-0.0478,0.014,-0.1133,-1.8296247921385707,0.0,3.1450061798095703,-1.7265739440917969,-0.0,2.0305075645446777,4.9342378852661035,0.0,0.2879604697227478,-1.638879124318258,-0.0,-0.01065782643854618,0.8118115067481995,-0.0,-0.01641230285167694,0.7187244892120361,0.0,0.003801110200583935
381.0,683.0,1.0032,0.542,9.4217,-0.0478,0.014,-0.1133,-1.8296047649779261,0.0,3.125795602798462,-1.7265821695327759,-0.0,2.040832042694092,4.93427366295413,0.0,0.29744428396224976,-1.6388829390155237,-0.0,-0.0008952128700911999,0.8118200898170471,-0.0,-0.0019401966128498316,0.7186886668205261,0.0,0.017444012686610222
381.0,683.0,1.0032,0.542,9.4217,-0.0478,0.014,-0.1133,-1.8296009502806605,0.0,3.130983352661133,-1.7265863418579102,-0.0,1.9842485189437866,4.934269580035963,0.0,0.29232415556907654,-1.6388629118548792,-0.0,-0.005208795424550772,0.8117672204971313,-0.0,-0.014004098251461983,0.7186846733093262,0.0,0.013401945121586323
381.0,683.0,1.0032,0.542,9.4217,-0.0478,0.014,-0.1133,-1.8295728168883265,0.0,3.131166696548462,-1.7265379428863525,-0.0,2.0267984867095947,4.934225711017408,0.0,0.29281893372535706,-1.6388586203204554,-0.0,0.002942268969491124,0.8118037581443787,-0.0,0.008702920749783516,0.7187086343765259,0.0,0.026652786880731583
381.0,683.0,1.0032,0.542,9.4217,-0.0478,0.014,-0.1133,-1.8295642338194789,0.0,3.1695492267608643,-1.726597785949707,-0.0,2.0532310009002686,4.934229704528608,0.0,0.2950572967529297,-1.638806168233053,-0.0,-0.00028312596259638667,0.8118041157722473,-0.0,-0.005591623019427061,0.7186846733093262,0.0,-0.07066972553730011
377.0,669.0,0.941,0.5109,9.4463,-0.0359,0.0247,-0.1216,-1.8296047649779261,0.0,3.1404261589050293,-1.7265944480895996,-0.0,2.02282452583313,4.93426205494956,0.0,0.2793210744857788,-1.638850514088766,-0.0,-0.00343284010887146,0.8117594718933105,-0.0,-0.011396984569728374,0.7186965942382812,0.0,-0.017052961513400078
377.0,669.0,0.941,0.5109,9.4463,-0.0359,0.0247,-0.1216,-1.829592844048971,0.0,3.1543993949890137,-1.7265658378601074,-0.0,2.020565986633301,4.934265616327085,0.0,0.2931666374206543,-1.6388629118548792,-0.0,-3.477511927485466e-05,0.8116951584815979,-0.0,0.0016387596260756254,0.7187525033950806,0.0,-0.010236382484436035
377.0,669.0,0.941,0.5109,9.4463,-0.0359,0.0247,-0.1216,-1.8295847378172816,0.0,3.1235976219177246,-1.7265903949737549,-0.0,2.0182855129241943,4.934245753079214,0.0,0.2890107035636902,-1.6388548056231897,-0.0,-0.012197455391287804,0.811755359172821,-0.0,-0.00648757629096508,0.7187485098838806,0.0,-0.014391368255019188
377.0,669.0,0.941,0.5109,9.4463,-0.0359,0.0247,-0.1216,-1.8295523128905238,0.0,3.1963891983032227,-1.7265019416809082,-0.0,2.0829172134399414,4.934249925404348,0.0,0.28497278690338135,-1.6388829390155237,-0.0,0.012435183860361576,0.8117877244949341,-0.0,-0.011525353416800499,0.7186765670776367,0.0,-0.02282720059156418
377.0,669.0,0.941,0.5109,9.4463,-0.0359,0.0247,-0.1216,-1.829580923120016,0.0,3.1432600021362305,-1.726546287536621,-0.0,2.03686261177063,4.934265646129408,0.0,0.2847194969654083,-1.6388424078570765,-0.0,0.01050547044724226,0.8117558360099792,-0.0,-0.002261344576254487,0.718720555305481,0.0,-0.011818161234259605
377.0,669.0,0.941,0.5109,9.4463,-0.0359,0.0247,-0.1216,-1.829592844048971,0.0,3.16491961479187,-1.7265419960021973,-0.0,2.0616440773010254,4.934217962413587,0.0,0.2852014899253845,-1.6388872305499476,-0.0,0.0016922306967899203,0.8117393851280212,-0.0,0.0018362340051680803,0.7187445163726807,0.0,0.022757388651371002
377.0,669.0,0.941,0.5109,9.4463,-0.0359,0.0247,-0.1216,-1.82963289837026,0.0,3.1119871139526367,-1.7265658378601074,-0.0,2.0286059379577637,4.934269594937124,0.0,0.29013708233833313,-1.6389029661761683,-0.0,0.012047609314322472,0.8117028474807739,-0.0,0.01229207031428814,0.718732476234436,0.0,-0.031026236712932587
377.0,669.0,0.941,0.5109,9.4463,-0.0359,0.0247,-0.1216,-1.8295685253539027,0.0,3.1661112308502197,-1.726522445678711,-0.0,2.039907932281494,4.934233921557226,0.0,0.29620593786239624,-1.6388748327838343,-0.0,0.001056247390806675,0.8117631673812866,-0.0,0.004271024838089943,0.7186926007270813,0.0,-0.005059481598436832
377.0,669.0,0.941,0.5109,9.4463,-0.0359,0.0247,-0.1216,-1.8295766315855921,0.0,3.093144416809082,-1.7265863418579102,-0.0,2.0314862728118896,4.934273677855291,0.0,0.29322630167007446,-1.638879124318258,-0.0,0.008576287887990475,0.8117434978485107,-0.0,0.0035917225759476423,0.7186567783355713,0.0,-0.01100493036210537
377.0,669.0,0.941,0.5109,9.4463,-0.0359,0.0247,-0.1216,-1.8296052418150843,0.0,3.109949827194214,-1.7265738248825073,-0.0,2.031202554702759,4.934245767980375,0.0,0.2963569760322571,-1.638867203389303,-0.0,-0.007169288583099842,0.8117672204971313,-0.0,-0.001995008671656251,0.7187286615371704,0.0,-0.022898705676198006
377.0,669.0,0.941,0.5109,9.4463,-0.0359,0.0247,-0.1216,-1.8295766315855921,0.0,3.116391181945801,-1.7265779972076416,-0.0,2.0196776390075684,4.934269609838285,0.0,0.29901599884033203,-1.638879124318258,-0.0,-0.0038281171582639217,0.8117877840995789,-0.0,-0.009287938475608826,0.7186726331710815,0.0,-0.034189000725746155
377.0,669.0,0.941,0.5109,9.4463,-0.0359,0.0247,-0.1216,-1.8295885525145472,0.0,3.1726431846618652,-1.7265779972076416,-0.0,2.0688300132751465,4.934294062643804,0.0,0.27538132667541504,-1.638867203389303,-0.0,0.004042625892907381,0.8117517232894897,-0.0,0.005981268361210823,0.718716561794281,0.0,0.04154609516263008
386.0,664.0,0.8883,0.3344,9.5504,-0.0359,0.0284,-0.1132,-1.8295561275877894,0.0,3.137455463409424,-1.7265658378601074,-0.0,2.0401875972747803,4.93428190329627,0.0,0.2816428244113922,-1.638867203389303,-0.0,-0.008617496117949486,0.8117836117744446,-0.0,-0.0066238404251635075,0.7187244892120361,0.0,0.01392809022217989
386.0,664.0,0.8883,0.3344,9.5504,-0.0359,0.0284,-0.1132,-1.8296009502806605,0.0,3.14432430267334,-1.7265419960021973,-0.0,2.0663843154907227,4.9342499552066705,0.0,0.28607773780822754,-1.6388385931598108,-0.0,-0.0008960976265370846,0.8117353320121765,-0.0,0.004787510726600885,0.7186886668205261,0.0,-0.025675352662801743
386.0,664.0,0.8883,0.3344,9.5504,-0.0359,0.0284,-0.1132,-1.829592844048971,0.0,3.1003856658935547,-1.7265543937683105,-0.0,1.9852627515792847,4.934269624739446,0.0,0.29299962520599365,-1.6388023535357874,-0.0,0.015508752316236496,0.8117713928222656,-0.0,-0.0006880145519971848,0.7186647653579712,0.0,-0.036586958914995193
386.0,664.0,0.8883,0.3344,9.5504,-0.0359,0.0284,-0.1132,-1.8296576939024867,0.0,3.1212096214294434,-1.7265739440917969,-0.0,2.0362205505371094,4.934277745872297,0.0,0.28735780715942383,-1.6388304869281214,-0.0,-0.0023548011668026447,0.8117594718933105,-0.0,-0.016661064699292183,0.7187244892120361,0.0,-0.015445007011294365
386.0,664.0,0.8883,0.3344,9.5504,-0.0359,0.0284,-0.1132,-1.8295604191222132,0.0,3.139153242111206,-1.7265950441360474,2.3620798401680076e-06,1.9936902523040771,4.9342457977826975,0.0,0.2909579277038574,-1.6388586203204554,-0.0,0.0060716960579156876,0.8117434978485107,-0.0,-0.0027032161597162485,0.7187325954437256,0.0,0.06177964434027672
386.0,664.0,0.8883,0.3344,9.5504,-0.0359,0.0284,-0.1132,-1.8295971355833949,0.0,3.146092414855957,-1.7265584468841553,7.652838323983502e-14,1.9628808498382568,4.934273677855291,0.0,0.29440805315971375,-1.638879124318258,-0.0,-9.400915587320924e-05,0.8117877840995789,-0.0,0.0008793529705144465,0.718732476234436,0.0,0.018418287858366966
386.0,664.0,0.8883,0.3344,9.5504,-0.0359,0.0284,-0.1132,-1.829592844048971,0.0,3.1621928215026855,-1.7265419960021973,2.479422187339416e-21,2.0373542308807373,4.9342979220445535,0.0,0.2904202938079834,-1.6388748327838343,-0.0,-0.0008831560262478888,0.8117713928222656,-0.0,-0.009736358188092709,0.7187244892120361,0.0,-0.012071180157363415
386.0,664.0,0.8883,0.3344,9.5504,-0.0359,0.0284,-0.1132,-1.8296009502806605,0.0,3.139112949371338,-1.7265263795852661,8.033012872027843e-29,2.0636281967163086,4.934261444001951,0.0,0.28924885392189026,-1.638867203389303,-0.0,0.0031372378580272198,0.8118041157722473,-0.0,-0.000253480626270175,0.7186846733093262,0.0,0.015332452952861786
386.0,664.0,0.8883,0.3344,9.5504,-0.0359,0.0284,-0.1132,-1.8296171627440394,0.0,3.120025157928467,-1.7265340089797974,2.602593567313804e-36,2.0011746883392334,4.934225994139471,0.0,0.2838374674320221,-1.6388548056231897,-0.0,0.0038491524755954742,0.811755359172821,-0.0,-0.0018644670490175486,0.7186967730522156,0.0,-0.0029936640057712793
386.0,664.0,0.8883,0.3344,9.5504,-0.0359,0.0284,-0.1132,-1.8295766315855921,0.0,3.1338725090026855,-1.7265584468841553,8.407790785948902e-44,2.0179402828216553,4.934273677855291,0.0,0.29225000739097595,-1.6388629118548792,-0.0,-0.0033909217454493046,0.8118078112602234,-0.0,-0.005204056855291128,0.7186726331710815,0.0,-0.018493998795747757
386.0,664.0,0.8883,0.3344,9.5504,-0.0359,0.0284,-0.1132,-1.8296009502806605,0.0,3.1232781410217285,-1.7265739440917969,-0.0,2.053567886352539,4.934249910503187,0.0,0.28214389085769653,-1.6388586203204554,-0.0,0.008421007543802261,0.811747133731842,-0.0,-3.109104000031948e-05,0.7186886668205261,0.0,0.013539979234337807
386.0,664.0,0.8883,0.3344,9.5504,-0.0359,0.0284,-0.1132,-1.8295604191222132,0.0,3.1573596000671387,-1.7265658378601074,-0.0,2.0268731117248535,4.934277760773458,0.0,0.28771501779556274,-1.638879124318258,-0.0,-0.006339604966342449,0.8117511868476868,-0.0,-0.00010991469025611877,0.7186967730522156,0.0,0.017090005800127983
396.0,697.0,0.8806,0.1083,9.6784,-0.0279,0.037,-0.1486,-1.8295890293517054,0.0,3.1204562187194824,-1.7265502214431763,-0.0,2.042840003967285,4.934249925404348,0.0,0.2889285385608673,-1.6388872305499476,-0.0,-0.012106402777135372,0.8117877244949341,-0.0,-0.007834041491150856,0.7187285423278809,0.0,0.03381000831723213
396.0,697.0,0.8806,0.1083,9.6784,-0.0279,0.037,-0.1486,-1.8296009502806605,0.0,3.1569790840148926,-1.7265698909759521,-2.566363946243655e-05,2.061436414718628,4.934261444001951,0.0,0.28931790590286255,-1.6388548056231897,-0.0,0.0014148491900414228,0.8117393851280212,-0.0,-0.0012268468271940947,0.7187284827232361,0.0,-0.010593215934932232
396.0,697.0,0.8806,0.1083,9.6784,-0.0279,0.037,-0.1486,-1.8295604191222132,0.0,3.1386523246765137,-1.7265419960021973,-2.3071017494658008e-05,1.997817039489746,4.934249210148611,0.0,0.2835705280303955,-1.6388829390155237,-0.0,-0.00585517892614007,0.8117995858192444,-0.0,0.00033147947397083044,0.7187365889549255,0.0,0.016643278300762177
396.0,697.0,0.8806,0.1083,9.6784,-0.0279,0.037,-0.1486,-1.829580923120016,0.0,3.1756839752197266,-1.7265100479125977,-2.0925377612002194e-05,2.0122461318969727,4.934233936458387,0.0,0.29363226890563965,-1.638867203389303,-0.0,-0.0017533437348902225,0.8118160963058472,-0.0,-0.013375946320593357,0.7187365889549255,0.0,-0.013425078243017197
396.0,697.0,0.8806,0.1083,9.6784,-0.0279,0.037,-0.1486,-1.8295642338194789,0.0,3.1472694873809814,-1.7265338897705078,-8.98030592111354e-08,2.0403809547424316,4.9343139109905145,0.0,0.2985391616821289,-1.6388910452472132,9.129921352268866e-08,-0.009698408655822277,0.8117877840995789,-0.0,0.0009140246547758579,0.7186647653579712,0.0,-0.06868910789489746
396.0,697.0,0.8806,0.1083,9.6784,-0.0279,0.037,-0.1486,-1.829620977441305,0.0,3.1564066410064697,-1.7265584468841553,-2.9095048107428446e-15,2.0368521213531494,4.934294062643804,0.0,0.2826802432537079,-1.6388586203204554,1.6593180822421782e-12,-0.014373382553458214,0.8117311596870422,-0.0,0.014287013560533524,0.7186686396598816,0.0,-0.03171061724424362
396.0,697.0,0.8806,0.1083,9.6784,-0.0279,0.037,-0.1486,-1.829620977441305,0.0,3.178439140319824,-1.726514220237732,-9.426426491533718e-23,1.9834976196289062,4.934249925404348,0.0,0.2790217995643616,-1.6388748327838343,3.015728459800928e-17,0.009646870195865631,0.8117512464523315,-0.0,0.008074232377111912,0.718680739402771,0.0,-0.015527759678661823
396.0,697.0,0.8806,0.1083,9.6784,-0.0279,0.037,-0.1486,-1.8296410046019496,0.0,3.139911651611328,-1.7265461683273315,-3.0540419046792902e-30,2.068037509918213,4.934237900167265,0.0,0.2977750301361084,-1.6389110724078577,5.480937916764358e-22,0.005701257381588221,0.811747133731842,-0.0,0.017229266464710236,0.7187647223472595,0.0,-0.029166661202907562
396.0,697.0,0.8806,0.1083,9.6784,-0.0279,0.037,-0.1486,-1.8295480213561,0.0,3.1489624977111816,-1.7265338897705078,-9.894706344366423e-38,2.0340049266815186,4.934281918197431,0.0,0.28024470806121826,-1.6388667265521448,9.961334147330527e-27,-0.008777843788266182,0.8117754459381104,-0.0,-0.011199971660971642,0.7188284397125244,0.0,-0.02278943918645382
396.0,697.0,0.8806,0.1083,9.6784,-0.0279,0.037,-0.1486,-1.8295971355833949,0.0,3.120359420776367,-1.7265419960021973,-2.802596928649634e-45,2.0614709854125977,4.934269594937124,0.0,0.28310221433639526,-1.6389148871051233,1.810423283387866e-31,-0.0097329281270504,0.811759889125824,-0.0,-0.01621653512120247,0.7187485694885254,0.0006870976067148149,-0.013055500574409962
396.0,697.0,0.8806,0.1083,9.6784,-0.0279,0.037,-0.1486,-1.8295480213561,0.0,3.1327977180480957,-1.7265698909759521,-0.0,2.015129566192627,4.934237929969587,0.0,0.2978575527667999,-1.6388867537127894,3.290354620294696e-36,-0.002939852885901928,0.8117918372154236,-0.0,-0.007173795718699694,0.7187964916229248,0.00098576326854527,-0.01808866299688816
379.0,660.0,0.8889,0.1711,9.0365,-0.0585,0.0257,-0.1072,-1.8295728168883265,0.0,3.1313042640686035,-1.7266184091567993,-0.0,2.0105929374694824,4.934265616327085,0.0,0.29185715317726135,-1.6389148871051233,5.980041196506157e-41,-0.014944085851311684,0.811707079410553,-0.0,-0.0013321818551048636,0.7187760472297668,0.0013151385355740786,0.008557990193367004
379.0,660.0,0.8889,0.1711,9.0365,-0.0585,0.0257,-0.1072,-1.8295728168883265,0.0,3.1471028327941895,-1.7265543937683105,-0.0,2.0370092391967773,4.934289681702413,0.0,0.2850804328918457,-1.6389148871051233,1.6815581571897805e-44,-0.007361067924648523,0.8118078112602234,-0.0,-0.005293871741741896,0.7188244462013245,0.0019061928614974022,-0.03806482255458832
379.0,660.0,0.8889,0.1711,9.0365,-0.0585,0.0257,-0.1072,-1.8295885525145472,0.0,3.156005382537842,-1.7265584468841553,-0.0,2.0555620193481445,4.934258001833715,0.0,0.29066649079322815,-1.6389063040362757,0.0,-0.008373206481337547,0.8117512464523315,-0.0,0.008197079412639141,0.7188525199890137,0.0023323402274399996,-0.036255136132240295
379.0,660.0,0.8889,0.1711,9.0365,-0.0585,0.0257,-0.1072,-1.8296247921385707,0.0,3.1561570167541504,-1.7265461683273315,-0.0,2.050611734390259,4.93421387949542,0.0,0.29732561111450195,-1.638850514088766,0.0,0.005441104993224144,0.8117713928222656,-0.0,-0.02715006284415722,0.7188963890075684,0.0020697666332125664,0.0075462376698851585
379.0,660.0,0.8889,0.1711,9.0365,-0.0585,0.0257,-0.1072,-1.8295480213561,0.0,3.133316993713379,-1.726529836654663,-0.0,2.0252184867858887,4.934241685062208,0.0,0.2835204601287842,-1.6388586203204554,0.0,-0.00343991513364017,0.8117672204971313,-0.0,-0.004408148117363453,0.7188723683357239,0.0015835992526262999,0.08021847158670425
379.0,660.0,0.8889,0.1711,9.0365,-0.0585,0.0257,-0.1072,-1.8295885525145472,0.0,3.1373045444488525,-1.726478099822998,-0.0,2.0468156337738037,4.93428153076724,0.0,0.29925233125686646,-1.6388629118548792,0.0,-0.005131984129548073,0.8117434978485107,-0.0,-0.011676467955112457,0.7187768220901489,0.0010692781070247293,0.02758536860346794
379.0,660.0,0.8889,0.1711,9.0365,-0.0585,0.0257,-0.1072,-1.8296367130675257,0.0,3.1104259490966797,-1.7265739440917969,-0.0,2.0116333961486816,4.934277745872297,0.0,0.29393503069877625,-1.6388667265521448,0.0,-0.011865710839629173,0.8117676377296448,-0.0,-0.0003956946893595159,0.7188644409179688,0.0004525615368038416,0.02152334153652191
379.0,660.0,0.8889,0.1711,9.0365,-0.0585,0.0257,-0.1072,-1.829620977441305,0.0,3.157280683517456,-1.7265347242355347,-0.0,2.036208152770996,4.934294062643804,0.0,0.2978353202342987,-1.6388629118548792,0.0,-0.00032429356360808015,0.8117635250091553,-0.0,0.007563846185803413,0.7189083695411682,-7.706139876972884e-05,0.017994990572333336
379.0,660.0,0.8889,0.1711,9.0365,-0.0585,0.0257,-0.1072,-1.8296452961363734,0.0,3.1389172077178955,-1.7265502214431763,-0.0,2.0389442443847656,4.93424608090476,0.0,0.2893553674221039,-1.638879124318258,0.0,-0.0025404938496649265,0.8118077516555786,-0.0,0.0034012512769550085,0.7188689708709717,-0.0001560586242703721,0.0229545459151268
379.0,660.0,0.8889,0.1711,9.0365,-0.0585,0.0257,-0.1072,-1.8296166859068812,0.0,3.145789623260498,-1.7265419960021973,-0.0,2.0292696952819824,4.934253918915548,0.0,0.286077618598938,-1.638879124318258,0.0,-0.006350245792418718,0.8117995858192444,-0.0,0.009100313298404217,0.7189164161682129,-0.00011586598702706397,-0.02044558711349964
379.0,660.0,0.8889,0.1711,9.0365,-0.0585,0.0257,-0.1072,-1.8296848736205042,0.0,3.1513795852661133,-1.726481318473816,-0.0,2.02236270904541,4.934225994139471,0.0,0.2952212393283844,-1.6388829390155237,0.0,-0.012812460772693157,0.8117631673812866,-0.0,-0.008437004871666431,0.7188685536384583,-9.213860903400928e-05,0.060464054346084595
379.0,660.0,0.8889,0.1711,9.0365,-0.0585,0.0257,-0.1072,-1.8296405277647914,-0.0007140612578950822,3.1602494716644287,-1.726481318473816,-0.0,2.0251591205596924,4.934205996781149,0.0,0.30130815505981445,-1.638867203389303,0.0,-0.002821033587679267,0.8117672204971313,-0.0,-0.0123910428956151,0.7188685536384583,-3.826100146397948e-05,-0.004277936182916164
392.0,681.0,0.8907,0.4965,9.6,-0.031,0.0211,-0.1133,-1.8296524486937464,-0.0005456893122754991,3.1253366470336914,-1.7265626192092896,-0.0,2.034353256225586,4.934213775187292,0.0,0.2924359440803528,-1.6388586203204554,0.0,0.0005654082633554935,0.81180340051651,-0.0,0.0054840268567204475,0.7188565135002136,-1.047415279509245e-11,-0.006125381216406822
392.0,681.0,0.8907,0.4965,9.6,-0.031,0.0211,-0.1133,-1.8297168217101039,-0.0004949842696078122,3.1558754444122314,-1.7265340089797974,-0.0,2.0768251419067383,4.934241997986593,0.0,0.2888200283050537,-1.6388261953936976,0.0,-0.0005601586890406907,0.8117591142654419,-0.0,-0.0009148202952928841,0.7188519835472107,-2.5293844753640475e-17,-0.013946848921477795
392.0,681.0,0.8907,0.4965,9.6,-0.031,0.0211,-0.1133,-1.8296886883177699,-0.00038821116322651505,3.1385231018066406,-1.7265262603759766,-0.0,2.01541805267334,4.934250238328733,0.0,0.30053436756134033,-1.6388872305499476,0.0,0.00238311430439353,0.8117995262145996,-0.0,-0.007627566810697317,0.7188645005226135,0.0004578141961246729,-0.021751439198851585
392.0,681.0,0.8907,0.4965,9.6,-0.031,0.0211,-0.1133,-1.8296886883177699,-0.00031933371792547405,3.121202230453491,-1.726494312286377,0.00030792190227657557,2.0449252128601074,4.934226068645277,0.0,0.2914363741874695,-1.6388385931598108,0.0,-0.0025098882615566254,0.8117877244949341,-0.0,-0.007263985928148031,0.718904435634613,0.001351126004010439,-0.02073284238576889
392.0,681.0,0.8907,0.4965,9.6,-0.031,0.0211,-0.1133,-1.8297249279417933,-0.00020922122348565608,3.1793384552001953,-1.7264909744262695,0.00041723097092472017,2.000005006790161,4.934237915068426,0.0,0.29630860686302185,-1.6388710180865687,0.0,-0.008704028092324734,0.8117794990539551,-0.0,-0.013542376458644867,0.7188964486122131,0.002358113881200552,0.008591648191213608
392.0,681.0,0.8907,0.4965,9.6,-0.031,0.0211,-0.1133,-1.8296643696227015,-0.00017579492123331875,3.1569929122924805,-1.7265222072601318,0.0006074420525692403,2.0456693172454834,4.934273677855291,0.0,0.2837582528591156,-1.638867203389303,0.0,-0.0123183224350214,0.8117591738700867,-0.0,-0.010364058427512646,0.7189443707466125,0.002810400677844882,-0.004993930459022522
392.0,681.0,0.8907,0.4965,9.6,-0.031,0.0211,-0.1133,-1.8296886883177699,-0.0001520364749012515,3.12188982963562,-1.72648286819458,0.000508853408973664,2.0430030822753906,4.934250253229894,0.0,0.30122894048690796,-1.6388304869281214,0.0,0.005056649912148714,0.811895489692688,-0.0,-0.013049055822193623,0.7189924120903015,0.00411820225417614,0.02201894298195839
392.0,681.0,0.8907,0.4965,9.6,-0.031,0.0211,-0.1133,-1.8297530613341273,-0.00018746592104434967,3.1464641094207764,-1.726526141166687,0.00039604873745702207,2.047147274017334,4.934225994139471,0.0,0.29178285598754883,-1.6388829390155237,0.0,-0.007516754791140556,0.811787486076355,-0.0,0.00542167155072093,0.7190044522285461,0.005820256657898426,0.017765523865818977
392.0,681.0,0.8907,0.4965,9.6,-0.031,0.0211,-0.1133,-1.8297330341734828,-0.00031623602262698114,3.1716694831848145,-1.7264173030853271,0.0004692829679697752,2.0449628829956055,4.934217917710104,3.393265668449885e-09,0.28856512904167175,-1.638846222554342,0.0,-0.00604981929063797,0.8118190765380859,-0.0,-0.003717482788488269,0.7190564870834351,0.005952608305960894,0.0038287807255983353
392.0,681.0,0.8907,0.4965,9.6,-0.031,0.0211,-0.1133,-1.8297449551024378,-0.0007134157931432128,3.1533141136169434,-1.7264785766601562,0.0013220150722190738,2.0713460445404053,4.93424608090476,6.167092390148982e-14,0.290597528219223,-1.6388304869281214,0.0,-0.003889690851792693,0.8118393421173096,-0.0,0.0020542852580547333,0.7191606760025024,0.0062254928052425385,0.001841830089688301
392.0,681.0,0.8907,0.4965,9.6,-0.031,0.0211,-0.1133,-1.8297654591002406,-0.0007081282674334943,3.1680920124053955,-1.7263977527618408,0.004362402018159628,2.0184707641601562,4.9341740039880655,1.1208384154057843e-18,0.27638325095176697,-1.6388304869281214,0.0,0.0015472122468054295,0.8118393421173096,-0.0,0.002984714461490512,0.7191928625106812,0.006371379364281893,0.006337439175695181
380.0,663.0,0.9494,0.1783,9.6018,-0.0421,0.0281,-0.1107,-1.829756876031393,-0.0007947562262415886,3.161660671234131,-1.7263867855072021,0.012218090705573559,2.0586142539978027,4.9341981438691995,2.0370682580318908e-23,0.2987690567970276,-1.6388710180865687,0.0,0.004835435189306736,0.8117592334747314,-0.0,0.01916101761162281,0.7191925644874573,0.00572490319609642,-0.012025589123368263
380.0,663.0,0.9494,0.1783,9.6018,-0.0421,0.0281,-0.1107,-1.8297974071898402,-0.0011143162846565247,3.1401984691619873,-1.726283073425293,0.011435293592512608,2.1362740993499756,4.934178072005071,-0.00023237675486598164,0.28367719054222107,-1.6388304869281214,0.0,0.01337369717657566,0.8118753433227539,-0.0,-0.003951119724661112,0.719204306602478,0.005199248902499676,-0.004525388590991497
380.0,663.0,0.9494,0.1783,9.6018,-0.0421,0.0281,-0.1107,-1.8298455677428187,-0.00312364986166358,3.1199424266815186,-1.7261793613433838,0.011041682213544846,2.029581308364868,4.934210079699316,-0.0002165935729863122,0.2891756594181061,-1.6388586203204554,0.0,-0.0006595327286049724,0.8118231296539307,-0.0,0.00238618697039783,0.719276487827301,0.004652080591768026,0.024993862956762314
380.0,663.0,0.9494,0.1783,9.6018,-0.0421,0.0281,-0.1107,-1.8298212490477503,-0.0036593605764210224,3.115206718444824,-1.7260922193527222,0.011121413670480251,2.0622007846832275,4.934133770852842,-0.00018161896150559187,0.27447184920310974,-1.6388266722308558,0.00013181324175093323,-0.008599387481808662,0.8118353486061096,-0.0,-0.0023218668065965176,0.7192926406860352,0.00330029777251184,0.02127779647707939
380.0,663.0,0.9494,0.1783,9.6018,-0.0421,0.0281,-0.1107,-1.8298407993712367,-0.0035065102856606245,3.0872132778167725,-1.7260197401046753,0.010500111617147923,2.027172327041626,4.934214147716322,-0.00018764300330076367,0.2919330894947052,-1.6388147513019007,0.0006770540494471788,0.0073933470994234085,0.811883270740509,-0.0,0.007601589895784855,0.7193207144737244,0.0017717242008075118,-0.055649831891059875
380.0,663.0,0.9494,0.1783,9.6018,-0.0421,0.0281,-0.1107,-1.8298856220641078,-0.0031638385262340307,3.0807924270629883,-1.7258437871932983,0.011597142554819584,2.045621395111084,4.934202331095495,-0.000192196064745076,0.28605222702026367,-1.6388185659991663,0.0008450517780147493,0.012419156730175018,0.8118353486061096,-0.0,0.007118694484233856,0.7193124294281006,0.000819769746158272,-0.016588546335697174
380.0,663.0,0.9494,0.1783,9.6018,-0.0421,0.0281,-0.1107,-1.8299170933165492,-0.0030544123146682978,3.079315185546875,-1.72581148147583,0.012658372521400452,2.0617690086364746,4.934185924917021,-0.00021130737150087953,0.2967347204685211,-1.638770882283346,0.0009096769499592483,0.015553558245301247,0.8118190765380859,-0.0,0.014471663162112236,0.7193324565887451,0.0006762589327991009,-0.009063833393156528
380.0,663.0,0.9494,0.1783,9.6018,-0.0421,0.0281,-0.1107,-1.8299857578673304,-0.0033827342558652163,3.1042277812957764,-1.7257328033447266,0.013255992904305458,2.096428394317627,4.934134173184194,-0.00025388255016878247,0.27432239055633545,-1.6387665907489222,0.0008176558767445385,0.006557859480381012,0.8118309378623962,-1.7186579936989688e-10,0.011015660129487514,0.7193124294281006,0.0003655195760075003,-0.006740681827068329
380.0,663.0,0.9494,0.1783,9.6018,-0.0421,0.0281,-0.1107,-1.829984804193014,-0.0039482079446315765,3.0624685287475586,-1.7255479097366333,0.01572738215327263,2.0364856719970703,4.934154319554128,-0.0006351798656396568,0.27626872062683105,-1.6388033072101038,0.0010426915250718594,0.022336546331644058,0.8118631839752197,-3.1235760827771344e-15,0.012007156386971474,0.7193406820297241,0.0004405323707032949,-0.07662093639373779
380.0,663.0,0.9494,0.1783,9.6018,-0.0421,0.0281,-0.1107,-1.8300658665099085,-0.00477463286370039,3.0778861045837402,-1.7254045009613037,0.020595788955688477,2.065436363220215,4.934122341662206,-0.0005829846486449242,0.28282177448272705,-1.6387713591205042,0.0014594742096960545,0.025176718831062317,0.8118669986724854,-5.676945713830257e-20,0.03343064710497856,0.7193282842636108,0.0006399338599294424,-0.06810599565505981
380.0,663.0,0.9494,0.1783,9.6018,-0.0421,0.0281,-0.1107,-1.8300615749754847,-0.004740367643535137,3.0271096229553223,-1.7252132892608643,0.02535286732017994,2.0826821327209473,4.9341821549232385,-0.0005278707831166685,0.26910361647605896,-1.6387551466571253,0.0035659614950418472,0.033515192568302155,0.8118028044700623,-1.0317566999648979e-24,0.02834361419081688,0.719332218170166,0.0014746570959687233,-0.0780082568526268
380.0,663.0,0.9494,0.1783,9.6018,-0.0421,0.0281,-0.1107,-1.8301259479918421,-0.005359433591365814,3.026512861251831,-1.7250622510910034,0.03144054487347603,2.1170148849487305,4.934134471207418,-0.0005058335373178124,0.2658954858779907,-1.6386988798724573,0.011471115984022617,0.046566497534513474,0.8118669986724854,-1.8751667944882186e-29,0.03553271293640137,0.7193440794944763,0.002593038138002157,-0.03056364879012108
389.0,624.0,0.9948,0.4277,9.2088,-0.0367,0.0544,-0.1029,-1.8301531277098597,-0.006155345123261213,3.029758930206299,-1.7248022556304932,0.035170771181583405,2.097283363342285,4.934082108526983,-0.0004442418285179883,0.2534172534942627,-1.6386755148517054,0.01470654085278511,0.04361224174499512,0.8118669986724854,-5.2195960550981746e-33,0.033500347286462784,0.719428300857544,0.00431545777246356,-0.08322445303201675
389.0,624.0,0.9948,0.4277,9.2088,-0.0367,0.0544,-0.1029,-1.8301893673338832,-0.007855413481593132,3.0567374229431152,-1.7244869470596313,0.039914753288030624,2.116424322128296,4.934162366181173,-0.00038038313505239785,0.2746068835258484,-1.6385834852801722,0.008096453733742237,0.03445199131965637,0.811830997467041,-9.486359003552e-38,0.03751276060938835,0.7194159030914307,0.005477633327245712,-0.08520969748497009
389.0,624.0,0.9948,0.4277,9.2088,-0.0367,0.0544,-0.1029,-1.8302818737425746,-0.009737808257341385,3.025817394256592,-1.7241761684417725,0.04340372979640961,2.1323752403259277,4.934162381082334,-0.0002981332072522491,0.2697981595993042,-1.638519589100973,0.001666493946686387,0.03301379829645157,0.8118710517883301,0.00015021456056274474,0.02936602011322975,0.7195326089859009,0.008219145238399506,-0.07800991833209991
389.0,624.0,0.9948,0.4277,9.2088,-0.0367,0.0544,-0.1029,-1.8303538761534632,-0.009988942183554173,3.0080480575561523,-1.7237927913665771,0.044762592762708664,2.1287472248077393,4.934122311859884,-0.00024418943212367594,0.2592896521091461,-1.6384952704059046,0.0007412123959511518,0.03877253830432892,0.8118629455566406,0.0001590312458574772,0.036522261798381805,0.7195843458175659,0.010672476142644882,-0.03347378969192505
389.0,624.0,0.9948,0.4277,9.2088,-0.0367,0.0544,-0.1029,-1.8304220638670863,-0.00911383144557476,3.0117688179016113,-1.7234376668930054,0.04395072162151337,2.088502883911133,4.934150504856863,-0.0002067793539026752,0.2607462406158447,-1.6385238806353968,0.00047873941366560757,0.04037071019411087,0.8118669986724854,0.0001643937430344522,0.045982640236616135,0.7196604609489441,0.011652634479105473,-0.04968409240245819
389.0,624.0,0.9948,0.4277,9.2088,-0.0367,0.0544,-0.1029,-1.8304983578123988,-0.007762495893985033,2.966578960418701,-1.7231066226959229,0.040034133940935135,2.121830701828003,4.93414272645072,-0.00017931076581589878,0.2590540051460266,-1.6385400930987757,0.0004122054670006037,0.0409662202000618,0.8118710517883301,0.00015015843382570893,0.049265168607234955,0.7197643518447876,0.012850073166191578,-0.11235522478818893
389.0,624.0,0.9948,0.4277,9.2088,-0.0367,0.0544,-0.1029,-1.8305703602232875,-0.007229902315884829,2.9688353538513184,-1.722774863243103,0.035344675183296204,2.1462838649749756,4.9341464070375345,-0.0001582846016390249,0.26276421546936035,-1.6384876410113733,0.00037426664493978024,0.045449234545230865,0.8118309378623962,0.00015666916442569345,0.05013997107744217,0.7198845744132996,0.013857641257345676,-0.0978991910815239
389.0,624.0,0.9948,0.4277,9.2088,-0.0367,0.0544,-0.1029,-1.83058561901235,-0.0062327939085662365,2.9933176040649414,-1.7226253747940063,0.027737615630030632,2.1455483436584473,4.934138673334875,-0.00016517848416697234,0.25513604283332825,-1.63847524324526,0.0002769972779788077,0.04646133631467819,0.8118628859519958,0.00019218330271542072,0.05489974468946457,0.7199603915214539,0.01450303290039301,-0.023897403851151466
389.0,624.0,0.9948,0.4277,9.2088,-0.0367,0.0544,-0.1029,-1.830658575097555,-0.004667992703616619,2.941420555114746,-1.7223010063171387,0.02503512240946293,2.055187225341797,4.93414685407237,-0.00014958596148062497,0.2616477310657501,-1.6384876410113733,0.0007384034106507897,0.04446841776371002,0.8118791580200195,0.00019704324949998409,0.055526819080114365,0.7200720906257629,0.01455689687281847,-0.06371643394231796
389.0,624.0,0.9948,0.4277,9.2088,-0.0367,0.0544,-0.1029,-1.8306905231871546,-0.004677643999457359,3.0147063732147217,-1.722152590751648,0.02159298211336136,2.0897512435913086,4.934102150588789,-0.00013661071716342121,0.2581811547279358,-1.6384642759906214,0.0010328899370506406,0.040338583290576935,0.8119151592254639,0.00020063335250597447,0.06313621997833252,0.7202084064483643,0.014690319076180458,-0.10240930318832397
389.0,624.0,0.9948,0.4277,9.2088,-0.0367,0.0544,-0.1029,-1.8307587109007777,-0.005143646150827408,2.9592578411102295,-1.7219929695129395,0.0195267703384161,2.127257823944092,4.934126305371084,-0.00012570696708280593,0.2566738426685333,-1.6384313742267054,0.0007549199508503079,0.05443621799349785,0.8118147253990173,0.0002596697013359517,0.06866876780986786,0.7203162908554077,0.01493075955659151,-0.08848438411951065
389.0,624.0,0.9948,0.4277,9.2088,-0.0367,0.0544,-0.1029,-1.83075012783193,-0.006566466763615608,2.9530839920043945,-1.7218515872955322,0.018554363399744034,2.1134448051452637,4.934122296958723,-0.00013553156168200076,0.24803835153579712,-1.6385000387774866,0.0006774517823942006,0.03789811208844185,0.8118951320648193,0.00026453472673892975,0.053981713950634,0.7204000949859619,0.015105974860489368,-0.09537765383720398
365.0,576.0,0.676,0.5336,9.2692,-0.0298,0.0286,-0.0968,-1.8308307133116664,-0.008316034451127052,2.965487003326416,-1.7217135429382324,0.017753291875123978,2.109248161315918,4.934166464000501,-0.000109760498162359,0.26245689392089844,-1.6384237448321741,0.0005558709963224828,0.05107129365205765,0.8119388818740845,0.0002569511125329882,0.055558476597070694,0.7205606698989868,0.014804261736571789,-0.0825507715344429
365.0,576.0,0.676,0.5336,9.2692,-0.0298,0.0286,-0.0968,-1.8309151134886683,-0.009531828574836254,2.942073106765747,-1.7215564250946045,0.01850905455648899,2.05452823638916,4.934126409679212,-8.582747977925465e-05,0.2523666024208069,-1.6384313742267054,0.00044331260141916573,0.0533306747674942,0.8119230270385742,0.0002470842737238854,0.06296423077583313,0.7206563949584961,0.01574946567416191,-0.10873395204544067
365.0,576.0,0.676,0.5336,9.2692,-0.0298,0.0286,-0.0968,-1.8309384785094203,-0.012175722979009151,2.9864909648895264,-1.7214295864105225,0.017819998785853386,2.061338424682617,4.934126290469923,-7.974326581461355e-05,0.25475966930389404,-1.6384833494769495,0.00033520773285999894,0.04406826198101044,0.8119029998779297,0.0002460668911226094,0.061329904943704605,0.7207559943199158,0.01568630151450634,-0.01762281358242035
365.0,576.0,0.676,0.5336,9.2692,-0.0298,0.0286,-0.0968,-1.8310910664000453,-0.014798177406191826,2.9759697914123535,-1.7212811708450317,0.01905890554189682,2.061695098876953,4.934126394778051,-7.446501695085317e-05,0.25993597507476807,-1.638496224080221,0.0003132568090222776,0.06106492131948471,0.8119587302207947,0.000218093249714002,0.07396507263183594,0.7209164500236511,0.016044357791543007,-0.033158205449581146
365.0,576.0,0.676,0.5336,9.2692,-0.0298,0.0286,-0.0968,-1.8312517605223597,-0.017143037170171738,2.9274158477783203,-1.7211567163467407,0.01912560686469078,2.041788339614868,4.934118154435911,-6.984203355386853e-05,0.2651781141757965,-1.6384556929217737,0.0002985603059642017,0.05249206721782684,0.8118670582771301,0.0001944518880918622,0.06735128164291382,0.7210603952407837,0.016360759735107422,-0.03411572426557541
365.0,576.0,0.676,0.5336,9.2692,-0.0298,0.0286,-0.0968,-1.8313151798644007,-0.019471867009997368,2.9309253692626953,-1.7209726572036743,0.01927618496119976,2.102095127105713,4.93414272645072,-6.575955194421113e-05,0.258237361907959,-1.638468090687887,0.0002561116707511246,0.06852008402347565,0.8119387626647949,0.0001945443800650537,0.0661843866109848,0.7211279273033142,0.01765228621661663,-0.07841417193412781
365.0,576.0,0.676,0.5336,9.2692,-0.0298,0.0286,-0.0968,-1.8315078220763148,-0.022583970800042152,2.8805747032165527,-1.7208327054977417,0.020882895216345787,2.1167876720428467,4.9341706214244745,-6.212799053173512e-05,0.2717272937297821,-1.6384356657611292,0.00019643489213194698,0.04890312999486923,0.8119627833366394,0.00017339274927508086,0.07173117250204086,0.7213284969329834,0.018548613414168358,-0.030682364478707314
365.0,576.0,0.676,0.5336,9.2692,-0.0298,0.0286,-0.0968,-1.8317119083800257,-0.024124398827552795,2.8990721702575684,-1.720660924911499,0.020514285191893578,2.092989206314087,4.934102150588789,-5.887656152481213e-05,0.26084357500076294,-1.6384919325457972,0.0002006639988394454,0.05331581085920334,0.811898946762085,0.00015365550643764436,0.06405103951692581,0.7214440107345581,0.01999073289334774,-0.0469440221786499
365.0,576.0,0.676,0.5336,9.2692,-0.0298,0.0286,-0.0968,-1.8318401775755824,-0.025405820459127426,2.908658027648926,-1.7204896211624146,0.021445071324706078,2.1089930534362793,4.934126394778051,-6.694805051665753e-05,0.24876920878887177,-1.6384194532977503,0.00020375124586280435,0.04622049257159233,0.8119387626647949,0.00013795288396067917,0.06886298209428787,0.7216241955757141,0.021621404215693474,-0.010344581678509712
365.0,576.0,0.676,0.5336,9.2692,-0.0298,0.0286,-0.0968,-1.8320723972716273,-0.027273882180452347,2.8899312019348145,-1.7203528881072998,0.021756766363978386,2.154496669769287,4.93411040583209,-6.395756645360962e-05,0.25815898180007935,-1.6384761969195765,0.00024557820870541036,0.047293830662965775,0.8119149208068848,0.00014599844871554524,0.0725008025765419,0.7217761874198914,0.023976553231477737,0.01299340557307005
365.0,576.0,0.676,0.5336,9.2692,-0.0298,0.0286,-0.0968,-1.8323613605894984,-0.02902154251933098,2.8592042922973633,-1.7201122045516968,0.02264232002198696,2.0762064456939697,4.934110450535574,-6.106457294663414e-05,0.25896602869033813,-1.6384437719928187,0.00027535701519809663,0.05083015561103821,0.8119627833366394,0.0001523940300103277,0.08689724653959274,0.7220324873924255,0.025977134704589844,-0.0006832735962234437
379.0,570.0,0.3344,0.4648,8.8271,-0.0426,0.0362,-0.0851,-1.832501073876852,-0.029529942199587822,2.8679275512695312,-1.720016360282898,0.02378443442285061,2.0687012672424316,4.93415458777503,-4.464085122890538e-06,0.2519429922103882,-1.6384313742267054,0.00027800293173640966,0.04735615476965904,0.8119628429412842,0.00014792107685934752,0.0791809931397438,0.7221359610557556,0.028133243322372437,-0.010502513498067856
379.0,570.0,0.3344,0.4648,8.8271,-0.0426,0.0362,-0.0851,-1.8327495060362757,-0.02995653823018074,2.8283166885375977,-1.7198048830032349,0.026482222601771355,2.094388961791992,4.934142771154203,-8.113255900443761e-11,0.2558651566505432,-1.6384313742267054,0.0002704740618355572,0.06168494001030922,0.8119871020317078,0.00015697110211476684,0.07396024465560913,0.7223879098892212,0.03040032647550106,0.008003443479537964
379.0,570.0,0.3344,0.4648,8.8271,-0.0426,0.0362,-0.0851,-1.8330260715880335,-0.032852593809366226,2.881681442260742,-1.7195152044296265,0.029642378911376,2.0808963775634766,4.934065761953153,-1.4745440713378479e-15,0.26078295707702637,-1.6384480635272425,0.0002961641876026988,0.04088464751839638,0.8119587302207947,0.00018721086962614208,0.08435462415218353,0.7226883172988892,0.03214149549603462,0.024873316287994385
379.0,570.0,0.3344,0.4648,8.8271,-0.0426,0.0362,-0.0851,-1.8333026371397914,-0.03946642577648163,2.8474223613739014,-1.7193129062652588,0.033178120851516724,2.1257545948028564,4.934130462795057,-8.166205952875316e-05,0.25217220187187195,-1.6383798758136194,0.0002814546169247478,0.03714270889759064,0.811978816986084,0.0004714167444035411,0.10304778814315796,0.7229079604148865,0.030883627012372017,0.06570110470056534
379.0,570.0,0.3344,0.4648,8.8271,-0.0426,0.0362,-0.0851,-1.8335749111571253,-0.04462379217147827,2.8538818359375,-1.7190287113189697,0.037657786160707474,2.1026690006256104,4.934126350074568,-9.139101894106716e-05,0.25576841831207275,-1.638439957295553,0.0002328900300199166,0.04811128228902817,0.8119906783103943,0.0007179612293839455,0.10224675387144089,0.7231639623641968,0.029746083542704582,0.07879675179719925
379.0,570.0,0.3344,0.4648,8.8271,-0.0426,0.0362,-0.0851,-1.8339797459044398,-0.051669154316186905,2.818056583404541,-1.71868097782135,0.04305783286690712,2.152158260345459,4.934086340456762,-8.559689013054594e-05,0.2444526106119156,-1.6384075323687952,0.00019861951295752078,0.045331865549087524,0.8119586706161499,0.0008211484528146684,0.10273206979036331,0.7234441041946411,0.028534065932035446,0.08349712938070297
379.0,570.0,0.3344,0.4648,8.8271,-0.0426,0.0362,-0.0851,-1.8343759975829066,-0.06120752543210983,2.7930290699005127,-1.7182966470718384,0.04818658158183098,2.153796434402466,4.934114488750257,-6.752879562554881e-05,0.2578360438346863,-1.6384318510638636,0.00017314209253527224,0.03632958233356476,0.8120026588439941,0.0010436057345941663,0.10219381004571915,0.7236195206642151,0.027730267494916916,0.13906750082969666
379.0,570.0,0.3344,0.4648,8.8271,-0.0426,0.0362,-0.0851,-1.8348928890623988,-0.06791222095489502,2.7803239822387695,-1.7178637981414795,0.052040617913007736,2.129835605621338,4.934106337815084,-6.330321775749326e-05,0.24862751364707947,-1.6384275595294397,0.00015345874999184161,0.04046226292848587,0.8119503855705261,0.0022982789669185877,0.10416248440742493,0.7238636016845703,0.027579793706536293,0.11132828891277313
379.0,570.0,0.3344,0.4648,8.8271,-0.0426,0.0362,-0.0851,-1.835437913934225,-0.07515057176351547,2.782942295074463,-1.7174811363220215,0.054767172783613205,2.126816987991333,4.934118154435911,-4.814881322090514e-05,0.2596867084503174,-1.6384804884540003,0.00013779413711745292,0.042517729103565216,0.8120185732841492,0.008738318458199501,0.11741569638252258,0.7240311503410339,0.028301779180765152,0.17313149571418762
379.0,570.0,0.3344,0.4648,8.8271,-0.0426,0.0362,-0.0851,-1.8360306225218714,-0.07580586522817612,2.8280105590820312,-1.7169800996780396,0.05476027727127075,2.141275405883789,4.9341264245803735,-4.551985330181196e-05,0.2490546852350235,-1.6384394804583948,0.0001250315544893965,0.028308995068073273,0.8121672868728638,0.014019765891134739,0.11088620126247406,0.7243397831916809,0.0305323489010334,0.20491255819797516
379.0,570.0,0.3344,0.4648,8.8271,-0.0426,0.0362,-0.0851,-1.8366877041258753,-0.07968619465827942,2.796363592147827,-1.7165639400482178,0.05433758720755577,2.157073974609375,4.934126409679212,-4.3328436731826514e-05,0.24825379252433777,-1.638456169758932,0.00011443287803558633,0.024984676390886307,0.8121817708015442,0.005857129115611315,0.09866083413362503,0.7245594263076782,0.033918801695108414,0.18590465188026428
379.0,570.0,0.3344,0.4648,8.8271,-0.0426,0.0362,-0.0851,-1.8372117481627406,-0.0808224081993103,2.809699535369873,-1.7162644863128662,0.052178751677274704,2.103635787963867,4.93414272645072,-2.6737077860161662e-05,0.25018855929374695,-1.6384480635272425,0.00010759263386717066,0.024294674396514893,0.8121778964996338,0.0013325449544936419,0.08806103467941284,0.7247510552406311,0.03646296635270119,0.17823754251003265
391.0,715.0,0.7759,0.3763,9.9003,-0.0478,-0.0881,-0.0643,-1.837903162042135,-0.08343672007322311,2.826112985610962,-1.715856909751892,0.04969646409153938,2.1430013179779053,4.934106322913923,-2.38909251493169e-05,0.25933828949928284,-1.6384275595294397,9.965031495084986e-05,0.03172718733549118,0.8121699690818787,0.0005059695104137063,0.09647447615861893,0.7250913977622986,0.0393623411655426,0.23734116554260254
391.0,715.0,0.7759,0.3763,9.9003,-0.0478,-0.0881,-0.0643,-1.8385750255980433,-0.08930285274982452,2.8326029777526855,-1.7154804468154907,0.045654088258743286,2.082350730895996,4.93410216548995,-4.309828000259586e-05,0.2516954839229584,-1.6384480635272425,9.280026279157028e-05,0.031713150441646576,0.8121981620788574,0.0003236532211303711,0.10759692639112473,0.7254599332809448,0.03894805908203125,0.20607596635818481
391.0,715.0,0.7759,0.3763,9.9003,-0.0478,-0.0881,-0.0643,-1.8393146000304164,-0.09796972572803497,2.8288955688476562,-1.7151323556900024,0.046291086822748184,2.131587505340576,4.934126394778051,-2.9721421014983207e-05,0.24763309955596924,-1.6384275595294397,8.683131454745308e-05,0.029242027550935745,0.8121617436408997,0.0002379945362918079,0.08584721386432648,0.7257315516471863,0.03867144137620926,0.22870665788650513
391.0,715.0,0.7759,0.3763,9.9003,-0.0478,-0.0881,-0.0643,-1.8401223621764125,-0.10567279905080795,2.7673521041870117,-1.7146766185760498,0.052856143563985825,2.1322474479675293,4.934114071517744,-1.8119153537554666e-05,0.24256622791290283,-1.6384275595294397,8.158391574397683e-05,0.02288312464952469,0.8121738433837891,8.662229083711281e-05,0.08133804798126221,0.7260593771934509,0.03867930546402931,0.24634064733982086
391.0,715.0,0.7759,0.3763,9.9003,-0.0478,-0.0881,-0.0643,-1.8409935436644496,-0.11484505981206894,2.8042726516723633,-1.7142359018325806,0.06022834777832031,2.1334381103515625,4.934158745199003,-2.511422403372876e-09,0.2580401599407196,-1.6384919325457972,7.693452062085271e-05,0.019259747117757797,0.8122258186340332,4.0962906496133655e-05,0.09530746936798096,0.7263994812965393,0.04102521389722824,0.2728778123855591
391.0,715.0,0.7759,0.3763,9.9003,-0.0478,-0.0881,-0.0643,-1.8419729671873988,-0.11993154883384705,2.803316593170166,-1.713658332824707,0.068778857588768,2.18072247505188,4.934186267643728,-4.564386114078514e-14,0.2640681862831116,-1.6384394804583948,6.213704909896478e-05,0.017255645245313644,0.8122736215591431,6.92226822138764e-05,0.10059744119644165,0.7267515063285828,0.044321149587631226,0.2554807662963867
391.0,715.0,0.7759,0.3763,9.9003,-0.0478,-0.0881,-0.0643,-1.8430730305113734,-0.12282068282365799,2.814863681793213,-1.7131245136260986,0.0738658532500267,2.1615471839904785,4.934122296958723,-8.295545175134783e-19,0.250113844871521,-1.6384313742267054,5.7552504586055875e-05,0.029647095128893852,0.8122336864471436,0.00040432700188830495,0.10806100070476532,0.7271270751953125,0.051986515522003174,0.2904205620288849
391.0,715.0,0.7759,0.3763,9.9003,-0.0478,-0.0881,-0.0643,-1.8441039524474085,-0.1267821043729782,2.82500958442688,-1.7125325202941895,0.0737132653594017,2.170766830444336,4.9341464070375345,-1.5076744330463807e-23,0.2658962905406952,-1.6384361425982874,5.4751486459281296e-05,0.005234869197010994,0.8123058676719666,0.0008509796462021768,0.11369705945253372,0.7275991439819336,0.059536658227443695,0.3200814425945282
391.0,715.0,0.7759,0.3763,9.9003,-0.0478,-0.0881,-0.0643,-1.845203538934225,-0.14568288624286652,2.7859010696411133,-1.7119481563568115,0.06859087198972702,2.134556770324707,4.934094372182646,-2.740123809872988e-28,0.25764426589012146,-1.6384361425982874,5.2210569265298545e-05,0.015235773287713528,0.8121899366378784,0.0006870583747513592,0.1096431165933609,0.7280631065368652,0.06519682705402374,0.3787614703178406
391.0,715.0,0.7759,0.3763,9.9003,-0.0478,-0.0881,-0.0643,-1.8463903866209925,-0.1601511389017105,2.791857957839966,-1.7114406824111938,0.07193165272474289,2.12073016166687,4.93411402681426,-4.980039489950208e-33,0.26405513286590576,-1.6384275595294397,5.922057243878953e-05,0.006834452040493488,0.8122377395629883,0.0004783374897670001,0.1052970439195633,0.7285470366477966,0.06262284517288208,0.3339545726776123
391.0,715.0,0.7759,0.3763,9.9003,-0.0478,-0.0881,-0.0643,-1.847325941125387,-0.16161875426769257,2.8067517280578613,-1.7108957767486572,0.07979156076908112,2.1783692836761475,4.934150489955702,-1.3862123316864258e-36,0.269885778427124,-1.638456169758932,3.2696256369035837e-08,0.02393024042248726,0.8122298121452332,0.00038954755291342735,0.107701376080513,0.7288906574249268,0.06071024760603905,0.32166916131973267
391.0,715.0,0.7759,0.3763,9.9003,-0.0478,-0.0881,-0.0643,-1.8486739597716273,-0.14768104255199432,2.7905983924865723,-1.7102924585342407,0.09057911485433578,2.1730990409851074,4.9341821698244,-2.5193945090095886e-41,0.2671954035758972,-1.6384442488299769,5.942383087334524e-13,0.01634375937283039,0.8121939897537231,0.0003122800262644887,0.09994831681251526,0.7294108271598816,0.05780622363090515,0.37567514181137085
503.0,820.0,1.6648,2.147,10.2604,-0.073,-0.0487,-0.1119,-1.84989657024526,-0.14456267654895782,2.872523307800293,-1.7095563411712646,0.0939839705824852,2.1394500732421875,4.934098037868299,0.0002044932043645531,0.2721154987812042,-1.6384318510638636,1.0799988542028162e-17,0.0046585253439843655,0.8121978044509888,0.00026124485884793103,0.11511419713497162,0.7298824191093445,0.06196184828877449,0.40335553884506226
503.0,820.0,1.6648,2.147,10.2604,-0.073,-0.0487,-0.1119,-1.8511315784850062,-0.15789736807346344,2.8183722496032715,-1.7087880373001099,0.09503763169050217,2.1923606395721436,4.9340780703122995,3.6873433373330045e-07,0.2544243633747101,-1.638484303151266,1.9628445878951354e-22,0.0053176176734268665,0.8122258186340332,7.480552449123934e-05,0.11163218319416046,0.7303823232650757,0.06410335004329681,0.3700169324874878
503.0,820.0,1.6648,2.147,10.2604,-0.073,-0.0487,-0.1119,-1.8524190388121546,-0.17937512695789337,2.819396495819092,-1.7080427408218384,0.09393737465143204,2.1585030555725098,4.934098470001974,6.7015633493927584e-12,0.27091163396835327,-1.638439957295553,3.567372687783267e-27,0.009846257045865059,0.8121618032455444,6.413893424905837e-05,0.0937395766377449,0.7308418154716492,0.05804397538304329,0.3521347939968109
503.0,820.0,1.6648,2.147,10.2604,-0.073,-0.0487,-0.1119,-1.8538180790343226,-0.1773042529821396,2.8152294158935547,-1.7072200775146484,0.09745979309082031,2.1782264709472656,4.934162381082334,0.0001832195557653904,0.25431180000305176,-1.6384437719928187,6.48352313980641e-32,0.008128584362566471,0.8122338056564331,5.6136723287636414e-05,0.09216155856847763,0.73129802942276,0.046178266406059265,0.38120603561401367
503.0,820.0,1.6648,2.147,10.2604,-0.073,-0.0487,-0.1119,-1.855105539361471,-0.15521365404129028,2.8681578636169434,-1.706432580947876,0.1147879958152771,2.1873698234558105,4.934162381082334,0.0004377292934805155,0.2766954004764557,-1.638451878224508,1.1783481568020174e-36,0.01378918718546629,0.8122140169143677,4.991000241716392e-05,0.08093668520450592,0.7316257953643799,0.037263039499521255,0.33270537853240967
503.0,820.0,1.6648,2.147,10.2604,-0.073,-0.0487,-0.1119,-1.8563767872252406,-0.1488567292690277,2.8410589694976807,-1.705504298210144,0.12753920257091522,2.188905715942383,4.93414272645072,0.0002534101076889783,0.2676582634449005,-1.6384761969195765,2.141604443027618e-41,0.006619809195399284,0.812221884727478,4.492677908274345e-05,0.07029992341995239,0.7319455742835999,0.03433774784207344,0.31826168298721313
503.0,820.0,1.6648,2.147,10.2604,-0.073,-0.0487,-0.1119,-1.8577281437315882,-0.16814443469047546,2.827141046524048,-1.7044475078582764,0.13708928227424622,2.1970348358154297,4.934122311859884,0.00014507252490147948,0.2705000638961792,-1.6384556929217737,0.0,0.006643756292760372,0.812205970287323,2.042460437223781e-05,0.08558997511863708,0.732265830039978,0.03707341477274895,0.3460175395011902
503.0,820.0,1.6648,2.147,10.2604,-0.073,-0.0487,-0.1119,-1.8590547047057093,-0.1803966909646988,2.856807231903076,-1.7033227682113647,0.14422987401485443,2.2449562549591064,4.934146392136373,5.4847558203618973e-05,0.2640894055366516,-1.6384919325457972,0.0,0.010834379121661186,0.8122174739837646,2.793426756397821e-05,0.07455728948116302,0.7325098514556885,0.03755393251776695,0.38862067461013794
503.0,820.0,1.6648,2.147,10.2604,-0.073,-0.0487,-0.1119,-1.8604217968382777,-0.18035699427127838,2.854841947555542,-1.702101469039917,0.1495347023010254,2.1969640254974365,4.934178072005071,8.738872566027567e-05,0.25633352994918823,-1.6384599844561976,0.0,-0.005592827219516039,0.8122416734695435,3.4571577998576686e-05,0.06824439764022827,0.732765793800354,0.030873341485857964,0.37521836161613464
503.0,820.0,1.6648,2.147,10.2604,-0.073,-0.0487,-0.1119,-1.86146940807485,-0.17266570031642914,2.8173704147338867,-1.7011317014694214,0.1555779129266739,2.2100088596343994,4.934154304652967,0.0001436321617802605,0.2655658721923828,-1.6384356657611292,0.0,0.005501196254044771,0.8122417330741882,3.268822911195457e-05,0.0828772485256195,0.732877254486084,0.024986913427710533,0.28069213032722473
503.0,820.0,1.6648,2.147,10.2604,-0.073,-0.0487,-0.1119,-1.862805028954977,-0.16106060147285461,2.8645334243774414,-1.6997990608215332,0.17725278437137604,2.2822744846343994,4.934146392136373,0.00013132132880855352,0.2747446298599243,-1.6384037176715296,0.0,0.0028960276395082474,0.8121698498725891,3.0474524464807473e-05,0.08709336072206497,0.7330853939056396,0.019894665107131004,0.30686771869659424
662.0,813.0,0.9751,0.9464,8.9791,-0.0315,0.106,-0.1507,-1.86413635830068,-0.1603611409664154,2.905733108520508,-1.6983554363250732,0.18734699487686157,2.2346882820129395,4.93411040583209,8.601502486271784e-05,0.2662145793437958,-1.6384275595294397,0.0,-0.0008013211190700531,0.8122417330741882,2.8541633582790382e-05,0.0940675437450409,0.7332533001899719,0.016977902501821518,0.29065877199172974
662.0,813.0,0.9751,0.9464,8.9791,-0.0315,0.106,-0.1507,-1.8653713665404261,-0.16546586155891418,2.8731446266174316,-1.6968954801559448,0.18872182071208954,2.22898268699646,4.934114056616583,7.623999408679083e-05,0.2695661187171936,-1.6384804884540003,0.0,0.0009611700661480427,0.8121419548988342,2.6839317797566764e-05,0.08664272725582123,0.7333971858024597,0.014345627278089523,0.32422706484794617
662.0,813.0,0.9751,0.9464,8.9791,-0.0315,0.106,-0.1507,-1.8666664562621058,-0.17962732911109924,2.8970632553100586,-1.6954076290130615,0.1961575448513031,2.27823543548584,4.934142309218206,6.850225327070802e-05,0.27043384313583374,-1.6384156386004847,0.0,-0.0002905760193243623,0.8122377991676331,2.5328639821964316e-05,0.06966660916805267,0.7334412336349487,0.009129458107054234,0.2992847263813019
662.0,813.0,0.9751,0.9464,8.9791,-0.0315,0.106,-0.1507,-1.868021627465719,-0.16990795731544495,2.8867552280426025,-1.69370698928833,0.21338661015033722,2.2977194786071777,4.934178072005071,8.28281044960022e-05,0.2818450629711151,-1.6384237448321741,0.0,-0.004149524495005608,0.8122339248657227,1.1991251085419208e-05,0.06693679094314575,0.733481764793396,0.0015166174853220582,0.28618571162223816
662.0,813.0,0.9751,0.9464,8.9791,-0.0315,0.106,-0.1507,-1.869340559045309,-0.14868564903736115,2.973963737487793,-1.6919602155685425,0.22644628584384918,2.301193952560425,4.934122326761045,5.0711390940705314e-05,0.2716766893863678,-1.6384156386004847,0.0,0.012063940986990929,0.812102198600769,1.1382929187675472e-05,0.0748552531003952,0.7334412336349487,-0.0014427639544010162,0.30802345275878906
662.0,813.0,0.9751,0.9464,8.9791,-0.0315,0.106,-0.1507,-1.8706361256041468,-0.15118810534477234,2.9432525634765625,-1.6901030540466309,0.23117607831954956,2.312438726425171,4.934134173184194,4.249459016136825e-05,0.2805255353450775,-1.638456169758932,0.0,0.01977582275867462,0.812190055847168,1.0834794011316262e-05,0.08037546277046204,0.7335015535354614,0.0009259510552510619,0.2698828876018524
662.0,813.0,0.9751,0.9464,8.9791,-0.0315,0.106,-0.1507,-1.8718868694701136,-0.17021110653877258,2.9539432525634766,-1.6881942749023438,0.2368878722190857,2.3444020748138428,4.934142309218206,1.0036492312792689e-05,0.27588537335395813,-1.638451878224508,2.7096443773189094e-06,0.0142454719170928,0.8122220039367676,1.0337022104067728e-05,0.0795559212565422,0.7334528565406799,0.0012699563521891832,0.26251187920570374
662.0,813.0,0.9751,0.9464,8.9791,-0.0315,0.106,-0.1507,-1.8732983074583949,-0.17919640243053436,2.8959786891937256,-1.686254858970642,0.24054309725761414,2.368690013885498,4.934166464000501,1.8240829680049586e-10,0.28697478771209717,-1.6384437719928187,4.924645413684203e-11,0.005704413168132305,0.812122106552124,2.5392876068508485e-06,0.07077959924936295,0.7334330081939697,0.0002950235502794385,0.25219523906707764
662.0,813.0,0.9751,0.9464,8.9791,-0.0315,0.106,-0.1507,-1.874624868432516,-0.16094134747982025,3.0268073081970215,-1.6842223405838013,0.251077264547348,2.3169431686401367,4.934226068645277,3.315180652918451e-15,0.2755999267101288,-1.6384003798114222,8.950298574522285e-16,0.022271595895290375,0.812205970287323,4.615030579913082e-11,0.07546211779117584,0.7334775328636169,2.7585714633460157e-05,0.21597228944301605
662.0,813.0,0.9751,0.9464,8.9791,-0.0315,0.106,-0.1507,-1.8756042919554652,-0.14809080958366394,3.040795087814331,-1.6826305389404297,0.26504138112068176,2.3730368614196777,4.934178101807394,0.001149799209088087,0.2897731363773346,-1.6383755842791956,2.491348580808782e-19,0.03206430748105049,0.8122258186340332,1.2846108454322297e-14,0.07864071428775787,0.7334693074226379,6.66162472406917e-11,0.26458096504211426
662.0,813.0,0.9751,0.9464,8.9791,-0.0315,0.106,-0.1507,-1.876916070977682,-0.15674151480197906,2.9866366386413574,-1.6805833578109741,0.26492926478385925,2.3632774353027344,4.934146392136373,6.019097327225609e-07,0.2961978316307068,-1.6384199301349085,4.527903034926658e-24,0.029531680047512054,0.8122338652610779,2.3347165034490963e-19,0.07904548197984695,0.7334408164024353,2.158281515429738e-18,0.24167600274085999
662.0,813.0,0.9751,0.9464,8.9791,-0.0315,0.106,-0.1507,-1.8782912693419398,-0.1790950447320938,2.989865303039551,-1.678350567817688,0.2680313289165497,2.3856453895568848,4.934146392136373,1.0939412570243334e-11,0.29530447721481323,-1.638456169758932,8.229239253677274e-29,0.04075491428375244,0.812201976776123,4.243232322085888e-24,0.09037551283836365,0.7334811687469482,6.992557357409126e-26,0.22647178173065186
480.0,662.0,0.8985,0.2841,10.3519,-0.017,0.1753,-0.1231,-1.879690786401266,-0.17598330974578857,3.028809070587158,-1.6761791706085205,0.2817328870296478,2.4136228561401367,4.9341899929340265,1.9881839241105696e-16,0.28717565536499023,-1.6384719053851526,1.4956237987149252e-33,0.034223802387714386,0.8121939301490784,7.711864655654379e-29,0.0915730819106102,0.7334610819816589,2.2654997729550703e-33,0.17442259192466736
480.0,662.0,0.8985,0.2841,10.3519,-0.017,0.1753,-0.1231,-1.8810092411436976,-0.16026431322097778,3.016206741333008,-1.6738693714141846,0.2918555438518524,2.371575117111206,4.934138330608167,0.00010737714183051139,0.28098949790000916,-1.6383960882769983,2.718222506035094e-38,0.025443067774176598,0.8122137784957886,1.401593434198758e-33,0.08509907871484756,0.7334610819816589,7.339861226286959e-41,0.1938823163509369
480.0,662.0,0.8985,0.2841,10.3519,-0.017,0.1753,-0.1231,-1.8823605976500453,-0.1586432158946991,2.9975571632385254,-1.671546459197998,0.29719164967536926,2.410851001739502,4.934169995575704,5.390595106291585e-05,0.2721797227859497,-1.638383690510885,4.946583579066604e-43,0.0425630584359169,0.8121498823165894,2.547327151818361e-38,0.09094826877117157,0.7334891557693481,0.0,0.21870535612106323
480.0,662.0,0.8985,0.2841,10.3519,-0.017,0.1753,-0.1231,-1.8836919269957484,-0.17586085200309753,2.9911508560180664,-1.6692019701004028,0.2984588146209717,2.4224894046783447,4.934146392136373,1.5272914879460586e-06,0.2838269770145416,-1.638439957295553,0.0,0.026926638558506966,0.8122298121452332,4.624284932271896e-43,0.1000051498413086,0.7335056066513062,4.096223347005434e-05,0.24358242750167847
480.0,662.0,0.8985,0.2841,10.3519,-0.017,0.1753,-0.1231,-1.8850909672179164,-0.18064762651920319,3.001072883605957,-1.6667697429656982,0.30727526545524597,2.4324352741241455,4.934134158283033,2.77577717755495e-11,0.27722764015197754,-1.6383798758136194,0.0001223743602167815,0.03649348020553589,0.8122695684432983,0.0,0.11108211427927017,0.7334569692611694,3.465462941676378e-05,0.15540781617164612
480.0,662.0,0.8985,0.2841,10.3519,-0.017,0.1753,-0.1231,-1.886442323724264,-0.17143066227436066,2.997197151184082,-1.664244532585144,0.305850625038147,2.3938324451446533,4.934142309218206,5.044837177804783e-16,0.28753039240837097,-1.6383917967425745,0.00013259000843390822,0.038450270891189575,0.8122058510780334,0.0,0.10016492009162903,0.7334973812103271,3.2674678934752066e-12,0.1371309459209442
480.0,662.0,0.8985,0.2841,10.3519,-0.017,0.1753,-0.1231,-1.887773176232809,-0.16564981639385223,3.0596084594726562,-1.6618292331695557,0.32415592670440674,2.408801555633545,4.934169980674543,9.16874455935052e-21,0.28085222840309143,-1.6384480635272425,0.00016031930863391608,0.028678717091679573,0.812205970287323,3.4029480957542546e-06,0.10341151058673859,0.733473002910614,1.0586180577506075e-19,0.16343896090984344
480.0,662.0,0.8985,0.2841,10.3519,-0.017,0.1753,-0.1231,-1.8891850910582484,-0.1705712378025055,3.018825054168701,-1.659240961074829,0.31648319959640503,2.4183058738708496,4.934130462795057,1.6663741222302774e-25,0.2818181812763214,-1.6383879820453089,0.00014778488548472524,0.04613184928894043,0.8122894167900085,6.184689566035573e-11,0.11022607982158661,0.7334851026535034,3.42978848960212e-27,0.1859617829322815
480.0,662.0,0.8985,0.2841,10.3519,-0.017,0.1753,-0.1231,-1.8905073604979457,-0.17607660591602325,3.039851188659668,-1.6566818952560425,0.3174780309200287,2.4062068462371826,4.934134486108579,3.0285524851760597e-30,0.2846960425376892,-1.6383960882769983,0.0002487066958565265,0.03811298683285713,0.8122258186340332,0.0006050752126611769,0.08783449232578278,0.7335090041160583,0.0022289492189884186,0.21028628945350647
480.0,662.0,0.8985,0.2841,10.3519,-0.017,0.1753,-0.1231,-1.8915587864317835,-0.18235786259174347,3.0398478507995605,-1.654721975326538,0.31959331035614014,2.446629762649536,4.93415047505454,8.430087124280805e-34,0.27764636278152466,-1.6383879820453089,0.00021334152552299201,0.023664303123950958,0.8122456669807434,0.0009179319022223353,0.1050821989774704,0.7335615158081055,0.0035792358685284853,0.2236577421426773
480.0,662.0,0.8985,0.2841,10.3519,-0.017,0.1753,-0.1231,-1.892977853814596,-0.1825934648513794,3.0716981887817383,-1.6521399021148682,0.31756097078323364,2.429574489593506,4.9341787723596475,1.5321267718108035e-38,0.2733688950538635,-1.6383517424212855,0.00017932639457285404,0.03571856766939163,0.812265157699585,0.001483618631027639,0.10806730389595032,0.7335532307624817,0.002318237442523241,0.2308030128479004
480.0,662.0,0.8985,0.2841,10.3519,-0.017,0.1753,-0.1231,-1.8943926296629847,-0.17771394550800323,3.0134849548339844,-1.649556279182434,0.320515900850296,2.4144446849823,4.934146392136373,2.788583944006386e-43,0.2907029390335083,-1.6383956114398401,0.0001546680723549798,0.0427585169672966,0.8123501539230347,0.0019518759800121188,0.10469068586826324,0.7336052656173706,0.0012116156285628676,0.26097580790519714
324.0,421.0,0.4253,0.5737,9.8638,-0.02,0.1602,-0.1245,-1.8958126507201136,-0.1687195599079132,3.101655960083008,-1.6469639539718628,0.31926754117012024,2.448496103286743,4.9341546324785135,0.0,0.2837672233581543,-1.6383879820453089,0.00013597225188277662,0.02612767182290554,0.8123531341552734,0.0018231762805953622,0.11454667150974274,0.7336294054985046,0.001585735590197146,0.1912018358707428
324.0,421.0,0.4253,0.5737,9.8638,-0.02,0.1602,-0.1245,-1.897163530389303,-0.17278192937374115,3.0918660163879395,-1.644469141960144,0.32040128111839294,2.422264337539673,4.934110390930929,0.0,0.29341232776641846,-1.6384523550616663,0.000121308934467379,0.03717350959777832,0.8123257160186768,0.001906617428176105,0.10847042500972748,0.7336090803146362,0.004075894597917795,0.22508496046066284
324.0,421.0,0.4253,0.5737,9.8638,-0.02,0.1602,-0.1245,-1.8985945187010707,-0.18207933008670807,3.0794105529785156,-1.6419625282287598,0.3199920356273651,2.4521708488464355,4.934122311859884,-0.00013708714686799794,0.2911965250968933,-1.6384037176715296,0.00010950081195915118,0.023362165316939354,0.8123335838317871,0.0018611600389704108,0.12106983363628387,0.7336247563362122,0.0037617895286530256,0.2869338393211365
324.0,421.0,0.4253,0.5737,9.8638,-0.02,0.1602,-0.1245,-1.9000216923155726,-0.17841550707817078,3.0796146392822266,-1.6393139362335205,0.31758296489715576,2.5014824867248535,4.934106367617407,-0.0001333371619693935,0.2827809453010559,-1.638428036366598,9.978759771911427e-05,0.03741147369146347,0.8123170733451843,0.002038734033703804,0.12453751266002655,0.7336046695709229,0.002369037363678217,0.2810564935207367
324.0,421.0,0.4253,0.5737,9.8638,-0.02,0.1602,-0.1245,-1.9014283619322718,-0.17769962549209595,3.118048906326294,-1.6367541551589966,0.32128795981407166,2.4541475772857666,4.9340939847524545,-9.537340520182624e-05,0.2774297893047333,-1.6384361425982874,9.165741357719526e-05,0.016647499054670334,0.8123491406440735,0.002332487376406789,0.11934730410575867,0.7336732745170593,0.0012259774375706911,0.2550709545612335
324.0,421.0,0.4253,0.5737,9.8638,-0.02,0.1602,-0.1245,-1.9029275379576625,-0.18833261728286743,3.090860366821289,-1.6343226432800293,0.3159586787223816,2.4567441940307617,4.934109928994932,-7.173198537202552e-05,0.2907620668411255,-1.6384037176715296,8.475215872749686e-05,0.02414378523826599,0.8123571872711182,0.0028559057973325253,0.11742138862609863,0.7336851358413696,0.0009254697943106294,0.22760698199272156
324.0,421.0,0.4253,0.5737,9.8638,-0.02,0.1602,-0.1245,-1.9044906101622523,-0.19885076582431793,3.098862886428833,-1.63174307346344,0.3223600387573242,2.4274115562438965,4.934130388289251,-3.591300412608689e-08,0.28850457072257996,-1.6384318510638636,7.881457713665441e-05,0.021886266767978668,0.8123642206192017,0.0037371041253209114,0.1145821213722229,0.7336769104003906,0.0011141089489683509,0.3138003945350647
324.0,421.0,0.4253,0.5737,9.8638,-0.02,0.1602,-0.1245,-1.9061624012389125,-0.18704979121685028,3.1004762649536133,-1.6291671991348267,0.3303157687187195,2.455597162246704,4.934146392136373,-6.527009835388675e-13,0.2868902087211609,-1.638399902974264,7.365448254859075e-05,0.03421945124864578,0.8125252723693848,0.005713380873203278,0.13414108753204346,0.7336327433586121,0.0008351969299837947,0.2920350432395935
324.0,421.0,0.4253,0.5737,9.8638,-0.02,0.1602,-0.1245,-1.9072486362852992,-0.18689262866973877,3.120255470275879,-1.6271274089813232,0.3237079679965973,2.4280436038970947,4.934130388289251,-1.8168172474802038e-16,0.30202123522758484,-1.638383690510885,5.61969936825335e-05,0.02627762034535408,0.8124889135360718,0.008002224378287792,0.13842321932315826,0.7337091565132141,0.0007488231640309095,0.30430933833122253
324.0,421.0,0.4253,0.5737,9.8638,-0.02,0.1602,-0.1245,-1.9088474712767542,-0.2084994614124298,3.101290225982666,-1.6245248317718506,0.32438066601753235,2.488072395324707,4.934122311859884,-3.301975758340975e-21,0.2793518602848053,-1.6384237448321741,5.2866416808683425e-05,0.022445982322096825,0.8126204013824463,0.01011770311743021,0.1346665620803833,0.7337009310722351,0.0016433276468887925,0.3375389873981476
324.0,421.0,0.4253,0.5737,9.8638,-0.02,0.1602,-0.1245,-1.9106065235533656,-0.21521401405334473,3.118947744369507,-1.621921181678772,0.3172495663166046,2.4228785037994385,4.9341627834136865,-6.001177985187996e-26,0.2878742814064026,-1.638439957295553,4.993340917280875e-05,0.03432449325919151,0.8126880526542664,0.010474294424057007,0.14873060584068298,0.7337211966514587,0.0025017191655933857,0.3382419943809509
262.0,307.0,0.7418,0.4355,9.9093,-0.0318,0.1344,-0.1329,-1.912241121331686,-0.2001970112323761,3.2061591148376465,-1.6193053722381592,0.3256635367870331,2.4367151260375977,4.934173989086904,-1.0906841261223246e-30,0.29774972796440125,-1.6384156386004847,4.730856016976759e-05,0.02761998027563095,0.8127639293670654,0.008905572816729546,0.14331401884555817,0.7337050437927246,0.00168081175070256,0.30410414934158325
262.0,307.0,0.7418,0.4355,9.9093,-0.0318,0.1344,-0.1329,-1.9138637981810511,-0.193674698472023,3.153719425201416,-1.616729736328125,0.3211142420768738,2.4395060539245605,4.9341464070375345,0.00014102084969636053,0.29563194513320923,-1.6383917967425745,4.4946042180527e-05,0.027318034321069717,0.8127598762512207,0.005027636419981718,0.1517995297908783,0.7336968183517456,0.0010085443500429392,0.3298327326774597
262.0,307.0,0.7418,0.4355,9.9093,-0.0318,0.1344,-0.1329,-1.9154545269408167,-0.2050575613975525,3.1438465118408203,-1.6141576766967773,0.31677594780921936,2.4672622680664062,4.934170606523313,8.576129766879603e-05,0.28648266196250916,-1.6384156386004847,4.2808209400391206e-05,0.023321835324168205,0.8127996921539307,0.001777112833224237,0.15235872566699982,0.733761191368103,0.0025424181949347258,0.3123023509979248
262.0,307.0,0.7418,0.4355,9.9093,-0.0318,0.1344,-0.1329,-1.9171420536436976,-0.20619472861289978,3.201631546020508,-1.6117606163024902,0.31432387232780457,2.461515426635742,4.934170636325636,6.207742262631655e-05,0.2875892221927643,-1.6384123007403772,4.086450644535944e-05,0.012602057307958603,0.8127757906913757,0.0009530122624710202,0.15028159320354462,0.7337369322776794,0.0019538390915840864,0.371523380279541
262.0,307.0,0.7418,0.4355,9.9093,-0.0318,0.1344,-0.1329,-1.9187246761717738,-0.20013810694217682,3.200968027114868,-1.6092792749404907,0.310787171125412,2.431057929992676,4.934106308012762,1.6163919980272112e-08,0.3072492480278015,-1.6384361425982874,6.629674658142903e-07,0.018015669658780098,0.81285560131073,0.0006227280246093869,0.15075528621673584,0.7337287068367004,0.0003713579208124429,0.25234562158584595
262.0,307.0,0.7418,0.4355,9.9093,-0.0318,0.1344,-0.1329,-1.9203196964659632,-0.19946078956127167,3.2155492305755615,-1.606799602508545,0.3079860508441925,2.38460373878479,4.934166478901663,2.9377130068841684e-13,0.2976747453212738,-1.6384475866900843,1.2049107371570056e-11,0.03166046738624573,0.8127877712249756,0.0003169853880535811,0.14637291431427002,0.7337653636932373,0.00020300180767662823,0.29236456751823425
262.0,307.0,0.7418,0.4355,9.9093,-0.0318,0.1344,-0.1329,-1.9218908749022425,-0.19294796884059906,3.255169630050659,-1.604363203048706,0.3123345673084259,2.4557008743286133,4.934134456306257,5.339148105925599e-18,0.3043058216571808,-1.6383798758136194,2.1898660422720647e-16,0.0281102042645216,0.8128036856651306,0.0002959732373710722,0.13517995178699493,0.7337327599525452,0.00013987452257424593,0.3056879937648773
262.0,307.0,0.7418,0.4355,9.9093,-0.0318,0.1344,-0.1329,-1.923469682733053,-0.19409671425819397,3.2613749504089355,-1.6019455194473267,0.30700621008872986,2.4044623374938965,4.934130403190412,9.703637893426899e-23,0.2962643504142761,-1.6384199301349085,3.9799734588471406e-21,0.02559942752122879,0.8128278255462646,0.0004318779974710196,0.14085595309734344,0.7337973117828369,0.00015996066213119775,0.30688780546188354
262.0,307.0,0.7418,0.4355,9.9093,-0.0318,0.1344,-0.1329,-1.9245521030821742,-0.1945512741804123,3.244661569595337,-1.6001216173171997,0.3124975264072418,2.4189441204071045,4.934098082571783,2.701043407590816e-26,0.30820125341415405,-1.638428036366598,1.1078402635135883e-24,0.029370220378041267,0.8128036260604858,0.000480816001072526,0.15172019600868225,0.7337446808815002,0.00016189669258892536,0.24674296379089355
262.0,307.0,0.7418,0.4355,9.9093,-0.0318,0.1344,-0.1329,-1.9261242351927699,-0.19374337792396545,3.274360179901123,-1.597682237625122,0.30265212059020996,2.419482469558716,4.9341386435325525,4.909012991519817e-31,0.3029620349407196,-1.638439957295553,2.0134449533765764e-29,0.02392134815454483,0.8129072785377502,0.0007953568710945547,0.14747557044029236,0.7338212728500366,0.001125640468671918,0.24032792448997498
262.0,307.0,0.7418,0.4355,9.9093,-0.0318,0.1344,-0.1329,-1.9276348553099574,-0.19310273230075836,3.2629036903381348,-1.5952664613723755,0.2981005609035492,2.414013624191284,4.934086176543989,3.839521741610952e-05,0.3046116828918457,-1.6384156386004847,3.6593368729838205e-34,0.023378703743219376,0.8127709627151489,0.0011335982708260417,0.1443689465522766,0.7338129878044128,0.0017631312366575003,0.2746904790401459
