ramyac6/ROB537/final_project/csv/good/good_96.csv
tof_0,tof_1,accelx,accely,accelz,gyrox,gyroy,gyroz,shoulder_lift_joint_position,shoulder_lift_joint_velocity,shoulder_lift_joint_effort,elbow_joint_position,elbow_joint_velocity,elbow_joint_effort,wrist_1_joint_position,wrist_1_joint_velocity,wrist_1_joint_effort,wrist_2_joint_position,wrist_2_joint_velocity,wrist_2_joint_effort,wrist_3_joint_position,wrist_3_joint_velocity,wrist_3_joint_effort,shoulder_pan_joint_position,shoulder_pan_joint_velocity,shoulder_pan_joint_effort
130.0,178.0,0.5665,0.7286,9.5707,-0.0342,0.0162,-0.1199,-2.1435896358885707,0.0,4.518581390380859,-1.2184325456619263,-0.0,2.144784450531006,4.772463786392965,0.0,0.28672799468040466,-1.6382601896869105,-0.0,0.0018732970347627997,0.6321728229522705,-0.0,0.002457781694829464,1.314484715461731,0.0,0.02906348928809166
130.0,178.0,0.5665,0.7286,9.5707,-0.0342,0.0162,-0.1199,-2.1436411343016566,0.0,4.494452476501465,-1.2184202671051025,-0.0,2.195483922958374,4.772431782424011,0.0,0.29010194540023804,-1.6382806936847132,-0.0,-0.010989231057465076,0.6321808695793152,-0.0,0.0023454974871128798,1.314476490020752,0.0,0.004851892590522766
130.0,178.0,0.5665,0.7286,9.5707,-0.0342,0.0162,-0.1199,-2.143552919427389,0.0,4.499205112457275,-1.218428134918213,-0.0,2.1251718997955322,4.772472023009815,0.0,0.2725250720977783,-1.638280216847555,-0.0,-0.0028908492531627417,0.6321849822998047,-0.0,0.0003249866422265768,1.314468264579773,0.0,-0.004443287383764982
130.0,178.0,0.5665,0.7286,9.5707,-0.0342,0.0162,-0.1199,-2.1435934505858363,0.0,4.49502420425415,-1.2184358835220337,-0.0,2.145552635192871,4.772443781584062,0.0,0.28569671511650085,-1.6382682959186,-0.0,-0.009748604148626328,0.6321530938148499,-0.0,0.004476255737245083,1.3144482374191284,0.0,-0.0062942951917648315
130.0,178.0,0.5665,0.7286,9.5707,-0.0342,0.0162,-0.1199,-2.143609186212057,0.0,4.494289398193359,-1.2184362411499023,-0.0,2.1078264713287354,4.772467943816938,0.0,0.28561466932296753,-1.6382601896869105,-0.0,0.001132054254412651,0.6321971416473389,-0.0,-0.004032494500279427,1.3145010471343994,0.0,-0.011793946847319603
130.0,178.0,0.5665,0.7286,9.5707,-0.0342,0.0162,-0.1199,-2.1435653171935023,0.0,4.487181663513184,-1.218412160873413,-0.0,2.1995718479156494,4.7724760984774015,0.0,0.2758985161781311,-1.6382883230792444,-0.0,-0.015680238604545593,0.6322053074836731,-0.0,-0.004623372107744217,1.3144482374191284,0.0,-0.024338914081454277
130.0,178.0,0.5665,0.7286,9.5707,-0.0342,0.0162,-0.1199,-2.1435729465880335,0.0,4.4678239822387695,-1.2183917760849,-0.0,2.128955364227295,4.772451627045431,0.0,0.28873175382614136,-1.6382682959186,-0.0,-0.0034186248667538166,0.6321530938148499,-0.0,-0.0028585814870893955,1.3144322633743286,0.0,0.0191055778414011
130.0,178.0,0.5665,0.7286,9.5707,-0.0342,0.0162,-0.1199,-2.1435772381224574,0.0,4.49769926071167,-1.2184523344039917,-0.0,2.1292805671691895,4.772435630648889,0.0,0.2828553318977356,-1.6382682959186,-0.0,-0.009796850383281708,0.6321728229522705,-0.0,-0.012793128378689289,1.314512848854065,0.0,0.015446427278220654
130.0,166.0,0.5127,0.722,9.5964,-0.0338,0.0182,-0.121,-2.1435653171935023,0.0,4.466782569885254,-1.2184202671051025,-0.0,2.1952476501464844,4.772472023009815,0.0,0.2773376703262329,-1.6383326689349573,-0.0,-0.011596288532018661,0.6321449279785156,-0.0,-0.01942538097500801,1.314484715461731,0.0,0.024475637823343277
130.0,166.0,0.5127,0.722,9.5964,-0.0338,0.0182,-0.121,-2.143613477746481,0.0,4.456707000732422,-1.2183713912963867,-0.0,2.1467695236206055,4.77248394393877,0.0,0.28027233481407166,-1.6382883230792444,-0.0,0.005158275831490755,0.6322172284126282,-0.0,-0.00432487903162837,1.3144805431365967,0.0,0.04019074887037277
130.0,166.0,0.5127,0.722,9.5964,-0.0338,0.0182,-0.121,-2.1436335049071253,0.0,4.487070083618164,-1.2183763980865479,-0.0,2.134169816970825,4.772451627045431,0.0,0.29018712043762207,-1.638264004384176,-0.0,-0.00486671132966876,0.6322013139724731,-0.0,0.001390883233398199,1.3144080638885498,0.0,-0.015662619844079018
130.0,166.0,0.5127,0.722,9.5964,-0.0338,0.0182,-0.121,-2.1436015568175257,0.0,4.501046657562256,-1.218408465385437,-0.0,2.1839473247528076,4.77247570732192,0.0,0.2724629044532776,-1.638308350239889,-0.0,0.009477079845964909,0.6321570873260498,-0.0,0.0007783791515976191,1.314476490020752,0.0,0.024163227528333664
130.0,166.0,0.5127,0.722,9.5964,-0.0338,0.0182,-0.121,-2.143609186212057,0.0,4.512412071228027,-1.218400239944458,-0.0,2.081589698791504,4.772467943816938,0.0,0.2849724292755127,-1.6382320562945765,-0.0,-0.008006054908037186,0.6321571469306946,-0.0,0.0007723693270236254,1.314468264579773,0.0,-0.059254445135593414
130.0,166.0,0.5127,0.722,9.5964,-0.0338,0.0182,-0.121,-2.143557210961813,0.0,4.504518508911133,-1.2184523344039917,-0.0,2.1255693435668945,4.772459696024217,0.0,0.29829588532447815,-1.6382926146136683,-0.0,-0.00028374919202178717,0.6322253346443176,-0.0,-0.005196060054004192,1.3144521713256836,0.0,-0.019104134291410446
130.0,166.0,0.5127,0.722,9.5964,-0.0338,0.0182,-0.121,-2.143625398675436,0.0,4.525050163269043,-1.2183961868286133,-0.0,2.1204895973205566,4.772472023009815,0.0,0.2882002890110016,-1.638320271168844,-0.0,0.0011738650500774384,0.6322211623191833,-0.0,-0.009216923266649246,1.314476490020752,0.0,0.014958805404603481
130.0,166.0,0.5127,0.722,9.5964,-0.0338,0.0182,-0.121,-2.1435896358885707,0.0,4.4974164962768555,-1.2184642553329468,-0.0,2.1064653396606445,4.772451627045431,0.0,0.28689703345298767,-1.638308350239889,-0.0,-0.00937444157898426,0.6321688890457153,-0.0,-0.006323995999991894,1.3144727945327759,0.0,-0.03738320618867874
130.0,166.0,0.5127,0.722,9.5964,-0.0338,0.0182,-0.121,-2.143569131890768,0.0,4.500138282775879,-1.218440055847168,-0.0,2.1653130054473877,4.772419630527057,0.0,0.28378579020500183,-1.6382806936847132,-0.0,-0.009795356541872025,0.6321728229522705,-0.0,-0.0005534226074814796,1.3144400119781494,0.0,-0.00761106563732028
130.0,166.0,0.5127,0.722,9.5964,-0.0338,0.0182,-0.121,-2.1436053715147914,0.0,4.511287689208984,-1.2184042930603027,-0.0,2.106438398361206,4.772455631732502,0.0,0.302567720413208,-1.6382682959186,-0.0,0.005085627548396587,0.6321333050727844,-0.0,0.00037473952397704124,1.3144605159759521,0.0,0.03659789264202118
130.0,166.0,0.5127,0.722,9.5964,-0.0338,0.0182,-0.121,-2.1435729465880335,0.0,4.516820907592773,-1.2184642553329468,-0.0,2.1682779788970947,4.772455702513017,0.0,0.294956237077713,-1.6382764021502894,-0.0,0.0032799988985061646,0.6322012543678284,-0.0,-0.014232655987143517,1.3144687414169312,0.0,0.05697992071509361
130.0,166.0,0.5127,0.722,9.5964,-0.0338,0.0182,-0.121,-2.1435610256590785,0.0,4.476651191711426,-1.2183836698532104,-0.0,2.1609530448913574,4.77247570732192,0.0,0.28306353092193604,-1.638240162526266,-0.0,-0.004927700385451317,0.6321770548820496,-0.0,-0.0037806311156600714,1.3144482374191284,0.0,-0.016790982335805893
130.0,166.0,0.5127,0.722,9.5964,-0.0338,0.0182,-0.121,-2.1436053715147914,0.0,4.463779449462891,-1.218360424041748,-0.0,2.14528226852417,4.772459710925379,0.0,0.2813360095024109,-1.638280216847555,-0.0,-0.009511555545032024,0.632220983505249,-0.0,-0.014735853299498558,1.3144317865371704,0.0,0.0031253346242010593
130.0,166.0,0.5127,0.722,9.5964,-0.0338,0.0182,-0.121,-2.143621107141012,0.0,4.504858016967773,-1.2183796167373657,-0.0,2.137502431869507,4.7724760984774015,0.0,0.2848397493362427,-1.6383040587054651,-0.0,0.002954566851258278,0.6322487592697144,-0.0,-0.006224094424396753,1.314476490020752,0.0,0.03809765726327896
130.0,166.0,0.5127,0.722,9.5964,-0.0338,0.0182,-0.121,-2.143585344354147,0.0,4.502974987030029,-1.218412160873413,-0.0,2.1553103923797607,4.7724392777080915,0.0,0.28008341789245605,-1.6382883230792444,-0.0,-0.005794606637209654,0.632209300994873,-0.0,-0.0034980089403688908,1.3144400119781494,0.0,-0.03409077227115631
128.0,170.0,0.5593,0.731,9.4546,-0.0377,0.0276,-0.1161,-2.143552919427389,0.0,4.496947288513184,-1.2184244394302368,-0.0,2.1432762145996094,4.772451627045431,0.0,0.2840266227722168,-1.6383288542376917,-0.0,-0.002975529059767723,0.6321649551391602,-0.0,-0.012279843911528587,1.3144687414169312,0.0,-0.010234246961772442
128.0,170.0,0.5593,0.731,9.4546,-0.0377,0.0276,-0.1161,-2.143613477746481,0.0,4.463645935058594,-1.2184081077575684,-0.0,2.163161039352417,4.772455631732502,0.0,0.2905102074146271,-1.638252083455221,-0.0,-0.0009748292504809797,0.6321768760681152,-0.0,-0.0029579822439700365,1.3144887685775757,0.0,0.04851580411195755
128.0,170.0,0.5593,0.731,9.4546,-0.0377,0.0276,-0.1161,-2.1435896358885707,0.0,4.50927209854126,-1.2184244394302368,-0.0,2.109362840652466,4.772495782911339,0.0,0.282087504863739,-1.638320271168844,-0.0,0.011834886856377125,0.6321690678596497,-0.0,0.0060262903571128845,1.314436435699463,0.0,0.031737398356199265
128.0,170.0,0.5593,0.731,9.4546,-0.0377,0.0276,-0.1161,-2.1435772381224574,0.0,4.465145111083984,-1.2184479236602783,-0.0,2.1286425590515137,4.772504015802898,0.0,0.2793423533439636,-1.6382887999164026,-0.0,0.002906023059040308,0.6322331428527832,-0.0,-0.014323273673653603,1.3144605159759521,0.0,0.024299796670675278
128.0,170.0,0.5593,0.731,9.4546,-0.0377,0.0276,-0.1161,-2.1436053715147914,0.0,4.441656589508057,-1.218412160873413,-0.0,2.171156883239746,4.772427394032039,0.0,0.2812694013118744,-1.6383126417743128,-0.0,-0.002905372530221939,0.6321849822998047,-0.0,-0.002737852279096842,1.314476490020752,0.0,0.003529826644808054
128.0,170.0,0.5593,0.731,9.4546,-0.0377,0.0276,-0.1161,-2.143609186212057,0.0,4.488182067871094,-1.2184202671051025,-0.0,2.093179702758789,4.772463786392965,0.0,0.2919676899909973,-1.6382883230792444,-0.0,-0.012613368220627308,0.632121205329895,-0.0,-0.0019380198791623116,1.3144687414169312,0.0,0.009644614532589912
128.0,170.0,0.5593,0.731,9.4546,-0.0377,0.0276,-0.1161,-2.1435772381224574,0.0,4.47810697555542,-1.2184523344039917,-0.0,2.196319580078125,4.772459696024217,0.0,0.2808690667152405,-1.6383121649371546,-0.0,0.0007899580523371696,0.6321690678596497,-0.0,-0.006223706994205713,1.3144359588623047,0.0,0.007758202962577343
128.0,170.0,0.5593,0.731,9.4546,-0.0377,0.0276,-0.1161,-2.1435729465880335,0.0,4.543686866760254,-1.218392014503479,-0.0,2.112605571746826,4.772495782911339,0.0,0.2906257212162018,-1.6382721106158655,-0.0,-0.00183413689956069,0.6321093440055847,-0.0,0.005115519277751446,1.3144605159759521,0.0,0.009187855757772923
128.0,170.0,0.5593,0.731,9.4546,-0.0377,0.0276,-0.1161,-2.143625398675436,0.0,4.504037380218506,-1.218375563621521,-0.0,2.1300668716430664,4.772459781705894,0.0,0.2916986346244812,-1.6382444540606897,-0.0,-0.014221139252185822,0.6322331428527832,-0.0,0.008222605101764202,1.3144804239273071,0.0,0.025189289823174477
128.0,170.0,0.5593,0.731,9.4546,-0.0377,0.0276,-0.1161,-2.143621107141012,0.0,4.515800476074219,-1.2184042930603027,-0.0,2.1530539989471436,4.772427394032039,0.0,0.28486937284469604,-1.6382721106158655,-0.0,-0.0005073914653621614,0.6322011947631836,-0.0,0.013031244277954102,1.3144524097442627,0.0,-0.0132346386089921
128.0,170.0,0.5593,0.731,9.4546,-0.0377,0.0276,-0.1161,-2.143581052819723,0.0,4.502501010894775,-1.2184162139892578,-0.0,2.1317663192749023,4.772455702513017,0.0,0.29042375087738037,-1.6382964293109339,-0.0,-0.0072824060916900635,0.6321730613708496,-0.0,0.004676396027207375,1.3144322633743286,0.0,-0.01665451005101204
128.0,170.0,0.5593,0.731,9.4546,-0.0377,0.0276,-0.1161,-2.143637319604391,0.0,4.432313919067383,-1.2184162139892578,-0.0,2.1490676403045654,4.77247570732192,0.0,0.29246556758880615,-1.6382721106158655,-0.0,-0.007091903127729893,0.6322289705276489,-0.0,0.0016076636966317892,1.3144524097442627,0.0,-0.03016391023993492
128.0,170.0,0.5593,0.731,9.4546,-0.0377,0.0276,-0.1161,-2.143625398675436,0.0,4.463733673095703,-1.2184042930603027,-0.0,2.180887222290039,4.77248394393877,0.0,0.2938246428966522,-1.6383002440081995,-0.0,-0.014920580200850964,0.6321809887886047,-0.0,0.0043520438484847546,1.3144968748092651,0.0,0.011878926306962967
128.0,170.0,0.5593,0.731,9.4546,-0.0377,0.0276,-0.1161,-2.143609186212057,0.0,4.460510730743408,-1.2184199094772339,-0.0,2.1120901107788086,4.772499999939956,0.0,0.28126826882362366,-1.6382601896869105,-0.0,-0.012664493173360825,0.6321690678596497,-0.0,0.002328464761376381,1.3144723176956177,0.0,0.024524804204702377
130.0,174.0,0.7041,0.8124,9.1591,-0.0423,0.0275,-0.1289,-2.143585344354147,0.0,4.4924821853637695,-1.218440055847168,-0.0,2.140782356262207,4.772447469621458,0.0,0.28901833295822144,-1.6383402983294886,-0.0,-0.002050278475508094,0.6321929693222046,-0.0,0.001603087643161416,1.3144886493682861,0.0,0.020225346088409424
130.0,174.0,0.7041,0.8124,9.1591,-0.0423,0.0275,-0.1289,-2.143613477746481,0.0,4.507632255554199,-1.2184042930603027,-0.0,2.102857828140259,4.772499940335312,0.0,0.2847996950149536,-1.6382682959186,-0.0,-0.009482132270932198,0.632133424282074,-0.0,0.011041342280805111,1.3144723176956177,0.0,0.02464897371828556
130.0,174.0,0.7041,0.8124,9.1591,-0.0423,0.0275,-0.1289,-2.143613477746481,0.0,4.4907307624816895,-1.218400239944458,-0.0,2.1433515548706055,4.772524020611801,0.0,0.2926642894744873,-1.6383002440081995,-0.0,-0.01666616089642048,0.6322171688079834,-0.0,-0.001813750364817679,1.3144322633743286,0.0,-0.019011639058589935
130.0,174.0,0.7041,0.8124,9.1591,-0.0423,0.0275,-0.1289,-2.143613477746481,0.0,4.464785099029541,-1.2184362411499023,-0.0,2.215259552001953,4.772459710925379,0.0,0.2759416699409485,-1.6382806936847132,-0.0,-0.014701316133141518,0.6322130560874939,-0.0,-0.0022628451697528362,1.3144968748092651,0.0,-0.016527067869901657
130.0,174.0,0.7041,0.8124,9.1591,-0.0423,0.0275,-0.1289,-2.143625398675436,0.0,4.506255149841309,-1.2184240818023682,-0.0,2.1134986877441406,4.772443390428581,0.0,0.29538294672966003,-1.6383164564715784,-0.0,-0.0010926601244136691,0.6322330832481384,-0.0,-0.012093701399862766,1.3144481182098389,0.0,-0.03360700234770775
130.0,174.0,0.7041,0.8124,9.1591,-0.0423,0.0275,-0.1289,-2.1435653171935023,0.0,4.49147367477417,-1.2183879613876343,-0.0,2.117647171020508,4.77248394393877,0.0,0.27980905771255493,-1.6382964293109339,-0.0,-0.002345399232581258,0.6321808695793152,-0.0,0.004605405498296022,1.314476490020752,0.0,-0.043365463614463806
130.0,174.0,0.7041,0.8124,9.1591,-0.0423,0.0275,-0.1289,-2.143597265283102,0.0,4.500607967376709,-1.218392014503479,-0.0,2.1587188243865967,4.772459710925379,0.0,0.2850602865219116,-1.6382840315448206,-0.0,-0.008932121098041534,0.6321212649345398,-0.0,0.002334155607968569,1.3144805431365967,0.0,-0.0006285080453380942
130.0,174.0,0.7041,0.8124,9.1591,-0.0423,0.0275,-0.1289,-2.143609186212057,0.0,4.478972911834717,-1.2184441089630127,-0.0,2.1358890533447266,4.772471631854334,0.0,0.2922654151916504,-1.6383045355426233,-0.0,-0.007574228569865227,0.6321649551391602,-0.0,-0.011216824874281883,1.3144968748092651,0.0,0.0033230772241950035
130.0,174.0,0.7041,0.8124,9.1591,-0.0423,0.0275,-0.1289,-2.143585344354147,0.0,4.534292697906494,-1.2184563875198364,-0.0,2.1285667419433594,4.772431469499626,0.0,0.28687262535095215,-1.6382926146136683,-0.0,0.006511082872748375,0.6322171688079834,-0.0,-0.0026154471561312675,1.3144524097442627,0.0,0.008160365745425224
130.0,174.0,0.7041,0.8124,9.1591,-0.0423,0.0275,-0.1289,-2.1435491047301234,0.0,4.492735862731934,-1.2183562517166138,-0.0,2.152096748352051,4.772455702513017,0.0,0.2823232114315033,-1.6382764021502894,-0.0,0.00552850728854537,0.6322012543678284,-0.0,0.0013186272699385881,1.3144563436508179,0.0,0.003009520471096039
130.0,174.0,0.7041,0.8124,9.1591,-0.0423,0.0275,-0.1289,-2.1435729465880335,0.0,4.493287086486816,-1.2184202671051025,-0.0,2.1563456058502197,4.772455631732502,0.0,0.29303351044654846,-1.6382840315448206,-0.0,0.00839121825993061,0.6322012543678284,-0.0,0.006323018576949835,1.3144282102584839,0.0,0.07302550971508026
130.0,174.0,0.7041,0.8124,9.1591,-0.0423,0.0275,-0.1289,-2.143557210961813,0.0,4.451801300048828,-1.2184202671051025,-0.0,2.1048901081085205,4.772439691215315,0.0,0.28912946581840515,-1.638308350239889,-0.0,0.0005931793712079525,0.6322330832481384,-0.0,0.005653704516589642,1.3144441843032837,0.0,-0.02734021097421646
130.0,174.0,0.7041,0.8124,9.1591,-0.0423,0.0275,-0.1289,-2.143613477746481,0.0,4.473991394042969,-1.218412160873413,-0.0,2.1875996589660645,4.77248394393877,0.0,0.2793104946613312,-1.6382721106158655,-0.0,-0.0033983085304498672,0.6321770548820496,-0.0,-0.007597185205668211,1.3145170211791992,0.0,0.02143104374408722
130.0,174.0,0.7041,0.8124,9.1591,-0.0423,0.0275,-0.1289,-2.143581052819723,0.0,4.495194435119629,-1.2184807062149048,-0.0,2.1525964736938477,4.772463786392965,0.0,0.2904609143733978,-1.6382721106158655,-0.0,0.004455873742699623,0.6322211623191833,-0.0,-0.0013085255632176995,1.3144645690917969,0.0,-0.024180443957448006
130.0,174.0,0.7041,0.8124,9.1591,-0.0423,0.0275,-0.1289,-2.1435610256590785,0.0,4.470297336578369,-1.218460202217102,-0.0,2.165858030319214,4.772439706116476,0.0,0.2806594967842102,-1.6382764021502894,-0.0,-0.006909345742315054,0.6321969032287598,-0.0,0.00487392395734787,1.3144646883010864,0.0,0.030774952843785286
130.0,171.0,0.5994,0.7316,9.4714,-0.0263,0.0247,-0.118,-2.143609186212057,0.0,4.488955020904541,-1.2184404134750366,-0.0,2.132929563522339,4.77247570732192,0.0,0.27642741799354553,-1.6382764021502894,-0.0,-0.01324041560292244,0.6321092844009399,-0.0,0.012128621339797974,1.314484715461731,0.0,0.00930686667561531
130.0,171.0,0.5994,0.7316,9.4714,-0.0263,0.0247,-0.118,-2.1435653171935023,0.0,4.466453552246094,-1.2184118032455444,-0.0,2.1632676124572754,4.7724839737410925,0.0,0.29748058319091797,-1.6382764021502894,-0.0,0.0035149266477674246,0.6321770548820496,-0.0,0.0068454863503575325,1.3144441843032837,0.0,0.018802521750330925
130.0,171.0,0.5994,0.7316,9.4714,-0.0263,0.0247,-0.118,-2.1436172924437464,0.0,4.415062427520752,-1.218400239944458,-0.0,2.1420586109161377,4.772499940335312,0.0,0.2888619303703308,-1.6382601896869105,-0.0,-0.008115668781101704,0.6322211027145386,-0.0,0.006647292524576187,1.3144482374191284,0.0,0.01546267420053482
130.0,171.0,0.5994,0.7316,9.4714,-0.0263,0.0247,-0.118,-2.1435491047301234,0.0,4.526625633239746,-1.2184325456619263,-0.0,2.1239633560180664,4.772435630648889,0.0,0.28854820132255554,-1.6382845083819788,-0.0,-0.0039054742082953453,0.6321650147438049,-0.0,0.006261011119931936,1.3144805431365967,0.0,0.012693087570369244
130.0,171.0,0.5994,0.7316,9.4714,-0.0263,0.0247,-0.118,-2.143609186212057,0.0,4.489046096801758,-1.2184642553329468,-0.0,2.143333911895752,4.772451627045431,0.0,0.2837352156639099,-1.6382840315448206,-0.0,0.011094284243881702,0.632161021232605,-0.0,-0.004718310199677944,1.3144441843032837,0.0,0.023987919092178345
130.0,171.0,0.5994,0.7316,9.4714,-0.0263,0.0247,-0.118,-2.1436015568175257,0.0,4.486935138702393,-1.2184240818023682,-0.0,2.1329054832458496,4.772423318564453,0.0,0.2862151861190796,-1.638252083455221,-0.0,0.004724897909909487,0.6321173310279846,-0.0,-0.0018192091956734657,1.3144563436508179,0.0,-0.007091178558766842
130.0,171.0,0.5994,0.7316,9.4714,-0.0263,0.0247,-0.118,-2.1436292133727015,0.0,4.473167419433594,-1.2184042930603027,-0.0,2.128277063369751,4.7724760984774015,0.0,0.2918870747089386,-1.6383565107928675,-0.0,-0.027982082217931747,0.63218092918396,-0.0,-0.0022140047512948513,1.3144563436508179,0.0,-0.015176104381680489
130.0,171.0,0.5994,0.7316,9.4714,-0.0263,0.0247,-0.118,-2.1435653171935023,0.0,4.490622520446777,-1.2184481620788574,-0.0,2.1850287914276123,4.772463786392965,0.0,0.2901208698749542,-1.6382721106158655,-0.0,-0.008259936235845089,0.6321571469306946,-0.0,0.0012390261981636286,1.3144322633743286,0.0,0.02634497545659542
130.0,171.0,0.5994,0.7316,9.4714,-0.0263,0.0247,-0.118,-2.143621107141012,0.0,4.461382865905762,-1.218428134918213,-0.0,2.180504083633423,4.772412146418848,0.0,0.2819198966026306,-1.6383126417743128,-0.0,-0.006130932364612818,0.6321571469306946,-0.0,-0.008167028427124023,1.3144645690917969,0.0,0.02524474263191223
130.0,171.0,0.5994,0.7316,9.4714,-0.0263,0.0247,-0.118,-2.143569131890768,0.0,4.507162094116211,-1.2184605598449707,-0.0,2.1356544494628906,4.772495782911339,0.0,0.2906176447868347,-1.6382883230792444,-0.0,-0.006650070194154978,0.6321770548820496,-0.0,-0.0006796825909987092,1.3144441843032837,0.0,0.03961930796504021
130.0,171.0,0.5994,0.7316,9.4714,-0.0263,0.0247,-0.118,-2.143609186212057,0.0,4.490950584411621,-1.2184081077575684,-0.0,2.1568403244018555,4.772476091026821,0.0,0.2806280851364136,-1.6382926146136683,-0.0,-0.0142420195043087,0.6321650147438049,-0.0,0.008167880587279797,1.3144805431365967,0.0,-0.030358169227838516
130.0,171.0,0.5994,0.7316,9.4714,-0.0263,0.0247,-0.118,-2.143585344354147,0.0,4.461196422576904,-1.2184325456619263,-0.0,2.1580681800842285,4.772459710925379,0.0,0.2897164523601532,-1.638308350239889,-0.0,0.0029771849513053894,0.632209062576294,-0.0,-0.006677630357444286,1.3144522905349731,0.0,0.053686417639255524
130.0,171.0,0.5994,0.7316,9.4714,-0.0263,0.0247,-0.118,-2.143597265283102,0.0,4.482755184173584,-1.218440055847168,-0.0,2.123405694961548,4.772463786392965,0.0,0.28905898332595825,-1.638308350239889,-0.0,-0.007439768873155117,0.6321491003036499,-0.0,-0.0008390150032937527,1.3144563436508179,0.0,-0.0027602813206613064
130.0,171.0,0.5994,0.7316,9.4714,-0.0263,0.0247,-0.118,-2.1435934505858363,0.0,4.5058207511901855,-1.2184807062149048,-0.0,2.1262900829315186,4.772431469499626,0.0,0.30360686779022217,-1.6382682959186,-0.0,-0.0014550297055393457,0.6321415305137634,-0.0,-0.0026198257692158222,1.314476490020752,0.0,-0.017064375802874565
130.0,171.0,0.5994,0.7316,9.4714,-0.0263,0.0247,-0.118,-2.1435772381224574,0.0,4.445306777954102,-1.218400239944458,-0.0,2.1688485145568848,4.772439706116476,0.0,0.28779342770576477,-1.6383164564715784,-0.0,0.015813276171684265,0.6321213245391846,-0.0,-0.0018961613532155752,1.3144887685775757,0.0,-0.0033884048461914062
130.0,168.0,0.545,0.7406,9.4762,-0.0287,0.0263,-0.1112,-2.1435896358885707,0.0,4.479953765869141,-1.2184362411499023,-0.0,2.158491611480713,4.772451627045431,0.0,0.2851031720638275,-1.6383002440081995,-0.0,-0.005736436229199171,0.6321332454681396,-0.0,0.0024279949720948935,1.3144524097442627,0.0,-0.019829725846648216
130.0,168.0,0.545,0.7406,9.4762,-0.0287,0.0263,-0.1112,-2.143609186212057,0.0,4.526981353759766,-1.2184441089630127,-0.0,2.11246919631958,4.772419649153509,0.0,0.2937805652618408,-1.6382926146136683,-0.0,0.00012145505752414465,0.6321691274642944,-0.0,-0.011736791580915451,1.314476490020752,0.0,-0.0162110086530447
130.0,168.0,0.545,0.7406,9.4762,-0.0287,0.0263,-0.1112,-2.1435934505858363,0.0,4.507931709289551,-1.2183796167373657,-0.0,2.1699256896972656,4.772415499180116,0.0,0.28756001591682434,-1.638280216847555,-0.0,-0.006619200110435486,0.6322009563446045,-0.0,-0.01017029769718647,1.3144687414169312,0.0,-0.03499419242143631
130.0,168.0,0.545,0.7406,9.4762,-0.0287,0.0263,-0.1112,-2.143557210961813,0.0,4.509164810180664,-1.2183837890625,-0.0,2.140042781829834,4.7724679475422285,0.0,0.28583547472953796,-1.6382721106158655,-0.0,-0.0024420851841568947,0.6321849822998047,-0.0,-0.001466685556806624,1.3145091533660889,0.0,-0.020381178706884384
130.0,168.0,0.545,0.7406,9.4762,-0.0287,0.0263,-0.1112,-2.143553396264547,0.0,4.497132301330566,-1.218479871749878,-0.0,2.1012396812438965,4.772463801294126,0.0,0.27837830781936646,-1.6383279005633753,-0.0,0.004772904794663191,0.6321889758110046,-0.0,-0.004910438787192106,1.3144687414169312,0.0,-0.034537702798843384
130.0,168.0,0.545,0.7406,9.4762,-0.0287,0.0263,-0.1112,-2.1435934505858363,0.0,4.501943588256836,-1.2184244394302368,-0.0,2.1851463317871094,4.772459710925379,0.0,0.28185009956359863,-1.6382721106158655,-0.0,-0.009341415017843246,0.632189154624939,-0.0,-0.003937725909054279,1.3144524097442627,0.0,-0.02145128697156906
130.0,168.0,0.545,0.7406,9.4762,-0.0287,0.0263,-0.1112,-2.1435653171935023,0.0,4.507698059082031,-1.2183722257614136,-0.0,2.181138038635254,4.77247570732192,0.0,0.2990105152130127,-1.638264004384176,-0.0,-0.01784997247159481,0.6321531534194946,-0.0,0.007266633678227663,1.3144605159759521,0.0,0.0022635068744421005
130.0,168.0,0.545,0.7406,9.4762,-0.0287,0.0263,-0.1112,-2.1436053715147914,0.0,4.490424633026123,-1.218428134918213,-0.0,2.1116907596588135,4.77249205762104,0.0,0.27436161041259766,-1.638308350239889,-0.0,-0.007867402397096157,0.6321375370025635,-0.0,-0.002734073903411627,1.3144805431365967,0.0,0.015540053136646748
130.0,168.0,0.545,0.7406,9.4762,-0.0287,0.0263,-0.1112,-2.1435891590514125,0.0,4.4819536209106445,-1.2183681726455688,-0.0,2.1044740676879883,4.772467973619261,0.0,0.2882830500602722,-1.6382883230792444,-0.0,-0.000985108781605959,0.6321253180503845,-0.0,0.002472063759341836,1.3144563436508179,0.0,0.008505895733833313
130.0,168.0,0.545,0.7406,9.4762,-0.0287,0.0263,-0.1112,-2.143581052819723,0.0,4.477598190307617,-1.2184321880340576,-0.0,2.1736080646514893,4.772463793843546,0.0,0.2733699679374695,-1.638308350239889,-0.0,0.001982655841857195,0.6321729421615601,-0.0,-0.004169103689491749,1.3144563436508179,0.0,-0.026502687484025955
130.0,168.0,0.545,0.7406,9.4762,-0.0287,0.0263,-0.1112,-2.143581052819723,0.0,4.515105724334717,-1.2183074951171875,-0.0,2.1496782302856445,4.772455631732502,0.0,0.27711454033851624,-1.6383245627032679,-0.0,0.0026524472050368786,0.6321729421615601,-0.0,-0.004136413335800171,1.3144482374191284,0.0,-0.030360467731952667
130.0,168.0,0.545,0.7406,9.4762,-0.0287,0.0263,-0.1112,-2.1435610256590785,0.0,4.444777965545654,-1.2184724807739258,-0.0,2.1479387283325195,4.772483958839931,0.0,0.28158682584762573,-1.638308350239889,-0.0,-0.008774789050221443,0.63224858045578,-0.0,-0.012211361899971962,1.3144723176956177,0.0,0.02617412991821766
130.0,168.0,0.545,0.7406,9.4762,-0.0287,0.0263,-0.1112,-2.1435896358885707,0.0,4.514812469482422,-1.218468427658081,-0.0,2.202908754348755,4.7724760984774015,0.0,0.2874862253665924,-1.638308350239889,-0.0,-0.009955016896128654,0.6321650147438049,-0.0,0.0013333454262465239,1.3145010471343994,0.0,-0.030065927654504776
130.0,168.0,0.545,0.7406,9.4762,-0.0287,0.0263,-0.1112,-2.143625398675436,0.0,4.503715515136719,-1.2184481620788574,-0.0,2.121480941772461,4.772479793965378,0.0,0.29409536719322205,-1.6382926146136683,-0.0,-0.0021835847292095423,0.6322370171546936,-0.0,0.0042506055906414986,1.3145051002502441,0.0,0.0188080333173275
129.0,174.0,0.615,0.7328,9.3649,-0.0394,0.0224,-0.1145,-2.1435934505858363,0.0,4.481081485748291,-1.218428134918213,-0.0,2.158031940460205,4.772479782789507,0.0,0.29794228076934814,-1.638240162526266,-0.0,-0.0028066900558769703,0.6321375966072083,-0.0,0.004828795790672302,1.314521074295044,0.0,0.057550955563783646
129.0,174.0,0.615,0.7328,9.3649,-0.0394,0.0224,-0.1145,-2.1435891590514125,0.0,4.485424041748047,-1.218440055847168,-0.0,2.1551003456115723,4.772447469621458,0.0,0.285600483417511,-1.6382764021502894,-0.0,0.010550806298851967,0.6322211027145386,-0.0,0.002093665301799774,1.3144805431365967,0.0,0.009117968380451202
129.0,174.0,0.615,0.7328,9.3649,-0.0394,0.0224,-0.1145,-2.143557210961813,0.0,4.478890419006348,-1.2184561491012573,-0.0,2.142436981201172,4.77247570732192,0.0,0.29694539308547974,-1.638264004384176,-0.0,-0.006957461126148701,0.63214510679245,-0.0,-0.003679694142192602,1.314440369606018,0.0,0.04717790335416794
129.0,174.0,0.615,0.7328,9.3649,-0.0394,0.0224,-0.1145,-2.1435934505858363,0.0,4.469803333282471,-1.2184162139892578,-0.0,2.127408981323242,4.7724679475422285,0.0,0.2803170680999756,-1.638308350239889,-0.0,-0.002945901360362768,0.6321730613708496,-0.0,-4.090857692062855e-05,1.3144806623458862,0.0,0.022238409146666527
129.0,174.0,0.615,0.7328,9.3649,-0.0394,0.0224,-0.1145,-2.1436053715147914,0.0,4.4799885749816895,-1.2184563875198364,-0.0,2.1714792251586914,4.7724557285900495,0.0,0.27352043986320496,-1.6382363478290003,-0.0,-0.011263550259172916,0.63218092918396,-0.0,0.0012146610533818603,1.3144605159759521,0.0,-0.05848218500614166
129.0,174.0,0.615,0.7328,9.3649,-0.0394,0.0224,-0.1145,-2.143597265283102,0.0,4.483836650848389,-1.2184481620788574,-0.0,2.1423654556274414,4.772463760315933,0.0,0.2894883155822754,-1.6382926146136683,-0.0,-0.004263920243829489,0.63218092918396,-0.0,-0.005662112962454557,1.3144605159759521,0.0,0.015420639887452126
129.0,174.0,0.615,0.7328,9.3649,-0.0394,0.0224,-0.1145,-2.143609186212057,0.0,4.485164642333984,-1.218400239944458,-0.0,2.164877414703369,4.77248394393877,0.0,0.2861441373825073,-1.6382764021502894,-0.0,-0.01647733710706234,0.6322091817855835,-0.0,-0.007167416624724865,1.3144441843032837,0.0,-0.030956707894802094
129.0,174.0,0.615,0.7328,9.3649,-0.0394,0.0224,-0.1145,-2.143609186212057,0.0,4.505382061004639,-1.2183959484100342,-0.0,2.179966449737549,4.772459781705894,0.0,0.2834969460964203,-1.638280216847555,-0.0,-0.003331438172608614,0.6321849822998047,-0.0,0.00863198284059763,1.3144805431365967,0.0,-0.03376038745045662
129.0,174.0,0.615,0.7328,9.3649,-0.0394,0.0224,-0.1145,-2.1436053715147914,0.0,4.458354473114014,-1.2184158563613892,-0.0,2.1402127742767334,4.772435239493408,0.0,0.27777257561683655,-1.6382840315448206,-0.0,-0.009520221501588821,0.63218092918396,-0.0,0.003387321252375841,1.3144524097442627,0.0,-0.008514853194355965
129.0,174.0,0.615,0.7328,9.3649,-0.0394,0.0224,-0.1145,-2.1435934505858363,0.0,4.498391151428223,-1.2184081077575684,-0.0,2.1352710723876953,4.772483925312319,0.0,0.2821657061576843,-1.6383045355426233,-0.0,-0.011278295889496803,0.6321849822998047,-0.0,-0.001067142584361136,1.314484715461731,0.0,0.027636932209134102
129.0,174.0,0.615,0.7328,9.3649,-0.0394,0.0224,-0.1145,-2.143637319604391,0.0,4.479645729064941,-1.218460202217102,-0.0,2.1717987060546875,4.7724474658961675,0.0,0.2921958565711975,-1.6382682959186,-0.0,-0.010572066530585289,0.6322051882743835,-0.0,-0.014347610995173454,1.3144240379333496,0.0,0.039663057774305344
129.0,174.0,0.615,0.7328,9.3649,-0.0394,0.0224,-0.1145,-2.1435772381224574,0.0,4.50787353515625,-1.2184162139892578,-0.0,2.102937698364258,4.772447454720297,0.0,0.2919129729270935,-1.6382926146136683,-0.0,-0.011209717951714993,0.6322250962257385,-0.0,-0.001471701543778181,1.3144887685775757,0.0,0.025690823793411255
129.0,174.0,0.615,0.7328,9.3649,-0.0394,0.0224,-0.1145,-2.1436015568175257,0.0,4.437249183654785,-1.2184079885482788,-0.0,2.114037275314331,4.772447484522619,0.0,0.2901090085506439,-1.6382883230792444,-0.0,0.005985956639051437,0.6321769952774048,-0.0,0.0015367286978289485,1.3144441843032837,0.0,0.043418847024440765
129.0,174.0,0.615,0.7328,9.3649,-0.0394,0.0224,-0.1145,-2.1435896358885707,0.0,4.514642715454102,-1.2184321880340576,-0.0,2.193089485168457,4.772472023009815,0.0,0.2935112714767456,-1.638336483632223,-0.0,-0.017097515985369682,0.6322130560874939,-0.0,-0.005200079642236233,1.3144605159759521,0.0,0.01903967373073101
129.0,174.0,0.615,0.7328,9.3649,-0.0394,0.0224,-0.1145,-2.1435934505858363,0.0,4.4748616218566895,-1.2184081077575684,-0.0,2.1697354316711426,4.7724637789423845,0.0,0.29336225986480713,-1.638268772755758,-0.0,0.007123307324945927,0.6322171688079834,-0.0,0.015353741124272346,1.3144968748092651,0.0,-0.025457069277763367
130.0,172.0,0.5228,0.6837,9.5617,-0.0342,0.0273,-0.1188,-2.143585344354147,0.0,4.499173164367676,-1.218416452407837,-0.0,2.1268272399902344,4.772467958718099,0.0,0.3007362484931946,-1.6382883230792444,-0.0,-0.003739606589078903,0.6321889758110046,-0.0,0.005396794527769089,1.3144605159759521,0.0,0.013372091576457024
130.0,172.0,0.5228,0.6837,9.5617,-0.0342,0.0273,-0.1188,-2.143609186212057,0.0,4.475345134735107,-1.218412160873413,-0.0,2.1889781951904297,4.77248394393877,0.0,0.28367751836776733,-1.6383002440081995,-0.0,0.0008369250572286546,0.6321094036102295,-0.0,0.004758720751851797,1.3145169019699097,0.0,0.00027437135577201843
130.0,172.0,0.5228,0.6837,9.5617,-0.0342,0.0273,-0.1188,-2.143597265283102,0.0,4.454517841339111,-1.218403935432434,-0.0,2.160612106323242,4.77247569987134,0.0,0.28710681200027466,-1.6382926146136683,-0.0,-0.016570519655942917,0.6321134567260742,-0.0,0.006899719592183828,1.3145009279251099,0.0,0.014218124561011791
130.0,172.0,0.5228,0.6837,9.5617,-0.0342,0.0273,-0.1188,-2.143637319604391,0.0,4.470036506652832,-1.218375563621521,-0.0,2.1562719345092773,4.772415480553665,0.0,0.2829532325267792,-1.6383565107928675,-0.0,-0.0022125132381916046,0.6322130560874939,-0.0,-0.012737800367176533,1.3144605159759521,0.0,0.04496749863028526
130.0,172.0,0.5228,0.6837,9.5617,-0.0342,0.0273,-0.1188,-2.1435772381224574,0.0,4.486486434936523,-1.21847665309906,-0.0,2.160066604614258,4.772419630527057,0.0,0.2926682233810425,-1.638320271168844,-0.0,-0.003085638862103224,0.6321889758110046,-0.0,-0.006066714413464069,1.3144482374191284,0.0,0.03378365561366081
130.0,172.0,0.5228,0.6837,9.5617,-0.0342,0.0273,-0.1188,-2.1435934505858363,0.0,4.51064395904541,-1.218403935432434,-0.0,2.1674253940582275,4.772443416505613,0.0,0.2822018265724182,-1.6382964293109339,-0.0,-0.005382557399570942,0.6321849822998047,-0.0,0.0004202408599667251,1.314484715461731,0.0,0.05031861364841461
130.0,172.0,0.5228,0.6837,9.5617,-0.0342,0.0273,-0.1188,-2.143581529656881,0.0,4.496878623962402,-1.218408465385437,-0.0,2.1452465057373047,4.772455631732502,0.0,0.2804027795791626,-1.6382883230792444,-0.0,-0.0075200507417321205,0.6321931481361389,-0.0,0.00649502407759428,1.3144605159759521,0.0,0.061313074082136154
130.0,172.0,0.5228,0.6837,9.5617,-0.0342,0.0273,-0.1188,-2.1436053715147914,0.0,4.492095947265625,-1.2184683084487915,-0.0,2.1261754035949707,4.772499977588215,0.0,0.2825990617275238,-1.6382563749896448,-0.0,4.4999527744948864e-05,0.6321650147438049,-0.0,-0.009636101312935352,1.314448356628418,0.0,-0.014938801527023315
130.0,172.0,0.5228,0.6837,9.5617,-0.0342,0.0273,-0.1188,-2.143609186212057,0.0,4.519469738006592,-1.2184240818023682,-0.0,2.1531801223754883,4.772443368076839,0.0,0.297244131565094,-1.6382682959186,-0.0,-0.005492764990776777,0.6321931481361389,-0.0,0.00017247234063688666,1.3144805431365967,0.0,0.0066315606236457825
130.0,172.0,0.5228,0.6837,9.5617,-0.0342,0.0273,-0.1188,-2.1435729465880335,0.0,4.496706008911133,-1.2184081077575684,-0.0,2.1357035636901855,4.772476053773918,0.0,0.2807990610599518,-1.6383126417743128,-0.0,0.0004807880613952875,0.6321455836296082,-0.0,-0.012840199284255505,1.3144482374191284,0.0,-0.018816161900758743
130.0,172.0,0.5228,0.6837,9.5617,-0.0342,0.0273,-0.1188,-2.1436292133727015,0.0,4.487310409545898,-1.218392014503479,-0.0,2.1511197090148926,4.772508162051,0.0,0.29200804233551025,-1.6383002440081995,-0.0,-0.005212519317865372,0.63218092918396,-0.0,-0.0022658752277493477,1.3144805431365967,0.0,0.04081254452466965
130.0,172.0,0.5228,0.6837,9.5617,-0.0342,0.0273,-0.1188,-2.143569131890768,0.0,4.4863176345825195,-1.2183796167373657,-0.0,2.189581871032715,4.772415484278955,0.0,0.2965238690376282,-1.638280216847555,-0.0,-0.005426135379821062,0.6321849822998047,-0.0,-0.007765048649162054,1.3144723176956177,0.0,0.040107905864715576
130.0,172.0,0.5228,0.6837,9.5617,-0.0342,0.0273,-0.1188,-2.1435934505858363,0.0,4.510990142822266,-1.218436360359192,-0.0,2.1081955432891846,4.772427394032039,0.0,0.2803162634372711,-1.6383045355426233,-0.0,0.0013972544111311436,0.6321610808372498,-0.0,0.004195432644337416,1.3145087957382202,0.0,0.031136922538280487
130.0,172.0,0.5228,0.6837,9.5617,-0.0342,0.0273,-0.1188,-2.1435848675169886,0.0,4.522156715393066,-1.218451976776123,-0.0,2.166020631790161,4.7724434090550325,0.0,0.29385504126548767,-1.6383121649371546,-0.0,-0.01383330300450325,0.6320855617523193,-0.0,0.005528890527784824,1.3144563436508179,0.0,0.04071802645921707
130.0,172.0,0.5228,0.6837,9.5617,-0.0342,0.0273,-0.1188,-2.143613477746481,0.0,4.512784957885742,-1.2184518575668335,-0.0,2.1505680084228516,4.772431469499626,0.0,0.29599541425704956,-1.6382926146136683,-0.0,-0.0037851636298000813,0.6321971416473389,-0.0,-0.00261608581058681,1.3144723176956177,0.0,0.007794649340212345
131.0,172.0,0.5001,0.6832,9.6688,-0.0289,0.033,-0.1177,-2.143557210961813,0.0,4.496114253997803,-1.2183879613876343,-0.0,2.1433372497558594,4.772487628250875,0.0,0.29319125413894653,-1.6382764021502894,-0.0,-0.011801633983850479,0.6322051882743835,-0.0,0.005597562529146671,1.3144605159759521,0.0,-0.010056822560727596
131.0,172.0,0.5001,0.6832,9.6688,-0.0289,0.033,-0.1177,-2.1435848675169886,0.0,4.471469402313232,-1.2184561491012573,-0.0,2.1572036743164062,4.772423709719934,0.0,0.2768394947052002,-1.638320271168844,-0.0,-0.0026920181699097157,0.6320936679840088,-0.0,-0.007999826222658157,1.3144687414169312,0.0,0.00797190610319376
131.0,172.0,0.5001,0.6832,9.6688,-0.0289,0.033,-0.1177,-2.143609186212057,0.0,4.475363731384277,-1.2183400392532349,-0.0,2.120230197906494,4.772419630527057,0.0,0.2832871973514557,-1.6382721106158655,-0.0,-0.005126849748194218,0.6321849226951599,-0.0,-0.0006886420305818319,1.3144482374191284,0.0,0.040951333940029144
131.0,172.0,0.5001,0.6832,9.6688,-0.0289,0.033,-0.1177,-2.1435934505858363,0.0,4.46287727355957,-1.2184202671051025,-0.0,2.0973060131073,4.77244337552742,0.0,0.2832038402557373,-1.6383045355426233,-0.0,-0.005191216245293617,0.6322091221809387,-0.0,0.001505059888586402,1.314512848854065,0.0,-0.014175256714224815
131.0,172.0,0.5001,0.6832,9.6688,-0.0289,0.033,-0.1177,-2.143613477746481,0.0,4.499748229980469,-1.2184202671051025,-0.0,2.130128860473633,4.772435615747728,0.0,0.28823035955429077,-1.6383045355426233,-0.0,0.011885694228112698,0.6322170495986938,-0.0,-0.004894795827567577,1.3144645690917969,0.0,-0.03464745730161667
131.0,172.0,0.5001,0.6832,9.6688,-0.0289,0.033,-0.1177,-2.1435934505858363,0.0,4.517584800720215,-1.218440055847168,-0.0,2.133920431137085,4.772479782789507,0.0,0.28690990805625916,-1.6382563749896448,-0.0,-0.009391266852617264,0.6321412324905396,-0.0,-0.005778581369668245,1.3144524097442627,0.0,0.012680141255259514
131.0,172.0,0.5001,0.6832,9.6688,-0.0289,0.033,-0.1177,-2.1435772381224574,0.0,4.5211567878723145,-1.2183722257614136,-0.0,2.166001081466675,4.772455631732502,0.0,0.28741317987442017,-1.6382959524737757,-0.0,0.0021107029169797897,0.6321892738342285,-0.0,-0.014479096047580242,1.314420461654663,0.0,-0.03518460690975189
131.0,172.0,0.5001,0.6832,9.6688,-0.0289,0.033,-0.1177,-2.143613477746481,0.0,4.467138767242432,-1.2184642553329468,-0.0,2.15260648727417,4.772463395237484,0.0,0.28154945373535156,-1.6382444540606897,-0.0,-0.0040406216867268085,0.6322051286697388,-0.0,-0.0030147468205541372,1.3144524097442627,0.0,0.016402864828705788
131.0,172.0,0.5001,0.6832,9.6688,-0.0289,0.033,-0.1177,-2.143609186212057,0.0,4.479951858520508,-1.218400239944458,-0.0,2.1201040744781494,4.772423318564453,0.0,0.2946135401725769,-1.6383169333087366,-0.0,0.008192350156605244,0.6322329640388489,-0.0,-0.016655629500746727,1.314476490020752,0.0,0.02232995815575123
131.0,172.0,0.5001,0.6832,9.6688,-0.0289,0.033,-0.1177,-2.143609186212057,0.0,4.468044281005859,-1.2184321880340576,-0.0,2.1959774494171143,4.772435630648889,0.0,0.28722965717315674,-1.6382644812213343,-0.0,0.004026192240417004,0.6321690678596497,-0.0,0.004691053181886673,1.3144845962524414,0.0,-0.02154696173965931
131.0,172.0,0.5001,0.6832,9.6688,-0.0289,0.033,-0.1177,-2.143581052819723,0.0,4.502691745758057,-1.2184563875198364,-0.0,2.1173806190490723,4.772459710925379,0.0,0.28629931807518005,-1.638280216847555,-0.0,-0.007144073955714703,0.6321572065353394,-0.0,-0.0031704590655863285,1.3144282102584839,0.0,0.047231730073690414
131.0,172.0,0.5001,0.6832,9.6688,-0.0289,0.033,-0.1177,-2.1435896358885707,0.0,4.497592926025391,-1.2184362411499023,-0.0,2.221259117126465,4.772423694818773,0.0,0.28455832600593567,-1.6383002440081995,-0.0,0.0035162216518074274,0.6321849822998047,-0.0,-0.005459961481392384,1.314468264579773,0.0,0.010866268537938595
131.0,172.0,0.5001,0.6832,9.6688,-0.0289,0.033,-0.1177,-2.143625398675436,0.0,4.460459232330322,-1.2184563875198364,-0.0,2.1742398738861084,4.77248394393877,0.0,0.2778819501399994,-1.638308350239889,-0.0,-0.005262694321572781,0.6322170495986938,-0.0,0.002828554715961218,1.314476490020752,0.0,-0.027780063450336456
131.0,172.0,0.5001,0.6832,9.6688,-0.0289,0.033,-0.1177,-2.1435729465880335,0.0,4.474991321563721,-1.2183961868286133,-0.0,2.211010694503784,4.772459781705894,0.0,0.2886960506439209,-1.6382682959186,-0.0,-0.0022889983374625444,0.6321849822998047,-0.0,0.0049534086138010025,1.3145010471343994,0.0,0.004618144128471613
131.0,172.0,0.5001,0.6832,9.6688,-0.0289,0.033,-0.1177,-2.143609186212057,0.0,4.466226100921631,-1.2184362411499023,-0.0,2.1681673526763916,4.772479782789507,0.0,0.28305020928382874,-1.6383007208453577,-0.0,0.0017920159734785557,0.6321494579315186,-0.0,-0.002947114175185561,1.3144322633743286,0.0,-0.008421607315540314
127.0,174.0,0.682,0.7591,9.3206,-0.0348,0.0226,-0.1213,-2.1435729465880335,0.0,4.483034133911133,-1.2184199094772339,-0.0,2.1446924209594727,4.772463786392965,0.0,0.28604239225387573,-1.6382883230792444,-0.0,-0.008641290478408337,0.6322011947631836,-0.0,-3.5708071663975716e-05,1.3144805431365967,0.0,0.0038870032876729965
127.0,174.0,0.682,0.7591,9.3206,-0.0348,0.0226,-0.1213,-2.1435772381224574,0.0,4.48274040222168,-1.218400239944458,-0.0,2.157644271850586,4.772451627045431,0.0,0.285564661026001,-1.6382320562945765,-0.0,-0.0062905410304665565,0.6321971416473389,-0.0,-0.0012070831144228578,1.3144645690917969,0.0,-0.00016352161765098572
127.0,174.0,0.682,0.7591,9.3206,-0.0348,0.0226,-0.1213,-2.143609186212057,0.0,4.495710372924805,-1.2184321880340576,-0.0,2.1940343379974365,4.772479797690668,0.0,0.28396832942962646,-1.6382806936847132,-0.0,0.001506382948718965,0.632224977016449,-0.0,-0.008959798142313957,1.3144441843032837,0.0,0.034783147275447845
127.0,174.0,0.682,0.7591,9.3206,-0.0348,0.0226,-0.1213,-2.143581529656881,0.0,4.547380447387695,-1.2184644937515259,-0.0,2.1542911529541016,4.772423709719934,0.0,0.2942928373813629,-1.6382764021502894,-0.0,0.008715697564184666,0.6321849822998047,-0.0,-0.002767229452729225,1.314484715461731,0.0,-0.01799592189490795
127.0,174.0,0.682,0.7591,9.3206,-0.0348,0.0226,-0.1213,-2.1436053715147914,0.0,4.518094062805176,-1.2184162139892578,-0.0,2.138409376144409,4.772467943816938,0.0,0.29048436880111694,-1.6383126417743128,-0.0,0.0030208039097487926,0.6321808695793152,-0.0,0.00374950235709548,1.3144768476486206,0.0,-0.02254292368888855
127.0,174.0,0.682,0.7591,9.3206,-0.0348,0.0226,-0.1213,-2.1435729465880335,0.0,4.478074073791504,-1.218400239944458,-0.0,2.1609115600585938,4.772463786392965,0.0,0.2839314937591553,-1.6382320562945765,-0.0,-0.003370225429534912,0.6321929097175598,-0.0,0.005336047150194645,1.3144723176956177,0.0,0.029058322310447693
127.0,174.0,0.682,0.7591,9.3206,-0.0348,0.0226,-0.1213,-2.1435934505858363,0.0,4.451848030090332,-1.2184358835220337,-0.0,2.105438709259033,4.772431469499626,0.0,0.2935143709182739,-1.6382721106158655,-0.0,-0.009296922013163567,0.6321769952774048,-0.0,0.002530453260987997,1.3144199848175049,0.0,-0.018430009484291077
127.0,174.0,0.682,0.7591,9.3206,-0.0348,0.0226,-0.1213,-2.143633028069967,0.0,4.518881320953369,-1.2184162139892578,-0.0,2.175384759902954,4.772467943816938,0.0,0.28337401151657104,-1.638252083455221,-0.0,0.0029513854533433914,0.6322170495986938,-0.0,-0.009273787960410118,1.314476490020752,0.0,-0.052047960460186005
127.0,174.0,0.682,0.7591,9.3206,-0.0348,0.0226,-0.1213,-2.1435896358885707,0.0,4.499601364135742,-1.2184162139892578,-0.0,2.139740228652954,4.772431782424011,0.0,0.2833285331726074,-1.638223950062887,-0.0,-0.005068040452897549,0.6321611404418945,-0.0,0.004817075561732054,1.3144928216934204,0.0,0.026598816737532616
127.0,174.0,0.682,0.7591,9.3206,-0.0348,0.0226,-0.1213,-2.1435934505858363,0.0,4.476479530334473,-1.2183877229690552,-0.0,2.179032325744629,4.772443390428581,0.0,0.2916696071624756,-1.6382840315448206,-0.0,-0.007499550469219685,0.6321611404418945,-0.0,0.0009520964231342077,1.3144162893295288,0.0,-0.02440723590552807
127.0,174.0,0.682,0.7591,9.3206,-0.0348,0.0226,-0.1213,-2.1436172924437464,0.0,4.476923942565918,-1.2184162139892578,-0.0,2.1396872997283936,4.772455702513017,0.0,0.2731550335884094,-1.6382883230792444,-0.0,-0.0010706547182053328,0.6321611404418945,-0.0,-0.01310254167765379,1.3144928216934204,0.0,-0.02438635751605034
127.0,174.0,0.682,0.7591,9.3206,-0.0348,0.0226,-0.1213,-2.143613477746481,0.0,4.4862847328186035,-1.2184481620788574,-0.0,2.1303203105926514,4.77248394393877,0.0,0.28312948346138,-1.6383164564715784,-0.0,-0.007828193716704845,0.632192850112915,-0.0,-0.003979251254349947,1.3144482374191284,0.0,0.0046845399774611
127.0,174.0,0.682,0.7591,9.3206,-0.0348,0.0226,-0.1213,-2.143552919427389,0.0,4.447228908538818,-1.2185003757476807,-0.0,2.168788194656372,4.772415473103084,0.0,0.28857606649398804,-1.6383283774005335,-0.0,-0.003685127245262265,0.6321769952774048,-0.0,0.006043011322617531,1.3144482374191284,0.0,0.008533351123332977
127.0,174.0,0.682,0.7591,9.3206,-0.0348,0.0226,-0.1213,-2.1435610256590785,0.0,4.46266508102417,-1.2184642553329468,-0.0,2.1820363998413086,4.772447469621458,0.0,0.2841266095638275,-1.6382721106158655,-0.0,-0.0016463120700791478,0.6321650147438049,-0.0,-0.005867147818207741,1.3144768476486206,0.0,-0.04891151189804077
132.0,168.0,0.4893,0.7065,9.6473,-0.037,0.0224,-0.1225,-2.143597265283102,0.0,4.486117362976074,-1.218400239944458,-0.0,2.1254494190216064,4.772451627045431,0.0,0.28506898880004883,-1.6382883230792444,-0.0,-0.013154185377061367,0.6321730613708496,-0.0,-0.0029884427785873413,1.314436435699463,0.0,0.009790336713194847
132.0,168.0,0.4893,0.7065,9.6473,-0.037,0.0224,-0.1225,-2.1435729465880335,0.0,4.491328239440918,-1.2184240818023682,-0.0,2.1598639488220215,4.77248394393877,0.0,0.2866157293319702,-1.6382926146136683,-0.0,-0.0073421490378677845,0.6321731209754944,-0.0,0.0003449188079684973,1.3144524097442627,0.0,-0.00634657172486186
132.0,168.0,0.4893,0.7065,9.6473,-0.037,0.0224,-0.1225,-2.143569131890768,0.0,4.447354793548584,-1.2184240818023682,-0.0,2.174029588699341,4.772439706116476,0.0,0.28044864535331726,-1.6382363478290003,-0.0,0.0011408033315092325,0.6321572065353394,-0.0,0.0007728534983471036,1.3144723176956177,0.0,0.0009431233629584312
132.0,168.0,0.4893,0.7065,9.6473,-0.037,0.0224,-0.1225,-2.143625398675436,0.0,4.462430000305176,-1.2184081077575684,-0.0,2.129777431488037,4.77248394393877,0.0,0.2879033088684082,-1.6382845083819788,-0.0,-0.006665421649813652,0.6321532726287842,-0.0,0.011331857182085514,1.3144723176956177,0.0,-0.011095725931227207
132.0,168.0,0.4893,0.7065,9.6473,-0.037,0.0224,-0.1225,-2.1435934505858363,0.0,4.514472007751465,-1.2183918952941895,-0.0,2.1795530319213867,4.77247570732192,0.0,0.2824365496635437,-1.6383045355426233,-0.0,0.007904650643467903,0.6321730613708496,-0.0,0.007840393111109734,1.3144524097442627,0.0,-0.0017818938940763474
132.0,168.0,0.4893,0.7065,9.6473,-0.037,0.0224,-0.1225,-2.1435610256590785,0.0,4.484439849853516,-1.2183681726455688,-0.0,2.1035125255584717,4.772439706116476,0.0,0.29961660504341125,-1.6383164564715784,-0.0,-0.01356950681656599,0.6321932077407837,-0.0,-0.0027628904208540916,1.3144441843032837,0.0,-0.016701241955161095
132.0,168.0,0.4893,0.7065,9.6473,-0.037,0.0224,-0.1225,-2.1436335049071253,0.0,4.465025424957275,-1.2184162139892578,-0.0,2.135429859161377,4.7724516344960115,0.0,0.27298393845558167,-1.6382721106158655,-0.0,0.005975282751023769,0.6321849822998047,-0.0,0.0028308748733252287,1.3144282102584839,0.0,0.013877726159989834
132.0,168.0,0.4893,0.7065,9.6473,-0.037,0.0224,-0.1225,-2.1435896358885707,0.0,4.51954460144043,-1.2184240818023682,-0.0,2.183825969696045,4.772492072522201,0.0,0.27724817395210266,-1.6382840315448206,-0.0,-0.0009305570274591446,0.6321254372596741,-0.0,0.0026377965696156025,1.3144081830978394,0.0,-0.006351187825202942
132.0,168.0,0.4893,0.7065,9.6473,-0.037,0.0224,-0.1225,-2.1435896358885707,0.0,4.500548839569092,-1.2183961868286133,-0.0,2.1267240047454834,4.7724839737410925,0.0,0.28829678893089294,-1.6382883230792444,-0.0,0.003651185892522335,0.6321650743484497,-0.0,0.006891860626637936,1.3145006895065308,0.0,0.025473950430750847
132.0,168.0,0.4893,0.7065,9.6473,-0.037,0.0224,-0.1225,-2.1436292133727015,0.0,4.463265419006348,-1.21847665309906,-0.0,2.1579689979553223,4.77248394393877,0.0,0.2794281542301178,-1.6382883230792444,-0.0,-0.004329931456595659,0.6321889162063599,-0.0,0.0022838320583105087,1.3145127296447754,0.0,0.03404756635427475
132.0,168.0,0.4893,0.7065,9.6473,-0.037,0.0224,-0.1225,-2.143609186212057,0.0,4.535210132598877,-1.2184444665908813,-0.0,2.218046188354492,4.772451627045431,0.0,0.2814427316188812,-1.6382964293109339,-0.0,0.0024845628067851067,0.6322126984596252,-0.0,-0.0006384126609191298,1.314484715461731,0.0,0.024523748084902763
132.0,168.0,0.4893,0.7065,9.6473,-0.037,0.0224,-0.1225,-2.1435848675169886,0.0,4.500805854797363,-1.2183599472045898,-0.0,2.131547451019287,4.772447469621458,0.0,0.2966151535511017,-1.638320271168844,-0.0,-0.005894054658710957,0.6321849822998047,-0.0,-0.02335396222770214,1.3144805431365967,0.0,0.02929682657122612
132.0,168.0,0.4893,0.7065,9.6473,-0.037,0.0224,-0.1225,-2.143557210961813,0.0,4.497244834899902,-1.2184081077575684,-0.0,2.165994167327881,4.772447469621458,0.0,0.27955204248428345,-1.6382444540606897,-0.0,0.00060648238286376,0.632192850112915,-0.0,-0.006623408757150173,1.314412236213684,0.0,0.004398352466523647
132.0,168.0,0.4893,0.7065,9.6473,-0.037,0.0224,-0.1225,-2.1436053715147914,0.0,4.481810092926025,-1.2184807062149048,-0.0,2.092393636703491,4.772443416505613,0.0,0.29501283168792725,-1.6382721106158655,-0.0,-0.0013442281633615494,0.6321377158164978,-0.0,0.007472753059118986,1.3144645690917969,0.0,-0.04006153345108032
132.0,168.0,0.4893,0.7065,9.6473,-0.037,0.0224,-0.1225,-2.1435729465880335,0.0,4.465982913970947,-1.218408465385437,-0.0,2.138874053955078,4.7724393149609945,0.0,0.28115546703338623,-1.6382644812213343,-0.0,-0.0112227788195014,0.6322051286697388,-0.0,-0.00672347703948617,1.3144041299819946,0.0,-0.020637404173612595
129.0,170.0,0.5474,0.7394,9.5803,-0.0344,0.031,-0.1138,-2.1435772381224574,0.0,4.531803131103516,-1.2184321880340576,-0.0,2.1681313514709473,4.772447469621458,0.0,0.28855276107788086,-1.6382926146136683,-0.0,0.0023743293713778257,0.63218092918396,-0.0,-0.006639912724494934,1.3144727945327759,0.0,0.002916851779446006
129.0,170.0,0.5474,0.7394,9.5803,-0.0344,0.031,-0.1138,-2.1435729465880335,0.0,4.447608947753906,-1.218412160873413,-0.0,2.139892101287842,4.772515936731853,0.0,0.27927061915397644,-1.6382721106158655,-0.0,-0.008000152185559273,0.6322051286697388,-0.0,-0.004098820500075817,1.3144563436508179,0.0,-0.01857885532081127
129.0,170.0,0.5474,0.7394,9.5803,-0.0344,0.031,-0.1138,-2.143609186212057,0.0,4.47542667388916,-1.2184158563613892,-0.0,2.15030574798584,4.772472030460396,0.0,0.2892175018787384,-1.638252083455221,-0.0,-0.009286345914006233,0.6322446465492249,-0.0,-0.008742822334170341,1.3144727945327759,0.0,0.012701033614575863
129.0,170.0,0.5474,0.7394,9.5803,-0.0344,0.031,-0.1138,-2.1435772381224574,0.0,4.484982967376709,-1.2183440923690796,-0.0,2.1267528533935547,4.772463786392965,0.0,0.2936663329601288,-1.6382764021502894,-0.0,-0.004477510694414377,0.6321691274642944,-0.0,-0.01339732389897108,1.3144968748092651,0.0,0.002930609043687582
129.0,170.0,0.5474,0.7394,9.5803,-0.0344,0.031,-0.1138,-2.1436010799803675,0.0,4.4631028175354,-1.2184444665908813,-0.0,2.1275429725646973,4.772431462049045,0.0,0.2873644530773163,-1.6383045355426233,-0.0,-0.0006259859073907137,0.6322129368782043,-0.0,0.00819664541631937,1.3144605159759521,0.0,-0.0014661308377981186
129.0,170.0,0.5474,0.7394,9.5803,-0.0344,0.031,-0.1138,-2.143637319604391,0.0,4.506502628326416,-1.218412160873413,-0.0,2.1909077167510986,4.772447432368555,0.0,0.29081279039382935,-1.638308350239889,-0.0,-0.005994482897222042,0.6322171092033386,-0.0,0.0009496116545051336,1.3144605159759521,0.0,-0.03206021338701248
129.0,170.0,0.5474,0.7394,9.5803,-0.0344,0.031,-0.1138,-2.143585344354147,0.0,4.466968059539795,-1.218408465385437,-0.0,2.1418068408966064,4.77248394393877,0.0,0.29292067885398865,-1.6382320562945765,-0.0,0.00034428498474881053,0.6321612000465393,-0.0,0.0014830816071480513,1.3144524097442627,0.0,0.06109459698200226
129.0,170.0,0.5474,0.7394,9.5803,-0.0344,0.031,-0.1138,-2.1435610256590785,0.0,4.522614479064941,-1.218440055847168,-0.0,2.140486240386963,4.772423258959808,0.0,0.2877348065376282,-1.6382682959186,-0.0,-0.002234682207927108,0.6321889162063599,-0.0,0.004084792919456959,1.3144727945327759,0.0,-0.02383948676288128
129.0,170.0,0.5474,0.7394,9.5803,-0.0344,0.031,-0.1138,-2.1435729465880335,0.0,4.4720306396484375,-1.2183681726455688,-0.0,2.1435546875,4.772431469499626,0.0,0.294471800327301,-1.6382721106158655,-0.0,0.009653374552726746,0.6321850419044495,-0.0,0.0019080559723079205,1.3144645690917969,0.0,0.03197123855352402
129.0,170.0,0.5474,0.7394,9.5803,-0.0344,0.031,-0.1138,-2.1435653171935023,0.0,4.467510223388672,-1.2183959484100342,-0.0,2.141207218170166,4.77243563809947,0.0,0.28212684392929077,-1.6382840315448206,-0.0,-0.010028152726590633,0.6321571469306946,-0.0,0.0016177153447642922,1.3144564628601074,0.0,0.03190085291862488
129.0,170.0,0.5474,0.7394,9.5803,-0.0344,0.031,-0.1138,-2.1435896358885707,0.0,4.489012718200684,-1.2184642553329468,-0.0,2.1831188201904297,4.77245161214427,0.0,0.3023988902568817,-1.6382563749896448,-0.0,0.0002800116781145334,0.6321731209754944,-0.0,-0.001749036367982626,1.3144283294677734,0.0,0.0554918609559536
129.0,170.0,0.5474,0.7394,9.5803,-0.0344,0.031,-0.1138,-2.1435653171935023,0.0,4.488655090332031,-1.2184321880340576,-0.0,2.1757452487945557,4.772447469621458,0.0,0.2907259464263916,-1.6382883230792444,-0.0,0.007273104041814804,0.6322209239006042,-0.0,0.008513535372912884,1.3144687414169312,0.0,0.016350332647562027
129.0,170.0,0.5474,0.7394,9.5803,-0.0344,0.031,-0.1138,-2.1435934505858363,0.0,4.481965065002441,-1.2184042930603027,-0.0,2.179640054702759,4.772443390428581,0.0,0.3013725280761719,-1.6382601896869105,-0.0,-0.01472152303904295,0.6321849822998047,-0.0,0.0018370390171185136,1.3144482374191284,0.0,-0.028503207489848137
129.0,170.0,0.5474,0.7394,9.5803,-0.0344,0.031,-0.1138,-2.143517156640524,0.0,4.473262310028076,-1.2183961868286133,-0.0,2.1349294185638428,4.772463752865352,0.0,0.2935236990451813,-1.638336483632223,-0.0,-7.22082331776619e-05,0.6322011351585388,-0.0,-0.0002487371675670147,1.3144563436508179,0.0,0.030690040439367294
129.0,170.0,0.5474,0.7394,9.5803,-0.0344,0.031,-0.1138,-2.1435848675169886,0.0,4.473124027252197,-1.218412160873413,-0.0,2.1264564990997314,4.772455702513017,0.0,0.2780578136444092,-1.6383326689349573,-0.0,-0.0031630322337150574,0.6321337223052979,-0.0,0.0006477719871327281,1.3144282102584839,0.0,0.00842367485165596
133.0,173.0,0.4696,0.7023,9.7645,-0.0359,0.0275,-0.1246,-2.1435452900328578,0.0,4.502607822418213,-1.218408465385437,-0.0,2.1535120010375977,4.772431462049045,0.0,0.2949293255805969,-1.6383283774005335,-0.0,-0.004587851464748383,0.6321892738342285,-0.0,-0.007775407284498215,1.3145049810409546,0.0,-0.05116111785173416
133.0,173.0,0.4696,0.7023,9.7645,-0.0359,0.0275,-0.1246,-2.1435653171935023,0.0,4.482083320617676,-1.2184162139892578,-0.0,2.1592178344726562,4.772455672710695,0.0,0.2827429175376892,-1.6382563749896448,-0.0,0.007681360933929682,0.6321769952774048,-0.0,-0.002672294620424509,1.3145009279251099,0.0,-0.00964354258030653
133.0,173.0,0.4696,0.7023,9.7645,-0.0359,0.0275,-0.1246,-2.1435653171935023,0.0,4.472190856933594,-1.218392014503479,-0.0,2.135667324066162,4.772459710925379,0.0,0.2832910418510437,-1.638308350239889,-0.0,-0.0005056220106780529,0.6321971416473389,-0.0,0.0022781130392104387,1.314468264579773,0.0,0.016875192523002625
133.0,173.0,0.4696,0.7023,9.7645,-0.0359,0.0275,-0.1246,-2.143581052819723,0.0,4.515579700469971,-1.218412160873413,-0.0,2.1068334579467773,4.772479782789507,0.0,0.2951449751853943,-1.6382196585284632,-0.0,-0.0005153062520548701,0.6322287917137146,-0.0,-0.005954860243946314,1.3144563436508179,0.0,0.027331050485372543
133.0,173.0,0.4696,0.7023,9.7645,-0.0359,0.0275,-0.1246,-2.143569131890768,0.0,4.475162506103516,-1.218428134918213,-0.0,2.1773927211761475,4.77245161214427,0.0,0.2915421426296234,-1.6382363478290003,-0.0,1.19856558740139e-05,0.6321691274642944,-0.0,-0.008291258476674557,1.3144805431365967,0.0,-0.00012908270582556725
133.0,173.0,0.4696,0.7023,9.7645,-0.0359,0.0275,-0.1246,-2.1436335049071253,0.0,4.46849250793457,-1.2184162139892578,-0.0,2.142453670501709,4.7725077522690675,0.0,0.2819349467754364,-1.638264004384176,-0.0,-0.002929124515503645,0.6322011947631836,-0.0,-0.005391102749854326,1.3144805431365967,0.0,0.013147090561687946
133.0,173.0,0.4696,0.7023,9.7645,-0.0359,0.0275,-0.1246,-2.143540998498434,0.0,4.450489044189453,-1.218400239944458,-0.0,2.1273083686828613,4.772463786392965,0.0,0.28765103220939636,-1.638280216847555,-0.0,0.0055490522645413876,0.6321889162063599,-0.0,-0.021579613909125328,1.3144805431365967,0.0,-0.038134556263685226
133.0,173.0,0.4696,0.7023,9.7645,-0.0359,0.0275,-0.1246,-2.143625398675436,0.0,4.488142967224121,-1.2184321880340576,-0.0,2.1685056686401367,4.772431469499626,0.0,0.2832455635070801,-1.6382482687579554,-0.0,-0.004597910679876804,0.6321611404418945,-0.0,-0.008785828948020935,1.3144441843032837,0.0,0.010442984290421009
133.0,173.0,0.4696,0.7023,9.7645,-0.0359,0.0275,-0.1246,-2.143557210961813,0.0,4.534454822540283,-1.2184244394302368,-0.0,2.153038263320923,4.772483925312319,0.0,0.2968502640724182,-1.6383002440081995,-0.0,-0.0016596503555774689,0.6321651339530945,-0.0,-0.0011727805249392986,1.3144524097442627,0.0,-0.017574738711118698
133.0,173.0,0.4696,0.7023,9.7645,-0.0359,0.0275,-0.1246,-2.1435772381224574,0.0,4.461217403411865,-1.2184157371520996,-0.0,2.148303270339966,4.772415514081278,0.0,0.29999199509620667,-1.6382721106158655,-0.0,0.0014135995879769325,0.6322209239006042,-0.0,-0.0005497860256582499,1.3144564628601074,0.0,-0.012304045259952545
133.0,173.0,0.4696,0.7023,9.7645,-0.0359,0.0275,-0.1246,-2.1435772381224574,0.0,4.418129920959473,-1.2184042930603027,-0.0,2.170231342315674,4.772439329862156,0.0,0.28315210342407227,-1.6382926146136683,-0.0,0.005073266103863716,0.632192850112915,-0.0,0.010267525911331177,1.3144365549087524,0.0,0.034357428550720215
133.0,173.0,0.4696,0.7023,9.7645,-0.0359,0.0275,-0.1246,-2.1436172924437464,0.0,4.481075286865234,-1.2183961868286133,-0.0,2.173574686050415,4.77247569987134,0.0,0.28928956389427185,-1.6382806936847132,-0.0,-0.013480640016496181,0.6321572661399841,-0.0,0.008842090144753456,1.3144201040267944,0.0,-0.028457866981625557
133.0,173.0,0.4696,0.7023,9.7645,-0.0359,0.0275,-0.1246,-2.143557210961813,0.0,4.516636848449707,-1.2184321880340576,-0.0,2.089397668838501,4.772459710925379,0.0,0.3017561435699463,-1.6382840315448206,-0.0,0.003373036626726389,0.6322170495986938,-0.0,-0.0055811116471886635,1.3144605159759521,0.0,0.025967799127101898
133.0,173.0,0.4696,0.7023,9.7645,-0.0359,0.0275,-0.1246,-2.1436015568175257,0.0,4.462769031524658,-1.218375563621521,-0.0,2.127920627593994,4.772487628250875,0.0,0.29226773977279663,-1.6383245627032679,-0.0,-0.0036676933523267508,0.632145345211029,-0.0,0.009175297804176807,1.3144845962524414,0.0,-0.03772185742855072
129.0,177.0,0.5509,0.6078,9.4463,-0.0406,0.0119,-0.1168,-2.1435934505858363,0.0,4.515754222869873,-1.2184724807739258,-0.0,2.111901044845581,4.772472052812137,0.0,0.28096044063568115,-1.6382959524737757,-0.0,-0.005074447952210903,0.6321572065353394,-0.0,-0.004704723134636879,1.3144605159759521,0.0,0.015186543576419353
129.0,177.0,0.5509,0.6078,9.4463,-0.0406,0.0119,-0.1168,-2.143597265283102,0.0,4.511849880218506,-1.218392014503479,-0.0,2.1350789070129395,4.772447469621458,0.0,0.2935090661048889,-1.6382959524737757,-0.0,-0.006308186799287796,0.6321849822998047,-0.0,-0.009193150326609612,1.3144524097442627,0.0,-0.021184565499424934
129.0,177.0,0.5509,0.6078,9.4463,-0.0406,0.0119,-0.1168,-2.1435772381224574,0.0,4.483072280883789,-1.2184199094772339,-0.0,2.1718108654022217,4.772472011833944,0.0,0.2798402011394501,-1.6382721106158655,-0.0,0.009873852133750916,0.6321532726287842,-0.0,-0.0032802391797304153,1.3144805431365967,0.0,-0.014073130674660206
129.0,177.0,0.5509,0.6078,9.4463,-0.0406,0.0119,-0.1168,-2.1435772381224574,0.0,4.446341037750244,-1.218403935432434,-0.0,2.1690726280212402,4.772467537760296,0.0,0.2880953550338745,-1.6383283774005335,-0.0,-0.0037880553863942623,0.6321097016334534,-0.0,0.003337634028866887,1.3144928216934204,0.0,-0.013335666619241238
129.0,177.0,0.5509,0.6078,9.4463,-0.0406,0.0119,-0.1168,-2.1435452900328578,0.0,4.499063491821289,-1.2184481620788574,-0.0,2.157463550567627,4.772488079011001,0.0,0.28991273045539856,-1.638280216847555,-0.0,0.00229041650891304,0.6321534514427185,-0.0,0.0057510570622980595,1.3145211935043335,5.009155211155303e-05,-0.0241929292678833
129.0,177.0,0.5509,0.6078,9.4463,-0.0406,0.0119,-0.1168,-2.143609186212057,0.0,4.448200702667236,-1.2184125185012817,-0.0,2.1318562030792236,4.772443368076839,0.0,0.287367582321167,-1.6383078734027308,-0.0,-0.007635933347046375,0.6321690082550049,-0.0,-0.013895297423005104,1.314468264579773,0.0002749421400949359,-0.04031659662723541
129.0,177.0,0.5509,0.6078,9.4463,-0.0406,0.0119,-0.1168,-2.143597265283102,0.0,4.4868550300598145,-1.2184202671051025,-0.0,2.07891845703125,4.772439307510414,0.0,0.2845999002456665,-1.6382721106158655,-0.0,-0.006086316891014576,0.6321770548820496,-0.0,-2.884306013584137e-05,1.3145127296447754,0.00031802206649445,-0.004894630517810583
129.0,177.0,0.5509,0.6078,9.4463,-0.0406,0.0119,-0.1168,-2.1435729465880335,0.0,4.519749641418457,-1.218408465385437,-0.0,2.1828086376190186,4.772488049208679,0.0,0.2901604473590851,-1.6383045355426233,-0.0,-0.004172850400209427,0.6321848630905151,-0.0,0.00248648039996624,1.3144886493682861,0.0004976944765076041,0.03097413294017315
129.0,177.0,0.5509,0.6078,9.4463,-0.0406,0.0119,-0.1168,-2.1435934505858363,0.0,4.490949630737305,-1.2183796167373657,-0.0,2.187504291534424,4.772463786392965,0.0,0.2859545350074768,-1.6383040587054651,-0.0,-0.010018851608037949,0.632217288017273,-0.0,-0.008062525652348995,1.3145287036895752,0.00044838766916655004,0.011925028637051582
129.0,177.0,0.5509,0.6078,9.4463,-0.0406,0.0119,-0.1168,-2.1435934505858363,0.0,4.5166449546813965,-1.2184325456619263,-0.0,2.1030139923095703,4.77249954917983,0.0,0.29245245456695557,-1.6383045355426233,-0.0,-0.011474734172224998,0.6321730613708496,-0.0,0.0008477095980197191,1.3145169019699097,0.00041877556941471994,-0.018951162695884705
129.0,177.0,0.5509,0.6078,9.4463,-0.0406,0.0119,-0.1168,-2.143585344354147,0.0,4.477122783660889,-1.2183879613876343,-0.0,2.1501176357269287,4.772483966290512,0.0,0.28992021083831787,-1.638336483632223,-0.0,-0.0022775225806981325,0.6321690082550049,-0.0,-0.007294526323676109,1.3145005702972412,0.000349140987964347,0.0323064923286438
129.0,177.0,0.5509,0.6078,9.4463,-0.0406,0.0119,-0.1168,-2.1436411343016566,0.0,4.4866790771484375,-1.218460202217102,-5.8850107946539776e-12,2.1769816875457764,4.772463801294126,0.0,0.2697639763355255,-1.63829213777651,-0.0,-0.006030119024217129,0.6322013139724731,-0.0,0.002926210407167673,1.3145005702972412,0.0002993642119690776,0.0007397159934043884
129.0,177.0,0.5509,0.6078,9.4463,-0.0406,0.0119,-0.1168,-2.143541475335592,0.0,4.51849889755249,-1.2183681726455688,-1.4211606470177582e-17,2.1262035369873047,4.772491703718462,0.0,0.29085344076156616,-1.6382764021502894,-0.0,-0.01181524246931076,0.6321972012519836,-0.0,0.0001848498359322548,1.3144805431365967,0.0002620104351080954,0.009877897799015045
129.0,177.0,0.5509,0.6078,9.4463,-0.0406,0.0119,-0.1168,-2.1436053715147914,0.0,4.513695240020752,-1.2183804512023926,-3.431935897176029e-23,2.134190082550049,4.772455601930179,0.0,0.27982819080352783,-1.6382682959186,-0.0,-0.0019187466241419315,0.6322013139724731,-0.0,0.0033397083170711994,1.3144845962524414,0.000232945429161191,-0.0025996551848948
129.0,177.0,0.5509,0.6078,9.4463,-0.0406,0.0119,-0.1168,-2.1435848675169886,0.0,4.486989974975586,-1.2184202671051025,-8.287721921997915e-29,2.1613736152648926,4.7724474658961675,0.0,0.29112935066223145,-1.6382840315448206,-0.0,0.0031484628561884165,0.6321414113044739,-0.0,-0.005687336903065443,1.3145127296447754,7.692578947171569e-05,-0.009952884167432785
126.0,170.0,0.5844,0.8596,9.6592,-0.0252,0.0037,-0.1255,-2.1435772381224574,0.0,4.4968156814575195,-1.2184441089630127,-2.0013872685716705e-34,2.1016640663146973,4.772451627045431,0.0,0.28721487522125244,-1.6383002440081995,-0.0,-0.004628635477274656,0.6321690082550049,-0.0,0.004093332216143608,1.3144642114639282,6.768611638108268e-05,0.021363260224461555
126.0,170.0,0.5844,0.8596,9.6592,-0.0252,0.0037,-0.1255,-2.1435891590514125,0.0,4.484525680541992,-1.2184042930603027,-4.833120442410224e-40,2.1425235271453857,4.772463771491804,0.0,0.28442347049713135,-1.6383045355426233,-0.0,0.009424549527466297,0.6322013139724731,-0.0,-0.0017135870875790715,1.314476490020752,6.082427717046812e-05,-0.0030145845375955105
126.0,170.0,0.5844,0.8596,9.6592,-0.0252,0.0037,-0.1255,-2.1435729465880335,0.0,4.4462480545043945,-1.2184162139892578,-1.401298464324817e-45,2.1831889152526855,4.7724637789423845,0.0,0.2764465808868408,-1.6383245627032679,-0.0,0.010527173057198524,0.6322214007377625,-0.0,0.0003378981491550803,1.3145087957382202,5.522568608284928e-05,0.04172615334391594
126.0,170.0,0.5844,0.8596,9.6592,-0.0252,0.0037,-0.1255,-2.143613477746481,0.0,4.4630126953125,-1.2184362411499023,-0.0,2.1671862602233887,4.772411412536659,0.0,0.28899210691452026,-1.6382840315448206,-0.0,-0.0011703477939590812,0.6321612000465393,-0.0,-0.012280868366360664,1.3144845962524414,5.0570950406836346e-05,-0.007792510557919741
126.0,170.0,0.5844,0.8596,9.6592,-0.0252,0.0037,-0.1255,-2.143613477746481,0.0,4.477993965148926,-1.2184523344039917,-0.0,2.156968832015991,4.772419649153509,0.0,0.2909717559814453,-1.638280216847555,-0.0,-0.02095114067196846,0.6321611404418945,-0.0,-0.002025389578193426,1.314504623413086,4.6639859647257254e-05,-0.07749024033546448
126.0,170.0,0.5844,0.8596,9.6592,-0.0252,0.0037,-0.1255,-2.143609186212057,0.0,4.498957633972168,-1.218400239944458,-0.0,2.1726388931274414,4.772483508079805,0.0,0.2939644455909729,-1.6383045355426233,-0.0,-0.008783913217484951,0.6321972012519836,-0.0,-0.010815884917974472,1.3145169019699097,4.327588248997927e-05,0.00369827076792717
126.0,170.0,0.5844,0.8596,9.6592,-0.0252,0.0037,-0.1255,-2.1435772381224574,0.0,4.5042314529418945,-1.2184202671051025,-0.0,2.1347272396087646,4.772443416505613,0.0,0.2841259241104126,-1.6382959524737757,-0.0,-0.0004954013274982572,0.6321690082550049,-0.0,0.004818137269467115,1.3144845962524414,4.036454265587963e-05,0.007774089463055134
126.0,170.0,0.5844,0.8596,9.6592,-0.0252,0.0037,-0.1255,-2.1435729465880335,0.0,4.517760753631592,-1.2184807062149048,-0.0,2.1403512954711914,4.772411412536659,0.0,0.29139500856399536,-1.6382444540606897,-0.0,-0.013058681972324848,0.6321890354156494,-0.0,0.0017337246099486947,1.3144845962524414,3.7820231227669865e-05,0.004534372594207525
126.0,170.0,0.5844,0.8596,9.6592,-0.0252,0.0037,-0.1255,-2.1435729465880335,0.0,4.4859619140625,-1.2184284925460815,-0.0,2.1592392921447754,4.77246796244339,0.0,0.29210370779037476,-1.6382764021502894,-0.0,-0.001823572674766183,0.6321766972541809,-0.0,0.013541515916585922,1.3145087957382202,3.5577642847783864e-05,-0.0067214337177574635
126.0,170.0,0.5844,0.8596,9.6592,-0.0252,0.0037,-0.1255,-2.143625398675436,0.0,4.479379653930664,-1.218408465385437,-0.0,2.137514591217041,4.772443349450388,0.0,0.2792707681655884,-1.6382840315448206,-0.0,-0.004421237390488386,0.632253110408783,-0.0,0.0008728096727281809,1.314476490020752,3.3586155041120946e-05,0.006985866464674473
126.0,170.0,0.5844,0.8596,9.6592,-0.0252,0.0037,-0.1255,-2.1435896358885707,0.0,4.478396415710449,-1.2183961868286133,-0.0,2.160684108734131,4.772443368076839,5.115097234664745e-10,0.29230818152427673,-1.6383121649371546,-0.0,-0.001362030627205968,0.6321889758110046,-0.0,0.007460707798600197,1.3145287036895752,6.353723438223824e-05,-0.05397656187415123
126.0,170.0,0.5844,0.8596,9.6592,-0.0252,0.0037,-0.1255,-2.1435848675169886,0.0,4.471638202667236,-1.2183961868286133,-0.0,2.185201406478882,4.772459696024217,1.4238060058215096e-13,0.28591978549957275,-1.6383197943316858,-0.0,-0.0017687490908429027,0.6322214007377625,-0.0,-0.00857447274029255,1.3145042657852173,0.00011806322436314076,-0.004643213003873825
126.0,170.0,0.5844,0.8596,9.6592,-0.0252,0.0037,-0.1255,-2.1436172924437464,0.0,4.4543375968933105,-1.2184244394302368,-0.0,2.1411924362182617,4.772479797690668,3.963216536749383e-17,0.27916690707206726,-1.6382878462420862,-0.0,-0.007235188968479633,0.6321771144866943,-0.0,0.0015018020058050752,1.3145523071289062,0.003949644975364208,0.03188152238726616
126.0,170.0,0.5844,0.8596,9.6592,-0.0252,0.0037,-0.1255,-2.1435610256590785,0.0,4.523470401763916,-1.2183481454849243,-0.0,2.1325018405914307,4.772459710925379,1.103175886279881e-20,0.28388452529907227,-1.6383441130267542,-0.0,-0.0014652044046670198,0.6321930885314941,-0.0,0.012417461723089218,1.314612865447998,0.007611813023686409,0.02895134687423706
126.0,170.0,0.5844,0.8596,9.6592,-0.0252,0.0037,-0.1255,-2.1435934505858363,0.0,4.504221439361572,-1.218408226966858,-0.0,2.156970500946045,4.772435615747728,3.0707302148550784e-24,0.29348301887512207,-1.6383522192584437,-0.0,-0.000746910460293293,0.632148802280426,-0.0,-0.0029303061310201883,1.3146196603775024,0.009227373637259007,0.008890628814697266
131.0,176.0,0.5809,0.853,9.4086,-0.0331,0.0205,-0.1219,-2.143609186212057,0.0,4.465663433074951,-1.2184202671051025,-0.0,2.1744143962860107,4.772515955358305,8.547491834379352e-28,0.2736542224884033,-1.6383522192584437,-0.0,-0.005852912552654743,0.6321611404418945,-0.0,-0.0003219387726858258,1.3147242069244385,0.010370032861828804,0.007715318817645311
131.0,176.0,0.5809,0.853,9.4086,-0.0331,0.0205,-0.1219,-2.1435848675169886,0.0,4.505911827087402,-1.2183722257614136,0.0003457015845924616,2.107288122177124,4.772495782911339,2.3792254865445473e-31,0.2840740382671356,-1.6383360067950647,-0.0,-0.006089112721383572,0.6321447491645813,-0.0,-0.018270650878548622,1.3148250579833984,0.011594007723033428,0.016957618296146393
131.0,176.0,0.5809,0.853,9.4086,-0.0331,0.0205,-0.1219,-2.143569131890768,0.0,4.506694316864014,-1.2184125185012817,0.00030508855707012117,2.136693239212036,4.7725077261920354,6.622662278107692e-35,0.2956380546092987,-1.6383159796344202,-0.0,-0.009747197851538658,0.6322214007377625,-0.0,-0.003275918774306774,1.3148846626281738,0.014172651804983616,-0.011094100773334503
131.0,176.0,0.5809,0.853,9.4086,-0.0331,0.0205,-0.1219,-2.1435729465880335,0.0,4.520052433013916,-1.2183959484100342,0.00026086869183927774,2.1494059562683105,4.772459710925379,1.8434426017615192e-38,0.2935778498649597,-1.6383398214923304,-0.0,0.006876700557768345,0.6322214007377625,-0.0,-0.0046320827677845955,1.3149889707565308,0.01714686118066311,0.019148558378219604
131.0,176.0,0.5809,0.853,9.4086,-0.0331,0.0205,-0.1219,-2.143621107141012,0.0,4.541092395782471,-1.2183401584625244,0.00022784531756769866,2.1353259086608887,4.772495782911339,5.13155497635748e-42,0.28928592801094055,-1.638404671345846,-0.0,-0.010415494441986084,0.6321849822998047,-0.0,0.00769663043320179,1.315121054649353,0.01947074383497238,0.04709469899535179
131.0,176.0,0.5809,0.853,9.4086,-0.0331,0.0205,-0.1219,-2.1435934505858363,0.0,4.491813659667969,-1.2183763980865479,0.00020224372565280646,2.1218018531799316,4.772499940335312,1.401298464324817e-45,0.29125118255615234,-1.6383283774005335,-0.0,0.002425779588520527,0.6322414875030518,-0.0,-0.004503290634602308,1.3152409791946411,0.022509342059493065,0.041415952146053314
131.0,176.0,0.5809,0.853,9.4086,-0.0331,0.0205,-0.1219,-2.1436015568175257,0.0,4.443190097808838,-1.218352198600769,0.00015151244588196278,2.121948719024658,4.772475681244888,0.0,0.2863239049911499,-1.638331715260641,-0.0,0.004316957667469978,0.6322131156921387,-0.0,0.01201697438955307,1.3153328895568848,0.022075818851590157,0.04823543131351471
131.0,176.0,0.5809,0.853,9.4086,-0.0331,0.0205,-0.1219,-2.1436530552306117,0.0,4.5033111572265625,-1.2183763980865479,0.00013761207810603082,2.1032016277313232,4.772451627045431,0.0,0.29106009006500244,-1.638376537953512,-0.0,-0.010749815963208675,0.6322053670883179,-0.0,-0.01057142112404108,1.315433144569397,0.01990525610744953,0.009072212502360344
131.0,176.0,0.5809,0.853,9.4086,-0.0331,0.0205,-0.1219,-2.1436053715147914,0.0,4.495072364807129,-1.2183959484100342,0.00012604796211235225,2.1121342182159424,4.772455717414179,0.0,0.30060556530952454,-1.6382997671710413,-0.0,-0.003113428596407175,0.6322013139724731,-0.0,-0.005845201667398214,1.3155810832977295,0.018027126789093018,0.024569880217313766
131.0,176.0,0.5809,0.853,9.4086,-0.0331,0.0205,-0.1219,-2.143609186212057,0.0,4.5043182373046875,-1.2183959484100342,0.00013510711141861975,2.1670777797698975,4.772455702513017,0.0,0.29011255502700806,-1.638320271168844,-0.0,0.0012925880728289485,0.6321730613708496,-0.0,0.0007234872318804264,1.3156970739364624,0.016563331708312035,0.02869107946753502
131.0,176.0,0.5809,0.853,9.4086,-0.0331,0.0205,-0.1219,-2.143633028069967,0.0,4.50394344329834,-1.2184206247329712,0.000126461818581447,2.152195930480957,4.772467943816938,0.0,0.28179746866226196,-1.6382883230792444,-0.0,0.0012897569686174393,0.6322053074836731,-0.0,-0.00020232277165632695,1.3157809972763062,0.014505320228636265,0.04689399525523186
131.0,176.0,0.5809,0.853,9.4086,-0.0331,0.0205,-0.1219,-2.1436015568175257,0.0,4.4257683753967285,-1.2183845043182373,0.00013758351269643754,2.137758255004883,4.772455702513017,0.0,0.29126179218292236,-1.6383121649371546,-0.0,-0.004997174255549908,0.632157027721405,-0.0,-0.007070329040288925,1.315877079963684,0.015078169293701649,-0.008204803802073002
131.0,176.0,0.5809,0.853,9.4086,-0.0331,0.0205,-0.1219,-2.143597265283102,0.0,4.48264217376709,-1.2184206247329712,0.00013390705862548202,2.190457344055176,4.772467943816938,0.0,0.2845636010169983,-1.6383321920977991,-0.0,-0.009755000472068787,0.6322012543678284,-0.0,0.0030538924038410187,1.3159935474395752,0.014888806268572807,-0.007936844602227211
131.0,176.0,0.5809,0.853,9.4086,-0.0331,0.0205,-0.1219,-2.143613477746481,0.0,4.4864959716796875,-1.2183442115783691,0.0001864434452727437,2.1494154930114746,4.772455702513017,0.0,0.27679193019866943,-1.6382840315448206,-0.0,0.00802286434918642,0.6321529746055603,-0.0,-0.007708677090704441,1.3161011934280396,0.01508019957691431,-0.0017425689147785306
128.0,166.0,0.6766,1.5368,9.4367,0.0,0.016,-0.0857,-2.143637319604391,0.0,4.482443809509277,-1.2183927297592163,0.0007128741126507521,2.1182847023010254,4.772435630648889,0.0,0.2940364181995392,-1.6383321920977991,-0.0,-0.006125606596469879,0.6321690082550049,-0.0,-0.006809011101722717,1.3161453008651733,0.013296878896653652,-0.00029721041209995747
128.0,166.0,0.6766,1.5368,9.4367,0.0,0.016,-0.0857,-2.14365353206777,0.0,4.488126754760742,-1.2183606624603271,0.000579541374463588,2.144881248474121,4.772435630648889,0.0,0.28602367639541626,-1.638376537953512,-0.0,-0.0008902954868972301,0.6321250200271606,-0.0,-0.00023313891142606735,1.3162087202072144,0.01219768263399601,0.032184161245822906
128.0,166.0,0.6766,1.5368,9.4367,0.0,0.016,-0.0857,-2.1436616382994593,0.0,4.487424850463867,-1.218336820602417,0.0005111538921482861,2.1583642959594727,4.772431469499626,0.0,0.28730085492134094,-1.638331715260641,-0.0,-0.004038086161017418,0.6321852803230286,-0.0,-0.00044202894787304103,1.316292643547058,0.011197159066796303,0.03975384682416916
128.0,166.0,0.6766,1.5368,9.4367,0.0,0.016,-0.0857,-2.1436454258360804,0.0,4.483059883117676,-1.2183122634887695,0.0004700357385445386,2.1645262241363525,4.772431469499626,0.0,0.2960265576839447,-1.6383240858661097,-0.0,0.015111563727259636,0.6321771144866943,-0.0,-0.01117311418056488,1.3163570165634155,0.010867025703191757,0.03545139729976654
128.0,166.0,0.6766,1.5368,9.4367,0.0,0.016,-0.0857,-2.1436172924437464,0.0,4.522590637207031,-1.2183606624603271,0.0004414107243064791,2.1563658714294434,4.772479782789507,0.0,0.28522738814353943,-1.6383073965655726,-1.750008414092008e-05,0.0013022790662944317,0.6321890354156494,-0.0,-0.009195858612656593,1.3164485692977905,0.012157394550740719,0.014076662249863148
128.0,166.0,0.6766,1.5368,9.4367,0.0,0.016,-0.0857,-2.1436292133727015,0.0,4.463646411895752,-1.218292474746704,0.001188352587632835,2.1994879245758057,4.772443390428581,0.0,0.29108917713165283,-1.638331715260641,-1.611566767678596e-05,0.0020046525169163942,0.6321250796318054,-0.0,-0.0034021041356027126,1.3165446519851685,0.014172270894050598,0.05895072966814041
128.0,166.0,0.6766,1.5368,9.4367,0.0,0.016,-0.0857,-2.143665452996725,-0.00016427141963504255,4.4943952560424805,-1.2183125019073486,0.0020908075384795666,2.1555206775665283,4.772455702513017,0.0,0.28945475816726685,-1.6383159796344202,-1.3293180245455005e-07,-0.007005311083048582,0.6321651339530945,-0.0,-0.0006555598229169846,1.3166005611419678,0.015146673657000065,-0.02201767824590206
128.0,166.0,0.6766,1.5368,9.4367,0.0,0.016,-0.0857,-2.1437131367125453,-0.00025308452313765883,4.516557693481445,-1.2182561159133911,0.00314759137108922,2.1566343307495117,4.772371578007498,0.0,0.29349851608276367,-1.6383040587054651,-3.7002057667878674e-11,-0.0007206402951851487,0.6321611404418945,-0.0,-0.008934848941862583,1.3166847229003906,0.015212910249829292,-0.035902392119169235
128.0,166.0,0.6766,1.5368,9.4367,0.0,0.016,-0.0857,-2.1436974010863246,-0.0010823578340932727,4.499124050140381,-1.2182241678237915,0.00509918387979269,2.1770620346069336,4.77246796989397,0.0,0.2862182855606079,-1.6383240858661097,-1.0299658058398643e-14,-0.00360182230360806,0.6321931481361389,-0.0,-0.00683091813698411,1.3167520761489868,0.01402959879487753,-0.029406875371932983
128.0,166.0,0.6766,1.5368,9.4367,0.0,0.016,-0.0857,-2.14370121578359,-0.0021506240591406822,4.497511863708496,-1.2182692289352417,0.0065672919154167175,2.155824661254883,4.772443800210514,0.0,0.2928923964500427,-1.6383441130267542,-2.8669476189240776e-18,-0.002210485516116023,0.6321171522140503,-1.0131394390100468e-07,-0.01432131789624691,1.316909670829773,0.013229512609541416,0.0166601724922657
128.0,166.0,0.6766,1.5368,9.4367,0.0,0.016,-0.0857,-2.1437374554076136,-0.0031822011806070805,4.477356433868408,-1.2181971073150635,0.006298694293946028,2.1413049697875977,4.772403943329611,0.0,0.28242960572242737,-1.6383197943316858,-7.980254242122136e-22,0.001187295070849359,0.6321049332618713,-2.8201109850134465e-11,-0.019120031967759132,1.3169565200805664,0.012852994725108147,-0.008093503303825855
128.0,166.0,0.6766,1.5368,9.4367,0.0,0.016,-0.0857,-2.143773695031637,-0.004476331640034914,4.516689777374268,-1.2181090116500854,0.00668110279366374,2.158212184906006,4.772420260101118,0.0,0.2772040367126465,-1.6383321920977991,-2.221333208451151e-25,-0.005612542387098074,0.6321291923522949,-7.849883767909859e-15,-0.014661798253655434,1.3170204162597656,0.012501496821641922,0.06833475828170776
128.0,166.0,0.6766,1.5368,9.4367,0.0,0.016,-0.0857,-2.1437813244261683,-0.0034319243859499693,4.493091583251953,-1.2181172370910645,0.006275916937738657,2.1639657020568848,4.772399756103315,0.0,0.2819335162639618,-1.638308350239889,-6.183163178974979e-29,-0.0075143142603337765,0.632217526435852,-2.1850439101731256e-18,-0.012446524575352669,1.3170926570892334,0.012054995633661747,-0.023153990507125854
128.0,166.0,0.6766,1.5368,9.4367,0.0,0.016,-0.0857,-2.1438094578185023,-0.0020182859152555466,4.51051139831543,-1.218029260635376,0.007124022580683231,2.1175343990325928,4.772392007499494,0.0,0.285709410905838,-1.638280216847555,-1.7211060781650002e-32,-0.012317441403865814,0.6321454644203186,-6.0821493861257e-22,-0.005189393647015095,1.317164659500122,0.01096673496067524,0.042837709188461304
128.0,166.0,0.6766,1.5368,9.4367,0.0,0.016,-0.0857,-2.143801351586813,-0.0011793376179412007,4.531406879425049,-1.2180291414260864,0.007781585678458214,2.1943275928497314,4.772403943329611,0.0,0.27515101432800293,-1.6383002440081995,-4.790761521594329e-36,-0.008165980689227581,0.6321811079978943,-1.6929889333177534e-25,-0.017633743584156036,1.317192554473877,0.010315991938114166,0.013597767800092697
129.0,172.0,0.6407,1.0247,9.4534,-0.0076,0.0139,-0.1005,-2.1437531910338343,-0.0007905015954747796,4.498959064483643,-1.2179772853851318,0.007990099489688873,2.1306519508361816,4.772367789387264,-0.0002537793479859829,0.28345349431037903,-1.6383045355426233,-1.3335260653962116e-39,0.004532774910330772,0.6321611404418945,-4.712496892830704e-29,-0.029513705521821976,1.3173409700393677,0.009601606987416744,-0.007688112091273069
129.0,172.0,0.6407,1.0247,9.4534,-0.0076,0.0139,-0.1005,-2.143785139123434,-0.0005945729790255427,4.528159141540527,-1.217889428138733,0.008507110178470612,2.1629300117492676,4.772371931910076,-0.00021714071044698358,0.28944724798202515,-1.6383121649371546,-3.713440930460765e-43,-0.002089704154059291,0.6321331262588501,-1.3117410521119017e-32,-0.009528359398245811,1.317328691482544,0.009507900103926659,-0.037925027310848236
129.0,172.0,0.6407,1.0247,9.4534,-0.0076,0.0139,-0.1005,-2.143757482568258,-0.00047649568296037614,4.504240989685059,-1.2178778648376465,0.009388530626893044,2.1610567569732666,4.7724043419356725,-0.00022693572100251913,0.2913320064544678,-1.638308350239889,-0.0,-0.00649957126006484,0.6321454644203186,-1.556352572151809e-06,-0.01293744146823883,1.3173846006393433,0.009407887235283852,0.00752050057053566
129.0,172.0,0.6407,1.0247,9.4534,-0.0076,0.0139,-0.1005,-2.143785139123434,-0.0003975537547376007,4.452614784240723,-1.2177785634994507,0.010209078900516033,2.1779251098632812,4.772376026004114,-0.00020205622422508895,0.2935674786567688,-1.6382721106158655,-0.0,0.0049293371848762035,0.6321811079978943,-0.00019338844867888838,-0.011884864419698715,1.3174930810928345,0.009857307188212872,-0.041933588683605194
129.0,172.0,0.6407,1.0247,9.4534,-0.0076,0.0139,-0.1005,-2.1437889538206996,-0.00034105253871530294,4.492282867431641,-1.217786431312561,0.01006252784281969,2.1788225173950195,4.772403943329611,-0.00023432743910234421,0.2955876290798187,-1.6382721106158655,-0.0,-0.0016929969424381852,0.6321659088134766,-0.0002330632705707103,-0.016278263181447983,1.3175048828125,0.010426613502204418,-0.02879270911216736
129.0,172.0,0.6407,1.0247,9.4534,-0.0076,0.0139,-0.1005,-2.1438056431212367,-0.00019908951071556658,4.4439697265625,-1.2177067995071411,0.010071326047182083,2.14247989654541,4.772420260101118,-0.00025327238836325705,0.27812421321868896,-1.6383045355426233,-0.0,-0.008220750838518143,0.6321171522140503,-0.0006738597294315696,-0.019025906920433044,1.31758451461792,0.01084343995898962,-0.04163287207484245
129.0,172.0,0.6407,1.0247,9.4534,-0.0076,0.0139,-0.1005,-2.1438094578185023,-0.00024190242402255535,4.456275939941406,-1.2175941467285156,0.009597615338861942,2.1876749992370605,4.7723801014717,-0.000262337300227955,0.2910400927066803,-1.6382563749896448,-0.0,0.0042884559370577335,0.6320614218711853,-0.0007929388084448874,-0.02326604351401329,1.3176288604736328,0.012161774560809135,-0.003767916467040777
129.0,172.0,0.6407,1.0247,9.4534,-0.0076,0.0139,-0.1005,-2.1438332996764125,-0.000533294805791229,4.532715320587158,-1.2175546884536743,0.008712107315659523,2.1827311515808105,4.772400177061119,-0.0003003489982802421,0.28500914573669434,-1.6382482687579554,-0.0,0.007763102650642395,0.6321053504943848,-0.0008356504840776324,-0.019322706386446953,1.3177204132080078,0.013529553078114986,-0.0029339254833757877
129.0,172.0,0.6407,1.0247,9.4534,-0.0076,0.0139,-0.1005,-2.1438051662840785,-0.0006436674739234149,4.527735710144043,-1.2174867391586304,0.008160109631717205,2.1412675380706787,4.772344100266256,-0.0004522798117250204,0.28980904817581177,-1.6382644812213343,-0.0,0.0033715269528329372,0.6320696473121643,-0.00102398416493088,-0.032792869955301285,1.3177564144134521,0.015369100496172905,0.02187030203640461
129.0,172.0,0.6407,1.0247,9.4534,-0.0076,0.0139,-0.1005,-2.143825193444723,-0.00091777608031407,4.427184104919434,-1.2174991369247437,0.006900642067193985,2.2022697925567627,4.77233178818182,-0.000471162551548332,0.2881191074848175,-1.638235870991842,-0.0,-0.008740429766476154,0.6321536898612976,-0.0011826478876173496,-0.030682925134897232,1.3179131746292114,0.017708629369735718,-0.04954008758068085
129.0,172.0,0.6407,1.0247,9.4534,-0.0076,0.0139,-0.1005,-2.1438657246031703,-0.0007564632105641067,4.46287202835083,-1.2174872159957886,0.005659942980855703,2.1762590408325195,4.77238833808855,-0.00045182296889834106,0.2725938856601715,-1.6382764021502894,-0.0,0.010725846514105797,0.6320770382881165,-0.0012566611403599381,-0.037564292550086975,1.318016767501831,0.019853485748171806,-0.03137741982936859
129.0,172.0,0.6407,1.0247,9.4534,-0.0076,0.0139,-0.1005,-2.143797536889547,-0.0006034817779436707,4.466365814208984,-1.2174230813980103,0.004650842864066362,2.162595510482788,4.772344100266256,-0.000431155989645049,0.28903433680534363,-1.6382887999164026,0.00011788422852987424,0.01144709624350071,0.6320372819900513,-0.001665368559770286,-0.05204673111438751,1.3181004524230957,0.020800350233912468,-0.030650567263364792
129.0,172.0,0.6407,1.0247,9.4534,-0.0076,0.0139,-0.1005,-2.1438056431212367,-0.0005272049456834793,4.435070037841797,-1.2173831462860107,0.004051676951348782,2.1440463066101074,4.77235600629405,-0.00040309023461304605,0.2950173020362854,-1.638235870991842,0.00013118915376253426,0.021304387599229813,0.6321176290512085,-0.0033553873654454947,-0.0427175872027874,1.318272590637207,0.021132757887244225,-0.06652406603097916
129.0,172.0,0.6407,1.0247,9.4534,-0.0076,0.0139,-0.1005,-2.1437894306578578,-0.0004814921412616968,4.483429908752441,-1.2173831462860107,0.003862283658236265,2.14046049118042,4.772344100266256,-0.0003846226609311998,0.27578309178352356,-1.6382525602923792,0.00014323476352728903,0.010787781327962875,0.632021963596344,-0.008168605156242847,-0.04574941098690033,1.3183608055114746,0.021123720332980156,-0.051121678203344345
129.0,172.0,0.6407,1.0247,9.4534,-0.0076,0.0139,-0.1005,-2.1438452206053675,-0.0003375162195879966,4.434290885925293,-1.2173473834991455,0.003202966647222638,2.1754162311553955,4.7723161717648885,-0.0003707164723891765,0.29076337814331055,-1.6382606665240687,0.00015214491577353328,0.022361168637871742,0.631909966468811,-0.014642784371972084,-0.061223387718200684,1.3185497522354126,0.020590584725141525,-0.07397615909576416
127.0,175.0,0.585,0.7472,9.475,-0.0351,0.0302,-0.1184,-2.143869539300436,-0.0003854325623251498,4.454920291900635,-1.2173477411270142,0.003117225831374526,2.164015293121338,4.7723564123506925,-0.00033775297924876213,0.28316009044647217,-1.6382845083819788,0.0001442053762730211,0.010508839040994644,0.631826639175415,-0.013912906870245934,-0.059995606541633606,1.3185960054397583,0.020577680319547653,-0.10227137804031372
127.0,175.0,0.585,0.7472,9.475,-0.0351,0.0302,-0.1184,-2.1438452206053675,-0.000667994434479624,4.424571990966797,-1.2173398733139038,0.0028993708547204733,2.136678695678711,4.772276031761923,-0.0003297736111562699,0.2808529734611511,-1.6382163206683558,0.00020056222274433821,0.01105748862028122,0.6317789554595947,-0.008219435811042786,-0.06160978227853775,1.3187652826309204,0.019766664132475853,-0.15531741082668304
127.0,175.0,0.585,0.7472,9.475,-0.0351,0.0302,-0.1184,-2.143905302087301,-0.0013786955969408154,4.4240946769714355,-1.217295527458191,0.0025796478148549795,2.163431406021118,4.772356047272243,-0.0003251308808103204,0.2783353328704834,-1.6381881872760218,0.0002286025119246915,0.008795058354735374,0.6317592859268188,-0.003110037650913,-0.057381920516490936,1.3188645839691162,0.01857585273683071,-0.1613149642944336
127.0,175.0,0.585,0.7472,9.475,-0.0351,0.0302,-0.1184,-2.14384188274526,-0.0020588468760252,4.420322418212891,-1.217287302017212,0.002068056259304285,2.138953685760498,4.772312062769689,-0.00028394986293278635,0.27662351727485657,-1.638235870991842,0.00023275351850315928,0.026056179776787758,0.6317470073699951,-0.0010171339381486177,-0.06471540033817291,1.3189525604248047,0.016390224918723106,-0.1823388636112213
127.0,175.0,0.585,0.7472,9.475,-0.0351,0.0302,-0.1184,-2.1439219913878382,-0.0028809362556785345,4.4745378494262695,-1.217203140258789,0.0016539015341550112,2.1352739334106445,4.772320250957765,-0.00028342512086965144,0.2670675814151764,-1.638235870991842,0.00021024089073762298,0.03095303848385811,0.6317551136016846,-0.0006922652828507125,-0.0690094456076622,1.3190524578094482,0.014234687201678753,-0.24553516507148743
127.0,175.0,0.585,0.7472,9.475,-0.0351,0.0302,-0.1184,-2.14394535640859,-0.0034316200762987137,4.4248785972595215,-1.217311143875122,0.0009571076952852309,2.127851963043213,4.772276031761923,-0.0002554264210630208,0.26819849014282227,-1.638235870991842,0.00018825083679985255,0.046504631638526917,0.6316832900047302,-0.0006315240752883255,-0.07840131223201752,1.3191325664520264,0.011960715055465698,-0.18667441606521606
127.0,175.0,0.585,0.7472,9.475,-0.0351,0.0302,-0.1184,-2.143949171105856,-0.004403297323733568,4.402134895324707,-1.217239260673523,0.0007763828034512699,2.13722825050354,4.772280107229509,-0.00024140272580552846,0.2726547122001648,-1.6382444540606897,0.00019881196203641593,0.02034803107380867,0.6316632628440857,-0.0019593099132180214,-0.07480835914611816,1.319204330444336,0.011020577512681484,-0.21362650394439697
127.0,175.0,0.585,0.7472,9.475,-0.0351,0.0302,-0.1184,-2.1439973316588343,-0.004969603847712278,4.390633583068848,-1.2172995805740356,0.0006719172815792263,2.198960781097412,4.772356404900112,-0.00020795116142835468,0.2646976113319397,-1.6382125059710901,0.00018163064669352025,0.04201999679207802,0.6316553950309753,-0.0028006485663354397,-0.0847102552652359,1.3193085193634033,0.008998760022222996,-0.28981098532676697
127.0,175.0,0.585,0.7472,9.475,-0.0351,0.0302,-0.1184,-2.1440779171385707,-0.005152947269380093,4.4089202880859375,-1.2172633409500122,0.0005846461281180382,2.141512393951416,4.772320258408346,-0.00018262704543303698,0.25887900590896606,-1.6382282415973108,0.0001910450228024274,0.02989770472049713,0.6316915154457092,-0.0031481001060456038,-0.07997746020555496,1.319340467453003,0.007850905880331993,-0.2826652526855469
127.0,175.0,0.585,0.7472,9.475,-0.0351,0.0302,-0.1184,-2.144029756585592,-0.004298095125705004,4.438798427581787,-1.2172881364822388,0.0010353504912927747,2.1242587566375732,4.7723481869097135,-0.0001628020836506039,0.27742987871170044,-1.6382768789874476,0.00017696412396617234,0.04190056771039963,0.6316676735877991,-0.0031841136515140533,-0.09320070594549179,1.3194046020507812,0.007254264783114195,-0.265819787979126
127.0,175.0,0.585,0.7472,9.475,-0.0351,0.0302,-0.1184,-2.1440817318358363,-0.003840509569272399,4.422564506530762,-1.2172154188156128,0.0012614165898412466,2.1749606132507324,4.772336269706049,-0.00016860279720276594,0.2569270431995392,-1.6382125059710901,0.00016532756853848696,0.03830048441886902,0.6316200494766235,-0.003547542728483677,-0.09011848270893097,1.3194324970245361,0.006240703631192446,-0.24649155139923096
127.0,175.0,0.585,0.7472,9.475,-0.0351,0.0302,-0.1184,-2.1440817318358363,-0.003606641897931695,4.379952430725098,-1.217275619506836,0.0012503248872235417,2.147256851196289,4.772352295904913,-0.0001605135330464691,0.2676626145839691,-1.6382320562945765,0.00014900858514010906,0.03379439562559128,0.6315557360649109,-0.0034305022563785315,-0.09735235571861267,1.3194406032562256,0.004839605186134577,-0.27835074067115784
127.0,175.0,0.585,0.7472,9.475,-0.0351,0.0302,-0.1184,-2.1441337070860804,-0.004403650760650635,4.333929538726807,-1.21725594997406,0.0008719383622519672,2.123331308364868,4.772312118649044,-0.0001473726297263056,0.2575511336326599,-1.6382320562945765,0.00016264263831544667,0.05453028529882431,0.6315717101097107,-0.003454773686826229,-0.09835018217563629,1.3194924592971802,0.003845455590635538,-0.2836838960647583
127.0,175.0,0.585,0.7472,9.475,-0.0351,0.0302,-0.1184,-2.1441456280150355,-0.004366442561149597,4.410856246948242,-1.2172436714172363,0.0007039931952022016,2.1090903282165527,4.772308099060812,-0.00013621911057271063,0.2516711950302124,-1.6382206122027796,0.00017381194629706442,0.05992836505174637,0.6315680146217346,-0.003772401250898838,-0.11345241963863373,1.3194444179534912,0.0021176075097173452,-0.300325870513916
127.0,175.0,0.585,0.7472,9.475,-0.0351,0.0302,-0.1184,-2.1441694698729457,-0.0038524027913808823,4.376615047454834,-1.217283844947815,0.0005206529167480767,2.1670219898223877,4.772364149778642,-0.00012663537927437574,0.2685074210166931,-1.6381967703448694,0.00018288892169948667,0.04727515950798988,0.6314836144447327,-0.004331029485911131,-0.09731326997280121,1.319516658782959,0.0008751039858907461,-0.368821918964386
127.0,170.0,0.615,0.5827,9.3703,-0.0457,0.0183,-0.0947,-2.1441971264281214,-0.003282565390691161,4.334754467010498,-1.2172436714172363,0.0004785233468282968,2.159501075744629,4.772356021195211,-0.0001183113272418268,0.2674252986907959,-1.6382001082049769,0.0002504745789337903,0.0679372251033783,0.6314560174942017,-0.004464321304112673,-0.09970016777515411,1.319472312927246,0.0004393910930957645,-0.30675357580184937
127.0,170.0,0.615,0.5827,9.3703,-0.0457,0.0183,-0.0947,-2.1442014179625453,-0.0023409987334161997,4.337013244628906,-1.217247724533081,0.0006380421109497547,2.132599115371704,4.772344100266256,-0.00011101427662651986,0.25094079971313477,-1.6382125059710901,0.00028000763268209994,0.05689466744661331,0.6314641237258911,-0.004804252181202173,-0.11170433461666107,1.3195048570632935,0.0003215613542124629,-0.34974271059036255
127.0,170.0,0.615,0.5827,9.3703,-0.0457,0.0183,-0.0947,-2.144193311730856,-0.0015598665922880173,4.385541915893555,-1.2171992063522339,0.0009578440804034472,2.136512279510498,4.772324404656448,-0.00010456521704327315,0.2580386698246002,-1.6381805578814905,0.0002646768116392195,0.05378846451640129,0.6314124464988708,-0.005162219051271677,-0.11285341531038284,1.3194845914840698,0.00019127661653328687,-0.425662636756897
127.0,170.0,0.615,0.5827,9.3703,-0.0457,0.0183,-0.0947,-2.144193788568014,-0.001131037948653102,4.338106155395508,-1.2172359228134155,0.0011427856516093016,2.138296127319336,4.7723641758556745,-9.882428275886923e-05,0.2589498460292816,-1.6381967703448694,0.0002513437648303807,0.0627758651971817,0.6313562393188477,-0.00506981834769249,-0.11484745144844055,1.3194365501403809,-0.00021413725335150957,-0.3792400360107422
127.0,170.0,0.615,0.5827,9.3703,-0.0457,0.0183,-0.0947,-2.1442018947997035,-0.0011188277276232839,4.355881690979004,-1.2172198295593262,0.0010784458136186004,2.1790332794189453,4.772303904383936,-9.368077735416591e-05,0.25172945857048035,-1.6381762663470667,0.00025228934828191996,0.07034710794687271,0.6314328908920288,-0.0049955775029957294,-0.1395484060049057,1.3194525241851807,-0.0002453314664307982,-0.3640877604484558
127.0,170.0,0.615,0.5827,9.3703,-0.0457,0.0183,-0.0947,-2.1441852054991664,-0.0009050737135112286,4.353752613067627,-1.2172399759292603,0.0009885731851682067,2.1755943298339844,4.772295768349924,-8.760182390687987e-05,0.2594454884529114,-1.6381800810443323,0.0002705594524741173,0.057246990501880646,0.6313369274139404,-0.004053354728966951,-0.13126176595687866,1.3194406032562256,-0.0006305022980086505,-0.45851171016693115
127.0,170.0,0.615,0.5827,9.3703,-0.0457,0.0183,-0.0947,-2.1442018947997035,-0.0008642264292575419,4.347796440124512,-1.2172082662582397,0.0010077472543343902,2.140049695968628,4.772352303355493,-8.353625889867544e-05,0.2486024796962738,-1.638144318257467,0.00023203295131679624,0.05630377680063248,0.6314093470573425,-0.003342814277857542,-0.11356516927480698,1.319484829902649,-0.0005542463040910661,-0.43440937995910645
127.0,170.0,0.615,0.5827,9.3703,-0.0457,0.0183,-0.0947,-2.1441899738707484,-0.000634976604487747,4.338131427764893,-1.2172033786773682,0.0013453892897814512,2.1309401988983154,4.772320258408346,-7.983140676515177e-05,0.2574596405029297,-1.6381962935077112,0.00020094156207051128,0.062052421271800995,0.631317138671875,-0.0025003906339406967,-0.12653252482414246,1.3193961381912231,-0.0004553721519187093,-0.4238293766975403
127.0,170.0,0.615,0.5827,9.3703,-0.0457,0.0183,-0.0947,-2.14422144512319,-0.0006231509032659233,4.337165355682373,-1.2171556949615479,0.0019138262141495943,2.143803834915161,4.7723039639885805,-7.644118159078062e-05,0.24974511563777924,-1.6381729284869593,0.00021262680820655078,0.06425489485263824,0.6313369274139404,-0.0018588656093925238,-0.11795112490653992,1.3194528818130493,-0.00048060360131785274,-0.4223340153694153
127.0,170.0,0.615,0.5827,9.3703,-0.0457,0.0183,-0.0947,-2.1442376575865687,-0.0005499380640685558,4.325309753417969,-1.2171194553375244,0.002609595889225602,2.133314609527588,4.772348216712036,-7.332720997510478e-05,0.25346145033836365,-1.6382043997394007,0.00019016931764781475,0.06861645728349686,0.6313450336456299,-0.0013008585665374994,-0.12788067758083344,1.3194366693496704,-0.00045320679782889783,-0.46281808614730835
127.0,170.0,0.615,0.5827,9.3703,-0.0457,0.0183,-0.0947,-2.144249578515524,-0.0004310089279897511,4.336882591247559,-1.2171317338943481,0.0039427620358765125,2.154973268508911,4.7723079835768125,-8.200002775993198e-05,0.2557480037212372,-1.6381681601153772,0.00017199576541315764,0.061393894255161285,0.6313971281051636,-0.0010086481925100088,-0.13501062989234924,1.3194446563720703,-0.000381279009161517,-0.4516603946685791
127.0,170.0,0.615,0.5827,9.3703,-0.0457,0.0183,-0.0947,-2.1442295513548792,-0.0004007731913588941,4.314891338348389,-1.2171039581298828,0.005161036737263203,2.204246997833252,4.772348168283262,-7.91034399298951e-05,0.2363877296447754,-1.6382125059710901,0.0001569929881952703,0.06652791798114777,0.6313130855560303,-0.0007122581009753048,-0.12613609433174133,1.3194764852523804,-0.00032687652856111526,-0.4004194140434265
127.0,170.0,0.615,0.5827,9.3703,-0.0457,0.0183,-0.0947,-2.1442095241942347,-0.0003284263366367668,4.365718364715576,-1.2169921398162842,0.006732247304171324,2.125453233718872,4.772303941636839,-7.623199780937284e-05,0.25788047909736633,-1.6381805578814905,0.00014439798542298377,0.06547819077968597,0.6312970519065857,-0.00043011558591388166,-0.11706940829753876,1.3194688558578491,-0.00026839348720386624,-0.42908424139022827
127.0,170.0,0.615,0.5827,9.3703,-0.0457,0.0183,-0.0947,-2.144249578515524,-0.00027774242334999144,4.3045148849487305,-1.2170085906982422,0.0083267567679286,2.1429972648620605,4.772352269827881,-7.356166315730661e-05,0.2437281608581543,-1.6381920019732874,0.0001114080150728114,0.07306557148694992,0.6312733888626099,-0.00033411121694371104,-0.11355796456336975,1.3194043636322021,-0.00022765448375139385,-0.4600108861923218
131.0,174.0,0.4499,0.5683,9.6215,-0.0425,0.0356,-0.1234,-2.1441976032652796,-0.00028071398264728487,4.32047700881958,-1.2169443368911743,0.01050304900854826,2.2008516788482666,4.772299806564607,-7.107211422408e-05,0.246448814868927,-1.6381967703448694,0.00010369375377194956,0.07551996409893036,0.6313053369522095,-0.0002732168068177998,-0.11732814460992813,1.3194565773010254,-0.00019765416800510138,-0.4363935589790344
131.0,174.0,0.4499,0.5683,9.6215,-0.0425,0.0356,-0.1234,-2.1442257366576136,-0.00024761338136158884,4.371362686157227,-1.2169089317321777,0.011819587089121342,2.193894386291504,4.772368281125583,-4.538109351415187e-06,0.25280213356018066,-1.6381924788104456,9.698870417196304e-05,0.06514815241098404,0.6313011050224304,-0.00023110500478651375,-0.11496705561876297,1.3194528818130493,-0.0001746404595905915,-0.4797903895378113
131.0,174.0,0.4499,0.5683,9.6215,-0.0425,0.0356,-0.1234,-2.144261499444479,-0.00025313126388937235,4.328700065612793,-1.2168689966201782,0.013283057138323784,2.212228298187256,4.772340438305893,-1.2631995449652322e-09,0.2540110945701599,-1.6382444540606897,9.109824168263003e-05,0.061101123690605164,0.6313613653182983,-0.00020024453988298774,-0.1113964095711708,1.3194243907928467,-0.0001564275153214112,-0.4232560396194458
