ramyac6/ROB537/final_project/csv/good/good_148.csv
tof_0,tof_1,accelx,accely,accelz,gyrox,gyroy,gyroz,shoulder_lift_joint_position,shoulder_lift_joint_velocity,shoulder_lift_joint_effort,elbow_joint_position,elbow_joint_velocity,elbow_joint_effort,wrist_1_joint_position,wrist_1_joint_velocity,wrist_1_joint_effort,wrist_2_joint_position,wrist_2_joint_velocity,wrist_2_joint_effort,wrist_3_joint_position,wrist_3_joint_velocity,wrist_3_joint_effort,shoulder_pan_joint_position,shoulder_pan_joint_velocity,shoulder_pan_joint_effort
941.0,934.0,2.6177,-0.3936,9.009,-0.036,0.0199,-0.1106,-1.6293641529478968,0.0,2.343893051147461,-1.838362216949463,-0.0,2.0881364345550537,4.686340017909668,0.0,0.29205429553985596,-1.5386322180377405,0.0,-0.004456902854144573,0.8188504576683044,0.0,-0.00016900221817195415,0.8128172159194946,0.0,-0.0024558408185839653
941.0,934.0,2.6177,-0.3936,9.009,-0.036,0.0199,-0.1106,-1.6293279133238734,0.0,2.356207847595215,-1.8384066820144653,-0.0,2.072523593902588,4.686319990749023,0.0,0.29965871572494507,-1.5386160055743616,0.0,0.0027695721946656704,0.8188061118125916,0.0,0.002245803363621235,0.8128456473350525,0.0,-0.021171286702156067
941.0,934.0,2.6177,-0.3936,9.009,-0.036,0.0199,-0.1106,-1.629376073876852,0.0,2.336935043334961,-1.8383705615997314,-0.0,2.104245901107788,4.686311407680176,0.0,0.2979690432548523,-1.5386160055743616,0.0,-0.010920118540525436,0.8187298774719238,0.0,-0.012754155322909355,0.8128052949905396,0.0,0.019490022212266922
941.0,934.0,2.6177,-0.3936,9.009,-0.036,0.0199,-0.1106,-1.6293679676451625,0.0,2.3817787170410156,-1.8384182453155518,-0.0,2.129593849182129,4.6863037782856445,0.0,0.29969730973243713,-1.5386479536639612,0.0,-0.01235258299857378,0.818750262260437,0.0,-0.005639721639454365,0.812809407711029,0.0,0.03679155930876732
941.0,934.0,2.6177,-0.3936,9.009,-0.036,0.0199,-0.1106,-1.6293922863402308,0.0,2.3035435676574707,-1.8383662700653076,-0.0,2.104523181915283,4.686295672053955,0.0,0.2896202504634857,-1.5386560598956507,0.0,-0.0008715293370187283,0.8188264966011047,0.0,0.004100934602320194,0.8127771615982056,0.0,0.012042209506034851
941.0,934.0,2.6177,-0.3936,9.009,-0.036,0.0199,-0.1106,-1.6294242344298304,0.0,2.3598122596740723,-1.8383746147155762,-0.0,2.1215696334838867,4.686295672053955,0.0,0.28920045495033264,-1.5386160055743616,0.0,-0.007291855290532112,0.8188142776489258,0.0,-0.0005452093901112676,0.8128253817558289,0.0,-0.013025347143411636
941.0,934.0,2.6177,-0.3936,9.009,-0.036,0.0199,-0.1106,-1.629387994805807,0.0,2.3906424045562744,-1.8383985757827759,-0.0,2.092268228530884,4.686327620143555,0.0,0.2876110076904297,-1.5385916868792933,0.0,-0.0034069065004587173,0.8187822699546814,0.0,-0.001715758815407753,0.8128172159194946,0.0,0.04305163025856018
941.0,934.0,2.6177,-0.3936,9.009,-0.036,0.0199,-0.1106,-1.629359861413473,0.0,2.345741033554077,-1.8383063077926636,-0.0,2.069977283477783,4.6863438326069335,0.0,0.3010263741016388,-1.538600269948141,0.0,-0.01267481129616499,0.8188061118125916,0.0,-0.016422582790255547,0.8128656148910522,0.0,-0.001429250929504633
943.0,949.0,2.6369,-0.3685,8.9833,-0.0293,0.0183,-0.1141,-1.629416128198141,0.0,2.3160486221313477,-1.8383663892745972,-0.0,2.0790562629699707,4.686299486751221,0.0,0.29593634605407715,-1.5386598745929163,0.0,-0.0073088472709059715,0.8188142776489258,0.0,0.004733564332127571,0.8128135800361633,0.0,0.0011297794990241528
943.0,949.0,2.6369,-0.3685,8.9833,-0.0293,0.0183,-0.1141,-1.6293722591795863,0.0,2.3920416831970215,-1.8383983373641968,-0.0,2.0907325744628906,4.6863438326069335,0.0,0.3010387122631073,-1.5386117140399378,0.0,-0.0019103990634903312,0.8188184499740601,0.0,0.0050376905128359795,0.8128131031990051,0.0,0.005966734141111374
943.0,949.0,2.6369,-0.3685,8.9833,-0.0293,0.0183,-0.1141,-1.6293961010374964,0.0,2.3392837047576904,-1.8383384943008423,-0.0,2.072296619415283,4.686328096980713,0.0,0.2886923551559448,-1.5386441389666956,0.0,-0.01752561144530773,0.8188303112983704,0.0,-0.01230388693511486,0.8128172755241394,0.0,0.0008402741514146328
943.0,949.0,2.6369,-0.3685,8.9833,-0.0293,0.0183,-0.1141,-1.6293641529478968,0.0,2.3292148113250732,-1.8383623361587524,-0.0,2.1574647426605225,4.6863037782856445,0.0,0.28533223271369934,-1.538624111806051,0.0,-0.004180506803095341,0.8188582062721252,0.0,9.507150389254093e-05,0.8128495216369629,0.0,0.026968451216816902
943.0,949.0,2.6369,-0.3685,8.9833,-0.0293,0.0183,-0.1141,-1.6293641529478968,0.0,2.3338866233825684,-1.838370442390442,-0.0,2.104482889175415,4.68630759298291,0.0,0.3027626574039459,-1.5386322180377405,0.0,-0.017997801303863525,0.8187822699546814,0.0,0.0019505160162225366,0.8128131628036499,0.0,-0.0023632808588445187
943.0,949.0,2.6369,-0.3685,8.9833,-0.0293,0.0183,-0.1141,-1.629376073876852,0.0,2.354844331741333,-1.83841073513031,-0.0,2.0486867427825928,4.686351938838623,0.0,0.29846832156181335,-1.5386398474322718,0.0,-0.007160614710301161,0.8187979459762573,0.0,-0.0005528185283765197,0.8128012418746948,0.0,-0.013469021767377853
943.0,949.0,2.6369,-0.3685,8.9833,-0.0293,0.0183,-0.1141,-1.6294242344298304,0.0,2.38698148727417,-1.8384066820144653,-0.0,2.142824411392212,4.686299486751221,0.0,0.2943935990333557,-1.5386641661273401,0.0,-0.013537460938096046,0.8187544345855713,0.0,0.0011115563102066517,0.8128172755241394,0.0,0.0004992962931282818
943.0,949.0,2.6369,-0.3685,8.9833,-0.0293,0.0183,-0.1141,-1.6293841801085414,0.0,2.3948068618774414,-1.8383383750915527,-0.0,2.0588417053222656,4.686308069820068,0.0,0.29014408588409424,-1.5386322180377405,0.0,-0.010890626348555088,0.8188021183013916,0.0,-0.007248007692396641,0.8127851486206055,0.0,-0.01419159397482872
943.0,949.0,2.6369,-0.3685,8.9833,-0.0293,0.0183,-0.1141,-1.6293517551817835,0.0,2.370865821838379,-1.8384026288986206,-0.0,2.107020378112793,4.6863600450703125,0.0,0.31630992889404297,-1.5386036078082483,0.0,-0.0030378010123968124,0.8188220858573914,0.0,-0.011992763727903366,0.8128295540809631,0.0,0.0003393581137061119
943.0,949.0,2.6369,-0.3685,8.9833,-0.0293,0.0183,-0.1141,-1.629343648950094,0.0,2.3128247261047363,-1.8384066820144653,-0.0,2.0915985107421875,4.686295672053955,0.0,0.29685211181640625,-1.5385997931109827,0.0,-0.017349615693092346,0.8187898397445679,0.0,0.0032585863955318928,0.8128333687782288,0.0,-0.021233033388853073
943.0,949.0,2.6369,-0.3685,8.9833,-0.0293,0.0183,-0.1141,-1.6294037304320277,0.0,2.391061782836914,-1.838422179222107,-0.0,2.061715602874756,4.686327620143555,0.0,0.2979958653450012,-1.5386398474322718,0.0,-0.00857397262006998,0.8187938928604126,0.0,-0.002107419306412339,0.8127933144569397,0.0,0.02155982330441475
943.0,949.0,2.6369,-0.3685,8.9833,-0.0293,0.0183,-0.1141,-1.6293841801085414,0.0,2.3919615745544434,-1.838386058807373,-0.0,2.116117477416992,4.686355753535889,0.0,0.29633742570877075,-1.5386322180377405,0.0,-0.022862322628498077,0.8188425302505493,0.0,-0.015310896560549736,0.8128171563148499,0.0,0.027175096794962883
943.0,949.0,2.6369,-0.3685,8.9833,-0.0293,0.0183,-0.1141,-1.6293722591795863,0.0,2.3812482357025146,-1.8383941650390625,-0.0,2.058037281036377,4.686335726375244,0.0,0.3062593936920166,-1.5386202971087855,0.0,-0.011362394317984581,0.8188462853431702,0.0,-0.002898409264162183,0.8128012418746948,0.0,-0.019882194697856903
943.0,949.0,2.6369,-0.3685,8.9833,-0.0293,0.0183,-0.1141,-1.6294204197325648,0.0,2.3490426540374756,-1.8383901119232178,-0.0,2.0909481048583984,4.6863319116779785,0.0,0.28526318073272705,-1.5386236349688929,0.0,-0.02305428870022297,0.8187822699546814,0.0,-0.007911482825875282,0.8128212690353394,0.0,0.00916539691388607
943.0,949.0,2.6369,-0.3685,8.9833,-0.0293,0.0183,-0.1141,-1.629404207269186,0.0,2.3439993858337402,-1.8383581638336182,-0.0,2.1007332801818848,4.686335726375244,0.0,0.29621708393096924,-1.5386083761798304,0.0,-0.017615273594856262,0.8188225626945496,0.0,-0.00709325447678566,0.8127930164337158,0.0,-0.019621677696704865
943.0,949.0,2.6369,-0.3685,8.9833,-0.0293,0.0183,-0.1141,-1.629416128198141,0.0,2.3311071395874023,-1.8384026288986206,-0.0,2.1123764514923096,4.686311407680176,0.0,0.296438604593277,-1.5386322180377405,0.0,-0.008705731481313705,0.8188667297363281,0.0,-0.015665847808122635,0.8128131031990051,0.0,0.006102944724261761
950.0,910.0,2.5705,-0.3984,9.0999,-0.046,0.0188,-0.1098,-1.6293679676451625,0.0,2.346165657043457,-1.8383499383926392,-0.0,2.139943838119507,4.686291380519531,0.0,0.293869286775589,-1.5386398474322718,0.0,-0.039082616567611694,0.8188543915748596,0.0,-0.008313341997563839,0.8128213286399841,0.0,-0.007405333686619997
950.0,910.0,2.5705,-0.3984,9.0999,-0.046,0.0188,-0.1098,-1.629416128198141,0.0,2.345513105392456,-1.8383467197418213,-0.0,2.035592555999756,4.686279936427734,0.0,0.3014470338821411,-1.5386202971087855,0.0,-0.011437487788498402,0.8187700510025024,0.0,0.0010522711090743542,0.8127689957618713,0.0,-0.024471038952469826
950.0,910.0,2.5705,-0.3984,9.0999,-0.046,0.0188,-0.1098,-1.6294080219664515,0.0,2.3772664070129395,-1.8383983373641968,-0.0,2.1551480293273926,4.6863319116779785,0.0,0.2909298837184906,-1.5386322180377405,0.0,-0.006169619504362345,0.8188302516937256,0.0,-0.01285512000322342,0.8128131031990051,0.0,0.0231613852083683
950.0,910.0,2.5705,-0.3984,9.0999,-0.046,0.0188,-0.1098,-1.6293641529478968,0.0,2.3042409420013428,-1.838378667831421,-0.0,2.125788927078247,4.686303301448486,0.0,0.30113017559051514,-1.5386083761798304,0.0,-0.007541884668171406,0.8188384175300598,0.0,-0.0015448610065504909,0.8128374218940735,0.0,0.05080737918615341
950.0,910.0,2.5705,-0.3984,9.0999,-0.046,0.0188,-0.1098,-1.6294123135008753,0.0,2.3837900161743164,-1.8384065628051758,-0.0,2.100060224533081,4.686278982753418,0.0,0.2954404056072235,-1.5385759512530726,0.0,-0.010690371505916119,0.8187581300735474,0.0,-0.00976920872926712,0.812809407711029,0.0,-0.01300136186182499
950.0,910.0,2.5705,-0.3984,9.0999,-0.046,0.0188,-0.1098,-1.6294123135008753,0.0,2.405251979827881,-1.8383746147155762,-0.0,2.0616722106933594,4.6863156992146,0.0,0.28849542140960693,-1.5386479536639612,0.0,-0.016560984775424004,0.8187822699546814,0.0,0.0002091444912366569,0.8128535151481628,0.0,-0.0024637356400489807
950.0,910.0,2.5705,-0.3984,9.0999,-0.046,0.0188,-0.1098,-1.6293641529478968,0.0,2.332984685897827,-1.838422179222107,-0.0,2.13740873336792,4.686299486751221,0.0,0.28730034828186035,-1.5386036078082483,0.0,-0.007514679338783026,0.818814218044281,0.0,0.007385844364762306,0.8128415942192078,0.0,0.014539806172251701
950.0,910.0,2.5705,-0.3984,9.0999,-0.046,0.0188,-0.1098,-1.629416128198141,0.0,2.3449442386627197,-1.83841073513031,-0.0,2.1090142726898193,4.686319990749023,0.0,0.2967075705528259,-1.5385916868792933,0.0,-0.002965687308460474,0.8188585042953491,0.0,-0.008450822904706001,0.8128131031990051,0.0,-0.012532589957118034
950.0,910.0,2.5705,-0.3984,9.0999,-0.046,0.0188,-0.1098,-1.6293722591795863,0.0,2.3635804653167725,-1.838326096534729,-0.0,2.0951008796691895,4.686295672053955,0.0,0.3102591037750244,-1.5386322180377405,0.0,-0.017486486583948135,0.8187864422798157,0.0,-0.00982616189867258,0.8128212690353394,0.0,0.003277792129665613
950.0,910.0,2.5705,-0.3984,9.0999,-0.046,0.0188,-0.1098,-1.629371782342428,0.0,2.312891721725464,-1.8384262323379517,-0.0,2.104768753051758,4.6863156992146,0.0,0.2971700131893158,-1.5386160055743616,0.0,-0.013816116377711296,0.8188384771347046,0.0,-0.006992724258452654,0.8128172159194946,0.0,0.0010612558107823133
950.0,910.0,2.5705,-0.3984,9.0999,-0.046,0.0188,-0.1098,-1.6293961010374964,0.0,2.341057062149048,-1.8384066820144653,-0.0,2.091341495513916,4.686375780696533,0.0,0.29059749841690063,-1.5386360327350062,0.0,-0.014620257541537285,0.81882244348526,0.0,0.004674633499234915,0.8127809762954712,0.0,0.05178384482860565
950.0,910.0,2.5705,-0.3984,9.0999,-0.046,0.0188,-0.1098,-1.629376073876852,0.0,2.3735334873199463,-1.838418960571289,-0.0,2.098341941833496,4.686287088985107,0.0,0.29876378178596497,-1.5386322180377405,0.0,0.001370175275951624,0.8188302516937256,0.0,-0.010895594023168087,0.8127809166908264,0.0,-0.033718377351760864
950.0,910.0,2.5705,-0.3984,9.0999,-0.046,0.0188,-0.1098,-1.629371782342428,0.0,2.3826255798339844,-1.8383663892745972,-0.0,2.0915722846984863,4.686319513911865,0.0,0.3018314242362976,-1.5386560598956507,0.0,-0.013330712914466858,0.8187781572341919,0.0,-0.001607367885299027,0.8128333687782288,0.0,-0.026363784447312355
950.0,910.0,2.5705,-0.3984,9.0999,-0.046,0.0188,-0.1098,-1.629416128198141,0.0,2.3177967071533203,-1.838386058807373,-0.0,2.10085391998291,4.686311407680176,0.0,0.29084646701812744,-1.5386160055743616,0.0,-0.0071705905720591545,0.81886225938797,0.0,-0.003954955842345953,0.812841534614563,0.0,0.02520480751991272
950.0,910.0,2.5705,-0.3984,9.0999,-0.046,0.0188,-0.1098,-1.6294204197325648,0.0,2.3691823482513428,-1.8383541107177734,-0.0,2.1348328590393066,4.686347647304199,0.0,0.28119269013404846,-1.5386398474322718,0.0,-0.008881119079887867,0.8188344836235046,0.0,0.009197834879159927,0.8128453493118286,0.0,0.024745075032114983
950.0,910.0,2.5705,-0.3984,9.0999,-0.046,0.0188,-0.1098,-1.6294080219664515,0.0,2.343728542327881,-1.8383458852767944,-0.0,2.1109426021575928,4.686319513911865,0.0,0.29340478777885437,-1.5386236349688929,0.0,-0.023354660719633102,0.8188225030899048,0.0,-0.009782344102859497,0.8127892017364502,0.0,0.012680917978286743
961.0,926.0,2.5783,-0.4068,9.0365,-0.037,0.025,-0.1153,-1.6293884716429652,0.0,2.325009822845459,-1.8383861780166626,-0.0,2.110293388366699,4.686295672053955,0.0,0.2911176383495331,-1.5386040846454065,0.0,-0.023248448967933655,0.8188061118125916,0.0,-0.0023190516512840986,0.8127971291542053,0.0,-0.01482063252478838
961.0,926.0,2.5783,-0.4068,9.0365,-0.037,0.025,-0.1153,-1.62937655071401,0.0,2.328259229660034,-1.838402509689331,-0.0,2.0264854431152344,4.6863600450703125,0.0,0.3056791424751282,-1.5386322180377405,0.0,-0.020611781626939774,0.8187864422798157,0.0,-0.00041371583938598633,0.8128048777580261,0.0,-0.020777851343154907
961.0,926.0,2.5783,-0.4068,9.0365,-0.037,0.025,-0.1153,-1.6293679676451625,0.0,2.346724271774292,-1.8383901119232178,-0.0,2.110409736633301,4.686351938838623,0.0,0.2905917763710022,-1.5385878721820276,0.0,-0.00961233675479889,0.8188785910606384,0.0,0.0024869178887456656,0.8128012418746948,0.0,0.0015277499333024025
961.0,926.0,2.5783,-0.4068,9.0365,-0.037,0.025,-0.1153,-1.6294080219664515,0.0,2.3362877368927,-1.838378667831421,-0.0,2.0791828632354736,4.686327620143555,0.0,0.2995719313621521,-1.538572136555807,0.0,-0.01673716865479946,0.8188462853431702,0.0,-0.009753333404660225,0.8128052949905396,0.0,-0.04173692688345909
961.0,926.0,2.5783,-0.4068,9.0365,-0.037,0.025,-0.1153,-1.6293965778746546,0.0,2.352120876312256,-1.83841073513031,-0.0,2.0876803398132324,4.686355753535889,0.0,0.2822541296482086,-1.538652245198385,0.0,-0.01752910017967224,0.8188504576683044,0.0,0.0001501437509432435,0.8128131031990051,0.0,0.05545341223478317
961.0,926.0,2.5783,-0.4068,9.0365,-0.037,0.025,-0.1153,-1.6294123135008753,0.0,2.3515143394470215,-1.8383901119232178,-0.0,2.0600709915161133,4.686311407680176,0.0,0.2975577116012573,-1.5386078993426722,0.0,-0.004366610664874315,0.8188061118125916,0.0,-0.008572371676564217,0.8128374218940735,0.0,-0.005215000361204147
961.0,926.0,2.5783,-0.4068,9.0365,-0.037,0.025,-0.1153,-1.629376073876852,0.0,2.3811111450195312,-1.8383301496505737,-0.0,2.0811312198638916,4.6863037782856445,0.0,0.2926962971687317,-1.538595978413717,0.0,-0.008390910923480988,0.81882244348526,0.0,0.0001282310113310814,0.8127891421318054,0.0,-0.07475786656141281
961.0,926.0,2.5783,-0.4068,9.0365,-0.037,0.025,-0.1153,-1.6293884716429652,0.0,2.3192341327667236,-1.8383342027664185,-0.0,2.106811046600342,4.6863037782856445,0.0,0.31006738543510437,-1.5386117140399378,0.0,-0.013470074161887169,0.8188184499740601,0.0,-0.0039522526785731316,0.8128089308738708,0.0,0.026451757177710533
961.0,926.0,2.5783,-0.4068,9.0365,-0.037,0.025,-0.1153,-1.6294285259642542,0.0,2.326993227005005,-1.8384026288986206,-0.0,2.067627191543579,4.68633143484082,0.0,0.28942832350730896,-1.5386160055743616,0.0,-0.027112245559692383,0.8188785910606384,0.0,0.0034354147501289845,0.8128012418746948,0.0,0.012287169694900513
961.0,926.0,2.5783,-0.4068,9.0365,-0.037,0.025,-0.1153,-1.629404207269186,0.0,2.337769031524658,-1.838422179222107,-0.0,2.074737071990967,4.686295672053955,0.0,0.2990732192993164,-1.5386160055743616,0.0,-0.01824461854994297,0.8187979459762573,0.0,0.009967447258532047,0.8128498792648315,0.0,-0.015254408121109009
961.0,926.0,2.5783,-0.4068,9.0365,-0.037,0.025,-0.1153,-1.6294003925719203,0.0,2.337630271911621,-1.8383426666259766,-0.0,2.1376843452453613,4.6863438326069335,0.0,0.2954813539981842,-1.5386117140399378,0.0,-0.008335456252098083,0.8187897801399231,0.0,-0.0075173769146203995,0.8128374814987183,0.0,-0.030056316405534744
961.0,926.0,2.5783,-0.4068,9.0365,-0.037,0.025,-0.1153,-1.6293841801085414,0.0,2.3678128719329834,-1.8383541107177734,-0.0,2.1028153896331787,4.686328096980713,0.0,0.2896312475204468,-1.5386078993426722,0.0,7.728394120931625e-05,0.8187864422798157,0.0,0.012209110893309116,0.8127647638320923,0.0,-0.011125117540359497
961.0,926.0,2.5783,-0.4068,9.0365,-0.037,0.025,-0.1153,-1.6293884716429652,0.0,2.326428174972534,-1.8384231328964233,-0.0,2.1087846755981445,4.6863156992146,0.0,0.2857374846935272,-1.5385921637164515,0.0,-0.028801608830690384,0.8188142776489258,0.0,-0.007251334376633167,0.8128333687782288,0.0,0.01153537817299366
961.0,926.0,2.5783,-0.4068,9.0365,-0.037,0.025,-0.1153,-1.6294204197325648,0.0,2.352505922317505,-1.8383746147155762,-0.0,2.1392791271209717,4.6863438326069335,0.0,0.28217148780822754,-1.5386117140399378,0.0,0.0038083179388195276,0.8188061118125916,0.0,-0.008941786363720894,0.8128172159194946,0.0,0.03442554175853729
961.0,926.0,2.5783,-0.4068,9.0365,-0.037,0.025,-0.1153,-1.6294080219664515,0.0,2.3075475692749023,-1.838386058807373,-0.0,2.0880789756774902,4.686335726375244,0.0,0.2897106111049652,-1.5386202971087855,0.0,-0.009460099041461945,0.8188061118125916,0.0,0.0009906842606142163,0.8127891421318054,0.0,0.023454928770661354
961.0,926.0,2.5783,-0.4068,9.0365,-0.037,0.025,-0.1153,-1.629416128198141,0.0,2.323309898376465,-1.8383944034576416,-0.0,2.115145444869995,4.686323328609131,0.0,0.29743492603302,-1.5386083761798304,0.0,-0.015677442774176598,0.8188344240188599,0.0,0.009558683261275291,0.8128495812416077,0.0,-0.017158526927232742
957.0,942.0,2.6142,-0.3984,9.1011,-0.0406,0.0171,-0.1196,-1.6293841801085414,0.0,2.406465530395508,-1.8383746147155762,-0.0,2.1382782459259033,4.686299486751221,0.0,0.3001890778541565,-1.5385997931109827,0.0,-0.005684304051101208,0.8187743425369263,0.0,0.0018920020665973425,0.8128295540809631,0.0,0.01652180589735508
957.0,942.0,2.6142,-0.3984,9.1011,-0.0406,0.0171,-0.1196,-1.629331728021139,0.0,2.386538505554199,-1.8383386135101318,-0.0,2.096546173095703,4.686295672053955,0.0,0.288333535194397,-1.5386117140399378,0.0,-0.014600640162825584,0.818810224533081,0.0,0.002477072412148118,0.8127527236938477,0.0,-0.0420684739947319
957.0,942.0,2.6142,-0.3984,9.1011,-0.0406,0.0171,-0.1196,-1.629359861413473,0.0,2.3079187870025635,-1.8383458852767944,-0.0,2.1659698486328125,4.686351938838623,0.0,0.29049497842788696,-1.5386202971087855,0.0,-0.006648979149758816,0.8187979459762573,0.0,-0.00844528153538704,0.8128292560577393,0.0,0.016155317425727844
957.0,942.0,2.6142,-0.3984,9.1011,-0.0406,0.0171,-0.1196,-1.6294003925719203,0.0,2.3611888885498047,-1.8383902311325073,-0.0,2.1280477046966553,4.686311407680176,0.0,0.30172431468963623,-1.5385997931109827,0.0,-0.009567536413669586,0.8188344240188599,0.0,0.0029237791895866394,0.8128213286399841,0.0,-0.006616158876568079
957.0,942.0,2.6142,-0.3984,9.1011,-0.0406,0.0171,-0.1196,-1.6294003925719203,0.0,2.3373911380767822,-1.8383941650390625,-0.0,2.0659523010253906,4.6863156992146,0.0,0.29897409677505493,-1.538595978413717,0.0,-0.01739354617893696,0.8188027143478394,0.0,0.002342203864827752,0.8127850294113159,0.0,-0.016518620774149895
957.0,942.0,2.6142,-0.3984,9.1011,-0.0406,0.0171,-0.1196,-1.6293722591795863,0.0,2.3734469413757324,-1.8383467197418213,-0.0,2.1145761013031006,4.68630759298291,0.0,0.29425716400146484,-1.5386322180377405,0.0,-0.017364833503961563,0.8187544941902161,0.0,-0.004369078204035759,0.8127970695495605,0.0,-0.01989133283495903
957.0,942.0,2.6142,-0.3984,9.1011,-0.0406,0.0171,-0.1196,-1.6293517551817835,0.0,2.3424839973449707,-1.838342547416687,-0.0,2.0823049545288086,4.686299486751221,0.0,0.2955150008201599,-1.5385878721820276,0.0,-0.02272620238363743,0.8187704682350159,0.0,-0.006765672005712986,0.8127891421318054,0.0,-0.01973867416381836
957.0,942.0,2.6142,-0.3984,9.1011,-0.0406,0.0171,-0.1196,-1.6293517551817835,0.0,2.337390899658203,-1.8383539915084839,-0.0,2.094898223876953,4.686328096980713,0.0,0.2838321924209595,-1.5386236349688929,0.0,-0.025897551327943802,0.8187622427940369,0.0,-0.01650012470781803,0.8128374814987183,0.0,0.026883460581302643
957.0,942.0,2.6142,-0.3984,9.1011,-0.0406,0.0171,-0.1196,-1.6293517551817835,0.0,2.3346190452575684,-1.8384147882461548,-0.0,2.081366777420044,4.686263247127197,0.0,0.29889625310897827,-1.5386279265033167,0.0,-0.01101825200021267,0.8187864422798157,0.0,-0.002437752205878496,0.8128135204315186,0.0,-0.018975162878632545
957.0,942.0,2.6142,-0.3984,9.1011,-0.0406,0.0171,-0.1196,-1.6294080219664515,0.0,2.3593685626983643,-1.838386058807373,-0.0,2.120893716812134,4.6862708765217285,0.0,0.2995617985725403,-1.5386160055743616,0.0,-0.014339763671159744,0.818810224533081,0.0,-0.009358072653412819,0.8128052949905396,0.0,-0.011857816949486732
957.0,942.0,2.6142,-0.3984,9.1011,-0.0406,0.0171,-0.1196,-1.629416128198141,0.0,2.3775649070739746,-1.8383746147155762,-0.0,2.107414722442627,4.68630759298291,0.0,0.3095591366291046,-1.5386479536639612,0.0,-0.004936309065669775,0.818758487701416,0.0,-0.004703625105321407,0.8128172159194946,0.0,0.029509471729397774
957.0,942.0,2.6142,-0.3984,9.1011,-0.0406,0.0171,-0.1196,-1.6293841801085414,0.0,2.350710153579712,-1.8383901119232178,-0.0,2.102816581726074,4.686311407680176,0.0,0.2942066490650177,-1.5386040846454065,0.0,-0.016887370496988297,0.8188021183013916,0.0,-0.0027000317350029945,0.81280118227005,0.0,-0.017617084085941315
957.0,942.0,2.6142,-0.3984,9.1011,-0.0406,0.0171,-0.1196,-1.6294123135008753,0.0,2.3387715816497803,-1.8383861780166626,-0.0,2.1376752853393555,4.686323805446289,0.0,0.2955797016620636,-1.5386436621295374,0.0,-0.016152124851942062,0.8187662959098816,0.0,-0.011912711896002293,0.8128012418746948,0.0,-0.019624996930360794
957.0,942.0,2.6142,-0.3984,9.1011,-0.0406,0.0171,-0.1196,-1.6293517551817835,0.0,2.330308437347412,-1.8383827209472656,-0.0,2.0997066497802734,4.686347647304199,0.0,0.2953498959541321,-1.5386441389666956,0.0,-0.009327897801995277,0.8187823295593262,0.0,-0.002991312649101019,0.8128052949905396,0.0,-0.002135487738996744
957.0,942.0,2.6142,-0.3984,9.1011,-0.0406,0.0171,-0.1196,-1.6293918095030726,0.0,2.3057830333709717,-1.8383581638336182,-0.0,2.1073856353759766,4.686278982753418,0.0,0.29831555485725403,-1.538595978413717,0.0,-0.006731024011969566,0.8187864422798157,0.0,-0.00021291972370818257,0.8127850890159607,0.0,0.022096876055002213
957.0,942.0,2.6142,-0.3984,9.1011,-0.0406,0.0171,-0.1196,-1.6293679676451625,0.0,2.3147826194763184,-1.8384222984313965,-0.0,2.0998783111572266,4.686335726375244,0.0,0.2972938120365143,-1.538612190877096,0.0,-0.021432284265756607,0.8188344240188599,0.0,-0.0014712600968778133,0.8128131031990051,0.0,-0.0006483439356088638
967.0,900.0,2.5645,-0.3942,9.1226,-0.0377,0.0139,-0.1064,-1.6293798885741175,0.0,2.3548059463500977,-1.8383581638336182,-0.0,2.1105587482452393,4.686279936427734,0.0,0.2914643883705139,-1.5386117140399378,0.0,-0.009364821016788483,0.8188221454620361,0.0,-0.005945237819105387,0.8127973675727844,0.0,0.04454809054732323
967.0,900.0,2.5645,-0.3942,9.1226,-0.0377,0.0139,-0.1064,-1.6293722591795863,0.0,2.33575439453125,-1.8383746147155762,-0.0,2.121736526489258,4.6863600450703125,0.0,0.29806917905807495,-1.5386436621295374,0.0,-0.0012533623958006501,0.8188061118125916,0.0,-0.012647843919694424,0.81280118227005,0.0,-0.04647795855998993
967.0,900.0,2.5645,-0.3942,9.1226,-0.0377,0.0139,-0.1064,-1.6293641529478968,0.0,2.3559463024139404,-1.8383541107177734,-0.0,2.1423709392547607,4.686299486751221,0.0,0.3025940954685211,-1.5386202971087855,0.0,-0.006649303250014782,0.8187816739082336,0.0,-0.0028617943171411753,0.8127887845039368,0.0,-0.014716045930981636
967.0,900.0,2.5645,-0.3942,9.1226,-0.0377,0.0139,-0.1064,-1.6293841801085414,0.0,2.3872268199920654,-1.8383818864822388,-0.0,2.087157726287842,4.686323805446289,0.0,0.2839621603488922,-1.538652245198385,0.0,-0.016424015164375305,0.8188021183013916,0.0,-0.0022389169316738844,0.8127729296684265,0.0,-0.0181678906083107
967.0,900.0,2.5645,-0.3942,9.1226,-0.0377,0.0139,-0.1064,-1.6293798885741175,0.0,2.394503116607666,-1.838370442390442,-0.0,2.1380057334899902,4.6863156992146,0.0,0.30009227991104126,-1.5386441389666956,0.0,-0.006517497822642326,0.8188462853431702,0.0,-0.007028752472251654,0.8127688765525818,0.0,0.0022679069079458714
967.0,900.0,2.5645,-0.3942,9.1226,-0.0377,0.0139,-0.1064,-1.6293517551817835,0.0,2.316500186920166,-1.838438630104065,-0.0,2.1021196842193604,4.686323328609131,0.0,0.29763320088386536,-1.5386360327350062,0.0,-0.008178824558854103,0.8188424110412598,0.0,0.0035325526259839535,0.8128333687782288,0.0,-0.010445673950016499
967.0,900.0,2.5645,-0.3942,9.1226,-0.0377,0.0139,-0.1064,-1.6293517551817835,0.0,2.3540210723876953,-1.8383663892745972,-0.0,2.097114086151123,4.686327620143555,0.0,0.29472053050994873,-1.5386360327350062,0.0,-0.0049272868782281876,0.8187339305877686,0.0,0.009054630994796753,0.8128212690353394,0.0,-0.02684142254292965
967.0,900.0,2.5645,-0.3942,9.1226,-0.0377,0.0139,-0.1064,-1.6293679676451625,0.0,2.308016300201416,-1.838378667831421,-0.0,2.1324996948242188,4.686351938838623,0.0,0.293390691280365,-1.5386360327350062,0.0,-0.0031320666894316673,0.8187898993492126,0.0,-0.004456784576177597,0.8127891421318054,0.0,-0.02539018541574478
967.0,900.0,2.5645,-0.3942,9.1226,-0.0377,0.0139,-0.1064,-1.629376073876852,0.0,2.362592935562134,-1.8383902311325073,-0.0,2.1065585613250732,4.686291380519531,0.0,0.2822153866291046,-1.538652245198385,0.0,-0.019368091598153114,0.8188101649284363,0.0,-0.006910935044288635,0.8127888441085815,0.0,-0.018090911209583282
967.0,900.0,2.5645,-0.3942,9.1226,-0.0377,0.0139,-0.1064,-1.6293841801085414,0.0,2.386122465133667,-1.838378667831421,-0.0,2.1406826972961426,4.686347647304199,0.0,0.2990545928478241,-1.5386160055743616,0.0,0.0016057693865150213,0.8188424110412598,0.0,0.0030106231570243835,0.81280118227005,0.0,0.0044813258573412895
967.0,900.0,2.5645,-0.3942,9.1226,-0.0377,0.0139,-0.1064,-1.6293922863402308,0.0,2.338015556335449,-1.8383901119232178,-0.0,2.09112286567688,4.6863438326069335,0.0,0.29831022024154663,-1.5386360327350062,0.0,0.00273244921118021,0.8188021183013916,0.0,-0.011147089302539825,0.8127812147140503,0.0,0.007515045814216137
967.0,900.0,2.5645,-0.3942,9.1226,-0.0377,0.0139,-0.1064,-1.629404207269186,0.0,2.3438799381256104,-1.8383467197418213,-0.0,2.0846946239471436,4.686327620143555,0.0,0.3003225326538086,-1.5386160055743616,0.0,-0.0046531641855835915,0.8187864422798157,0.0,-0.00681822607293725,0.8128212690353394,0.0,0.010300523601472378
967.0,900.0,2.5645,-0.3942,9.1226,-0.0377,0.0139,-0.1064,-1.6293722591795863,0.0,2.3519091606140137,-1.8383901119232178,-0.0,2.10005784034729,4.686299486751221,0.0,0.3023962676525116,-1.5386117140399378,0.0,-0.004642551764845848,0.8188061118125916,0.0,-0.0021641820203512907,0.812825083732605,0.0,-0.005461033433675766
967.0,900.0,2.5645,-0.3942,9.1226,-0.0377,0.0139,-0.1064,-1.6293961010374964,0.0,2.3067312240600586,-1.838418960571289,-0.0,2.091010570526123,4.686327620143555,0.0,0.2936968505382538,-1.538595978413717,0.0,-0.01603635959327221,0.8188142776489258,0.0,0.0010596220381557941,0.812792956829071,0.0,-0.023603668436408043
967.0,900.0,2.5645,-0.3942,9.1226,-0.0377,0.0139,-0.1064,-1.6294323406615199,0.0,2.3475139141082764,-1.8383219242095947,-0.0,2.1093366146087646,4.686327620143555,0.0,0.303638756275177,-1.5386279265033167,0.0,-0.012963762506842613,0.8188302516937256,0.0,-0.0006187743856571615,0.8128052949905396,0.0,0.013891168870031834
967.0,900.0,2.5645,-0.3942,9.1226,-0.0377,0.0139,-0.1064,-1.6293798885741175,0.0,2.37638258934021,-1.8383705615997314,-0.0,2.101849317550659,4.68630759298291,0.0,0.30384570360183716,-1.5386398474322718,0.0,0.0016437608283013105,0.8188544511795044,0.0,0.00874965451657772,0.8127971291542053,0.0,0.011075564660131931
962.0,884.0,2.6495,-0.3996,9.0419,-0.0399,0.0208,-0.1127,-1.629371782342428,0.0,2.330439567565918,-1.8383827209472656,-0.0,2.1131653785705566,4.686327620143555,0.0,0.2927447557449341,-1.5386360327350062,0.0,-0.012622305192053318,0.8188261985778809,0.0,0.00443547498434782,0.8127771615982056,0.0,-0.0097673200070858
962.0,884.0,2.6495,-0.3996,9.0419,-0.0399,0.0208,-0.1127,-1.629359861413473,0.0,2.3662848472595215,-1.838430404663086,-0.0,2.0781188011169434,4.686295672053955,0.0,0.29527825117111206,-1.5386036078082483,0.0,-0.005714588798582554,0.8188142776489258,0.0,-0.0060506463050842285,0.8128295540809631,0.0,-0.04032963886857033
962.0,884.0,2.6495,-0.3996,9.0419,-0.0399,0.0208,-0.1127,-1.629399915734762,0.0,2.3223860263824463,-1.8383983373641968,-0.0,2.051273822784424,4.686335726375244,0.0,0.29845044016838074,-1.5386479536639612,0.0,-0.008515107445418835,0.8188302516937256,0.0,-0.005343063734471798,0.8127809762954712,0.0,0.030764559283852577
962.0,884.0,2.6495,-0.3996,9.0419,-0.0399,0.0208,-0.1127,-1.6293674908080042,0.0,2.352238655090332,-1.8383384943008423,-0.0,2.177095651626587,4.686275168056152,0.0,0.2967241108417511,-1.5386202971087855,0.0,-0.023599185049533844,0.8188544511795044,0.0,-0.010544609278440475,0.8128374814987183,0.0,0.025117486715316772
962.0,884.0,2.6495,-0.3996,9.0419,-0.0399,0.0208,-0.1127,-1.6293798885741175,0.0,2.32669997215271,-1.838309645652771,-0.0,2.1027309894561768,4.686311407680176,0.0,0.2940548062324524,-1.538652245198385,0.0,-0.01774255931377411,0.8188061118125916,0.0,-0.01760535128414631,0.8128213286399841,0.0,0.028296053409576416
962.0,884.0,2.6495,-0.3996,9.0419,-0.0399,0.0208,-0.1127,-1.6294084988036097,0.0,2.3963463306427,-1.8383623361587524,-0.0,2.15317964553833,4.6863156992146,0.0,0.30477041006088257,-1.5386398474322718,0.0,-0.01630941405892372,0.8188142776489258,0.0,-0.00885858479887247,0.8128052949905396,0.0,0.0075554074719548225
962.0,884.0,2.6495,-0.3996,9.0419,-0.0399,0.0208,-0.1127,-1.6294003925719203,0.0,2.389039993286133,-1.8383746147155762,-0.0,2.136998414993286,4.6863156992146,0.0,0.2906985878944397,-1.5386078993426722,0.0,-0.01540226861834526,0.8188220858573914,0.0,-0.00599709851667285,0.8128495812416077,0.0,-0.016568981111049652
962.0,884.0,2.6495,-0.3996,9.0419,-0.0399,0.0208,-0.1127,-1.6293841801085414,0.0,2.338787794113159,-1.838455319404602,-0.0,2.1049365997314453,4.6863319116779785,0.0,0.29151105880737305,-1.5386360327350062,0.0,-0.004936559125781059,0.8187979459762573,0.0,0.0001692025689408183,0.8127932548522949,0.0,0.007111295126378536
962.0,884.0,2.6495,-0.3996,9.0419,-0.0399,0.0208,-0.1127,-1.6294204197325648,0.0,2.3719801902770996,-1.8383827209472656,-0.0,2.1049675941467285,4.6863156992146,0.0,0.2959787845611572,-1.5386322180377405,0.0,-0.014605659991502762,0.8188302516937256,0.0,-0.008388162590563297,0.8128292560577393,0.0,0.02897530049085617
962.0,884.0,2.6495,-0.3996,9.0419,-0.0399,0.0208,-0.1127,-1.6293474636473597,0.0,2.320012092590332,-1.8384066820144653,-0.0,2.0948987007141113,4.686323328609131,0.0,0.3108491897583008,-1.5386078993426722,0.0,-0.017586229369044304,0.8187864422798157,0.0,-0.01070142351090908,0.8127973675727844,0.0,0.04441983997821808
962.0,884.0,2.6495,-0.3996,9.0419,-0.0399,0.0208,-0.1127,-1.6293798885741175,0.0,2.321322202682495,-1.8384026288986206,-0.0,2.0961291790008545,4.68633954107251,0.0,0.3004665970802307,-1.5386560598956507,0.0,-0.017357511445879936,0.8187583684921265,0.0,-0.008001264184713364,0.812809407711029,0.0,-0.007966386154294014
962.0,884.0,2.6495,-0.3996,9.0419,-0.0399,0.0208,-0.1127,-1.6293474636473597,0.0,2.333402395248413,-1.838377833366394,-0.0,2.14378023147583,4.686299486751221,0.0,0.30410900712013245,-1.5385759512530726,0.0,-0.010363541543483734,0.8188384175300598,0.0,-0.012055471539497375,0.8127527832984924,0.0,-0.0016017388552427292
962.0,884.0,2.6495,-0.3996,9.0419,-0.0399,0.0208,-0.1127,-1.6293722591795863,0.0,2.326504707336426,-1.8383426666259766,-0.0,2.111696243286133,4.686311407680176,0.0,0.28484171628952026,-1.5386236349688929,0.0,-0.0005821810918860137,0.8188061118125916,0.0,-0.013491101562976837,0.8127729892730713,0.0,-0.01596406102180481
962.0,884.0,2.6495,-0.3996,9.0419,-0.0399,0.0208,-0.1127,-1.629404207269186,0.0,2.3139450550079346,-1.8383941650390625,-0.0,2.117995500564575,4.686295672053955,0.0,0.3068722188472748,-1.538624111806051,0.0,-0.006573295220732689,0.8187946081161499,0.0,-0.004549794364720583,0.8128135800361633,0.0,0.0266555305570364
962.0,884.0,2.6495,-0.3996,9.0419,-0.0399,0.0208,-0.1127,-1.6293961010374964,0.0,2.3427839279174805,-1.8383581638336182,-0.0,2.073712110519409,4.686319990749023,0.0,0.2942086160182953,-1.5386083761798304,0.0,-0.017644662410020828,0.8187898397445679,0.0,0.002897955710068345,0.8128498792648315,0.0,-0.02190728485584259
962.0,884.0,2.6495,-0.3996,9.0419,-0.0399,0.0208,-0.1127,-1.6294123135008753,0.0,2.3656938076019287,-1.8383499383926392,-0.0,2.1121606826782227,4.686275168056152,0.0,0.29225680232048035,-1.5386398474322718,0.0,-0.006921753752976656,0.8188265562057495,0.0,0.006961710751056671,0.8128374814987183,0.0,6.361305713653564e-05
952.0,909.0,2.5496,-0.4002,9.1693,-0.0397,0.0191,-0.1086,-1.62937655071401,0.0,2.2908434867858887,-1.8383581638336182,-0.0,2.084298610687256,4.686355753535889,0.0,0.30596020817756653,-1.5386160055743616,0.0,-0.013243792578577995,0.8188344240188599,0.0,0.004666579887270927,0.8127850890159607,0.0,-0.012348150834441185
952.0,909.0,2.5496,-0.4002,9.1693,-0.0397,0.0191,-0.1086,-1.6293841801085414,0.0,2.3090457916259766,-1.838362216949463,-0.0,2.0804355144500732,4.686335726375244,0.0,0.2983461618423462,-1.5386279265033167,0.0,-0.02817210555076599,0.8187782168388367,0.0,-0.0002937775570899248,0.8128333687782288,0.0,-0.0111011303961277
952.0,909.0,2.5496,-0.4002,9.1693,-0.0397,0.0191,-0.1086,-1.629404207269186,0.0,2.3695900440216064,-1.8383827209472656,-0.0,2.0441489219665527,4.68630759298291,0.0,0.2930273413658142,-1.5385997931109827,0.0,-0.006912774406373501,0.8188021183013916,0.0,0.0032613645307719707,0.8128212690353394,0.0,0.028906436637043953
952.0,909.0,2.5496,-0.4002,9.1693,-0.0397,0.0191,-0.1086,-1.629416128198141,0.0,2.2923316955566406,-1.838309645652771,-0.0,2.1487863063812256,4.686259432429932,0.0,0.2937295436859131,-1.5386236349688929,0.0,-0.007279783487319946,0.8187938928604126,0.0,-0.0008547911420464516,0.8128012418746948,0.0,-0.026735398918390274
952.0,909.0,2.5496,-0.4002,9.1693,-0.0397,0.0191,-0.1086,-1.6293517551817835,0.0,2.3660812377929688,-1.8383581638336182,-0.0,2.079698085784912,4.686347647304199,0.0,0.30909207463264465,-1.5386117140399378,0.0,-0.014565792866051197,0.818750262260437,0.0,-0.0054394942708313465,0.8128171563148499,0.0,0.03375813364982605
952.0,909.0,2.5496,-0.4002,9.1693,-0.0397,0.0191,-0.1086,-1.6293841801085414,0.0,2.362260580062866,-1.8383582830429077,-0.0,2.1042795181274414,4.6863319116779785,0.0,0.2880845367908478,-1.5386322180377405,0.0,-0.019893813878297806,0.8188384175300598,0.0,-0.0032995175570249557,0.8128213286399841,0.0,-0.021469244733452797
952.0,909.0,2.5496,-0.4002,9.1693,-0.0397,0.0191,-0.1086,-1.6293679676451625,0.0,2.3452320098876953,-1.838422179222107,-0.0,2.131113052368164,4.6863319116779785,0.0,0.30044877529144287,-1.5386279265033167,0.0,-0.004178110975772142,0.8187782168388367,0.0,0.015489836223423481,0.8127647638320923,0.0,0.014580963179469109
952.0,909.0,2.5496,-0.4002,9.1693,-0.0397,0.0191,-0.1086,-1.6294485531248988,0.0,2.3554036617279053,-1.8384181261062622,-0.0,2.104572296142578,4.686291380519531,0.0,0.29211360216140747,-1.5386479536639612,0.0,-0.01203965675085783,0.8188020586967468,0.0,0.004425788763910532,0.8128172159194946,0.0,0.006539433728903532
952.0,909.0,2.5496,-0.4002,9.1693,-0.0397,0.0191,-0.1086,-1.6294242344298304,0.0,2.3981003761291504,-1.8384147882461548,-0.0,2.145401954650879,4.68633954107251,0.0,0.2877047061920166,-1.538584057484762,0.0,-0.014405414462089539,0.8188221454620361,0.0,-0.0035820414777845144,0.8128415942192078,0.0,-0.009749196469783783
952.0,909.0,2.5496,-0.4002,9.1693,-0.0397,0.0191,-0.1086,-1.6293961010374964,0.0,2.2888991832733154,-1.83831787109375,-0.0,2.098726272583008,4.686340017909668,0.0,0.3001517355442047,-1.5386398474322718,0.0,-0.01665075495839119,0.8188264966011047,0.0,0.0006308958400040865,0.8128131031990051,0.0,-0.04634834825992584
952.0,909.0,2.5496,-0.4002,9.1693,-0.0397,0.0191,-0.1086,-1.6294003925719203,0.0,2.362943649291992,-1.8383549451828003,-0.0,2.091486930847168,4.686335726375244,0.0,0.303185373544693,-1.5386322180377405,0.0,-0.007856760174036026,0.8188061118125916,0.0,-0.01555398665368557,0.8128131031990051,0.0,-0.015499449335038662
952.0,909.0,2.5496,-0.4002,9.1693,-0.0397,0.0191,-0.1086,-1.6293965778746546,0.0,2.3376588821411133,-1.8383901119232178,-0.0,2.088351011276245,4.686319990749023,0.0,0.28740325570106506,-1.5386160055743616,0.0,-0.017522480338811874,0.8188101649284363,0.0,-0.003082296811044216,0.8128052949905396,0.0,0.00487283430993557
952.0,909.0,2.5496,-0.4002,9.1693,-0.0397,0.0191,-0.1086,-1.6294003925719203,0.0,2.415365219116211,-1.838386058807373,-0.0,2.099990129470825,4.686319990749023,0.0,0.29554349184036255,-1.538595978413717,0.0,-0.016395242884755135,0.81882244348526,0.0,-0.007193080149590969,0.8127970695495605,0.0,-0.003475453704595566
952.0,909.0,2.5496,-0.4002,9.1693,-0.0397,0.0191,-0.1086,-1.6293918095030726,0.0,2.341064214706421,-1.8384026288986206,-0.0,2.126239061355591,4.686308069820068,0.0,0.29611238837242126,-1.538624111806051,0.0,-0.017932625487446785,0.8187904357910156,0.0,0.00364431319758296,0.8127771019935608,0.0,-0.019160578027367592
952.0,909.0,2.5496,-0.4002,9.1693,-0.0397,0.0191,-0.1086,-1.6294123135008753,0.0,2.42423152923584,-1.8383983373641968,-0.0,2.101658582687378,4.686287088985107,0.0,0.3001750707626343,-1.5386160055743616,0.0,-0.01143767312169075,0.8188261985778809,0.0,0.004139939323067665,0.812865674495697,0.0,-0.013315582647919655
952.0,909.0,2.5496,-0.4002,9.1693,-0.0397,0.0191,-0.1086,-1.6293884716429652,0.0,2.326982021331787,-1.8383301496505737,-0.0,2.067356586456299,4.68630759298291,0.0,0.2973286509513855,-1.5386160055743616,0.0,-0.019072365015745163,0.8188381195068359,0.0,-0.007213148754090071,0.8128012418746948,0.0,0.006918264087289572
934.0,926.0,2.6285,-0.4175,8.9874,-0.0334,0.0234,-0.11,-1.6293841801085414,0.0,2.356079578399658,-1.8384066820144653,-0.0,2.0430116653442383,4.686347647304199,0.0,0.2942494750022888,-1.5386160055743616,0.0,-0.012682605534791946,0.8188264966011047,0.0,0.005274748895317316,0.8128172159194946,0.0,-0.016540860757231712
934.0,926.0,2.6285,-0.4175,8.9874,-0.0334,0.0234,-0.11,-1.6293722591795863,0.0,2.3375308513641357,-1.838370442390442,-0.0,2.148444652557373,4.686295672053955,0.0,0.302295446395874,-1.5385759512530726,0.0,-0.02471843920648098,0.8188384175300598,0.0,0.002287163631990552,0.8127888441085815,0.0,-0.02042027749121189
934.0,926.0,2.6285,-0.4175,8.9874,-0.0334,0.0234,-0.11,-1.629359861413473,0.0,2.322232484817505,-1.8383467197418213,-0.0,2.112741708755493,4.686327620143555,0.0,0.29233014583587646,-1.5386322180377405,0.0,-0.015635395422577858,0.8187740445137024,0.0,-0.006674084812402725,0.8128012418746948,0.0,-0.0076974667608737946
934.0,926.0,2.6285,-0.4175,8.9874,-0.0334,0.0234,-0.11,-1.629359861413473,0.0,2.3765416145324707,-1.8383581638336182,-0.0,2.11173152923584,4.686287088985107,0.0,0.29156193137168884,-1.5386078993426722,0.0,-0.020444976165890694,0.818810224533081,0.0,-0.009703155606985092,0.8127726912498474,0.0,0.01513097807765007
934.0,926.0,2.6285,-0.4175,8.9874,-0.0334,0.0234,-0.11,-1.6293841801085414,0.0,2.3679866790771484,-1.8384026288986206,-0.0,2.107433795928955,4.686347647304199,0.0,0.2839803993701935,-1.5385916868792933,0.0,-0.013042186386883259,0.8188344240188599,0.0,0.003255481831729412,0.8128337264060974,0.0,-0.006707511842250824
934.0,926.0,2.6285,-0.4175,8.9874,-0.0334,0.0234,-0.11,-1.6293722591795863,0.0,2.3226723670959473,-1.838350772857666,-0.0,2.1144466400146484,4.6863156992146,0.0,0.28812912106513977,-1.5386198202716272,0.0,-0.01136940997093916,0.8187938928604126,0.0,-0.0037448308430612087,0.812825083732605,0.0,-0.03715066239237785
934.0,926.0,2.6285,-0.4175,8.9874,-0.0334,0.0234,-0.11,-1.6294242344298304,0.0,2.367215156555176,-1.838422179222107,-0.0,2.106524705886841,4.686291380519531,0.0,0.29725080728530884,-1.5386322180377405,0.0,-0.013908212073147297,0.8188221454620361,0.0,0.0005614718538708985,0.8127768039703369,0.0,0.01650168187916279
934.0,926.0,2.6285,-0.4175,8.9874,-0.0334,0.0234,-0.11,-1.6293841801085414,0.0,2.359877109527588,-1.8383901119232178,-0.0,2.1175754070281982,4.686303301448486,0.0,0.2945852279663086,-1.5386160055743616,0.0,-0.012294145300984383,0.8188021183013916,0.0,-0.011385488323867321,0.8128013014793396,0.0,0.015108665451407433
934.0,926.0,2.6285,-0.4175,8.9874,-0.0334,0.0234,-0.11,-1.629359861413473,0.0,2.3431875705718994,-1.838386058807373,-0.0,2.099837303161621,4.686335726375244,0.0,0.3081590533256531,-1.5386078993426722,0.0,-0.013555960729718208,0.8187938928604126,0.0,-0.011884905397891998,0.8128374218940735,0.0,-0.020256470888853073
934.0,926.0,2.6285,-0.4175,8.9874,-0.0334,0.0234,-0.11,-1.6293961010374964,0.0,2.3528013229370117,-1.83841073513031,-0.0,2.105203151702881,4.686335726375244,0.0,0.30749812722206116,-1.5385878721820276,0.0,-0.018252957612276077,0.8188306093215942,0.0,-0.0035038916394114494,0.8128253817558289,0.0,0.004795606713742018
934.0,926.0,2.6285,-0.4175,8.9874,-0.0334,0.0234,-0.11,-1.6293679676451625,0.0,2.3670120239257812,-1.8383746147155762,-0.0,2.1265578269958496,4.6863438326069335,0.0,0.3011844754219055,-1.5386479536639612,0.0,-0.012241448275744915,0.8188344240188599,0.0,-0.00902562402188778,0.8128331303596497,0.0,0.009559648111462593
934.0,926.0,2.6285,-0.4175,8.9874,-0.0334,0.0234,-0.11,-1.6294080219664515,0.0,2.305233955383301,-1.8383983373641968,-0.0,2.077317476272583,4.686316176051758,0.0,0.29184263944625854,-1.538567845021383,0.0,-0.013828125782310963,0.8188384175300598,0.0,-0.004197608679533005,0.8128495216369629,0.0,-0.0172786433249712
934.0,926.0,2.6285,-0.4175,8.9874,-0.0334,0.0234,-0.11,-1.6294323406615199,0.0,2.3471546173095703,-1.8383663892745972,-0.0,2.110522985458374,4.6863037782856445,0.0,0.2850489020347595,-1.5386078993426722,0.0,-0.007702699862420559,0.8188827633857727,0.0,0.007713275961577892,0.8128454089164734,0.0,-0.013640353456139565
934.0,926.0,2.6285,-0.4175,8.9874,-0.0334,0.0234,-0.11,-1.6293679676451625,0.0,2.3101325035095215,-1.838402509689331,-0.0,2.0848193168640137,4.686308069820068,0.0,0.2941780984401703,-1.5385916868792933,0.0,-0.00922858901321888,0.8188664317131042,0.0,0.005153481848537922,0.8128131031990051,0.0,0.0034212879836559296
934.0,926.0,2.6285,-0.4175,8.9874,-0.0334,0.0234,-0.11,-1.6294242344298304,0.0,2.323309898376465,-1.8383705615997314,-0.0,2.093418598175049,4.686363859767578,0.0,0.2973085939884186,-1.5386036078082483,0.0,-0.01941882073879242,0.8188180327415466,0.0,-0.007534668315201998,0.8127850890159607,0.0,-0.015830913558602333
950.0,902.0,2.5418,-0.5264,9.0796,-0.0399,0.0195,-0.1122,-1.6294123135008753,0.0,2.362740993499756,-1.8383705615997314,-0.0,2.107853412628174,4.686308069820068,0.0,0.3012663722038269,-1.5386040846454065,0.0,-0.001148783601820469,0.8188098073005676,0.0,-0.005445039365440607,0.8128454089164734,0.0,-0.018321773037314415
950.0,902.0,2.5418,-0.5264,9.0796,-0.0399,0.0195,-0.1122,-1.6294003925719203,0.0,2.332557439804077,-1.8383549451828003,1.795014448191523e-08,2.099745512008667,4.686323328609131,0.0,0.3053990602493286,-1.5386117140399378,0.0,-0.02172514609992504,0.8188344240188599,0.0,0.014823646284639835,0.8127888441085815,0.0,-0.019962793216109276
950.0,902.0,2.5418,-0.5264,9.0796,-0.0399,0.0195,-0.1122,-1.6293798885741175,0.0,2.318741798400879,-1.8383944034576416,4.3347480281879375e-14,2.051034688949585,4.686271830196045,0.0,0.2963508069515228,-1.5386040846454065,0.0,-0.015792271122336388,0.8188540935516357,0.0,0.004068410489708185,0.8127809166908264,0.0,0.03254629671573639
950.0,902.0,2.5418,-0.5264,9.0796,-0.0399,0.0195,-0.1122,-1.6293884716429652,0.0,2.3192691802978516,-1.8383541107177734,7.802393535615622e-18,2.1227049827575684,4.686335726375244,0.0,0.2918856739997864,-1.5386160055743616,0.0,-0.004060167353600264,0.8187741041183472,0.0,-0.00790497288107872,0.8128253817558289,0.0,0.05541738122701645
950.0,902.0,2.5418,-0.5264,9.0796,-0.0399,0.0195,-0.1122,-1.6293961010374964,0.0,2.3048059940338135,-1.838342547416687,1.8841862257391534e-23,2.1103920936584473,4.686295672053955,0.0,0.28722432255744934,-1.5386117140399378,0.0,-0.01587723009288311,0.8188425302505493,0.0,-0.006349755916744471,0.8128053545951843,0.0,-0.01889690011739731
950.0,902.0,2.5418,-0.5264,9.0796,-0.0399,0.0195,-0.1122,-1.6293679676451625,0.0,2.3175864219665527,-1.8383818864822388,4.5500877345188354e-29,2.0820207595825195,4.686299486751221,0.0,0.29696688055992126,-1.5385835806476038,0.0,-0.008171590976417065,0.8188382387161255,0.0,-5.7750847190618515e-05,0.81280118227005,0.0,-0.0033650128170847893
950.0,902.0,2.5418,-0.5264,9.0796,-0.0399,0.0195,-0.1122,-1.6293922863402308,0.0,2.329937219619751,-1.8384026288986206,5.9602920373436064e-05,2.1111624240875244,4.6863037782856445,0.0,0.280046671628952,-1.538652245198385,0.0,-0.010151490569114685,0.8187741041183472,0.0,-0.0002613922697491944,0.8128577470779419,0.0,-0.03255438804626465
950.0,902.0,2.5418,-0.5264,9.0796,-0.0399,0.0195,-0.1122,-1.6293517551817835,0.0,2.384897232055664,-1.8383982181549072,4.9792815843829885e-05,2.1034233570098877,4.686278982753418,0.0,0.285555362701416,-1.538600269948141,0.0,-0.007692424114793539,0.8188020586967468,0.0,0.0014672286342829466,0.8128333687782288,0.0,-0.0299425907433033
950.0,902.0,2.5418,-0.5264,9.0796,-0.0399,0.0195,-0.1122,-1.6294003925719203,0.0,2.405984401702881,-1.838342547416687,4.270422869012691e-05,2.16385555267334,4.686275168056152,0.0,0.2884730398654938,-1.5386322180377405,0.0,-0.011165909469127655,0.8187380433082581,0.0,0.0010806038044393063,0.8128292560577393,0.0,-0.011677372269332409
950.0,902.0,2.5418,-0.5264,9.0796,-0.0399,0.0195,-0.1122,-1.6294242344298304,0.0,2.3714439868927,-1.8383344411849976,3.900266528944485e-05,2.1107864379882812,4.6863319116779785,0.0,0.305176317691803,-1.5386160055743616,0.0,-0.020335635170340538,0.818846583366394,0.0,-0.0025382568128407,0.8127850890159607,0.0,0.023227740079164505
950.0,902.0,2.5418,-0.5264,9.0796,-0.0399,0.0195,-0.1122,-1.629359861413473,0.0,2.39369535446167,-1.838334321975708,3.451522934483364e-05,2.089308261871338,4.686335726375244,0.0,0.3051328659057617,-1.5385997931109827,0.0,-0.005246438551694155,0.8188422322273254,0.0,-0.007068186532706022,0.8128209710121155,0.0,-0.021388163790106773
950.0,902.0,2.5418,-0.5264,9.0796,-0.0399,0.0195,-0.1122,-1.6294080219664515,0.0,2.3092799186706543,-1.838378667831421,3.095380816375837e-05,2.0946664810180664,4.686319990749023,0.0,0.2899254858493805,-1.5386202971087855,0.0,-0.033425018191337585,0.8187904357910156,0.0,-0.00037229014560580254,0.81280118227005,0.0,-0.016858451068401337
950.0,902.0,2.5418,-0.5264,9.0796,-0.0399,0.0195,-0.1122,-1.629343648950094,0.0,2.379018783569336,-1.8383910655975342,2.8058630050509237e-05,2.13773512840271,4.68633954107251,0.0,0.29692238569259644,-1.5385916868792933,0.0,-0.011196715757250786,0.8188101649284363,0.0,-0.0009403685689903796,0.8128292560577393,0.0,-0.020467791706323624
950.0,902.0,2.5418,-0.5264,9.0796,-0.0399,0.0195,-0.1122,-1.6293555698790492,0.0,2.3991880416870117,-1.8383983373641968,2.565878094173968e-05,2.097151279449463,4.686327620143555,0.0,0.286937415599823,-1.5386078993426722,0.0,-0.006708227563649416,0.8188384175300598,0.0,-0.003661598777398467,0.8128172159194946,0.0,-0.015675920993089676
950.0,902.0,2.5418,-0.5264,9.0796,-0.0399,0.0195,-0.1122,-1.629359861413473,0.0,2.3257782459259033,-1.838350772857666,2.36370979109779e-05,2.0519967079162598,4.686347647304199,0.0,0.2983468472957611,-1.5386322180377405,0.0,-0.015125792473554611,0.8188868761062622,0.0,-0.004520835354924202,0.8127689361572266,0.0,0.04858850687742233
950.0,902.0,2.5418,-0.5264,9.0796,-0.0399,0.0195,-0.1122,-1.629359861413473,2.724628855865774e-11,2.3240530490875244,-1.8383663892745972,4.380935934023e-05,2.1215524673461914,4.686311407680176,0.0,0.29157698154449463,-1.5386765638934534,0.0,-0.005577838514000177,0.8187979459762573,0.0,0.004172458313405514,0.812857449054718,0.0,0.03241590037941933
927.0,946.0,2.5268,-0.7448,9.2847,-0.0466,0.0165,-0.0976,-1.629347940484518,4.9042360613076735e-15,2.343092441558838,-1.838350534439087,8.328275725943968e-05,2.12959623336792,4.6863319116779785,0.0,0.2927272319793701,-1.5386036078082483,0.0,-0.0036516054533421993,0.8188384175300598,0.0,0.005869347136467695,0.8128698468208313,0.0,-0.03613121062517166
927.0,946.0,2.5268,-0.7448,9.2847,-0.0466,0.0165,-0.0976,-1.6293159923949183,1.1843151957879438e-20,2.3684682846069336,-1.8383549451828003,0.00019347826309967786,2.0807929039001465,4.686295672053955,0.0,0.30136749148368835,-1.5386598745929163,0.0,-0.01974131539463997,0.8188462853431702,0.0,-0.014954551123082638,0.8128333687782288,0.0003084696363657713,0.014173001050949097
927.0,946.0,2.5268,-0.7448,9.2847,-0.0466,0.0165,-0.0976,-1.6293922863402308,2.8599819318093393e-26,2.3653218746185303,-1.8383910655975342,0.0001774825359461829,2.1192760467529297,4.686335726375244,0.0,0.30529671907424927,-1.538624111806051,0.0,-0.010921326465904713,0.818814218044281,0.0,-0.015472323633730412,0.8128371834754944,0.0004626039008144289,-0.0037561345379799604
927.0,946.0,2.5268,-0.7448,9.2847,-0.0466,0.0165,-0.0976,-1.6293798885741175,6.906518904478057e-32,2.3510313034057617,-1.838370442390442,0.0001636514934943989,2.0957839488983154,4.6863319116779785,0.0,0.30635038018226624,-1.5386560598956507,0.0,-0.018469443544745445,0.818810224533081,0.0,0.005261839367449284,0.8128979206085205,0.0008023291011340916,0.033286213874816895
927.0,946.0,2.5268,-0.7448,9.2847,-0.0466,0.0165,-0.0976,-1.6293841801085414,1.6678431446519863e-37,2.35151743888855,-1.838402509689331,0.00017350471171084791,2.0982532501220703,4.686319513911865,0.0,0.30009713768959045,-1.5386717955218714,0.0,-0.00876101478934288,0.8187622427940369,0.0,-0.009660053998231888,0.812857449054718,0.0012606320669874549,-0.03936649113893509
927.0,946.0,2.5268,-0.7448,9.2847,-0.0466,0.0165,-0.0976,-1.6293722591795863,4.021726592612225e-43,2.36978816986084,-1.8383177518844604,0.00016181054525077343,2.0901875495910645,4.68633954107251,0.0,0.2927840054035187,-1.5386517683612269,0.0,-0.005112414248287678,0.8188021183013916,0.0,-0.004245256073772907,0.8128690123558044,0.0019863408524543047,0.019864261150360107
927.0,946.0,2.5268,-0.7448,9.2847,-0.0466,0.0165,-0.0976,-1.6293922863402308,0.0,2.3639419078826904,-1.8383342027664185,0.00015485049516428262,2.069890022277832,4.6863438326069335,0.0,0.2930602729320526,-1.5386560598956507,0.0,-0.009583919309079647,0.8188381195068359,0.0,-0.0013195046922191978,0.8129419088363647,0.002356287557631731,0.04189690202474594
927.0,946.0,2.5268,-0.7448,9.2847,-0.0466,0.0165,-0.0976,-1.6293641529478968,0.0,2.319897174835205,-1.8383383750915527,0.00025736758834682405,2.1114397048950195,4.686359568233154,0.0,0.304645836353302,-1.538668457661764,0.0,0.0014898913213983178,0.8188945651054382,0.0,-0.0013968583662062883,0.8128807544708252,0.0031749894842505455,-0.023758690804243088
927.0,946.0,2.5268,-0.7448,9.2847,-0.0466,0.0165,-0.0976,-1.6293555698790492,0.0,2.307612895965576,-1.8383671045303345,0.00031141360523179173,2.0890324115753174,4.6863319116779785,0.0,0.306216299533844,-1.5386922995196741,0.0,-0.008246544748544693,0.8187938928604126,0.0,-0.009712823666632175,0.8129451274871826,0.004294640384614468,-0.01540575921535492
927.0,946.0,2.5268,-0.7448,9.2847,-0.0466,0.0165,-0.0976,-1.6293522320189417,0.0,2.368312358856201,-1.8383867740631104,0.0006432053633034229,2.1257264614105225,4.6863319116779785,0.0,0.3011266887187958,-1.5386398474322718,0.0,-0.016027355566620827,0.8188462853431702,0.0,0.009190844371914864,0.8129573464393616,0.0047248536720871925,0.002239073161035776
927.0,946.0,2.5268,-0.7448,9.2847,-0.0466,0.0165,-0.0976,-1.6293722591795863,0.0,2.3440165519714355,-1.8383063077926636,0.0005538552068173885,2.142529249191284,4.686359568233154,0.0,0.2814948558807373,-1.5386641661273401,0.0,-0.019213132560253143,0.8188261985778809,0.0,-0.004601735156029463,0.8129771947860718,0.0032870760187506676,-0.03657805174589157
927.0,946.0,2.5268,-0.7448,9.2847,-0.0466,0.0165,-0.0976,-1.6293798885741175,0.0,2.3436617851257324,-1.838350772857666,0.0004382402403280139,2.124272346496582,4.686351938838623,4.2933200461447996e-07,0.2996176779270172,-1.5386398474322718,0.0,-0.013806506060063839,0.8188462257385254,0.0,0.0029292767867445946,0.8129973411560059,0.001797131379134953,0.03342581167817116
927.0,946.0,2.5268,-0.7448,9.2847,-0.0466,0.0165,-0.0976,-1.629359861413473,0.0,2.351184606552124,-1.8383383750915527,0.00016403647896368057,2.1193056106567383,4.6863156992146,1.1950612721634002e-10,0.2976560592651367,-1.5386517683612269,0.0,-0.012212805449962616,0.8188462853431702,0.0,-0.007068644743412733,0.8129854202270508,0.0009686443954706192,0.004071483854204416
927.0,946.0,2.5268,-0.7448,9.2847,-0.0466,0.0165,-0.0976,-1.6294080219664515,0.0,2.3419189453125,-1.838362216949463,6.968040543142706e-05,2.1247973442077637,4.686311407680176,5.094733771145166e-13,0.3050454258918762,-1.5386479536639612,0.0,-0.006073354743421078,0.8188221454620361,0.0,-0.0013906555250287056,0.8129854202270508,0.0002589270588941872,0.027682093903422356
927.0,946.0,2.5268,-0.7448,9.2847,-0.0466,0.0165,-0.0976,-1.6294485531248988,0.0,2.3632912635803223,-1.8383910655975342,5.6313423556275666e-05,2.0930335521698,4.686311884517334,1.418137897448918e-16,0.3007757067680359,-1.5386479536639612,0.0,-0.02114679105579853,0.8187938332557678,0.0,-0.002847513183951378,0.8129450678825378,5.815199344283428e-08,0.02050900086760521
927.0,946.0,2.5268,-0.7448,9.2847,-0.0466,0.0165,-0.0976,-1.6293918095030726,-3.637278496171348e-05,2.3505825996398926,-1.8383870124816895,4.741233351523988e-05,2.0964622497558594,4.686311884517334,3.947439007482881e-20,0.29272329807281494,-1.5386279265033167,0.0,0.0004688221961259842,0.8188139200210571,0.0,-0.003439860185608268,0.8129978179931641,1.4043024284659394e-13,-0.007227226160466671
963.0,903.0,2.5346,-0.2094,9.134,-0.0392,-0.0208,-0.1565,-1.6294366321959437,-3.567487874533981e-05,2.3829030990600586,-1.838362216949463,4.094125688425265e-05,2.088231086730957,4.6863037782856445,1.0987843178153547e-23,0.3049166202545166,-1.5385916868792933,0.0,-0.015309503301978111,0.8187581300735474,0.0,0.005111570004373789,0.8129816055297852,3.3912251860142083e-19,-0.024937327951192856
963.0,903.0,2.5346,-0.2094,9.134,-0.0392,-0.0208,-0.1565,-1.6293961010374964,-3.367274621268734e-05,2.395500421524048,-1.838394284248352,3.6024714063387364e-05,2.0873160362243652,4.6863319116779785,3.0585067519581767e-27,0.2901560366153717,-1.5386322180377405,0.0,-0.007518771104514599,0.8187857270240784,0.0,-0.0023491238243877888,0.8129492998123169,-0.0006943942862562835,0.01834290474653244
963.0,903.0,2.5346,-0.2094,9.134,-0.0392,-0.0208,-0.1565,-1.6294242344298304,-3.188346090610139e-05,2.3162038326263428,-1.8384066820144653,3.2162417483050376e-05,2.100923538208008,4.68636338293042,8.5134651736835e-31,0.2952747344970703,-1.5386160055743616,0.0,-0.009549972601234913,0.818850040435791,0.0,-0.0061318036168813705,0.8129293918609619,-0.0010556072229519486,-0.024380885064601898
963.0,903.0,2.5346,-0.2094,9.134,-0.0392,-0.0208,-0.1565,-1.6294123135008753,-3.07925911329221e-05,2.291097640991211,-1.838362216949463,3.001695586135611e-05,2.0467844009399414,4.6863037782856445,3.629424031504247e-33,0.30431830883026123,-1.5386322180377405,0.0,-0.009343369863927364,0.8188582062721252,0.0,-0.014959387481212616,0.8129373788833618,-0.00102523947134614,-0.002327769296243787
963.0,903.0,2.5346,-0.2094,9.134,-0.0392,-0.0208,-0.1565,-1.6293679676451625,-2.928944923041854e-05,2.3667454719543457,-1.8383467197418213,2.728670006035827e-05,2.0877256393432617,4.68630759298291,1.0102635494658025e-36,0.28721490502357483,-1.5386160055743616,0.0,-0.009423207491636276,0.8187339305877686,0.0,-0.01393541693687439,0.8129051923751831,-0.0007968666031956673,-0.007875652983784676
963.0,903.0,2.5346,-0.2094,9.134,-0.0392,-0.0208,-0.1565,-1.6293961010374964,-2.7926231268793344e-05,2.3617801666259766,-1.8383135795593262,5.002288526156917e-05,2.1005711555480957,4.686355753535889,2.8121117452223996e-40,0.29401895403862,-1.538680378590719,0.0,-0.00686781806871295,0.8188184499740601,0.0,0.0008521876879967749,0.8128931522369385,-0.0005981795256957412,0.00999709963798523
963.0,903.0,2.5346,-0.2094,9.134,-0.0392,-0.0208,-0.1565,-1.6294123135008753,-2.6684270778787322e-05,2.364932060241699,-1.8383581638336182,6.925627531018108e-05,2.125746250152588,4.6863156992146,7.847271400218976e-44,0.2984023988246918,-1.5386202971087855,0.0,-0.003576151793822646,0.8187979459762573,0.0,0.00941342394798994,0.8129294514656067,-0.00047881013597361743,0.039167020469903946
963.0,903.0,2.5346,-0.2094,9.134,-0.0392,-0.0208,-0.1565,-1.629376073876852,-2.554806815169286e-05,2.356604814529419,-1.8383631706237793,6.431148358387873e-05,2.0936450958251953,4.686319990749023,0.0,0.3150297701358795,-1.538652245198385,0.0,-0.00798571016639471,0.8187775015830994,0.0,-0.012219573371112347,0.8129373788833618,-0.00031148266862146556,-0.012519411742687225
963.0,903.0,2.5346,-0.2094,9.134,-0.0392,-0.0208,-0.1565,-1.6294204197325648,-1.2740306374325883e-05,2.312251091003418,-1.8383547067642212,6.0022393881808966e-05,2.0822396278381348,4.686291380519531,0.0,0.31267377734184265,-1.5386078993426722,5.184903617561076e-10,0.0033185628708451986,0.8188867568969727,0.0,-0.0036236904561519623,0.8129217028617859,-0.0002570918877609074,-0.005825926084071398
963.0,903.0,2.5346,-0.2094,9.134,-0.0392,-0.0208,-0.1565,-1.629359861413473,-1.177157992060529e-05,2.3565659523010254,-1.838370442390442,4.967131826560944e-05,2.1600050926208496,4.686319990749023,0.0,0.31294625997543335,-1.5386479536639612,1.4432370771567948e-13,0.003216351382434368,0.8187581300735474,0.0,-0.002059870632365346,0.8129011392593384,-0.00021947131608612835,-0.023334026336669922
963.0,903.0,2.5346,-0.2094,9.134,-0.0392,-0.0208,-0.1565,-1.6293965778746546,-1.1471504876681138e-05,2.3375797271728516,-1.8382619619369507,8.548966434318572e-05,2.0921781063079834,4.686315222377441,0.0,0.3127828538417816,-1.5386598745929163,6.152746214297159e-16,-0.011673754081130028,0.8187822699546814,0.0,0.0028590073343366385,0.8129615783691406,-0.00019996480841655284,-0.010395882651209831
963.0,903.0,2.5346,-0.2094,9.134,-0.0392,-0.0208,-0.1565,-1.629376073876852,-1.1049030945287086e-05,2.387524366378784,-1.8383030891418457,0.0011036330834031105,2.1182687282562256,4.686327620143555,0.0,0.30903953313827515,-1.5386202971087855,1.7126395889286254e-19,0.003958903253078461,0.8188462853431702,0.0,0.010084629990160465,0.8129134178161621,-0.00017644256877247244,0.024921460077166557
963.0,903.0,2.5346,-0.2094,9.134,-0.0392,-0.0208,-0.1565,-1.6294242344298304,-1.0656546692189295e-05,2.3440215587615967,-1.8382906913757324,0.001416439306922257,2.0975053310394287,4.6863319116779785,0.0,0.30102863907814026,-1.5385916868792933,4.767195313055495e-23,0.013708004727959633,0.8188061118125916,0.0,0.006808786652982235,0.8129217028617859,-0.00015787109441589564,-0.014939874410629272
963.0,903.0,2.5346,-0.2094,9.134,-0.0392,-0.0208,-0.1565,-1.6293679676451625,-1.029099803417921e-05,2.352241039276123,-1.8382577896118164,0.0015443399315699935,2.0892651081085205,4.686327620143555,0.0,0.31321901082992554,-1.5386160055743616,1.3269663479803877e-26,0.005946981720626354,0.8188261389732361,0.0,0.00784390140324831,0.8129373788833618,-0.0001428374816896394,0.023687366396188736
963.0,903.0,2.5346,-0.2094,9.134,-0.0392,-0.0208,-0.1565,-1.6293841801085414,-1.692106707196217e-05,2.361473321914673,-1.8382906913757324,0.0013690706109628081,2.1220903396606445,4.68633143484082,0.0,0.31253209710121155,-1.5386160055743616,3.693659790170751e-30,0.007101594004780054,0.8188663721084595,0.0,0.008916477672755718,0.8129376769065857,-0.00010445810039527714,0.0127757852897048
963.0,903.0,2.5346,-0.2094,9.134,-0.0392,-0.0208,-0.1565,-1.6293555698790492,-1.92388233699603e-05,2.3633527755737305,-1.8382947444915771,0.0011191918747499585,2.0927555561065674,4.686323328609131,0.0,0.3101624548435211,-1.5386322180377405,1.0281438380593098e-33,0.0027427200693637133,0.8188745379447937,0.0,-0.0013057191390544176,0.8129051923751831,-9.598866745363921e-05,0.0072265854105353355
948.0,924.0,2.8959,-0.3159,8.9456,-0.0438,0.0139,-0.1103,-1.6294242344298304,-1.8079423171002418e-05,2.338411331176758,-1.8383029699325562,0.0009614338632673025,2.139979839324951,4.6863600450703125,0.0,0.31017184257507324,-1.5386441389666956,2.861876562053414e-37,0.005118728615343571,0.81886225938797,0.0,0.011331524699926376,0.8128931522369385,-8.887910371413454e-05,0.007370286621153355
948.0,924.0,2.8959,-0.3159,8.9456,-0.0438,0.0139,-0.1103,-1.6294604740538539,-3.475271660136059e-05,2.34745192527771,-1.838330864906311,0.0008308937540277839,2.1083638668060303,4.686347647304199,0.0,0.3085358440876007,-1.538624111806051,1.2200629287398312e-39,-0.0055945198982954025,0.8188905715942383,0.0,0.010722670704126358,0.8129294514656067,-8.469696331303567e-05,0.062436871230602264
948.0,924.0,2.8959,-0.3159,8.9456,-0.0438,0.0139,-0.1103,-1.6294199428954066,-4.921104482491501e-05,2.377951145172119,-1.8382865190505981,0.000799324712716043,2.0826683044433594,4.686347647304199,0.0,0.30519136786460876,-1.5386202971087855,3.3911422836660573e-43,-0.0020973505452275276,0.8188097476959229,0.0,0.0021887393668293953,0.8129574656486511,-5.933509601163678e-05,0.03139934316277504
948.0,924.0,2.8959,-0.3159,8.9456,-0.0438,0.0139,-0.1103,-1.6293794117369593,-0.00035194394877180457,2.3163161277770996,-1.8382947444915771,0.0011636329581961036,2.127317428588867,4.686295672053955,0.0,0.3009667992591858,-1.5385759512530726,0.0,0.008002773858606815,0.8188142776489258,0.0,0.013811158947646618,0.8129294514656067,5.012646579416469e-05,0.030370470136404037
948.0,924.0,2.8959,-0.3159,8.9456,-0.0438,0.0139,-0.1103,-1.629399915734762,-0.00041850574780255556,2.306515693664551,-1.838243007659912,0.001713257166557014,2.114047050476074,4.686295195216797,0.0,0.3001556098461151,-1.5386117140399378,0.0,-0.003983180038630962,0.818850040435791,0.0,-0.0005586561746895313,0.8129212260246277,4.75166343676392e-05,0.04014919698238373
948.0,924.0,2.8959,-0.3159,8.9456,-0.0438,0.0139,-0.1103,-1.6294800243773402,-0.0009924547048285604,2.280287981033325,-1.838226556777954,0.0023064070846885443,2.1296823024749756,4.686319990749023,0.0,0.3166586458683014,-1.5386322180377405,0.0,-0.009892965666949749,0.8188582062721252,0.0,0.00555292796343565,0.8129456043243408,8.775656169746071e-05,0.06007912755012512
948.0,924.0,2.8959,-0.3159,8.9456,-0.0438,0.0139,-0.1103,-1.6294876537718714,-0.0011725929798558354,2.3122894763946533,-1.838243007659912,0.003115234198048711,2.1612865924835205,4.6863037782856445,0.0,0.2966415286064148,-1.538572136555807,0.0,0.016634047031402588,0.8188340067863464,0.0,0.021864786744117737,0.8129895329475403,0.0005228593945503235,0.06026839837431908
948.0,924.0,2.8959,-0.3159,8.9456,-0.0438,0.0139,-0.1103,-1.6295114956297816,-0.0017762350616976619,2.3120293617248535,-1.838227391242981,0.005171163473278284,2.1425318717956543,4.686319990749023,0.0,0.3076722025871277,-1.5385802427874964,0.0,0.0001388054806739092,0.8188621997833252,0.0,0.012641290202736855,0.8129771947860718,0.0011655907146632671,0.07376664876937866
948.0,924.0,2.8959,-0.3159,8.9456,-0.0438,0.0139,-0.1103,-1.62953581432485,-0.004612571094185114,2.3370461463928223,-1.838175654411316,0.007345933932811022,2.0999245643615723,4.686295672053955,0.0,0.3031737506389618,-1.5386083761798304,0.0,0.011594261974096298,0.8188302516937256,0.0,0.0023662555031478405,0.813054084777832,0.0021584683563560247,0.09980905801057816
948.0,924.0,2.8959,-0.3159,8.9456,-0.0438,0.0139,-0.1103,-1.6296283207335414,-0.0076271542347967625,2.3104493618011475,-1.8381104469299316,0.009575332514941692,2.136704683303833,4.686335726375244,0.0,0.3194030225276947,-1.5385878721820276,0.0,0.004065325483679771,0.8188704252243042,0.0,0.005390194244682789,0.8130577206611633,0.0039686341769993305,0.1256808489561081
948.0,924.0,2.8959,-0.3159,8.9456,-0.0438,0.0139,-0.1103,-1.6296841106810511,-0.01074126921594143,2.3162198066711426,-1.8380308151245117,0.01067175343632698,2.159327507019043,4.686278982753418,0.0,0.31536978483200073,-1.5386441389666956,0.0,-0.004666795488446951,0.8188098073005676,0.0,0.014778651297092438,0.8130773901939392,0.006856793072074652,0.11209498345851898
948.0,924.0,2.8959,-0.3159,8.9456,-0.0438,0.0139,-0.1103,-1.629751821557516,-0.01261598989367485,2.262821674346924,-1.8379509449005127,0.012431264854967594,2.1498827934265137,4.686319990749023,-1.2605416941369185e-06,0.31685206294059753,-1.5385401884662073,0.0,-0.0013317940756678581,0.8188945651054382,0.0,0.01979551464319229,0.8131617307662964,0.009496665559709072,0.12576958537101746
948.0,924.0,2.8959,-0.3159,8.9456,-0.0438,0.0139,-0.1103,-1.6298119030394496,-0.013079458847641945,2.291159152984619,-1.8378275632858276,0.01453594770282507,2.1280019283294678,4.686295672053955,-3.5087641125919333e-10,0.3142169415950775,-1.5385802427874964,0.0,-0.004885959438979626,0.8188540935516357,0.0,0.0029124473221600056,0.8132457733154297,0.013347132131457329,0.1189144104719162
948.0,924.0,2.8959,-0.3159,8.9456,-0.0438,0.0139,-0.1103,-1.6299683056273402,-0.013568389229476452,2.3064732551574707,-1.837759256362915,0.013982593081891537,2.1200714111328125,4.686291380519531,-9.766773029435197e-14,0.3063565790653229,-1.5385964552508753,0.0,0.010506805963814259,0.8188061118125916,0.0,0.006890688091516495,0.8133179545402527,0.016329120844602585,0.11961135268211365
948.0,924.0,2.8959,-0.3159,8.9456,-0.0438,0.0139,-0.1103,-1.6300198040404261,-0.014066469855606556,2.2871224880218506,-1.837723970413208,0.01347341202199459,2.137237071990967,4.686311884517334,-4.163728624478034e-16,0.2981589138507843,-1.5385635534869593,0.0,-0.004206450190395117,0.8188540935516357,0.0,0.021553974598646164,0.813373863697052,0.017508653923869133,0.1464289426803589
948.0,924.0,2.8959,-0.3159,8.9456,-0.0438,0.0139,-0.1103,-1.6300918064513148,-0.014009400270879269,2.2569072246551514,-1.8376400470733643,0.01303921453654766,2.135516881942749,4.686279936427734,-1.1589891226300722e-19,0.3170308470726013,-1.538628403340475,6.616784958168864e-05,0.00020336778834462166,0.81886225938797,0.0,0.015416783280670643,0.8134778738021851,0.01903831772506237,0.1203196570277214
957.0,908.0,2.9641,-0.3236,8.8451,-0.0281,0.0128,-0.1022,-1.630195756951803,-0.012232103385031223,2.3139467239379883,-1.8375840187072754,0.01227362547069788,2.0709004402160645,4.686271830196045,-3.2260889548458476e-23,0.308837354183197,-1.538612190877096,6.363642023643479e-05,0.001763676293194294,0.8188421726226807,0.0,0.02649502083659172,0.8135576844215393,0.019032586365938187,0.1606188714504242
957.0,908.0,2.9641,-0.3236,8.8451,-0.0281,0.0128,-0.1022,-1.6302677593626917,-0.01128065213561058,2.278233528137207,-1.8374804258346558,0.010377557016909122,2.144414186477661,4.686323805446289,-8.979936484825167e-27,0.3110381066799164,-1.538584057484762,6.104670319473371e-05,-0.0030538486316800117,0.8188582062721252,0.0,0.011917161755263805,0.8137102127075195,0.019107742235064507,0.11342372000217438
957.0,908.0,2.9641,-0.3236,8.8451,-0.0281,0.0128,-0.1022,-1.6302830181517542,-0.011265202425420284,2.2749855518341064,-1.8374720811843872,0.007808140013366938,2.155780792236328,4.686299486751221,-2.499598270978355e-30,0.30536583065986633,-1.5385640303241175,5.865941784577444e-05,-0.0031991819851100445,0.8188340663909912,0.0,0.01723724976181984,0.8138061165809631,0.01766115054488182,0.1715671569108963
957.0,908.0,2.9641,-0.3236,8.8451,-0.0281,0.0128,-0.1022,-1.63037170986318,-0.010352986864745617,2.2947745323181152,-1.8374440670013428,0.005069809500128031,2.0858945846557617,4.686319990749023,-6.957723511868272e-34,0.3189632296562195,-1.538572136555807,5.645175770041533e-05,0.002704914193600416,0.8189228177070618,0.0,0.020144138485193253,0.8139183521270752,0.016835516318678856,0.18090477585792542
957.0,908.0,2.9641,-0.3236,8.8451,-0.0281,0.0128,-0.1022,-1.6304475269713343,-0.00972803495824337,2.2479748725891113,-1.8373799324035645,0.0037962188944220543,2.133195161819458,4.686283274287842,-2.9661869776602105e-36,0.30581581592559814,-1.5385482946978968,5.507008245331235e-05,-0.0023316601291298866,0.8188741207122803,0.0,0.011383093893527985,0.8139663934707642,0.015887606889009476,0.147474467754364
957.0,908.0,2.9641,-0.3236,8.8451,-0.0281,0.0128,-0.1022,-1.6304708919920863,-0.008753861300647259,2.296046257019043,-1.8373881578445435,0.0023731361143290997,2.1237494945526123,4.686291380519531,-8.256492590755752e-40,0.3127087354660034,-1.5385759512530726,5.311987843015231e-05,-0.005378258414566517,0.8188462853431702,0.0,0.016849763691425323,0.8140910267829895,0.014729213900864124,0.20242729783058167
957.0,908.0,2.9641,-0.3236,8.8451,-0.0281,0.0128,-0.1022,-1.6305071316161097,-0.007572982460260391,2.262173891067505,-1.8374170064926147,0.001199126592837274,2.084635019302368,4.686319990749023,-2.2981294814927e-43,0.311067134141922,-1.5386164824115198,5.130311183165759e-05,-0.007794438861310482,0.8188377022743225,0.0,0.022739365696907043,0.8141424059867859,0.0129883186891675,0.17506831884384155
957.0,908.0,2.9641,-0.3236,8.8451,-0.0281,0.0128,-0.1022,-1.6305958233275355,-0.0071778190322220325,2.2880654335021973,-1.8373446464538574,0.0007193518686108291,2.1086390018463135,4.686323328609131,-0.0,0.3227705955505371,-1.5386083761798304,2.514454536139965e-05,0.006784447934478521,0.8188340663909912,0.0,0.018433954566717148,0.8141899704933167,0.011465090326964855,0.15383420884609222
957.0,908.0,2.9641,-0.3236,8.8451,-0.0281,0.0128,-0.1022,-1.630594869653219,-0.006541771348565817,2.2507121562957764,-1.8374046087265015,0.0005138544947840273,2.0930793285369873,4.6863156992146,-0.0,0.3046407401561737,-1.5386040846454065,6.999076873626109e-09,-0.007209909148514271,0.8188621997833252,0.0,0.040368396788835526,0.8142746686935425,0.009670529514551163,0.1638120412826538
957.0,908.0,2.9641,-0.3236,8.8451,-0.0281,0.0128,-0.1022,-1.630623003045553,-0.0062871649861335754,2.2936220169067383,-1.8373684883117676,0.00039970947545953095,2.109173059463501,4.686311407680176,-0.0,0.31384149193763733,-1.5386040846454065,1.9482187130909212e-12,-0.020512128248810768,0.8188179731369019,0.0,0.029544735327363014,0.8142542243003845,0.00709600979462266,0.16640961170196533
957.0,908.0,2.9641,-0.3236,8.8451,-0.0281,0.0128,-0.1022,-1.6306992969908656,-0.005875973030924797,2.218726873397827,-1.8374004364013672,0.00032706561614759266,2.098896026611328,4.686335726375244,-0.0,0.3143468499183655,-1.5385802427874964,5.42293892117371e-16,0.0028510335832834244,0.8189188241958618,0.0,0.020185086876153946,0.8143383860588074,0.005026066210120916,0.17271041870117188
957.0,908.0,2.9641,-0.3236,8.8451,-0.0281,0.0128,-0.1022,-1.6306911907591761,-0.005961250048130751,2.2529869079589844,-1.8373644351959229,0.0003403330047149211,2.1576762199401855,4.686295672053955,-0.0,0.31265789270401,-1.5385759512530726,2.3118835785068537e-18,-0.0035319689195603132,0.8189023733139038,0.0,0.024156413972377777,0.8143342733383179,0.0037321732379496098,0.13691988587379456
957.0,908.0,2.9641,-0.3236,8.8451,-0.0281,0.0128,-0.1022,-1.6307717762389125,-0.005236003082245588,2.2330470085144043,-1.8373486995697021,0.0002752710715867579,2.101224422454834,4.6863156992146,-0.0,0.3181793689727783,-1.5385635534869593,6.435213235043864e-22,0.00021640886552631855,0.8189064860343933,0.0,0.023060381412506104,0.8144107460975647,0.0024864377919584513,0.16285255551338196
957.0,908.0,2.9641,-0.3236,8.8451,-0.0281,0.0128,-0.1022,-1.6307550869383753,-0.004495179280638695,2.2737436294555664,-1.8374004364013672,0.0014449844602495432,2.1359362602233887,4.686287088985107,-0.0,0.31247976422309875,-1.538567845021383,1.791265224890187e-25,-0.01687304675579071,0.8188942074775696,3.705497510964051e-05,0.030817881226539612,0.8143905401229858,0.001568673294968903,0.1996673047542572
957.0,908.0,2.9641,-0.3236,8.8451,-0.0281,0.0128,-0.1022,-1.6307832203307093,-0.003446662100031972,2.313741445541382,-1.8373043537139893,0.002783724572509527,2.080613136291504,4.686299486751221,-0.0,0.3277570307254791,-1.538572136555807,4.986052671939375e-29,-0.006913335062563419,0.8188258409500122,7.024472142802551e-05,0.014421137049794197,0.8144065737724304,0.0011150966165587306,0.1656854748725891
957.0,908.0,2.9641,-0.3236,8.8451,-0.0281,0.0128,-0.1022,-1.630758901635641,-0.0027934133540838957,2.2548909187316895,-1.837300181388855,0.004109576344490051,2.1343533992767334,4.6863438326069335,-0.0,0.3051920235157013,-1.538567845021383,1.387886049675117e-32,-0.013645750470459461,0.8188741207122803,6.711159949190915e-05,0.023717125877738,0.814346194267273,0.0006257116911001503,0.13942764699459076
979.0,924.0,2.6166,-0.265,9.1962,-0.0273,0.0195,-0.117,-1.6308189831175746,-0.0023643863387405872,2.294025182723999,-1.837324857711792,0.004636278375983238,2.156296968460083,4.686355753535889,-0.0,0.31173384189605713,-1.5385759512530726,3.86323197870879e-36,-0.022882496938109398,0.8188581466674805,6.423752347473055e-05,0.02263786271214485,0.8143659830093384,0.0006103441119194031,0.14712762832641602
979.0,924.0,2.6166,-0.265,9.1962,-0.0273,0.0195,-0.117,-1.6308032474913539,-0.0023949863389134407,2.2872118949890137,-1.8372039794921875,0.005268557462841272,2.148695230484009,4.6863156992146,-0.0,0.31619203090667725,-1.538567845021383,1.646956314599747e-38,-0.013586800545454025,0.818882405757904,6.24544991296716e-05,0.01756332255899906,0.8143659830093384,0.0007643926655873656,0.16481739282608032
979.0,924.0,2.6166,-0.265,9.1962,-0.0273,0.0195,-0.117,-1.6308309040465296,-0.002490703947842121,2.259504556655884,-1.8371851444244385,0.006313147488981485,2.123011589050293,4.686335726375244,-0.0,0.320514440536499,-1.5385482946978968,8.828213321976364e-05,-0.015665974467992783,0.818841814994812,7.193606870714575e-05,0.03002406843006611,0.8143942356109619,0.001408289303071797,0.18043231964111328
979.0,924.0,2.6166,-0.265,9.1962,-0.0273,0.0195,-0.117,-1.6308146915831507,-0.0022675450891256332,2.318429946899414,-1.8371851444244385,0.007160599809139967,2.1351799964904785,4.686323805446289,-0.0,0.32347816228866577,-1.5385564009295862,0.00010591244063107297,-0.014347286894917488,0.818870484828949,6.91841560183093e-05,0.030419569462537766,0.8144385814666748,0.0018369141034781933,0.1934393048286438
979.0,924.0,2.6166,-0.265,9.1962,-0.0273,0.0195,-0.117,-1.6308871708311976,-0.0019209267338737845,2.3540685176849365,-1.8371652364730835,0.008510884828865528,2.1445493698120117,4.686283274287842,-0.0,0.31682145595550537,-1.5385964552508753,0.00011625113984337077,-0.01063510775566101,0.818874180316925,6.662347004748881e-05,0.03138623386621475,0.8144547343254089,0.002691481960937381,0.21341484785079956
979.0,924.0,2.6166,-0.265,9.1962,-0.0273,0.0195,-0.117,-1.6308509312071742,-0.0016338570276275277,2.320507526397705,-1.8370846509933472,0.009347818791866302,2.11538028717041,4.686319990749023,-0.0,0.32712244987487793,-1.5385759512530726,0.0004445829545147717,-0.006001102738082409,0.8188663721084595,6.424550520023331e-05,0.03428824990987778,0.814458429813385,0.00394695159047842,0.17406587302684784
979.0,924.0,2.6166,-0.265,9.1962,-0.0273,0.0195,-0.117,-1.6308590374388636,-0.0015744399279356003,2.2787227630615234,-1.8369883298873901,0.010898590087890625,2.1409120559692383,4.686295195216797,-0.0,0.3233962655067444,-1.5385759512530726,0.00038306761416606605,-0.007254987023770809,0.8188900947570801,6.971300899749622e-05,0.021081343293190002,0.8144700527191162,0.005236680619418621,0.16005255281925201
979.0,924.0,2.6166,-0.265,9.1962,-0.0273,0.0195,-0.117,-1.6308666668333949,-0.0017862486420199275,2.33008074760437,-1.8369406461715698,0.011599668301641941,2.127368450164795,4.686287088985107,-0.0,0.3282093405723572,-1.5385635534869593,0.0003683975664898753,-0.008982664905488491,0.8188704252243042,6.995839794399217e-05,0.02658897265791893,0.8145506978034973,0.006870980840176344,0.12931929528713226
979.0,924.0,2.6166,-0.265,9.1962,-0.0273,0.0195,-0.117,-1.6308547459044398,-0.0018923557363450527,2.314535140991211,-1.836868166923523,0.011405173689126968,2.156728506088257,4.686267538661621,-0.0,0.31986090540885925,-1.5385645071612757,0.0003298647061455995,0.0019433891866356134,0.8188823461532593,1.1607460237428313e-06,0.021731626242399216,0.8145586252212524,0.007569412235170603,0.1852976232767105
979.0,924.0,2.6166,-0.265,9.1962,-0.0273,0.0195,-0.117,-1.6309315166869105,-0.0020989314652979374,2.294498920440674,-1.83681321144104,0.011724859476089478,2.1571216583251953,4.6863037782856445,-0.0,0.31631356477737427,-1.5385482946978968,0.00028507239767350256,-0.015418753027915955,0.8189023733139038,3.2309796504925714e-10,0.03787136822938919,0.8146347403526306,0.008839341811835766,0.1591421663761139
979.0,924.0,2.6166,-0.265,9.1962,-0.0273,0.0195,-0.117,-1.6309110126891078,-0.002246726071462035,2.299644947052002,-1.836761474609375,0.012215976603329182,2.13543963432312,4.686299486751221,-0.0,0.3220318555831909,-1.5385358969317835,0.0002867639996111393,-0.004050250630825758,0.8189541101455688,8.99354917795192e-14,0.026549488306045532,0.8146953582763672,0.009960060939192772,0.15518151223659515
979.0,924.0,2.6166,-0.265,9.1962,-0.0273,0.0195,-0.117,-1.6309591732420863,-0.0026592446956783533,2.3050191402435303,-1.8366856575012207,0.012094516307115555,2.1363840103149414,4.686323805446289,-0.0,0.3204811215400696,-1.5385564009295862,0.00025713644572533667,-0.0164878498762846,0.8189146518707275,2.5033873467643635e-17,0.03837600722908974,0.8147351145744324,0.011105372570455074,0.1748829334974289
979.0,924.0,2.6166,-0.265,9.1962,-0.0273,0.0195,-0.117,-1.6309548817076625,-0.0033428960014134645,2.2901837825775146,-1.83660089969635,0.013355222530663013,2.202314615249634,4.6863037782856445,-0.0,0.32009202241897583,-1.5385244528399866,0.00019801098096650094,-0.007555656135082245,0.8188941478729248,6.968270454342573e-21,0.04458880051970482,0.8147950768470764,0.011548726819455624,0.2128865271806717
979.0,924.0,2.6166,-0.265,9.1962,-0.0273,0.0195,-0.117,-1.6309744320311488,-0.004820437170565128,2.299178123474121,-1.8365375995635986,0.014157998375594616,2.1687803268432617,4.686275168056152,-0.0,0.3318037986755371,-1.5385726133929651,0.000208677927730605,-0.005018509924411774,0.8188778758049011,1.9396438967940505e-24,0.02912057191133499,0.8148671984672546,0.012929961085319519,0.14625069499015808
979.0,924.0,2.6166,-0.265,9.1962,-0.0273,0.0195,-0.117,-1.6309706173338832,-0.005516191944479942,2.2888760566711426,-1.8364660739898682,0.014752953313291073,2.1423087120056152,4.686363859767578,-0.0,0.3245429992675781,-1.5385521093951624,0.00019474464352242649,-0.016998883336782455,0.8188498616218567,8.269005638501863e-27,0.02879945933818817,0.8149474859237671,0.013495592400431633,0.18602167069911957
979.0,924.0,2.6166,-0.265,9.1962,-0.0273,0.0195,-0.117,-1.6310225925841273,-0.006984876934438944,2.320661783218384,-1.8363624811172485,0.015681719407439232,2.1384689807891846,4.686319990749023,-0.0,0.3273121118545532,-1.5385482946978968,0.00020495452918112278,-0.005830743350088596,0.8189104795455933,2.301708028797086e-30,0.031269896775484085,0.8149586915969849,0.01471269503235817,0.18701604008674622
950.0,917.0,2.4461,-0.4355,9.0299,-0.022,0.0223,-0.0886,-1.6310869656004847,-0.008931937627494335,2.2724475860595703,-1.8362537622451782,0.01705801673233509,2.1780271530151367,4.686291380519531,-0.0,0.3326159715652466,-1.5384882132159632,0.0001867851533461362,-0.015027188695967197,0.8188700675964355,6.406888695782872e-34,0.03566955775022507,0.8151031136512756,0.017121603712439537,0.15168631076812744
950.0,917.0,2.4461,-0.4355,9.0299,-0.022,0.0223,-0.0886,-1.6311184368529261,-0.010314990766346455,2.31587290763855,-1.8361468315124512,0.018261518329381943,2.1767966747283936,4.686247034663818,-0.0,0.32067203521728516,-1.5385282675372522,0.00019597483333200216,-0.004736884962767363,0.8189064264297485,1.7833809877627075e-37,0.03879976645112038,0.8151991963386536,0.017667347565293312,0.19205187261104584
950.0,917.0,2.4461,-0.4355,9.0299,-0.022,0.0223,-0.0886,-1.631190916100973,-0.01244843378663063,2.2771623134613037,-1.8359979391098022,0.019019020721316338,2.1238722801208496,4.686319990749023,-0.0,0.32918500900268555,-1.5385406653033655,0.0001812271075323224,-0.007390220649540424,0.8189064860343933,4.964099809870664e-41,0.03594575077295303,0.815323531627655,0.01833668164908886,0.1878759115934372
950.0,917.0,2.4461,-0.4355,9.0299,-0.022,0.0223,-0.0886,-1.6312667332091273,-0.013596348464488983,2.2923920154571533,-1.83588707447052,0.0205683596432209,2.145890235900879,4.686278982753418,-0.0,0.32840272784233093,-1.5385120550738733,0.00019580830121412873,-0.0013397911097854376,0.8188942074775696,6.02832660661079e-05,0.054274097084999084,0.8154236674308777,0.01936585269868374,0.16962827742099762
950.0,917.0,2.4461,-0.4355,9.0299,-0.022,0.0223,-0.0886,-1.6313702068724574,-0.015795789659023285,2.3092384338378906,-1.8357782363891602,0.022534893825650215,2.1628994941711426,4.686287088985107,-0.0,0.32224053144454956,-1.5385120550738733,0.000173435706528835,-0.008595163002610207,0.8188860416412354,6.805441807955503e-05,0.027588941156864166,0.8155437707901001,0.02047101967036724,0.18864136934280396
950.0,917.0,2.4461,-0.4355,9.0299,-0.022,0.0223,-0.0886,-1.6314465008177699,-0.017616547644138336,2.289928913116455,-1.8356547355651855,0.022768229246139526,2.1504902839660645,4.686299486751221,-0.0,0.32110512256622314,-1.538532559071676,0.0001610217586858198,0.006223948672413826,0.8188819289207458,6.605931412195787e-05,0.04020717740058899,0.8156681656837463,0.02036278322339058,0.15704479813575745
950.0,917.0,2.4461,-0.4355,9.0299,-0.022,0.0223,-0.0886,-1.6315304241576136,-0.020791733637452126,2.2121949195861816,-1.8355116844177246,0.024982083588838577,2.150089979171753,4.6863037782856445,-0.0,0.3232579529285431,-1.5385368506061,0.00014541004202328622,-0.013218335807323456,0.8189104795455933,6.327273877104744e-05,0.04466662183403969,0.8157477974891663,0.02008497528731823,0.15698321163654327
950.0,917.0,2.4461,-0.4355,9.0299,-0.022,0.0223,-0.0886,-1.6316825352110804,-0.023555753752589226,2.2987685203552246,-1.8353958129882812,0.026077359914779663,2.1329081058502197,4.686323805446289,-0.0,0.3303511142730713,-1.5385039488421839,0.0001581618853379041,-0.01666218228638172,0.8189064860343933,6.0711830883519724e-05,0.046303197741508484,0.8158476948738098,0.018958115950226784,0.2020609974861145
950.0,917.0,2.4461,-0.4355,9.0299,-0.022,0.0223,-0.0886,-1.631806036035055,-0.025815045461058617,2.2885961532592773,-1.8352237939834595,0.027738088741898537,2.16461443901062,4.686323805446289,-0.0,0.3249770402908325,-1.5385001341449183,0.000146153150126338,-0.009914422407746315,0.8188782334327698,6.410195055650547e-05,0.04001402109861374,0.8159677386283875,0.017822731286287308,0.1775129735469818
950.0,917.0,2.4461,-0.4355,9.0299,-0.022,0.0223,-0.0886,-1.6319900951781214,-0.02915579080581665,2.268141984939575,-1.8350722789764404,0.028962403535842896,2.129939079284668,4.686328096980713,-0.0,0.33144623041152954,-1.5385482946978968,0.00013517684419639409,-0.020520102232694626,0.818854033946991,6.739670061506331e-05,0.02951708622276783,0.8160639405250549,0.016434423625469208,0.1895238161087036
950.0,917.0,2.4461,-0.4355,9.0299,-0.022,0.0223,-0.0886,-1.6321779690184535,-0.03239496052265167,2.297447681427002,-1.8348766565322876,0.031021013855934143,2.202687978744507,4.686327620143555,-0.0,0.33085665106773376,-1.5384920279132288,0.00012573397543746978,-0.00852147862315178,0.8188377618789673,6.496587593574077e-05,0.03819546848535538,0.8161601424217224,0.014970161952078342,0.1815510392189026
950.0,917.0,2.4461,-0.4355,9.0299,-0.022,0.0223,-0.0886,-1.6323262653746546,-0.03546449914574623,2.2840147018432617,-1.834736704826355,0.0322948582470417,2.134087324142456,4.686323805446289,-0.0,0.33721452951431274,-1.538476292287008,0.00012013903324259445,-0.009847606532275677,0.8189179301261902,6.343937275232747e-05,0.033569611608982086,0.8162079453468323,0.013787847943603992,0.18377867341041565
950.0,917.0,2.4461,-0.4355,9.0299,-0.022,0.0223,-0.0886,-1.6324898205199183,-0.03751171752810478,2.266127347946167,-1.8345211744308472,0.03581232950091362,2.1970362663269043,4.686335726375244,-0.0,0.34283125400543213,-1.538515869771139,0.0001126219067373313,-0.003019857220351696,0.8188782334327698,7.144835399230942e-05,0.04115128517150879,0.8162635564804077,0.012936804443597794,0.2211858332157135
950.0,917.0,2.4461,-0.4355,9.0299,-0.022,0.0223,-0.0886,-1.6327702007689417,-0.042162537574768066,2.2646853923797607,-1.8342777490615845,0.03968561440706253,2.1850364208221436,4.6863438326069335,-0.0,0.3438546359539032,-1.538515869771139,0.00012363502173684537,-0.002689273562282324,0.8189064264297485,1.7764214135240763e-05,0.04193508252501488,0.8163719177246094,0.011568648740649223,0.20832788944244385
950.0,917.0,2.4461,-0.4355,9.0299,-0.022,0.0223,-0.0886,-1.6330253086485804,-0.048288363963365555,2.230790615081787,-1.8340177536010742,0.044458936899900436,2.19084095954895,4.686267538661621,-0.0,0.32837942242622375,-1.5385368506061,0.00011677875590976328,-0.01651250757277012,0.8188498616218567,4.944734843803644e-09,0.03606066107749939,0.81639564037323,0.011276493780314922,0.19186684489250183
950.0,917.0,2.4461,-0.4355,9.0299,-0.022,0.0223,-0.0886,-1.6333257160582484,-0.05492532253265381,2.2224373817443848,-1.8337059020996094,0.051050782203674316,2.228588581085205,4.686319990749023,-0.0,0.33409273624420166,-1.5385039488421839,0.00011062675912398845,-0.018627287819981575,0.8189023733139038,1.37638511699123e-12,0.022733353078365326,0.816504180431366,0.009462721645832062,0.21140050888061523
957.0,936.0,2.1972,-0.2566,9.0879,-0.0287,0.0356,-0.1074,-1.6336614094176234,-0.060634784400463104,2.289653778076172,-1.8334228992462158,0.057874955236911774,2.2521004676818848,4.6863037782856445,-0.0,0.34321165084838867,-1.5385482946978968,0.00010509064304642379,-0.012998171150684357,0.8188900947570801,3.831218958890662e-16,0.03728710487484932,0.8165886402130127,0.009310456924140453,0.1467684805393219
957.0,936.0,2.1972,-0.2566,9.0879,-0.0287,0.0356,-0.1074,-1.6340414486327113,-0.0657440796494484,2.243931293487549,-1.8330436944961548,0.06514117121696472,2.2400970458984375,4.686271830196045,-0.0,0.33600765466690063,-1.538515869771139,0.00010008209210354835,-0.014991087839007378,0.8189258575439453,0.00011153685773024336,0.04430878907442093,0.8166002035140991,0.008923367597162724,0.20945009589195251
957.0,936.0,2.1972,-0.2566,9.0879,-0.0287,0.0356,-0.1074,-1.63429655651235,-0.06834875047206879,2.25862979888916,-1.8327516317367554,0.06978550553321838,2.2633862495422363,4.686391516322754,-0.0,0.33438611030578613,-1.5385039488421839,9.700020018499345e-05,-0.010243802331387997,0.8189098834991455,0.00010631065379129723,0.04777325689792633,0.8166683912277222,0.008550124242901802,0.168442964553833
957.0,936.0,2.1972,-0.2566,9.0879,-0.0287,0.0356,-0.1074,-1.6347323856749476,-0.07391814142465591,2.2513973712921143,-1.8323403596878052,0.07517313212156296,2.2956430912017822,4.68630759298291,-0.0,0.33114951848983765,-1.5385125319110315,0.00010593343176878989,-0.017491670325398445,0.8188859820365906,0.00011912358604604378,0.03342144563794136,0.8167327642440796,0.008468558080494404,0.19595950841903687
957.0,936.0,2.1972,-0.2566,9.0879,-0.0287,0.0356,-0.1074,-1.635301252404684,-0.07794100791215897,2.271204948425293,-1.831925630569458,0.07652348279953003,2.289360284805298,4.686311884517334,-0.0,0.329446017742157,-1.5385201613055628,0.0001014823283185251,-0.018183331936597824,0.818926215171814,0.00011173419625265524,0.04967072233557701,0.8167198896408081,0.008777454495429993,0.18958508968353271
957.0,936.0,2.1972,-0.2566,9.0879,-0.0287,0.0356,-0.1074,-1.6357003651061,-0.08013763278722763,2.265507221221924,-1.8314272165298462,0.07939982414245605,2.2780847549438477,4.686319990749023,-0.0,0.34259647130966187,-1.5385282675372522,9.736529318615794e-05,0.005674922373145819,0.8189064860343933,0.00012273219181224704,0.05868542566895485,0.8168365955352783,0.00889325700700283,0.2022588849067688
957.0,936.0,2.1972,-0.2566,9.0879,-0.0287,0.0356,-0.1074,-1.6361352405943812,-0.08093356341123581,2.2115917205810547,-1.8309310674667358,0.08496545255184174,2.315164566040039,4.686295672053955,-0.0,0.3441884517669678,-1.5385001341449183,9.356933151138946e-05,-0.0002572033554315567,0.8188818693161011,0.00011595980322454125,0.04782060161232948,0.8168643712997437,0.008984626270830631,0.20468276739120483
957.0,936.0,2.1972,-0.2566,9.0879,-0.0287,0.0356,-0.1074,-1.636663099328512,-0.08061301708221436,2.2455334663391113,-1.8304169178009033,0.09428917616605759,2.294795513153076,4.686295672053955,-0.0,0.33024972677230835,-1.5384677092181605,9.005824540508911e-05,0.0021286155097186565,0.8189258575439453,0.0001255724491784349,0.04326611012220383,0.8169041872024536,0.008873705752193928,0.19733849167823792
957.0,936.0,2.1972,-0.2566,9.0879,-0.0287,0.0356,-0.1074,-1.6370436153807582,-0.08356475085020065,2.2091095447540283,-1.8300007581710815,0.09864740818738937,2.3018317222595215,4.686299486751221,-0.0,0.3342635929584503,-1.5385125319110315,7.444954826496542e-05,-0.0096739511936903,0.8188942074775696,0.00012135652650613338,0.03559798002243042,0.8169969320297241,0.008938967250287533,0.20622387528419495
957.0,936.0,2.1972,-0.2566,9.0879,-0.0287,0.0356,-0.1074,-1.6375342808165492,-0.08865715563297272,2.203901767730713,-1.8294140100479126,0.10394283384084702,2.3020846843719482,4.686303301448486,-0.0,0.3354223370552063,-1.5385125319110315,7.082751835696399e-05,-0.0068842563778162,0.8189218044281006,0.00011551544594112784,0.04213029891252518,0.8169963955879211,0.009186099283397198,0.226771742105484
957.0,936.0,2.1972,-0.2566,9.0879,-0.0287,0.0356,-0.1074,-1.6380821667113246,-0.09330715239048004,2.222817897796631,-1.828718900680542,0.11446112394332886,2.341024875640869,4.686267538661621,-0.0,0.33582621812820435,-1.5384920279132288,7.939360511954874e-05,-0.009333882480859756,0.8189181089401245,0.00016346649499610066,0.0453546866774559,0.8170726895332336,0.009626490995287895,0.24426914751529694
957.0,936.0,2.1972,-0.2566,9.0879,-0.0287,0.0356,-0.1074,-1.6386543713011683,-0.10348097234964371,2.251242160797119,-1.8280360698699951,0.12026707828044891,2.3607962131500244,4.686308069820068,-0.0,0.3359608054161072,-1.5384801069842737,7.76586530264467e-05,-9.008683264255524e-06,0.8188738226890564,0.0001474309538025409,0.0485503114759922,0.817173182964325,0.01021365262567997,0.24737858772277832
957.0,936.0,2.1972,-0.2566,9.0879,-0.0287,0.0356,-0.1074,-1.6392981014647425,-0.10886304825544357,2.217653751373291,-1.8272970914840698,0.12622009217739105,2.3397703170776367,4.686323805446289,-0.0,0.3364689350128174,-1.5384886900531214,8.684103522682562e-05,-0.0037326118908822536,0.8188982009887695,0.00013423568452708423,0.04886852204799652,0.8171484470367432,0.010238425806164742,0.22764286398887634
957.0,936.0,2.1972,-0.2566,9.0879,-0.0287,0.0356,-0.1074,-1.6399132213988246,-0.11422435194253922,2.240020275115967,-1.826474666595459,0.13092713057994843,2.3569867610931396,4.686287088985107,-0.0,0.34691447019577026,-1.5384882132159632,8.340541535289958e-05,-0.005893525667488575,0.8189218044281006,0.0001232085924129933,0.03578650951385498,0.8172610998153687,0.01052328385412693,0.23206676542758942
957.0,936.0,2.1972,-0.2566,9.0879,-0.0287,0.0356,-0.1074,-1.6405683956541957,-0.11493618041276932,2.2339987754821777,-1.8256405591964722,0.13755595684051514,2.367097854614258,4.686319990749023,-0.0,0.34422096610069275,-1.5385282675372522,9.165390656562522e-05,-0.004907169844955206,0.8188818693161011,0.00011385597463231534,0.04622837156057358,0.8173008561134338,0.010624400340020657,0.21990537643432617
949.0,913.0,2.5507,-0.9505,8.6668,-0.0521,0.0512,-0.1034,-1.6410566769041957,-0.1109108179807663,2.2308406829833984,-1.8251378536224365,0.14182226359844208,2.3452067375183105,4.686295195216797,-0.0,0.33978623151779175,-1.5385282675372522,8.940247062128037e-05,-0.009045022539794445,0.818910539150238,0.00010837186709977686,0.043342042714357376,0.8173322081565857,0.011134834960103035,0.2715413570404053
949.0,913.0,2.5507,-0.9505,8.6668,-0.0521,0.0512,-0.1034,-1.6417161426939906,-0.11491278558969498,2.2186803817749023,-1.824230432510376,0.15151171386241913,2.383596420288086,4.686271830196045,-0.0,0.3485528528690338,-1.5385006109820765,8.619183790870011e-05,0.01300081517547369,0.8189177513122559,0.0001010694686556235,0.04899012669920921,0.817421019077301,0.012185921892523766,0.22439175844192505
949.0,913.0,2.5507,-0.9505,8.6668,-0.0521,0.0512,-0.1034,-1.6424313984312953,-0.12390197068452835,2.228795051574707,-1.8233402967453003,0.1579505205154419,2.415900230407715,4.686287088985107,-0.0,0.3461928963661194,-1.5385082403766077,8.320374763570726e-05,-0.006405220832675695,0.8188860416412354,9.468887583352625e-05,0.03218827396631241,0.8175048828125,0.013616672717034817,0.2600502669811249
949.0,913.0,2.5507,-0.9505,8.6668,-0.0521,0.0512,-0.1034,-1.6432191334166468,-0.13295574486255646,2.249843120574951,-1.8223506212234497,0.16488116979599,2.3694238662719727,4.686311884517334,-0.0,0.335180401802063,-1.5384801069842737,8.04158698883839e-05,-0.013769914396107197,0.8188942074775696,8.906641596695408e-05,0.045674607157707214,0.8175691366195679,0.01508960872888565,0.2393292784690857
949.0,913.0,2.5507,-0.9505,8.6668,-0.0521,0.0512,-0.1034,-1.6439577541747035,-0.14018602669239044,2.1757380962371826,-1.8213075399398804,0.16512010991573334,2.321429491043091,4.686255140895508,-0.0,0.34034132957458496,-1.5384963194476526,0.00013396894792094827,-0.00863210204988718,0.8189340233802795,8.407408313360065e-05,0.058581091463565826,0.817656934261322,0.015830207616090775,0.273398220539093
949.0,913.0,2.5507,-0.9505,8.6668,-0.0521,0.0512,-0.1034,-1.644829889337057,-0.1431599110364914,2.1833953857421875,-1.820321798324585,0.16866642236709595,2.3663558959960938,4.686396761531494,-0.0,0.32807672023773193,-1.5384600798236292,0.0001230434572789818,0.001461762236431241,0.8189221024513245,7.961179653648287e-05,0.05949261784553528,0.8178014159202576,0.015981603413820267,0.24888914823532104
949.0,913.0,2.5507,-0.9505,8.6668,-0.0521,0.0512,-0.1034,-1.645393510858053,-0.14303505420684814,2.1846957206726074,-1.8196308612823486,0.1764722615480423,2.3961589336395264,4.686303301448486,-0.0,0.3486925959587097,-1.5384963194476526,0.00011666336649795994,0.006755469832569361,0.8188974857330322,7.689115591347218e-05,0.037269480526447296,0.8178090453147888,0.016209568828344345,0.23544776439666748
949.0,913.0,2.5507,-0.9505,8.6668,-0.0521,0.0512,-0.1034,-1.646228929559225,-0.1404356211423874,2.266967296600342,-1.818588376045227,0.1878645420074463,2.4336910247802734,4.686311884517334,-0.0,0.3482710123062134,-1.5384886900531214,0.00012988006346859038,-0.0002996106632053852,0.8189064264297485,7.314186223084107e-05,0.04004340618848801,0.8179171681404114,0.01693456433713436,0.23813122510910034
949.0,913.0,2.5507,-0.9505,8.6668,-0.0521,0.0512,-0.1034,-1.6471244297423304,-0.1412007361650467,2.2201478481292725,-1.8173823356628418,0.19802221655845642,2.40614652633667,4.686311407680176,-0.0,0.3478599786758423,-1.5384963194476526,0.00012114999117329717,-0.001768692396581173,0.818926215171814,6.974107964197174e-05,0.06785671412944794,0.8180454969406128,0.017120949923992157,0.26690971851348877
949.0,913.0,2.5507,-0.9505,8.6668,-0.0521,0.0512,-0.1034,-1.6479951343932093,-0.15275588631629944,2.2462151050567627,-1.8162415027618408,0.1988179087638855,2.445033550262451,4.686308069820068,-0.0,0.3488237261772156,-1.5384963194476526,0.00011350977729307488,0.008634507656097412,0.8189298510551453,6.664254033239558e-05,0.04927217960357666,0.8181615471839905,0.018987052142620087,0.28248918056488037
949.0,913.0,2.5507,-0.9505,8.6668,-0.0521,0.0512,-0.1034,-1.648931165734762,-0.1651439517736435,2.2034478187561035,-1.8149112462997437,0.19943851232528687,2.41606068611145,4.6863037782856445,-0.0,0.33750632405281067,-1.5384600798236292,0.0001067762277671136,-0.0041049025021493435,0.8189146518707275,6.380768172675744e-05,0.04528188705444336,0.8182615637779236,0.02106601931154728,0.2864842414855957
949.0,913.0,2.5507,-0.9505,8.6668,-0.0521,0.0512,-0.1034,-1.6498977146544398,-0.17448700964450836,2.179203510284424,-1.8137215375900269,0.20780709385871887,2.401921033859253,4.686279936427734,-0.0,0.3322770595550537,-1.538520638142721,0.00010079678759211674,-0.000367327214917168,0.8188537359237671,6.120411853771657e-05,0.034883417189121246,0.8183817267417908,0.02190081588923931,0.2840692400932312
949.0,913.0,2.5507,-0.9505,8.6668,-0.0521,0.0512,-0.1034,-1.651013513604635,-0.16910547018051147,2.23622465133667,-1.8124555349349976,0.2183232456445694,2.446077346801758,4.686303301448486,-0.0,0.33644622564315796,-1.5384843985186976,0.00011132447252748534,0.0034276049118489027,0.8188901543617249,5.880472235730849e-05,0.0396280437707901,0.8184931874275208,0.020284775644540787,0.2674733102321625
949.0,913.0,2.5507,-0.9505,8.6668,-0.0521,0.0512,-0.1034,-1.651656290093893,-0.16661511361598969,2.233769416809082,-1.811529278755188,0.2263273149728775,2.4529645442962646,4.686299486751221,-0.0,0.3424023985862732,-1.538464371358053,0.0001075576146831736,0.0063544148579239845,0.8189340233802795,5.7306988310301676e-05,0.047543808817863464,0.8185738921165466,0.01852772943675518,0.25552135705947876
949.0,913.0,2.5507,-0.9505,8.6668,-0.0521,0.0512,-0.1034,-1.652787824670309,-0.1687132567167282,2.2119245529174805,-1.8101471662521362,0.22880391776561737,2.4684762954711914,4.6863319116779785,-0.0,0.3347158432006836,-1.5384843985186976,0.00010231723717879504,-0.0028899023309350014,0.8188860416412354,5.51981502212584e-05,0.05897241458296776,0.8186980485916138,0.01717689074575901,0.2648462951183319
949.0,913.0,2.5507,-0.9505,8.6668,-0.0521,0.0512,-0.1034,-1.6538945637144984,-0.18460692465305328,2.17439603805542,-1.8087947368621826,0.23583470284938812,2.451624870300293,4.686311884517334,-0.0,0.3361350893974304,-1.5384801069842737,9.756365761859342e-05,-0.0073946439661085606,0.8189458847045898,5.323905497789383e-05,0.0392242893576622,0.8188503980636597,0.017463142052292824,0.229938805103302
900.0,898.0,2.5454,-0.6383,9.2991,-0.048,0.0548,-0.0962,-1.6550170383849085,-0.2023107260465622,2.220418930053711,-1.8073409795761108,0.24608762562274933,2.4893245697021484,4.686319990749023,-0.0,0.33712896704673767,-1.538464371358053,9.323217818746343e-05,0.009077237918972969,0.8189418911933899,5.1414197514532134e-05,0.04201838746666908,0.8188658356666565,0.017862416803836823,0.25585728883743286
900.0,898.0,2.5454,-0.6383,9.2991,-0.048,0.0548,-0.0962,-1.6562634907164515,-0.2027781456708908,2.2532389163970947,-1.8058024644851685,0.25256380438804626,2.4631881713867188,4.686278982753418,-0.0,0.34776946902275085,-1.5385082403766077,8.926898590289056e-05,-0.002907508285716176,0.8188900947570801,4.971034650225192e-05,0.05095928907394409,0.8190385103225708,0.01594722829759121,0.230897456407547
