ramyac6/ROB537/final_project/csv/good/good_219.csv
tof_0,tof_1,accelx,accely,accelz,gyrox,gyroy,gyroz,shoulder_lift_joint_position,shoulder_lift_joint_velocity,shoulder_lift_joint_effort,elbow_joint_position,elbow_joint_velocity,elbow_joint_effort,wrist_1_joint_position,wrist_1_joint_velocity,wrist_1_joint_effort,wrist_2_joint_position,wrist_2_joint_velocity,wrist_2_joint_effort,wrist_3_joint_position,wrist_3_joint_velocity,wrist_3_joint_effort,shoulder_pan_joint_position,shoulder_pan_joint_velocity,shoulder_pan_joint_effort
166.0,179.0,7.8646,-0.4433,4.7157,-0.0336,0.0202,-0.1115,-1.8837906322874964,0.0,3.340759754180908,-0.868321418762207,-0.0,2.0291595458984375,3.262005015010498,0.0,0.2185758650302887,-1.6071775595294397,0.0,-0.007023600395768881,0.8988131880760193,0.0,-0.0007519645150750875,0.7743435502052307,0.0,0.018035689368844032
166.0,179.0,7.8646,-0.4433,4.7157,-0.0336,0.0202,-0.1115,-1.8837701282896937,0.0,3.3336801528930664,-0.8683815002441406,-0.0,2.012620687484741,3.2620412546345214,0.0,0.22601018846035004,-1.6071813742267054,0.0,0.003592667169868946,0.898756742477417,0.0,-0.013849987648427486,0.7743394374847412,0.0,-0.017391789704561234
166.0,179.0,7.8646,-0.4433,4.7157,-0.0336,0.0202,-0.1115,-1.8837539158263148,0.0,3.3157851696014404,-0.8683415055274963,-0.0,2.0282750129699707,3.2619892793842773,0.0,0.23025918006896973,-1.6071856657611292,0.0,0.007712928112596273,0.8988617062568665,0.0,0.00046590808779001236,0.7743394374847412,0.0,-0.005482789129018784
166.0,179.0,7.8646,-0.4433,4.7157,-0.0336,0.0202,-0.1115,-1.8838025532164515,0.0,3.360548257827759,-0.8683292269706726,-0.0,1.976818323135376,3.262037439937256,0.0,0.23517070710659027,-1.6071656386004847,0.0,0.011892447248101234,0.8988214135169983,0.0,-0.013463598676025867,0.7743394374847412,0.0,0.03277411684393883
166.0,179.0,7.8646,-0.4433,4.7157,-0.0336,0.0202,-0.1115,-1.883737703362936,0.0,3.3346776962280273,-0.868309497833252,-0.0,2.018416404724121,3.2619854646870117,0.0,0.22795233130455017,-1.6071656386004847,0.0,-0.013530165888369083,0.8987846374511719,0.0,0.006251413840800524,0.7743232846260071,0.0,-0.008030561730265617
166.0,179.0,7.8646,-0.4433,4.7157,-0.0336,0.0202,-0.1115,-1.8837133846678675,0.0,3.335358142852783,-0.8683255314826965,-0.0,1.9751017093658447,3.2619497019001464,0.0,0.23273888230323792,-1.6071656386004847,0.0,0.0033511901274323463,0.8988096117973328,0.0,-0.008706735447049141,0.7743674516677856,0.0,-0.010494260117411613
166.0,179.0,7.8646,-0.4433,4.7157,-0.0336,0.0202,-0.1115,-1.8837701282896937,0.0,3.338315010070801,-0.8683173656463623,-0.0,2.0362935066223145,3.261965437526367,0.0,0.2308030128479004,-1.6072137991534632,0.0,-0.005934719927608967,0.8987929821014404,0.0,-0.016812968999147415,0.7743312120437622,0.0,0.040269866585731506
166.0,179.0,7.8646,-0.4433,4.7157,-0.0336,0.0202,-0.1115,-1.8837658367552699,0.0,3.326517105102539,-0.8683412075042725,-0.0,1.9724822044372559,3.262009306544922,0.0,0.2162581980228424,-1.6071456114398401,0.0,-0.005941692739725113,0.8987892270088196,0.0,-0.004913629032671452,0.7743556499481201,0.0,0.04272887855768204
167.0,179.0,7.8682,-0.4702,4.73,-0.0409,0.0244,-0.1197,-1.883761545220846,0.0,3.3475730419158936,-0.8682931065559387,-0.0,2.053978443145752,3.262021227473877,0.0,0.22862547636032104,-1.6071694532977503,0.0,-0.0005776671459898353,0.8987929821014404,0.0,-0.00870767142623663,0.7743996381759644,0.0,-0.010062112472951412
167.0,179.0,7.8682,-0.4702,4.73,-0.0409,0.0244,-0.1197,-1.8837863407530726,0.0,3.3080012798309326,-0.8683213591575623,-0.0,1.9908332824707031,3.2620574670979003,0.0,0.2368607074022293,-1.6071813742267054,0.0,-0.008143449202179909,0.8987727761268616,0.0,-0.008837425149977207,0.7743394374847412,0.0,-0.014768957160413265
167.0,179.0,7.8682,-0.4702,4.73,-0.0409,0.0244,-0.1197,-1.8837019405760707,0.0,3.317744731903076,-0.8683053851127625,-0.0,2.049001932144165,3.2620526987263183,0.0,0.2357138693332672,-1.6071575323687952,0.0,-0.009908072650432587,0.8987526893615723,0.0,-0.0074470918625593185,0.7743798494338989,0.0,0.02968059480190277
167.0,179.0,7.8682,-0.4702,4.73,-0.0409,0.0244,-0.1197,-1.8837658367552699,0.0,3.3283040523529053,-0.8683168888092041,-0.0,1.989851713180542,3.2619973856159667,0.0,0.23722314834594727,-1.6071656386004847,0.0,0.00565243698656559,0.8988213539123535,0.0,-0.0021584518253803253,0.7743232846260071,0.0,0.015816543251276016
167.0,179.0,7.8682,-0.4702,4.73,-0.0409,0.0244,-0.1197,-1.8837577305235804,0.0,3.340550422668457,-0.8683255314826965,-0.0,2.0199337005615234,3.262037439937256,0.0,0.22318826615810394,-1.6072137991534632,0.0,0.006459228694438934,0.8987805843353271,0.0,-0.018712740391492844,0.7743270993232727,0.0,-0.011206802912056446
167.0,179.0,7.8682,-0.4702,4.73,-0.0409,0.0244,-0.1197,-1.8837701282896937,0.0,3.340496778488159,-0.8683457374572754,-0.0,2.041640281677246,3.2620574670979003,0.0,0.23383472859859467,-1.6071932951556605,0.0,-0.010413751006126404,0.8987770080566406,0.0,-0.011535419151186943,0.7743435502052307,0.0,-0.014280889183282852
167.0,179.0,7.8682,-0.4702,4.73,-0.0409,0.0244,-0.1197,-1.8837782345213832,0.0,3.293415069580078,-0.8683173060417175,-0.0,2.040343761444092,3.261993094081543,0.0,0.21059127151966095,-1.6071775595294397,0.0,-0.0007845194777473807,0.8987686634063721,0.0,-8.656014688313007e-05,0.7743514776229858,0.0,-0.04068256914615631
167.0,179.0,7.8682,-0.4702,4.73,-0.0409,0.0244,-0.1197,-1.8837863407530726,0.0,3.3202829360961914,-0.8683173656463623,-0.0,2.0236880779266357,3.2619854646870117,0.0,0.2269124686717987,-1.6071775595294397,0.0,0.01193519402295351,0.8988010883331299,0.0,0.005220991093665361,0.7743514776229858,0.0,-0.006151390261948109
167.0,179.0,7.8682,-0.4702,4.73,-0.0409,0.0244,-0.1197,-1.8837658367552699,0.0,3.3866729736328125,-0.8683251738548279,-0.0,2.020190715789795,3.262009306544922,0.0,0.22688861191272736,-1.6072257200824183,0.0,0.006965820211917162,0.8987769484519958,0.0,-0.012678391300141811,0.7743432521820068,0.0,-0.03480077162384987
167.0,179.0,7.8682,-0.4702,4.73,-0.0409,0.0244,-0.1197,-1.8837539158263148,0.0,3.363887310028076,-0.8683412075042725,-0.0,2.0317583084106445,3.261981173152588,0.0,0.22181075811386108,-1.6072056929217737,0.0,-0.0025447423104196787,0.8988332748413086,0.0,0.003196433652192354,0.7742829322814941,0.0,-0.013192194513976574
167.0,179.0,7.8682,-0.4702,4.73,-0.0409,0.0244,-0.1197,-1.8837458095946253,0.0,3.3650941848754883,-0.8683173060417175,-0.0,1.988510251045227,3.262037439937256,0.0,0.23156234622001648,-1.60720140138735,0.0,-0.0065581705421209335,0.8988416194915771,0.0,-0.017367418855428696,0.7743592858314514,0.0,-0.032972875982522964
167.0,179.0,7.8682,-0.4702,4.73,-0.0409,0.0244,-0.1197,-1.8837415180602015,0.0,3.349243640899658,-0.8683291673660278,-0.0,1.9754562377929688,3.2620412546345214,0.0,0.23325788974761963,-1.6071417967425745,0.0,-0.015282901003956795,0.8987687230110168,0.0,-0.004086995497345924,0.7743597626686096,0.0,-0.020988842472434044
167.0,179.0,7.8682,-0.4702,4.73,-0.0409,0.0244,-0.1197,-1.8837658367552699,0.0,3.332333564758301,-0.8683415055274963,-0.0,2.0185420513153076,3.2620293337055664,0.0,0.2339494526386261,-1.6071813742267054,0.0,0.00031859695445746183,0.8988096117973328,0.0,-0.007100251968950033,0.7743716239929199,0.0,-0.010261875577270985
167.0,179.0,7.8682,-0.4702,4.73,-0.0409,0.0244,-0.1197,-1.8837458095946253,0.0,3.3154704570770264,-0.8683013319969177,-0.0,1.974847435951233,3.2619692522236328,0.0,0.24208498001098633,-1.6071694532977503,0.0,-0.0058098845183849335,0.8987764120101929,0.0,-0.01881103403866291,0.7743435502052307,0.0,-0.011336391791701317
167.0,179.0,7.8682,-0.4702,4.73,-0.0409,0.0244,-0.1197,-1.8837019405760707,0.0,3.3219051361083984,-0.868361234664917,-0.0,1.9949116706848145,3.2620255190083007,0.0,0.22885847091674805,-1.6071694532977503,0.0,-0.007898697629570961,0.8988096117973328,0.0,-0.0024975668638944626,0.7743435502052307,0.0,-0.024827782064676285
167.0,179.0,7.8682,-0.4702,4.73,-0.0409,0.0244,-0.1197,-1.883749624291891,0.0,3.3607254028320312,-0.8683498501777649,-0.0,2.041085720062256,3.261965437526367,0.0,0.2304353415966034,-1.6071456114398401,0.0,-0.008691182360053062,0.8987929821014404,0.0,-0.0009749024175107479,0.7743555903434753,0.0,0.039811212569475174
170.0,186.0,8.0285,-0.3799,4.4824,-0.0386,0.0278,-0.1223,-1.883782526055807,0.0,3.3127684593200684,-0.8683576583862305,-0.0,1.9739277362823486,3.261977358455322,0.0,0.22170038521289825,-1.607161823903219,0.0,0.004577928688377142,0.8988333344459534,0.0,-0.015987684950232506,0.7743716239929199,0.0,-0.0031312331557273865
170.0,186.0,8.0285,-0.3799,4.4824,-0.0386,0.0278,-0.1223,-1.8837701282896937,0.0,3.3471899032592773,-0.8683571815490723,-0.0,2.01473069190979,3.2619973856159667,0.0,0.2309626042842865,-1.6071375052081507,0.0,0.004679047502577305,0.8987770080566406,0.0,-0.0035891784355044365,0.7743312120437622,0.0,-0.015352615155279636
170.0,186.0,8.0285,-0.3799,4.4824,-0.0386,0.0278,-0.1223,-1.8837219677367152,0.0,3.3346612453460693,-0.8683251142501831,-0.0,1.9816904067993164,3.261981173152588,0.0,0.23598256707191467,-1.6071737448321741,0.0,-0.0018139620078727603,0.8987650871276855,0.0,-0.0039035261142998934,0.7743514776229858,0.0,0.013006167486310005
170.0,186.0,8.0285,-0.3799,4.4824,-0.0386,0.0278,-0.1223,-1.8837419948973597,0.0,3.331108570098877,-0.8683374524116516,-0.0,2.0300803184509277,3.2620255190083007,0.0,0.2287299782037735,-1.6071456114398401,0.0,-0.0026587583124637604,0.898801326751709,0.0,-0.0014188055647537112,0.7743029594421387,0.0,-0.006463922560214996
170.0,186.0,8.0285,-0.3799,4.4824,-0.0386,0.0278,-0.1223,-1.8837577305235804,0.0,3.300021171569824,-0.8683979511260986,-0.0,2.0260026454925537,3.2620131212421875,0.0,0.21809545159339905,-1.6071694532977503,0.0,-0.006013435311615467,0.8988132476806641,0.0,-0.009994789026677608,0.7743435502052307,0.0,0.03009389340877533
170.0,186.0,8.0285,-0.3799,4.4824,-0.0386,0.0278,-0.1223,-1.8837906322874964,0.0,3.2992210388183594,-0.868309497833252,-0.0,1.9687106609344482,3.261993094081543,0.0,0.23428869247436523,-1.6072137991534632,0.0,0.00031472695991396904,0.898817777633667,0.0,0.00958737451583147,0.7743150591850281,0.0,-0.02119915373623371
170.0,186.0,8.0285,-0.3799,4.4824,-0.0386,0.0278,-0.1223,-1.8837739429869593,0.0,3.343370199203491,-0.8683297038078308,-0.0,2.0156679153442383,3.2620255190083007,0.0,0.24055667221546173,-1.6071694532977503,0.0,0.010224434547126293,0.8988096117973328,0.0,-0.010986099019646645,0.7743273973464966,0.0,-0.019479943439364433
170.0,186.0,8.0285,-0.3799,4.4824,-0.0386,0.0278,-0.1223,-1.8837338886656703,0.0,3.33064603805542,-0.8683053851127625,-0.0,1.9876295328140259,3.2620131212421875,0.0,0.22411394119262695,-1.6071775595294397,0.0,0.004948534071445465,0.8988011479377747,0.0,-0.007445150054991245,0.7743433117866516,0.0,0.04295087978243828
170.0,186.0,8.0285,-0.3799,4.4824,-0.0386,0.0278,-0.1223,-1.8837219677367152,0.0,3.3275556564331055,-0.868361234664917,-0.0,1.9741244316101074,3.262021227473877,0.0,0.23724247515201569,-1.6071975866900843,0.0,-0.009713287465274334,0.8987846374511719,0.0,-0.006093901116400957,0.7743514776229858,0.0,-0.014790231361985207
170.0,186.0,8.0285,-0.3799,4.4824,-0.0386,0.0278,-0.1223,-1.8837295971312464,0.0,3.325024127960205,-0.8683735728263855,-0.0,1.9933156967163086,3.261965437526367,0.0,0.22912266850471497,-1.6072056929217737,0.0,0.007399977184832096,0.8988053798675537,0.0,-0.011309539899230003,0.7743473649024963,0.0,0.007693104911595583
170.0,186.0,8.0285,-0.3799,4.4824,-0.0386,0.0278,-0.1223,-1.8837982616820277,0.0,3.312709331512451,-0.8683457374572754,-0.0,2.009052276611328,3.2620131212421875,0.0,0.23841750621795654,-1.607161823903219,0.0,-0.009106227196753025,0.8988373875617981,0.0,-0.014992330223321915,0.7743514776229858,0.0,-0.024233438074588776
170.0,186.0,8.0285,-0.3799,4.4824,-0.0386,0.0278,-0.1223,-1.8837539158263148,0.0,3.2803902626037598,-0.8683373928070068,-0.0,1.9929916858673096,3.2620250421711425,0.0,0.23503217101097107,-1.6071694532977503,0.0,0.0041717300191521645,0.8987972140312195,0.0,0.007389458362013102,0.7742989659309387,0.0,0.0030461782589554787
170.0,186.0,8.0285,-0.3799,4.4824,-0.0386,0.0278,-0.1223,-1.883749624291891,0.0,3.3727712631225586,-0.8683900833129883,-0.0,2.0199379920959473,3.2619616228291015,0.0,0.22780321538448334,-1.607201878224508,0.0,0.0011297260643914342,0.8987807035446167,0.0,-0.01447802223265171,0.7743597626686096,0.0,0.008356567472219467
170.0,186.0,8.0285,-0.3799,4.4824,-0.0386,0.0278,-0.1223,-1.8837338886656703,0.0,3.348707675933838,-0.8683333396911621,-0.0,1.9865189790725708,3.261981649989746,0.0,0.22200444340705872,-1.6071737448321741,0.0,-0.003243769984692335,0.8987932801246643,0.0,-0.010260630398988724,0.7743435502052307,0.0,0.019527193158864975
170.0,186.0,8.0285,-0.3799,4.4824,-0.0386,0.0278,-0.1223,-1.8837338886656703,0.0,3.3469581604003906,-0.8683534860610962,-0.0,2.00630784034729,3.2620293337055664,0.0,0.23557813465595245,-1.607161823903219,0.0,0.004815640859305859,0.8988292217254639,0.0,-0.00435592420399189,0.774387776851654,0.0,-0.010275300592184067
165.0,180.0,7.919,-0.4307,4.5565,-0.0316,0.0224,-0.1167,-1.8837858639159144,0.0,3.3180623054504395,-0.8683297038078308,-0.0,2.0057766437530518,3.261981173152588,0.0,0.23212772607803345,-1.6071656386004847,0.0,-0.002943037310615182,0.8987929821014404,0.0,-0.02171897143125534,0.7744079232215881,0.0,0.006653990596532822
165.0,180.0,7.919,-0.4307,4.5565,-0.0316,0.0224,-0.1167,-1.8837300739684046,0.0,3.337299346923828,-0.8683333396911621,-0.0,1.9824299812316895,3.2619892793842773,0.0,0.2436206042766571,-1.607149902974264,0.0,-0.004015092272311449,0.8987929821014404,0.0,-0.004214998334646225,0.7743597030639648,0.0,0.060065049678087234
165.0,180.0,7.919,-0.4307,4.5565,-0.0316,0.0224,-0.1167,-1.8837338886656703,0.0,3.3410258293151855,-0.8683053851127625,-0.0,1.9929378032684326,3.2619854646870117,0.0,0.2351619154214859,-1.6071975866900843,0.0,-0.002018759958446026,0.8987846374511719,0.0,-0.008915485814213753,0.7743836045265198,0.0,-0.011777820065617561
165.0,180.0,7.919,-0.4307,4.5565,-0.0316,0.0224,-0.1167,-1.8837253055968226,0.0,3.323840618133545,-0.8683901429176331,-0.0,1.9938106536865234,3.2620412546345214,0.0,0.23300978541374207,-1.6072137991534632,0.0,-0.0021187823731452227,0.8988332748413086,0.0,-0.0039801518432796,0.7743797898292542,0.0,0.0366608090698719
165.0,180.0,7.919,-0.4307,4.5565,-0.0316,0.0224,-0.1167,-1.8837176762022914,0.0,3.3058438301086426,-0.8683373928070068,-0.0,1.9902968406677246,3.2620131212421875,0.0,0.22950321435928345,-1.6071856657611292,0.0,-0.005306338891386986,0.898809552192688,0.0,0.0021079706493765116,0.7743799090385437,0.0,0.030949991196393967
165.0,180.0,7.919,-0.4307,4.5565,-0.0316,0.0224,-0.1167,-1.8837171993651332,0.0,3.351930618286133,-0.8683332800865173,-0.0,1.9819716215133667,3.2619973856159667,0.0,0.22706064581871033,-1.6071975866900843,0.0,-0.001193907461129129,0.8987686634063721,0.0,-0.00021131685934960842,0.7743514776229858,0.0,-0.007982674986124039
165.0,180.0,7.919,-0.4307,4.5565,-0.0316,0.0224,-0.1167,-1.8838025532164515,0.0,3.331986904144287,-0.868321418762207,-0.0,2.0365660190582275,3.2619973856159667,0.0,0.22606834769248962,-1.6071575323687952,0.0,-0.002035255543887615,0.8988338112831116,0.0,-0.011545473709702492,0.7743232846260071,0.0,0.00811692699790001
165.0,180.0,7.919,-0.4307,4.5565,-0.0316,0.0224,-0.1167,-1.883749624291891,0.0,3.3152289390563965,-0.8683497905731201,-0.0,1.995368480682373,3.261977358455322,0.0,0.23162895441055298,-1.6071656386004847,0.0,-0.008429134264588356,0.8988658785820007,0.0,-0.002415912691503763,0.774387776851654,0.0,-0.030175194144248962
165.0,180.0,7.919,-0.4307,4.5565,-0.0316,0.0224,-0.1167,-1.883761545220846,0.0,3.348961353302002,-0.8683534264564514,-0.0,1.9756629467010498,3.262005015010498,0.0,0.2265368402004242,-1.6071656386004847,0.0,0.01140737533569336,0.8988173007965088,0.0,-0.021246708929538727,0.7743394374847412,0.0,0.04951277747750282
165.0,180.0,7.919,-0.4307,4.5565,-0.0316,0.0224,-0.1167,-1.8837739429869593,0.0,3.352635383605957,-0.8682971596717834,-0.0,2.007662296295166,3.2620131212421875,0.0,0.2275097370147705,-1.6071775595294397,0.0,-0.011169953271746635,0.8987972140312195,0.0,-0.0005606610793620348,0.774307131767273,0.0,0.052966147661209106
165.0,180.0,7.919,-0.4307,4.5565,-0.0316,0.0224,-0.1167,-1.8837582073607386,0.0,3.29087495803833,-0.8683654069900513,-0.0,1.98012113571167,3.2620131212421875,0.0,0.22150471806526184,-1.6071813742267054,0.0,-0.006212895270437002,0.8988451957702637,0.0,-0.012262199074029922,0.7743435502052307,0.0,-0.023103948682546616
165.0,180.0,7.919,-0.4307,4.5565,-0.0316,0.0224,-0.1167,-1.8837419948973597,0.0,3.368533134460449,-0.8683653473854065,-0.0,2.002930164337158,3.2619735437580566,0.0,0.23622985184192657,-1.6071813742267054,0.0,0.0013886978849768639,0.8987846374511719,0.0,-0.010678978636860847,0.7743191123008728,0.0,-0.03451956808567047
165.0,180.0,7.919,-0.4307,4.5565,-0.0316,0.0224,-0.1167,-1.8838063679137171,0.0,3.315286159515381,-0.8683214783668518,-0.0,2.0247535705566406,3.262021227473877,0.0,0.23603962361812592,-1.6071813742267054,0.0,-0.01095054391771555,0.8987206816673279,0.0,-0.0015484709292650223,0.7743232846260071,0.0,-0.016170186921954155
165.0,180.0,7.919,-0.4307,4.5565,-0.0316,0.0224,-0.1167,-1.883761545220846,0.0,3.388479232788086,-0.8683173060417175,-0.0,2.006970167160034,3.261965437526367,0.0,0.23617389798164368,-1.6071694532977503,0.0,0.0061418707482516766,0.8988173007965088,0.0,-0.001846464117988944,0.774298906326294,0.0,-0.05477745458483696
165.0,180.0,7.919,-0.4307,4.5565,-0.0316,0.0224,-0.1167,-1.8838182888426722,0.0,3.3328335285186768,-0.8683255314826965,-0.0,1.9726781845092773,3.26203362523999,0.0,0.2240261286497116,-1.6071694532977503,0.0,-0.010809777304530144,0.8987686634063721,0.0,-0.002981622703373432,0.7743312120437622,0.0,-0.05175012722611427
168.0,183.0,8.0848,-0.344,4.194,-0.04,0.0212,-0.1191,-1.883737703362936,0.0,3.3340559005737305,-0.8683168888092041,-0.0,2.018531084060669,3.2619692522236328,0.0,0.2254578322172165,-1.6071575323687952,0.0,-0.00693390192463994,0.8987970352172852,0.0,-0.008041057735681534,0.7743715643882751,0.0,-0.0003335559740662575
168.0,183.0,8.0848,-0.344,4.194,-0.04,0.0212,-0.1191,-1.8837176762022914,0.0,3.3687005043029785,-0.8683452010154724,-0.0,2.034752368927002,3.2620012003132324,0.0,0.22062072157859802,-1.6071775595294397,0.0,-0.006039599888026714,0.8988137245178223,0.0,-0.004896451719105244,0.7743232846260071,0.0,0.013505006209015846
168.0,183.0,8.0848,-0.344,4.194,-0.04,0.0212,-0.1191,-1.8837739429869593,0.0,3.305098295211792,-0.8683529496192932,-0.0,1.9520962238311768,3.2620012003132324,0.0,0.22589102387428284,-1.6071141401873987,0.0,0.002411286812275648,0.8987650871276855,0.0,-0.010836785659193993,0.7743315100669861,0.0,-0.0053170593455433846
168.0,183.0,8.0848,-0.344,4.194,-0.04,0.0212,-0.1191,-1.8837582073607386,0.0,3.305997848510742,-0.8683374524116516,-0.0,2.047710657119751,3.2619616228291015,0.0,0.22986270487308502,-1.6072257200824183,0.0,-0.003421161090955138,0.8987646102905273,0.0,-0.01017788890749216,0.7743068933486938,0.0,0.0010689492337405682
168.0,183.0,8.0848,-0.344,4.194,-0.04,0.0212,-0.1191,-1.8837658367552699,0.0,3.329805850982666,-0.8683173656463623,-0.0,1.9322221279144287,3.2620488840290527,0.0,0.2318117618560791,-1.6071813742267054,0.0,-0.004990922287106514,0.8988296985626221,0.0,0.0023127663880586624,0.7743633985519409,0.0,-0.05763722583651543
168.0,183.0,8.0848,-0.344,4.194,-0.04,0.0212,-0.1191,-1.8837295971312464,0.0,3.36527681350708,-0.8682806491851807,-0.0,2.010430335998535,3.2620174127766113,0.0,0.23119747638702393,-1.607133690510885,0.0,-0.01187049224972725,0.8987646102905273,0.0,-0.0004213243955746293,0.7743232846260071,0.0,-0.02530410885810852
168.0,183.0,8.0848,-0.344,4.194,-0.04,0.0212,-0.1191,-1.8837419948973597,0.0,3.3223938941955566,-0.868309497833252,-0.0,2.013011932373047,3.2620255190083007,0.0,0.23080307245254517,-1.6071737448321741,0.0,-0.0027992059476673603,0.8987727165222168,0.0,-0.002989858854562044,0.7743030786514282,0.0,0.02463814616203308
168.0,183.0,8.0848,-0.344,4.194,-0.04,0.0212,-0.1191,-1.8837906322874964,0.0,3.3326995372772217,-0.8683611750602722,-0.0,2.012517213821411,3.26203362523999,0.0,0.23554439842700958,-1.6071975866900843,0.0,0.0029466317500919104,0.8987851142883301,0.0,-0.014783944934606552,0.7743030190467834,0.0,0.010668046772480011
168.0,183.0,8.0848,-0.344,4.194,-0.04,0.0212,-0.1191,-1.8837863407530726,0.0,3.326329231262207,-0.8682929277420044,-0.0,1.9926575422286987,3.2619892793842773,0.0,0.2291891872882843,-1.6071775595294397,0.0,-0.009601783938705921,0.8988213539123535,0.0,-0.019441161304712296,0.7743312120437622,0.0,0.011697693727910519
168.0,183.0,8.0848,-0.344,4.194,-0.04,0.0212,-0.1191,-1.8837014637389125,0.0,3.3368234634399414,-0.8683173060417175,-0.0,2.0075106620788574,3.2620131212421875,0.0,0.24047139286994934,-1.6071656386004847,0.0,0.0018605818040668964,0.8987770080566406,0.0,0.0034013637341558933,0.7743960022926331,0.0,-0.007397805340588093
168.0,183.0,8.0848,-0.344,4.194,-0.04,0.0212,-0.1191,-1.8837338886656703,0.0,3.3180150985717773,-0.86836177110672,-0.0,2.025796890258789,3.26203362523999,0.0,0.23976120352745056,-1.6071456114398401,0.0,-0.005865372717380524,0.8988173007965088,0.0,-0.018733257427811623,0.7743715643882751,0.0,0.041050609201192856
168.0,183.0,8.0848,-0.344,4.194,-0.04,0.0212,-0.1191,-1.8837133846678675,0.0,3.350250720977783,-0.8683452010154724,-0.0,2.048733949661255,3.2619854646870117,0.0,0.23206138610839844,-1.6071932951556605,0.0,-0.007375812623649836,0.8988497853279114,0.0,-0.01428665965795517,0.7743556499481201,0.0,0.00878943782299757
168.0,183.0,8.0848,-0.344,4.194,-0.04,0.0212,-0.1191,-1.8837539158263148,0.0,3.3239288330078125,-0.8683132529258728,-0.0,1.9919774532318115,3.2619973856159667,0.0,0.24122639000415802,-1.607161823903219,0.0,-0.008461033925414085,0.8988457322120667,0.0,-0.005782678257673979,0.774339497089386,0.0,0.00012231012806296349
168.0,183.0,8.0848,-0.344,4.194,-0.04,0.0212,-0.1191,-1.8837539158263148,0.0,3.365436553955078,-0.8683091998100281,-0.0,2.0114293098449707,3.262016935939453,0.0,0.21958306431770325,-1.6071456114398401,0.0,-0.0038112730253487825,0.8987485766410828,0.0,-0.010881124995648861,0.7743633985519409,0.0,0.020579302683472633
168.0,183.0,8.0848,-0.344,4.194,-0.04,0.0212,-0.1191,-1.883749624291891,0.0,3.325946807861328,-0.8683333396911621,-0.0,2.04945707321167,3.262016935939453,0.0,0.23269352316856384,-1.6071737448321741,0.0,-0.010674415156245232,0.8988132476806641,0.0,-0.008590012788772583,0.7743232846260071,0.0,0.011825043708086014
168.0,183.0,8.0848,-0.344,4.194,-0.04,0.0212,-0.1191,-1.883782526055807,0.0,3.29441499710083,-0.8683415651321411,-0.0,2.0179827213287354,3.2619973856159667,0.0,0.23387719690799713,-1.6071813742267054,0.0,-0.009915574453771114,0.8988333344459534,0.0,-0.004231857135891914,0.7743394374847412,0.0,-0.00243169697932899
166.0,184.0,7.949,-0.3858,4.4489,-0.0426,0.0191,-0.1193,-1.8837782345213832,0.0,3.3591227531433105,-0.8683571219444275,-0.0,1.9942436218261719,3.2619892793842773,0.0,0.2281733751296997,-1.6071975866900843,0.0,-0.0020861434750258923,0.8986968994140625,0.0,-0.0117003433406353,0.7743836641311646,0.0,-0.01182587444782257
166.0,184.0,7.949,-0.3858,4.4489,-0.0426,0.0191,-0.1193,-1.8837782345213832,0.0,3.3131256103515625,-0.8682931065559387,-0.0,1.9817242622375488,3.262005015010498,0.0,0.24528002738952637,-1.6071932951556605,0.0,-0.0035169352777302265,0.8987770080566406,0.0,-0.009282100945711136,0.7743878364562988,0.0,-0.02862074226140976
166.0,184.0,7.949,-0.3858,4.4489,-0.0426,0.0191,-0.1193,-1.8837539158263148,0.0,3.3270020484924316,-0.8683332800865173,-0.0,2.0367653369903564,3.2619973856159667,0.0,0.23442205786705017,-1.607161823903219,0.0,-0.00034665624843910336,0.8987972736358643,0.0,-0.0010826366487890482,0.7743232846260071,0.0,-0.0045137545093894005
166.0,184.0,7.949,-0.3858,4.4489,-0.0426,0.0191,-0.1193,-1.883766313592428,0.0,3.3273491859436035,-0.8683493733406067,-0.0,1.9893603324890137,3.261953516597412,0.0,0.2326151728630066,-1.6071375052081507,0.0,-0.015093829482793808,0.8988137245178223,0.0,-0.005906112026423216,0.7743555903434753,0.0,0.04605864733457565
166.0,184.0,7.949,-0.3858,4.4489,-0.0426,0.0191,-0.1193,-1.883794446984762,0.0,3.3095245361328125,-0.8683292269706726,-0.0,2.0024564266204834,3.2620255190083007,0.0,0.22239182889461517,-1.6071937719928187,0.0,-0.011039454489946365,0.8988416194915771,0.0,-0.0011336600873619318,0.7743109464645386,0.0,0.022447790950536728
166.0,184.0,7.949,-0.3858,4.4489,-0.0426,0.0191,-0.1193,-1.8836776218810023,0.0,3.296260356903076,-0.868361234664917,-0.0,2.026707172393799,3.2620131212421875,0.0,0.23566392064094543,-1.6072056929217737,0.0,0.009840170852839947,0.8988213539123535,0.0,-0.004658560734242201,0.7743592262268066,0.0,0.006669853813946247
166.0,184.0,7.949,-0.3858,4.4489,-0.0426,0.0191,-0.1193,-1.8837658367552699,0.0,3.3156676292419434,-0.8683411478996277,-0.0,1.9934558868408203,3.2620250421711425,0.0,0.24119660258293152,-1.6071656386004847,0.0,-0.0013830068055540323,0.8988373875617981,0.0,-0.005919747054576874,0.7743274569511414,0.0,-0.0027924729511141777
166.0,184.0,7.949,-0.3858,4.4489,-0.0426,0.0191,-0.1193,-1.8838068447508753,0.0,3.3592634201049805,-0.8683054447174072,-0.0,2.020129680633545,3.262005015010498,0.0,0.23257815837860107,-1.6071775595294397,0.0,-0.005831558723002672,0.8988373875617981,0.0,-0.014640307053923607,0.7743315100669861,0.0,-0.016805268824100494
166.0,184.0,7.949,-0.3858,4.4489,-0.0426,0.0191,-0.1193,-1.8837658367552699,0.0,3.3378748893737793,-0.8683297038078308,-0.0,1.9873192310333252,3.2620255190083007,0.0,0.22651508450508118,-1.6071694532977503,0.0,-0.003392512444406748,0.8988456726074219,0.0,-0.013789428398013115,0.7743798494338989,0.0,0.017823567613959312
166.0,184.0,7.949,-0.3858,4.4489,-0.0426,0.0191,-0.1193,-1.8837295971312464,0.0,3.3652424812316895,-0.8683091402053833,-0.0,2.0042569637298584,3.262021704311035,0.0,0.24028094112873077,-1.6071456114398401,0.0,-0.005923381075263023,0.8988132476806641,0.0,-0.001245533348992467,0.7743394374847412,0.0,0.02469414845108986
166.0,184.0,7.949,-0.3858,4.4489,-0.0426,0.0191,-0.1193,-1.883761545220846,0.0,3.344707489013672,-0.8683251738548279,-0.0,1.973921775817871,3.261993094081543,0.0,0.21974340081214905,-1.6071894804583948,0.0,0.00535648874938488,0.8988605737686157,0.0,-0.004910149611532688,0.7743394374847412,0.0,0.02122398093342781
166.0,184.0,7.949,-0.3858,4.4489,-0.0426,0.0191,-0.1193,-1.8837701282896937,0.0,3.376408576965332,-0.8683860301971436,-0.0,2.050020456314087,3.262016935939453,0.0,0.23159858584403992,-1.6071694532977503,0.0,0.0024313819594681263,0.8988173007965088,0.0,-0.0152911227196455,0.7743720412254333,0.0,0.0626702755689621
166.0,184.0,7.949,-0.3858,4.4489,-0.0426,0.0191,-0.1193,-1.8837338886656703,0.0,3.3583898544311523,-0.8683333396911621,-0.0,1.9909343719482422,3.2620250421711425,0.0,0.2389141023159027,-1.6071737448321741,0.0,-0.0026873548049479723,0.8988053798675537,0.0,-0.004902311600744724,0.774347722530365,0.0,0.011988642625510693
166.0,184.0,7.949,-0.3858,4.4489,-0.0426,0.0191,-0.1193,-1.8838063679137171,0.0,3.3233141899108887,-0.8682888150215149,-0.0,1.9521260261535645,3.2620012003132324,0.0,0.2300485521554947,-1.6072099844561976,0.0,0.010017361491918564,0.8988173007965088,0.0,-0.0057302964851260185,0.7743716239929199,0.0,-0.02223191410303116
166.0,184.0,7.949,-0.3858,4.4489,-0.0426,0.0191,-0.1193,-1.8837782345213832,0.0,3.346313953399658,-0.8682847023010254,-0.0,2.0661873817443848,3.262016935939453,0.0,0.22410394251346588,-1.6071575323687952,0.0,0.0020936564542353153,0.8987727165222168,0.0,-0.012670215219259262,0.7743716239929199,0.0,-0.009180747903883457
163.0,181.0,7.8772,-0.4313,4.6804,-0.0406,0.0191,-0.117,-1.883794446984762,0.0,3.373502731323242,-0.8683173060417175,-0.0,1.9925401210784912,3.2620131212421875,0.0,0.22132869064807892,-1.607218090687887,0.0,-0.0069071631878614426,0.8987929821014404,0.0,-0.0069799525663256645,0.774347722530365,0.0,0.003564718645066023
163.0,181.0,7.8772,-0.4313,4.6804,-0.0406,0.0191,-0.117,-1.8837863407530726,0.0,3.3146567344665527,-0.8682847619056702,-0.0,1.9640307426452637,3.262037439937256,0.0,0.23436817526817322,-1.6071894804583948,0.0,-0.010599800385534763,0.898857593536377,0.0,-0.022992271929979324,0.7743798494338989,0.0,0.04096977412700653
163.0,181.0,7.8772,-0.4313,4.6804,-0.0406,0.0191,-0.117,-1.883749624291891,0.0,3.3004698753356934,-0.8683332800865173,-0.0,1.9826581478118896,3.2620526987263183,0.0,0.2313719391822815,-1.6071932951556605,0.0,0.0001090439036488533,0.8988214135169983,0.0,-0.011674856767058372,0.7743716239929199,0.0,0.03524259477853775
163.0,181.0,7.8772,-0.4313,4.6804,-0.0406,0.0191,-0.117,-1.8837372265257777,0.0,3.3230738639831543,-0.8683534860610962,-0.0,1.9817392826080322,3.262005015010498,0.0,0.2241741120815277,-1.6071737448321741,0.0,-0.008120005950331688,0.8987370729446411,0.0,-0.016793040558695793,0.7743191123008728,0.0,-0.004816805943846703
163.0,181.0,7.8772,-0.4313,4.6804,-0.0406,0.0191,-0.117,-1.883761545220846,0.0,3.3605284690856934,-0.8683735728263855,-0.0,1.9882032871246338,3.261977358455322,0.0,0.2329953908920288,-1.60720140138735,0.0,-0.003970587160438299,0.8988096117973328,0.0,-0.01219359040260315,0.7743191123008728,0.0,0.0001661775168031454
163.0,181.0,7.8772,-0.4313,4.6804,-0.0406,0.0191,-0.117,-1.883782526055807,0.0,3.315478801727295,-0.8683534264564514,-0.0,2.0239598751068115,3.2619892793842773,0.0,0.22847938537597656,-1.6072056929217737,0.0,-0.005964566487818956,0.8987930417060852,0.0,-0.017343226820230484,0.7743312120437622,0.0,0.026173558086156845
163.0,181.0,7.8772,-0.4313,4.6804,-0.0406,0.0191,-0.117,-1.8837577305235804,0.0,3.3299217224121094,-0.8683534264564514,-0.0,2.004516839981079,3.2620012003132324,0.0,0.24072471261024475,-1.6071379820453089,0.0,0.013990761712193489,0.8987846374511719,0.0,0.0033804711420089006,0.7743638753890991,0.0,-0.05649605393409729
163.0,181.0,7.8772,-0.4313,4.6804,-0.0406,0.0191,-0.117,-1.8837701282896937,0.0,3.311140537261963,-0.8683452606201172,-0.0,2.000828742980957,3.2619892793842773,0.0,0.22752250730991364,-1.6071298758136194,0.0,0.005672881845384836,0.8987045288085938,0.0,-0.0002839758526533842,0.7743435502052307,0.0,0.03018834814429283
163.0,181.0,7.8772,-0.4313,4.6804,-0.0406,0.0191,-0.117,-1.883761545220846,0.0,3.321261405944824,-0.8682605624198914,-0.0,2.0261340141296387,3.261993094081543,0.0,0.24496042728424072,-1.6071694532977503,0.0,0.003734992817044258,0.8988256454467773,0.0,-0.01785394549369812,0.7743592858314514,0.0,0.011768330819904804
163.0,181.0,7.8772,-0.4313,4.6804,-0.0406,0.0191,-0.117,-1.8837133846678675,0.0,3.3274755477905273,-0.8683255314826965,-0.0,1.9488877058029175,3.262016935939453,0.0,0.23311816155910492,-1.607161823903219,0.0,-0.00574464863166213,0.8988054394721985,0.0,-0.007305508013814688,0.7743232846260071,0.0,-0.01466530654579401
163.0,181.0,7.8772,-0.4313,4.6804,-0.0406,0.0191,-0.117,-1.8837863407530726,0.0,3.362517833709717,-0.8683901429176331,-0.0,2.0286030769348145,3.2620526987263183,0.0,0.2206573188304901,-1.6072099844561976,0.0,-0.0024491490330547094,0.8988097310066223,0.0,-0.004792655818164349,0.774331271648407,0.0,-0.005233417730778456
163.0,181.0,7.8772,-0.4313,4.6804,-0.0406,0.0191,-0.117,-1.8837419948973597,0.0,3.3782296180725098,-0.868309497833252,-0.0,2.013343095779419,3.2620255190083007,0.0,0.21764761209487915,-1.6071375052081507,0.0,-0.004359067417681217,0.8987972140312195,0.0,-0.002942238003015518,0.774424135684967,0.0,0.009645774960517883
163.0,181.0,7.8772,-0.4313,4.6804,-0.0406,0.0191,-0.117,-1.8837863407530726,0.0,3.381237506866455,-0.8683493733406067,-0.0,2.0097978115081787,3.262009306544922,0.0,0.23739370703697205,-1.6071575323687952,0.0,-0.017583034932613373,0.8987929821014404,0.0,-0.021859142929315567,0.7743836045265198,0.0,0.007162483409047127
163.0,181.0,7.8772,-0.4313,4.6804,-0.0406,0.0191,-0.117,-1.8837701282896937,0.0,3.3112034797668457,-0.8682972192764282,-0.0,2.006756067276001,3.2620255190083007,0.0,0.23671072721481323,-1.6071932951556605,0.0,-0.0045352596789598465,0.8987769484519958,0.0,-0.00293490057811141,0.7743273973464966,0.0,0.021111056208610535
163.0,181.0,7.8772,-0.4313,4.6804,-0.0406,0.0191,-0.117,-1.8837620220580042,0.0,3.3172783851623535,-0.8683013319969177,-0.0,1.9567151069641113,3.2620693880268554,0.0,0.23803740739822388,-1.6071694532977503,0.0,0.01080991793423891,0.898801326751709,0.0,-0.020545611158013344,0.7743556499481201,0.0,-0.009911535307765007
163.0,181.0,7.8772,-0.4313,4.6804,-0.0406,0.0191,-0.117,-1.8837701282896937,0.0,3.35921573638916,-0.8683050274848938,-0.0,2.005969524383545,3.2619692522236328,0.0,0.23418396711349487,-1.6071694532977503,0.0,0.004622642882168293,0.8987566232681274,0.0,-0.005178734194487333,0.7743555903434753,0.0,-0.0045309411361813545
173.0,174.0,8.0189,-0.3972,4.3657,-0.0321,0.026,-0.1164,-1.883782526055807,0.0,3.348484992980957,-0.868293046951294,-0.0,2.009166955947876,3.262021704311035,0.0,0.22313183546066284,-1.6071813742267054,0.0,-0.013506532646715641,0.8987805843353271,0.0,0.0004959844518452883,0.774331271648407,0.0,-0.03003639541566372
173.0,174.0,8.0189,-0.3972,4.3657,-0.0321,0.026,-0.1164,-1.8837372265257777,0.0,3.333691120147705,-0.8683534860610962,-0.0,1.9961230754852295,3.261977358455322,0.0,0.2259780913591385,-1.607161823903219,0.0,0.0006564073264598846,0.8987929821014404,0.0,-0.012927042320370674,0.7743394374847412,0.0,-0.015243412926793098
173.0,174.0,8.0189,-0.3972,4.3657,-0.0321,0.026,-0.1164,-1.8837295971312464,0.0,3.355727434158325,-0.8682769536972046,-0.0,1.999880075454712,3.2619973856159667,0.0,0.23833046853542328,-1.607161823903219,0.0,0.011218572035431862,0.8988657593727112,0.0,-0.02028055675327778,0.7743918895721436,0.0,0.018414003774523735
173.0,174.0,8.0189,-0.3972,4.3657,-0.0321,0.026,-0.1164,-1.883761545220846,0.0,3.3518450260162354,-0.868321418762207,-0.0,1.9883754253387451,3.2620293337055664,0.0,0.22883577644824982,-1.6071375052081507,0.0,-0.003486332017928362,0.8988053798675537,0.0,-0.020190678536891937,0.7743154168128967,0.0,-0.02534274384379387
173.0,174.0,8.0189,-0.3972,4.3657,-0.0321,0.026,-0.1164,-1.883761545220846,0.0,3.3228368759155273,-0.8683292269706726,-0.0,2.0029540061950684,3.2619973856159667,0.0,0.22777149081230164,-1.6071775595294397,0.0,0.011577332392334938,0.8987929821014404,0.0,-0.004015196114778519,0.7743633985519409,0.0,0.009750333614647388
173.0,174.0,8.0189,-0.3972,4.3657,-0.0321,0.026,-0.1164,-1.8837901554503382,0.0,3.3511617183685303,-0.8683571815490723,-0.0,2.0112931728363037,3.261977358455322,0.0,0.2261819690465927,-1.6071456114398401,0.0,-0.0021009319461882114,0.8988213539123535,0.0,-5.1976414397358894e-05,0.7743191719055176,0.0,0.007586061023175716
173.0,174.0,8.0189,-0.3972,4.3657,-0.0321,0.026,-0.1164,-1.8837577305235804,0.0,3.299492359161377,-0.8683373928070068,-0.0,2.0171444416046143,3.262005015010498,0.0,0.2319425344467163,-1.6071894804583948,0.0,0.009642081335186958,0.8988373875617981,0.0,-0.01860870234668255,0.7743836045265198,0.0,-0.006589886732399464
173.0,174.0,8.0189,-0.3972,4.3657,-0.0321,0.026,-0.1164,-1.8837582073607386,0.0,3.357642650604248,-0.868309497833252,-0.0,2.0282490253448486,3.2619735437580566,0.0,0.22549495100975037,-1.6072099844561976,0.0,-0.012370964512228966,0.898801326751709,0.0,-0.010066967457532883,0.7743597030639648,0.0,0.003628490027040243
173.0,174.0,8.0189,-0.3972,4.3657,-0.0321,0.026,-0.1164,-1.8838063679137171,0.0,3.3372511863708496,-0.8683493733406067,-0.0,2.0332374572753906,3.2620293337055664,0.0,0.23452600836753845,-1.6071813742267054,0.0,0.001795042771846056,0.8987727165222168,0.0,-0.01309511624276638,0.7743674516677856,0.0,0.06707277148962021
173.0,174.0,8.0189,-0.3972,4.3657,-0.0321,0.026,-0.1164,-1.8838187656798304,0.0,3.3306655883789062,-0.868369996547699,-0.0,2.0338876247406006,3.2619892793842773,0.0,0.22679802775382996,-1.6071575323687952,0.0,0.007807326503098011,0.8988296985626221,0.0,-0.02129392698407173,0.7743716239929199,0.0,-0.013873899355530739
173.0,174.0,8.0189,-0.3972,4.3657,-0.0321,0.026,-0.1164,-1.8837458095946253,0.0,3.2753357887268066,-0.8683251142501831,-0.0,2.022520065307617,3.2620646196552734,0.0,0.2250710427761078,-1.6071813742267054,0.0,-0.0002581188455224037,0.8987770080566406,0.0,-0.023354697972536087,0.7743597030639648,0.0,0.009887839667499065
173.0,174.0,8.0189,-0.3972,4.3657,-0.0321,0.026,-0.1164,-1.8837620220580042,0.0,3.3081765174865723,-0.8683415651321411,-0.0,2.0229039192199707,3.261993094081543,0.0,0.2417745739221573,-1.6071737448321741,0.0,-0.0005726413801312447,0.8988096117973328,0.0,-0.012609601952135563,0.7743596434593201,0.0,-0.008841424249112606
173.0,174.0,8.0189,-0.3972,4.3657,-0.0321,0.026,-0.1164,-1.8837658367552699,0.0,3.3303046226501465,-0.8683654069900513,-0.0,2.022531747817993,3.262005015010498,0.0,0.23479115962982178,-1.6071737448321741,0.0,-0.00784995872527361,0.8988053798675537,0.0,-0.0030812432523816824,0.7743353247642517,0.0,0.020138496533036232
173.0,174.0,8.0189,-0.3972,4.3657,-0.0321,0.026,-0.1164,-1.8837295971312464,0.0,3.2967395782470703,-0.8682847023010254,-0.0,1.9942715167999268,3.261977358455322,0.0,0.22824311256408691,-1.6072056929217737,0.0,-0.006763164885342121,0.8987609148025513,0.0,-0.022537898272275925,0.7743274569511414,0.0,-0.006061936728656292
173.0,174.0,8.0189,-0.3972,4.3657,-0.0321,0.026,-0.1164,-1.8837906322874964,0.0,3.3341898918151855,-0.8683612942695618,-0.0,1.9940176010131836,3.2619854646870117,0.0,0.230605348944664,-1.6071575323687952,0.0,0.00018176320008933544,0.8987289071083069,0.0,-0.003768998198211193,0.7743514776229858,0.0,0.000965949147939682
162.0,183.0,7.8724,-0.4062,4.6415,-0.04,0.0244,-0.1194,-1.8837701282896937,0.0,3.2903809547424316,-0.8683255910873413,-0.0,2.043433904647827,3.2620131212421875,0.0,0.22823099792003632,-1.6071932951556605,0.0,-0.008328878320753574,0.8987845778465271,0.0,-0.010866993106901646,0.7743353247642517,0.0,-0.014940528199076653
162.0,183.0,7.8724,-0.4062,4.6415,-0.04,0.0244,-0.1194,-1.8837863407530726,0.0,3.3723230361938477,-0.8682931065559387,-0.0,2.0050551891326904,3.2620293337055664,0.0,0.23926658928394318,-1.6071694532977503,0.0,-0.010482249781489372,0.8988178372383118,0.0,-0.014751068316400051,0.7743394374847412,0.0,-0.027983013540506363
162.0,183.0,7.8724,-0.4062,4.6415,-0.04,0.0244,-0.1194,-1.883749624291891,0.0,3.328493595123291,-0.868369460105896,-0.0,1.9873125553131104,3.2620012003132324,0.0,0.22064107656478882,-1.6071856657611292,0.0,0.0009821724379435182,0.8987846970558167,0.0,-0.01012948527932167,0.7743839025497437,0.0,0.0007982309907674789
162.0,183.0,7.8724,-0.4062,4.6415,-0.04,0.0244,-0.1194,-1.883749624291891,0.0,3.3545656204223633,-0.8682888150215149,-0.0,1.9993385076522827,3.2620012003132324,0.0,0.24329864978790283,-1.6071813742267054,0.0,0.006716370116919279,0.8988052010536194,0.0,-0.008359127677977085,0.774339497089386,0.0,-0.052571479231119156
162.0,183.0,7.8724,-0.4062,4.6415,-0.04,0.0244,-0.1194,-1.8837458095946253,0.0,3.324643850326538,-0.868301272392273,-0.0,1.9588086605072021,3.261993094081543,0.0,0.24221661686897278,-1.6071737448321741,0.0,-0.0013324024621397257,0.8987846970558167,0.0,-0.02371980994939804,0.774307131767273,0.0,0.05232047289609909
162.0,183.0,7.8724,-0.4062,4.6415,-0.04,0.0244,-0.1194,-1.8837219677367152,0.0,3.3360867500305176,-0.8683415055274963,-0.0,2.0409622192382812,3.261977358455322,0.0,0.2318396270275116,-1.6071894804583948,0.0,-0.0037518313620239496,0.8988096117973328,0.0,-0.007996614091098309,0.7743151187896729,0.0,0.051968853920698166
162.0,183.0,7.8724,-0.4062,4.6415,-0.04,0.0244,-0.1194,-1.8837138615050257,0.0,3.3251609802246094,-0.8683654069900513,-0.0,1.9683234691619873,3.2619854646870117,0.0,0.23155942559242249,-1.6071737448321741,0.0,0.0002863307308871299,0.8988137245178223,0.0,-0.016194554045796394,0.7743798494338989,0.0,0.0467049777507782
162.0,183.0,7.8724,-0.4062,4.6415,-0.04,0.0244,-0.1194,-1.8838144741454066,0.0,3.329326629638672,-0.8683493733406067,-0.0,2.024181842803955,3.262021704311035,0.0,0.22940948605537415,-1.6072056929217737,0.0,-0.008121865801513195,0.8988374471664429,0.0,0.0005996272666379809,0.7743836045265198,0.0,0.013597855344414711
162.0,183.0,7.8724,-0.4062,4.6415,-0.04,0.0244,-0.1194,-1.8837539158263148,0.0,3.382556438446045,-0.8683612942695618,-0.0,1.9830255508422852,3.261981173152588,0.0,0.2426493614912033,-1.6071575323687952,0.0,0.0018861410208046436,0.8988256454467773,0.0,-0.012397953309118748,0.7743592858314514,0.0,0.03339608013629913
162.0,183.0,7.8724,-0.4062,4.6415,-0.04,0.0244,-0.1194,-1.8837901554503382,0.0,3.3176255226135254,-0.8683411478996277,-0.0,2.0653698444366455,3.2619735437580566,0.0,0.23583653569221497,-1.6071775595294397,0.0,0.0026797030586749315,0.8987929821014404,0.0,-0.013484416529536247,0.7743757367134094,0.0,-0.01629919931292534
162.0,183.0,7.8724,-0.4062,4.6415,-0.04,0.0244,-0.1194,-1.883782526055807,0.0,3.32650089263916,-0.86836177110672,-0.0,2.043916702270508,3.2619892793842773,0.0,0.24023619294166565,-1.6071775595294397,0.0,-0.013135231100022793,0.8988534212112427,0.0,-0.022473614662885666,0.7743394374847412,0.0,0.004194099921733141
162.0,183.0,7.8724,-0.4062,4.6415,-0.04,0.0244,-0.1194,-1.8837658367552699,0.0,3.343547821044922,-0.868369460105896,-0.0,1.992867350578308,3.2620293337055664,0.0,0.23326782882213593,-1.6071775595294397,0.0,0.004731539636850357,0.8988132476806641,0.0,-0.004647915717214346,0.7743638157844543,0.0,-0.011193136684596539
162.0,183.0,7.8724,-0.4062,4.6415,-0.04,0.0244,-0.1194,-1.8837701282896937,0.0,3.3333091735839844,-0.8683213591575623,-0.0,2.0381364822387695,3.26203362523999,0.0,0.22300463914871216,-1.6071694532977503,0.0,0.000737914175260812,0.8988132476806641,0.0,-0.020239967852830887,0.7743597030639648,0.0,0.016255009919404984
162.0,183.0,7.8724,-0.4062,4.6415,-0.04,0.0244,-0.1194,-1.883794446984762,0.0,3.340850830078125,-0.8683292269706726,-0.0,2.0096607208251953,3.262021227473877,0.0,0.2211335301399231,-1.6071975866900843,0.0,-0.005111146718263626,0.8988251686096191,0.0,-0.005737727507948875,0.7743877172470093,0.0,0.027209579944610596
162.0,183.0,7.8724,-0.4062,4.6415,-0.04,0.0244,-0.1194,-1.8837949238219203,0.0,3.3288471698760986,-0.8683177828788757,-0.0,2.008432388305664,3.262021227473877,0.0,0.22371718287467957,-1.6072137991534632,0.0,-0.008173868060112,0.8988173007965088,0.0,-0.006208294071257114,0.7743274569511414,0.0,-0.012124257162213326
171.0,182.0,8.0794,-0.3721,4.5589,-0.0492,0.0331,-0.129,-1.8838144741454066,0.0,3.350259304046631,-0.8683333396911621,-0.0,2.025761604309082,3.2619892793842773,0.0,0.2434442937374115,-1.6071813742267054,0.0,-0.005161345936357975,0.8988053798675537,0.0,-0.000998969655483961,0.7743353247642517,0.0,-0.009938986971974373
171.0,182.0,8.0794,-0.3721,4.5589,-0.0492,0.0331,-0.129,-1.8837539158263148,0.0,3.2789011001586914,-0.8683575987815857,-0.0,1.9924947023391724,3.2619454103657226,0.0,0.23688876628875732,-1.6071775595294397,0.0,-0.002703654346987605,0.8988256454467773,0.0,-0.005721311084926128,0.7743232846260071,0.0,0.018127430230379105
171.0,182.0,8.0794,-0.3721,4.5589,-0.0492,0.0331,-0.129,-1.883737703362936,0.0,3.3196277618408203,-0.868313193321228,-0.0,2.0024898052215576,3.261953516597412,0.0,0.23462499678134918,-1.6071575323687952,0.0,0.0063189007341861725,0.8987727165222168,0.0,-0.01677509769797325,0.7743232846260071,0.0,0.012990441173315048
171.0,182.0,8.0794,-0.3721,4.5589,-0.0492,0.0331,-0.129,-1.8837582073607386,0.0,3.322908401489258,-0.8683168888092041,-0.0,2.027606248855591,3.2619892793842773,0.0,0.23503513634204865,-1.6071489492999476,0.0,0.007693976163864136,0.8988259434700012,0.0,0.002001074142754078,0.7743555903434753,0.0,-0.01683373749256134
171.0,182.0,8.0794,-0.3721,4.5589,-0.0492,0.0331,-0.129,-1.8837620220580042,0.0,3.337709903717041,-0.8683091402053833,-0.0,1.9540603160858154,3.261977358455322,0.0,0.23963993787765503,-1.6071813742267054,0.0,0.00029643275775015354,0.8987290263175964,0.0,-0.006167578045278788,0.7743394374847412,0.0,0.029056139290332794
171.0,182.0,8.0794,-0.3721,4.5589,-0.0492,0.0331,-0.129,-1.8837901554503382,0.0,3.352433443069458,-0.8683177828788757,-0.0,1.9999799728393555,3.2619973856159667,0.0,0.2379910945892334,-1.6071856657611292,0.0,0.007141278591006994,0.8988492488861084,0.0,-0.015743236988782883,0.7743798494338989,0.0,-0.01906636543571949
171.0,182.0,8.0794,-0.3721,4.5589,-0.0492,0.0331,-0.129,-1.8837539158263148,0.0,3.3178956508636475,-0.868321418762207,-0.0,1.9825332164764404,3.262016935939453,0.0,0.2376525104045868,-1.6071737448321741,0.0,0.011194117367267609,0.8988256454467773,0.0,-0.013229431584477425,0.7743474245071411,0.0,-0.02404235675930977
171.0,182.0,8.0794,-0.3721,4.5589,-0.0492,0.0331,-0.129,-1.8837582073607386,0.0,3.329888343811035,-0.8683251142501831,-0.0,1.978691816329956,3.262005015010498,0.0,0.22994588315486908,-1.6071694532977503,0.0,0.004398656077682972,0.8987687230110168,0.0,-0.017736759036779404,0.774347722530365,0.0,0.011316372081637383
171.0,182.0,8.0794,-0.3721,4.5589,-0.0492,0.0331,-0.129,-1.883705278436178,0.0,3.3405628204345703,-0.8683493733406067,-0.0,1.9738969802856445,3.2620012003132324,0.0,0.21568645536899567,-1.6071656386004847,0.0,0.002136323368176818,0.8987290263175964,0.0,0.004021440166980028,0.7743435502052307,0.0,-0.032543718814849854
171.0,182.0,8.0794,-0.3721,4.5589,-0.0492,0.0331,-0.129,-1.8837658367552699,0.0,3.313159942626953,-0.8683173060417175,-0.0,1.9974110126495361,3.262016935939453,0.0,0.22373968362808228,-1.6071656386004847,0.0,-0.0009587293607182801,0.8988093733787537,0.0,-0.013792028650641441,0.774315357208252,0.0,-0.02296709641814232
171.0,182.0,8.0794,-0.3721,4.5589,-0.0492,0.0331,-0.129,-1.8837782345213832,0.0,3.342146396636963,-0.8683571815490723,-0.0,1.9885367155075073,3.262005015010498,0.0,0.21585623919963837,-1.6071537176715296,0.0,-0.017467781901359558,0.8988301157951355,0.0,-0.00039957044646143913,0.7743675112724304,0.0,-0.043029602617025375
171.0,182.0,8.0794,-0.3721,4.5589,-0.0492,0.0331,-0.129,-1.8837539158263148,0.0,3.287043809890747,-0.8683251142501831,-0.0,2.0216479301452637,3.262045069331787,0.0,0.22748343646526337,-1.6072056929217737,0.0,-0.004027402028441429,0.8987970352172852,0.0,-0.002540155313909054,0.7743757367134094,0.0,-0.0005514055956155062
171.0,182.0,8.0794,-0.3721,4.5589,-0.0492,0.0331,-0.129,-1.8837582073607386,0.0,3.338799476623535,-0.8683575987815857,-0.0,2.0176076889038086,3.2619892793842773,0.0,0.23659968376159668,-1.6072099844561976,0.0,-0.008405689150094986,0.8988296389579773,0.0,-0.004829159006476402,0.7743353247642517,0.0,0.0216155257076025
171.0,182.0,8.0794,-0.3721,4.5589,-0.0492,0.0331,-0.129,-1.883761545220846,0.0,3.339315414428711,-0.8683255314826965,-0.0,1.9894582033157349,3.262005015010498,0.0,0.22361817955970764,-1.6071656386004847,0.0,0.00648523261770606,0.8988173007965088,0.0,-0.004519259557127953,0.7743394374847412,0.0,0.0030943555757403374
171.0,182.0,8.0794,-0.3721,4.5589,-0.0492,0.0331,-0.129,-1.8837782345213832,0.0,3.3395333290100098,-0.868369460105896,-0.0,1.9903733730316162,3.262016935939453,0.0,0.22274088859558105,-1.607161823903219,0.0,0.005439835600554943,0.898801326751709,0.0,-0.004256167449057102,0.7742947340011597,0.0,-0.018449507653713226
171.0,182.0,8.0794,-0.3721,4.5589,-0.0492,0.0331,-0.129,-1.8837906322874964,0.0,3.3688440322875977,-0.8683168888092041,-0.0,2.0188097953796387,3.262009306544922,0.0,0.23557570576667786,-1.6071737448321741,0.0,-0.005207869689911604,0.8987929821014404,0.0,0.0012155170552432537,0.7743555903434753,0.0,0.018937652930617332
168.0,180.0,8.0513,-0.3272,4.4668,-0.0376,0.0162,-0.137,-1.8837539158263148,0.0,3.3113107681274414,-0.8682805895805359,-0.0,2.021608829498291,3.2619892793842773,0.0,0.23378033936023712,-1.607201878224508,0.0,-0.005101976916193962,0.8988096117973328,0.0,-0.009257961064577103,0.7743592858314514,0.0,-0.021266210824251175
168.0,180.0,8.0513,-0.3272,4.4668,-0.0376,0.0162,-0.137,-1.8837701282896937,0.0,3.348618984222412,-0.868313193321228,-0.0,2.0286552906036377,3.261981173152588,0.0,0.23949432373046875,-1.607161823903219,0.0,0.0070443060249090195,0.8987929821014404,0.0,-0.008579535409808159,0.7743473649024963,0.0,-0.012455926276743412
168.0,180.0,8.0513,-0.3272,4.4668,-0.0376,0.0162,-0.137,-1.8837906322874964,0.0,3.321481227874756,-0.868301272392273,-3.036967655134504e-08,2.0066282749176025,3.2620131212421875,0.0,0.23157843947410583,-1.607133690510885,0.0,-0.01344975084066391,0.8987929821014404,0.0,-0.006944102700799704,0.7743070721626282,0.0,-0.012700794264674187
168.0,180.0,8.0513,-0.3272,4.4668,-0.0376,0.0162,-0.137,-1.8837539158263148,0.0,3.336437463760376,-0.8683173656463623,-7.333919577320533e-14,2.0296382904052734,3.262037439937256,0.0,0.21904070675373077,-1.6071932951556605,0.0,0.00994542334228754,0.8987846374511719,0.0,-0.012454023584723473,0.7743029594421387,0.0,0.06764188408851624
168.0,180.0,8.0513,-0.3272,4.4668,-0.0376,0.0162,-0.137,-1.8837019405760707,0.0,3.3933663368225098,-0.8683053851127625,-1.7710553422810616e-19,1.9875073432922363,3.262045069331787,0.0,0.22112619876861572,-1.6071694532977503,0.0,-0.002800771500915289,0.8988132476806641,0.0,-0.019088439643383026,0.7743232250213623,0.0,0.0034600291401147842
168.0,180.0,8.0513,-0.3272,4.4668,-0.0376,0.0162,-0.137,-1.8837539158263148,0.0,3.2969553470611572,-0.8683173060417175,-4.276890255898501e-25,2.000335693359375,3.262033148402832,0.0,0.2323315143585205,-1.6071932951556605,0.0,0.006147515960037708,0.8988053798675537,0.0,0.0002744460944086313,0.7743394374847412,0.0,-0.008693166077136993
168.0,180.0,8.0513,-0.3272,4.4668,-0.0376,0.0162,-0.137,-1.8837782345213832,0.0,3.3540430068969727,-0.8682971596717834,-1.0328186769714583e-30,2.007094383239746,3.262049360866211,0.0,0.2367115467786789,-1.6071417967425745,0.0,-0.004462795797735453,0.8987765312194824,0.0,-0.0036726833786815405,0.7743597626686096,0.0,0.0347205325961113
168.0,180.0,8.0513,-0.3272,4.4668,-0.0376,0.0162,-0.137,-1.8837658367552699,0.0,3.342642307281494,-0.8683373928070068,-2.494135666985013e-36,2.0280258655548096,3.262061281795166,0.0,0.2332022339105606,-1.6071932951556605,0.0,-0.009922236204147339,0.8987972140312195,0.0,0.002876637503504753,0.7743555903434753,0.0,-0.02664579078555107
168.0,180.0,8.0513,-0.3272,4.4668,-0.0376,0.0162,-0.137,-1.8837739429869593,0.0,3.3152079582214355,-0.8683415055274963,-6.022780799668064e-42,2.0180532932281494,3.2620531755634765,0.0,0.23554229736328125,-1.6072376410113733,0.0,-0.01316395029425621,0.8988096117973328,0.0,-0.002575766760855913,0.7743592858314514,0.0,-0.03385613113641739
168.0,180.0,8.0513,-0.3272,4.4668,-0.0376,0.0162,-0.137,-1.883737703362936,0.0,3.332764148712158,-0.8683736324310303,-0.0,1.9585340023040771,3.2620174127766113,2.718138070179066e-08,0.22400349378585815,-1.6072056929217737,0.0,-0.006951490417122841,0.8988256454467773,0.0,-0.009336711838841438,0.7743068337440491,-6.5982610000792086e-12,0.014099681749939919
168.0,180.0,8.0513,-0.3272,4.4668,-0.0376,0.0162,-0.137,-1.8837138615050257,0.0,3.3439364433288574,-0.8683255314826965,-0.0,2.045433521270752,3.261993094081543,7.56603720647453e-12,0.2308967411518097,-1.6071894804583948,0.0,-0.008469922468066216,0.8988373875617981,0.0,-0.005055883899331093,0.7743914723396301,-1.593402480736205e-17,-0.01875491440296173
168.0,180.0,8.0513,-0.3272,4.4668,-0.0376,0.0162,-0.137,-1.8837739429869593,0.0,3.3271982669830322,-0.8683131337165833,-0.0,1.967345952987671,3.2620369631000976,2.1060343444493593e-15,0.2324359267950058,-1.6071694532977503,0.0,0.007916122674942017,0.8988617062568665,0.0,-0.0002603866159915924,0.7743633985519409,-3.847879533304998e-23,-0.007257131859660149
168.0,180.0,8.0513,-0.3272,4.4668,-0.0376,0.0162,-0.137,-1.8837462864317835,0.0,3.383481979370117,-0.8683333396911621,-0.0,2.0371651649475098,3.262033148402832,5.862223831284479e-19,0.23090597987174988,-1.6071980635272425,0.0,0.002659717109054327,0.8988296985626221,0.0,-0.009438368491828442,0.7744119167327881,-9.292175638165388e-29,0.0017185272881761193
168.0,180.0,8.0513,-0.3272,4.4668,-0.0376,0.0162,-0.137,-1.883754392663473,0.0,3.337555170059204,-0.86826092004776,-0.0,2.0182485580444336,3.2620407777973632,1.6317716566596361e-22,0.2361096292734146,-1.6071856657611292,0.0,-0.0007346640340983868,0.8988646268844604,0.0,-0.01509686466306448,0.7743514776229858,-2.2439512166300707e-34,0.02269716188311577
168.0,180.0,8.0513,-0.3272,4.4668,-0.0376,0.0162,-0.137,-1.8837462864317835,0.0,3.338280200958252,-0.8682847619056702,-0.0,2.0368452072143555,3.2620650964924316,4.5420962326593464e-26,0.2237987220287323,-1.6072219053851526,0.0,-0.0023437971249222755,0.8988092541694641,0.0,-0.005729713477194309,0.7743353247642517,-5.418877213482641e-40,0.05099621042609215
171.0,186.0,8.214,-1.8921,4.1946,-0.0165,0.0228,-0.0936,-1.8837176762022914,0.0,3.3375892639160156,-0.8683415651321411,-0.0,2.026322841644287,3.262049360866211,1.2643093625240894e-29,0.2273242175579071,-1.6071894804583948,0.0,0.0010298056295141578,0.8988096117973328,0.0,0.00863837543874979,0.7743955850601196,-1.401298464324817e-45,-0.01698307879269123
171.0,186.0,8.214,-1.8921,4.1946,-0.0165,0.0228,-0.0936,-1.8837620220580042,-9.030457022163318e-07,3.2930779457092285,-0.8682847023010254,-0.0,2.044106960296631,3.2619973856159667,3.519251190815413e-33,0.22921699285507202,-1.6072137991534632,0.0,-0.003941059112548828,0.8988416194915771,0.0,-0.01708708330988884,0.774379551410675,0.0,-0.03788326308131218
171.0,186.0,8.214,-1.8921,4.1946,-0.0165,0.0228,-0.0936,-1.8837739429869593,-2.1807488540664943e-12,3.323176622390747,-0.8683456778526306,-0.0,2.00146484375,3.2620293337055664,9.795965025168485e-37,0.23052729666233063,-1.6071813742267054,0.0,0.0005989586934447289,0.8988456726074219,0.0,-0.003938763868063688,0.7743592858314514,0.0,-0.0054425462149083614
171.0,186.0,8.214,-1.8921,4.1946,-0.0165,0.0228,-0.0936,-1.8837219677367152,-5.266251573673445e-18,3.343048572540283,-0.8682531118392944,-0.0,2.0250871181488037,3.262045069331787,2.7267446427757318e-40,0.230953186750412,-1.6072099844561976,0.0,0.003055764362215996,0.8988646864891052,0.0,-0.004488684702664614,0.7743514776229858,0.0,-0.08042754232883453
171.0,186.0,8.214,-1.8921,4.1946,-0.0165,0.0228,-0.0936,-1.8836938343443812,-1.2717378903222639e-23,3.325598955154419,-0.8683337569236755,-0.0,2.0171055793762207,3.2619969087788085,7.567011707354012e-44,0.22591689229011536,-1.6072056929217737,0.0,0.004677559249103069,0.8988493084907532,0.0,-0.027117786929011345,0.774339497089386,0.0,-0.0017152517102658749
171.0,186.0,8.214,-1.8921,4.1946,-0.0165,0.0228,-0.0936,-1.8837300739684046,-3.0710969171165006e-29,3.2952747344970703,-0.8682805895805359,-0.0,2.013155460357666,3.2619616228291015,0.0,0.2213154435157776,-1.6071980635272425,0.0,-0.003936808090656996,0.89886474609375,0.0,-0.0025884821079671383,0.7743232846260071,0.0,-0.03574201464653015
171.0,186.0,8.214,-1.8921,4.1946,-0.0165,0.0228,-0.0936,-1.8836900196471156,-7.416337352300559e-35,3.307904005050659,-0.868309497833252,-0.0,2.0070929527282715,3.262045069331787,0.0,0.236547589302063,-1.6072219053851526,0.0,-0.00037375977262854576,0.8988214135169983,0.0,-0.01039085816591978,0.7743597030639648,0.0,0.0032099559903144836
171.0,186.0,8.214,-1.8921,4.1946,-0.0165,0.0228,-0.0936,-1.8837343655028285,-1.790957528299619e-40,3.3024213314056396,-0.8683337569236755,-0.0,2.0325734615325928,3.262021227473877,0.0,0.23729032278060913,-1.607161823903219,0.0,0.0036304383538663387,0.8987887501716614,0.0,-0.013182863593101501,0.7743151187896729,0.0,-0.016958877444267273
171.0,186.0,8.214,-1.8921,4.1946,-0.0165,0.0228,-0.0936,-1.8837462864317835,-0.0,3.3125381469726562,-0.868309497833252,-0.0,2.0140790939331055,3.262037439937256,0.0,0.23171550035476685,-1.6071932951556605,0.0,-0.00439345370978117,0.8987929821014404,0.0,0.007033461704850197,0.7742989659309387,0.0,-0.02360476367175579
171.0,186.0,8.214,-1.8921,4.1946,-0.0165,0.0228,-0.0936,-1.8837138615050257,0.0,3.3330514430999756,-0.8682811260223389,-0.0,2.0067989826202393,3.2620255190083007,0.0,0.23285150527954102,-1.6071932951556605,0.0,0.00047038705088198185,0.8988617062568665,0.0,-0.005744761321693659,0.7743353247642517,0.0,0.041819147765636444
171.0,186.0,8.214,-1.8921,4.1946,-0.0165,0.0228,-0.0936,-1.8837782345213832,0.0,3.3466618061065674,-0.8683539628982544,-0.0,1.9843271970748901,3.2620293337055664,0.0,0.22169536352157593,-1.6071856657611292,0.0,0.004652396775782108,0.8987805843353271,0.0,-0.009678604081273079,0.7743435502052307,0.0,0.03339587524533272
171.0,186.0,8.214,-1.8921,4.1946,-0.0165,0.0228,-0.0936,-1.8837257824339808,0.0,3.3504583835601807,-0.8683213591575623,-0.0,2.0556585788726807,3.262021704311035,0.0,0.23881125450134277,-1.6071975866900843,0.0,-0.015363494865596294,0.8988419771194458,0.0,-0.007705492898821831,0.7743273973464966,0.0,-0.016227759420871735
171.0,186.0,8.214,-1.8921,4.1946,-0.0165,0.0228,-0.0936,-1.8837820492186488,0.0,3.3361239433288574,-0.868321418762207,-0.0,1.9936615228652954,3.2619892793842773,0.0,0.21957257390022278,-1.6071813742267054,0.0,-0.01318597886711359,0.8988256454467773,0.0,-0.0068132588639855385,0.7743514776229858,0.0,-0.030213765799999237
171.0,186.0,8.214,-1.8921,4.1946,-0.0165,0.0228,-0.0936,-1.8837782345213832,0.0,3.3466315269470215,-0.8682929277420044,-0.0,2.010629892349243,3.26203362523999,0.0,0.22839096188545227,-1.6071856657611292,0.0,0.004364733584225178,0.8988456726074219,0.0,-0.015108168125152588,0.7742993831634521,0.0,-0.05886686593294144
171.0,186.0,8.214,-1.8921,4.1946,-0.0165,0.0228,-0.0936,-1.8837181530394496,0.0,3.3019490242004395,-0.8682892918586731,-0.0,1.971885323524475,3.262061281795166,0.0,0.2187328338623047,-1.6071937719928187,0.0,0.0038238507695496082,0.8987526893615723,0.0,-0.008692560717463493,0.7743914127349854,0.0,-0.016736865043640137
168.0,186.0,8.1338,0.3021,4.4243,0.0098,-0.0151,-0.1229,-1.8837138615050257,0.00011996635294053704,3.334428310394287,-0.8682572245597839,0.0011328832479193807,2.0120513439178467,3.2620693880268554,2.7413334464654326e-05,0.22541207075119019,-1.6072056929217737,0.0,-0.004958166740834713,0.8987805843353271,0.0,-0.005046635400503874,0.7744036912918091,0.0017436936032027006,0.0008723456412553787
168.0,186.0,8.1338,0.3021,4.4243,0.0098,-0.0151,-0.1229,-1.8836819134154261,0.0017764315707609057,3.3415536880493164,-0.8682451844215393,0.0016366866184398532,2.042681932449341,3.2620574670979003,0.0005846144049428403,0.23541982471942902,-1.6072137991534632,0.0,-0.001446263282559812,0.8988173007965088,0.0,-0.005982505157589912,0.7744395136833191,0.002877488499507308,0.07295872271060944
168.0,186.0,8.1338,0.3021,4.4243,0.0098,-0.0151,-0.1229,-1.883618017236227,0.002810316625982523,3.317544460296631,-0.8681970834732056,0.0019026311347261071,2.0220835208892822,3.2620889383503417,0.0019490739796310663,0.22752994298934937,-1.6072576681720179,0.0,0.0022670018952339888,0.8987485766410828,0.0,-0.004142172634601593,0.7744354009628296,0.003398696891963482,0.03048328310251236
168.0,186.0,8.1338,0.3021,4.4243,0.0098,-0.0151,-0.1229,-1.8835813007750453,0.0038108148146420717,3.3671016693115234,-0.8682173490524292,0.003120924811810255,2.056582450866699,3.262105627650879,0.0026323471684008837,0.23710551857948303,-1.607241455708639,-0.0003059442387893796,-0.014683499932289124,0.8988256454467773,0.0,-0.00937097892165184,0.7745198607444763,0.005536187905818224,0.0350191630423069
168.0,186.0,8.1338,0.3021,4.4243,0.0098,-0.0151,-0.1229,-1.8836223087706507,0.0044536530040204525,3.3912887573242188,-0.868172824382782,0.004215013701468706,2.0316452980041504,3.2621890741535644,0.0029663704335689545,0.23285318911075592,-1.607281510029928,-0.0013318326091393828,-0.003835865296423435,0.8987650871276855,0.0,-0.0016317167319357395,0.7745360136032104,0.007721373345702887,0.027749598026275635
168.0,186.0,8.1338,0.3021,4.4243,0.0098,-0.0151,-0.1229,-1.8836103878416957,0.0032934921327978373,3.4715425968170166,-0.8681654930114746,0.004433279391378164,2.030162811279297,3.2622129160114746,0.006216408684849739,0.25557780265808105,-1.607309643422262,-0.0020898981019854546,-0.020326808094978333,0.8988053798675537,0.0,-0.01310272142291069,0.774587869644165,0.007085307966917753,0.09273456782102585
168.0,186.0,8.1338,0.3021,4.4243,0.0098,-0.0151,-0.1229,-1.8836304150023402,0.001804641680791974,3.4370336532592773,-0.8681696653366089,0.0038284924812614918,2.062739372253418,3.2622482019611816,0.012200254015624523,0.24794237315654755,-1.6073015371905726,-0.0016364537877961993,-0.017376665025949478,0.8987887501716614,0.0,-0.011708743870258331,0.7746237516403198,0.0056275962851941586,0.05167234688997269
168.0,186.0,8.1338,0.3021,4.4243,0.0098,-0.0151,-0.1229,-1.883561750451559,0.0007808338268660009,3.4538047313690186,-0.8681054711341858,0.0027283327654004097,2.0930252075195312,3.2624689775654296,0.018776362761855125,0.25008702278137207,-1.6073182264911097,-0.0012716683559119701,-0.01395116001367569,0.8987526297569275,0.0,-0.004573140759021044,0.7746031284332275,0.005844030063599348,0.127016082406044
168.0,186.0,8.1338,0.3021,4.4243,0.0098,-0.0151,-0.1229,-1.883589883843893,0.000510293641127646,3.525700092315674,-0.8681012988090515,0.0015025694156065583,2.086984157562256,3.2625362116047363,0.02301347441971302,0.2531152665615082,-1.6073058287249964,-0.0010986245470121503,-0.02294151671230793,0.8987568020820618,0.0,-0.0024034911766648293,0.7747318744659424,0.008258216083049774,0.09245914965867996
168.0,186.0,8.1338,0.3021,4.4243,0.0098,-0.0151,-0.1229,-1.88368620494985,0.00023763661738485098,3.5145835876464844,-0.8681210279464722,0.0006825789459981024,2.1163644790649414,3.262695475215576,0.024543721228837967,0.2570295035839081,-1.607325855885641,-0.0012448782799765468,-0.015477318316698074,0.898801326751709,0.0,-0.014442340470850468,0.774791955947876,0.012438292615115643,0.13410790264606476
168.0,186.0,8.1338,0.3021,4.4243,0.0098,-0.0151,-0.1229,-1.8836337528624476,-0.0002529905759729445,3.4728305339813232,-0.8681012988090515,0.0002851808676496148,2.091569662094116,3.262795611018799,0.022418640553951263,0.2626979351043701,-1.6073458830462855,-0.002161458833143115,-0.020418062806129456,0.8987770080566406,0.0,-0.010381665080785751,0.7748435139656067,0.016707517206668854,0.12812550365924835
168.0,186.0,8.1338,0.3021,4.4243,0.0098,-0.0151,-0.1229,-1.8836986027159632,-0.0010700842831283808,3.5102736949920654,-0.8680723905563354,-0.0001656419044593349,2.091669797897339,3.2629472452351074,0.016554879024624825,0.26746559143066406,-1.6073620955096644,-0.0028463322669267654,-0.021934419870376587,0.8988213539123535,0.0,-0.0048747132532298565,0.7750283479690552,0.021049585193395615,0.08936454355716705
168.0,186.0,8.1338,0.3021,4.4243,0.0098,-0.0151,-0.1229,-1.883742471734518,-0.0012622348731383681,3.4745688438415527,-0.8681091070175171,-0.00019487513054627925,2.1072306632995605,3.262962980861328,0.010515876114368439,0.2676801383495331,-1.6074422041522425,-0.00490770535543561,-0.02015422098338604,0.8987568616867065,0.0,-0.010346611961722374,0.7751399874687195,0.02621903084218502,0.14429888129234314
168.0,186.0,8.1338,0.3021,4.4243,0.0098,-0.0151,-0.1229,-1.883738180200094,-0.0010015805019065738,3.522334575653076,-0.8681452870368958,-0.00024856560048647225,2.113933801651001,3.2630907732197265,0.004729132167994976,0.2575817108154297,-1.6074255148517054,-0.008321770466864109,-0.03295445442199707,0.8988173007965088,0.0,-0.002676461823284626,0.7753567099571228,0.0303032286465168,0.1194659024477005
168.0,186.0,8.1338,0.3021,4.4243,0.0098,-0.0151,-0.1229,-1.8836900196471156,-0.0008377276244573295,3.529135227203369,-0.8681411743164062,-0.0004152020555920899,2.150743007659912,3.2630669313618164,0.0014256206341087818,0.2577744424343109,-1.6075099150287073,-0.009254963137209415,-0.031160447746515274,0.8987929224967957,0.0,-0.0018698163330554962,0.7755324244499207,0.03441357985138893,0.1259395182132721
168.0,186.0,8.1338,0.3021,4.4243,0.0098,-0.0151,-0.1229,-1.883766313592428,-0.0007093949243426323,3.546199083328247,-0.8681370615959167,-0.0003269800217822194,2.0950186252593994,3.2630907732197265,0.00030078666168265045,0.26327377557754517,-1.6075943152057093,-0.007158904802054167,-0.018813353031873703,0.8988213539123535,0.0,-0.0032718637958168983,0.7757287621498108,0.0391247421503067,0.11724694818258286
168.0,181.0,8.6207,-0.0461,5.199,-0.0389,0.0718,-0.1078,-1.8836776218810023,-0.0005477798404172063,3.512117862701416,-0.8681247234344482,-0.0002684498031158,2.1446335315704346,3.2631026941486816,0.00011643656034721062,0.2706708014011383,-1.6075533072101038,-0.00367663218639791,-0.031129688024520874,0.8988011479377747,0.0,-0.007319469936192036,0.7760093212127686,0.04573226720094681,0.1745195984840393
168.0,181.0,8.6207,-0.0461,5.199,-0.0389,0.0718,-0.1078,-1.8837462864317835,-0.0004495805478654802,3.5041136741638184,-0.8681411743164062,-0.00022769442875869572,2.1351981163024902,3.263031168574951,8.38208943605423e-05,0.25748348236083984,-1.6075175444232386,-0.0013688266044482589,-0.026433013379573822,0.8987645506858826,0.0,-0.002041826955974102,0.776253342628479,0.04991567134857178,0.16391733288764954
168.0,181.0,8.6207,-0.0461,5.199,-0.0389,0.0718,-0.1078,-1.8837501011290492,-0.00030352119938470423,3.5370190143585205,-0.8681778907775879,-0.0001976843341253698,2.0732264518737793,3.2630068498798828,0.00013037015742156655,0.255039781332016,-1.6075456778155726,-0.0007755254628136754,-0.03236980736255646,0.8987970352172852,0.0,-0.012243589386343956,0.7765774726867676,0.05498654395341873,0.1348074972629547
168.0,181.0,8.6207,-0.0461,5.199,-0.0389,0.0718,-0.1078,-1.8837343655028285,-0.00025243338313885033,3.4406275749206543,-0.8681252002716064,-0.0002095966337947175,2.103017568588257,3.263082666988037,0.0002076255186693743,0.2612345814704895,-1.6075533072101038,-0.0005416255444288254,-0.01710200123488903,0.8988333344459534,0.0,-0.008232899010181427,0.7768700122833252,0.05814586952328682,0.15544652938842773
168.0,181.0,8.6207,-0.0461,5.199,-0.0389,0.0718,-0.1078,-1.883737703362936,-0.0002590711519587785,3.50769305229187,-0.8681572079658508,-0.00018773568444885314,2.070464611053467,3.263038321132324,0.0004572258912958205,0.26331883668899536,-1.607525650654928,-0.000346958200680092,-0.031327635049819946,0.89879310131073,0.0,-0.0019327481277287006,0.7771536707878113,0.057274363934993744,0.1238095611333847
168.0,181.0,8.6207,-0.0461,5.199,-0.0389,0.0718,-0.1078,-1.883810659448141,-0.0003636715409811586,3.5074219703674316,-0.8682176470756531,-0.00019719429838005453,2.073287010192871,3.263122721309326,0.0019376062555238605,0.24276548624038696,-1.6074937025653284,-0.0002816838095895946,-0.02559264376759529,0.8988173007965088,0.0,-0.007309698965400457,0.7774864435195923,0.05493531376123428,0.1315416395664215
168.0,181.0,8.6207,-0.0461,5.199,-0.0389,0.0718,-0.1078,-1.883782526055807,-0.0016745373141020536,3.462350368499756,-0.8681407570838928,-0.00020675310224760324,2.0552802085876465,3.2631026941486816,0.003905371529981494,0.2500627934932709,-1.6075533072101038,-0.00019056549353990704,-0.02383452281355858,0.8987247347831726,0.0,0.004083704669028521,0.7777988314628601,0.04791591316461563,0.08888058364391327
168.0,181.0,8.6207,-0.0461,5.199,-0.0389,0.0718,-0.1078,-1.8837701282896937,-0.0023750807158648968,3.4313926696777344,-0.868133008480072,-0.00019568343122955412,2.0908164978027344,3.263166590327881,0.005025574937462807,0.25257164239883423,-1.6075018087970179,-0.0001716175611363724,-0.0139545276761055,0.8988173007965088,0.0,-0.01234978437423706,0.7779784798622131,0.04521999880671501,0.1318611353635788
168.0,181.0,8.6207,-0.0461,5.199,-0.0389,0.0718,-0.1078,-1.8838221035399378,-0.003821789287030697,3.395134449005127,-0.8681737780570984,-0.0009385380544699728,2.0688083171844482,3.263258619899414,0.0064179981127381325,0.2532366216182709,-1.607525650654928,-0.0001501371298218146,-0.015386620536446571,0.8987650871276855,0.0,-0.006474501919001341,0.7782548666000366,0.03902725502848625,0.07612644135951996
168.0,181.0,8.6207,-0.0461,5.199,-0.0389,0.0718,-0.1078,-1.883857866326803,-0.007944205775856972,3.3948616981506348,-0.8682177066802979,-0.0007396260043606162,2.0379128456115723,3.2632505136677246,0.009581156075000763,0.24629321694374084,-1.6075494925128382,-0.0001334389380645007,-0.001928320387378335,0.8988091349601746,0.0,-0.001607041573151946,0.7784791588783264,0.03367156907916069,0.08067082613706589
168.0,181.0,8.6207,-0.0461,5.199,-0.0389,0.0718,-0.1078,-1.8839346371092738,-0.011806289665400982,3.3640871047973633,-0.8681531548500061,-0.0004380618338473141,2.084171772003174,3.263390226955078,0.012632334604859352,0.2443685233592987,-1.6075533072101038,-0.0001200837577925995,-0.011544675566256046,0.8988256454467773,0.0,-0.006313962396234274,0.7786432504653931,0.0289753545075655,0.02954828552901745
168.0,181.0,8.6207,-0.0461,5.199,-0.0389,0.0718,-0.1078,-1.8839699230589808,-0.008595149964094162,3.349745750427246,-0.8681449294090271,-0.00027093422249890864,2.03311824798584,3.2634774881550292,0.019337790086865425,0.2527446150779724,-1.607537571583883,-4.94351661473047e-05,-0.009656964801251888,0.8988770246505737,0.0,-0.010526650585234165,0.7787749171257019,0.023685578256845474,0.04547913745045662
168.0,181.0,8.6207,-0.0461,5.199,-0.0389,0.0718,-0.1078,-1.8839737377562464,-0.00360648101195693,3.348850727081299,-0.8681530952453613,-0.00016586917627137154,2.0567421913146973,3.2636615472980957,0.029229797422885895,0.2683803141117096,-1.6075413862811487,-2.598698847577907e-05,-0.01309699285775423,0.8987846374511719,0.0,-0.00994245707988739,0.7788627743721008,0.0178984422236681,-0.006026827730238438
168.0,181.0,8.6207,-0.0461,5.199,-0.0389,0.0718,-0.1078,-1.8840662441649378,-0.0014894484775140882,3.3661999702453613,-0.8681851625442505,-0.00018646959506440908,2.05596923828125,3.2638532358356933,0.03984495624899864,0.27377915382385254,-1.6075456778155726,-2.391030102444347e-05,-0.012069223448634148,0.8988373875617981,0.0,0.005181231070309877,0.7790068984031677,0.01304207369685173,0.04028863087296486
168.0,181.0,8.6207,-0.0461,5.199,-0.0389,0.0718,-0.1078,-1.8840581379332484,-0.002523547736927867,3.3824968338012695,-0.8681893348693848,-0.0001613957720110193,2.0385046005249023,3.264159842128418,0.056127700954675674,0.2609178423881531,-1.6075218359576624,-2.2145191906020045e-05,-0.025686847046017647,0.89879310131073,0.0,0.003502397332340479,0.7790631651878357,0.008342206478118896,0.01738947071135044
165.0,174.0,9.6293,-0.5767,4.998,-0.0034,0.5591,-0.1347,-1.8841101131834925,-0.005291546229273081,3.419618606567383,-0.8682134747505188,-4.183511919109151e-05,2.005100965499878,3.264575167293213,0.0804491639137268,0.26821616291999817,-1.6075575987445276,-2.0622805095626973e-05,-0.011097457259893417,0.8988053798675537,0.0,-0.005299207754433155,0.779079020023346,0.004635064862668514,0.0434231162071228
165.0,174.0,9.6293,-0.5767,4.998,-0.0034,0.5591,-0.1347,-1.8841339550414027,-0.006294121965765953,3.387406826019287,-0.8682301044464111,-7.342840399360284e-05,2.0772037506103516,3.2652475076862792,0.11809883266687393,0.3059113323688507,-1.6075575987445276,-3.7304984289221466e-05,-0.031858477741479874,0.898801326751709,0.0,0.013791699893772602,0.7790831327438354,0.0021150291431695223,0.037620909512043
165.0,174.0,9.6293,-0.5767,4.998,-0.0034,0.5591,-0.1347,-1.8841778240599574,-0.0049729193560779095,3.4039254188537598,-0.8681851029396057,-3.271166860940866e-05,2.0972821712493896,3.266017122859619,0.1495135873556137,0.32126301527023315,-1.6075494925128382,-3.6259832995710894e-05,-0.025398679077625275,0.8988456726074219,0.0,0.004765554331243038,0.7791190147399902,0.0011267177760601044,0.06249793618917465
165.0,174.0,9.6293,-0.5767,4.998,-0.0034,0.5591,-0.1347,-1.8840934238829554,-0.0029327089432626963,3.40126371383667,-0.8681329488754272,-2.9494847694877535e-05,2.031830072402954,3.267047091121338,0.16624727845191956,0.3418284058570862,-1.607513729725973,-3.4193682949990034e-05,-0.038873229175806046,0.898821234703064,0.0,-0.008132326416671276,0.7790950536727905,0.000766531506087631,0.005440397188067436
165.0,174.0,9.6293,-0.5767,4.998,-0.0034,0.5591,-0.1347,-1.8841740093626917,-0.0015474623069167137,3.3860058784484863,-0.8681530952453613,-2.6854530005948618e-05,2.0515217781066895,3.2680789667316894,0.17542903125286102,0.35015276074409485,-1.6075018087970179,-3.235005715396255e-05,-0.027090884745121002,0.8987846970558167,0.0,-0.018126262351870537,0.779131293296814,0.0005809141439385712,0.016064967960119247
165.0,174.0,9.6293,-0.5767,4.998,-0.0034,0.5591,-0.1347,-1.884226461450094,-0.0008837291388772428,3.39404559135437,-0.8681893348693848,-2.4648141334182583e-05,2.092254638671875,3.269305868739746,0.22444352507591248,0.37769293785095215,-1.6075494925128382,-4.577979780151509e-05,-0.04028109461069107,0.8988131880760193,0.0,0.003894791705533862,0.7790868282318115,0.00046768508036620915,0.0525558665394783
165.0,174.0,9.6293,-0.5767,4.998,-0.0034,0.5591,-0.1347,-1.8841735325255335,-0.0011282754130661488,3.384187698364258,-0.868197500705719,-4.551672100205906e-05,2.036855936050415,3.2708679872700195,0.25684866309165955,0.407417356967926,-1.6075695196734827,-5.827549102832563e-05,-0.046213433146476746,0.8988416194915771,0.0,0.006035428959876299,0.7790749073028564,0.00039140015724115074,0.029852915555238724
165.0,174.0,9.6293,-0.5767,4.998,-0.0034,0.5591,-0.1347,-1.884193559686178,-0.00179684953764081,3.36065673828125,-0.8682053089141846,-7.504566747229546e-05,2.065955400466919,3.2725159364887695,0.29427090287208557,0.4269099831581116,-1.6075776259051722,-5.5691813031444326e-05,-0.047527000308036804,0.8988256454467773,0.0,0.004687843844294548,0.779079020023346,0.00029445052496157587,0.021830782294273376
165.0,174.0,9.6293,-0.5767,4.998,-0.0034,0.5591,-0.1347,-1.8842536411681117,-0.0024992581456899643,3.4087729454040527,-0.8682094216346741,-0.00010021412890637293,2.038983106613159,3.2744876581379394,0.32351499795913696,0.42957544326782227,-1.6075652281390589,-0.00012358052481431514,-0.050781380385160446,0.8987969756126404,0.0,0.013665154576301575,0.779079020023346,0.0002582394517958164,0.02231574058532715
165.0,174.0,9.6293,-0.5767,4.998,-0.0034,0.5591,-0.1347,-1.8842212162413539,-0.0032515579368919134,3.30061674118042,-0.8681851029396057,-9.055151895154268e-05,2.0716679096221924,3.276458902949951,0.3565407991409302,0.45809540152549744,-1.6075013319598597,-0.0001255462266271934,-0.056151896715164185,0.8988255858421326,0.0,0.009967404417693615,0.7790831327438354,6.856832624180242e-05,0.046949390321969986
165.0,174.0,9.6293,-0.5767,4.998,-0.0034,0.5591,-0.1347,-1.884318014184469,-0.004113869275897741,3.3866159915924072,-0.8681929707527161,-0.00010647240560501814,2.0415430068969727,3.2787419992634277,0.38485461473464966,0.4879262447357178,-1.6075218359576624,-0.00012745991989504546,-0.061297208070755005,0.8988213539123535,0.0,-0.011008099652826786,0.7790590524673462,6.146205123513937e-05,0.07245904207229614
165.0,174.0,9.6293,-0.5767,4.998,-0.0034,0.5591,-0.1347,-1.8843099079527796,-0.0048188939690589905,3.367713689804077,-0.8681811094284058,-0.00014247406215872616,2.100198745727539,3.281261129970215,0.42992696166038513,0.4899255335330963,-1.607537571583883,-0.00013886108354199678,-0.06514248251914978,0.8988533616065979,0.0,0.0025516480673104525,0.779079020023346,5.575091563514434e-05,-0.0033889859914779663
165.0,174.0,9.6293,-0.5767,4.998,-0.0034,0.5591,-0.1347,-1.8842975101866664,-0.003086911514401436,3.398483991622925,-0.8682250380516052,-0.00017272487457375973,2.032557964324951,3.2839066225239257,0.4697292745113373,0.505530595779419,-1.6075494925128382,-0.00014878397632855922,-0.06659091264009476,0.8987972140312195,0.0,-0.0006795651279389858,0.7790831327438354,5.1010931201744825e-05,0.07376265525817871
165.0,174.0,9.6293,-0.5767,4.998,-0.0034,0.5591,-0.1347,-1.8843137226500453,-0.0014548570616170764,3.386680841445923,-0.8682094812393188,-0.0001449102273909375,2.0864341259002686,3.286872549647949,0.5062160491943359,0.5407951474189758,-1.6075175444232386,-0.0002457168302498758,-0.06903882324695587,0.8987686038017273,0.0,0.002679022029042244,0.779107391834259,4.701390935224481e-05,0.05977235734462738
165.0,174.0,9.6293,-0.5767,4.998,-0.0034,0.5591,-0.1347,-1.8843299351134242,-0.0008683842024765909,3.4257612228393555,-0.8682255148887634,-0.00016640828107483685,2.1104507446289062,3.2899696069904785,0.5416941046714783,0.5418359041213989,-1.6075456778155726,-0.000265288632363081,-0.06613944470882416,0.8988256454467773,0.0,-0.018392594531178474,0.7790950536727905,4.359777449280955e-05,0.07297097146511078
165.0,174.0,9.6293,-0.5767,4.998,-0.0034,0.5591,-0.1347,-1.8843900165953578,-0.0005332947475835681,3.405137300491333,-0.8682291507720947,-0.00014614695101045072,2.0812511444091797,3.2933856683918457,0.5872820615768433,0.5425260663032532,-1.6074894110309046,-0.00025256932713091373,-0.07310837507247925,0.8987929821014404,0.0,0.008631231263279915,0.7790831327438354,4.064436870976351e-05,0.09636639058589935
169.0,195.0,5.1637,-0.4499,5.5759,-0.0144,0.8314,-0.1549,-1.8843137226500453,-0.0005309921689331532,3.4375081062316895,-0.8682534694671631,-0.0001302796881645918,2.0478386878967285,3.297030134791992,0.6229115724563599,0.5429590344429016,-1.6075056234942835,-0.0002411597961327061,-0.07027746737003326,0.8988136649131775,0.0,-0.006764349061995745,0.7790950536727905,3.8065809349063784e-05,0.046940878033638
169.0,195.0,5.1637,-0.4499,5.5759,-0.0144,0.8314,-0.1549,-1.8843618832030238,-0.0004245144664309919,3.399663209915161,-0.868197500705719,-0.00011752044520108029,2.025247097015381,3.3009554582783203,0.6634835600852966,0.57230544090271,-1.6075018087970179,-0.00024694507010281086,-0.08327551186084747,0.8988373875617981,0.0,-0.011619025841355324,0.7790914177894592,3.5794859286397696e-05,0.032555386424064636
169.0,195.0,5.1637,-0.4499,5.5759,-0.0144,0.8314,-0.1549,-1.8843699894347132,-0.00035311930696479976,3.375973701477051,-0.8681889176368713,-0.00010703773295972496,2.1085305213928223,3.3051139551350097,0.6988557577133179,0.543515682220459,-1.6075180212603968,-0.0002241318579763174,-0.07601656019687653,0.8988373875617981,0.0,0.009279930032789707,0.7791112065315247,3.3779633668018505e-05,0.04187440499663353
169.0,195.0,5.1637,-0.4499,5.5759,-0.0144,0.8314,-0.1549,-1.8843499622740687,-0.00030228443210944533,3.425668716430664,-0.8681934475898743,-9.827205212786794e-05,2.080315113067627,3.3093668657490234,0.7298426628112793,0.5319185853004456,-1.6074941794024866,-0.0002049868053290993,-0.08269870281219482,0.8988416194915771,0.0,-0.004629634320735931,0.779039204120636,1.5989971871022135e-05,0.0740649551153183
169.0,195.0,5.1637,-0.4499,5.5759,-0.0144,0.8314,-0.1549,-1.8843618832030238,-0.0003019929863512516,3.416066884994507,-0.8681687116622925,-9.083330223802477e-05,2.035268783569336,3.313875837916992,0.7591996788978577,0.5641448497772217,-1.6075218359576624,-0.00018885523604694754,-0.08071289956569672,0.8988213539123535,0.0,-0.008014040067791939,0.77909916639328,1.5180523405433632e-05,0.06054306775331497
169.0,195.0,5.1637,-0.4499,5.5759,-0.0144,0.8314,-0.1549,-1.884346147576803,-0.0002792705490719527,3.3554601669311523,-0.8681811094284058,-8.646988862892613e-05,2.083111047744751,3.3169194894978027,0.7718042135238647,0.5443291664123535,-1.60746938387026,-0.00017944142746273428,-0.07749872654676437,0.8988173007965088,0.0,-0.013317739591002464,0.7790791988372803,7.994499284791345e-09,0.04483962804079056
169.0,195.0,5.1637,-0.4499,5.5759,-0.0144,0.8314,-0.1549,-1.8844343624510707,-0.00030437851091846824,3.4138710498809814,-0.8682013154029846,-0.00010082171502290294,2.0480048656463623,3.3215343195148925,0.7921103239059448,0.5663621425628662,-1.6074774901019495,-0.00014613533858209848,-0.07511352002620697,0.8987525701522827,0.0,-0.006628307513892651,0.779066801071167,1.930577652766146e-14,0.023842819035053253
169.0,195.0,5.1637,-0.4499,5.5759,-0.0144,0.8314,-0.1549,-1.8843900165953578,-0.0017124454025179148,3.3058371543884277,-0.8682135343551636,-0.00014423197717405856,2.0260348320007324,3.326284094447754,0.8068403601646423,0.5259175300598145,-1.6074617544757288,-0.00013658590614795685,-0.08269046247005463,0.898801326751709,0.0,-0.003449145006015897,0.7790428996086121,4.6621175637324415e-20,-0.0025845393538475037
169.0,195.0,5.1637,-0.4499,5.5759,-0.0144,0.8314,-0.1549,-1.8843614063658656,-0.0033244004007428885,3.296560287475586,-0.86818528175354,-0.0011104583973065019,2.0236659049987793,3.3310772615620117,0.8067857623100281,0.5368431806564331,-1.6074937025653284,-5.5650158174103126e-05,-0.0737229511141777,0.8988053798675537,0.0,0.0019069984555244446,0.7790955305099487,1.1258465067133236e-25,-0.011152070946991444
169.0,195.0,5.1637,-0.4499,5.5759,-0.0144,0.8314,-0.1549,-1.884397645989889,-0.0045459759421646595,3.2188029289245605,-0.8682613372802734,-0.0019584514666348696,1.9326337575912476,3.335991545314453,0.811170220375061,0.5269932150840759,-1.6074135939227503,-8.742753720980545e-07,-0.07337157428264618,0.8987485766410828,0.0,-0.009450496174395084,0.7790230512619019,-0.0008830568403936923,-0.04214419052004814
169.0,195.0,5.1637,-0.4499,5.5759,-0.0144,0.8314,-0.1549,-1.884397645989889,-0.006123851053416729,3.1157288551330566,-0.8681966662406921,-0.003764009801670909,1.911539077758789,3.340803309077881,0.7956408262252808,0.5180362462997437,-1.607434097920553,-2.4335777837336536e-10,-0.05679666996002197,0.8987972736358643,0.0,-0.013657649978995323,0.7790151238441467,-0.0034546456299722195,-0.06154554337263107
169.0,195.0,5.1637,-0.4499,5.5759,-0.0144,0.8314,-0.1549,-1.8844334087767542,-0.006954616867005825,3.0577125549316406,-0.8682811260223389,-0.006033043842762709,1.8861613273620605,3.3454758363911132,0.7850138545036316,0.5082213282585144,-1.6074183622943323,0.0014689700910821557,-0.0473511628806591,0.8988173007965088,0.0,-0.005041699856519699,0.7790030241012573,-0.005353495012968779,-0.1508413851261139
169.0,195.0,5.1637,-0.4499,5.5759,-0.0144,0.8314,-0.1549,-1.8845020733275355,-0.006939534563571215,2.984612464904785,-0.8682971000671387,-0.007519017439335585,1.7942216396331787,3.3500515657612304,0.7587044835090637,0.4833183288574219,-1.6074016729937952,0.0017352750292047858,-0.037212103605270386,0.8987770080566406,0.0,-0.005041530355811119,0.7789265513420105,-0.0062231989577412605,-0.19562433660030365
169.0,195.0,5.1637,-0.4499,5.5759,-0.0144,0.8314,-0.1549,-1.8845216236510218,-0.007702701259404421,2.902700901031494,-0.8683773875236511,-0.006229491904377937,1.8015958070755005,3.354438467616699,0.7278832793235779,0.47761136293411255,-1.6073816458331507,0.0014105632435530424,-0.023483600467443466,0.8987929224967957,0.0,0.004798220470547676,0.7788097262382507,-0.007586581166833639,-0.21904024481773376
169.0,195.0,5.1637,-0.4499,5.5759,-0.0144,0.8314,-0.1549,-1.8845740757384242,-0.009636952541768551,2.836937665939331,-0.8684380054473877,-0.006257600616663694,1.6966924667358398,3.3585569101520996,0.6868342161178589,0.46571269631385803,-1.6073578039752405,0.0011540149571374059,-0.008904732763767242,0.8988178372383118,0.0,-0.02306746318936348,0.7788909077644348,-0.009380539879202843,-0.2816254496574402
207.0,210.0,6.2812,-0.2572,5.814,-0.1058,-0.2304,-0.121,-1.8845931492247523,-0.011820008978247643,2.7929294109344482,-0.8684737086296082,-0.005454516503959894,1.7319555282592773,3.362391634578369,0.6449050307273865,0.4489099383354187,-1.6073697249041956,0.0011370180873200297,-0.010166877880692482,0.8988137245178223,0.0,-0.01598498784005642,0.7787625193595886,-0.010546811856329441,-0.2991310656070709
207.0,210.0,6.2812,-0.2572,5.814,-0.1058,-0.2304,-0.121,-1.884726186791891,-0.014598874375224113,2.6768550872802734,-0.8685301542282104,-0.006055174395442009,1.6608749628067017,3.366083784694336,0.5961290001869202,0.44133174419403076,-1.607325855885641,0.0014316277811303735,-0.010955682024359703,0.8988096117973328,0.0,-0.008339468389749527,0.7786822319030762,-0.012839962728321552,-0.25719133019447327
207.0,210.0,6.2812,-0.2572,5.814,-0.1058,-0.2304,-0.121,-1.8847814999022425,-0.016642900183796883,2.622746467590332,-0.8685135841369629,-0.00640724366530776,1.6186524629592896,3.3694254594990234,0.5441386699676514,0.43343639373779297,-1.607377831135885,0.00140106410253793,0.025325287133455276,0.8987929821014404,0.0,-0.018266813829541206,0.7786667943000793,-0.014184917323291302,-0.34929949045181274
207.0,210.0,6.2812,-0.2572,5.814,-0.1058,-0.2304,-0.121,-1.8848773441710414,-0.018262427300214767,2.555176019668579,-0.8685736060142517,-0.005588431376963854,1.6032987833023071,3.3724118906208496,0.48692020773887634,0.41617411375045776,-1.607321564351217,0.0019161098171025515,0.01564636453986168,0.8988255858421326,0.0,-0.0017962504643946886,0.7785544991493225,-0.015639619901776314,-0.3934418857097626
207.0,210.0,6.2812,-0.2572,5.814,-0.1058,-0.2304,-0.121,-1.8849369488158167,-0.019837237894535065,2.5356969833374023,-0.8686099052429199,-0.004654095508158207,1.5225965976715088,3.375112219447754,0.42948731780052185,0.40509456396102905,-1.6073296705829065,0.0018297286005690694,0.02440987527370453,0.8987727761268616,0.0,-0.014260311610996723,0.7784343361854553,-0.016957810148596764,-0.4176974296569824
207.0,210.0,6.2812,-0.2572,5.814,-0.1058,-0.2304,-0.121,-1.8850532970824183,-0.021138986572623253,2.4974005222320557,-0.8685736060142517,-0.00416709017008543,1.5533781051635742,3.3775054651447753,0.36502528190612793,0.3545427918434143,-1.6072738806353968,0.001593995257280767,0.041964732110500336,0.898756742477417,0.0,0.003643370233476162,0.7783463597297668,-0.01836743764579296,-0.4252491295337677
207.0,210.0,6.2812,-0.2572,5.814,-0.1058,-0.2304,-0.121,-1.8851810894408167,-0.022960733622312546,2.46277117729187,-0.8685691356658936,-0.0036295840982347727,1.5465294122695923,3.379455252284668,0.29542049765586853,0.31300050020217896,-1.607325855885641,0.0014746941160410643,0.021084144711494446,0.8988373875617981,0.0,-0.007167478557676077,0.7782180905342102,-0.018956031650304794,-0.5123691558837891
207.0,210.0,6.2812,-0.2572,5.814,-0.1058,-0.2304,-0.121,-1.8853899441161097,-0.02589740790426731,2.4114413261413574,-0.8686094284057617,-0.0022913776338100433,1.5192570686340332,3.380901976222656,0.21689394116401672,0.2665850818157196,-1.6073139349566858,0.0010513310553506017,0.03249390423297882,0.8987932801246643,0.0,-4.020892083644867e-05,0.7781379818916321,-0.01909490115940571,-0.4791865944862366
207.0,210.0,6.2812,-0.2572,5.814,-0.1058,-0.2304,-0.121,-1.8855091534056605,-0.026820439845323563,2.4077227115631104,-0.868621289730072,-0.001625482109375298,1.570730209350586,3.3819543558308105,0.14836594462394714,0.2615615725517273,-1.6073296705829065,0.0007466351962648332,0.036759890615940094,0.8987886905670166,0.0,-0.01423389557749033,0.7780060768127441,-0.018687434494495392,-0.49699121713638306
207.0,210.0,6.2812,-0.2572,5.814,-0.1058,-0.2304,-0.121,-1.8856855831541957,-0.02844386361539364,2.401484251022339,-0.8686296343803406,-0.0011847730493173003,1.5211551189422607,3.382558985347412,0.0881420150399208,0.2035524547100067,-1.607353989277975,0.0005280979094095528,0.03313465043902397,0.8988576531410217,0.0,-0.014017917215824127,0.7778698205947876,-0.019377326592803,-0.4564095735549927
207.0,210.0,6.2812,-0.2572,5.814,-0.1058,-0.2304,-0.121,-1.88586487392568,-0.03062564507126808,2.3835067749023438,-0.8686172366142273,-0.001300989417359233,1.4712209701538086,3.3829170900532226,0.02358100935816765,0.18319639563560486,-1.6072858015643519,0.00047143467236310244,0.027206312865018845,0.8987810611724854,0.0,-0.004083579406142235,0.7777856588363647,-0.019677788019180298,-0.47404932975769043
207.0,210.0,6.2812,-0.2572,5.814,-0.1058,-0.2304,-0.121,-1.8860327206053675,-0.033076804131269455,2.3914635181427,-0.8686255216598511,-0.0011344904778525233,1.5466206073760986,3.3828460413166503,-0.03150271624326706,0.17061887681484222,-1.607349697743551,0.0003881564480252564,0.037066251039505005,0.8987810611724854,0.0,-0.0001736711710691452,0.7776656746864319,-0.018383486196398735,-0.4482131600379944
207.0,210.0,6.2812,-0.2572,5.814,-0.1058,-0.2304,-0.121,-1.8862692318358363,-0.03610242158174515,2.4227187633514404,-0.8686575889587402,-0.0009546158253215253,1.5194255113601685,3.382553740138672,-0.05899994820356369,0.14635992050170898,-1.6073454062091272,0.00032758218003436923,0.038164183497428894,0.8987929821014404,0.0,1.9331229850649834e-05,0.7775090336799622,-0.018003281205892563,-0.5011067986488342
207.0,210.0,6.2812,-0.2572,5.814,-0.1058,-0.2304,-0.121,-1.8864809475340785,-0.03867175430059433,2.467933416366577,-0.8686291575431824,-0.0022769407369196415,1.5219244956970215,3.3822075563618164,-0.06866251677274704,0.13731494545936584,-1.6073415915118616,0.0002833660983014852,0.029657607898116112,0.8988096117973328,0.0,-0.007869146764278412,0.7774539589881897,-0.018740613013505936,-0.4661923050880432
207.0,210.0,6.2812,-0.2572,5.814,-0.1058,-0.2304,-0.121,-1.8867446384825648,-0.043209388852119446,2.3897180557250977,-0.8686938285827637,-0.0026230798102915287,1.5222070217132568,3.38178460180249,-0.07014181464910507,0.1385284960269928,-1.607309643422262,0.000249669625191018,0.02760123834013939,0.8987604379653931,0.0,0.0012177329044789076,0.7773494720458984,-0.017847537994384766,-0.4510457515716553
201.0,194.0,7.1258,-0.9721,5.0064,-0.0597,-0.19,-0.1048,-1.886968275109762,-0.04838032275438309,2.4531047344207764,-0.8686649799346924,-0.0024671528954058886,1.5014240741729736,3.381352587337158,-0.07462912052869797,0.14168781042099,-1.6073253790484827,0.00022313636145554483,0.031011458486318588,0.8988292217254639,0.0,-0.013817710801959038,0.7772414684295654,-0.01691960170865059,-0.42359459400177
201.0,194.0,7.1258,-0.9721,5.0064,-0.0597,-0.19,-0.1048,-1.887296815911764,-0.05376468226313591,2.4422526359558105,-0.8687098622322083,-0.002162632066756487,1.5544118881225586,3.3808910089680175,-0.08945555984973907,0.12869732081890106,-1.6073415915118616,0.0002017019287450239,0.031894978135824203,0.8987727165222168,0.0,-0.006656239740550518,0.7771615982055664,-0.01632768101990223,-0.4538109302520752
201.0,194.0,7.1258,-0.9721,5.0064,-0.0597,-0.19,-0.1048,-1.8876201115050257,-0.05865662544965744,2.4201958179473877,-0.8686856031417847,-0.0014854195760563016,1.558690071105957,3.380291624660156,-0.11177143454551697,0.10615752637386322,-1.6072858015643519,0.0001840246986830607,0.026606764644384384,0.8987846374511719,0.0,-0.007463065907359123,0.7770572304725647,-0.014771001413464546,-0.443612277507782
201.0,194.0,7.1258,-0.9721,5.0064,-0.0597,-0.19,-0.1048,-1.8880163631834925,-0.06322070211172104,2.416945695877075,-0.8686975240707397,-0.0007357980939559639,1.5422346591949463,3.3795811372944335,-0.12138215452432632,0.09480158239603043,-1.6073334852801722,0.0001691966172074899,0.028298959136009216,0.8987526893615723,0.0,-0.0036899656988680363,0.7769851088523865,-0.012837653048336506,-0.4402874708175659
201.0,194.0,7.1258,-0.9721,5.0064,-0.0597,-0.19,-0.1048,-1.888235708276266,-0.06616894155740738,2.434439182281494,-0.8686856627464294,-0.0005543213337659836,1.568387746810913,3.3791062074848632,-0.12036260217428207,0.11561377346515656,-1.6073134581195276,0.00016057147877290845,0.022021304816007614,0.8987610340118408,0.0,-0.017269935458898544,0.7769939303398132,-0.011443031951785088,-0.41658830642700195
201.0,194.0,7.1258,-0.9721,5.0064,-0.0597,-0.19,-0.1048,-1.8886600933470667,-0.06961504369974136,2.460111379623413,-0.8687094449996948,-0.00040468471706844866,1.5841398239135742,3.3784286218830566,-0.10877425968647003,0.11141608655452728,-1.6073058287249964,0.0001491651200922206,0.019583873450756073,0.8988811373710632,0.0,-0.002466673729941249,0.7768568396568298,-0.009332085028290749,-0.40905529260635376
201.0,194.0,7.1258,-0.9721,5.0064,-0.0597,-0.19,-0.1048,-1.8891235790648402,-0.07074891775846481,2.5008785724639893,-0.8687176704406738,-0.0003186823450960219,1.595314860343933,3.3777476984211425,-0.11863391101360321,0.11332124471664429,-1.6073578039752405,0.00013927223335485905,0.02497062087059021,0.898760974407196,0.0,0.0024624892976135015,0.7768253087997437,-0.007597258780151606,-0.3758566975593567
201.0,194.0,7.1258,-0.9721,5.0064,-0.0597,-0.19,-0.1048,-1.8895112476744593,-0.0697409063577652,2.5014052391052246,-0.8687258958816528,-0.00026283174520358443,1.5595154762268066,3.3769518572041015,-0.1464633047580719,0.0926460325717926,-1.6073177496539515,0.0001306097983615473,0.00873481947928667,0.8988053798675537,0.0,-0.002432670211419463,0.7768377065658569,-0.00531627144664526,-0.3773880898952484
201.0,194.0,7.1258,-0.9721,5.0064,-0.0597,-0.19,-0.1048,-1.8899713955321253,-0.06875315308570862,2.4533426761627197,-0.8687704205513,-0.00022364055621437728,1.5652493238449097,3.375934286708496,-0.15325802564620972,0.10336650907993317,-1.6073620955096644,0.0001229618937941268,0.022083979099988937,0.8987769484519958,0.0,0.008237469010055065,0.776780903339386,-0.0032918264623731375,-0.39955493807792664
201.0,194.0,7.1258,-0.9721,5.0064,-0.0597,-0.19,-0.1048,-1.8903590641417445,-0.07341699302196503,2.5222556591033936,-0.8687704205513,-0.00025441701291128993,1.6229515075683594,3.3749849039265136,-0.14422538876533508,0.1043914258480072,-1.607297722493307,0.00011616027040872723,0.01962089166045189,0.898801326751709,0.0,-0.008448468521237373,0.7767611145973206,-0.0014709688257426023,-0.3663075566291809
201.0,194.0,7.1258,-0.9721,5.0064,-0.0597,-0.19,-0.1048,-1.890822549859518,-0.08013961464166641,2.565762996673584,-0.8688305616378784,-0.0036257095634937286,1.5685303211212158,3.374171419734619,-0.14013104140758514,0.10919786989688873,-1.6073415915118616,0.00011007163266185671,0.013862689957022667,0.8987846374511719,0.0,-0.015156475827097893,0.776805579662323,-0.0010172704933211207,-0.36131104826927185
201.0,194.0,7.1258,-0.9721,5.0064,-0.0597,-0.19,-0.1048,-1.891310831109518,-0.08623742312192917,2.5397584438323975,-0.8687975406646729,-0.003612615168094635,1.5879361629486084,3.37331406652417,-0.15150171518325806,0.09861600399017334,-1.6072819868670862,0.0001045895551214926,-0.0025952826254069805,0.8987970352172852,0.0,-0.0025159467477351427,0.7768014669418335,-0.0007910840795375407,-0.3619980812072754
201.0,194.0,7.1258,-0.9721,5.0064,-0.0597,-0.19,-0.1048,-1.8917538128294886,-0.08572941273450851,2.557512044906616,-0.8688305020332336,-0.0016405145870521665,1.584688663482666,3.3723766046711425,-0.1527344137430191,0.10027247667312622,-1.6073296705829065,9.96275557554327e-05,0.009807968512177467,0.8987929821014404,0.0,-0.004990126937627792,0.7767854928970337,-0.0005445787683129311,-0.372196227312088
201.0,194.0,7.1258,-0.9721,5.0064,-0.0597,-0.19,-0.1048,-1.8922659359373988,-0.08342304080724716,2.5320422649383545,-0.8687658309936523,-0.0007777357241138816,1.58670973777771,3.3715030389973144,-0.13624726235866547,0.09906095266342163,-1.6072896162616175,9.511512325843796e-05,0.011814223602414131,0.8987846374511719,0.0,-0.007186919450759888,0.7768177390098572,-0.0005574938841164112,-0.3516855239868164
201.0,194.0,7.1258,-0.9721,5.0064,-0.0597,-0.19,-0.1048,-1.8926969967284144,-0.0812680646777153,2.5776872634887695,-0.8688703775405884,-0.0005119859124533832,1.6380019187927246,3.370769663447998,-0.13918231427669525,0.09380970895290375,-1.607309643422262,9.099377348320559e-05,0.020578518509864807,0.8988416790962219,0.0,-0.0194285549223423,0.7767932415008545,-0.0005649827071465552,-0.322898268699646
201.0,194.0,7.1258,-0.9721,5.0064,-0.0597,-0.19,-0.1048,-1.893205305139059,-0.08236948400735855,2.4994678497314453,-0.8687942028045654,-0.0003816555836237967,1.613086223602295,3.3698760706135253,-0.16180181503295898,0.08885842561721802,-1.6072858015643519,8.721474296180531e-05,-0.003852540161460638,0.8987289071083069,0.0,-0.002697921823710203,0.7767330408096313,-0.00041039264760911465,-0.3435615599155426
190.0,180.0,8.004,-0.0616,5.2331,-0.0316,-0.1837,-0.1171,-1.8937646351256312,-0.08703570067882538,2.5749526023864746,-0.8688222765922546,-0.00024355815548915416,1.6313941478729248,3.368878050441406,-0.1660691201686859,0.07986806333065033,-1.6073177496539515,8.373705350095406e-05,-0.0063261790201067924,0.8987170457839966,0.0,0.003296884708106518,0.7767492532730103,-0.0003222100203856826,-0.3414103388786316
190.0,180.0,8.004,-0.0616,5.2331,-0.0316,-0.1837,-0.1171,-1.8942886791624964,-0.09183955192565918,2.600661277770996,-0.8688057065010071,-0.0001136763094109483,1.604942798614502,3.36792962133374,-0.15519726276397705,0.09930199384689331,-1.6073372999774378,2.431823122606147e-05,-0.0008045267313718796,0.8988012075424194,0.0,-0.01668734848499298,0.7767491936683655,-0.00021218130132183433,-0.3366556763648987
190.0,180.0,8.004,-0.0616,5.2331,-0.0316,-0.1837,-0.1171,-1.8947998485960902,-0.09179176390171051,2.5679891109466553,-0.868785560131073,-0.00014580911374650896,1.6322789192199707,3.3670245844074707,-0.15687711536884308,0.09307567030191422,-1.6073415915118616,2.33124774240423e-05,-0.011989893391728401,0.8988136649131775,0.0,-0.017403362318873405,0.7767693400382996,-6.976176518946886e-05,-0.3327878415584564
190.0,180.0,8.004,-0.0616,5.2331,-0.0316,-0.1837,-0.1171,-1.8953844509520472,-0.08997475355863571,2.6331100463867188,-0.8687617182731628,-0.00017515798390377313,1.6153391599655151,3.366002245540283,-0.1637566089630127,0.09682557731866837,-1.6073334852801722,2.244055940536782e-05,-0.0043541789054870605,0.8988456726074219,0.0,-0.005056601017713547,0.7767891883850098,-1.846837403718382e-05,-0.2895526587963104
190.0,180.0,8.004,-0.0616,5.2331,-0.0316,-0.1837,-0.1171,-1.8959194622435511,-0.0917937234044075,2.5843706130981445,-0.868802011013031,-0.00015147287922445685,1.6171152591705322,3.3651134210773925,-0.15127676725387573,0.093864805996418,-1.607309643422262,2.1631520212395117e-05,0.004808463156223297,0.898841917514801,0.0,-0.004166546277701855,0.7767574191093445,-4.459895300290562e-11,-0.3213026821613312
190.0,180.0,8.004,-0.0616,5.2331,-0.0316,-0.1837,-0.1171,-1.896435400048727,-0.09537902474403381,2.5855045318603516,-0.8687694668769836,-0.00018136553990188986,1.6805706024169922,3.36421982824292,-0.13512557744979858,0.10948166251182556,-1.6073578039752405,2.0878800569335e-05,0.005169762764126062,0.8987770080566406,0.0,-0.006950436159968376,0.7767693400382996,-1.0770123847756425e-16,-0.32208436727523804
190.0,180.0,8.004,-0.0616,5.2331,-0.0316,-0.1837,-0.1171,-1.8970142803587855,-0.10118060559034348,2.6658554077148438,-0.8687654137611389,-0.00020129079348407686,1.6277778148651123,3.3634015756794433,-0.1433105617761612,0.11189018189907074,-1.6073058287249964,2.017670158238616e-05,-0.004430059809237719,0.8986929059028625,0.0,-0.0003262697719037533,0.7767734527587891,-2.600858248642337e-22,-0.3617875576019287
190.0,180.0,8.004,-0.0616,5.2331,-0.0316,-0.1837,-0.1171,-1.8976265392699183,-0.10889948159456253,2.625760078430176,-0.8687007427215576,4.9072910769609734e-05,1.6486663818359375,3.362600012416504,-0.1393641233444214,0.11995119601488113,-1.6072738806353968,1.678109811109607e-07,0.0037760548293590546,0.8988300561904907,0.0,-0.006916132755577564,0.7767331004142761,-6.28076666040285e-28,-0.2828531861305237
190.0,180.0,8.004,-0.0616,5.2331,-0.0316,-0.1837,-0.1171,-1.8982979259886683,-0.10802027583122253,2.6364357471466064,-0.8687818646430969,0.00017665927589405328,1.6930358409881592,3.3617870050617675,-0.11793382465839386,0.12980659306049347,-1.607281510029928,4.671079842366588e-11,-0.001903450582176447,0.8988296985626221,0.0,-0.006594465114176273,0.7767289280891418,-1.516731269151878e-33,-0.30918604135513306
190.0,180.0,8.004,-0.0616,5.2331,-0.0316,-0.1837,-0.1171,-1.8989459476866664,-0.10555930435657501,2.654773235321045,-0.8687373995780945,0.00014769387780688703,1.6008661985397339,3.3612252908894042,-0.09136347472667694,0.128799170255661,-1.6073058287249964,1.3002120911778225e-14,0.009883921593427658,0.8987330794334412,0.0,-0.0015786021249368787,0.7767574191093445,-3.66272793903685e-39,-0.2960004508495331
190.0,180.0,8.004,-0.0616,5.2331,-0.0316,-0.1837,-0.1171,-1.8995973072447718,-0.0996500626206398,2.6878368854522705,-0.8687736392021179,0.0001920945505844429,1.6811221837997437,3.360670252437256,-0.07359182834625244,0.15405161678791046,-1.6073015371905726,3.6191881495216386e-18,-0.0021469283383339643,0.8987650871276855,0.0,0.0041549066081643105,0.7767371535301208,-8.407790785948902e-45,-0.2733033001422882
