ramyac6/ROB537/final_project/csv/good/good_38.csv
tof_0,tof_1,accelx,accely,accelz,gyrox,gyroy,gyroz,shoulder_lift_joint_position,shoulder_lift_joint_velocity,shoulder_lift_joint_effort,elbow_joint_position,elbow_joint_velocity,elbow_joint_effort,wrist_1_joint_position,wrist_1_joint_velocity,wrist_1_joint_effort,wrist_2_joint_position,wrist_2_joint_velocity,wrist_2_joint_effort,wrist_3_joint_position,wrist_3_joint_velocity,wrist_3_joint_effort,shoulder_pan_joint_position,shoulder_pan_joint_velocity,shoulder_pan_joint_effort
216.0,234.0,0.9182,-0.5916,9.39,-0.0408,0.0243,-0.1199,-1.9012195072569789,0.0,3.4941365718841553,-1.6098061800003052,-0.0,2.096590518951416,4.897464158921995,0.0,0.27894121408462524,-1.5315421263324183,0.0,-0.026872698217630386,0.9150927066802979,0.0,0.010907093062996864,0.830398678779602,0.0,0.004600013140588999
216.0,234.0,0.9182,-0.5916,9.39,-0.0408,0.0243,-0.1199,-1.9012195072569789,0.0,3.445305347442627,-1.609722375869751,-0.0,2.0856707096099854,4.8974161622817896,0.0,0.29086336493492126,-1.5315054098712366,0.0,-0.02332482673227787,0.9151210784912109,0.0,-0.014805213548243046,0.8303742408752441,0.0,-0.05459073185920715
216.0,234.0,0.9182,-0.5916,9.39,-0.0408,0.0243,-0.1199,-1.9012075863280238,0.0,3.4836530685424805,-1.6097625494003296,-0.0,2.083926200866699,4.8974439976509,0.0,0.29403939843177795,-1.5315092245685022,0.0,-0.009225687012076378,0.9151659607887268,0.0,0.008416319265961647,0.8304105997085571,0.0,0.010030285455286503
216.0,234.0,0.9182,-0.5916,9.39,-0.0408,0.0243,-0.1199,-1.9011708698668421,0.0,3.5011777877807617,-1.6097460985183716,-0.0,2.0847229957580566,4.8974318383033655,0.0,0.2967830300331116,-1.53151780763735,0.0,-0.012024205178022385,0.9150812029838562,0.0,0.012095916084945202,0.8304309844970703,0.0,0.022944536060094833
216.0,234.0,0.9182,-0.5916,9.39,-0.0408,0.0243,-0.1199,-1.9011956653990687,0.0,3.4530673027038574,-1.6097705364227295,-0.0,2.033853054046631,4.897480147867956,0.0,0.2831834554672241,-1.5315302054034632,0.0,-0.016504306346178055,0.9151051044464111,0.0,-0.00036041642306372523,0.8303946256637573,0.0,-0.014524005353450775
216.0,234.0,0.9182,-0.5916,9.39,-0.0408,0.0243,-0.1199,-1.9011832676329554,0.0,3.4596805572509766,-1.6097705364227295,-0.0,2.0874931812286377,4.897451835661688,0.0,0.29248565435409546,-1.5315941015826624,0.0,-0.017305590212345123,0.9151253700256348,0.0,0.0036585680209100246,0.8304351568222046,0.0,0.014871271327137947
216.0,234.0,0.9182,-0.5916,9.39,-0.0408,0.0243,-0.1199,-1.9012032947936,0.0,3.4456732273101807,-1.6097421646118164,-0.0,2.0569043159484863,4.897423597961225,0.0,0.28792116045951843,-1.5315454641925257,0.0,-0.015535109676420689,0.9150328040122986,0.0,-0.019338028505444527,0.8303665518760681,0.0,0.004514213651418686
216.0,234.0,0.9182,-0.5916,9.39,-0.0408,0.0243,-0.1199,-1.9011956653990687,0.0,3.44819974899292,-1.6098260879516602,-0.0,2.0901339054107666,4.89746783950881,0.0,0.2880789637565613,-1.531496826802389,0.0,-0.026301555335521698,0.9151336550712585,0.0,-0.0157797671854496,0.8303903937339783,0.0,0.018477726727724075
216.0,239.0,0.9111,-0.6048,9.5007,-0.0348,0.025,-0.1162,-1.9011990032591761,0.0,3.4346704483032227,-1.6097500324249268,-0.0,2.0647058486938477,4.8974476782377145,0.0,0.2910683751106262,-1.5315259138690394,0.0,-0.026598844677209854,0.9151738286018372,0.0,-0.002746409270912409,0.8303706645965576,0.0,-0.011727513745427132
216.0,239.0,0.9111,-0.6048,9.5007,-0.0348,0.025,-0.1162,-1.9011746845641078,0.0,3.490605354309082,-1.6097500324249268,-0.0,2.100818395614624,4.897455918579855,0.0,0.28650060296058655,-1.531557861958639,0.0,-0.009911800734698772,0.9151377081871033,0.0,0.013737235218286514,0.83045494556427,0.0,0.025433216243982315
216.0,239.0,0.9111,-0.6048,9.5007,-0.0348,0.025,-0.1162,-1.9011990032591761,0.0,3.442753791809082,-1.6097739934921265,-0.0,2.064086437225342,4.897471922426977,0.0,0.2923241853713989,-1.5315254370318812,0.0,-0.011067111976444721,0.9151331782341003,0.0,5.258666351437569e-05,0.8304188251495361,0.0,0.006265007890760899
216.0,239.0,0.9111,-0.6048,9.5007,-0.0348,0.025,-0.1162,-1.901215215722555,0.0,3.505312919616699,-1.6097705364227295,-0.0,2.0934054851531982,4.8974439976509,0.0,0.2893020510673523,-1.5314977804767054,0.0,-0.00833706185221672,0.9150891304016113,0.0,0.004143314436078072,0.8304309844970703,0.0,-0.002932621631771326
216.0,239.0,0.9111,-0.6048,9.5007,-0.0348,0.025,-0.1162,-1.9012195072569789,0.0,3.446958541870117,-1.609817624092102,-0.0,2.003021240234375,4.8974399147327325,0.0,0.292559951543808,-1.5315302054034632,0.0,-0.01609961688518524,0.9151170253753662,0.0,0.003998527303338051,0.8303825259208679,0.0,0.003592517226934433
216.0,239.0,0.9111,-0.6048,9.5007,-0.0348,0.025,-0.1162,-1.9012032947936,0.0,3.473661422729492,-1.6097586154937744,-0.0,2.077389717102051,4.8974201557929895,0.0,0.2779855728149414,-1.5315011183368128,0.0,-0.022043123841285706,0.9150850176811218,0.0,0.0030616065487265587,0.8304511308670044,0.0,-0.011849519796669483
216.0,239.0,0.9111,-0.6048,9.5007,-0.0348,0.025,-0.1162,-1.9011990032591761,0.0,3.450735569000244,-1.6097625494003296,-0.0,2.085488796234131,4.8974399147327325,0.0,0.29267895221710205,-1.5314939657794397,0.0,0.0008977388497442007,0.915137767791748,0.0,0.005247344728559256,0.8304105997085571,0.0,0.022615976631641388
216.0,239.0,0.9111,-0.6048,9.5007,-0.0348,0.025,-0.1162,-1.9012032947936,0.0,3.437784433364868,-1.6097625494003296,-0.0,2.136328935623169,4.897471922426977,0.0,0.2808026075363159,-1.5315459410296839,0.0,-0.00883639045059681,0.9150891304016113,0.0,-0.010812981054186821,0.8304064273834229,0.0,0.04907120764255524
216.0,239.0,0.9111,-0.6048,9.5007,-0.0348,0.025,-0.1162,-1.9011990032591761,0.0,3.5177559852600098,-1.6097664833068848,-0.0,2.0960679054260254,4.897480147867956,0.0,0.2950119376182556,-1.5315092245685022,0.0,-0.009006102569401264,0.9150850176811218,0.0,-0.011125565506517887,0.8303945660591125,0.0,-0.02869037538766861
216.0,239.0,0.9111,-0.6048,9.5007,-0.0348,0.025,-0.1162,-1.9011990032591761,0.0,3.496656894683838,-1.6098380088806152,-0.0,2.057380437850952,4.897420200496473,0.0,0.2906111776828766,-1.5315378347979944,0.0,-0.026643743738532066,0.9151496887207031,0.0,-0.0025902409106492996,0.8304429054260254,0.0,0.039135996252298355
216.0,239.0,0.9111,-0.6048,9.5007,-0.0348,0.025,-0.1162,-1.9011913738646449,0.0,3.4551782608032227,-1.60980224609375,-0.0,2.1004621982574463,4.8974439827497385,0.0,0.28776800632476807,-1.5315302054034632,0.0,-0.010786838829517365,0.9150932431221008,0.0,-0.006800197530537844,0.8303742408752441,0.0,0.01554256584495306
216.0,239.0,0.9111,-0.6048,9.5007,-0.0348,0.025,-0.1162,-1.9012075863280238,0.0,3.466367244720459,-1.60980224609375,-0.0,2.067321300506592,4.897420170694151,0.0,0.2859008014202118,-1.53151780763735,0.0,-0.00472391489893198,0.9151086807250977,0.0,-0.0013025972293689847,0.8304510712623596,0.0,0.0189251396805048
216.0,239.0,0.9111,-0.6048,9.5007,-0.0348,0.025,-0.1162,-1.901215215722555,0.0,3.4733407497406006,-1.6097898483276367,-0.0,2.0720982551574707,4.897408249765196,0.0,0.27976399660110474,-1.53151780763735,0.0,-0.015713045373558998,0.9151210784912109,0.0,-0.011435837484896183,0.8303903937339783,0.0,-0.013720274902880192
216.0,239.0,0.9111,-0.6048,9.5007,-0.0348,0.025,-0.1162,-1.901215215722555,0.0,3.4620203971862793,-1.6098215579986572,-0.0,2.0625228881835938,4.897448169976034,0.0,0.29487043619155884,-1.5315216223346155,0.0,-0.022599315270781517,0.9150967597961426,0.0,-0.0018934824038296938,0.8304109573364258,0.0,0.015482839196920395
216.0,239.0,0.9111,-0.6048,9.5007,-0.0348,0.025,-0.1162,-1.9011908970274867,0.0,3.426802158355713,-1.6097460985183716,-0.0,2.0340428352355957,4.8974318383033655,0.0,0.29450368881225586,-1.5315054098712366,0.0,-0.020704597234725952,0.915113091468811,0.0,0.002000961219891906,0.8304105401039124,0.0,0.002869035117328167
221.0,238.0,0.8853,-0.5623,9.4445,-0.0292,0.0214,-0.1132,-1.9011908970274867,0.0,3.4407997131347656,-1.6096985340118408,-0.0,2.096945285797119,4.897384124785223,0.0,0.2883472442626953,-1.5315259138690394,0.0,-0.016846032813191414,0.915064811706543,0.0,0.0005424465052783489,0.8304188251495361,0.0,-0.00028943736106157303
221.0,238.0,0.8853,-0.5623,9.4445,-0.0292,0.0214,-0.1132,-1.9012075863280238,0.0,3.4739575386047363,-1.6097460985183716,-0.0,2.0775046348571777,4.897452178388395,0.0,0.2946142554283142,-1.5315092245685022,0.0,-0.01491720974445343,0.915137767791748,0.0,-0.0035817651078104973,0.8304146528244019,0.0,0.05004389211535454
221.0,238.0,0.8853,-0.5623,9.4445,-0.0292,0.0214,-0.1132,-1.9012032947936,0.0,3.4798684120178223,-1.6097818613052368,-0.0,2.074415683746338,4.8974120048578165,0.0,0.2909924387931824,-1.5315421263324183,0.0,-0.00904162973165512,0.9150850176811218,0.0,-0.005714548751711845,0.8304064273834229,0.0,0.01723616197705269
221.0,238.0,0.8853,-0.5623,9.4445,-0.0292,0.0214,-0.1132,-1.9012476406493128,0.0,3.4795353412628174,-1.6098458766937256,-0.0,2.065009593963623,4.897504511266508,0.0,0.2962695360183716,-1.531513516102926,0.0,-0.019963178783655167,0.9151373505592346,0.0,0.011068454012274742,0.8304713368415833,0.0,-0.008828885853290558
221.0,238.0,0.8853,-0.5623,9.4445,-0.0292,0.0214,-0.1132,-1.901187082330221,0.0,3.461604118347168,-1.609790325164795,-0.0,2.0808489322662354,4.8974599716956995,0.0,0.2902066111564636,-1.5315421263324183,0.0,-0.013171214610338211,0.9151376485824585,0.0,-0.011661142110824585,0.8304188251495361,0.0,-0.026464255526661873
221.0,238.0,0.8853,-0.5623,9.4445,-0.0292,0.0214,-0.1132,-1.9011990032591761,0.0,3.4833993911743164,-1.6097898483276367,-0.0,2.099522352218628,4.897427665978231,0.0,0.29122573137283325,-1.5315378347979944,0.0,-0.016256580129265785,0.9151418209075928,0.0,0.0032842750661075115,0.8303624391555786,0.0,0.011744801886379719
221.0,238.0,0.8853,-0.5623,9.4445,-0.0292,0.0214,-0.1132,-1.9011708698668421,0.0,3.5061564445495605,-1.6097700595855713,-0.0,2.1115822792053223,4.8973959414060495,0.0,0.29114463925361633,-1.531557861958639,0.0,-0.010693741962313652,0.9151335954666138,0.0,-0.0016658231616020203,0.8303624391555786,0.0,-0.015722889453172684
221.0,238.0,0.8853,-0.5623,9.4445,-0.0292,0.0214,-0.1132,-1.9011746845641078,0.0,3.437736988067627,-1.60979425907135,-0.0,2.061429738998413,4.897407892137327,0.0,0.2956703007221222,-1.5315259138690394,0.0,-0.005629260092973709,0.9151454567909241,0.0,0.010632429271936417,0.8304028511047363,0.0,0.044460080564022064
221.0,238.0,0.8853,-0.5623,9.4445,-0.0292,0.0214,-0.1132,-1.9012471638121546,0.0,3.4527668952941895,-1.609805703163147,-0.0,2.1148080825805664,4.897448169976034,0.0,0.28235602378845215,-1.5315497557269495,0.0,-0.027267996221780777,0.9151127934455872,0.0,0.010149158537387848,0.8303582072257996,0.0,-0.013678193092346191
221.0,238.0,0.8853,-0.5623,9.4445,-0.0292,0.0214,-0.1132,-1.9011990032591761,0.0,3.5037598609924316,-1.6097540855407715,-0.0,2.0213723182678223,4.897407862335005,0.0,0.2859247028827667,-1.5315259138690394,0.0,-0.011533224955201149,0.9150565266609192,0.0,0.012298469431698322,0.8304028511047363,0.0,-0.0257796011865139
221.0,238.0,0.8853,-0.5623,9.4445,-0.0292,0.0214,-0.1132,-1.901215215722555,0.0,3.4853858947753906,-1.6097421646118164,-0.0,2.0602729320526123,4.8974801925714395,0.0,0.3040878176689148,-1.5315621534930628,0.0,-0.0212760828435421,0.915076732635498,0.0,-0.0011833957396447659,0.8304147124290466,0.0,-0.05049445480108261
221.0,238.0,0.8853,-0.5623,9.4445,-0.0292,0.0214,-0.1132,-1.9012075863280238,0.0,3.4763290882110596,-1.6097460985183716,-0.0,2.1080708503723145,4.897427665978231,0.0,0.29792025685310364,-1.5315540472613733,0.0,-0.008229533210396767,0.9151538014411926,0.0,0.0035365745425224304,0.8303421139717102,0.0,0.00466904928907752
221.0,238.0,0.8853,-0.5623,9.4445,-0.0292,0.0214,-0.1132,-1.9012471638121546,0.0,3.494838237762451,-1.60979425907135,-0.0,2.070862293243408,4.897400143533506,0.0,0.2888195514678955,-1.5315497557269495,0.0,-0.004461156670004129,0.9151418209075928,0.0,-0.002767855767160654,0.8303866386413574,0.0,-0.03935924172401428
221.0,238.0,0.8853,-0.5623,9.4445,-0.0292,0.0214,-0.1132,-1.9011746845641078,0.0,3.496631622314453,-1.6098419427871704,-0.0,2.1150691509246826,4.897419485240736,0.0,0.2815401256084442,-1.531557861958639,0.0,-0.016131829470396042,0.9151210784912109,0.0,0.006373737473040819,0.8304510712623596,0.0,0.0047914329916238785
222.0,230.0,0.8471,-0.5653,9.4427,-0.0353,0.0258,-0.1202,-1.9011708698668421,0.0,3.4783120155334473,-1.6097546815872192,-0.0,2.0729360580444336,4.897471922426977,0.0,0.2935566008090973,-1.531513516102926,0.0,-0.024119438603520393,0.9150726199150085,0.0,-0.006085960194468498,0.8304027915000916,0.0,-0.02855001762509346
222.0,230.0,0.8471,-0.5653,9.4427,-0.0353,0.0258,-0.1202,-1.9011789760985316,0.0,3.453082323074341,-1.6097625494003296,-0.0,2.08284854888916,4.897471922426977,0.0,0.2956175208091736,-1.5315054098712366,0.0,-0.010069859214127064,0.9150927662849426,0.0,0.005181597545742989,0.8303825259208679,0.0,0.015692804008722305
222.0,230.0,0.8471,-0.5653,9.4427,-0.0353,0.0258,-0.1202,-1.9011665783324183,0.0,3.479065418243408,-1.6098135709762573,-0.0,2.0312368869781494,4.897447663336553,0.0,0.2943192720413208,-1.5315092245685022,0.0,-0.005375080741941929,0.9151051044464111,0.0,-0.00980415754020214,0.8304310441017151,0.0,-0.005954579450190067
222.0,230.0,0.8471,-0.5653,9.4427,-0.0353,0.0258,-0.1202,-1.9011913738646449,0.0,3.4100048542022705,-1.609822154045105,-0.0,2.058976411819458,4.8974439976509,0.0,0.2995114326477051,-1.5315378347979944,0.0,-0.0112425172701478,0.9151086807250977,0.0,-0.013124093413352966,0.830390453338623,0.0,-0.015775416046380997
222.0,230.0,0.8471,-0.5653,9.4427,-0.0353,0.0258,-0.1202,-1.9012032947936,0.0,3.4531383514404297,-1.60979425907135,-0.0,2.079657793045044,4.897455918579855,0.0,0.28953802585601807,-1.5315302054034632,0.0,-0.018506290391087532,0.9151454567909241,0.0,-0.0046450067311525345,0.8304187655448914,0.0,-0.007753068581223488
222.0,230.0,0.8471,-0.5653,9.4427,-0.0353,0.0258,-0.1202,-1.9011832676329554,0.0,3.4327573776245117,-1.6097705364227295,-0.0,2.0289783477783203,4.897435831814565,0.0,0.2948411703109741,-1.5315740744220179,0.0,-0.015761910006403923,0.9151292443275452,0.0,-0.00050135119818151,0.8303624391555786,0.0,-0.037167519330978394
222.0,230.0,0.8471,-0.5653,9.4427,-0.0353,0.0258,-0.1202,-1.9011951885619105,0.0,3.4704017639160156,-1.6097779273986816,-0.0,2.0124497413635254,4.8974318383033655,0.0,0.2772502601146698,-1.5315092245685022,0.0,-0.017740454524755478,0.9150726199150085,0.0,-0.007732989266514778,0.8304187655448914,0.0,-0.005886543076485395
222.0,230.0,0.8471,-0.5653,9.4427,-0.0353,0.0258,-0.1202,-1.9012233219542445,0.0,3.4781041145324707,-1.6097263097763062,-0.0,2.015493869781494,4.897423583060064,0.0,0.2894991338253021,-1.5315421263324183,0.0,-0.024586843326687813,0.9150850176811218,0.0,0.00500516640022397,0.8303946256637573,0.0,0.020924048498272896
222.0,230.0,0.8471,-0.5653,9.4427,-0.0353,0.0258,-0.1202,-1.9012395344176234,0.0,3.407031536102295,-1.6097744703292847,-0.0,2.077338695526123,4.897387850075521,0.0,0.2892879545688629,-1.5315302054034632,0.0,-0.015550465323030949,0.9151051044464111,0.0,0.010638331063091755,0.830398678779602,0.0,-0.008126499131321907
222.0,230.0,0.8471,-0.5653,9.4427,-0.0353,0.0258,-0.1202,-1.9012032947936,0.0,3.4865453243255615,-1.6097739934921265,-0.0,2.0962626934051514,4.897423597961225,0.0,0.2934405207633972,-1.5315459410296839,0.0,-0.029888013377785683,0.9151210784912109,0.0,0.0018235708121210337,0.8304023742675781,0.0,0.008563456125557423
222.0,230.0,0.8471,-0.5653,9.4427,-0.0353,0.0258,-0.1202,-1.9012395344176234,0.0,3.474426746368408,-1.609805703163147,-0.0,2.0829825401306152,4.8974399147327325,0.0,0.2783239185810089,-1.5315378347979944,0.0,-0.025177229195833206,0.9150726199150085,0.0,-0.01176826748996973,0.8304105997085571,0.0,0.036567553877830505
222.0,230.0,0.8471,-0.5653,9.4427,-0.0353,0.0258,-0.1202,-1.9011994800963343,0.0,3.4312195777893066,-1.6097779273986816,-0.0,2.0845797061920166,4.8974318383033655,0.0,0.30162325501441956,-1.531557861958639,0.0,-0.022119492292404175,0.9151090979576111,0.0,0.0018152054399251938,0.8303624987602234,0.0,0.02094750478863716
222.0,230.0,0.8471,-0.5653,9.4427,-0.0353,0.0258,-0.1202,-1.9011956653990687,0.0,3.4869236946105957,-1.6097739934921265,-0.0,2.0363380908966064,4.897460001498022,0.0,0.30003923177719116,-1.53151780763735,0.0,-0.011803960427641869,0.9151496887207031,0.0,0.006408359855413437,0.8304392099380493,0.0,0.015383736230432987
222.0,230.0,0.8471,-0.5653,9.4427,-0.0353,0.0258,-0.1202,-1.9011789760985316,0.0,3.4613306522369385,-1.6097625494003296,-0.0,2.085314989089966,4.8974476782377145,0.0,0.28415435552597046,-1.5315054098712366,0.0,-0.009103083983063698,0.9150770902633667,0.0,-0.0006313443300314248,0.8303945660591125,0.0,-0.008415266871452332
222.0,230.0,0.8471,-0.5653,9.4427,-0.0353,0.0258,-0.1202,-1.901187082330221,0.0,3.469090223312378,-1.60979425907135,-0.0,2.1207528114318848,4.8974201557929895,0.0,0.29625141620635986,-1.5315092245685022,0.0,-0.020581349730491638,0.9151292443275452,0.0,-0.003920123912394047,0.8303583264350891,0.0,-0.024832352995872498
217.0,231.0,0.9344,-0.5665,9.4146,-0.0389,0.0224,-0.1145,-1.9011990032591761,0.0,3.4940879344940186,-1.6098136901855469,-0.0,2.081514596939087,4.897423597961225,0.0,0.2892501652240753,-1.5315335432635706,0.0,-0.003393546212464571,0.9151210784912109,0.0,0.011301443912088871,0.8304229378700256,0.0,-0.005712100770324469
217.0,231.0,0.9344,-0.5665,9.4146,-0.0389,0.0224,-0.1145,-1.9011990032591761,0.0,3.4893312454223633,-1.6097779273986816,-0.0,2.1163291931152344,4.897464158921995,0.0,0.2778477668762207,-1.5315259138690394,0.0,-0.01843816041946411,0.9151453971862793,0.0,0.005521263461560011,0.8304105997085571,0.0,0.015167784877121449
217.0,231.0,0.9344,-0.5665,9.4146,-0.0389,0.0224,-0.1145,-1.901187082330221,0.0,3.4653005599975586,-1.609814167022705,-0.0,2.0302906036376953,4.8974439976509,0.0,0.28058522939682007,-1.5315540472613733,0.0,-0.013489319011569023,0.9150964617729187,0.0,-0.007943687960505486,0.8304110765457153,0.0,0.01082141138613224
217.0,231.0,0.9344,-0.5665,9.4146,-0.0389,0.0224,-0.1145,-1.9012032947936,0.0,3.4599990844726562,-1.6097500324249268,-0.0,2.05991268157959,4.897476020246305,0.0,0.29082855582237244,-1.5315340201007288,0.0,-0.012577774003148079,0.9151010513305664,0.0,-0.0031655174680054188,0.8303624987602234,0.0,-0.001467021182179451
217.0,231.0,0.9344,-0.5665,9.4146,-0.0389,0.0224,-0.1145,-1.9011708698668421,0.0,3.4663195610046387,-1.609790325164795,-0.0,2.087641716003418,4.897460001498022,0.0,0.2832048833370209,-1.5315259138690394,0.0,-0.014185707084834576,0.9151087403297424,0.0,-0.001742300228215754,0.8303907513618469,0.0,0.025959979742765427
217.0,231.0,0.9344,-0.5665,9.4146,-0.0389,0.0224,-0.1145,-1.901231428185934,0.0,3.4368486404418945,-1.6098061800003052,-0.0,2.044764757156372,4.897464188724317,0.0,0.27652958035469055,-1.5315259138690394,0.0,-0.011952362954616547,0.9151127934455872,0.0,0.0030219361651688814,0.8304187655448914,0.0,-0.000992502085864544
217.0,231.0,0.9344,-0.5665,9.4146,-0.0389,0.0224,-0.1145,-1.9012233219542445,0.0,3.4540464878082275,-1.6097859144210815,-0.0,2.0916950702667236,4.897435802012243,0.0,0.28375616669654846,-1.5315216223346155,0.0,-0.017475591972470284,0.9151210784912109,0.0,-0.014666179195046425,0.8304350972175598,0.0,-0.013779672794044018
217.0,231.0,0.9344,-0.5665,9.4146,-0.0389,0.0224,-0.1145,-1.9012156925597132,0.0,3.440269947052002,-1.6097460985183716,-0.0,2.0863819122314453,4.897455918579855,0.0,0.2963068187236786,-1.5315335432635706,0.0,-0.014864809811115265,0.9151251912117004,0.0,-0.003229685826227069,0.8304187655448914,0.0,0.06287343800067902
217.0,231.0,0.9344,-0.5665,9.4146,-0.0389,0.0224,-0.1145,-1.901243349114889,0.0,3.4788589477539062,-1.6097818613052368,-0.0,2.119208812713623,4.897407951741972,0.0,0.3026916980743408,-1.5315259138690394,0.0,-0.01016530767083168,0.9151250123977661,0.0,-0.0034982585348188877,0.8304227590560913,0.0,0.014832626096904278
217.0,231.0,0.9344,-0.5665,9.4146,-0.0389,0.0224,-0.1145,-1.9012195072569789,0.0,3.4316225051879883,-1.6097625494003296,-0.0,2.0319666862487793,4.897404211550512,0.0,0.2915217876434326,-1.5315941015826624,0.0,-0.009603399783372879,0.9151010513305664,0.0,0.009055130183696747,0.8304105997085571,0.0,-0.017147447913885117
217.0,231.0,0.9344,-0.5665,9.4146,-0.0389,0.0224,-0.1145,-1.901187082330221,0.0,3.4777748584747314,-1.60979425907135,-0.0,2.0872700214385986,4.897476020246305,0.0,0.29750856757164,-1.531557861958639,0.0,-0.020752888172864914,0.9150967597961426,0.0,-0.01239460613578558,0.8303784728050232,0.0,-0.025985851883888245
217.0,231.0,0.9344,-0.5665,9.4146,-0.0389,0.0224,-0.1145,-1.901215215722555,0.0,3.4548604488372803,-1.609790325164795,-0.0,2.089784860610962,4.897467809706487,0.0,0.2940266728401184,-1.5315459410296839,0.0,-0.017093118280172348,0.9151091575622559,0.0,-0.007595198228955269,0.8304187655448914,0.0,0.03265589475631714
217.0,231.0,0.9344,-0.5665,9.4146,-0.0389,0.0224,-0.1145,-1.9012075863280238,0.0,3.478191375732422,-1.6097818613052368,-0.0,2.021923303604126,4.897460001498022,0.0,0.2915136516094208,-1.5315216223346155,0.0,-0.014855580404400826,0.9151127934455872,0.0,0.007981068454682827,0.8304027915000916,0.0,0.0024636094458401203
217.0,231.0,0.9344,-0.5665,9.4146,-0.0389,0.0224,-0.1145,-1.9011746845641078,0.0,3.5150201320648193,-1.6097818613052368,-0.0,2.1454477310180664,4.897451835661688,0.0,0.2986084818840027,-1.5315497557269495,0.0,-0.011424647644162178,0.9151454567909241,0.0,-0.006414921022951603,0.8303624391555786,0.0,0.050428397953510284
217.0,231.0,0.9344,-0.5665,9.4146,-0.0389,0.0224,-0.1145,-1.90122713665151,0.0,3.4912400245666504,-1.6097863912582397,-0.0,2.0820207595825195,4.897423568158903,0.0,0.27984264492988586,-1.5314977804767054,0.0,-0.020144637674093246,0.915076732635498,0.0,-0.008488660678267479,0.8303747177124023,0.0,0.06358124315738678
209.0,230.0,0.9129,-0.5533,9.4636,-0.0362,0.0218,-0.1126,-1.9012233219542445,0.0,3.494946002960205,-1.6097460985183716,-0.0,2.0426995754241943,4.897423583060064,0.0,0.2840311825275421,-1.5315054098712366,0.0,-0.013172511011362076,0.9151092171669006,0.0,0.004316896200180054,0.8304470181465149,0.0,-0.002595946192741394
209.0,230.0,0.9129,-0.5533,9.4636,-0.0362,0.0218,-0.1126,-1.9011665783324183,0.0,3.4509224891662598,-1.609710454940796,-0.0,2.1040596961975098,4.897460001498022,0.0,0.30648547410964966,-1.5315020720111292,0.0,-0.018305489793419838,0.9151377081871033,0.0,-0.0017600980354472995,0.8303866386413574,0.0,-0.00957980751991272
209.0,230.0,0.9129,-0.5533,9.4636,-0.0362,0.0218,-0.1126,-1.9011665783324183,0.0,3.4572219848632812,-1.6098380088806152,-0.0,2.057854413986206,4.897448169976034,0.0,0.2894883453845978,-1.531557861958639,0.0,-0.013935256749391556,0.9150693416595459,0.0,-0.001355811138637364,0.8304027915000916,0.0,-0.0003574555739760399
209.0,230.0,0.9129,-0.5533,9.4636,-0.0362,0.0218,-0.1126,-1.9012633762755335,0.0,3.4534525871276855,-1.6097700595855713,-0.0,2.0761361122131348,4.8974801925714395,0.0,0.2793680429458618,-1.5315459410296839,0.0,-0.006908833049237728,0.9151046276092529,0.0,-0.004855673294514418,0.8303784132003784,0.0,-0.019433846697211266
209.0,230.0,0.9129,-0.5533,9.4636,-0.0362,0.0218,-0.1126,-1.901187082330221,0.0,3.4732041358947754,-1.6097625494003296,-0.0,2.096579074859619,4.8974636671836755,0.0,0.2850290536880493,-1.5315011183368128,0.0,-0.016714245080947876,0.9151454567909241,0.0,-0.011052092537283897,0.8303945660591125,0.0,0.002001550979912281
209.0,230.0,0.9129,-0.5533,9.4636,-0.0362,0.0218,-0.1126,-1.9011913738646449,0.0,3.4965622425079346,-1.6097263097763062,-0.0,2.0831737518310547,4.89746783950881,0.0,0.298228919506073,-1.5315097014056605,0.0,-0.004957317374646664,0.9151253700256348,0.0,0.004986695013940334,0.8304551839828491,0.0,-0.0020759934559464455
209.0,230.0,0.9129,-0.5533,9.4636,-0.0362,0.0218,-0.1126,-1.9011665783324183,0.0,3.4735567569732666,-1.6097779273986816,-0.0,2.0568816661834717,4.89743164458827,0.0,0.3000098466873169,-1.531513516102926,0.0,-0.013296489603817463,0.9151170253753662,0.0,-0.012409564107656479,0.8303825259208679,0.0,0.0068880654871463776
209.0,230.0,0.9129,-0.5533,9.4636,-0.0362,0.0218,-0.1126,-1.9011789760985316,0.0,3.4581778049468994,-1.60980224609375,-0.0,2.0478577613830566,4.897407892137327,0.0,0.2936633825302124,-1.5315054098712366,0.0,-0.01434711366891861,0.9151532053947449,0.0,0.002144051482900977,0.8303421139717102,0.0,-0.026039160788059235
209.0,230.0,0.9129,-0.5533,9.4636,-0.0362,0.0218,-0.1126,-1.901215215722555,0.0,3.49637770652771,-1.6097545623779297,-0.0,2.071536064147949,4.897407892137327,0.0,0.289401113986969,-1.5315259138690394,0.0,-0.014429839327931404,0.9151537418365479,0.0,-0.008394530974328518,0.830390453338623,0.0,0.047646597027778625
209.0,230.0,0.9129,-0.5533,9.4636,-0.0362,0.0218,-0.1126,-1.9012195072569789,0.0,3.443474292755127,-1.6097981929779053,-0.0,2.044222116470337,4.8974318383033655,0.0,0.29719555377960205,-1.5315302054034632,0.0,-0.02075767330825329,0.9151294231414795,0.0,-0.009529026225209236,0.8304105997085571,0.0,0.0036357371136546135
209.0,230.0,0.9129,-0.5533,9.4636,-0.0362,0.0218,-0.1126,-1.9012109241881312,0.0,3.4484097957611084,-1.6098017692565918,-0.0,2.0599591732025146,4.897476020246305,0.0,0.2942376136779785,-1.531529728566305,0.0,-0.004586301278322935,0.9150927066802979,0.0,0.010415337979793549,0.8304269313812256,0.0,0.0007597971707582474
209.0,230.0,0.9129,-0.5533,9.4636,-0.0362,0.0218,-0.1126,-1.901158948937887,0.0,3.4520657062530518,-1.6097506284713745,-0.0,2.0821714401245117,4.8974201557929895,0.0,0.29813000559806824,-1.531557861958639,0.0,-0.0028117336332798004,0.9151454567909241,0.0,0.01093067042529583,0.8303987383842468,0.0,-0.00855716411024332
209.0,230.0,0.9129,-0.5533,9.4636,-0.0362,0.0218,-0.1126,-1.9012514553465785,0.0,3.4785451889038086,-1.6097739934921265,-0.0,2.0707969665527344,4.8974318383033655,0.0,0.2823081910610199,-1.5315378347979944,0.0,-0.011842794716358185,0.9150808453559875,0.0,-0.012078638188540936,0.8304188251495361,0.0,0.0005989279597997665
209.0,230.0,0.9129,-0.5533,9.4636,-0.0362,0.0218,-0.1126,-1.9011913738646449,0.0,3.455315113067627,-1.6098300218582153,-0.0,2.0483994483947754,4.897448169976034,0.0,0.2941112518310547,-1.531557861958639,0.0,0.0005187932401895523,0.9150927066802979,0.0,0.005689539946615696,0.8303784728050232,0.0,-0.021595424041152
217.0,221.0,0.9565,-0.5402,9.3278,-0.0266,0.0246,-0.118,-1.9011746845641078,0.0,3.4454996585845947,-1.6097625494003296,-0.0,2.0800905227661133,4.897504615574636,0.0,0.2899080514907837,-1.5315459410296839,0.0,-0.012999940663576126,0.9151336550712585,0.0,-0.0078650563955307,0.8304145932197571,0.0,-0.0056906454265117645
217.0,221.0,0.9565,-0.5402,9.3278,-0.0266,0.0246,-0.118,-1.9011665783324183,0.0,3.5075697898864746,-1.6097625494003296,-0.0,2.120077133178711,4.897448169976034,0.0,0.3002331256866455,-1.5315011183368128,0.0,-0.02080109529197216,0.9150895476341248,0.0,0.003867916064336896,0.8303945660591125,0.0,-0.03643840178847313
217.0,221.0,0.9565,-0.5402,9.3278,-0.0266,0.0246,-0.118,-1.9012195072569789,0.0,3.479062557220459,-1.6097981929779053,-0.0,2.043030023574829,4.897455918579855,0.0,0.2971954345703125,-1.5315259138690394,0.0,-0.020606501027941704,0.9151091575622559,0.0,0.010961715131998062,0.8304147124290466,0.0,0.01902926340699196
217.0,221.0,0.9565,-0.5402,9.3278,-0.0266,0.0246,-0.118,-1.9012114010252894,0.0,3.519503116607666,-1.6097818613052368,-0.0,2.087853193283081,4.897427680879392,0.0,0.30034080147743225,-1.5315497557269495,0.0,-0.011134849861264229,0.9151656627655029,0.0,-0.004124979954212904,0.8303784728050232,0.0,-0.03734298795461655
217.0,221.0,0.9565,-0.5402,9.3278,-0.0266,0.0246,-0.118,-1.901215215722555,0.0,3.4749627113342285,-1.6097981929779053,-0.0,2.0640881061553955,4.897460001498022,0.0,0.2879802882671356,-1.5315259138690394,0.0,-0.029305223375558853,0.9151170253753662,0.0,-0.0008840070804581046,0.8304023146629333,0.0,0.04047507047653198
217.0,221.0,0.9565,-0.5402,9.3278,-0.0266,0.0246,-0.118,-1.9012233219542445,0.0,3.4221644401550293,-1.6098216772079468,-0.0,2.0771238803863525,4.897528472333708,0.0,0.2894841432571411,-1.5315340201007288,0.0,-0.010856419801712036,0.9151091575622559,0.0,-0.001152212149463594,0.8304147124290466,0.0,0.02464110590517521
217.0,221.0,0.9565,-0.5402,9.3278,-0.0266,0.0246,-0.118,-1.9012233219542445,0.0,3.477909803390503,-1.60980224609375,-0.0,2.060995101928711,4.897468152433195,0.0,0.3026600182056427,-1.531569782887594,0.0,-0.0077759879641234875,0.9151127934455872,0.0,-0.004708903841674328,0.8303706049919128,0.0,0.03512008115649223
217.0,221.0,0.9565,-0.5402,9.3278,-0.0266,0.0246,-0.118,-1.9011832676329554,0.0,3.4788007736206055,-1.6097664833068848,-0.0,2.0490400791168213,4.8974439976509,0.0,0.30084890127182007,-1.5315535704242151,0.0,0.0011329491389915347,0.9151086807250977,0.0,0.006469814106822014,0.8304068446159363,0.0,0.01996403932571411
217.0,221.0,0.9565,-0.5402,9.3278,-0.0266,0.0246,-0.118,-1.901215215722555,0.0,3.403506278991699,-1.60980224609375,-0.0,2.062307834625244,4.897439929633894,0.0,0.28434646129608154,-1.531489674245016,0.0,-0.019136367365717888,0.915064811706543,0.0,-0.005542865954339504,0.8304429054260254,0.0,-0.009831502102315426
217.0,221.0,0.9565,-0.5402,9.3278,-0.0266,0.0246,-0.118,-1.9011832676329554,0.0,3.5244052410125732,-1.6097705364227295,-0.0,2.0603694915771484,4.897472265153684,0.0,0.29197371006011963,-1.5314939657794397,0.0,-0.009114421904087067,0.9151614308357239,0.0,-0.0030792965553700924,0.8303987383842468,0.0,0.0014645131304860115
217.0,221.0,0.9565,-0.5402,9.3278,-0.0266,0.0246,-0.118,-1.9012276134886683,0.0,3.510495901107788,-1.60979425907135,-0.0,2.0817863941192627,4.8974681226308725,0.0,0.29092514514923096,-1.531557861958639,0.0,-0.015295270830392838,0.9151127934455872,0.0,7.104524411261082e-05,0.8303624391555786,0.0,-0.017765572294592857
217.0,221.0,0.9565,-0.5402,9.3278,-0.0266,0.0246,-0.118,-1.9012075863280238,0.0,3.4418599605560303,-1.6097779273986816,-0.0,2.0450942516326904,4.897419529944219,0.0,0.27574610710144043,-1.531513516102926,0.0,-0.009541044943034649,0.9151170253753662,0.0,0.0006373602664098144,0.8303982615470886,0.0,0.02797691337764263
217.0,221.0,0.9565,-0.5402,9.3278,-0.0266,0.0246,-0.118,-1.901215215722555,0.0,3.4515559673309326,-1.6097421646118164,-0.0,2.094618797302246,4.8974318383033655,0.0,0.29251623153686523,-1.5315340201007288,0.0,0.001959149958565831,0.9151294231414795,0.0,-0.007692001760005951,0.830398678779602,0.0,-0.04531383886933327
217.0,221.0,0.9565,-0.5402,9.3278,-0.0266,0.0246,-0.118,-1.901187082330221,0.0,3.4575400352478027,-1.6097898483276367,-0.0,2.0548300743103027,4.897399726300993,0.0,0.28705453872680664,-1.53151780763735,0.0,-0.008104737848043442,0.9151294231414795,0.0,-0.009960541501641273,0.830398678779602,0.0,0.04454229027032852
217.0,221.0,0.9565,-0.5402,9.3278,-0.0266,0.0246,-0.118,-1.9012075863280238,0.0,3.488668203353882,-1.6097584962844849,-0.0,2.0563011169433594,4.8974318383033655,0.0,0.2900465428829193,-1.5315054098712366,0.0,-0.009120969101786613,0.9151418209075928,0.0,0.0007979535730555654,0.8304350972175598,0.0,-0.01116758119314909
215.0,232.0,0.9188,-0.5749,9.3799,-0.0405,0.0289,-0.1199,-1.9012233219542445,0.0,3.5054163932800293,-1.6097739934921265,-0.0,2.0864975452423096,4.897448169976034,0.0,0.29040148854255676,-1.5315259138690394,0.0,-0.00885877013206482,0.9151212573051453,0.0,-0.0022468850947916508,0.8304146528244019,0.0,-0.023634999990463257
215.0,232.0,0.9188,-0.5749,9.3799,-0.0405,0.0289,-0.1199,-1.901187082330221,0.0,3.441413402557373,-1.609790325164795,-0.0,2.093430995941162,4.8974439827497385,0.0,0.29747065901756287,-1.531529728566305,0.0,-0.0118095139041543,0.9150891304016113,0.0,-0.0011273236013948917,0.8304064273834229,0.0,0.031147392466664314
215.0,232.0,0.9188,-0.5749,9.3799,-0.0405,0.0289,-0.1199,-1.9011622867979945,0.0,3.477527618408203,-1.609790325164795,-0.0,2.0692825317382812,4.897431823402204,0.0,0.28790611028671265,-1.5315216223346155,0.0,-0.009265976026654243,0.9151127934455872,0.0,-0.003367425873875618,0.8304145336151123,0.0,0.004521455615758896
215.0,232.0,0.9188,-0.5749,9.3799,-0.0405,0.0289,-0.1199,-1.901255270043844,0.0,3.435257911682129,-1.6097981929779053,-0.0,2.0721397399902344,4.897452163487234,0.0,0.29949015378952026,-1.5315092245685022,0.0,-0.025972692295908928,0.9151010513305664,0.0,-0.003699513152241707,0.8304028511047363,0.0,0.004147782456129789
215.0,232.0,0.9188,-0.5749,9.3799,-0.0405,0.0289,-0.1199,-1.9012114010252894,0.0,3.504225730895996,-1.6098177433013916,-0.0,2.060443162918091,4.8974439827497385,0.0,0.28669625520706177,-1.5315421263324183,0.0,-0.016553673893213272,0.9151372909545898,0.0,-0.006694186013191938,0.8303946256637573,0.0,-0.025616755709052086
215.0,232.0,0.9188,-0.5749,9.3799,-0.0405,0.0289,-0.1199,-1.9011951885619105,0.0,3.4425346851348877,-1.6097460985183716,-0.0,2.070488452911377,4.897411975055494,0.0,0.2938656210899353,-1.5315092245685022,0.0,-0.023709764704108238,0.9151251912117004,0.0,-0.004023354966193438,0.8304105401039124,0.0,0.0012840873096138239
215.0,232.0,0.9188,-0.5749,9.3799,-0.0405,0.0289,-0.1199,-1.9011546574034632,0.0,3.463707208633423,-1.6097818613052368,-0.0,2.0787808895111084,4.897448169976034,0.0,0.28389203548431396,-1.5315092245685022,0.0,-0.01090612169355154,0.9151010513305664,0.0,0.004339676816016436,0.8304064273834229,0.0,-0.03201157972216606
215.0,232.0,0.9188,-0.5749,9.3799,-0.0405,0.0289,-0.1199,-1.9012228451170863,0.0,3.4715423583984375,-1.609782338142395,-0.0,2.043355703353882,4.897448169976034,0.0,0.2878497838973999,-1.5315216223346155,0.0,-0.017253641039133072,0.9151251912117004,0.0,-0.0025249698664993048,0.8303582668304443,0.0,8.2370825111866e-06
215.0,232.0,0.9188,-0.5749,9.3799,-0.0405,0.0289,-0.1199,-1.9012195072569789,0.0,3.4393303394317627,-1.609750509262085,-0.0,2.0885000228881836,4.897480132966795,0.0,0.2945255935192108,-1.53151780763735,0.0,-0.011779844760894775,0.9151414036750793,0.0,0.0039392379112541676,0.8304147124290466,0.0,-0.07366345077753067
215.0,232.0,0.9188,-0.5749,9.3799,-0.0405,0.0289,-0.1199,-1.9012109241881312,0.0,3.473846435546875,-1.6098177433013916,-0.0,2.073655128479004,4.897439929633894,0.0,0.2794490158557892,-1.53151780763735,0.0,-0.0037526795640587807,0.9151010513305664,0.0,0.012578950263559818,0.8303946256637573,0.0,-0.00966133363544941
215.0,232.0,0.9188,-0.5749,9.3799,-0.0405,0.0289,-0.1199,-1.9012114010252894,0.0,3.4502029418945312,-1.6097540855407715,-0.0,2.092576026916504,4.897427665978231,0.0,0.2948490381240845,-1.531557861958639,0.0,-0.0030531904194504023,0.9151537418365479,0.0,-0.006356979254633188,0.8304429650306702,0.0,-0.008077642880380154
215.0,232.0,0.9188,-0.5749,9.3799,-0.0405,0.0289,-0.1199,-1.9011990032591761,0.0,3.473801851272583,-1.609797716140747,-0.0,2.0950427055358887,4.897435816913404,0.0,0.2903275489807129,-1.5315459410296839,0.0,-0.017555471509695053,0.9151458740234375,0.0,0.0017538222018629313,0.8304064273834229,0.0,0.02849724516272545
215.0,232.0,0.9188,-0.5749,9.3799,-0.0405,0.0289,-0.1199,-1.9011789760985316,0.0,3.459427833557129,-1.6098068952560425,1.5619281157341902e-06,2.0897293090820312,4.897451835661688,0.0,0.2813727855682373,-1.5315383116351526,0.0,-0.0176879670470953,0.9150927066802979,0.0,0.005069771781563759,0.8304668068885803,0.0,-0.038256965577602386
215.0,232.0,0.9188,-0.5749,9.3799,-0.0405,0.0289,-0.1199,-1.9012557468810023,0.0,3.482565402984619,-1.6097421646118164,3.771872137542376e-12,2.0145163536071777,4.897464173823156,0.0,0.2780892848968506,-1.5315540472613733,0.0,-0.022013412788510323,0.9151210784912109,0.0,-0.007785998284816742,0.8304346799850464,0.0,-0.004373827949166298
215.0,232.0,0.9188,-0.5749,9.3799,-0.0405,0.0289,-0.1199,-1.901231428185934,0.0,3.436826467514038,-1.6097382307052612,1.222038638376454e-19,2.0610554218292236,4.897460001498022,0.0,0.28715193271636963,-1.5315054098712366,0.0,-0.001694603357464075,0.9151496887207031,0.0,0.0036444382276386023,0.8304508328437805,0.0,-0.037310268729925156
214.0,225.0,0.7178,-0.9069,9.5521,-0.0415,0.0278,-0.1132,-1.90122713665151,0.0,3.451453924179077,-1.6097540855407715,2.9510795891442617e-25,2.0400240421295166,4.897448155074873,0.0,0.2941006124019623,-1.5315011183368128,0.0,-0.02011197991669178,0.9151458740234375,0.0,-0.00029837037436664104,0.8304626941680908,0.0,0.017849020659923553
214.0,225.0,0.7178,-0.9069,9.5521,-0.0415,0.0278,-0.1132,-1.9012514553465785,0.0,3.445375442504883,-1.6097664833068848,7.126510673894051e-31,2.026827573776245,4.897427665978231,0.0,0.2888702154159546,-1.5314815680133265,0.0,-0.00983351655304432,0.9151010513305664,0.0,0.0032770175021141768,0.8304187059402466,0.0,-0.009912326000630856
214.0,225.0,0.7178,-0.9069,9.5521,-0.0415,0.0278,-0.1132,-1.9012471638121546,0.0,3.4835073947906494,-1.60976243019104,1.720968140675799e-36,2.0590200424194336,4.897419485240736,0.0,0.29754334688186646,-1.5315259138690394,1.6668405322661783e-08,-0.01466083899140358,0.9151210784912109,0.0,-0.005180471111088991,0.8304346799850464,0.0,0.03850416839122772
214.0,225.0,0.7178,-0.9069,9.5521,-0.0415,0.0278,-0.1132,-1.9011584721007289,0.0,3.4616291522979736,-1.6097983121871948,4.1562512451874074e-42,2.0693187713623047,4.897464173823156,0.0,0.2841818332672119,-1.5314858595477503,4.639711791848411e-12,-0.002855378668755293,0.9151294231414795,0.0,-0.0057619973085820675,0.830478847026825,0.0,0.03636374697089195
214.0,225.0,0.7178,-0.9069,9.5521,-0.0415,0.0278,-0.1132,-1.9012514553465785,0.0,3.4578773975372314,-1.6097744703292847,0.0,2.0625343322753906,4.8974801925714395,0.0,0.28718680143356323,-1.5315454641925257,1.2914806637992883e-15,-0.011666430160403252,0.915137767791748,0.0,0.010462576523423195,0.8304387927055359,0.0,0.021026965230703354
214.0,225.0,0.7178,-0.9069,9.5521,-0.0415,0.0278,-0.1132,-1.9012514553465785,0.0,3.4490838050842285,-1.6097261905670166,-0.0,2.071218967437744,4.89746783950881,0.0,0.2960997223854065,-1.5315216223346155,3.594884032161182e-19,-0.004453967325389385,0.9150967001914978,0.0,0.0027897784020751715,0.8304305672645569,0.0,-0.01710386574268341
214.0,225.0,0.7178,-0.9069,9.5521,-0.0415,0.0278,-0.1132,-1.9012032947936,0.0,3.4745330810546875,-1.609734058380127,-0.0,2.0829243659973145,4.897447663336553,0.0,0.2834927439689636,-1.5315216223346155,1.0006492323449556e-22,-0.0068864841014146805,0.9151173233985901,0.0,-0.004815348889678717,0.8303942084312439,0.0,-0.007377371191978455
214.0,225.0,0.7178,-0.9069,9.5521,-0.0415,0.0278,-0.1132,-1.90122713665151,0.0,3.4430015087127686,-1.6097625494003296,-0.0,2.0551910400390625,4.8974399147327325,0.0,0.2963126301765442,-1.5315092245685022,2.7853439805213697e-26,-0.007452270016074181,0.9150730967521667,0.0,-0.002186182187870145,0.8304145932197571,0.0,0.027641668915748596
214.0,225.0,0.7178,-0.9069,9.5521,-0.0415,0.0278,-0.1132,-1.901243349114889,0.0,3.4785337448120117,-1.6097580194473267,-0.0,2.0945396423339844,4.897460001498022,0.0,0.30122143030166626,-1.5315340201007288,7.753107091243939e-30,-0.03266673535108566,0.9151418209075928,0.0,-0.006655259057879448,0.8304023742675781,0.0,0.0030482760630548
214.0,225.0,0.7178,-0.9069,9.5521,-0.0415,0.0278,-0.1132,-1.9011951885619105,0.0,3.4275548458099365,-1.609790325164795,-0.0,2.105961799621582,4.8974399147327325,0.0,0.2923993766307831,-1.5315540472613733,-1.7398082263753167e-07,-0.003730376251041889,0.9150850176811218,0.0,0.005648870952427387,0.8304269313812256,0.0,0.003317151451483369
214.0,225.0,0.7178,-0.9069,9.5521,-0.0415,0.0278,-0.1132,-1.9011913738646449,0.0,3.4538493156433105,-1.6097540855407715,0.00011242956679780036,2.0350327491760254,4.897500160127439,0.0,0.2885024845600128,-1.5315740744220179,-4.842820242045853e-11,-0.022913917899131775,0.9151086807250977,0.0,-0.010415262542665005,0.8303987383842468,0.0,0.020730767399072647
214.0,225.0,0.7178,-0.9069,9.5521,-0.0415,0.0278,-0.1132,-1.9012195072569789,0.0,3.4406239986419678,-1.6097625494003296,0.00010459229815751314,2.0749499797821045,4.897455918579855,0.0,0.2890964448451996,-1.531529728566305,-1.3480167672483712e-14,-0.0018564430065453053,0.9151774644851685,0.0,0.005200691055506468,0.8304470777511597,3.750207179109566e-05,-0.03298460692167282
214.0,225.0,0.7178,-0.9069,9.5521,-0.0415,0.0278,-0.1132,-1.9012195072569789,0.0,3.449415683746338,-1.6097103357315063,9.777463128557429e-05,2.075076103210449,4.89749230721549,0.0,0.29956406354904175,-1.5315421263324183,-3.7522542131212065e-18,-0.0005246505024842918,0.9151170253753662,0.0,0.0034255092032253742,0.8303742408752441,3.936261055059731e-05,-0.03598424419760704
214.0,225.0,0.7178,-0.9069,9.5521,-0.0415,0.0278,-0.1132,-1.9012156925597132,0.0,3.45041561126709,-1.6097700595855713,8.995655662147328e-05,2.1120352745056152,4.897471877723493,0.0,0.2862975299358368,-1.5315092245685022,-6.819537180389913e-23,-0.007997402921319008,0.9150850176811218,0.0,-0.015005110763013363,0.8304387927055359,3.6196484870743006e-05,0.013240376487374306
214.0,225.0,0.7178,-0.9069,9.5521,-0.0415,0.0278,-0.1132,-1.9011746845641078,0.0,3.4598283767700195,-1.6097382307052612,8.48670388222672e-05,2.02821683883667,4.897391977697172,0.0,0.287517249584198,-1.5315054098712366,-1.898242775506725e-26,-0.014185100793838501,0.9150771498680115,0.0,-0.0037944482173770666,0.8304023146629333,3.4137090551666915e-05,-0.03763246908783913
220.0,231.0,0.9278,-0.6921,9.3942,-0.0623,0.0052,-0.1092,-1.9011708698668421,0.0,3.436530113220215,-1.6097500324249268,8.032262849155813e-05,2.1098663806915283,4.897427680879392,0.0,0.29644012451171875,-1.5315092245685022,-5.283829427511146e-30,-0.010073330253362656,0.9151251316070557,0.0,0.0036558781284838915,0.830406904220581,3.229940193705261e-05,0.010910791344940662
220.0,231.0,0.9278,-0.6921,9.3942,-0.0623,0.0052,-0.1092,-1.901215215722555,0.0,3.490623950958252,-1.6098182201385498,9.087929356610402e-05,2.046107530593872,4.897423583060064,0.0,0.29218822717666626,-1.5315011183368128,-1.4707732971255651e-33,-0.019724125042557716,0.9151336550712585,0.0,-0.015210270881652832,0.8304227590560913,3.064947668462992e-05,-0.043659012764692307
220.0,231.0,0.9278,-0.6921,9.3942,-0.0623,0.0052,-0.1092,-1.9012352428831996,0.0,3.4732117652893066,-1.6097859144210815,8.70630465215072e-05,2.080049514770508,4.897427680879392,0.0,0.28594499826431274,-1.5315302054034632,-4.093951981748823e-37,-0.0144712645560503,0.9151010513305664,0.0,-0.004230990540236235,0.8304145336151123,2.9159948098822497e-05,0.008530797436833382
220.0,231.0,0.9278,-0.6921,9.3942,-0.0623,0.0052,-0.1092,-1.9012114010252894,0.0,3.4552149772644043,-1.609814167022705,8.30462813610211e-05,2.0681798458099365,4.897455918579855,0.0,0.30011793971061707,-1.531513516102926,-1.1395639371582277e-40,-0.016324378550052643,0.9151087403297424,0.0,-0.0023032771423459053,0.8304429054260254,2.7808484446723014e-05,-0.015761137008666992
220.0,231.0,0.9278,-0.6921,9.3942,-0.0623,0.0052,-0.1092,-1.9011832676329554,0.0,3.4855949878692627,-1.6097301244735718,7.93838407844305e-05,2.0348706245422363,4.897435831814565,0.0,0.29035019874572754,-1.53151780763735,-3.2229864679470793e-44,-0.017806753516197205,0.9150530695915222,0.0,-0.0016084304079413414,0.8304269313812256,2.6576739401207305e-05,0.03044085204601288
220.0,231.0,0.9278,-0.6921,9.3942,-0.0623,0.0052,-0.1092,-1.9012114010252894,0.0,3.458678960800171,-1.6097222566604614,7.603082485729828e-05,2.092381000518799,4.8974153874214075,0.0,0.28699660301208496,-1.5315378347979944,-0.0,-0.016071323305368423,0.9151005148887634,0.0,-0.0027183699421584606,0.8303946256637573,3.382829163456336e-05,-0.028369272127747536
220.0,231.0,0.9278,-0.6921,9.3942,-0.0623,0.0052,-0.1092,-1.9011746845641078,0.0,3.4429574012756348,-1.6097580194473267,7.294952229131013e-05,2.077880382537842,4.897459986596861,0.0,0.30624282360076904,-1.5315011183368128,-0.0,-0.011077658273279667,0.9150967597961426,0.0,0.0013411559630185366,0.8304346799850464,3.662094968603924e-05,-0.03744008392095566
220.0,231.0,0.9278,-0.6921,9.3942,-0.0623,0.0052,-0.1092,-1.9012276134886683,0.0,3.470970630645752,-1.6097705364227295,7.01082608429715e-05,2.0567078590393066,4.897471922426977,0.0,0.2939799726009369,-1.531569782887594,-0.0,-0.017167218029499054,0.9151253700256348,0.0,0.0028573903255164623,0.8304145336151123,3.518915764288977e-05,-0.03895435482263565
220.0,231.0,0.9278,-0.6921,9.3942,-0.0623,0.0052,-0.1092,-1.9012319050230921,0.0,3.477351188659668,-1.6097460985183716,6.748002488166094e-05,2.058875799179077,4.897455918579855,0.0,0.29029417037963867,-1.5315540472613733,-0.0,-0.003098738379776478,0.9151092171669006,0.0,0.0002282672212459147,0.8304387331008911,3.386508979019709e-05,-0.0041127814911305904
220.0,231.0,0.9278,-0.6921,9.3942,-0.0623,0.0052,-0.1092,-1.9011746845641078,0.0,3.415555477142334,-1.6097545623779297,6.504172779386863e-05,2.0357208251953125,4.897431823402204,0.0,0.2902132272720337,-1.531569782887594,-0.0,-0.005660652182996273,0.9151092767715454,0.0,-0.010795604437589645,0.8304586410522461,3.263704275013879e-05,0.02854359894990921
220.0,231.0,0.9278,-0.6921,9.3942,-0.0623,0.0052,-0.1092,-1.9011789760985316,0.0,3.491227865219116,-1.6097899675369263,6.277349893935025e-05,2.077625274658203,4.897439929633894,0.0,0.27817845344543457,-1.5315054098712366,-0.0,-0.009347358718514442,0.915081262588501,0.0,-0.0066961608827114105,0.83045494556427,3.149494295939803e-05,0.023457005620002747
220.0,231.0,0.9278,-0.6921,9.3942,-0.0623,0.0052,-0.1092,-1.9012075863280238,0.0,3.451230525970459,-1.6097899675369263,5.998436245135963e-05,2.0583231449127197,4.897423583060064,0.0,0.27861279249191284,-1.5315216223346155,-0.0,-0.006871857680380344,0.9151086807250977,0.0,-0.00043407955672591925,0.8304023146629333,3.0090957807260565e-05,-0.03441662713885307
220.0,231.0,0.9278,-0.6921,9.3942,-0.0623,0.0052,-0.1092,-1.9012114010252894,0.0,3.4272379875183105,-1.6097899675369263,1.2436913721103338e-09,2.0889110565185547,4.897475975542822,0.0,0.29109907150268555,-1.5315454641925257,-0.0,-0.008514764718711376,0.9151050448417664,0.0,0.012391041964292526,0.8304228186607361,5.356571630699136e-09,-0.013003818690776825
220.0,231.0,0.9278,-0.6921,9.3942,-0.0623,0.0052,-0.1092,-1.9011832676329554,0.0,3.4442427158355713,-1.6097705364227295,3.0033683432763563e-15,2.0916051864624023,4.897427680879392,0.0,0.2995830178260803,-1.5315378347979944,-0.0,-0.007026337087154388,0.91512531042099,0.0,-0.0023720641620457172,0.8304305672645569,1.293549075904836e-14,-0.0318441316485405
221.0,230.0,0.7968,-0.5743,9.5085,-0.0466,0.0254,-0.1208,-1.9011665783324183,0.0,3.4580941200256348,-1.6097421646118164,7.252780195382468e-21,2.0804283618927,4.897435846715727,0.0,0.2912828326225281,-1.5315459410296839,-0.0,-0.01681756228208542,0.9150850176811218,0.0,0.011153696104884148,0.8303863406181335,3.123768419536948e-20,0.022755587473511696
221.0,230.0,0.7968,-0.5743,9.5085,-0.0466,0.0254,-0.1208,-1.9011832676329554,0.0,3.423323154449463,-1.6097625494003296,1.7514611833203606e-26,2.0685667991638184,4.89743189790801,0.0,0.2968078851699829,-1.5315621534930628,-0.0,-0.003423522925004363,0.9151336550712585,0.0,-0.005865859799087048,0.8304187059402466,7.543532326280084e-26,0.020362302660942078
221.0,230.0,0.7968,-0.5743,9.5085,-0.0466,0.0254,-0.1208,-1.9011627636351527,0.0,3.4553706645965576,-1.6097664833068848,4.229572672316566e-32,2.052550792694092,4.8974399147327325,0.0,0.3026255667209625,-1.5315378347979944,-0.0,-7.279682904481888e-05,0.915069043636322,0.0,-0.00235111266374588,0.8304627537727356,1.8216745275667616e-31,0.023861531168222427
221.0,230.0,0.7968,-0.5743,9.5085,-0.0466,0.0254,-0.1208,-1.9011913738646449,0.0,3.4907350540161133,-1.6097664833068848,1.0213921013500845e-37,2.036055564880371,4.8974399147327325,0.0,0.28361737728118896,-1.5315740744220179,-0.0,-0.012753907591104507,0.9151253700256348,0.0,-0.0037025215569883585,0.8304023742675781,4.399130124425796e-37,0.016255248337984085
221.0,230.0,0.7968,-0.5743,9.5085,-0.0466,0.0254,-0.1208,-1.9012195072569789,0.0,3.437422037124634,-1.6097301244735718,2.466285297211678e-43,2.1040139198303223,4.897460001498022,0.0,0.2860449254512787,-1.5315740744220179,-0.0,-0.01633642427623272,0.9151417016983032,0.0,-0.0104264747351408,0.8304346799850464,1.0621842359582113e-42,-0.004353033844381571
221.0,230.0,0.7968,-0.5743,9.5085,-0.0466,0.0254,-0.1208,-1.9012075863280238,0.0,3.4620871543884277,-1.6097625494003296,-0.0,2.1278200149536133,4.89743164458827,0.0,0.28327876329421997,-1.5315259138690394,-0.0,-0.011902008205652237,0.9151210784912109,0.0,0.01705292984843254,0.8304433226585388,0.0,-0.024615488946437836
221.0,230.0,0.7968,-0.5743,9.5085,-0.0466,0.0254,-0.1208,-1.9011665783324183,0.0,3.4640705585479736,-1.609853982925415,-0.0,2.0849692821502686,4.8974439976509,0.0,0.30578234791755676,-1.5315497557269495,-0.0,-0.02264886535704136,0.9151656627655029,0.0,0.000433953944593668,0.8303945660591125,0.0,-0.01499012392014265
221.0,230.0,0.7968,-0.5743,9.5085,-0.0466,0.0254,-0.1208,-1.9011746845641078,0.0,3.436400890350342,-1.6097818613052368,-0.0,2.054582357406616,4.89746783950881,0.0,0.2960300147533417,-1.5315659681903284,-0.0,-0.022607920691370964,0.9151377081871033,0.0,8.706779044587165e-05,0.8304305672645569,0.0,0.014629991725087166
221.0,230.0,0.7968,-0.5743,9.5085,-0.0466,0.0254,-0.1208,-1.9011956653990687,0.0,3.4910717010498047,-1.6097664833068848,-0.0,2.0582053661346436,4.8974636671836755,0.0,0.29882463812828064,-1.5315335432635706,-0.0,-0.009805816225707531,0.9151573181152344,0.0,0.010797195136547089,0.8304346799850464,0.0,-0.017607737332582474
221.0,230.0,0.7968,-0.5743,9.5085,-0.0466,0.0254,-0.1208,-1.9011627636351527,0.0,3.4642536640167236,-1.6097381114959717,-0.0,2.045238971710205,4.897447663336553,0.0,0.29216665029525757,-1.5315693060504358,-7.288976485142484e-05,-0.014621330425143242,0.9151496887207031,0.0,0.003447383875027299,0.8304868340492249,4.271680518286303e-05,-0.0208711139857769
221.0,230.0,0.7968,-0.5743,9.5085,-0.0466,0.0254,-0.1208,-1.9012156925597132,0.0,3.467017650604248,-1.6097301244735718,1.4593122159567429e-06,2.0333826541900635,4.897447663336553,0.0,0.30010703206062317,-1.5316179434405726,-7.29592502466403e-05,-0.0072797685861587524,0.9151051044464111,0.0,0.010847600176930428,0.8304988741874695,0.002622078638523817,-0.04176228493452072
221.0,230.0,0.7968,-0.5743,9.5085,-0.0466,0.0254,-0.1208,-1.9011427364745082,0.0,3.4865427017211914,-1.6096904277801514,0.0013108925195410848,2.074751377105713,4.897484171181478,0.0,0.29013171792030334,-1.5316017309771937,-6.851676880614832e-05,-0.0019366387277841568,0.9151450991630554,0.0,-0.004535255953669548,0.830559253692627,0.0029909349977970123,0.03461885452270508
221.0,230.0,0.7968,-0.5743,9.5085,-0.0466,0.0254,-0.1208,-1.9011627636351527,0.0,3.4452807903289795,-1.609694480895996,0.0013049092376604676,2.041499614715576,4.897475915938177,0.0,0.27904289960861206,-1.531609837208883,-7.851511327316985e-05,-0.011365437880158424,0.9150968194007874,0.0,-0.004129355773329735,0.8305548429489136,0.0037700566463172436,0.005469270050525665
221.0,230.0,0.7968,-0.5743,9.5085,-0.0466,0.0254,-0.1208,-1.9012037716307582,0.0,3.476475238800049,-1.6097023487091064,0.0014978408580645919,2.07844614982605,4.897479998856344,0.0,0.2831805944442749,-1.531614128743307,-8.788662671577185e-05,-0.012541576288640499,0.9151496887207031,0.0,0.013306597247719765,0.8305870294570923,0.006338114384561777,0.009352108463644981
221.0,230.0,0.7968,-0.5743,9.5085,-0.0466,0.0254,-0.1208,-1.9012400112547816,0.0,3.4700064659118652,-1.6097183227539062,0.0022041755728423595,2.120224952697754,4.897451403528013,0.0,0.28793641924858093,-1.531609837208883,-9.601021884009242e-05,0.0006045654881745577,0.9150926470756531,0.0,-0.010779665783047676,0.8306065797805786,0.009068334475159645,0.05703088641166687
222.0,235.0,0.7472,0.3799,9.4343,-0.0066,0.0174,-0.1391,-1.9011994800963343,0.0,3.490541458129883,-1.609694004058838,0.0018594409339129925,2.097712278366089,4.89746783950881,0.0,0.2887551486492157,-1.531637970601217,-9.269102883990854e-05,-0.0040306709706783295,0.915201723575592,0.0,0.003812786191701889,0.8306427001953125,0.009158124215900898,0.007633462082594633
222.0,235.0,0.7472,0.3799,9.4343,-0.0066,0.0174,-0.1391,-1.901187082330221,5.522024002857506e-05,3.4876983165740967,-1.609697937965393,0.0015099782031029463,2.0592234134674072,4.897471922426977,0.0,0.2939976453781128,-1.5315855185138147,-8.924439316615462e-05,-0.003717072308063507,0.915173351764679,0.0,-0.00483740633353591,0.8307468891143799,0.010135513730347157,0.03400842845439911
222.0,235.0,0.7472,0.3799,9.4343,-0.0066,0.0174,-0.1391,-1.9011956653990687,7.338808791246265e-05,3.487551212310791,-1.6097060441970825,0.0012974299024790525,2.0393733978271484,4.897464173823156,0.0,0.28352653980255127,-1.531614128743307,-8.604481990914792e-05,-0.016768990084528923,0.9151410460472107,0.0,-0.0013087047263979912,0.8308470249176025,0.012930468656122684,0.0019491496495902538
222.0,235.0,0.7472,0.3799,9.4343,-0.0066,0.0174,-0.1391,-1.9012395344176234,6.538961315527558e-05,3.4600236415863037,-1.609649658203125,0.0011668135412037373,2.0507216453552246,4.8974395273025415,0.0,0.28082767128944397,-1.5315974394427698,-8.306674135383219e-05,-0.006432841997593641,0.9151212573051453,0.0,-0.00394939910620451,0.8309273719787598,0.015172045677900314,-0.043706826865673065
222.0,235.0,0.7472,0.3799,9.4343,-0.0066,0.0174,-0.1391,-1.9012032947936,3.959708919865079e-05,3.426253318786621,-1.6096256971359253,0.0018927475903183222,2.1246140003204346,4.897431853204527,0.0,0.29383039474487305,-1.5316336790667933,-8.028790762182325e-05,-0.017276808619499207,0.9152053594589233,0.0,9.674276225268841e-05,0.830991268157959,0.01503930613398552,0.057226985692977905
222.0,235.0,0.7472,0.3799,9.4343,-0.0066,0.0174,-0.1391,-1.90122713665151,2.6843708837986924e-05,3.4655990600585938,-1.6096546649932861,0.004697025287896395,2.067246675491333,4.897488239198484,0.0,0.28413379192352295,-1.5316017309771937,-1.715814050839981e-07,-0.012077807448804379,0.9151290655136108,0.0,0.004679201170802116,0.8310592174530029,0.014698793180286884,0.04427345097064972
222.0,235.0,0.7472,0.3799,9.4343,-0.0066,0.0174,-0.1391,-1.9012352428831996,2.8935089630977018e-06,3.475860595703125,-1.6095541715621948,0.0072759827598929405,2.079580783843994,4.897475990443983,0.0,0.2710301876068115,-1.531593147908346,-4.776031306552575e-11,-0.024268196895718575,0.9150726199150085,0.0,0.0060830083675682545,0.8311754465103149,0.013925587758421898,0.07146888971328735
222.0,235.0,0.7472,0.3799,9.4343,-0.0066,0.0174,-0.1391,-1.901243349114889,6.987483942150208e-12,3.462028980255127,-1.6095784902572632,0.009506496600806713,2.117495536804199,4.897427740484037,0.0,0.2862938940525055,-1.5315974394427698,-1.3294256646055602e-14,-0.019097555428743362,0.9151172041893005,0.0,0.005295805633068085,0.8312435150146484,0.013721338473260403,0.026720117777585983
222.0,235.0,0.7472,0.3799,9.4343,-0.0066,0.0174,-0.1391,-1.901287694970602,-0.001357253990136087,3.437894344329834,-1.6094660758972168,0.009103002026677132,2.1170716285705566,4.897435846715727,0.0,0.29521846771240234,-1.5315573851214808,-3.7005049668192765e-18,-0.023215999826788902,0.915076732635498,0.0,0.002990064676851034,0.831319272518158,0.014762845821678638,0.05978751182556152
222.0,235.0,0.7472,0.3799,9.4343,-0.0066,0.0174,-0.1391,-1.901254793206686,-0.0025939580518752337,3.4518654346466064,-1.6094144582748413,0.006538545712828636,2.0790560245513916,4.897460001498022,0.0,0.2897034287452698,-1.5315774122821253,-1.0300491821365544e-21,-0.014838099479675293,0.915136992931366,0.0,0.014335552230477333,0.8314558267593384,0.016716381534934044,0.07971590757369995
222.0,235.0,0.7472,0.3799,9.4343,-0.0066,0.0174,-0.1391,-1.9012628994383753,-0.002610026625916362,3.4234488010406494,-1.609342336654663,0.0029328784439712763,2.0478742122650146,4.897424223809995,0.0,0.28261929750442505,-1.5315898100482386,-1.872063378661076e-26,-0.028853435069322586,0.9151811599731445,0.0,0.011836625635623932,0.8315317630767822,0.014551431871950626,0.07160672545433044
222.0,235.0,0.7472,0.3799,9.4343,-0.0066,0.0174,-0.1391,-1.90130676845693,-0.002238782122731209,3.3901255130767822,-1.6093860864639282,0.0014044921845197678,2.07185697555542,4.89743988493041,0.0,0.2848162055015564,-1.5315735975848597,-5.2109578055567785e-30,-0.02202882245182991,0.915173351764679,0.0,-0.0013940308708697557,0.8315755128860474,0.010806833393871784,0.06891520321369171
222.0,235.0,0.7472,0.3799,9.4343,-0.0066,0.0174,-0.1391,-1.9013029537596644,-0.0015520931920036674,3.4298439025878906,-1.6094059944152832,0.0008410229347646236,2.097939968109131,4.897448184877195,0.0,0.27562642097473145,-1.5315735975848597,-1.4504891319116688e-33,-0.01935940980911255,0.9151492118835449,0.0,0.004260142799466848,0.8316152691841125,0.005871893372386694,0.08750125020742416
222.0,235.0,0.7472,0.3799,9.4343,-0.0066,0.0174,-0.1391,-1.9013105831541957,-0.0016497562173753977,3.4719526767730713,-1.609358310699463,0.0006861277506686747,2.054636001586914,4.897431823402204,0.0,0.29438117146492004,-1.5315654913531702,-4.037490191400985e-37,-0.03551396727561951,0.9151651859283447,0.0,0.006117147859185934,0.8316074013710022,0.0020728951785713434,0.072971411049366
222.0,235.0,0.7472,0.3799,9.4343,-0.0066,0.0174,-0.1391,-1.9013592205443324,-0.0032005987595766783,3.439251661300659,-1.6094344854354858,0.0005335726891644299,2.0620956420898438,4.897392260819235,0.0,0.2824469804763794,-1.5315535704242151,-1.1238553813731465e-40,-0.024911843240261078,0.9152253270149231,0.0,0.0006443121237680316,0.8315507769584656,2.1687534172087908e-05,0.09225630760192871
214.0,227.0,1.1689,0.4092,9.1597,0.0137,0.0111,-0.1413,-1.9013506374754847,-0.0056081232614815235,3.410731315612793,-1.6093741655349731,0.00043650835868902504,2.0686235427856445,4.8974681971366785,0.0,0.2926139235496521,-1.5315898100482386,-3.0828566215145976e-44,-0.029032541438937187,0.9151005744934082,0.0,0.02081526815891266,0.8315711617469788,5.237284911308038e-11,0.06127516180276871
214.0,227.0,1.1689,0.4092,9.1597,0.0137,0.0111,-0.1413,-1.9014555416502894,-0.006921164691448212,3.417349338531494,-1.6093741655349731,0.0003693264734465629,2.0154378414154053,4.8974318383033655,0.0,0.2787255644798279,-1.5315535704242151,-0.0,-0.025618819519877434,0.9151086807250977,0.0,0.004173239227384329,0.8316235542297363,-0.0013384422054514289,0.080055832862854
214.0,227.0,1.1689,0.4092,9.1597,0.0137,0.0111,-0.1413,-1.9015113315977992,-0.006792171858251095,3.4599270820617676,-1.6093662977218628,0.00021279443171806633,2.0856733322143555,4.8974041668470285,0.0,0.2881191372871399,-1.531569782887594,-0.0,-0.02669644169509411,0.915185272693634,0.0,0.01705711893737316,0.8315755128860474,-0.0021073482930660248,0.011175176128745079
214.0,227.0,1.1689,0.4092,9.1597,0.0137,0.0111,-0.1413,-1.9015356502928675,-0.005307325161993504,3.4384682178497314,-1.6093623638153076,0.0002934818039648235,2.0641417503356934,4.897416177182951,0.0,0.30036526918411255,-1.5315497557269495,-0.0,-0.02171781100332737,0.9151774644851685,0.0,-0.005141910165548325,0.8315757513046265,-0.002904307097196579,0.02400473691523075
214.0,227.0,1.1689,0.4092,9.1597,0.0137,0.0111,-0.1413,-1.90155090908193,-0.0034266526345163584,3.46433687210083,-1.6093543767929077,0.0008432410540990531,2.095818042755127,4.897400158434667,0.0,0.2883031368255615,-1.5315817038165491,-0.0,-0.01951543428003788,0.9151816964149475,0.0,0.004486845340579748,0.831470787525177,-0.003195250639691949,0.052234161645174026
214.0,227.0,1.1689,0.4092,9.1597,0.0137,0.0111,-0.1413,-1.9015466175475062,-0.0018219168996438384,3.4198784828186035,-1.6094064712524414,0.001298916176892817,2.101754903793335,4.897435846715727,0.0,0.2737823724746704,-1.5315735975848597,-0.0,-0.019519437104463577,0.9151331782341003,0.0,0.009975122287869453,0.8314873576164246,-0.0030761195812374353,0.055343180894851685
214.0,227.0,1.1689,0.4092,9.1597,0.0137,0.0111,-0.1413,-1.9015552006163539,-0.001115306164138019,3.4448800086975098,-1.6093060970306396,0.0013392588589340448,2.0393261909484863,4.897412332683363,0.0,0.2857213318347931,-1.5315573851214808,-0.0,-0.019591782242059708,0.915113091468811,0.0,0.0028192964382469654,0.8314753174781799,-0.0023517163936048746,0.05006568878889084
214.0,227.0,1.1689,0.4092,9.1597,0.0137,0.0111,-0.1413,-1.9015146694579066,-0.0007612333283759654,3.4097070693969727,-1.6093026399612427,0.0013557971687987447,2.065678119659424,4.8974123177822015,0.0,0.288273423910141,-1.5315659681903284,-2.0743173081427813e-05,-0.021181557327508926,0.9151573181152344,0.0,-0.007087244652211666,0.8314470648765564,-0.0019411381799727678,0.01745426468551159
214.0,227.0,1.1689,0.4092,9.1597,0.0137,0.0111,-0.1413,-1.901510854760641,-0.0005778697086498141,3.4565017223358154,-1.609338402748108,0.0018351085018366575,2.0656628608703613,4.897392216115751,0.0,0.2937813401222229,-1.5315817038165491,-2.000534368562512e-05,-0.016351133584976196,0.9150846004486084,0.0,0.011113949120044708,0.8314511775970459,-0.002271299948915839,0.04545007646083832
214.0,227.0,1.1689,0.4092,9.1597,0.0137,0.0111,-0.1413,-1.9014903507628382,-0.00043741060653701425,3.4509825706481934,-1.609330177307129,0.0025562667287886143,2.1038818359375,4.897456261306562,0.0,0.2787930369377136,-1.5315659681903284,-1.4150409732849312e-09,-0.008327366784214973,0.9151331782341003,0.0,0.003727538976818323,0.8314112424850464,-0.002347370842471719,0.049772053956985474
214.0,227.0,1.1689,0.4092,9.1597,0.0137,0.0111,-0.1413,-1.9015270672240199,-0.0003699718217831105,3.479015827178955,-1.6093064546585083,0.0033127618953585625,2.0692334175109863,4.897404151945867,0.0,0.29012444615364075,-1.53154164949526,-3.938818401213323e-13,-0.01621457003057003,0.9151492118835449,0.0,0.011775857768952847,0.8314236402511597,-0.002332607051357627,0.06380648165941238
214.0,227.0,1.1689,0.4092,9.1597,0.0137,0.0111,-0.1413,-1.901538988152975,-0.00032055334304459393,3.467634916305542,-1.6092381477355957,0.00417522294446826,2.025582790374756,4.897416490107336,0.0,0.2980037331581116,-1.5315054098712366,-1.0963844915004914e-16,-0.018773473799228668,0.9151529669761658,0.0,0.001956602791324258,0.8314073085784912,-0.0020783699583262205,0.025731012225151062
214.0,227.0,1.1689,0.4092,9.1597,0.0137,0.0111,-0.1413,-1.9015432796873988,-0.00028278131503611803,3.4694159030914307,-1.6092220544815063,0.0038410956040024757,2.095149040222168,4.897375899344244,0.0,0.29242968559265137,-1.531557861958639,-3.0518263244647094e-20,-0.0209205262362957,0.9151491522789001,0.0,0.009665964171290398,0.8314195871353149,-0.0015488616190850735,0.057802166789770126
214.0,227.0,1.1689,0.4092,9.1597,0.0137,0.0111,-0.1413,-1.901538988152975,-0.00016750831855461001,3.4782350063323975,-1.6092143058776855,0.0035916026681661606,2.060715675354004,4.897400486260214,0.0,0.2909122705459595,-1.53151780763735,-8.494870745977812e-24,-0.01325932890176773,0.9151614308357239,0.0,-0.000902476953342557,0.8314113616943359,-0.0012717406498268247,0.04521331936120987
218.0,235.0,0.7083,-0.749,9.4098,-0.0255,0.0305,-0.1199,-1.901562830010885,-0.00023042684188112617,3.4592208862304688,-1.6091865301132202,0.002935414668172598,2.1084108352661133,4.897368165641584,-0.00047761466703377664,0.2766653895378113,-1.5315216223346155,-2.3645787855559005e-27,-0.007086575496941805,0.9151611328125,0.0,-0.000989886000752449,0.8313912749290466,-0.0010358239524066448,0.04488973319530487
218.0,235.0,0.7083,-0.749,9.4098,-0.0255,0.0305,-0.1199,-1.9015428028502406,-0.0009437804110348225,3.4373550415039062,-1.6091865301132202,0.0019926379900425673,2.0687477588653564,4.897360312729635,-0.0008352196891792119,0.29840514063835144,-1.531529728566305,-6.581892856412318e-31,-0.012644201517105103,0.9151651859283447,0.0,-0.003110427875071764,0.8313632607460022,-0.000886643654666841,-0.009790907613933086
218.0,235.0,0.7083,-0.749,9.4098,-0.0255,0.0305,-0.1199,-1.9015823803343714,-0.002051945310086012,3.4255197048187256,-1.6091656684875488,0.0012361359549686313,2.041991710662842,4.897344308882513,-0.0008234442211687565,0.29271817207336426,-1.5315421263324183,-1.8320940415341832e-34,-0.015084347687661648,0.9152539968490601,0.0,0.0036028879694640636,0.8313511610031128,-0.0005950837512500584,0.005601780489087105
218.0,235.0,0.7083,-0.749,9.4098,-0.0255,0.0305,-0.1199,-1.9015823803343714,-0.0018684606766328216,3.445378303527832,-1.609154224395752,0.0009676369372755289,2.0597407817840576,4.89738458672122,-0.0006780835101380944,0.27784785628318787,-1.5315092245685022,-5.09970178070522e-38,-0.012403370812535286,0.9151651859283447,0.0,0.009808607399463654,0.831342875957489,-0.0005111754289828241,-0.006347740069031715
218.0,235.0,0.7083,-0.749,9.4098,-0.0255,0.0305,-0.1199,-1.9015823803343714,-0.0019132198067381978,3.4327445030212402,-1.6091700792312622,0.0006390280905179679,2.0551578998565674,4.897344308882513,-0.0005799995269626379,0.27991214394569397,-1.5315540472613733,-1.4195153443610397e-41,-0.004115651827305555,0.9151532649993896,0.0,0.008653284050524235,0.8313990235328674,-0.00039808571455068886,-0.0020576901733875275
218.0,235.0,0.7083,-0.749,9.4098,-0.0255,0.0305,-0.1199,-1.9016467533507289,-0.001968910451978445,3.416323184967041,-1.6091901063919067,0.0006232823943719268,2.0365676879882812,4.897320228606024,-0.0005854199989698827,0.2823396921157837,-1.5315421263324183,-4.203895392974451e-45,-0.013992523774504662,0.9151172041893005,0.0,-0.010641813278198242,0.8314031362533569,-0.0002904149005189538,-0.015348939225077629
218.0,235.0,0.7083,-0.749,9.4098,-0.0255,0.0305,-0.1199,-1.9016667805113734,-0.0023095067590475082,3.486052989959717,-1.6091381311416626,0.0005586020997725427,2.0313687324523926,4.897336217551985,-0.0005945740267634392,0.27796632051467896,-1.5314815680133265,-0.0,-0.022593898698687553,0.9151934385299683,0.0,0.0034164213575422764,0.8314478397369385,-0.00022999195789452642,-0.022095395252108574
218.0,235.0,0.7083,-0.749,9.4098,-0.0255,0.0305,-0.1199,-1.901698728600973,-0.0029007054399698973,3.4461731910705566,-1.6092145442962646,0.0005316706956364214,2.067936897277832,4.897336232453146,-0.0005289798718877137,0.26781725883483887,-1.531513516102926,-0.0,-0.010359294712543488,0.9151450991630554,0.0,0.025887146592140198,0.831427276134491,-0.00015959725715219975,-0.005313127301633358
218.0,235.0,0.7083,-0.749,9.4098,-0.0255,0.0305,-0.1199,-1.9017235241331996,-0.0038533732295036316,3.445413112640381,-1.6091541051864624,0.0005866480059921741,2.0580804347991943,4.8973086206014536,-0.0004591765464283526,0.27379173040390015,-1.5315621534930628,-0.0,-0.003944713622331619,0.9151086807250977,0.0,0.003906554076820612,0.8314031362533569,-0.00013550934090744704,-0.000588477123528719
218.0,235.0,0.7083,-0.749,9.4098,-0.0255,0.0305,-0.1199,-1.9017230472960414,-0.005233799573034048,3.385150909423828,-1.6091581583023071,0.0005336993490345776,2.0157573223114014,4.897368567972936,-0.0003561215999070555,0.2800162136554718,-1.5315497557269495,-0.0,-0.001280154101550579,0.9151689410209656,0.0,0.010261441580951214,0.8314313888549805,-0.00012175932351965457,-0.07388202846050262
218.0,235.0,0.7083,-0.749,9.4098,-0.0255,0.0305,-0.1199,-1.901811262170309,-0.005974777974188328,3.398139715194702,-1.6091099977493286,0.0005481852567754686,2.066049575805664,4.897308605700292,-0.0002877299557439983,0.2652161121368408,-1.531557861958639,-0.0,-0.00874565914273262,0.9150883555412292,0.0,-0.010307226330041885,0.8314517140388489,-0.00011054278729716316,-0.03134286403656006
218.0,235.0,0.7083,-0.749,9.4098,-0.0255,0.0305,-0.1199,-1.90179504970693,-0.00666205957531929,3.411504030227661,-1.609166145324707,0.000575573998503387,2.0254688262939453,4.8973606554563425,-0.00028966739773750305,0.2722317576408386,-1.531513516102926,-0.0,-0.009619506075978279,0.9151331782341003,0.0,0.003085543867200613,0.8313949108123779,-7.591403846163303e-05,-0.0631614476442337
218.0,235.0,0.7083,-0.749,9.4098,-0.0255,0.0305,-0.1199,-1.9018141231932582,-0.00708314822986722,3.4334397315979004,-1.6091581583023071,0.0005166272167116404,2.1250553131103516,4.897340315371313,-0.00024951514205895364,0.2807927131652832,-1.5315216223346155,-0.0,-0.009420178830623627,0.9151570200920105,0.0,0.008899923413991928,0.8313949108123779,-7.000865298323333e-05,-0.06705555319786072
218.0,235.0,0.7083,-0.749,9.4098,-0.0255,0.0305,-0.1199,-1.901886602441305,-0.00809142179787159,3.406602382659912,-1.6091423034667969,0.00047392555279657245,2.10746693611145,4.897336232453146,-0.00024612771812826395,0.28152576088905334,-1.5315540472613733,-0.0,-0.003081132657825947,0.9151971936225891,0.0,0.006059519946575165,0.8314236402511597,-8.406936103710905e-05,-0.0596747100353241
218.0,235.0,0.7083,-0.749,9.4098,-0.0255,0.0305,-0.1199,-1.901971002618307,-0.009148983284831047,3.4120383262634277,-1.6091099977493286,0.00041026700637303293,2.0791640281677246,4.897300365358152,-0.00022790174989495426,0.2733972668647766,-1.531513516102926,-0.0,0.000298235536320135,0.9151331186294556,0.0,0.004182713106274605,0.8313830494880676,-8.077780512394384e-05,-0.06501504778862
215.0,226.0,1.0187,-0.4648,9.3697,-0.0351,0.0228,-0.1147,-1.9019581280150355,-0.009831750765442848,3.4334182739257812,-1.6091783046722412,0.0003223956155125052,2.1008403301239014,4.897324311524191,-0.00020558973483275622,0.28431838750839233,-1.5315092245685022,-0.0,-0.004613832570612431,0.91512131690979,0.0,0.012089280411601067,0.8314236402511597,-7.568324508611113e-05,-0.03376768156886101
215.0,226.0,1.0187,-0.4648,9.3697,-0.0351,0.0228,-0.1147,-1.9020830593504847,-0.010609522461891174,3.3752636909484863,-1.6091383695602417,0.0002653526607900858,2.0646474361419678,4.897408726602354,-0.0001872557186288759,0.2707858085632324,-1.531513516102926,-0.0,-0.003161951433867216,0.9151492118835449,2.288681422157879e-08,0.011512044817209244,0.8314558267593384,-2.2045656805858016e-05,-0.03803927078843117
215.0,226.0,1.0187,-0.4648,9.3697,-0.0351,0.0228,-0.1147,-1.90211882213735,-0.010778944008052349,3.3557682037353516,-1.6091382503509521,0.00022546252876054496,2.071777582168579,4.897380459099569,-0.00017192406812682748,0.2744905352592468,-1.5315621534930628,-0.0,-0.010352366603910923,0.9152210354804993,6.370629718199794e-12,0.019440175965428352,0.8313871026039124,-1.874661938927602e-05,-0.07976824790239334
215.0,226.0,1.0187,-0.4648,9.3697,-0.0351,0.0228,-0.1147,-1.902142187158102,-0.011220228858292103,3.3844752311706543,-1.6091018915176392,0.0002351988514419645,2.0627756118774414,4.897352593928137,-0.00015891334624029696,0.2752068042755127,-1.5315340201007288,-0.0,-6.559654138982296e-05,0.9151931405067444,1.773288250790585e-15,0.009548312053084373,0.8313912749290466,-1.7644068066147156e-05,-0.05998611822724342
215.0,226.0,1.0187,-0.4648,9.3697,-0.0351,0.0228,-0.1147,-1.9022628269591273,-0.012101934291422367,3.4060752391815186,-1.6091622114181519,0.00020801718346774578,2.0679008960723877,4.897360357433119,-0.00014773347356822342,0.28112515807151794,-1.53151780763735,-0.0,-0.013808414340019226,0.9151209592819214,4.93601263880872e-19,0.011912532150745392,0.8313949704170227,-3.33278912876267e-05,-0.06845888495445251
215.0,226.0,1.0187,-0.4648,9.3697,-0.0351,0.0228,-0.1147,-1.9022981129088343,-0.011603624559938908,3.3636794090270996,-1.60910964012146,0.00020687525102403015,2.024137020111084,4.8973562745149515,-0.00013802316971123219,0.27929922938346863,-1.5315302054034632,-0.0,-0.017937183380126953,0.915225088596344,1.3739573977927534e-22,0.012630399316549301,0.8313709497451782,-3.157419996568933e-05,0.01792016625404358
215.0,226.0,1.0187,-0.4648,9.3697,-0.0351,0.0228,-0.1147,-1.9023858509459437,-0.011445039883255959,3.367804527282715,-1.6091344356536865,0.00022414773411583155,2.1142876148223877,4.897311958461561,-0.00012951095413882285,0.29106438159942627,-1.5315497557269495,-0.0,-0.01967310719192028,0.9151692390441895,3.824460839013641e-26,0.014913917519152164,0.8314036130905151,-2.999574462592136e-05,-0.05311369150876999
215.0,226.0,1.0187,-0.4648,9.3697,-0.0351,0.0228,-0.1147,-1.9024821720519007,-0.012912604957818985,3.3534014225006104,-1.6091423034667969,0.00023081105609890074,2.0463027954101562,4.8973320601280115,-0.00011967022146563977,0.2821611762046814,-1.531513516102926,-0.0,-0.001676470972597599,0.9151890277862549,6.950767685677755e-31,0.02693210169672966,0.8313830494880676,-3.7377987609943375e-05,-0.03656725957989693
215.0,226.0,1.0187,-0.4648,9.3697,-0.0351,0.0228,-0.1147,-1.9025660953917445,-0.012588094919919968,3.3869857788085938,-1.6091582775115967,0.0007384400232695043,2.0989766120910645,4.897344308882513,-0.00011321826605126262,0.27928847074508667,-1.53151780763735,-0.0,-0.005472604185342789,0.9151410460472107,1.934771636368587e-34,0.009336916729807854,0.8314031362533569,-4.02934274461586e-05,-0.044236648827791214
215.0,226.0,1.0187,-0.4648,9.3697,-0.0351,0.0228,-0.1147,-1.9026667080321253,-0.013363244943320751,3.3717398643493652,-1.6091384887695312,0.0013465004740282893,2.0608906745910645,4.897344308882513,-0.00010742658196249977,0.2734949588775635,-1.5315092245685022,-0.0,-0.016575591638684273,0.9151730537414551,5.385508373411367e-38,0.021087460219860077,0.8314237594604492,-5.091012644697912e-05,-0.03502863645553589
215.0,226.0,1.0187,-0.4648,9.3697,-0.0351,0.0228,-0.1147,-1.9027258358397425,-0.013570480979979038,3.3697495460510254,-1.6090902090072632,0.0016982897650450468,2.10377836227417,4.897320228606024,-0.00010219854448223487,0.2895832657814026,-1.5315621534930628,-0.0,-0.006533387117087841,0.9152336120605469,1.4991090971346893e-41,0.03549996390938759,0.8314396739006042,-4.930943759973161e-05,-0.058319270610809326
215.0,226.0,1.0187,-0.4648,9.3697,-0.0351,0.0228,-0.1147,-1.9028221569456996,-0.014138313010334969,3.388680934906006,-1.6090459823608398,0.002507992321625352,2.117335081100464,4.89734839180068,-9.745565330376849e-05,0.2872058153152466,-1.531489674245016,-0.0,-0.007279877085238695,0.9151931405067444,0.00012312535545788705,0.019158337265253067,0.8313915729522705,-0.00014071748591959476,-0.04667920991778374
215.0,226.0,1.0187,-0.4648,9.3697,-0.0351,0.0228,-0.1147,-1.9028741321959437,-0.014585821889340878,3.3586411476135254,-1.6090785264968872,0.003048043232411146,2.0696632862091064,4.8973804143960855,-9.313362534157932e-05,0.29003065824508667,-1.531529728566305,-0.0,-0.004268381278961897,0.9151729941368103,0.00012687932758126408,0.024669617414474487,0.8314236402511597,-0.000129753680084832,-0.07302850484848022
215.0,226.0,1.0187,-0.4648,9.3697,-0.0351,0.0228,-0.1147,-1.9029737911620082,-0.014430916868150234,3.3486318588256836,-1.609038233757019,0.0036778429057449102,2.063593864440918,4.897364395647802,-8.917858212953433e-05,0.2809132933616638,-1.5315378347979944,-0.0,-0.0012885878095403314,0.9151648283004761,0.0001169870956800878,0.02409810572862625,0.8314073085784912,-0.00011942312266910449,-0.05939695984125137
215.0,226.0,1.0187,-0.4648,9.3697,-0.0351,0.0228,-0.1147,-1.9030572376646937,-0.014680545777082443,3.3362889289855957,-1.6089781522750854,0.0048929378390312195,2.0525875091552734,4.897364395647802,-8.554583473596722e-05,0.3007882237434387,-1.5315216223346155,-0.0,-0.017750004306435585,0.9151610732078552,0.00010852274135686457,0.03588841110467911,0.8314276933670044,-8.879729284672067e-05,-0.01111619547009468
226.0,235.0,0.7962,-0.7041,9.4343,-0.0435,0.0125,-0.1168,-1.9032265148558558,-0.015327710658311844,3.3509488105773926,-1.6089619398117065,0.004918994382023811,2.0655646324157715,4.897392678051748,-8.219748269766569e-05,0.2747187912464142,-1.5315259138690394,-0.0,-0.007063459139317274,0.9151890277862549,0.00010120047954842448,0.017680851742625237,0.8313673138618469,-8.241531031671911e-05,-0.089057058095932
226.0,235.0,0.7962,-0.7041,9.4343,-0.0435,0.0125,-0.1168,-1.9032699070372523,-0.01581050455570221,3.356085777282715,-1.608969807624817,0.005501755513250828,2.1415061950683594,4.897380429297247,-7.91013371781446e-05,0.2796517014503479,-1.5315497557269495,-0.0,-0.01664169505238533,0.9151849746704102,0.0001131222743424587,0.03210294246673584,0.8313953876495361,-7.711886428296566e-05,-0.07840017974376678
226.0,235.0,0.7962,-0.7041,9.4343,-0.0435,0.0125,-0.1168,-1.9033733807005824,-0.01649511232972145,3.339552879333496,-1.6089423894882202,0.005085790995508432,2.0706639289855957,4.8973804143960855,-7.622996054124087e-05,0.29387366771698,-1.5315740744220179,-0.0,-0.008433898910880089,0.9151931405067444,0.00010700165876187384,0.027004815638065338,0.8313709497451782,-7.24620622349903e-05,-0.07241736352443695
226.0,235.0,0.7962,-0.7041,9.4343,-0.0435,0.0125,-0.1168,-1.9034372768797816,-0.016445700079202652,3.3765065670013428,-1.6088982820510864,0.005369424819946289,2.1173510551452637,4.897324311524191,-7.3559807788115e-05,0.2869965434074402,-1.5315216223346155,-0.0,-0.01826239749789238,0.9152296185493469,0.00010099782230099663,0.01706724986433983,0.8314073085784912,-6.833569204900414e-05,-0.0806894302368164
226.0,235.0,0.7962,-0.7041,9.4343,-0.0435,0.0125,-0.1168,-1.9035493336119593,-0.016448330134153366,3.3152143955230713,-1.6088417768478394,0.005885872524231672,2.0657973289489746,4.897324311524191,-7.107038982212543e-05,0.2694809138774872,-1.5315383116351526,-0.0,-0.003530040616169572,0.9151369333267212,9.563186176819727e-05,0.02934051677584648,0.8313912749290466,-6.465391925303265e-05,-0.07913023233413696
226.0,235.0,0.7962,-0.7041,9.4343,-0.0435,0.0125,-0.1168,-1.9037219486632289,-0.017112301662564278,3.360114812850952,-1.608822226524353,0.005915612913668156,2.060640335083008,4.897344308882513,-2.300269898114493e-06,0.2903737723827362,-1.5315092245685022,-0.0,-0.002404991537332535,0.915185272693634,9.080723248189315e-05,0.00952831283211708,0.8314195871353149,-3.212836236343719e-05,-0.04327533021569252
226.0,235.0,0.7962,-0.7041,9.4343,-0.0435,0.0125,-0.1168,-1.9038454494872035,-0.01750384271144867,3.3475778102874756,-1.6087901592254639,0.006689977366477251,2.0563113689422607,4.897340315371313,-4.1806273720634834e-11,0.2861711382865906,-1.531473461781637,-0.0,0.0036712954752147198,0.9151885509490967,8.508404425811023e-05,0.028634823858737946,0.8314313888549805,-5.291688648867421e-05,-0.07657545804977417
226.0,235.0,0.7962,-0.7041,9.4343,-0.0435,0.0125,-0.1168,-1.9038893185057582,-0.01813514158129692,3.330397844314575,-1.6087499856948853,0.007014700211584568,2.0715160369873047,4.897340300470152,-1.163692995860121e-14,0.2767924964427948,-1.5315054098712366,-0.0,-0.00945322122424841,0.9151524901390076,8.124368468998e-05,0.017753180116415024,0.8314031362533569,-7.706940959906206e-05,-0.0997556746006012
226.0,235.0,0.7962,-0.7041,9.4343,-0.0435,0.0125,-0.1168,-1.9040290317931117,-0.017930716276168823,3.294738292694092,-1.6086983680725098,0.00703522888943553,2.087672710418701,4.897360670357504,-3.2391822032953902e-18,0.28636714816093445,-1.531513516102926,-0.0,-0.013136127963662148,0.9152210354804993,9.057892020791769e-05,0.01813511550426483,0.8313953876495361,-0.0004412630805745721,-0.10610280930995941
226.0,235.0,0.7962,-0.7041,9.4343,-0.0435,0.0125,-0.1168,-1.904161115685934,-0.01749224029481411,3.3213741779327393,-1.6086663007736206,0.008081594482064247,2.112057685852051,4.897308665304937,-9.016382777669333e-22,0.27380797266960144,-1.53151780763735,-0.0,-0.005137264262884855,0.9152292013168335,8.693637937540188e-05,0.02742455154657364,0.8313797116279602,-0.001134723424911499,-0.13254514336585999
226.0,235.0,0.7962,-0.7041,9.4343,-0.0435,0.0125,-0.1168,-1.9042450390257777,-0.016209114342927933,3.2986128330230713,-1.6085822582244873,0.009787765331566334,2.072179079055786,4.897348421603002,-2.5097434671093145e-25,0.27331575751304626,-1.5315340201007288,-0.0,0.003140223678201437,0.9152417182922363,8.34805250633508e-05,0.020951565355062485,0.8313187956809998,-0.001455302583053708,-0.08615611493587494
226.0,235.0,0.7962,-0.7041,9.4343,-0.0435,0.0125,-0.1168,-1.9043451748290003,-0.014594683423638344,3.296966075897217,-1.6085901260375977,0.010992084629833698,2.127345561981201,4.897352564125814,-6.985961798462278e-29,0.2819722592830658,-1.5315092245685022,-0.0,-0.0018294116016477346,0.9151890277862549,8.028876618482172e-05,0.018340323120355606,0.831403911113739,-0.0017171025974676013,-0.08139608055353165
226.0,235.0,0.7962,-0.7041,9.4343,-0.0435,0.0125,-0.1168,-1.9044410190977992,-0.012249571271240711,3.282539129257202,-1.6084702014923096,0.012095867656171322,2.108874797821045,4.8973320601280115,-1.944568729750668e-32,0.2758524715900421,-1.5315216223346155,-0.0,-0.005358543712645769,0.9152655005455017,7.73321371525526e-05,0.02313951961696148,0.831403911113739,-0.002186595695093274,-0.09714609384536743
226.0,235.0,0.7962,-0.7041,9.4343,-0.0435,0.0125,-0.1168,-1.9045130215086878,-0.010129298083484173,3.3018641471862793,-1.6084340810775757,0.011316836811602116,2.1021406650543213,4.89734839180068,-5.412778762565899e-36,0.2808610498905182,-1.5314653555499476,-0.0,-0.00012833205983042717,0.9151730537414551,7.45855868444778e-05,0.023086082190275192,0.8313838243484497,-0.0023899234365671873,-0.12573331594467163
230.0,248.0,1.1192,-0.5833,9.7137,-0.0328,0.0272,-0.1217,-1.9045731029906214,-0.008105485700070858,3.342491626739502,-1.608398675918579,0.012461689300835133,2.077181816101074,4.8973320601280115,-1.506666299752793e-39,0.27736884355545044,-1.5314815680133265,2.4942838905417375e-08,0.006672017741948366,0.9152331948280334,7.202739652711898e-05,0.026684287935495377,0.8313113451004028,-0.002966639818623662,-0.09779061377048492
230.0,248.0,1.1192,-0.5833,9.7137,-0.0328,0.0272,-0.1217,-1.9046212635436,-0.00667034974321723,3.308708667755127,-1.6082745790481567,0.013689499348402023,2.087435245513916,4.897344308882513,-4.189882408331203e-43,0.2788732051849365,-1.5315302054034632,6.942931039116695e-12,0.0021411229390650988,0.9152085781097412,6.963884516153485e-05,0.019856993108987808,0.8313233852386475,-0.0031432483810931444,-0.0967746302485466
230.0,248.0,1.1192,-0.5833,9.7137,-0.0328,0.0272,-0.1217,-1.90464510540151,-0.004442290868610144,3.3218576908111572,-1.6082305908203125,0.014761178754270077,2.1199076175689697,4.897360312729635,-0.0,0.27161872386932373,-1.5315383116351526,1.9325903724554117e-15,-0.00534900464117527,0.9152169227600098,1.9384227556429323e-08,0.034856878221035004,0.8312633037567139,-0.003737483639270067,-0.14132378995418549
230.0,248.0,1.1192,-0.5833,9.7137,-0.0328,0.0272,-0.1217,-1.9046327076353968,-0.0025045599322766066,3.2903220653533936,-1.6081223487854004,0.016471538692712784,2.144503593444824,4.897364395647802,-0.0,0.2724962830543518,-1.5314772764789026,5.379436247852724e-19,-0.005552578251808882,0.9152091145515442,5.39567132293306e-12,0.038907427340745926,0.831259548664093,-0.004707306157797575,-0.12877903878688812
230.0,248.0,1.1192,-0.5833,9.7137,-0.0328,0.0272,-0.1217,-1.9046207867064417,-0.0014343260554596782,3.3282365798950195,-1.6080265045166016,0.018348880112171173,2.0628855228424072,4.897392335325041,-0.0,0.27813252806663513,-1.5315216223346155,1.4973858566849986e-22,-0.004365737084299326,0.9151648879051208,1.5019049296000563e-15,0.02020779438316822,0.83122718334198,-0.0048569380305707455,-0.12167664617300034
230.0,248.0,1.1192,-0.5833,9.7137,-0.0328,0.0272,-0.1217,-1.9045921764769496,-0.0008348199189640582,3.2971839904785156,-1.6078581809997559,0.022130059078335762,2.143712043762207,4.897344308882513,-0.0,0.27747082710266113,-1.5315259138690394,2.7214252930806728e-27,-0.0045270537957549095,0.915136992931366,2.729638183405598e-20,0.028271615505218506,0.8312114477157593,-0.005328513216227293,-0.08302298188209534
230.0,248.0,1.1192,-0.5833,9.7137,-0.0328,0.0272,-0.1217,-1.9046246014037074,-0.0005972528015263379,3.3450205326080322,-1.607718586921692,0.025736499577760696,2.0947484970092773,4.897360312729635,-2.4908372253662492e-08,0.2804940342903137,-1.5315020720111292,7.5751869934503715e-31,-0.016285989433526993,0.915237545967102,7.598047126129158e-24,0.030551768839359283,0.8311833739280701,-0.005175192840397358,-0.10274975001811981
230.0,248.0,1.1192,-0.5833,9.7137,-0.0328,0.0272,-0.1217,-1.904684682885641,-0.00046496823779307306,3.2944841384887695,-1.607530117034912,0.03056246228516102,2.089292049407959,4.897340240865507,-6.933338018294544e-12,0.28912055492401123,-1.5315340201007288,2.108581333107124e-34,-0.0039006206206977367,0.9151729941368103,2.114944560989288e-27,0.028791436925530434,0.8310865163803101,-0.004813787993043661,-0.10495666414499283
230.0,248.0,1.1192,-0.5833,9.7137,-0.0328,0.0272,-0.1217,-1.9045845470824183,-0.0003806665481533855,3.324559211730957,-1.607371211051941,0.035473182797431946,2.132082223892212,4.897356244712629,-1.9299201010891925e-15,0.2901001572608948,-1.5315340201007288,5.869313394452138e-38,-0.009388825856149197,0.915148913860321,5.887027582788142e-31,0.032686688005924225,0.8310831785202026,-0.004644232336431742,-0.10782608389854431
230.0,248.0,1.1192,-0.5833,9.7137,-0.0328,0.0272,-0.1217,-1.9046765766539515,-0.0003222456434741616,3.3309051990509033,-1.6070410013198853,0.04071294516324997,2.170302391052246,4.897331926017561,-5.372003513061052e-19,0.2736070454120636,-1.5315302054034632,1.6337738795563042e-41,-0.014017143286764622,0.91520094871521,1.6386759740391022e-34,0.029603321105241776,0.8311115503311157,-0.004038551356643438,-0.1528533697128296
230.0,248.0,1.1192,-0.5833,9.7137,-0.0328,0.0272,-0.1217,-1.9046369991698207,-0.0002793727326206863,3.3259224891662598,-1.6068904399871826,0.04659662023186684,2.1558473110198975,4.897352549224653,-1.4953168954116574e-22,0.28878599405288696,-1.5315216223346155,4.203895392974451e-45,-0.02166464552283287,0.9151890277862549,4.561314783180532e-38,0.03767181560397148,0.8310511708259583,-0.003642994211986661,-0.11604452133178711
230.0,248.0,1.1192,-0.5833,9.7137,-0.0328,0.0272,-0.1217,-1.9046689472594203,-0.00024656826280988753,3.308215618133545,-1.6065946817398071,0.052705273032188416,2.183544397354126,4.897396418243208,-4.1622695675567445e-26,0.27992039918899536,-1.5315020720111292,0.0,0.009173793718218803,0.915144681930542,1.2697165385247167e-41,0.00884660892188549,0.8310189843177795,-0.0035339812748134136,-0.13338103890419006
230.0,248.0,1.1192,-0.5833,9.7137,-0.0328,0.0272,-0.1217,-1.9046489200987757,-0.00022065913071855903,3.3485052585601807,-1.6062055826187134,0.057747431099414825,2.1965231895446777,4.897396388440885,-1.1585831060461601e-29,0.2979707419872284,-1.5315302054034632,0.0,-0.015716703608632088,0.9152292013168335,4.203895392974451e-45,0.023758240044116974,0.8309948444366455,-0.0032992896158248186,-0.06830025464296341
230.0,248.0,1.1192,-0.5833,9.7137,-0.0328,0.0272,-0.1217,-1.9045845470824183,-0.00022820044250693172,3.3174476623535156,-1.6058460474014282,0.065668486058712,2.1599183082580566,4.897388237505712,-3.2249592005893453e-33,0.30430886149406433,-1.531557861958639,0.0,-0.006761053577065468,0.9151931405067444,0.0,0.014049617573618889,0.8309788107872009,-0.003013680223375559,-0.1331096589565277
230.0,248.0,1.1192,-0.5833,9.7137,-0.0328,0.0272,-0.1217,-1.904616495172018,-0.00014135500532574952,3.333784818649292,-1.6054503917694092,0.07188031822443008,2.214717388153076,4.8973804143960855,-8.976791502608186e-37,0.27785933017730713,-1.5314858595477503,0.0,-0.030539654195308685,0.9151808619499207,0.0,0.02394496276974678,0.8310072422027588,-0.002819513902068138,-0.16871997714042664
232.0,230.0,1.051,-0.7651,9.947,-0.0301,0.0814,-0.1246,-1.9046522579588832,-0.00014527482562698424,3.3130459785461426,-1.6050071716308594,0.07605287432670593,2.186018943786621,4.897368553071775,-2.4987253566607976e-40,0.29168635606765747,-1.5315340201007288,0.0,-0.0020983635913580656,0.9151890277862549,0.0,0.006796734873205423,0.8309590220451355,-0.0025882201734930277,-0.12253278493881226
232.0,230.0,1.051,-0.7651,9.947,-0.0301,0.0814,-0.1246,-1.9046527347960414,-0.00014192801609169692,3.3160407543182373,-1.6044464111328125,0.07843157649040222,2.2170310020446777,4.897356229811468,-7.006492321624085e-44,0.3065982758998871,-1.5315092245685022,0.0,-0.016735997051000595,0.91520094871521,0.0,0.036743875592947006,0.8309428691864014,-0.002310406183823943,-0.1288602352142334
232.0,230.0,1.051,-0.7651,9.947,-0.0301,0.0814,-0.1246,-1.9046365223326625,-0.00013155510532669723,3.351590871810913,-1.6039977073669434,0.08027521520853043,2.1899452209472656,4.897323879390516,-0.0,0.2915509343147278,-1.5315092245685022,0.0,-0.021029029041528702,0.9151808619499207,0.0,0.021748051047325134,0.830910861492157,-0.0016320523573085666,-0.059348054230213165
232.0,230.0,1.051,-0.7651,9.947,-0.0301,0.0814,-0.1246,-1.9046489200987757,-0.00012259511277079582,3.339621067047119,-1.6035341024398804,0.07964674383401871,2.1789193153381348,4.897356229811468,-0.0,0.303340345621109,-1.5315092245685022,0.0,-0.015556665137410164,0.9151849746704102,0.0,0.014046451076865196,0.8310235738754272,-0.001163996639661491,-0.13719654083251953
232.0,230.0,1.051,-0.7651,9.947,-0.0301,0.0814,-0.1246,-1.9046045742430628,-0.00011238896695431322,3.305034637451172,-1.6029026508331299,0.08117277920246124,2.1741366386413574,4.897324341326513,-0.0,0.28334835171699524,-1.5315259138690394,0.0,-0.018817944452166557,0.9151648879051208,0.0,0.026674361899495125,0.8309750556945801,-0.0007649711915291846,-0.14112699031829834
232.0,230.0,1.051,-0.7651,9.947,-0.0301,0.0814,-0.1246,-1.9046489200987757,-0.00010578404180705547,3.3277640342712402,-1.6024105548858643,0.08669637888669968,2.230114698410034,4.897344308882513,-0.0,0.2855930030345917,-1.5315259138690394,0.0,-0.02473703771829605,0.9151968955993652,0.0,0.02506766840815544,0.8309349417686462,-0.0005800163489766419,-0.15537306666374207
232.0,230.0,1.051,-0.7651,9.947,-0.0301,0.0814,-0.1246,-1.9046126804747523,-0.00011589883069973439,3.3206915855407715,-1.601891279220581,0.0881575420498848,2.183091402053833,4.897336232453146,-0.0,0.30488139390945435,-1.5315092245685022,0.0,-0.020800651982426643,0.91520094871521,0.0,0.008659097366034985,0.8309349417686462,-0.0004671044007409364,-0.16246506571769714
232.0,230.0,1.051,-0.7651,9.947,-0.0301,0.0814,-0.1246,-1.9046889744200648,-0.0002381522790528834,3.3193113803863525,-1.6013667583465576,0.09166710823774338,2.210223913192749,4.897320228606024,-0.0,0.28706076741218567,-1.53151780763735,0.0,-0.019826628267765045,0.9152169227600098,0.0,0.019132770597934723,0.8309994339942932,-0.0003428127965889871,-0.1418692171573639
232.0,230.0,1.051,-0.7651,9.947,-0.0301,0.0814,-0.1246,-1.9047047100462855,-0.004184945486485958,3.268659830093384,-1.6007418632507324,0.09632675349712372,2.227973222732544,4.897320228606024,-0.0,0.27886635065078735,-1.5315259138690394,0.0,-0.01987641304731369,0.9151725769042969,0.0,0.02503485605120659,0.8309469819068909,-0.00029418780468404293,-0.1632315218448639
232.0,230.0,1.051,-0.7651,9.947,-0.0301,0.0814,-0.1246,-1.9047771892943324,-0.007399991154670715,3.323978900909424,-1.6002100706100464,0.10472796112298965,2.241391658782959,4.897344815521993,-5.3532523452304304e-05,0.28361260890960693,-1.5315259138690394,0.0,-0.014398731291294098,0.9151729941368103,0.0,0.01732570305466652,0.830954909324646,-8.229001832660288e-05,-0.1616838276386261
232.0,230.0,1.051,-0.7651,9.947,-0.0301,0.0814,-0.1246,-1.9047843418517054,-0.010254583321511745,3.3048043251037598,-1.599608063697815,0.1043696179986,2.231752634048462,4.897280323296346,-0.0015005678869783878,0.2809848189353943,-1.53151780763735,0.0,-0.00663759745657444,0.9151565432548523,0.0,0.026387764140963554,0.8309267163276672,-7.236352394102141e-05,-0.1754894107580185
232.0,230.0,1.051,-0.7651,9.947,-0.0301,0.0814,-0.1246,-1.904900690118307,-0.012376837432384491,3.249917984008789,-1.5989460945129395,0.10401304811239243,2.2043814659118652,4.897284883051672,-0.0016801994061097503,0.26881101727485657,-1.531513516102926,0.0,-0.00393981346860528,0.9152131676673889,0.0,0.020689979195594788,0.8309672474861145,-6.457506970036775e-05,-0.18159714341163635
232.0,230.0,1.051,-0.7651,9.947,-0.0301,0.0814,-0.1246,-1.9049369297423304,-0.012684717774391174,3.2761430740356445,-1.598314642906189,0.10242758691310883,2.2536325454711914,4.89725652614192,-0.0009725530399009585,0.28846868872642517,-1.5315092245685022,0.0,-0.0066113220527768135,0.9151565432548523,0.0,0.022280791774392128,0.8310194611549377,-2.9155791708035395e-05,-0.1735442578792572
232.0,230.0,1.051,-0.7651,9.947,-0.0301,0.0814,-0.1246,-1.9050327740111292,-0.010516062378883362,3.245450496673584,-1.5977041721343994,0.09774652123451233,2.2189276218414307,4.897308963328161,-0.0006306919385679066,0.2810048758983612,-1.5315540472613733,0.0,-0.001732917269691825,0.9151771068572998,0.0,0.028635133057832718,0.830954909324646,-2.6568486646283418e-05,-0.13419575989246368
232.0,230.0,1.051,-0.7651,9.947,-0.0301,0.0814,-0.1246,-1.905104776422018,-0.007541023660451174,3.2358269691467285,-1.5971485376358032,0.09954427927732468,2.225153684616089,4.897268372565069,-0.00046686409041285515,0.26628538966178894,-1.5315421263324183,0.0,-0.004855101462453604,0.9151729941368103,0.0,0.010353443212807178,0.830963134765625,-1.1534297073012567e-07,-0.19255204498767853
211.0,211.0,0.9332,-0.6263,9.055,-0.0203,0.1541,-0.1182,-1.9050804577269496,-0.006555304862558842,3.230814218521118,-1.5965485572814941,0.09694280475378036,2.2321572303771973,4.897248360305586,-0.0004926573019474745,0.2820435166358948,-1.531489674245016,3.4795309744595215e-08,0.002068351488560438,0.9151570200920105,0.0,0.025715205818414688,0.8310030698776245,-2.7853969673287404e-13,-0.18599265813827515
211.0,211.0,0.9332,-0.6263,9.055,-0.0203,0.1541,-0.1182,-1.9051767788329066,-0.00844612531363964,3.2470412254333496,-1.595963716506958,0.09679540246725082,2.259061336517334,4.897308993130483,-0.001847355393692851,0.28531414270401,-1.5315702597247522,9.685401786141412e-12,-0.0013352498644962907,0.9152377247810364,0.0,0.030118945986032486,0.831011176109314,-6.7264068175764175e-19,-0.20693540573120117
211.0,211.0,0.9332,-0.6263,9.055,-0.0203,0.1541,-0.1182,-1.9052807293333949,-0.012028491124510765,3.2321929931640625,-1.5954275131225586,0.09376740455627441,2.186603307723999,4.897220554738798,-0.0030297557823359966,0.269996702671051,-1.5315092245685022,2.6959669577070883e-15,-0.014507997781038284,0.9151488542556763,0.0,0.026949577033519745,0.8310070633888245,-1.6243481244984036e-24,-0.13354556262493134
211.0,211.0,0.9332,-0.6263,9.055,-0.0203,0.1541,-0.1182,-1.905384202996725,-0.01669386401772499,3.1893322467803955,-1.5946847200393677,0.09186100959777832,2.206681251525879,4.897140535503187,-0.006782536394894123,0.262601375579834,-1.5315054098712366,4.8997869101168134e-20,0.00018277124036103487,0.9151409864425659,0.0,0.01959773525595665,0.8309747576713562,-5.262681155665276e-32,-0.18703216314315796
211.0,211.0,0.9332,-0.6263,9.055,-0.0203,0.1541,-0.1182,-1.9054719410338343,-0.017775380983948708,3.228203296661377,-1.5940991640090942,0.08868809789419174,2.2117671966552734,4.897133114724912,-0.009309294633567333,0.2695753574371338,-1.5315054098712366,1.3638734519501856e-23,-0.006820881739258766,0.9151565432548523,0.0,0.014129256829619408,0.8309949040412903,-1.2708756926144062e-37,-0.1470525711774826
211.0,211.0,0.9332,-0.6263,9.055,-0.0203,0.1541,-0.1182,-1.9055844746031703,-0.017667250707745552,3.2060985565185547,-1.5936027765274048,0.08487177640199661,2.1690289974212646,4.897057163506307,-0.008422309532761574,0.2762264013290405,-1.5315216223346155,3.7963923360041416e-27,0.004169445484876633,0.9152336120605469,0.0,0.02169068157672882,0.8310112357139587,-3.0688436368713494e-43,-0.18029117584228516
211.0,211.0,0.9332,-0.6263,9.055,-0.0203,0.1541,-0.1182,-1.9056598148741664,-0.016476033255457878,3.2375128269195557,-1.593116044998169,0.07924874871969223,2.2232491970062256,4.89699766316966,-0.00563261192291975,0.2624252140522003,-1.5315092245685022,1.0567396108524996e-30,0.0013204533606767654,0.915208637714386,0.0,0.029751181602478027,0.831019401550293,0.0,-0.21163365244865417
211.0,211.0,0.9332,-0.6263,9.055,-0.0203,0.1541,-0.1182,-1.9057675800719203,-0.01663227193057537,3.1753921508789062,-1.5926377773284912,0.07390385866165161,2.181729316711426,4.897001731186666,-0.003137548454105854,0.2648349106311798,-1.5315216223346155,2.941473263607448e-34,0.0005265609361231327,0.9152210354804993,0.0,0.017572060227394104,0.8310433626174927,0.0,-0.1864197552204132
211.0,211.0,0.9332,-0.6263,9.055,-0.0203,0.1541,-0.1182,-1.9059082470335902,-0.01766018569469452,3.1810929775238037,-1.5922175645828247,0.07018434256315231,2.2124812602996826,4.8969574747379205,-0.002363405656069517,0.26439225673675537,-1.5315216223346155,8.187699486025732e-38,0.00533628324046731,0.9151725769042969,0.0,0.004330098163336515,0.8309948444366455,0.0,-0.271851122379303
211.0,211.0,0.9332,-0.6263,9.055,-0.0203,0.1541,-0.1182,-1.9059678516783656,-0.020428931340575218,3.201953649520874,-1.591769814491272,0.06565703451633453,2.1683309078216553,4.8969497261341,-0.003347732126712799,0.27184492349624634,-1.5315340201007288,2.2790718223778825e-41,-0.005472327582538128,0.9151689410209656,0.0,0.01841917261481285,0.8310070633888245,0.0,-0.2253747582435608
211.0,211.0,0.9332,-0.6263,9.055,-0.0203,0.1541,-0.1182,-1.9061318836607875,-0.022080756723880768,3.160900115966797,-1.5913914442062378,0.05876713991165161,2.196427822113037,4.896921786456861,-0.0033967995550483465,0.2689310312271118,-1.5314977804767054,7.006492321624085e-45,0.0045626843348145485,0.915225088596344,0.0,0.018499039113521576,0.8310354351997375,0.0,-0.24981708824634552
211.0,211.0,0.9332,-0.6263,9.055,-0.0203,0.1541,-0.1182,-1.9062677822508753,-0.023918136954307556,3.1777539253234863,-1.5910553932189941,0.05424394831061363,2.1843528747558594,4.8969061253364465,-0.0029894732870161533,0.2635315954685211,-1.5315502325641077,0.0,0.010626793839037418,0.9152697324752808,0.0,0.026293525472283363,0.8310153484344482,0.0,-0.2383873015642166
211.0,211.0,0.9332,-0.6263,9.055,-0.0203,0.1541,-0.1182,-1.9064556560912074,-0.026444116607308388,3.1808595657348633,-1.5907357931137085,0.05181644856929779,2.225616931915283,4.8969061253364465,-0.0016045316588133574,0.25772783160209656,-1.531513516102926,0.0,0.003867215709760785,0.9152536392211914,0.0,0.018754804506897926,0.830990731716156,0.0,-0.21042878925800323
211.0,211.0,0.9332,-0.6263,9.055,-0.0203,0.1541,-0.1182,-1.9065834484496058,-0.02908831275999546,3.200610399246216,-1.5904611349105835,0.05025974288582802,2.1475870609283447,4.896869691997328,-0.000950565270613879,0.26380980014801025,-1.5315302054034632,0.0,0.010591506958007812,0.9151971936225891,0.0,0.02196316048502922,0.8309788703918457,0.0,-0.22566570341587067
211.0,211.0,0.9332,-0.6263,9.055,-0.0203,0.1541,-0.1182,-1.906771799127096,-0.03240303322672844,3.1367571353912354,-1.5901098251342773,0.04868537560105324,2.1509220600128174,4.896877872734823,-0.0006538667948916554,0.26498451828956604,-1.5314815680133265,0.0,0.01164925005286932,0.9152091145515442,0.0,0.028921177610754967,0.8309747576713562,0.0,-0.22298771142959595
186.0,193.0,0.5647,-0.5803,8.9785,-0.048,0.0678,-0.1118,-1.906999250451559,-0.03744882345199585,3.1014761924743652,-1.5898821353912354,0.04729084298014641,2.1688592433929443,4.896902042418279,-0.0005693212733604014,0.2519797682762146,-1.5315020720111292,0.0,0.003954588435590267,0.9151849150657654,0.0,0.02712041698396206,0.8310070633888245,0.0,-0.20353059470653534
186.0,193.0,0.5647,-0.5803,8.9785,-0.048,0.0678,-0.1118,-1.9073311291136683,-0.04535110294818878,3.1319069862365723,-1.5894873142242432,0.04639871045947075,2.153444290161133,4.896889704256811,-0.00043266118154861033,0.2622278034687042,-1.5315020720111292,8.418688230449334e-05,-0.0007273913361132145,0.9152086973190308,0.0,0.023471396416425705,0.831011176109314,0.0,-0.21652528643608093
186.0,193.0,0.5647,-0.5803,8.9785,-0.048,0.0678,-0.1118,-1.9076596699156703,-0.05077372491359711,3.158205986022949,-1.5891711711883545,0.04639861732721329,2.145411729812622,4.896881881147184,-0.0003665535186883062,0.2632865309715271,-1.53151780763735,8.196998533094302e-05,0.009679771028459072,0.9151771068572998,0.0,0.030070360749959946,0.8309668302536011,0.0,-0.21767395734786987
186.0,193.0,0.5647,-0.5803,8.9785,-0.048,0.0678,-0.1118,-1.9079510174193324,-0.057832229882478714,3.105985641479492,-1.5888913869857788,0.04457024484872818,2.1657328605651855,4.896950068860807,-0.0003179751802235842,0.25708073377609253,-1.531513516102926,7.772332173772156e-05,0.02028004266321659,0.9151492118835449,0.0,0.02620682865381241,0.8310153484344482,3.3280812203884125e-05,-0.24984481930732727
