ramyac6/ROB537/final_project/csv/good/good_165.csv
tof_0,tof_1,accelx,accely,accelz,gyrox,gyroy,gyroz,shoulder_lift_joint_position,shoulder_lift_joint_velocity,shoulder_lift_joint_effort,elbow_joint_position,elbow_joint_velocity,elbow_joint_effort,wrist_1_joint_position,wrist_1_joint_velocity,wrist_1_joint_effort,wrist_2_joint_position,wrist_2_joint_velocity,wrist_2_joint_effort,wrist_3_joint_position,wrist_3_joint_velocity,wrist_3_joint_effort,shoulder_pan_joint_position,shoulder_pan_joint_velocity,shoulder_pan_joint_effort
969.0,754.0,1.0169,-0.0754,9.3829,-0.0411,0.0208,-0.1126,-1.3938963276198884,0.0,1.427151083946228,-1.7451109886169434,-0.0,2.2243430614471436,4.483583136195801,-0.0,0.29520073533058167,-1.5831859747516077,-0.0,-0.014423757791519165,0.8805406093597412,0.0,-0.0007245284505188465,0.7913085222244263,0.0,0.018215712159872055
969.0,754.0,1.0169,-0.0754,9.3829,-0.0411,0.0208,-0.1126,-1.393888072376587,0.0,1.4386701583862305,-1.7450182437896729,-0.0,2.1540071964263916,4.483571215266846,-0.0,0.29508891701698303,-1.5831945578204554,-0.0,-0.0047426726669073105,0.8804728984832764,0.0,-0.00490872748196125,0.791296660900116,0.0,-0.04301732778549194
969.0,754.0,1.0169,-0.0754,9.3829,-0.0411,0.0208,-0.1126,-1.3938441139510651,0.0,1.414974331855774,-1.7449902296066284,-0.0,2.210514545440674,4.483562632197998,-0.0,0.30063778162002563,-1.5831945578204554,-0.0,-0.015591079369187355,0.8805406093597412,0.0,-0.0026106969453394413,0.7913044095039368,0.0,0.029416121542453766
969.0,754.0,1.0169,-0.0754,9.3829,-0.0411,0.0208,-0.1126,-1.3939165335944672,0.0,1.4621431827545166,-1.7449984550476074,-0.0,2.1923844814300537,4.483562632197998,-0.0,0.2943022847175598,-1.5832064787494105,-0.0,-0.011702477931976318,0.8805246949195862,0.0,-0.007396738510578871,0.7913205623626709,0.0,0.034387994557619095
969.0,754.0,1.0169,-0.0754,9.3829,-0.0411,0.0208,-0.1126,-1.393840031032898,0.0,1.3711072206497192,-1.7450108528137207,-0.0,2.2418158054351807,4.483538790340088,-0.0,0.29037442803382874,-1.5832021872149866,-0.0,-0.008791310712695122,0.8804924488067627,0.0,-0.006963929161429405,0.7913167476654053,0.0,0.011827053502202034
969.0,754.0,1.0169,-0.0754,9.3829,-0.0411,0.0208,-0.1126,-1.3938479584506531,0.0,1.4598771333694458,-1.7450182437896729,-0.0,2.1969971656799316,4.483663721675537,-0.0,0.28479713201522827,-1.5831945578204554,-0.0,-0.0056684985756874084,0.8805326819419861,0.0,0.010495566762983799,0.7913126349449158,0.0,-0.004314214922487736
943.0,633.0,0.9667,-0.1172,9.5055,-0.0392,0.0281,-0.1121,-1.3938480031541367,0.0,1.4676096439361572,-1.7450789213180542,-0.0,2.193392038345337,4.483571215266846,-0.0,0.28466206789016724,-1.5832145849811,-0.0,0.0016774277901276946,0.880516767501831,0.0,-0.0064309509471058846,0.7913370728492737,0.0,0.03238150104880333
943.0,633.0,0.9667,-0.1172,9.5055,-0.0392,0.0281,-0.1121,-1.3938480031541367,0.0,1.467768669128418,-1.7450501918792725,-0.0,2.189263343811035,4.483566923732422,-0.0,0.2905556559562683,-1.5831578413592737,-0.0,-0.017501210793852806,0.8805087804794312,0.0,-0.000684458645991981,0.7913246750831604,0.0,0.009730352088809013
943.0,633.0,0.9667,-0.1172,9.5055,-0.0392,0.0281,-0.1121,-1.393864007001259,0.0,1.465787649154663,-1.7449945211410522,-0.0,2.1499407291412354,4.483538790340088,-0.0,0.2967812120914459,-1.5831859747516077,-0.0,-0.015774795785546303,0.8805127739906311,0.0,-0.004254767671227455,0.7913007736206055,0.0,0.009524038061499596
943.0,633.0,0.9667,-0.1172,9.5055,-0.0392,0.0281,-0.1121,-1.3938598793796082,0.0,1.4425742626190186,-1.744998574256897,-0.0,2.2058725357055664,4.483534975642822,-0.0,0.29470980167388916,-1.5832064787494105,-0.0,-0.011092866770923138,0.8805246949195862,0.0,0.003728515701368451,0.7913283109664917,0.0,-0.004745006561279297
943.0,633.0,0.9667,-0.1172,9.5055,-0.0392,0.0281,-0.1121,-1.3938515943339844,0.0,1.4464786052703857,-1.7449781894683838,-0.0,2.1911518573760986,4.483595057124756,-0.0,0.305681973695755,-1.5831697622882288,-0.0,-0.019679350778460503,0.8805087804794312,0.0,0.005134677514433861,0.7913610935211182,0.0,-0.013987189158797264
943.0,633.0,0.9667,-0.1172,9.5055,-0.0392,0.0281,-0.1121,-1.3939044785550614,0.0,1.4539494514465332,-1.7450264692306519,-0.0,2.2351813316345215,4.483550711269043,-0.0,0.30132588744163513,-1.5832064787494105,-0.0,-0.0047609275206923485,0.8805127739906311,0.0,0.002220671158283949,0.7913002967834473,0.0,-0.00897060614079237
943.0,633.0,0.9667,-0.1172,9.5055,-0.0392,0.0281,-0.1121,-1.39386402190242,0.0,1.4518568515777588,-1.7450461387634277,-0.0,2.2157928943634033,4.483583136195801,-0.0,0.28614985942840576,-1.583226505910055,-0.0,-0.018270429223775864,0.8805207014083862,0.0,-0.00757611682638526,0.7912801504135132,0.0,-0.01810281164944172
943.0,633.0,0.9667,-0.1172,9.5055,-0.0392,0.0281,-0.1121,-1.3938562136939545,0.0,1.5048942565917969,-1.7450542449951172,-0.0,2.1911983489990234,4.483603163356445,-0.0,0.29044389724731445,-1.583254639302389,-0.0,-0.0067169745452702045,0.880596935749054,0.0,0.0014868038706481457,0.791300356388092,0.0,0.036584775894880295
943.0,633.0,0.9667,-0.1172,9.5055,-0.0392,0.0281,-0.1121,-1.3938760322383423,0.0,1.428578495979309,-1.7450182437896729,-0.0,2.2282280921936035,4.483503027553223,-0.0,0.29376161098480225,-1.5832503477679651,-0.0,-0.014379789121448994,0.8805326819419861,0.0,-0.0012756341602653265,0.7912924885749817,0.0,0.02844703197479248
943.0,633.0,0.9667,-0.1172,9.5055,-0.0392,0.0281,-0.1121,-1.3938639921000977,0.0,1.4879616498947144,-1.7450461387634277,-0.0,2.13581919670105,4.483578844661377,-0.0,0.2975628972053528,-1.5831616560565394,-0.0,-0.006906899157911539,0.8805565237998962,0.0,-0.0014173659728839993,0.7913048267364502,0.0,-0.027031881734728813
953.0,724.0,1.011,-0.0939,9.4588,-0.0362,0.0258,-0.1205,-1.3938921701959153,0.0,1.4087841510772705,-1.7450141906738281,-0.0,2.1713061332702637,4.483546896571777,-0.0,0.2907848060131073,-1.5831859747516077,-0.0,-0.01369376853108406,0.8804810047149658,0.0,-0.007021772675216198,0.7912925481796265,0.0,0.02567836083471775
953.0,724.0,1.011,-0.0939,9.4588,-0.0362,0.0258,-0.1205,-1.3938561987927933,0.0,1.4799556732177734,-1.7450584173202515,-0.0,2.1801555156707764,4.483558817500732,-0.0,0.29296767711639404,-1.5831859747516077,-0.0,-0.01128319837152958,0.8804729580879211,0.0,-0.001246507978066802,0.7913246750831604,0.0,-0.01646941900253296
953.0,724.0,1.011,-0.0939,9.4588,-0.0362,0.0258,-0.1205,-1.3938397777131577,0.0,1.4293289184570312,-1.7450108528137207,-0.0,2.1805434226989746,4.483575029964111,-0.0,0.2990860641002655,-1.5831411520587366,-0.0,-0.0025544092059135437,0.8805605173110962,0.0,-0.0013426183722913265,0.7913164496421814,0.0,-0.009018480777740479
953.0,724.0,1.011,-0.0939,9.4588,-0.0362,0.0258,-0.1205,-1.3939286184361954,0.0,1.4396750926971436,-1.7450584173202515,-0.0,2.215491533279419,4.483598871822021,-0.0,0.3067390024662018,-1.5831978956805628,-0.0,-0.014018836431205273,0.8805890083312988,0.0,-0.00971672311425209,0.7913126349449158,0.0,-0.03360042721033096
953.0,724.0,1.011,-0.0939,9.4588,-0.0362,0.0258,-0.1205,-1.3938921999982377,0.0,1.4464614391326904,-1.7450542449951172,-0.0,2.225625991821289,4.483578844661377,-0.0,0.2935594320297241,-1.583149258290426,-0.0,-0.005770059768110514,0.8804848790168762,0.0,0.005767192225903273,0.7912801504135132,0.0,-0.0027330201119184494
953.0,724.0,1.011,-0.0939,9.4588,-0.0362,0.0258,-0.1205,-1.3938883405974885,0.0,1.4715614318847656,-1.7450542449951172,-0.0,2.23354434967041,4.483583136195801,-0.0,0.2892419695854187,-1.5832346121417444,-0.0,-0.006662944331765175,0.8805366158485413,0.0,0.0037805521860718727,0.7913208603858948,0.0,0.009248307906091213
953.0,724.0,1.011,-0.0939,9.4588,-0.0362,0.0258,-0.1205,-1.3938479882529755,0.0,1.4132559299468994,-1.7450141906738281,-0.0,2.187337875366211,4.483603163356445,-0.0,0.2960871458053589,-1.5831735769854944,-0.0,-0.012764139100909233,0.880516767501831,0.0,0.0014328770339488983,0.7913164496421814,0.0,0.027713622897863388
953.0,724.0,1.011,-0.0939,9.4588,-0.0362,0.0258,-0.1205,-1.3938520711711426,0.0,1.4741328954696655,-1.7450346946716309,-0.0,2.2046806812286377,4.483566923732422,-0.0,0.2976510226726532,-1.5831697622882288,-0.0,-0.011464672163128853,0.8805968761444092,0.0,-0.013903964310884476,0.7913529276847839,0.0,0.03511688858270645
953.0,724.0,1.011,-0.0939,9.4588,-0.0362,0.0258,-0.1205,-1.393892155294754,0.0,1.4592870473861694,-1.7450222969055176,-0.0,2.2119908332824707,4.483526869411133,-0.0,0.28220492601394653,-1.5832021872149866,-0.0,-0.014112848788499832,0.8805485367774963,0.0,0.0007175817154347897,0.7913488149642944,0.0,-0.08398938179016113
953.0,724.0,1.011,-0.0939,9.4588,-0.0362,0.0258,-0.1205,-1.39390421033416,0.0,1.4797815084457397,-1.7450306415557861,-0.0,2.213282585144043,4.483574553126953,-0.0,0.27571871876716614,-1.5831945578204554,-0.0,-0.011712244711816311,0.8805087804794312,0.0,-0.00766786141321063,0.7913447618484497,0.0,0.007612909190356731
943.0,799.0,1.0313,-0.1256,9.5575,-0.0328,0.0226,-0.1249,-1.3938397628119965,0.0,1.483100414276123,-1.7450346946716309,-0.0,2.189624071121216,4.4835144716450195,-0.0,0.28821077942848206,-1.5832222143756312,-0.0,-0.014814099296927452,0.8804730772972107,0.0,-0.013263840228319168,0.7913044095039368,0.0,-0.03318376466631889
943.0,799.0,1.0313,-0.1256,9.5575,-0.0328,0.0226,-0.1249,-1.393880159859993,0.0,1.4241595268249512,-1.7450182437896729,-0.0,2.200381278991699,4.483562632197998,-0.0,0.2931077182292938,-1.5831735769854944,-0.0,-0.00668901763856411,0.8805565237998962,0.0,0.007727805990725756,0.791340708732605,0.0,-0.0048185428604483604
943.0,799.0,1.0313,-0.1256,9.5575,-0.0328,0.0226,-0.1249,-1.393871934419014,0.0,1.467047095298767,-1.7450429201126099,-0.0,2.2223050594329834,4.483538790340088,-0.0,0.2919045388698578,-1.583182160054342,-0.0,-0.009524177759885788,0.8805445432662964,0.0,-0.00299115595407784,0.7913205623626709,0.0,-0.018664222210645676
943.0,799.0,1.0313,-0.1256,9.5575,-0.0328,0.0226,-0.1249,-1.3938639921000977,0.0,1.4437310695648193,-1.7450542449951172,-0.0,2.1909337043762207,4.483558817500732,-0.0,0.27932247519493103,-1.5831940809832972,-0.0,-0.014949539676308632,0.880596935749054,0.0,-0.021640785038471222,0.7913329005241394,0.0,0.021578429266810417
943.0,799.0,1.0313,-0.1256,9.5575,-0.0328,0.0226,-0.1249,-1.3938562285951157,0.0,1.4655261039733887,-1.7449861764907837,-0.0,2.220730781555176,4.483566923732422,-0.0,0.2916695177555084,-1.5831902662860315,-0.0,-0.015619689598679543,0.880516767501831,0.0,-0.008381537161767483,0.7913122773170471,0.0,0.013913832604885101
943.0,799.0,1.0313,-0.1256,9.5575,-0.0328,0.0226,-0.1249,-1.393872232442238,0.0,1.4663822650909424,-1.7450101375579834,-0.0,2.198094606399536,4.483586950893066,-0.0,0.2947971224784851,-1.5831611792193812,-0.0,-0.01462149154394865,0.8805286884307861,0.0,0.0006050541414879262,0.791340708732605,0.0,0.014883218333125114
943.0,799.0,1.0313,-0.1256,9.5575,-0.0328,0.0226,-0.1249,-1.3939083528569718,0.0,1.4579460620880127,-1.745058536529541,-0.0,2.239248275756836,4.483555002803467,-0.0,0.2850894629955292,-1.583198372517721,-0.0,-0.004836966283619404,0.8805248141288757,0.0,0.0018140937900170684,0.7912966012954712,0.0,0.01608840934932232
943.0,799.0,1.0313,-0.1256,9.5575,-0.0328,0.0226,-0.1249,-1.3938963276198884,0.0,1.3915979862213135,-1.7450346946716309,-0.0,2.1770505905151367,4.483558817500732,-0.0,0.2860453426837921,-1.5832064787494105,-0.0,-0.01965210773050785,0.8805728554725647,0.0,-0.008058705367147923,0.7912681102752686,0.0,0.03778211772441864
943.0,799.0,1.0313,-0.1256,9.5575,-0.0328,0.0226,-0.1249,-1.3938719195178528,0.0,1.460374355316162,-1.7450461387634277,-0.0,2.191283702850342,4.4835545259663085,-0.0,0.2977321743965149,-1.5831902662860315,-0.0,-0.004269858356565237,0.8805604577064514,0.0,0.012378647923469543,0.7913082242012024,0.0,-0.004318620078265667
943.0,799.0,1.0313,-0.1256,9.5575,-0.0328,0.0226,-0.1249,-1.3938639771989365,0.0,1.4251899719238281,-1.7450264692306519,-0.0,2.214264392852783,4.483550711269043,-0.0,0.29983171820640564,-1.58315354982485,-0.0,-0.0044091385789215565,0.8805246949195862,0.0,-0.00039474177174270153,0.791300356388092,0.0,-0.06508323550224304
975.0,782.0,1.0397,-0.1047,9.5492,-0.0351,0.0284,-0.1272,-1.3938480627587815,0.0,1.45890474319458,-1.7450706958770752,-0.0,2.178976535797119,4.483562632197998,-0.0,0.2979644536972046,-1.5831859747516077,-0.0,-0.004962022881954908,0.8805683851242065,0.0,0.002097313292324543,0.7913529276847839,0.0,0.02719343639910221
975.0,782.0,1.0397,-0.1047,9.5492,-0.0351,0.0284,-0.1272,-1.3938680750182648,0.0,1.4228127002716064,-1.7450429201126099,-0.0,2.148667812347412,4.483590765590332,-0.0,0.29577699303627014,-1.5831697622882288,-0.0,-0.01248549111187458,0.8804969191551208,0.0,-0.005054261535406113,0.7913693785667419,0.0,0.005726859904825687
975.0,782.0,1.0397,-0.1047,9.5492,-0.0351,0.0284,-0.1272,-1.3938760471395035,0.0,1.4453320503234863,-1.7449780702590942,-0.0,2.174948215484619,4.4836155611225585,-0.0,0.2907382547855377,-1.5832183996783655,-0.0,-0.004284650087356567,0.880524754524231,0.0,-0.00330492970533669,0.7913283109664917,0.0,0.008339992724359035
975.0,782.0,1.0397,-0.1047,9.5492,-0.0351,0.0284,-0.1272,-1.3938722175410767,0.0,1.4028191566467285,-1.7450666427612305,-0.0,2.255951166152954,4.483598871822021,-0.0,0.2870579957962036,-1.5832064787494105,-0.0,0.004709586501121521,0.8805326223373413,0.0,-0.006465401500463486,0.7913447618484497,0.0,-0.0352199487388134
975.0,782.0,1.0397,-0.1047,9.5492,-0.0351,0.0284,-0.1272,-1.3938801449588318,0.0,1.5061256885528564,-1.7449779510498047,-0.0,2.1571497917175293,4.483583136195801,-0.0,0.29403769969940186,-1.583226505910055,-0.0,-0.011381962336599827,0.8805525302886963,0.0,-0.012286466546356678,0.7913246154785156,0.0,0.05229995772242546
975.0,782.0,1.0397,-0.1047,9.5492,-0.0351,0.0284,-0.1272,-1.3938438904336472,0.0,1.438910961151123,-1.7450584173202515,-0.0,2.208198070526123,4.483583136195801,-0.0,0.3049961030483246,-1.5831945578204554,-0.0,-0.01506759598851204,0.8804565668106079,0.0,0.006598053500056267,0.7913044095039368,0.0,-0.019015753641724586
975.0,782.0,1.0397,-0.1047,9.5492,-0.0351,0.0284,-0.1272,-1.39386402190242,0.0,1.4431867599487305,-1.7450222969055176,-0.0,2.179863929748535,4.4835707384296875,-0.0,0.29266366362571716,-1.5832141081439417,-0.0,-0.010386628098785877,0.8805729746818542,0.0,-0.004736595321446657,0.7912281155586243,0.0,0.00995875895023346
975.0,782.0,1.0397,-0.1047,9.5492,-0.0351,0.0284,-0.1272,-1.3938921701959153,0.0,1.4773586988449097,-1.744998574256897,-0.0,2.2130041122436523,4.483583136195801,-0.0,0.28125181794166565,-1.583182160054342,-0.0,-0.012257443740963936,0.8805326819419861,0.0,-0.010762112215161324,0.7913407683372498,0.0,0.00602054875344038
975.0,782.0,1.0397,-0.1047,9.5492,-0.0351,0.0284,-0.1272,-1.3938194674304505,0.0,1.4770772457122803,-1.7450264692306519,-0.0,2.218224048614502,4.483550711269043,-0.0,0.30110400915145874,-1.5831945578204554,-0.0,-0.01636822521686554,0.8805088996887207,0.0,-0.005924765486270189,0.7913126349449158,0.0,-0.010706374421715736
975.0,782.0,1.0397,-0.1047,9.5492,-0.0351,0.0284,-0.1272,-1.393888072376587,0.0,1.4440988302230835,-1.7450224161148071,-0.0,2.2207865715026855,4.483598871822021,-0.0,0.2925322651863098,-1.5831978956805628,-0.0,-0.010488256812095642,0.8805366158485413,0.0,-0.004077850840985775,0.7913167476654053,0.0,-0.02898329682648182
935.0,734.0,1.0582,-0.1406,9.4983,-0.0331,0.0206,-0.1084,-1.393843875532486,0.0,1.4239428043365479,-1.7450387477874756,-0.0,2.2075910568237305,4.483571215266846,-0.0,0.2936233580112457,-1.5831735769854944,-0.0,-0.0019614147022366524,0.8806047439575195,0.0,-0.0028977906331419945,0.7913007140159607,0.0,-0.03909464180469513
935.0,734.0,1.0582,-0.1406,9.4983,-0.0331,0.0206,-0.1084,-1.3938598793796082,0.0,1.449087142944336,-1.7450501918792725,-0.0,2.2111730575561523,4.483583136195801,-0.0,0.29213953018188477,-1.5831697622882288,-0.0,-0.007727252319455147,0.8804487586021423,0.0,-0.007217052858322859,0.7912966012954712,0.0,-0.023008931428194046
935.0,734.0,1.0582,-0.1406,9.4983,-0.0331,0.0206,-0.1084,-1.3939203780940552,0.0,1.4333620071411133,-1.7450501918792725,-0.0,2.182927131652832,4.4835426050373535,-0.0,0.2887166738510132,-1.583226505910055,-0.0,-0.005989585071802139,0.8805928826332092,0.0,-0.006939338985830545,0.7913085222244263,0.0,-0.0229201577603817
935.0,734.0,1.0582,-0.1406,9.4983,-0.0331,0.0206,-0.1084,-1.3938557219556351,0.0,1.4104409217834473,-1.7450501918792725,-0.0,2.2314841747283936,4.483534498805664,-0.0,0.3006233870983124,-1.5831578413592737,-0.0,0.004096983931958675,0.8805525302886963,0.0,0.005200311075896025,0.7912804484367371,0.0,0.0036744684912264347
935.0,734.0,1.0582,-0.1406,9.4983,-0.0331,0.0206,-0.1084,-1.3938760322383423,0.0,1.4429069757461548,-1.7450346946716309,-0.0,2.189896821975708,4.483583136195801,-0.0,0.28083643317222595,-1.5831945578204554,-0.0,0.0017566895112395287,0.8805009722709656,0.0,-0.0004807054065167904,0.7913246750831604,0.0,0.006390013266354799
935.0,734.0,1.0582,-0.1406,9.4983,-0.0331,0.0206,-0.1084,-1.3938677918962021,0.0,1.4779318571090698,-1.7449697256088257,-0.0,2.2066149711608887,4.483578844661377,-0.0,0.29543936252593994,-1.5831945578204554,-0.0,-0.013529072515666485,0.8804967403411865,0.0,-0.014097437262535095,0.7912681698799133,0.0,0.0030265338718891144
935.0,734.0,1.0582,-0.1406,9.4983,-0.0331,0.0206,-0.1084,-1.393888072376587,0.0,1.4000611305236816,-1.7450429201126099,-0.0,2.2322781085968018,4.483574553126953,-0.0,0.2879676818847656,-1.5832222143756312,-0.0,-0.017718691378831863,0.8805968165397644,0.0,0.005580274388194084,0.7912681698799133,0.0,0.00893167220056057
935.0,734.0,1.0582,-0.1406,9.4983,-0.0331,0.0206,-0.1084,-1.3938883256963273,0.0,1.4673974514007568,-1.744998574256897,-0.0,2.208507776260376,4.483583136195801,-0.0,0.28522321581840515,-1.5831945578204554,-0.0,-0.01686963066458702,0.880524754524231,0.0,-0.004360598046332598,0.7913329005241394,0.0,0.016088716685771942
935.0,734.0,1.0582,-0.1406,9.4983,-0.0331,0.0206,-0.1084,-1.3938719046166916,0.0,1.4693831205368042,-1.7450108528137207,-0.0,2.2080094814300537,4.483579321498535,-0.0,0.29989737272262573,-1.5831902662860315,-0.0,-0.016053004190325737,0.8805049061775208,0.0,-0.007216888479888439,0.7913164496421814,0.0,-0.007028053980320692
935.0,734.0,1.0582,-0.1406,9.4983,-0.0331,0.0206,-0.1084,-1.3939004254392167,0.0,1.4323077201843262,-1.7450264692306519,-0.0,2.195918083190918,4.483583136195801,-0.0,0.28954198956489563,-1.583226505910055,-0.0,0.0028593011666089296,0.8805286884307861,0.0,-0.013477761298418045,0.7913488745689392,0.0,0.015544367954134941
935.0,734.0,1.0582,-0.1406,9.4983,-0.0331,0.0206,-0.1084,-1.3938798171332856,0.0,1.4586474895477295,-1.744998574256897,-0.0,2.164039134979248,4.483583136195801,-0.0,0.2950604557991028,-1.58315354982485,-0.0,-0.01502152532339096,0.8805246353149414,0.0,-0.004152456298470497,0.7913165092468262,0.0,-0.025166261941194534
888.0,678.0,1.0193,-0.0724,9.3924,-0.0336,0.024,-0.1205,-1.3938277077725907,0.0,1.4073505401611328,-1.7450306415557861,-0.0,2.2282931804656982,4.483590765590332,-0.0,0.2991926372051239,-1.5832064787494105,-0.0,-0.007956701330840588,0.8805603981018066,0.0,-0.0032088246662169695,0.7913406491279602,0.0,-0.03444230929017067
888.0,678.0,1.0193,-0.0724,9.3924,-0.0336,0.024,-0.1205,-1.3938719195178528,0.0,1.4522510766983032,-1.7450625896453857,-0.0,2.251891613006592,4.4835707384296875,-0.0,0.30533283948898315,-1.5832064787494105,-0.0,-0.009623443707823753,0.8805565237998962,0.0,0.0004912870936095715,0.791312575340271,0.0,0.02559155970811844
888.0,678.0,1.0193,-0.0724,9.3924,-0.0336,0.024,-0.1205,-1.3938438606313248,0.0,1.4300168752670288,-1.7450182437896729,-0.0,2.214442491531372,4.483598871822021,-0.0,0.2922348976135254,-1.5832460562335413,-0.0,0.0033703125081956387,0.8805406093597412,0.0,0.01183882262557745,0.7913447618484497,0.0,0.030798548832535744
888.0,678.0,1.0193,-0.0724,9.3924,-0.0336,0.024,-0.1205,-1.3938921701959153,0.0,1.4663872718811035,-1.7450625896453857,-0.0,2.1905839443206787,4.483578844661377,-0.0,0.29860275983810425,-1.5832222143756312,-0.0,-0.010816322639584541,0.880516767501831,0.0,0.0045278677716851234,0.7913365960121155,0.0,0.017711423337459564
888.0,678.0,1.0193,-0.0724,9.3924,-0.0336,0.024,-0.1205,-1.3938924384168168,0.0,1.419641137123108,-1.7450149059295654,-0.0,2.197218418121338,4.483595057124756,-0.0,0.29473254084587097,-1.5832145849811,-0.0,-0.011727897450327873,0.8805406093597412,0.0,0.0008536249515600502,0.7913007140159607,0.0,0.025436004623770714
888.0,678.0,1.0193,-0.0724,9.3924,-0.0336,0.024,-0.1205,-1.39386402190242,0.0,1.48844313621521,-1.7450101375579834,-0.0,2.2285518646240234,4.483562632197998,-0.0,0.2880989909172058,-1.583182160054342,-0.0,-0.010211418382823467,0.8805404305458069,0.0,-0.0019171093590557575,0.7913606762886047,0.0,-0.0037073090206831694
888.0,678.0,1.0193,-0.0724,9.3924,-0.0336,0.024,-0.1205,-1.3938719046166916,0.0,1.4583791494369507,-1.7450141906738281,-0.0,2.210153102874756,4.483562632197998,-0.0,0.2904757559299469,-1.5831735769854944,-0.0,-0.019025295972824097,0.8805604577064514,0.0,0.0013105154503136873,0.7913406491279602,0.0,0.01659911870956421
888.0,678.0,1.0193,-0.0724,9.3924,-0.0336,0.024,-0.1205,-1.3938681048205872,0.0,1.4744908809661865,-1.7450748682022095,-0.0,2.205090045928955,4.483622713679932,-0.0,0.2853800654411316,-1.5832141081439417,-0.0,-0.0029463167302310467,0.8805326223373413,0.0,0.0033055830281227827,0.7913126349449158,0.0,0.01086060144007206
888.0,678.0,1.0193,-0.0724,9.3924,-0.0336,0.024,-0.1205,-1.3938883703998108,0.0,1.4383498430252075,-1.7450189590454102,-0.0,2.1693997383117676,4.483526392573975,-0.0,0.29074692726135254,-1.5832145849811,-0.0,-0.007453072816133499,0.8805286884307861,0.0,-0.010173328220844269,0.7913044095039368,0.0,-0.008233388885855675
888.0,678.0,1.0193,-0.0724,9.3924,-0.0336,0.024,-0.1205,-1.3938639921000977,0.0,1.4408683776855469,-1.7450429201126099,-0.0,2.237659454345703,4.483566923732422,-0.0,0.30471476912498474,-1.5831902662860315,-0.0,0.0032894862815737724,0.8805405497550964,0.0,0.004912946373224258,0.7912924885749817,0.0,-0.004485574550926685
926.0,774.0,1.0786,-0.0975,9.2411,-0.044,0.0269,-0.122,-1.3938760322383423,0.0,1.4326117038726807,-1.7450584173202515,-0.0,2.203303575515747,4.483623667354248,-0.0,0.2896629869937897,-1.5831578413592737,-0.0,-0.014385240152478218,0.880524754524231,0.0,-0.002018528990447521,0.791296124458313,0.0,-0.023201975971460342
926.0,774.0,1.0786,-0.0975,9.2411,-0.044,0.0269,-0.122,-1.3938557368567963,0.0,1.4421714544296265,-1.7449944019317627,-0.0,2.173978090286255,4.483598871822021,-0.0,0.29781022667884827,-1.5831978956805628,-0.0,-0.004666856490075588,0.8805484771728516,0.0,-0.015949450433254242,0.7912966012954712,0.0,0.013051390647888184
926.0,774.0,1.0786,-0.0975,9.2411,-0.044,0.0269,-0.122,-1.393884227876999,0.0,1.431915283203125,-1.7450741529464722,-0.0,2.1751813888549805,4.483574553126953,-0.0,0.2875211536884308,-1.5832064787494105,-0.0,0.00117730931378901,0.8805644512176514,0.0,0.004735715687274933,0.7913287878036499,0.0,-0.0085784662514925
926.0,774.0,1.0786,-0.0975,9.2411,-0.044,0.0269,-0.122,-1.393880159859993,0.0,1.4466657638549805,-1.7450542449951172,-0.0,2.1989569664001465,4.483538790340088,-0.0,0.27885517477989197,-1.583198372517721,-0.0,-0.013369802385568619,0.8805088996887207,0.0,-0.0010638396488502622,0.7912883758544922,0.0,0.03947732225060463
926.0,774.0,1.0786,-0.0975,9.2411,-0.044,0.0269,-0.122,-1.39390421033416,0.0,1.4147753715515137,-1.7450059652328491,-0.0,2.2111828327178955,4.483566923732422,-0.0,0.28405457735061646,-1.5831902662860315,-0.0,-0.008083040826022625,0.8805088996887207,0.0,0.007614049594849348,0.7913085222244263,0.0,0.009576190263032913
926.0,774.0,1.0786,-0.0975,9.2411,-0.044,0.0269,-0.122,-1.3938439053348084,0.0,1.4447317123413086,-1.7450101375579834,-0.0,2.2104439735412598,4.483622713679932,-0.0,0.281547874212265,-1.5832021872149866,-0.0,-0.01642051339149475,0.8805525898933411,0.0,-0.005564995110034943,0.7913044095039368,0.0,0.008714703842997551
926.0,774.0,1.0786,-0.0975,9.2411,-0.044,0.0269,-0.122,-1.3938718748143692,0.0,1.4652916193008423,-1.7450265884399414,-0.0,2.2148447036743164,4.4835707384296875,-0.0,0.2904767692089081,-1.5832145849811,-0.0,-0.015017002820968628,0.8805967569351196,0.0,-0.01272524707019329,0.7912801504135132,0.0,0.012186216190457344
926.0,774.0,1.0786,-0.0975,9.2411,-0.044,0.0269,-0.122,-1.3938318651965638,0.0,1.4473512172698975,-1.7450904846191406,-0.0,2.2562341690063477,4.483562632197998,-0.0,0.2822284400463104,-1.5831378141986292,-0.0,-0.0122214425355196,0.8805128335952759,0.0,0.00012444739695638418,0.7913126349449158,0.0,-0.022931357845664024
926.0,774.0,1.0786,-0.0975,9.2411,-0.044,0.0269,-0.122,-1.393880159859993,0.0,1.4885756969451904,-1.7450265884399414,-0.0,2.2336583137512207,4.483566923732422,-0.0,0.29438331723213196,-1.5832222143756312,-0.0,-0.013875420205295086,0.8805406093597412,0.0,-0.00992780365049839,0.7912924885749817,0.0,0.057404354214668274
926.0,774.0,1.0786,-0.0975,9.2411,-0.044,0.0269,-0.122,-1.3938921999982377,0.0,1.4603989124298096,-1.7450387477874756,-0.0,2.1819069385528564,4.483575029964111,-0.0,0.29848936200141907,-1.583226505910055,-0.0,-0.0011173656675964594,0.8805528283119202,0.0,-0.017770813778042793,0.7913126349449158,0.0,-0.018336091190576553
8190.0,684.0,0.9954,-0.1011,9.4564,-0.0298,0.0206,-0.1174,-1.3938194972327729,0.0,1.421213984489441,-1.7450149059295654,-0.0,2.17170786857605,4.483583136195801,-0.0,0.2888306975364685,-1.5832145849811,-0.0,-0.007277985569089651,0.8806175589561462,0.0,-0.00029449351131916046,0.7913122773170471,0.0,-0.023362189531326294
8190.0,684.0,0.9954,-0.1011,9.4564,-0.0298,0.0206,-0.1174,-1.393892155294754,0.0,1.4743064641952515,-1.7450264692306519,-0.0,2.135099172592163,4.483583136195801,-0.0,0.28817665576934814,-1.58315354982485,-0.0,-0.017323818057775497,0.8805446624755859,0.0,0.0031111096031963825,0.791340708732605,0.0,0.03483835607767105
8190.0,684.0,0.9954,-0.1011,9.4564,-0.0298,0.0206,-0.1174,-1.3938841980746766,0.0,1.4046039581298828,-1.7450066804885864,-0.0,2.1944618225097656,4.483598871822021,-0.0,0.29522013664245605,-1.583165470753805,-0.0,-0.01214028149843216,0.8805286288261414,0.0,-0.004332131240516901,0.7913167476654053,0.0,-0.011675411835312843
8190.0,684.0,0.9954,-0.1011,9.4564,-0.0298,0.0206,-0.1174,-1.3938677471927186,0.0,1.433983325958252,-1.7450306415557861,-0.0,2.258120059967041,4.483562632197998,-0.0,0.2953800559043884,-1.583210293446676,-0.0,-0.01222151517868042,0.8805360794067383,0.0,-0.01177215576171875,0.7913085222244263,0.0,-0.012466812506318092
8190.0,684.0,0.9954,-0.1011,9.4564,-0.0298,0.0206,-0.1174,-1.3938639921000977,0.0,1.4179370403289795,-1.7450141906738281,-0.0,2.209707021713257,4.483583136195801,-0.0,0.27490848302841187,-1.5831902662860315,-0.0,-0.0031570352148264647,0.8805044889450073,0.0,-0.007177114952355623,0.791340708732605,0.0,-0.007685189135372639
8190.0,684.0,0.9954,-0.1011,9.4564,-0.0298,0.0206,-0.1174,-1.3938718748143692,0.0,1.4368200302124023,-1.7450542449951172,-0.0,2.2062435150146484,4.4835707384296875,-0.0,0.30028024315834045,-1.5831697622882288,-0.0,0.002210573758929968,0.8804603219032288,0.0,0.0018387739546597004,0.7913246750831604,0.0,-0.023474587127566338
8190.0,684.0,0.9954,-0.1011,9.4564,-0.0298,0.0206,-0.1174,-1.3938475412181397,0.0,1.4539706707000732,-1.7450780868530273,-0.0,2.1789774894714355,4.483586950893066,-0.0,0.2948834300041199,-1.5832141081439417,-0.0,-0.004944237414747477,0.8806012868881226,0.0,-0.007911124266684055,0.7913085222244263,0.0,0.00853967759758234
8190.0,684.0,0.9954,-0.1011,9.4564,-0.0298,0.0206,-0.1174,-1.3938516092351456,0.0,1.468630313873291,-1.7450305223464966,-0.0,2.188448667526245,4.483611269588135,-0.0,0.28261619806289673,-1.5832183996783655,-0.0,-0.0052542234770953655,0.8805364966392517,0.0,0.0035895996261388063,0.7913287281990051,0.0,-0.003584850113838911
8190.0,684.0,0.9954,-0.1011,9.4564,-0.0298,0.0206,-0.1174,-1.393839792614319,0.0,1.4740997552871704,-1.7450666427612305,-0.0,2.185729742050171,4.483566446895264,-0.0,0.2923648953437805,-1.5831859747516077,-0.0,0.006726941093802452,0.8805205225944519,0.0,0.0008744702208787203,0.7913365960121155,0.0,0.0017958139069378376
8190.0,684.0,0.9954,-0.1011,9.4564,-0.0298,0.0206,-0.1174,-1.3938801449588318,0.0,1.4146065711975098,-1.7450706958770752,-0.0,2.214901924133301,4.4835545259663085,-0.0,0.2986522316932678,-1.5831902662860315,-0.0,-0.009010381065309048,0.8805406093597412,0.0,0.002984140533953905,0.7913370132446289,0.0,-0.01654059998691082
935.0,758.0,0.8949,-0.1621,9.7268,-0.0353,0.0148,-0.1145,-1.3939206910184403,0.0,1.4678267240524292,-1.7450066804885864,-0.0,2.1984002590179443,4.483598871822021,-0.0,0.2877437174320221,-1.583210293446676,-0.0,-0.016963031142950058,0.8806293606758118,0.0,-0.0021612963173538446,0.7913530468940735,0.0,0.02352786995470524
935.0,758.0,0.8949,-0.1621,9.7268,-0.0353,0.0148,-0.1145,-1.3938718748143692,0.0,1.4501053094863892,-1.745042085647583,-0.0,2.203726053237915,4.483562632197998,-0.0,0.29885655641555786,-1.583198372517721,-0.0,0.0014887455618008971,0.8805368542671204,0.0,-0.0052275629714131355,0.791332483291626,0.0,-0.020362162962555885
935.0,758.0,0.8949,-0.1621,9.7268,-0.0353,0.0148,-0.1145,-1.393859864478447,0.0,1.4397385120391846,-1.7450346946716309,-0.0,2.1708221435546875,4.483562632197998,-0.0,0.2984762191772461,-1.5832064787494105,-0.0,-0.014563687145709991,0.8804929852485657,0.0,-0.010293667204678059,0.7912561297416687,0.0,-0.043653931468725204
935.0,758.0,0.8949,-0.1621,9.7268,-0.0353,0.0148,-0.1145,-1.3939083826592942,0.0,1.439387559890747,-1.7450429201126099,-0.0,2.185394763946533,4.483566923732422,-0.0,0.2900376319885254,-1.583182160054342,-0.0,-0.010200027376413345,0.8805974125862122,0.0,-0.0015870736679062247,0.7912925481796265,0.0,-0.014605171978473663
935.0,758.0,0.8949,-0.1621,9.7268,-0.0353,0.0148,-0.1145,-1.3938921701959153,0.0,1.467613935470581,-1.7450222969055176,-0.0,2.2175512313842773,4.483595057124756,-0.0,0.299315869808197,-1.5831735769854944,-0.0,-0.006208817474544048,0.880516767501831,0.0,-0.008951178751885891,0.7912763953208923,0.0,-0.028003927320241928
935.0,758.0,0.8949,-0.1621,9.7268,-0.0353,0.0148,-0.1145,-1.3938639473966141,0.0,1.4599895477294922,-1.745082139968872,-0.0,2.217681884765625,4.483578844661377,-0.0,0.2958734631538391,-1.5831945578204554,-0.0,-0.011962643824517727,0.8805525302886963,0.0,-0.007976926863193512,0.791377067565918,0.0,0.01987350359559059
935.0,758.0,0.8949,-0.1621,9.7268,-0.0353,0.0148,-0.1145,-1.3938680750182648,0.0,1.4033703804016113,-1.744982123374939,-0.0,2.238990068435669,4.483550711269043,-0.0,0.2895943522453308,-1.5831902662860315,-0.0,-0.0030334903858602047,0.8805122375488281,0.0,0.0019763377495110035,0.7913287281990051,0.0,0.0170119758695364
935.0,758.0,0.8949,-0.1621,9.7268,-0.0353,0.0148,-0.1145,-1.3938516241363068,0.0,1.4415898323059082,-1.7450108528137207,-0.0,2.1992321014404297,4.4836155611225585,-0.0,0.28966471552848816,-1.5831659475909632,-0.0,-0.0019352557137608528,0.8805040717124939,0.0,0.006648315582424402,0.7912478446960449,0.0,0.04620252549648285
935.0,758.0,0.8949,-0.1621,9.7268,-0.0353,0.0148,-0.1145,-1.3938880872777482,0.0,1.4493942260742188,-1.7450190782546997,-0.0,2.1566667556762695,4.483566923732422,-0.0,0.3016185164451599,-1.5831945578204554,-0.0,0.0005750377895310521,0.8805086016654968,5.3964164692388294e-08,-0.004829458426684141,0.7912804484367371,0.0,0.01458802167326212
935.0,758.0,0.8949,-0.1621,9.7268,-0.0353,0.0148,-0.1145,-1.3938557219556351,0.0,1.4403659105300903,-1.7450387477874756,-0.0,2.164858102798462,4.483598871822021,-0.0,0.2839547395706177,-1.5831859747516077,-0.0,-0.008771893568336964,0.8805525302886963,9.807721041560358e-13,0.009815447963774204,0.7913044095039368,0.0,-0.004421748220920563
925.0,702.0,0.9763,-0.1119,9.5181,-0.0324,0.0266,-0.1176,-1.3938076061061402,0.0,1.4371528625488281,-1.7450429201126099,-0.0,2.2422633171081543,4.483550711269043,-0.0,0.2893463373184204,-1.5831740538226526,-0.0,-0.012944173999130726,0.8805286288261414,1.1638486019336681e-18,0.0006134412251412868,0.7913165092468262,0.0,-0.02164379134774208
925.0,702.0,0.9763,-0.1119,9.5181,-0.0324,0.0266,-0.1176,-1.3938801449588318,0.0,1.4712955951690674,-1.745058536529541,-0.0,2.190122365951538,4.483526392573975,-0.0,0.2944567799568176,-1.58315354982485,-0.0,-0.01507609337568283,0.8805606961250305,2.115236800674603e-23,-0.001374121755361557,0.7912924885749817,0.0,0.02019406296312809
925.0,702.0,0.9763,-0.1119,9.5181,-0.0324,0.0266,-0.1176,-1.393852100973465,0.0,1.4216549396514893,-1.7450542449951172,-0.0,2.225193977355957,4.4836155611225585,-0.0,0.3010861277580261,-1.5832179228412073,-0.0,-0.0013350412482395768,0.8805405497550964,3.8443384101179104e-28,0.00104360724799335,0.7913447618484497,0.0,-0.020297979936003685
925.0,702.0,0.9763,-0.1119,9.5181,-0.0324,0.0266,-0.1176,-1.3938677918962021,0.0,1.405184268951416,-1.745066523551941,-0.0,2.19838285446167,4.483558817500732,-0.0,0.286679744720459,-1.5832222143756312,-0.0,-0.013483420945703983,0.8805406093597412,4.561942965327599e-34,0.0034611972514539957,0.7913287281990051,0.0,0.012088785879313946
925.0,702.0,0.9763,-0.1119,9.5181,-0.0324,0.0266,-0.1176,-1.3938801747611542,0.0,1.4520299434661865,-1.7450264692306519,-0.0,2.217712163925171,4.483598871822021,-0.0,0.28038859367370605,-1.5831945578204554,-0.0,-0.005394831765443087,0.8805932998657227,8.291106064123039e-39,-0.004296774510294199,0.7912722229957581,0.0,-0.02354118973016739
925.0,702.0,0.9763,-0.1119,9.5181,-0.0324,0.0266,-0.1176,-1.3938397628119965,0.0,1.4402282238006592,-1.7450748682022095,-0.0,2.2145228385925293,4.483598871822021,-0.0,0.2896903455257416,-1.583165470753805,-0.0,-0.016742752864956856,0.8805647492408752,9.80908925027372e-45,-0.004392691887915134,0.791332483291626,0.0,-0.045970164239406586
925.0,702.0,0.9763,-0.1119,9.5181,-0.0324,0.0266,-0.1176,-1.3938639921000977,0.0,1.438568115234375,-1.7450461387634277,-0.0,2.187530994415283,4.4835426050373535,-0.0,0.28802162408828735,-1.5831978956805628,-0.0,-0.0041349236853420734,0.8805606961250305,0.0,-0.010792125016450882,0.7913085222244263,0.0,-0.022304717451334
925.0,702.0,0.9763,-0.1119,9.5181,-0.0324,0.0266,-0.1176,-1.3938719195178528,0.0,1.431113839149475,-1.7450904846191406,-0.0,2.1946394443511963,4.483562632197998,-0.0,0.2892567217350006,-1.5832183996783655,-0.0,0.0026678256690502167,0.8805045485496521,0.0,-0.0023825443349778652,0.791332483291626,0.0,-0.004557785578072071
925.0,702.0,0.9763,-0.1119,9.5181,-0.0324,0.0266,-0.1176,-1.3938557368567963,0.0,1.4178335666656494,-1.7450501918792725,-0.0,2.213350772857666,4.483555002803467,-0.0,0.2945329546928406,-1.5831978956805628,-0.0,-0.013581616804003716,0.8805240988731384,0.0,-0.00773891806602478,0.7912804484367371,0.0,-0.013846415095031261
925.0,702.0,0.9763,-0.1119,9.5181,-0.0324,0.0266,-0.1176,-1.3938516241363068,0.0,1.4345016479492188,-1.7450149059295654,-0.0,2.213392734527588,4.483550711269043,-0.0,0.2921861410140991,-1.5831902662860315,-0.0,-0.025611257180571556,0.8805246353149414,0.0,-0.013081476092338562,0.7912845611572266,0.0,-0.0016477943863719702
925.0,702.0,0.9763,-0.1119,9.5181,-0.0324,0.0266,-0.1176,-1.3938438904336472,0.0,1.4387283325195312,-1.7450584173202515,-0.0,2.2179179191589355,4.483595057124756,-0.0,0.2962530255317688,-1.583165470753805,-0.0,-0.00813285168260336,0.88056480884552,0.0,-0.012190469540655613,0.7912883758544922,0.0,0.03883293643593788
986.0,680.0,1.0636,-0.0987,9.4104,-0.0429,0.026,-0.1196,-1.393880159859993,0.0,1.4145655632019043,-1.7449902296066284,-0.0,2.18056058883667,4.483562632197998,-0.0,0.28912732005119324,-1.5832064787494105,-0.0,0.0003187134861946106,0.8805932402610779,0.0,0.0014226899947971106,0.7913246750831604,0.0,0.004483739845454693
986.0,680.0,1.0636,-0.0987,9.4104,-0.0429,0.026,-0.1196,-1.3938397628119965,0.0,1.4452292919158936,-1.7450387477874756,-0.0,2.217303991317749,4.483562632197998,-0.0,0.2957261800765991,-1.583198372517721,-0.0,-0.0025025242939591408,0.880516767501831,0.0,0.0029959967359900475,0.7913447618484497,0.0,0.020710976794362068
986.0,680.0,1.0636,-0.0987,9.4104,-0.0429,0.026,-0.1196,-1.3938760173371811,0.0,1.4056280851364136,-1.7450789213180542,-0.0,2.1527175903320312,4.483563109035156,-0.0,0.29458165168762207,-1.5831735769854944,-0.0,-0.0047902390360832214,0.8804765939712524,0.0,-0.005137705244123936,0.791340708732605,0.0,0.0015877950936555862
986.0,680.0,1.0636,-0.0987,9.4104,-0.0429,0.026,-0.1196,-1.3938598495772858,0.0,1.4673810005187988,-1.7450182437896729,-0.0,2.2600674629211426,4.483562632197998,-0.0,0.2860671281814575,-1.5831735769854944,-0.0,-0.011862292885780334,0.8805400729179382,0.0,-0.0006603498477488756,0.7912924885749817,0.0,-0.012444273568689823
986.0,680.0,1.0636,-0.0987,9.4104,-0.0429,0.026,-0.1196,-1.3938680750182648,0.0,1.4349180459976196,-1.7450141906738281,-0.0,2.21470308303833,4.483598871822021,-0.0,0.29122117161750793,-1.5831859747516077,-0.0,-0.014601485803723335,0.8805406093597412,0.0,-0.00814738217741251,0.7913126349449158,0.0,0.016317367553710938
986.0,680.0,1.0636,-0.0987,9.4104,-0.0429,0.026,-0.1196,-1.3938921701959153,0.0,1.442900538444519,-1.7450149059295654,-0.0,2.210496187210083,4.483566923732422,-0.0,0.2898309826850891,-1.5831859747516077,-0.0,0.005775600206106901,0.8805364966392517,0.0,-0.010455705225467682,0.7912801504135132,0.0,0.004094095900654793
986.0,680.0,1.0636,-0.0987,9.4104,-0.0429,0.026,-0.1196,-1.3939004254392167,0.0,1.4442846775054932,-1.7450346946716309,-0.0,2.1806037425994873,4.4835707384296875,-0.0,0.28700533509254456,-1.5831902662860315,-0.0,-0.0093858502805233,0.88056480884552,0.0,-7.95070081949234e-05,0.7912843227386475,0.0,0.014780381694436073
986.0,680.0,1.0636,-0.0987,9.4104,-0.0429,0.026,-0.1196,-1.3938883256963273,0.0,1.4544830322265625,-1.7449944019317627,-0.0,2.2476985454559326,4.483510180110596,-0.0,0.29900801181793213,-1.5831902662860315,-0.0,-0.007043839432299137,0.8805487751960754,0.0,-0.004318667575716972,0.7913002967834473,0.0,-0.02213241532444954
986.0,680.0,1.0636,-0.0987,9.4104,-0.0429,0.026,-0.1196,-1.3938475412181397,0.0,1.4536590576171875,-1.7450264692306519,-0.0,2.200910806655884,4.483590765590332,-0.0,0.2853642702102661,-1.583182160054342,-0.0,-0.02124655432999134,0.8805246353149414,0.0,-0.004396824631839991,0.7913446426391602,0.0,0.02036489173769951
986.0,680.0,1.0636,-0.0987,9.4104,-0.0429,0.026,-0.1196,-1.393872232442238,0.0,1.4554812908172607,-1.7450108528137207,-1.660981105226203e-15,2.201852560043335,4.483639402980469,-0.0,0.3047361373901367,-1.5832064787494105,-0.0,-0.006318141706287861,0.8805249333381653,0.0,0.0006329956231638789,0.7913164496421814,-4.880425965160355e-15,-0.004228200297802687
913.0,748.0,0.9745,-0.1226,9.4756,-0.0386,0.02,-0.1194,-1.3938718897155304,0.0,1.4467194080352783,-1.7450141906738281,-5.381367388436383e-23,2.143603801727295,4.4835426050373535,-0.0,0.29284989833831787,-1.5832141081439417,-0.0,-0.008204426616430283,0.8805569410324097,0.0,-0.006114201620221138,0.7913246750831604,-1.581195953868617e-22,-0.016260407865047455
913.0,748.0,0.9745,-0.1226,9.4756,-0.0386,0.02,-0.1194,-1.3938921850970765,0.0,1.4689481258392334,-1.7450666427612305,-2.3391204698682916e-32,2.2109525203704834,4.483558817500732,-0.0,0.29921847581863403,-1.5831902662860315,-0.0,-0.004298691637814045,0.8805172443389893,0.0,-0.004503569565713406,0.7913283109664917,-6.872989103615202e-32,-0.0422673299908638
913.0,748.0,0.9745,-0.1226,9.4756,-0.0386,0.02,-0.1194,-1.393900067811348,0.0,1.3823843002319336,-1.7450059652328491,-7.578460315807546e-40,2.1916329860687256,4.483590765590332,-0.0,0.2878130376338959,-1.5831378141986292,-0.0,0.011044733226299286,0.8805121779441833,0.0,0.0012049026554450393,0.7913283109664917,-2.226761350704637e-39,0.0012720307568088174
913.0,748.0,0.9745,-0.1226,9.4756,-0.0386,0.02,-0.1194,-1.393900380735733,0.0,1.421987533569336,-1.7450306415557861,-0.0,2.2152836322784424,4.483598871822021,-0.0,0.2862017750740051,-1.583165470753805,-0.0,-0.003028654959052801,0.8805327415466309,0.0,0.0034466232173144817,0.7913370132446289,-0.0,0.0373646505177021
913.0,748.0,0.9745,-0.1226,9.4756,-0.0386,0.02,-0.1194,-1.3938842576793213,0.0,1.437217354774475,-1.7450666427612305,-1.5589213134357266e-13,2.188175916671753,4.483607454890869,-0.0,0.288286030292511,-1.5832145849811,-0.0,-0.007518397644162178,0.8804885149002075,0.0,-0.014870784245431423,0.7913085222244263,0.0,-0.010838150046765804
913.0,748.0,0.9745,-0.1226,9.4756,-0.0386,0.02,-0.1194,-1.3938639771989365,0.0,1.4081833362579346,-1.7450387477874756,-5.050706659111967e-21,2.222296953201294,4.483598871822021,-0.0,0.2865493893623352,-1.5832064787494105,-0.0,-0.017676223069429398,0.8805893063545227,0.0,-0.01561345811933279,0.791296124458313,0.0,-0.011793096549808979
913.0,748.0,0.9745,-0.1226,9.4756,-0.0386,0.02,-0.1194,-1.3937953573516388,-2.955119204894885e-10,1.4202418327331543,-1.7450305223464966,-2.1953921819686034e-30,2.1965160369873047,4.483607454890869,-0.0,0.2854730486869812,-1.58315354982485,-0.0,-0.01339033991098404,0.8805933594703674,0.0,-0.0022954531013965607,0.7912801504135132,0.0,0.02356869727373123
913.0,748.0,0.9745,-0.1226,9.4756,-0.0386,0.02,-0.1194,-1.3938441139510651,0.000905316264834255,1.4125285148620605,-1.7450625896453857,-7.112789778453294e-38,2.2015609741210938,4.483622713679932,-0.0,0.29142704606056213,-1.5832141081439417,-0.0,-0.0063013955950737,0.8805282115936279,0.0,-0.0061887712217867374,0.7913365960121155,2.2859720047563314e-05,0.042588215321302414
913.0,748.0,0.9745,-0.1226,9.4756,-0.0386,0.02,-0.1194,-1.393824042086937,0.0006657948833890259,1.4539823532104492,-1.7450190782546997,-0.0,2.1600542068481445,4.483566446895264,-1.502171304013089e-11,0.3026561141014099,-1.5832183996783655,-0.0,-0.006751815788447857,0.8805933594703674,0.0,-0.008418860845267773,0.7913205623626709,3.3625434298301116e-05,-0.02802884951233864
913.0,748.0,0.9745,-0.1226,9.4756,-0.0386,0.02,-0.1194,-1.393828110103943,0.000485983066027984,1.4314796924591064,-1.7450025081634521,-0.0,2.213299512863159,4.483607454890869,-2.7301221848765786e-16,0.2839309275150299,-1.5832141081439417,-0.0,0.004412243142724037,0.8805282115936279,0.0,-0.0022775714751333,0.791332483291626,3.7212706956779584e-05,-0.0319913774728775
8190.0,756.0,1.0397,-0.2273,9.3398,-0.0367,0.0163,-0.1165,-1.3938644391349335,0.00038265393231995404,1.4511001110076904,-1.7449902296066284,-0.0,2.151785373687744,4.4836389261433105,-4.961862695341727e-21,0.28535738587379456,-1.5832703749286097,-0.0,-0.008598350919783115,0.8805205225944519,0.0,-0.0024058136623352766,0.791332483291626,5.154636164661497e-05,-0.03638354688882828
8190.0,756.0,1.0397,-0.2273,9.3398,-0.0367,0.0163,-0.1165,-1.3938240271857758,0.0003023127210326493,1.440436840057373,-1.7450305223464966,-0.0,2.207773208618164,4.483651323909424,-5.888070507707265e-27,0.2960658073425293,-1.5832141081439417,-0.0,0.004369306843727827,0.8805892467498779,0.0,0.005925046280026436,0.7913727164268494,4.7062523663043976e-05,-0.0018150056712329388
8190.0,756.0,1.0397,-0.2273,9.3398,-0.0367,0.0163,-0.1165,-1.3937957745841523,0.0002588387578725815,1.4325363636016846,-1.7449944019317627,-0.0,2.1931300163269043,4.483635111446045,-1.0701276216425459e-31,0.29253119230270386,-1.583249870930807,-0.0,-0.004573042970150709,0.8805606961250305,0.0,-0.002815995365381241,0.791332483291626,4.399514727992937e-05,0.012073613703250885
8190.0,756.0,1.0397,-0.2273,9.3398,-0.0367,0.0163,-0.1165,-1.3938726794770737,0.0001592454209458083,1.4651992321014404,-1.7449944019317627,-0.0,2.1982665061950684,4.483610315913818,-1.2698835733016643e-37,0.28286778926849365,-1.5832021872149866,-0.0,-0.009834514930844307,0.880556583404541,0.0,0.008387938141822815,0.7913488149642944,4.068080670549534e-05,-0.054373618215322495
8190.0,756.0,1.0397,-0.2273,9.3398,-0.0367,0.0163,-0.1165,-1.393848256473877,0.00013949882122687995,1.443157434463501,-1.7450511455535889,-0.0,2.1984715461730957,4.483598871822021,-2.3079385707429737e-42,0.29952365159988403,-1.5832141081439417,-0.0,-0.002881074557080865,0.880592942237854,0.0,-0.0009954619454219937,0.7913405299186707,3.8368452806025743e-05,0.010003109462559223
8190.0,756.0,1.0397,-0.2273,9.3398,-0.0367,0.0163,-0.1165,-1.3938400459340592,8.297145541291684e-05,1.4393173456192017,-1.7450066804885864,-0.0,2.1968207359313965,4.483598871822021,-0.0,0.29785066843032837,-1.583245579396383,-0.0,-0.007644851692020893,0.880492627620697,0.0,0.0034261345863342285,0.7913810014724731,3.630483479355462e-05,-0.01586882211267948
8190.0,756.0,1.0397,-0.2273,9.3398,-0.0367,0.0163,-0.1165,-1.3938520711711426,-0.00015045393956825137,1.4330449104309082,-1.7450101375579834,3.572693822206929e-05,2.210313320159912,4.483595057124756,-0.0,0.2947680652141571,-1.5831740538226526,-0.0,-0.008667992427945137,0.8805646300315857,0.0,-0.006870141718536615,0.7913529276847839,4.080671351402998e-05,-0.014748409390449524
8190.0,756.0,1.0397,-0.2273,9.3398,-0.0367,0.0163,-0.1165,-1.393852100973465,-0.00016452408453915268,1.4810171127319336,-1.745111107826233,3.311620821477845e-05,2.179337739944458,4.483595057124756,-0.0,0.27974799275398254,-1.5832183996783655,-0.0,-0.0071729933843016624,0.8805525898933411,0.0,-1.743389293551445e-05,0.7913246750831604,4.161866129503977e-10,7.316097617149353e-05
8190.0,756.0,1.0397,-0.2273,9.3398,-0.0367,0.0163,-0.1165,-1.3938760322383423,-0.0001372339465888217,1.4736709594726562,-1.7449820041656494,3.0326564228744246e-05,2.2082877159118652,4.483558817500732,-0.0,0.29552382230758667,-1.5832222143756312,-0.0,-0.014058150351047516,0.8805727958679199,0.0,0.00136857433244586,0.7913085222244263,1.8090396052564673e-19,0.012668626382946968
8190.0,756.0,1.0397,-0.2273,9.3398,-0.0367,0.0163,-0.1165,-1.3938598495772858,-0.00033357032225467265,1.4837701320648193,-1.7450182437896729,2.8411857783794403e-05,2.2212419509887695,4.483562632197998,-0.0,0.2946443557739258,-1.5832021872149866,-0.0,0.00504752341657877,0.8805127143859863,0.0,0.006061473861336708,0.7912843227386475,5.8610577994932786e-27,0.03497646749019623
8190.0,800.0,1.1743,0.2004,9.3864,-0.0429,0.0012,-0.1339,-1.3938839596560975,-0.0009236264158971608,1.4243977069854736,-1.7450584173202515,2.6724550480139442e-05,2.1832728385925293,4.483555002803467,-0.0,0.296941876411438,-1.5832303206073206,-0.0,0.003957174718379974,0.8805566430091858,0.0,-0.0007367765065282583,0.7913164496421814,1.8989082679977085e-34,-0.03708334639668465
8190.0,800.0,1.1743,0.2004,9.3864,-0.0429,0.0012,-0.1339,-1.3939487648061295,-0.0007142595713958144,1.4767441749572754,-1.7450026273727417,1.2438919839041773e-05,2.200737476348877,4.483526392573975,-0.0,0.2848898470401764,-1.5831945578204554,-0.0,-0.0082911541685462,0.8805240988731384,0.0,-0.009434573352336884,0.7913405895233154,6.737631338182837e-05,0.009012372232973576
8190.0,800.0,1.1743,0.2004,9.3864,-0.0429,0.0012,-0.1339,-1.3939121675542374,-0.0006213183514773846,1.410959005355835,-1.7450542449951172,2.3414288079948165e-05,2.1606836318969727,4.483630819911621,-0.0,0.2917848825454712,-1.5831902662860315,-0.0,-0.00043883384205400944,0.8805647492408752,0.0,-0.003021613694727421,0.7913085222244263,5.184959445614368e-05,-0.011341759003698826
8190.0,800.0,1.1743,0.2004,9.3864,-0.0429,0.0012,-0.1339,-1.3938636493733902,-0.00041618847171775997,1.4450660943984985,-1.7450108528137207,2.2125661416794173e-05,2.2195279598236084,4.483590765590332,-0.0,0.30118411779403687,-1.5831940809832972,-0.0,-0.008373770862817764,0.880556583404541,0.0,0.0050536273047327995,0.7913287878036499,5.479352323430053e-13,0.008616074919700623
8190.0,800.0,1.1743,0.2004,9.3864,-0.0429,0.0012,-0.1339,-1.3939001125148316,-0.0003291663888376206,1.4897751808166504,-1.7450026273727417,3.163318251608871e-05,2.171272039413452,4.483619375819824,-0.0,0.3034042716026306,-1.583226505910055,-0.0,-0.0011127912439405918,0.8805487155914307,0.0,-0.002135492628440261,0.7912681102752686,1.7752401006987556e-20,0.008728837594389915
8190.0,800.0,1.1743,0.2004,9.3864,-0.0429,0.0012,-0.1339,-1.3938921999982377,-9.88468891591765e-05,1.4214580059051514,-1.7449902296066284,3.9843587728682905e-05,2.2248990535736084,4.483590765590332,-0.0,0.29721546173095703,-1.5831740538226526,-0.0,-0.001227206434123218,0.8806052207946777,0.0,-0.005134287290275097,0.7912843227386475,7.716441447611283e-30,0.005323565099388361
8190.0,800.0,1.1743,0.2004,9.3864,-0.0429,0.0012,-0.1339,-1.3938880574754258,-8.104241715045646e-05,1.4435441493988037,-1.7450025081634521,3.782355938869442e-12,2.195096015930176,4.483558817500732,-0.0,0.28929799795150757,-1.5831945578204554,-0.0,-0.007660392671823502,0.8805080652236938,0.0,-0.0036328670103102922,0.791304349899292,2.5000283400248653e-37,-0.009325250051915646
8190.0,800.0,1.1743,0.2004,9.3864,-0.0429,0.0012,-0.1339,-1.3938516092351456,-0.00010253192158415914,1.4082567691802979,-1.7449779510498047,1.225435119519779e-19,2.2430577278137207,4.483505888576172,-0.0,0.3031666874885559,-1.583198372517721,-0.0,-0.009383995085954666,0.8805406093597412,0.0,-0.003955410793423653,0.7912924885749817,8.407790785948902e-45,-0.006869783625006676
8190.0,800.0,1.1743,0.2004,9.3864,-0.0429,0.0012,-0.1339,-1.393908054833748,-8.65079928189516e-05,1.4312169551849365,-1.7449902296066284,5.326602826943217e-29,2.2031569480895996,4.483566923732422,-0.0,0.3057008981704712,-1.583198372517721,-0.0,-0.012641800567507744,0.8805205225944519,0.0,-0.00255898991599679,0.7913365364074707,0.0,0.029951002448797226
8190.0,800.0,1.1743,0.2004,9.3864,-0.0429,0.0012,-0.1339,-1.3938798022321244,-7.668052421649918e-05,1.410048246383667,-1.7450108528137207,1.725751657955169e-36,2.172311305999756,4.483543081874512,-0.0,0.28926825523376465,-1.583182160054342,-0.0,-0.023468375205993652,0.8805282115936279,0.0,0.02101464569568634,0.7912804484367371,0.0,0.033767059445381165
8190.0,749.0,0.9356,0.2064,9.3488,-0.0166,0.0339,-0.1274,-1.393895984893181,-7.856040610931814e-05,1.4059579372406006,-1.7450149059295654,1.401298464324817e-45,2.151270866394043,4.483522577876709,-8.685176726430655e-05,0.28306344151496887,-1.5831578413592737,-0.0,-0.004345066845417023,0.8805806040763855,0.0,-0.004526283126324415,0.7913085222244263,0.0,0.008242268115282059
8190.0,749.0,0.9356,0.2064,9.3488,-0.0166,0.0339,-0.1274,-1.3939521175673981,-0.0007522053201682866,1.3605451583862305,-1.7450387477874756,-0.0,2.2088632583618164,4.483538790340088,-9.917587885865942e-05,0.2792997360229492,-1.5831096808062952,-0.0,0.004986838903278112,0.8806012272834778,0.0,-0.01331822108477354,0.791308581829071,0.0,0.01721234992146492
8190.0,749.0,0.9356,0.2064,9.3488,-0.0166,0.0339,-0.1274,-1.393915833239891,-0.0030319648794829845,1.333385944366455,-1.7449944019317627,-0.0,2.1881985664367676,4.4835192400166015,-0.00038090901216492057,0.27513623237609863,-1.5831096808062952,-0.0,-0.003619793336838484,0.8805851936340332,0.0,0.0007613355992361903,0.7913208603858948,0.0,0.03560275956988335
8190.0,749.0,0.9356,0.2064,9.3488,-0.0166,0.0339,-0.1274,-1.3940122586539765,-0.007028011605143547,1.344822883605957,-1.7449984550476074,-0.0,2.1402018070220947,4.4835473734089355,-0.00046156818279996514,0.2774554193019867,-1.5831416288958948,-0.0,-0.007910678163170815,0.8805400729179382,0.0,-0.0037202886305749416,0.7912928462028503,-0.00024225274682976305,-0.005059908144176006
8190.0,749.0,0.9356,0.2064,9.3488,-0.0166,0.0339,-0.1274,-1.394084410076477,-0.009786293841898441,1.2812625169754028,-1.7450305223464966,-0.0,2.1505496501922607,4.4835192400166015,-0.0007215574732981622,0.26419687271118164,-1.5831096808062952,-0.0,-0.002456619869917631,0.8805205225944519,0.0,-0.0031645968556404114,0.7912604808807373,-0.000990846659988165,0.02738845720887184
8190.0,749.0,0.9356,0.2064,9.3488,-0.0166,0.0339,-0.1274,-1.3941720438054581,-0.012300413101911545,1.2315177917480469,-1.7450346946716309,-9.616715942684095e-06,2.118785858154297,4.483527346248291,-0.0009490891825407743,0.2729816436767578,-1.5831502119647425,-0.0,0.004897453356534243,0.8806172013282776,0.0,0.00585830956697464,0.7912567853927612,-0.0020546342711895704,-0.0035348795354366302
8190.0,749.0,0.9356,0.2064,9.3488,-0.0166,0.0339,-0.1274,-1.394296334390976,-0.015375432558357716,1.2139039039611816,-1.7450510263442993,-1.0088757335324772e-05,2.1583123207092285,4.48351161062207,-0.0016210040776059031,0.27291300892829895,-1.5830901304828089,1.8446595277055167e-05,0.015035556629300117,0.8805887699127197,0.0,0.012908706441521645,0.791135847568512,-0.004847705364227295,-0.02781754918396473
8190.0,749.0,0.9356,0.2064,9.3488,-0.0166,0.0339,-0.1274,-1.394496665602066,-0.019975442439317703,1.2655634880065918,-1.7450666427612305,-5.537727394699932e-12,2.1416213512420654,4.4834510523029785,-0.005102457944303751,0.2550990581512451,-1.583130184804098,0.00033312977757304907,0.008016441017389297,0.8804802298545837,0.0,0.007112721912562847,0.7911084294319153,-0.012339655309915543,-0.06670185178518295
8190.0,749.0,0.9356,0.2064,9.3488,-0.0166,0.0339,-0.1274,-1.3946365726045151,-0.02031107246875763,1.2393426895141602,-1.7450066804885864,-1.79415345615781e-19,2.116345167160034,4.483379526729248,-0.014463618397712708,0.23495902121067047,-1.5830896536456507,0.00047390369581989944,0.014818147756159306,0.8806212544441223,0.0,0.01319161243736744,0.7909882068634033,-0.01233996357768774,-0.12417099624872208
8190.0,749.0,0.9356,0.2064,9.3488,-0.0166,0.0339,-0.1274,-1.3948008877089997,-0.02011757530272007,1.1935157775878906,-1.7450542449951172,-5.8128298173839e-27,2.109653949737549,4.483303709621094,-0.012005922384560108,0.25488051772117615,-1.583085838948385,0.00041498604696244,0.015533849596977234,0.8805727958679199,0.0,0.005393129773437977,0.7909444570541382,-0.012205736711621284,-0.08128814399242401
8190.0,749.0,0.9356,0.2064,9.3488,-0.0166,0.0339,-0.1274,-1.3950172525695343,-0.021082425490021706,1.1762992143630981,-1.7450066804885864,-2.5266642660763023e-36,2.10201358795166,4.483232184047363,-0.004676295444369316,0.2579573392868042,-1.5830696264850062,0.0003504323831293732,0.018093783408403397,0.8805887699127197,0.0,0.005366593133658171,0.7908082604408264,-0.011307799257338047,-0.09856699407100677
950.0,650.0,0.947,0.0114,9.5659,-0.0374,-0.0011,-0.1341,-1.395165206199028,-0.022852029651403427,1.113964557647705,-1.7449655532836914,-8.127531093083939e-44,2.153250217437744,4.483175917262695,-0.001781411818228662,0.25369274616241455,-1.5830863157855433,0.0003276060160715133,0.02838714048266411,0.8805893063545227,0.0,0.002345434855669737,0.7907039523124695,-0.012060301378369331,-0.12578649818897247
950.0,650.0,0.947,0.0114,9.5659,-0.0374,-0.0011,-0.1341,-1.3953972321799775,-0.027418386191129684,1.1286882162094116,-1.7450108528137207,-0.0,2.1455652713775635,4.483135862941406,-0.0009858717676252127,0.24493104219436646,-1.583045784627096,0.0002836569328792393,0.02610589936375618,0.880588710308075,0.0,-0.0013619335368275642,0.7906280755996704,-0.011469433084130287,-0.1399892419576645
950.0,650.0,0.947,0.0114,9.5659,-0.0374,-0.0011,-0.1341,-1.3956333559802552,-0.028770985081791878,1.1067912578582764,-1.7450108528137207,-0.0,2.118490219116211,4.483200235957764,-0.001870391541160643,0.23741765320301056,-1.5830901304828089,0.00023881910601630807,0.028903834521770477,0.880540132522583,5.039954658059287e-07,0.01588638499379158,0.7904878258705139,-0.01089919451624155,-0.14854876697063446
950.0,650.0,0.947,0.0114,9.5659,-0.0374,-0.0011,-0.1341,-1.395898015504219,-0.02854459546506405,1.0880838632583618,-1.7449780702590942,-0.0,2.078874111175537,4.48311631261792,-0.00241485214792192,0.231167733669281,-1.5830581823932093,0.00023673400573898107,0.03183338791131973,0.8805441856384277,9.159868176455976e-12,-0.0011127297766506672,0.7904443740844727,-0.012328317388892174,-0.13174480199813843
950.0,650.0,0.947,0.0114,9.5659,-0.0374,-0.0011,-0.1341,-1.3961095374873658,-0.027022823691368103,1.0973612070083618,-1.7450149059295654,-4.0213817555923015e-05,2.060483932495117,4.483076258296631,-0.0014146179892122746,0.23965610563755035,-1.5830701033221644,0.00022762677690479904,0.051872774958610535,0.8805846571922302,1.0869698360970456e-17,0.007521891500800848,0.7903398871421814,-0.010116673074662685,-0.18003740906715393
950.0,650.0,0.947,0.0114,9.5659,-0.0374,-0.0011,-0.1341,-1.396337704067566,-0.02568093314766884,1.0645840167999268,-1.7449860572814941,-5.5372445785906166e-05,2.0945181846618652,4.483132525081299,-0.001212068134918809,0.22298231720924377,-1.583062473927633,0.00021253492741379887,0.05674263834953308,0.8805934190750122,1.9755138202507297e-22,-0.0034700483083724976,0.790239691734314,-0.008708490058779716,-0.16370230913162231
950.0,650.0,0.947,0.0114,9.5659,-0.0374,-0.0011,-0.1341,-1.3966145676425477,-0.022972578182816505,1.0577306747436523,-1.7450066804885864,0.00014154991367831826,2.1185989379882812,4.48311631261792,-0.001407800940796733,0.24224737286567688,-1.5830419699298304,0.00020949369354639202,0.051175229251384735,0.8805122375488281,2.344273706152226e-28,0.00819937139749527,0.7901511788368225,-0.006316016428172588,-0.16743776202201843
950.0,650.0,0.947,0.0114,9.5659,-0.0374,-0.0011,-0.1341,-1.396786020403244,-0.020673204213380814,1.065732717514038,-1.745066523551941,0.0001615476212464273,2.1055893898010254,4.483108683223389,-0.000854307203553617,0.23040390014648438,-1.5830662886248987,0.0002117088733939454,0.05754557624459267,0.8806402087211609,4.2606016824164436e-33,0.025094788521528244,0.7901759147644043,-0.0036597957368940115,-0.15811121463775635
950.0,650.0,0.947,0.0114,9.5659,-0.0374,-0.0011,-0.1341,-1.396909938459732,-0.02064133621752262,1.0165272951126099,-1.7449944019317627,0.00013034774747211486,2.135592222213745,4.483132525081299,-0.0005790974828414619,0.2331651896238327,-1.5830581823932093,0.00021328427828848362,0.034304793924093246,0.8806006908416748,7.743432381415578e-38,0.009936630725860596,0.7901273965835571,-0.001652332372032106,-0.17497065663337708
950.0,650.0,0.947,0.0114,9.5659,-0.0374,-0.0011,-0.1341,-1.397166670565941,-0.023202966898679733,1.0064212083816528,-1.744970440864563,0.00010500059579499066,2.0609681606292725,4.483124418849609,-0.0002985454339068383,0.2288646101951599,-1.5830825010882776,0.0002449435123708099,0.05897907912731171,0.8805241584777832,9.248569864543793e-44,0.008443417958915234,0.7901597619056702,-0.00028310189372859895,-0.20205767452716827
960.0,622.0,1.2419,-0.658,9.2973,-0.0553,-0.0102,-0.1203,-1.3973222535899659,-0.027978675439953804,0.9811614751815796,-1.7450026273727417,0.00012115383287891746,2.0566625595092773,4.483152552241943,-0.0002359111385885626,0.22055236995220184,-1.583005730305807,0.00024117850989568979,0.051401227712631226,0.880608856678009,0.0,0.0035514305345714092,0.790187418460846,-7.672296487726271e-05,-0.15304216742515564
960.0,622.0,1.2419,-0.658,9.2973,-0.0553,-0.0102,-0.1203,-1.3976912510446091,-0.03732914850115776,0.9334596395492554,-1.744970440864563,0.00017190678045153618,2.0867085456848145,4.483112021083496,-0.00022428538068197668,0.21913394331932068,-1.583062473927633,0.00022159040963742882,0.06197052448987961,0.8805928826332092,0.0,0.004368039779365063,0.7901636362075806,-7.846064293062782e-13,-0.17651063203811646
960.0,622.0,1.2419,-0.658,9.2973,-0.0553,-0.0102,-0.1203,-1.3979633164456864,-0.04296348989009857,0.9300341606140137,-1.7449105978012085,0.0001789072121027857,2.0539779663085938,4.483103914851807,-0.00019232844351790845,0.22129493951797485,-1.5830381552325647,0.0002008020383073017,0.06015362590551376,0.8805364966392517,0.0,0.006522471085190773,0.7901676893234253,-2.5420253809841884e-20,-0.18135440349578857
960.0,622.0,1.2419,-0.658,9.2973,-0.0553,-0.0102,-0.1203,-1.398439423446991,-0.052290063351392746,0.9520378708839417,-1.7449499368667603,0.0001791038957890123,2.0586092472076416,4.48311631261792,-0.00019046162196900696,0.2139052152633667,-1.5830138365374964,0.0001731977827148512,0.05763900279998779,0.880511999130249,0.0,0.01772307977080345,0.7901556491851807,-1.1049430230610759e-29,-0.22419682145118713
960.0,622.0,1.2419,-0.658,9.2973,-0.0553,-0.0102,-0.1203,-1.3989039224437256,-0.0586283840239048,0.9233379364013672,-1.7449827194213867,0.00018379016546532512,2.0521607398986816,4.483143969173096,-0.00018183281645178795,0.20469963550567627,-1.5830257574664515,0.0001783269108273089,0.06535635888576508,0.8805686831474304,0.0,0.008546484634280205,0.7901479005813599,-3.579875438658444e-37,-0.2178230881690979
960.0,622.0,1.2419,-0.658,9.2973,-0.0553,-0.0102,-0.1203,-1.3994808507016678,-0.06702891737222672,0.9234060645103455,-1.7449662685394287,0.00016676269297022372,2.024872303009033,4.4831482607075195,-0.0001515351323178038,0.20526084303855896,-1.583029572163717,0.00015180508489720523,0.0698377713561058,0.8805928230285645,0.0,-0.0012142907362431288,0.7901436686515808,-1.1210387714598537e-44,-0.1748386025428772
960.0,622.0,1.2419,-0.658,9.2973,-0.0553,-0.0102,-0.1203,-1.4001771968654175,-0.07279953360557556,0.888529896736145,-1.7449384927749634,0.0001494550087954849,2.100491523742676,4.48309247076001,-0.00020476817735470831,0.21119000017642975,-1.5830581823932093,0.00015517973224632442,0.0779436007142067,0.8804998397827148,0.0,-0.0006298525258898735,0.7900752425193787,0.0,-0.19477373361587524
960.0,622.0,1.2419,-0.658,9.2973,-0.0553,-0.0102,-0.1203,-1.400793419485428,-0.07758785784244537,0.8970139622688293,-1.7450354099273682,0.00012075067206751555,2.0707578659057617,4.483096285457275,-0.0012842416763305664,0.1981167495250702,-1.583033863698141,0.00013927419786341488,0.07653931528329849,0.8806093335151672,0.0,0.014471840113401413,0.7901759147644043,-0.00042773105087690055,-0.25097042322158813
960.0,622.0,1.2419,-0.658,9.2973,-0.0553,-0.0102,-0.1203,-1.4016056668809433,-0.07964032143354416,0.9237787127494812,-1.7450345754623413,0.00011018804798368365,2.034158229827881,4.4830519396015625,-0.0019318090053275228,0.20415166020393372,-1.583005730305807,0.0001540329394629225,0.06965027749538422,0.880601167678833,0.0,0.006211249623447657,0.7901273965835571,-0.0003989282704424113,-0.20422931015491486
960.0,622.0,1.2419,-0.658,9.2973,-0.0553,-0.0102,-0.1203,-1.402237431412079,-0.08032258599996567,0.8784841895103455,-1.744942545890808,0.00010314583778381348,2.0166029930114746,4.483032389278076,-0.0023931614123284817,0.18902555108070374,-1.583017651234762,0.00015071293455548584,0.08281095325946808,0.8805768489837646,0.0,0.0020322375930845737,0.7902286052703857,-0.0003226992557756603,-0.23125016689300537
8190.0,674.0,0.4493,-0.3691,9.4726,-0.062,-0.047,-0.12,-1.40297785521064,-0.08884073793888092,0.8146460056304932,-1.7449820041656494,4.389801324578002e-05,2.0199332237243652,4.483016653651855,-0.0047598532401025295,0.19837182760238647,-1.5830381552325647,0.0001958764041773975,0.09884637594223022,0.8806211948394775,0.0,0.00059563631657511,0.7901237607002258,-0.00026782791246660054,-0.20965144038200378
8190.0,674.0,0.4493,-0.3691,9.4726,-0.062,-0.047,-0.12,-1.4038899701884766,-0.10299093276262283,0.8920032978057861,-1.7449902296066284,5.790640716440976e-05,2.070955991744995,4.482980414027832,-0.005605668295174837,0.18208874762058258,-1.583017651234762,0.00022409812663681805,0.08901558816432953,0.8805360794067383,0.0,0.012109420262277126,0.7901113629341125,-0.0002522732247598469,-0.18389396369457245
8190.0,674.0,0.4493,-0.3691,9.4726,-0.062,-0.047,-0.12,-1.404685766702034,-0.11424217373132706,0.7896411418914795,-1.744894027709961,0.00018310020095668733,2.0489392280578613,4.482936545009277,-0.0033106363844126463,0.18592196702957153,-1.5830262343036097,0.00019703285943251103,0.10011235624551773,0.880540132522583,0.0,0.0034063418861478567,0.7901196479797363,-0.0001861545315477997,-0.2142738699913025
8190.0,674.0,0.4493,-0.3691,9.4726,-0.062,-0.047,-0.12,-1.4059023273042222,-0.11506517976522446,0.8369021415710449,-1.7449103593826294,0.0024011624045670033,2.002861976623535,4.482956572169922,-0.0004758732975460589,0.18404224514961243,-1.5830748716937464,0.00019472697749733925,0.10114723443984985,0.8805240392684937,0.0,-0.011846078559756279,0.7901356220245361,-0.0006716301431879401,-0.281070351600647
8190.0,674.0,0.4493,-0.3691,9.4726,-0.062,-0.047,-0.12,-1.4068459582379838,-0.10997442901134491,0.8171809315681458,-1.7448660135269165,0.0023069472517818213,2.041318655014038,4.4830047327229,-0.0003087373042944819,0.1898622065782547,-1.583017651234762,0.0002115576935466379,0.1159047856926918,0.8805441856384277,0.0,-0.004423041827976704,0.7901195883750916,-0.00059259042609483,-0.2851622998714447
8190.0,674.0,0.4493,-0.3691,9.4726,-0.062,-0.047,-0.12,-1.407777727847435,-0.10757172107696533,0.8417074084281921,-1.744910478591919,0.0009798761457204819,2.009469509124756,4.482944651240967,-0.0002459622628521174,0.19013714790344238,-1.583005730305807,0.00017808598931878805,0.11129127442836761,0.8806212544441223,0.0,-0.0036294409073889256,0.7901759147644043,-0.00019966949184890836,-0.23934805393218994
8190.0,674.0,0.4493,-0.3691,9.4726,-0.062,-0.047,-0.12,-1.4090061348727723,-0.12725581228733063,0.8054291009902954,-1.744942545890808,5.709081644933445e-12,2.025446891784668,4.4828688341328125,-0.004562707152217627,0.18318268656730652,-1.5830138365374964,0.0001783283951226622,0.11104105412960052,0.8804962038993835,0.0,-0.006572242826223373,0.7901355028152466,-6.424398452509195e-05,-0.23255470395088196
8190.0,674.0,0.4493,-0.3691,9.4726,-0.062,-0.047,-0.12,-1.4099581104568024,-0.1421077996492386,0.798885703086853,-1.744894027709961,1.849669812216277e-19,2.012894868850708,4.482893152827881,-0.004428596701472998,0.18914955854415894,-1.583005730305807,0.00015757273649796844,0.10085731744766235,0.880613386631012,0.0,0.0013608189765363932,0.7901479005813599,-9.784412395674735e-05,-0.24307452142238617
8190.0,674.0,0.4493,-0.3691,9.4726,-0.062,-0.047,-0.12,-1.4113100183061142,-0.14354263246059418,0.7578275203704834,-1.7448463439941406,0.003162610111758113,2.01668643951416,4.482900782222412,-0.0005310983979143202,0.18598572909832,-1.5830586592303675,0.00015740883827675134,0.10589948296546936,0.8805646896362305,0.0,0.0005625240155495703,0.7901437282562256,-0.00011710690887412056,-0.24998989701271057
8190.0,674.0,0.4493,-0.3691,9.4726,-0.062,-0.047,-0.12,-1.4124023926309128,-0.12693962454795837,0.7902609705924988,-1.7448232173919678,0.007087826728820801,2.031492233276367,4.482872648830078,-0.00010797733557410538,0.18781346082687378,-1.5829976240741175,0.00014559569535776973,0.11862459778785706,0.8805892467498779,0.0,-0.00030028284527361393,0.7902083396911621,-9.992988634621724e-05,-0.2374642789363861
939.0,613.0,2.0076,-0.2518,9.3823,-0.0596,-0.1764,-0.1173,-1.41374226034198,-0.12145248055458069,0.8407158851623535,-1.7447993755340576,0.0042315516620874405,2.0457587242126465,4.48293320714917,-0.00013363425387069583,0.1714152693748474,-1.5830381552325647,0.00013051406131125987,0.12035787105560303,0.8805768489837646,0.0,-0.009465459734201431,0.7901595234870911,7.14748675818555e-05,-0.2729623317718506
939.0,613.0,2.0076,-0.2518,9.3823,-0.0596,-0.1764,-0.1173,-1.414774329667427,-0.136747345328331,0.8365957736968994,-1.744758129119873,1.1953730790992267e-05,1.9873549938201904,4.482848806972168,-0.00015541096217930317,0.1909293234348297,-1.5830381552325647,0.00012052611418766901,0.0753183364868164,0.8805282711982727,0.0,-0.004196918103843927,0.7902039885520935,9.270949522033334e-05,-0.260878324508667
939.0,613.0,2.0076,-0.2518,9.3823,-0.0596,-0.1764,-0.1173,-1.4158626061728974,-0.15169614553451538,0.7602068185806274,-1.7447509765625,3.8728560831403913e-13,2.0566675662994385,4.482856436366699,-0.0001264831516891718,0.18338990211486816,-1.583017651234762,0.0001119584558182396,0.12150568515062332,0.8806211948394775,0.0,0.009362099692225456,0.7901676893234253,0.0001547620922792703,-0.25355929136276245
939.0,613.0,2.0076,-0.2518,9.3823,-0.0596,-0.1764,-0.1173,-1.4173112523606797,-0.14349068701267242,0.8086053729057312,-1.7446990013122559,0.0044835414737463,2.05399227142334,4.482916517848633,0.00011364279635017738,0.19313187897205353,-1.583005730305807,0.00010282195580657572,0.10650850832462311,0.8806011080741882,0.0,-0.005010019522160292,0.7901520133018494,7.344068062020703e-12,-0.28832805156707764
939.0,613.0,2.0076,-0.2518,9.3823,-0.0596,-0.1764,-0.1173,-1.4183987391046067,-0.12646609544754028,0.9191714525222778,-1.7446306943893433,0.012026553973555565,2.0677475929260254,4.482945128078125,0.0009978569578379393,0.19432049989700317,-1.5830381552325647,9.652074368204921e-05,0.11513736844062805,0.8805851340293884,0.0,-0.003377692773938179,0.7901356816291809,-0.0015739880036562681,-0.262987345457077
939.0,613.0,2.0076,-0.2518,9.3823,-0.0596,-0.1764,-0.1173,-1.4197271329215546,-0.12853136658668518,0.8797540664672852,-1.7445435523986816,0.008795961737632751,2.0439820289611816,4.482876940364502,0.0002254415157949552,0.20373287796974182,-1.583017651234762,8.965287997853011e-05,0.09752774238586426,0.8806211948394775,0.0,-0.0003217104822397232,0.7900910973548889,-0.00014893455954734236,-0.23719167709350586
939.0,613.0,2.0076,-0.2518,9.3823,-0.0596,-0.1764,-0.1173,-1.4207665485194703,-0.14112043380737305,0.8783746957778931,-1.7445114850997925,0.003073703031986952,2.014611005783081,4.48293320714917,0.00015002107829786837,0.18982012569904327,-1.5830100218402308,8.482458360958844e-05,0.10070691257715225,0.8805687427520752,0.0,-0.003905616234987974,0.7901520133018494,-1.347233435922135e-11,-0.2153676301240921
939.0,613.0,2.0076,-0.2518,9.3823,-0.0596,-0.1764,-0.1173,-1.4218309086612244,-0.14572960138320923,0.9214129447937012,-1.7445154190063477,0.0015422237338498235,2.0197112560272217,4.482948942775391,0.0001124913469539024,0.2026737630367279,-1.5830019156085413,8.048958261497319e-05,0.1063370406627655,0.8805241584777832,0.0,-0.00038649258203804493,0.7900792360305786,-4.364865105356168e-19,-0.2273569405078888
939.0,613.0,2.0076,-0.2518,9.3823,-0.0596,-0.1764,-0.1173,-1.423114688401558,-0.12628379464149475,0.9020358324050903,-1.7444159984588623,0.006623021326959133,2.030468225479126,4.482944651240967,0.00012855180830229074,0.19814792275428772,-1.5830138365374964,7.565663690911606e-05,0.09908647835254669,0.8805446028709412,0.0,-0.00576211279258132,0.7900795340538025,-0.0008870487217791378,-0.20527824759483337
939.0,613.0,2.0076,-0.2518,9.3823,-0.0596,-0.1764,-0.1173,-1.4241308134845276,-0.12004803121089935,0.9374408721923828,-1.744323968887329,0.009982337243855,2.0514755249023438,4.482928915614746,0.00013459114416036755,0.21629470586776733,-1.5829938093768519,7.218900282168761e-05,0.10246029496192932,0.8805768489837646,0.0,-0.012046474032104015,0.7901237607002258,-0.0006189070991240442,-0.21748030185699463
945.0,541.0,2.3246,-0.1095,8.8505,-0.0412,-0.157,-0.1228,-1.425386757855751,-0.12234096974134445,0.9515827894210815,-1.744256615638733,0.008336963132023811,2.0863873958587646,4.482896490687988,9.101848991122097e-05,0.19396570324897766,-1.5830782095538538,5.86944963743008e-07,0.09319815039634705,0.8806010484695435,0.0,0.007660749368369579,0.7901561260223389,-0.0003278173680882901,-0.2366798371076584
945.0,541.0,2.3246,-0.1095,8.8505,-0.0412,-0.157,-0.1228,-1.4263911408237,-0.1276349425315857,0.9557031989097595,-1.74424409866333,0.0031353305093944073,2.082125186920166,4.482896490687988,-2.7758174837799743e-05,0.2069312185049057,-1.5830419699298304,2.3160106138675474e-05,0.09553927183151245,0.8805361390113831,0.0,-0.000429381150752306,0.7901315689086914,-0.00025383688625879586,-0.20737867057323456
945.0,541.0,2.3246,-0.1095,8.8505,-0.0412,-0.157,-0.1228,-1.4275585573962708,-0.12067868560552597,1.0111339092254639,-1.7441685199737549,0.0011542283464223146,2.057358741760254,4.482928915614746,-6.204646751939435e-08,0.20475642383098602,-1.5830214659320276,2.175960071326699e-05,0.08990120142698288,0.8805768489837646,0.0,0.001850432250648737,0.790075421333313,-0.0002373964962316677,-0.21305033564567566
945.0,541.0,2.3246,-0.1095,8.8505,-0.0412,-0.157,-0.1228,-1.4284991931966324,-0.1068631187081337,0.9833908081054688,-1.7441437244415283,0.003600161289796233,2.1009013652801514,4.482940836543701,-1.1276638260324101e-12,0.1923370510339737,-1.5830419699298304,2.0755947844008915e-05,0.11039605736732483,0.8805851936340332,0.0,0.007379760034382343,0.7900510430335999,-0.0002356999320909381,-0.15082451701164246
945.0,541.0,2.3246,-0.1095,8.8505,-0.0412,-0.157,-0.1228,-1.4294028592160721,-0.10877902060747147,0.9347046613693237,-1.7441363334655762,0.003311809618026018,2.099437713623047,4.48292510091748,-2.0494736399871146e-17,0.19729480147361755,-1.5830863157855433,1.0056917744805105e-05,0.09754981100559235,0.8806248307228088,0.0,-0.0041504111140966415,0.7900915741920471,-0.00020501947437878698,-0.24656477570533752
945.0,541.0,2.3246,-0.1095,8.8505,-0.0412,-0.157,-0.1228,-1.4305385810187836,-0.11700937151908875,0.9798570871353149,-1.7441166639328003,0.0017021793173626065,2.111180067062378,4.482872648830078,-2.4320397114511972e-23,0.20459720492362976,-1.583005730305807,1.1934194951712662e-11,0.09599201381206512,0.8805927634239197,0.0,0.0009967489168047905,0.7901319861412048,-0.00017632805975154042,-0.28126585483551025
945.0,541.0,2.3246,-0.1095,8.8505,-0.0412,-0.157,-0.1228,-1.4314585340074082,-0.1160527914762497,0.945094108581543,-1.7441692352294922,0.002063881140202284,2.072760581970215,4.48292510091748,-4.420111778138245e-28,0.19653992354869843,-1.5830262343036097,2.1689811214685298e-16,0.1078682392835617,0.8805767893791199,0.0,-0.005855132360011339,0.7901117205619812,-0.00018122806795872748,-0.2186087816953659
945.0,541.0,2.3246,-0.1095,8.8505,-0.0412,-0.157,-0.1228,-1.4326471102288743,-0.10724437981843948,0.9697902202606201,-1.744104266166687,0.0029828506521880627,2.0550687313079834,4.482888384456299,-5.245193546613284e-34,0.1889515221118927,-1.5830662886248987,2.5738552243122597e-22,0.10996292531490326,0.8805769085884094,0.0,0.010106290690600872,0.7900956869125366,-0.00011093815555796027,-0.19820460677146912
945.0,541.0,2.3246,-0.1095,8.8505,-0.0412,-0.157,-0.1228,-1.4335471105626603,-0.09996868669986725,0.9648329615592957,-1.7440896034240723,0.003438518848270178,2.0360841751098633,4.4828807550617675,-9.532880711269119e-39,0.19922852516174316,-1.583050552998678,4.677855034439203e-27,0.10741609334945679,0.8805806040763855,0.0,0.0219563115388155,0.7901080846786499,-0.0001009803163469769,-0.2119358479976654
945.0,541.0,2.3246,-0.1095,8.8505,-0.0412,-0.157,-0.1228,-1.434354842906334,-0.10771653056144714,0.9524825811386108,-1.7440533638000488,0.0018234893213957548,2.034811019897461,4.482916994685791,-4.8953363148029894e-05,0.1951967477798462,-1.5830462614642542,8.501770533035475e-32,0.09814047068357468,0.8806167244911194,0.0,-0.0012844824232161045,0.7900792360305786,-9.266292909160256e-05,-0.2498825192451477
945.0,541.0,2.3246,-0.1095,8.8505,-0.0412,-0.157,-0.1228,-1.4354911756566544,-0.11975416541099548,0.9330660700798035,-1.7440369129180908,0.00026875417097471654,1.9937208890914917,4.48284833013501,-0.0007467829855158925,0.18867246806621552,-1.5830138365374964,1.0088757034667352e-37,0.1197306215763092,0.8806012272834778,0.0,0.009087851271033287,0.7900956869125366,-0.00011565355816856027,-0.2544432282447815
864.0,509.0,1.3496,0.265,9.2028,-0.037,-0.0654,-0.1338,-1.4364752781442185,-0.128729447722435,0.8799811005592346,-1.7440491914749146,0.0003328587336000055,2.0065321922302246,4.482856436366699,-0.0007051696884445846,0.1705683171749115,-1.5830100218402308,1.8328983913368607e-42,0.10905417799949646,0.8805887699127197,0.0,0.0040928032249212265,0.7900592684745789,-0.0003397829132154584,-0.24985045194625854
864.0,509.0,1.3496,0.265,9.2028,-0.037,-0.0654,-0.1338,-1.4377515029958268,-0.1177172139286995,0.8580907583236694,-1.7439892292022705,0.0058195567689836025,2.0458145141601562,4.482872648830078,-0.0001945550029631704,0.16676652431488037,-1.5830419699298304,0.0,0.11029765009880066,0.8805768489837646,0.0,-0.00737655209377408,0.7900517582893372,-0.002681420650333166,-0.21928775310516357
864.0,509.0,1.3496,0.265,9.2028,-0.037,-0.0654,-0.1338,-1.4387272906354447,-0.10779518634080887,0.8572707772254944,-1.7439734935760498,0.004943615756928921,2.009173631668091,4.4828125673481445,-0.00020365265663713217,0.1691937893629074,-1.5829857031451624,0.0,0.11319601535797119,0.8805768489837646,0.0,0.0018972591497004032,0.7900033593177795,-0.0022070298437029123,-0.225249782204628
864.0,509.0,1.3496,0.265,9.2028,-0.037,-0.0654,-0.1338,-1.4396712642959137,-0.11601226776838303,0.8197082281112671,-1.7439734935760498,0.0016513637965545058,2.0149402618408203,4.482853098506592,-0.001036817324347794,0.16998374462127686,-1.5830262343036097,0.0,0.12285009026527405,0.8805767297744751,0.0,0.014265613630414009,0.7900112271308899,-0.0012092958204448223,-0.25585484504699707
864.0,509.0,1.3496,0.265,9.2028,-0.037,-0.0654,-0.1338,-1.4409075242332001,-0.13778214156627655,0.7973421812057495,-1.7439974546432495,3.4204572507690045e-09,1.9805489778518677,4.482796831721924,-0.0032863339874893427,0.17177578806877136,-1.5830143133746546,0.0,0.11065748333930969,0.8805887699127197,0.0,-0.0023871029261499643,0.7899953722953796,-0.0006609227857552469,-0.24124586582183838
864.0,509.0,1.3496,0.265,9.2028,-0.037,-0.0654,-0.1338,-1.4418874990991135,-0.1417362242937088,0.8160703182220459,-1.7439372539520264,1.1081845868980299e-16,1.9743638038635254,4.482833071345947,-0.0019810867961496115,0.1809319257736206,-1.583033863698141,0.0,0.10938625037670135,0.880608856678009,0.0,0.004999825265258551,0.7900118827819824,-0.002852817764505744,-0.25760433077812195
864.0,509.0,1.3496,0.265,9.2028,-0.037,-0.0654,-0.1338,-1.443223537211754,-0.1277010291814804,0.9111175537109375,-1.743821382522583,0.010133461095392704,2.0059893131256104,4.482856913203857,-0.0004681156715378165,0.16241401433944702,-1.583005730305807,2.4202819986385293e-05,0.12575499713420868,0.8805851936340332,0.0,2.0469771698117256e-05,0.7898990511894226,-0.005950795020908117,-0.2586548626422882
864.0,509.0,1.3496,0.265,9.2028,-0.037,-0.0654,-0.1338,-1.4442916226438065,-0.11504223197698593,0.9037138223648071,-1.7437859773635864,0.012049159966409206,2.0432024002075195,4.482836886043213,-0.00030720370705239475,0.1685483753681183,-1.5830586592303675,2.2968388293520547e-05,0.11750850081443787,0.8806172013282776,0.0,-0.007717851083725691,0.789903461933136,-0.00604063319042325,-0.27507150173187256
864.0,509.0,1.3496,0.265,9.2028,-0.037,-0.0654,-0.1338,-1.4455919873765488,-0.12526802718639374,0.8407481908798218,-1.743741512298584,0.006403340958058834,2.063387155532837,4.482801123256348,-0.00017432794265914708,0.1781689077615738,-1.583078686391012,2.1590865799225867e-05,0.12032295763492584,0.8806012272834778,0.0,0.003985517658293247,0.7898752689361572,-0.002904408611357212,-0.2655748128890991
864.0,509.0,1.3496,0.265,9.2028,-0.037,-0.0654,-0.1338,-1.4465357598713418,-0.14243917167186737,0.9027297496795654,-1.7437463998794556,0.0016918685287237167,2.052037477493286,4.482844992274902,-0.0005922898999415338,0.17764189839363098,-1.5830100218402308,3.085862044827081e-05,0.11287498474121094,0.8806293606758118,0.0,-0.01252772193402052,0.7898392677307129,-0.001319839502684772,-0.23045970499515533
815.0,486.0,0.7711,-0.6239,8.747,-0.0498,-0.0754,-0.1231,-1.4475796234658738,-0.1447361707687378,0.8262165784835815,-1.7436938285827637,0.0032413622830063105,2.027562141418457,4.482788725490234,-0.00031744514126330614,0.18140669167041779,-1.5829570929156702,3.8484558899654076e-06,0.114625483751297,0.880601167678833,0.0,-0.004863564390689135,0.7898313999176025,-0.0019433118868619204,-0.23573000729084015
815.0,486.0,0.7711,-0.6239,8.747,-0.0498,-0.0754,-0.1231,-1.4489196178368111,-0.11990120261907578,0.934471845626831,-1.7435302734375,0.013521840795874596,2.0655055046081543,4.482795878047607,-0.00016378397413063794,0.18250420689582825,-1.5830300490008753,4.5668291197287214e-12,0.10750945657491684,0.8805686831474304,0.0,-0.006008448079228401,0.7897308468818665,-0.006306042894721031,-0.26709744334220886
815.0,486.0,0.7711,-0.6239,8.747,-0.0498,-0.0754,-0.1231,-1.4499281135252495,-0.11235544830560684,0.9346364736557007,-1.7434265613555908,0.01789965108036995,2.0568785667419434,4.482833071345947,9.406686149304733e-05,0.18028342723846436,-1.5830381552325647,8.299985191149753e-17,0.12231142818927765,0.8805245161056519,0.0,-0.0013044684892520308,0.789743185043335,-0.005380367394536734,-0.2943052351474762
815.0,486.0,0.7711,-0.6239,8.747,-0.0498,-0.0754,-0.1231,-1.4511721742204209,-0.12837401032447815,0.9482198357582092,-1.743274211883545,0.013639155775308609,2.050314426422119,4.4827844339558105,1.5231488958988848e-08,0.17297706007957458,-1.5829938093768519,9.849304530563942e-23,0.1107005923986435,0.8805080056190491,0.0,0.0029144517611712217,0.7897671461105347,-0.0016284198500216007,-0.2774850130081177
815.0,486.0,0.7711,-0.6239,8.747,-0.0498,-0.0754,-0.1231,-1.4521154400757332,-0.1400948464870453,0.8746284246444702,-1.743123173713684,0.011253048665821552,1.9992890357971191,4.4828125673481445,2.768247870515994e-13,0.1855996549129486,-1.5830023924456995,1.790062520158516e-27,0.1181466355919838,0.880608856678009,0.0,0.005651192739605904,0.7896949648857117,-0.0008002081303857267,-0.2415330708026886
815.0,486.0,0.7711,-0.6239,8.747,-0.0498,-0.0754,-0.1231,-1.4531356033733864,-0.13454551994800568,0.9112169146537781,-1.743026614189148,0.015302506275475025,2.0295934677124023,4.4827610689350585,5.0311536086960735e-18,0.17975172400474548,-1.5829737822162073,3.253350180960787e-32,0.12083849310874939,0.8805081248283386,0.0,0.0002765296958386898,0.7896832823753357,-0.002136888215318322,-0.29543378949165344
815.0,486.0,0.7711,-0.6239,8.747,-0.0498,-0.0754,-0.1231,-1.4543878597072144,-0.11623512953519821,0.8876822590827942,-1.742840051651001,0.026243383064866066,2.0274789333343506,4.482829256648682,5.970295362647565e-24,0.17964838445186615,-1.5829694906817835,9.452933591092005e-05,0.1311592161655426,0.8806126117706299,0.0,-0.007295875810086727,0.7896509170532227,-0.003778422251343727,-0.25285500288009644
815.0,486.0,0.7711,-0.6239,8.747,-0.0498,-0.0754,-0.1231,-1.4553680804422875,-0.1196284145116806,0.9640718102455139,-1.742584228515625,0.0316636860370636,2.0935683250427246,4.4827844339558105,1.0850715788214422e-28,0.20390665531158447,-1.5830419699298304,8.777436596574262e-05,0.11569055169820786,0.8805040717124939,0.0,-0.0007179890526458621,0.7896956205368042,-0.0022114880848675966,-0.28537169098854065
815.0,486.0,0.7711,-0.6239,8.747,-0.0498,-0.0754,-0.1231,-1.4565677133253594,-0.12912847101688385,0.9418380856513977,-1.7422690391540527,0.03668681159615517,2.085881471633911,4.482796831721924,1.2876169968478002e-34,0.1786583662033081,-1.5829899946795862,7.997459033504128e-05,0.1405581384897232,0.8805728554725647,0.0,-0.0015180713962763548,0.7897038459777832,-0.0007718181586824358,-0.27586331963539124
815.0,486.0,0.7711,-0.6239,8.747,-0.0498,-0.0754,-0.1231,-1.4575638634017487,-0.13498526811599731,0.9375975728034973,-1.741937518119812,0.039739884436130524,2.0667901039123535,4.482841177577637,2.3401810471086234e-39,0.17798765003681183,-1.5830181280719202,7.466648821718991e-05,0.11814532428979874,0.8805281519889832,0.0,-0.00909192394465208,0.7896674275398254,-0.0004909444833174348,-0.29037269949913025
717.0,456.0,1.1097,-0.9284,9.8345,-0.0278,-0.0304,-0.1182,-1.4585676503232499,-0.1279401183128357,0.9290407299995422,-1.7415591478347778,0.04593652859330177,2.085481643676758,4.482793017024658,4.203895392974451e-44,0.1833740621805191,-1.5829899946795862,7.001927588135004e-05,0.12523452937602997,0.8805686831474304,0.0,-0.008790252730250359,0.7896471619606018,-0.00040480814641341567,-0.28745150566101074
717.0,456.0,1.1097,-0.9284,9.8345,-0.0278,-0.0304,-0.1182,-1.459848330622055,-0.11630337685346603,0.9700971245765686,-1.7409801483154297,0.05603214353322983,2.110032081604004,4.4827610689350585,0.0,0.17475290596485138,-1.5830143133746546,6.496503192465752e-05,0.11214393377304077,0.8805686831474304,0.0,0.007362748961895704,0.7896756529808044,-0.002254585735499859,-0.27771663665771484
717.0,456.0,1.1097,-0.9284,9.8345,-0.0278,-0.0304,-0.1182,-1.4608566772988816,-0.12438882887363434,0.9792052507400513,-1.7405614852905273,0.06269629299640656,2.130101203918457,4.4828125673481445,0.0,0.179258331656456,-1.5829818884478968,6.141832272987813e-05,0.12239779531955719,0.8805524706840515,0.0,-0.012987252324819565,0.7895991802215576,-0.0017529797041788697,-0.27141228318214417
717.0,456.0,1.1097,-0.9284,9.8345,-0.0278,-0.0304,-0.1182,-1.4620878261378785,-0.13501282036304474,0.9691877961158752,-1.73988676071167,0.06969627737998962,2.1469509601593018,4.4827844339558105,0.0,0.1938762068748474,-1.5829737822162073,6.894338730489835e-05,0.11492867767810822,0.8805928826332092,0.0,0.003902632975950837,0.7896109819412231,-0.0013328527566045523,-0.28555768728256226
717.0,456.0,1.1097,-0.9284,9.8345,-0.0278,-0.0304,-0.1182,-1.463192270403244,-0.1307748705148697,0.94720458984375,-1.739309549331665,0.0796520933508873,2.1064484119415283,4.482776327724121,0.0,0.1805867999792099,-1.5830262343036097,6.563912756973878e-05,0.12481874227523804,0.8805928826332092,0.0,-0.013597155921161175,0.7895792722702026,-0.0027074574027210474,-0.3096891939640045
717.0,456.0,1.1097,-0.9284,9.8345,-0.0278,-0.0304,-0.1182,-1.464463123386242,-0.11583714187145233,0.9604248404502869,-1.7384546995162964,0.08522845804691315,2.0744144916534424,4.482796831721924,0.0,0.16962091624736786,-1.5829818884478968,6.187841790961102e-05,0.12479732185602188,0.8805282115936279,0.0,-0.008984578773379326,0.789571225643158,-0.0036094950046390295,-0.3053593039512634
717.0,456.0,1.1097,-0.9284,9.8345,-0.0278,-0.0304,-0.1182,-1.4654579025558014,-0.12204053997993469,1.0142086744308472,-1.7377440929412842,0.08643248677253723,2.131028175354004,4.482796831721924,0.0,0.17978191375732422,-1.5829737822162073,7.705468306085095e-06,0.12979528307914734,0.88060063123703,0.0,-0.012606396339833736,0.7895431518554688,-0.0031091938726603985,-0.2971422076225281
717.0,456.0,1.1097,-0.9284,9.8345,-0.0278,-0.0304,-0.1182,-1.4664731484702607,-0.13523124158382416,0.9573109149932861,-1.7369897365570068,0.0948430597782135,2.146732807159424,4.482772989864014,0.0,0.1885817050933838,-1.5830023924456995,1.400430882370074e-10,0.1257987767457962,0.8805525302886963,0.0,0.003935720771551132,0.7895315289497375,-0.002294749254360795,-0.276890367269516
717.0,456.0,1.1097,-0.9284,9.8345,-0.0278,-0.0304,-0.1182,-1.4678400841406365,-0.1444225311279297,0.9565302729606628,-1.7360363006591797,0.1072717159986496,2.181999683380127,4.482793017024658,0.0,0.1607714593410492,-1.5829780737506312,1.661842643612679e-16,0.12676793336868286,0.8805606961250305,0.0,0.009197575971484184,0.7894877195358276,-0.002751738764345646,-0.2891841530799866
717.0,456.0,1.1097,-0.9284,9.8345,-0.0278,-0.0304,-0.1182,-1.468955048625805,-0.13067570328712463,1.0128486156463623,-1.7351027727127075,0.12138386815786362,2.161613702774048,4.482801123256348,0.0,0.18501606583595276,-1.5829938093768519,3.0203167207988344e-21,0.12064239382743835,0.8805928230285645,0.0,0.004708398133516312,0.789459228515625,-0.0036283608060330153,-0.2678467929363251
597.0,433.0,1.8305,-0.4756,10.2455,-0.0614,-0.036,-0.1188,-1.4703537684730072,-0.11517860740423203,0.9796403050422668,-1.7337981462478638,0.13521599769592285,2.1634578704833984,4.482772989864014,0.0,0.176137775182724,-1.5830419699298304,3.584105167140103e-27,0.12243920564651489,0.8806006908416748,0.0,0.0018936219858005643,0.78943932056427,-0.0026059793308377266,-0.2978678345680237
597.0,433.0,1.8305,-0.4756,10.2455,-0.0614,-0.036,-0.1188,-1.4713443604162713,-0.13255909085273743,0.9558998346328735,-1.7327048778533936,0.13091976940631866,2.1829421520233154,4.482793017024658,-0.00011140748392790556,0.18123894929885864,-1.583010498677389,6.513934941903709e-32,0.12226078659296036,0.8805851936340332,0.0,0.003156420774757862,0.7894392609596252,-0.001112672034651041,-0.31472042202949524
597.0,433.0,1.8305,-0.4756,10.2455,-0.0614,-0.036,-0.1188,-1.4724923235229035,-0.15009470283985138,0.9314544200897217,-1.7315796613693237,0.13608001172542572,2.1677675247192383,4.482769175166748,-0.001010540290735662,0.16853594779968262,-1.583022419606344,1.1838752366777214e-36,0.10609030723571777,0.8805847764015198,0.0,-0.012385789304971695,0.7894312739372253,-0.0007448430405929685,-0.24345552921295166
597.0,433.0,1.8305,-0.4756,10.2455,-0.0614,-0.036,-0.1188,-1.4738223043135186,-0.1473781168460846,0.9964123964309692,-1.7301714420318604,0.1529311090707779,2.1634879112243652,4.482757731074951,-0.0007434755680151284,0.1693699061870575,-1.5830181280719202,1.4055023597177915e-42,0.12203897535800934,0.8805241584777832,0.0,-0.002235362771898508,0.7893911004066467,-0.003828213084489107,-0.26655563712120056
597.0,433.0,1.8305,-0.4756,10.2455,-0.0614,-0.036,-0.1188,-1.4749775987914582,-0.12869533896446228,0.9776878356933594,-1.728810429573059,0.1699397712945938,2.244943141937256,4.482788725490234,-0.0005811670562252402,0.17414897680282593,-1.5829818884478968,0.0,0.12218037247657776,0.8805281519889832,0.0,0.009869995526969433,0.7893187403678894,-0.00629395479336381,-0.26396849751472473
597.0,433.0,1.8305,-0.4756,10.2455,-0.0614,-0.036,-0.1188,-1.4763402205756684,-0.12311720848083496,1.016122579574585,-1.7270784378051758,0.1786002665758133,2.2368266582489014,4.4827772813984375,-0.0003411188081372529,0.1669033169746399,-1.5829981009112757,0.0,0.12462902069091797,0.8806484937667847,0.0,-0.0008522531716153026,0.7893108129501343,-0.004562069196254015,-0.28576338291168213
597.0,433.0,1.8305,-0.4756,10.2455,-0.0614,-0.036,-0.1188,-1.4773952600410958,-0.13912858068943024,1.0160186290740967,-1.7256660461425781,0.18372990190982819,2.243954658508301,4.482765837306641,-0.001299047376960516,0.16018551588058472,-1.5829780737506312,0.0,0.11215008795261383,0.880608856678009,0.0,-0.005333282519131899,0.7892869114875793,-0.001995505765080452,-0.2763931155204773
597.0,433.0,1.8305,-0.4756,10.2455,-0.0614,-0.036,-0.1188,-1.4787660551122208,-0.15652421116828918,0.9248645305633545,-1.723775029182434,0.19322605431079865,2.273634433746338,4.482620878810547,-0.009105032309889793,0.16056562960147858,-1.5829938093768519,0.0,0.11899405717849731,0.880556583404541,0.0,-0.006353439763188362,0.7892347574234009,-0.0012093682307749987,-0.2769894003868103
597.0,433.0,1.8305,-0.4756,10.2455,-0.0614,-0.036,-0.1188,-1.4798927095583458,-0.14666953682899475,1.0298713445663452,-1.7221554517745972,0.20098260045051575,2.223656177520752,4.48264138280835,-0.006054924335330725,0.16633179783821106,-1.5830143133746546,0.0,0.10983167588710785,0.8806212544441223,0.0,0.004474537447094917,0.7892351150512695,-0.00476281950250268,-0.2514084577560425
597.0,433.0,1.8305,-0.4756,10.2455,-0.0614,-0.036,-0.1188,-1.481051967745163,-0.1311425268650055,0.9871990084648132,-1.7205231189727783,0.21530525386333466,2.2564618587493896,4.482613249416016,-0.00032406544778496027,0.16801482439041138,-1.5829694906817835,0.0,0.10564468055963516,0.8806089162826538,0.0,-0.0022301138378679752,0.7891709804534912,-0.005652216263115406,-0.285287082195282
595.0,431.0,2.8409,-0.6006,8.6554,-0.0611,0.0304,-0.1249,-1.4824789997986336,-0.1327200084924698,1.030838966369629,-1.7183549404144287,0.22624653577804565,2.326077699661255,4.48255364477124,-0.0018954473780468106,0.1584336757659912,-1.5830181280719202,0.0,0.1252211332321167,0.8805081248283386,0.0,-0.0010136032942682505,0.7891628742218018,-0.004039853811264038,-0.2551646828651428
595.0,431.0,2.8409,-0.6006,8.6554,-0.0611,0.0304,-0.1249,-1.4835619789412995,-0.15083171427249908,0.9785398244857788,-1.716478705406189,0.22561834752559662,2.2470438480377197,4.482518358821533,-0.00738915940746665,0.1598663032054901,-1.5829780737506312,0.0,0.12317570298910141,0.8806207776069641,0.0,-0.006767159327864647,0.7891389727592468,-0.001836455543525517,-0.32940781116485596
595.0,431.0,2.8409,-0.6006,8.6554,-0.0611,0.0304,-0.1249,-1.4849884894541283,-0.15289291739463806,1.0289020538330078,-1.7141828536987305,0.23524241149425507,2.2697999477386475,4.482494040126465,-0.003867151215672493,0.1574392020702362,-1.5829861799823206,0.0,0.1073092520236969,0.8805727958679199,0.0,-0.009788730181753635,0.7890984416007996,-0.0009110739338211715,-0.26735225319862366
595.0,431.0,2.8409,-0.6006,8.6554,-0.0611,0.0304,-0.1249,-1.4860552561334153,-0.1415424942970276,1.0125960111618042,-1.7123228311538696,0.2431485652923584,2.330345392227173,4.482445879573486,-0.0014563052682206035,0.1728784739971161,-1.5830300490008753,0.0,0.11794302612543106,0.8805606961250305,0.0,-0.01484361570328474,0.7890790700912476,-0.0045290361158549786,-0.23201587796211243
595.0,431.0,2.8409,-0.6006,8.6554,-0.0611,0.0304,-0.1249,-1.4872180980494996,-0.13477157056331635,0.9859744310379028,-1.7103030681610107,0.24863916635513306,2.250474452972412,4.482465906734131,-0.0009113225387409329,0.16214221715927124,-1.5829656759845179,0.0,0.11910128593444824,0.8805647492408752,0.0,-0.01715165749192238,0.7890222072601318,-0.006035451777279377,-0.2770642042160034
595.0,431.0,2.8409,-0.6006,8.6554,-0.0611,0.0304,-0.1249,-1.4886812058142205,-0.13936828076839447,1.0217387676239014,-1.7078793048858643,0.25887975096702576,2.2915892601013184,4.482405348415039,-0.0005728208343498409,0.16555342078208923,-1.5830023924456995,0.0,0.1297042816877365,0.8805846571922302,0.0,-0.0002973660593852401,0.7890387773513794,-0.004193570930510759,-0.2533363699913025
595.0,431.0,2.8409,-0.6006,8.6554,-0.0611,0.0304,-0.1249,-1.4898204368403931,-0.14664100110530853,1.0412968397140503,-1.7057539224624634,0.2572135329246521,2.282653331756592,4.482405825252197,-0.003384079784154892,0.16850626468658447,-1.5830267111407679,6.600868118766812e-07,0.12207832932472229,0.8805400729179382,0.0,-0.009043272584676743,0.7889986634254456,-0.002191161969676614,-0.22695448994636536
595.0,431.0,2.8409,-0.6006,8.6554,-0.0611,0.0304,-0.1249,-1.4911947709373017,-0.1445799320936203,1.0185129642486572,-1.7031382322311401,0.26535385847091675,2.2590346336364746,4.482350512141846,-0.008338539861142635,0.1421172022819519,-1.5829737822162073,7.833021883028868e-13,0.11261862516403198,0.8805768489837646,0.0,-0.0122455395758152,0.7889745831489563,-0.0018485563341528177,-0.27853259444236755
595.0,431.0,2.8409,-0.6006,8.6554,-0.0611,0.0304,-0.1249,-1.492406540816166,-0.1480490118265152,1.0281744003295898,-1.7010505199432373,0.2673071026802063,2.3120169639587402,4.482330484981201,-0.006561623886227608,0.14678344130516052,-1.5829861799823206,1.4236130720978554e-17,0.12204799801111221,0.8805768489837646,0.0,0.004862969741225243,0.7889062762260437,-0.0031010990496724844,-0.30736732482910156
595.0,431.0,2.8409,-0.6006,8.6554,-0.0611,0.0304,-0.1249,-1.493561105137207,-0.14628316462039948,1.05190110206604,-1.6988626718521118,0.27839532494544983,2.2687864303588867,4.482221766109131,-0.0041051902808249,0.1560698300600052,-1.5829904715167444,2.587346891493201e-22,0.12424520403146744,0.8805400729179382,0.0,0.005802870728075504,0.7889025807380676,-0.004376490134745836,-0.2874562740325928
595.0,431.0,2.8409,-0.6006,8.6554,-0.0611,0.0304,-0.1249,-1.4950754728964348,-0.13852408528327942,1.0228453874588013,-1.6960703134536743,0.2797136604785919,2.29404616355896,4.482198401088379,-0.0051256888546049595,0.1604871153831482,-1.5829780737506312,3.070314869188458e-28,0.12569743394851685,0.880601167678833,0.0,-0.0018936669221147895,0.7888784408569336,-0.004489221144467592,-0.246577650308609
709.0,521.0,1.4495,-0.4774,8.8702,-0.0431,0.1342,-0.151,-1.4963150557926674,-0.14440573751926422,1.0765982866287231,-1.6938385963439941,0.2863663136959076,2.3086893558502197,4.482138319606445,-0.005812251940369606,0.14361102879047394,-1.58299428621401,5.580146253776279e-33,0.12208516895771027,0.8805851936340332,0.0,-0.00707198865711689,0.7888463139533997,-0.0025612222962081432,-0.2664240002632141
709.0,521.0,1.4495,-0.4774,8.8702,-0.0431,0.1342,-0.151,-1.4977687460235138,-0.16195867955684662,1.0343152284622192,-1.6909658908843994,0.27944475412368774,2.299299478530884,4.481958551997803,-0.016471855342388153,0.1541602462530136,-1.5829618612872522,6.621765828243707e-39,0.1184416264295578,0.880515992641449,0.0,0.00428837351500988,0.7888706922531128,-0.0012225841637700796,-0.27011123299598694
709.0,521.0,1.4495,-0.4774,8.8702,-0.0431,0.1342,-0.151,-1.499132016008236,-0.17292484641075134,0.9650022983551025,-1.6886425018310547,0.2818898558616638,2.3405370712280273,4.481838865871094,-0.01839926652610302,0.15005788207054138,-1.5829618612872522,1.2051166793193427e-43,0.11548212170600891,0.8805441856384277,0.0,-0.003251392161473632,0.7888346910476685,-0.0013243992580100894,-0.2877022325992584
709.0,521.0,1.4495,-0.4774,8.8702,-0.0431,0.1342,-0.151,-1.5007822227529068,-0.1517571061849594,1.0765178203582764,-1.6857250928878784,0.29420205950737,2.2710518836975098,4.4817516046711425,-0.007987295277416706,0.15489433705806732,-1.5829418341266077,0.0,0.13168472051620483,0.8806360960006714,0.0,0.004383334890007973,0.7888147234916687,-0.003821243764832616,-0.27101990580558777
709.0,521.0,1.4495,-0.4774,8.8702,-0.0431,0.1342,-0.151,-1.5021171879819413,-0.14593324065208435,1.098447561264038,-1.683361530303955,0.29271823167800903,2.3125953674316406,4.481671496028564,-0.00579409534111619,0.16370663046836853,-1.5829456488238733,2.0503746782196686e-05,0.12391197681427002,0.8805286884307861,0.0,0.01626364327967167,0.7887944579124451,-0.002891673007979989,-0.2744523286819458
709.0,521.0,1.4495,-0.4774,8.8702,-0.0431,0.1342,-0.151,-1.5034444344094773,-0.16513004899024963,1.076018214225769,-1.6810096502304077,0.2887457609176636,2.314889430999756,4.481624289149902,-0.008290557190775871,0.14633850753307343,-1.5829737822162073,9.947510989150032e-05,0.12505468726158142,0.8805441856384277,0.0,-0.010882007889449596,0.7888026237487793,-0.0012719499645754695,-0.20221924781799316
709.0,521.0,1.4495,-0.4774,8.8702,-0.0431,0.1342,-0.151,-1.505099208360054,-0.1871410459280014,1.0362907648086548,-1.6780974864959717,0.2878820598125458,2.353214740753174,4.481488390559814,-0.0070741972886025906,0.15876179933547974,-1.5829499403582972,8.95756675163284e-05,0.11279840022325516,0.8806012868881226,0.0,0.003390141762793064,0.7888511419296265,-0.0007191434851847589,-0.3216853141784668
709.0,521.0,1.4495,-0.4774,8.8702,-0.0431,0.1342,-0.151,-1.506493703728058,-0.17374499142169952,1.079262137413025,-1.6757690906524658,0.29002517461776733,2.3184797763824463,4.481484099025391,-0.003813789924606681,0.15184536576271057,-1.582954231892721,9.956068970495835e-05,0.12344501912593842,0.8805647492408752,0.0,0.00018256786279380322,0.7887828350067139,-0.002038476290181279,-0.24903059005737305
709.0,521.0,1.4495,-0.4774,8.8702,-0.0431,0.1342,-0.151,-1.5081438583186646,-0.1606736183166504,1.0986807346343994,-1.6728978157043457,0.2991502583026886,2.3620519638061523,4.481484099025391,-0.0010957940248772502,0.1531345099210739,-1.5829499403582972,0.00012141361366957426,0.12051346153020859,0.8805727958679199,0.0,0.002317918697372079,0.7887464165687561,-0.004389922134578228,-0.2936924695968628
709.0,521.0,1.4495,-0.4774,8.8702,-0.0431,0.1342,-0.151,-1.509478637283184,-0.1734711229801178,1.1014175415039062,-1.6705213785171509,0.29732728004455566,2.3568029403686523,4.481420202846191,-0.0023671495728194714,0.16684992611408234,-1.5829580465899866,0.00020513232448138297,0.1258144974708557,0.8805360198020935,0.0,0.00016082031652331352,0.7886703014373779,-0.003530263900756836,-0.2551802396774292
892.0,524.0,1.4076,-0.3117,8.6225,-0.0301,0.1026,-0.1268,-1.5108975407532235,-0.1847439408302307,1.0580097436904907,-1.6681212186813354,0.2988346815109253,2.3312137126922607,4.481372519130371,-0.0054647047072649,0.16714751720428467,-1.5829418341266077,0.00020854415197391063,0.1240117996931076,0.880515992641449,0.0,-0.017303330823779106,0.7886744141578674,-0.0021429446060210466,-0.2735876441001892
892.0,524.0,1.4076,-0.3117,8.6225,-0.0301,0.1026,-0.1268,-1.5127442304841061,-0.18297766149044037,1.067261815071106,-1.6650888919830322,0.2975499629974365,2.358614444732666,4.481336756343506,-0.007193622179329395,0.15617311000823975,-1.582909886037008,0.000218239554669708,0.11792424321174622,0.880584716796875,0.0,-0.005741328466683626,0.7886702418327332,-0.002751281252130866,-0.2790561318397522
