ramyac6/ROB537/final_project/csv/good/good_238.csv
tof_0,tof_1,accelx,accely,accelz,gyrox,gyroy,gyroz,shoulder_lift_joint_position,shoulder_lift_joint_velocity,shoulder_lift_joint_effort,elbow_joint_position,elbow_joint_velocity,elbow_joint_effort,wrist_1_joint_position,wrist_1_joint_velocity,wrist_1_joint_effort,wrist_2_joint_position,wrist_2_joint_velocity,wrist_2_joint_effort,wrist_3_joint_position,wrist_3_joint_velocity,wrist_3_joint_effort,shoulder_pan_joint_position,shoulder_pan_joint_velocity,shoulder_pan_joint_effort
157.0,171.0,-5.7565,0.1663,8.1978,-0.0334,0.0249,-0.1138,-2.585437913934225,0.0,5.759283542633057,-0.7385777831077576,-0.0,2.097132682800293,5.345978724747457,0.0,0.18830907344818115,-1.728299919758932,0.0,0.006531506776809692,0.47311559319496155,0.0,0.00544157437980175,1.276637077331543,0.0,-0.016516974195837975
157.0,171.0,-5.7565,0.1663,8.1978,-0.0334,0.0249,-0.1138,-2.5854741535582484,0.0,5.763994216918945,-0.7385498881340027,-0.0,2.0963714122772217,5.3459828970725916,0.0,0.18883347511291504,-1.7283638159381312,0.0,-0.0015709532890468836,0.47313207387924194,0.0,0.005452651996165514,1.2766330242156982,0.0,0.024260587990283966
157.0,171.0,-5.7565,0.1663,8.1978,-0.0334,0.0249,-0.1138,-2.5854298077025355,0.0,5.722827911376953,-0.7385983467102051,-0.0,2.1283464431762695,5.3459828970725916,0.0,0.1992858648300171,-1.728311840687887,0.0,0.0026234604883939028,0.4731198251247406,0.0,-0.008747972548007965,1.2766649723052979,0.0,0.005396965891122818
157.0,171.0,-5.7565,0.1663,8.1978,-0.0334,0.0249,-0.1138,-2.5854340992369593,0.0,5.773090362548828,-0.7386024594306946,-0.0,2.0946319103240967,5.3459828970725916,0.0,0.1877289116382599,-1.7283275763141077,0.0,-0.001910084392875433,0.47316038608551025,0.0,-0.008202939294278622,1.2766809463500977,0.0,0.040680889040231705
157.0,171.0,-5.7565,0.1663,8.1978,-0.0334,0.0249,-0.1138,-2.585482736627096,0.0,5.815069675445557,-0.7385379672050476,-0.0,2.0682928562164307,5.345962393074789,0.0,0.19271153211593628,-1.7283437887774866,0.0,0.0073705618269741535,0.473164439201355,0.0,0.004520324990153313,1.2766571044921875,0.0,0.03438180312514305
157.0,171.0,-5.7565,0.1663,8.1978,-0.0334,0.0249,-0.1138,-2.5854340992369593,0.0,5.747118949890137,-0.7385900020599365,-0.0,2.0940117835998535,5.345950591355123,0.0,0.20004522800445557,-1.7283480803119105,0.0,0.0021742794197052717,0.47318407893180847,0.0,-0.005242276005446911,1.2766730785369873,0.0,0.009149621240794659
157.0,171.0,-5.7565,0.1663,8.1978,-0.0334,0.0249,-0.1138,-2.58544983486318,0.0,5.788786888122559,-0.7386064529418945,-0.0,2.1058690547943115,5.345958280354299,0.0,0.20465123653411865,-1.728311840687887,0.0,0.004265626892447472,0.47316816449165344,0.0,0.014282445423305035,1.2767333984375,0.0,0.01698538288474083
157.0,171.0,-5.7565,0.1663,8.1978,-0.0334,0.0249,-0.1138,-2.5854622326292933,0.0,5.724976539611816,-0.7385498881340027,-0.0,2.078542947769165,5.345958339958944,0.0,0.20090961456298828,-1.728368107472555,0.0,0.010239968076348305,0.47316816449165344,0.0,0.0002139657735824585,1.2767173051834106,0.0,0.02445332147181034
157.0,171.0,-5.7565,0.1663,8.1978,-0.0334,0.0249,-0.1138,-2.5854703388609828,0.0,5.783056259155273,-0.7385704517364502,-0.0,2.116321325302124,5.345946419029989,0.0,0.19428160786628723,-1.7283557097064417,0.0,0.016493767499923706,0.47316408157348633,0.0,0.0077904146164655685,1.2766125202178955,0.0,-0.027928069233894348
157.0,171.0,-5.7565,0.1663,8.1978,-0.0334,0.0249,-0.1138,-2.5854298077025355,0.0,5.792701721191406,-0.7385737299919128,-0.0,2.1271259784698486,5.345978724747457,0.0,0.1932683289051056,-1.7283437887774866,0.0,0.00877287331968546,0.4731926918029785,0.0,0.0215914286673069,1.2766649723052979,0.0,-0.02502024918794632
160.0,175.0,-5.8337,0.1938,8.1302,-0.0363,0.0272,-0.1266,-2.5854579410948695,0.0,5.760351657867432,-0.7385982871055603,-0.0,2.0747499465942383,5.3459383127983,0.0,0.1865413784980774,-1.728339974080221,0.0,0.008101589046418667,0.4731885492801666,0.0,0.005690837278962135,1.2766690254211426,0.0,0.02336316928267479
160.0,175.0,-5.8337,0.1938,8.1302,-0.0363,0.0272,-0.1266,-2.585466047326559,0.0,5.746842861175537,-0.7385621666908264,-0.0,2.0692009925842285,5.345998871117391,0.0,0.2053738236427307,-1.7283719221698206,0.0,0.004126796964555979,0.47316816449165344,0.0,0.0019282177090644836,1.2767091989517212,0.0,-0.006791147403419018
160.0,175.0,-5.8337,0.1938,8.1302,-0.0363,0.0272,-0.1266,-2.585466047326559,0.0,5.75799560546875,-0.7385745048522949,-0.0,2.137319326400757,5.345991122513571,0.0,0.18684038519859314,-1.7283557097064417,0.0,0.008630981668829918,0.47315990924835205,0.0,0.00734303891658783,1.2766809463500977,0.0,-0.011812100186944008
160.0,175.0,-5.8337,0.1938,8.1302,-0.0363,0.0272,-0.1266,-2.5854584179320277,0.0,5.748804092407227,-0.7385983467102051,-0.0,2.0927391052246094,5.345978724747457,0.0,0.19407382607460022,-1.7283275763141077,0.0,0.012491266243159771,0.47314807772636414,0.0,0.0031360029242932796,1.276685118675232,0.0,-0.021791862323880196
160.0,175.0,-5.8337,0.1938,8.1302,-0.0363,0.0272,-0.1266,-2.5854340992369593,0.0,5.771689414978027,-0.7385255694389343,-0.0,2.0652971267700195,5.3459828970725916,0.0,0.1864982545375824,-1.7283194700824183,0.0,0.010074252262711525,0.4731481075286865,0.0,0.013166272081434727,1.2766449451446533,0.0,-0.010121358558535576
160.0,175.0,-5.8337,0.1938,8.1302,-0.0363,0.0272,-0.1266,-2.5854865513243617,0.0,5.753523826599121,-0.7385859489440918,-0.0,2.0892367362976074,5.345990645676412,0.0,0.19149062037467957,-1.7283156553851526,0.0,0.004744533449411392,0.4732046127319336,0.0,0.012878849171102047,1.2766690254211426,0.0,-0.026518572121858597
160.0,175.0,-5.8337,0.1938,8.1302,-0.0363,0.0272,-0.1266,-2.5854221783080042,0.0,5.755539894104004,-0.7386344075202942,-0.0,2.072152614593506,5.345970678120413,0.0,0.20583337545394897,-1.728351895009176,0.0,0.0010641333647072315,0.473111629486084,0.0,0.0032646702602505684,1.2766730785369873,0.0,0.015197151340544224
160.0,175.0,-5.8337,0.1938,8.1302,-0.0363,0.0272,-0.1266,-2.5854584179320277,0.0,5.780519485473633,-0.7386024594306946,-0.0,2.104307174682617,5.345958280354299,0.0,0.1812799572944641,-1.7282918135272425,0.0,0.010249042883515358,0.473152220249176,0.0,0.012579057365655899,1.2766649723052979,0.0,-0.00830500666052103
160.0,175.0,-5.8337,0.1938,8.1302,-0.0363,0.0272,-0.1266,-2.5854340992369593,0.0,5.791112899780273,-0.7386184334754944,-0.0,2.1500141620635986,5.345998930722036,0.0,0.2083735167980194,-1.7283313910113733,0.0,0.005071148741990328,0.4731641113758087,0.0,0.003043718170374632,1.2766809463500977,0.0,-0.0055861384607851505
160.0,175.0,-5.8337,0.1938,8.1302,-0.0363,0.0272,-0.1266,-2.5854865513243617,0.0,5.741820335388184,-0.7385498881340027,-0.0,2.138854503631592,5.345970678120413,0.0,0.18230322003364563,-1.7282875219928187,0.0,0.0038980136159807444,0.47317641973495483,0.0,0.00011732080020010471,1.2766891717910767,0.0,-0.029534148052334785
160.0,175.0,-5.8337,0.1938,8.1302,-0.0363,0.0272,-0.1266,-2.585461755792135,0.0,5.72172737121582,-0.738562285900116,-0.0,2.077573776245117,5.3459423063094995,0.0,0.19395209848880768,-1.7283113638507288,0.0,0.008124747313559055,0.47312790155410767,0.0,-0.005793669726699591,1.2766410112380981,0.0,0.006234044209122658
160.0,175.0,-5.8337,0.1938,8.1302,-0.0363,0.0272,-0.1266,-2.585466047326559,0.0,5.750293254852295,-0.7385663390159607,-0.0,2.1248302459716797,5.345962393074789,0.0,0.19454152882099152,-1.728351895009176,0.0,0.01823466643691063,0.4731038212776184,0.0,0.0103846974670887,1.276648998260498,0.0,-0.002189578488469124
160.0,175.0,-5.8337,0.1938,8.1302,-0.0363,0.0272,-0.1266,-2.585482736627096,0.0,5.781477451324463,-0.7385696172714233,-0.0,2.1366617679595947,5.346010434418478,0.0,0.19534800946712494,-1.7283037344561976,0.0,0.005449408665299416,0.47315219044685364,0.0,0.011534314602613449,1.2767173051834106,0.0,0.008921957574784756
160.0,175.0,-5.8337,0.1938,8.1302,-0.0363,0.0272,-0.1266,-2.585461755792135,0.0,5.746740341186523,-0.7385379672050476,-0.0,2.072108745574951,5.345998871117391,0.0,0.1960667222738266,-1.728328053151266,0.0,0.002545649651437998,0.4731484353542328,0.0,0.012745223008096218,1.276637077331543,0.0,-0.0015385397709906101
160.0,175.0,-5.8337,0.1938,8.1302,-0.0363,0.0272,-0.1266,-2.585454126397604,0.0,5.71834659576416,-0.7385777831077576,-0.0,2.1447057723999023,5.345987009793081,0.0,0.1852346956729889,-1.7283037344561976,0.0,-8.511199848726392e-05,0.47313615679740906,0.0,-0.004139529075473547,1.276713252067566,0.0,0.016356103122234344
160.0,175.0,-5.8337,0.1938,8.1302,-0.0363,0.0272,-0.1266,-2.5854221783080042,0.0,5.749144554138184,-0.7385745048522949,-0.0,2.1168551445007324,5.345954286843099,0.0,0.1959874927997589,-1.7282674948321741,0.0,0.013293242081999779,0.47314023971557617,0.0,0.009063067846000195,1.2766809463500977,0.0,0.024660665541887283
160.0,175.0,-5.8337,0.1938,8.1302,-0.0363,0.0272,-0.1266,-2.5854865513243617,0.0,5.769543647766113,-0.7385900020599365,-0.0,2.0840182304382324,5.345986652165212,0.0,0.19439227879047394,-1.728311840687887,0.0,0.005766786634922028,0.4731239378452301,0.0,-0.005567680578678846,1.276648998260498,0.0,-0.058054205030202866
160.0,175.0,-5.8337,0.1938,8.1302,-0.0363,0.0272,-0.1266,-2.585466524163717,0.0,5.708196640014648,-0.7385818362236023,-0.0,2.0930516719818115,5.345966565399923,0.0,0.18803700804710388,-1.7283356825457972,0.0,-0.0016982301604002714,0.4732005000114441,0.0,0.004763666540384293,1.2766488790512085,0.0,-0.06658560037612915
161.0,168.0,-5.7661,0.2303,8.0698,-0.0333,0.029,-0.1165,-2.5854703388609828,0.0,5.744349956512451,-0.7385900020599365,-0.0,2.082852840423584,5.345966565399923,0.0,0.2073279321193695,-1.728339974080221,0.0,0.012902894988656044,0.47313618659973145,0.0,-0.01263381727039814,1.2766530513763428,0.0,0.027707014232873917
161.0,168.0,-5.7661,0.2303,8.0698,-0.0333,0.029,-0.1165,-2.585506578485006,0.0,5.751951217651367,-0.7385498285293579,-0.0,2.1038830280303955,5.345930385380544,0.0,0.20105892419815063,-1.7283480803119105,0.0,0.0066189891658723354,0.47322878241539,0.0,-0.007667346391826868,1.2766649723052979,0.0,-0.021647637709975243
161.0,168.0,-5.7661,0.2303,8.0698,-0.0333,0.029,-0.1165,-2.585442205468649,0.0,5.729672431945801,-0.7385777831077576,-0.0,2.11740779876709,5.345998632698812,0.0,0.18322932720184326,-1.7283161322223108,0.0,-0.0042728399857878685,0.47314807772636414,0.0,0.005755703430622816,1.2766730785369873,0.0,-0.02681070566177368
161.0,168.0,-5.7661,0.2303,8.0698,-0.0333,0.029,-0.1165,-2.5854865513243617,0.0,5.72857666015625,-0.7385818362236023,-0.0,2.1245110034942627,5.345998930722036,0.0,0.18622848391532898,-1.728323761616842,0.0,0.010020202957093716,0.47316816449165344,0.0,-0.0012580829206854105,1.2766810655593872,0.0,-0.023971006274223328
161.0,168.0,-5.7661,0.2303,8.0698,-0.0333,0.029,-0.1165,-2.585442205468649,0.0,5.739741802215576,-0.7385786175727844,-0.0,2.0968093872070312,5.3459388492401025,0.0,0.20448949933052063,-1.7282798925982874,0.0,0.013812849298119545,0.473135769367218,0.0,-0.006470395252108574,1.2766530513763428,0.0,-0.057994648814201355
161.0,168.0,-5.7661,0.2303,8.0698,-0.0333,0.029,-0.1165,-2.5854741535582484,0.0,5.741039276123047,-0.7386061549186707,-0.0,2.1616013050079346,5.345991062908926,0.0,0.20852965116500854,-1.7283476034747522,0.0,-0.0025249687023460865,0.47316038608551025,0.0,0.023736100643873215,1.2766367197036743,0.0,-0.0027110856026411057
161.0,168.0,-5.7661,0.2303,8.0698,-0.0333,0.029,-0.1165,-2.585437913934225,0.0,5.744110584259033,-0.7385984063148499,-0.0,2.0592358112335205,5.3459587571914575,0.0,0.20466285943984985,-1.7283194700824183,0.0,0.00024744775146245956,0.4732004702091217,0.0,0.006370259448885918,1.276713252067566,0.0,0.007702159695327282
161.0,168.0,-5.7661,0.2303,8.0698,-0.0333,0.029,-0.1165,-2.585393568078512,0.0,5.758710861206055,-0.7386306524276733,-0.0,2.0842013359069824,5.345946359425344,0.0,0.19808393716812134,-1.728339974080221,0.0,-0.004353335127234459,0.4731885492801666,0.0,0.01047021709382534,1.2766571044921875,0.0,0.0008505838923156261
161.0,168.0,-5.7661,0.2303,8.0698,-0.0333,0.029,-0.1165,-2.5854579410948695,0.0,5.795343399047852,-0.7386425733566284,-0.0,2.126657485961914,5.345954704075613,0.0,0.19369176030158997,-1.728328053151266,0.0,0.01608368754386902,0.4731157720088959,0.0,0.003736454527825117,1.2766849994659424,0.0,-0.01753130741417408
161.0,168.0,-5.7661,0.2303,8.0698,-0.0333,0.029,-0.1165,-2.5854979954161585,0.0,5.76575231552124,-0.7385539412498474,-0.0,2.0744309425354004,5.346010136395254,0.0,0.18943804502487183,-1.7283638159381312,0.0,0.013706556521356106,0.4731525480747223,0.0,0.0012357409577816725,1.2766330242156982,0.0,-0.00392892025411129
161.0,168.0,-5.7661,0.2303,8.0698,-0.0333,0.029,-0.1165,-2.5854417286314906,0.0,5.764520645141602,-0.7385663390159607,-0.0,2.071382522583008,5.346002328186788,0.0,0.19457074999809265,-1.7283557097064417,0.0,0.021701475605368614,0.4731599986553192,0.0,-0.0020723380148410797,1.2766530513763428,0.0,0.05403062328696251
161.0,168.0,-5.7661,0.2303,8.0698,-0.0333,0.029,-0.1165,-2.585437913934225,0.0,5.775235176086426,-0.7385900020599365,-0.0,2.1266825199127197,5.345966565399923,0.0,0.19320470094680786,-1.728311840687887,0.0,0.00955108366906643,0.47313982248306274,0.0,0.01917285844683647,1.2766609191894531,0.0,-0.004873534664511681
161.0,168.0,-5.7661,0.2303,8.0698,-0.0333,0.029,-0.1165,-2.585437913934225,0.0,5.753454208374023,-0.7385498285293579,-0.0,2.0794942378997803,5.346010434418478,0.0,0.20031282305717468,-1.7283037344561976,0.0,0.0008541052811779082,0.4730755388736725,0.0,0.006058075465261936,1.2766571044921875,0.0,0.002435632050037384
161.0,168.0,-5.7661,0.2303,8.0698,-0.0333,0.029,-0.1165,-2.585478445092672,0.0,5.743764400482178,-0.7385745048522949,-0.0,2.1038684844970703,5.345970618515768,0.0,0.1999397873878479,-1.7283194700824183,0.0,0.0013206892181187868,0.473212867975235,0.0,-0.002264017006382346,1.2766690254211426,0.0,-0.05023110657930374
161.0,168.0,-5.7661,0.2303,8.0698,-0.0333,0.029,-0.1165,-2.585482736627096,0.0,5.748896598815918,-0.7385663390159607,-0.0,2.1087758541107178,5.346030044346609,0.0,0.1850793957710266,-1.7283356825457972,0.0,0.0006495459238067269,0.47315990924835205,0.0,-0.007632304914295673,1.2767173051834106,0.0,0.02682614140212536
161.0,168.0,-5.7661,0.2303,8.0698,-0.0333,0.029,-0.1165,-2.5854584179320277,0.0,5.722720146179199,-0.7385826706886292,-0.0,2.0647811889648438,5.345970916538992,0.0,0.20041438937187195,-1.7283356825457972,0.0,0.0010594779159873724,0.47317227721214294,0.0,-0.0032018425408750772,1.2766809463500977,0.0,-0.0008518220856785774
161.0,168.0,-5.7661,0.2303,8.0698,-0.0333,0.029,-0.1165,-2.58544983486318,0.0,5.779120922088623,-0.738562285900116,-0.0,2.109696865081787,5.3459945795829675,0.0,0.19116663932800293,-1.7283638159381312,0.0,0.011554262600839138,0.4731641113758087,0.0,0.0006716391071677208,1.2766571044921875,0.0,-0.005474785342812538
161.0,168.0,-5.7661,0.2303,8.0698,-0.0333,0.029,-0.1165,-2.5854584179320277,0.0,5.741466522216797,-0.7386184334754944,-0.0,2.1140286922454834,5.345946657448568,0.0,0.1922609508037567,-1.728351895009176,0.0,0.013027098961174488,0.4731804132461548,0.0,0.0034133652225136757,1.276721477508545,0.0,8.356571197509766e-05
161.0,168.0,-5.7661,0.2303,8.0698,-0.0333,0.029,-0.1165,-2.585461755792135,0.0,5.740398406982422,-0.7385983467102051,-0.0,2.0129234790802,5.345942723542013,0.0,0.18533945083618164,-1.7283356825457972,0.0,0.006461000069975853,0.4731079041957855,0.0,0.004557044245302677,1.2766530513763428,0.0,0.0023763850331306458
156.0,173.0,-5.7757,0.2136,8.1452,-0.0345,0.0261,-0.1176,-2.585461755792135,0.0,5.78851842880249,-0.7385460734367371,-0.0,2.1402783393859863,5.345970916538992,0.0,0.20377680659294128,-1.7283356825457972,0.0,0.0037917920853942633,0.47314807772636414,0.0,0.012153495103120804,1.2766649723052979,0.0,0.011361585929989815
156.0,173.0,-5.7757,0.2136,8.1452,-0.0345,0.0261,-0.1176,-2.5854584179320277,0.0,5.7860822677612305,-0.7385216355323792,-0.0,2.093313455581665,5.345990645676412,0.0,0.1930137276649475,-1.728339974080221,0.0,0.006461465731263161,0.47314026951789856,0.0,-0.004779424984008074,1.276676893234253,0.0,-0.01264267973601818
156.0,173.0,-5.7757,0.2136,8.1452,-0.0345,0.0261,-0.1176,-2.585397859612936,0.0,5.735774040222168,-0.7385498881340027,-0.0,2.056363582611084,5.345954644470968,0.0,0.196716770529747,-1.7283313910113733,0.0,-0.00323084881529212,0.4731721580028534,0.0,0.02887948416173458,1.2766042947769165,0.0,-0.0035830847918987274
156.0,173.0,-5.7757,0.2136,8.1452,-0.0345,0.0261,-0.1176,-2.585437913934225,0.0,5.732782363891602,-0.7385859489440918,-0.0,2.082009792327881,5.346006202488699,0.0,0.20212209224700928,-1.7283037344561976,0.0,0.008354362100362778,0.4732005000114441,0.0,0.007480379194021225,1.2766690254211426,0.0,-0.012307888828217983
156.0,173.0,-5.7757,0.2136,8.1452,-0.0345,0.0261,-0.1176,-2.585454126397604,0.0,5.76694393157959,-0.7385745644569397,-0.0,2.11173677444458,5.345990645676412,0.0,0.18937218189239502,-1.728351895009176,0.0,0.011021140031516552,0.4731198251247406,0.0,0.008571354672312737,1.2766530513763428,0.0,-0.0009301744867116213
156.0,173.0,-5.7757,0.2136,8.1452,-0.0345,0.0261,-0.1176,-2.5855146847166957,0.0,5.777329444885254,-0.7386263012886047,-0.0,2.0874087810516357,5.345990645676412,0.0,0.19225937128067017,-1.7283356825457972,0.0,0.00732293538749218,0.47312790155410767,0.0,0.005367889069020748,1.2766772508621216,0.0,0.026701152324676514
156.0,173.0,-5.7757,0.2136,8.1452,-0.0345,0.0261,-0.1176,-2.5854703388609828,0.0,5.732637882232666,-0.7386384606361389,-0.0,2.1419191360473633,5.345986771374502,0.0,0.19257143139839172,-1.7283313910113733,0.0,-0.0040788245387375355,0.4731321930885315,0.0,-0.0032672015950083733,1.2766690254211426,0.0,-0.02038237266242504
156.0,173.0,-5.7757,0.2136,8.1452,-0.0345,0.0261,-0.1176,-2.585461755792135,0.0,5.740551471710205,-0.7385826706886292,-0.0,2.086698293685913,5.345942723542013,0.0,0.19584468007087708,-1.728339974080221,0.0,-0.008932734839618206,0.47312378883361816,0.0,0.010395720601081848,1.2767333984375,0.0,-0.04152302443981171
156.0,173.0,-5.7757,0.2136,8.1452,-0.0345,0.0261,-0.1176,-2.585393568078512,0.0,5.747030258178711,-0.7386385798454285,-0.0,2.1270978450775146,5.345962512284078,0.0,0.19013270735740662,-1.7283638159381312,0.0,0.010315955616533756,0.47313618659973145,0.0,0.005684222094714642,1.276648998260498,0.0,-0.051615748554468155
156.0,173.0,-5.7757,0.2136,8.1452,-0.0345,0.0261,-0.1176,-2.5854460201659144,0.0,5.7606401443481445,-0.7386422753334045,-0.0,2.0861806869506836,5.345958518772878,0.0,0.19643132388591766,-1.7282918135272425,0.0,0.004462729673832655,0.47321611642837524,0.0,0.005366346333175898,1.2766690254211426,0.0,0.005342427641153336
156.0,173.0,-5.7757,0.2136,8.1452,-0.0345,0.0261,-0.1176,-2.5854579410948695,0.0,5.754955291748047,-0.7385982275009155,-0.0,2.1081862449645996,5.346002566605367,0.0,0.20341776311397552,-1.7283676306353968,0.0,0.0060204509645700455,0.4731198251247406,0.0,0.005293987691402435,1.276668667793274,0.0,0.008762763813138008
156.0,173.0,-5.7757,0.2136,8.1452,-0.0345,0.0261,-0.1176,-2.585466047326559,0.0,5.810201644897461,-0.7386106252670288,-0.0,2.168419599533081,5.346002566605367,0.0,0.178458571434021,-1.728323761616842,0.0,0.014777486212551594,0.4731157422065735,0.0,-0.002405025064945221,1.2766649723052979,0.0,0.0028971252031624317
156.0,173.0,-5.7757,0.2136,8.1452,-0.0345,0.0261,-0.1176,-2.5854979954161585,0.0,5.76243782043457,-0.738594114780426,-0.0,2.101132869720459,5.345954704075613,0.0,0.20014166831970215,-1.728271786366598,0.0,0.0074839480221271515,0.47312793135643005,0.0,0.008378500118851662,1.2766809463500977,0.0,-0.017539523541927338
156.0,173.0,-5.7757,0.2136,8.1452,-0.0345,0.0261,-0.1176,-2.58544983486318,0.0,5.736412525177002,-0.7385663390159607,-0.0,2.1095004081726074,5.345986771374502,0.0,0.19994240999221802,-1.7283194700824183,0.0,-0.009287646040320396,0.4731120765209198,0.0,0.004004055168479681,1.2766649723052979,0.0,-0.011725744232535362
156.0,173.0,-5.7757,0.2136,8.1452,-0.0345,0.0261,-0.1176,-2.585478445092672,0.0,5.78443717956543,-0.7385704517364502,-0.0,2.1397323608398438,5.346010136395254,0.0,0.18970707058906555,-1.7283557097064417,0.0,-0.0008527920581400394,0.4731844663619995,0.0,0.0002502461720723659,1.2767091989517212,0.0,-0.03462139889597893
156.0,173.0,-5.7757,0.2136,8.1452,-0.0345,0.0261,-0.1176,-2.585478445092672,0.0,5.728199005126953,-0.7385818958282471,-0.0,2.0870249271392822,5.346018183022299,0.0,0.2111586034297943,-1.7283161322223108,0.0,0.015562839806079865,0.4731927216053009,0.0,-0.0044077071361243725,1.27663254737854,0.0,-0.01713293418288231
156.0,173.0,-5.7757,0.2136,8.1452,-0.0345,0.0261,-0.1176,-2.585454126397604,0.0,5.733066558837891,-0.7385419607162476,-0.0,2.062941789627075,5.346014189511099,0.0,0.20103725790977478,-1.7283194700824183,0.0,0.003899423638358712,0.47312793135643005,0.0,-0.00408545508980751,1.2766609191894531,0.0,0.001570228487253189
156.0,173.0,-5.7757,0.2136,8.1452,-0.0345,0.0261,-0.1176,-2.585437913934225,0.0,5.779558181762695,-0.7385663390159607,-0.0,2.056234359741211,5.3459945795829675,0.0,0.1932847797870636,-1.7283037344561976,0.0,-0.008577000349760056,0.4730997681617737,0.0,0.007573939859867096,1.2766644954681396,0.0,0.004302939400076866
162.0,170.0,-5.8002,0.1872,8.1691,-0.0246,0.0224,-0.1145,-2.585454126397604,0.0,5.76999044418335,-0.7385859489440918,-0.0,2.097041130065918,5.345994639187612,0.0,0.19353199005126953,-1.7283843199359339,0.0,0.0013106615515425801,0.4732004702091217,0.0,0.0004801600589416921,1.2766891717910767,0.0,-0.054317884147167206
162.0,170.0,-5.8002,0.1872,8.1691,-0.0246,0.0224,-0.1145,-2.5854340992369593,0.0,5.7215447425842285,-0.7385900020599365,-0.0,2.115108013153076,5.345962512284078,0.0,0.18652349710464478,-1.7283313910113733,0.0,0.0101893600076437,0.47314393520355225,0.0,0.006092438939958811,1.2766809463500977,0.0,0.006214125081896782
162.0,170.0,-5.8002,0.1872,8.1691,-0.0246,0.0224,-0.1145,-2.585437913934225,0.0,5.730388164520264,-0.7385861277580261,-0.0,2.120753765106201,5.345970856934347,0.0,0.19612370431423187,-1.7283437887774866,0.0,0.013928359374403954,0.47318047285079956,0.0,0.0014333876315504313,1.276685118675232,0.0,0.000522340415045619
162.0,170.0,-5.8002,0.1872,8.1691,-0.0246,0.0224,-0.1145,-2.585482736627096,0.0,5.792830467224121,-0.7386828660964966,-0.0,2.096825122833252,5.346002328186788,0.0,0.2058165967464447,-1.7283437887774866,0.0,0.011278617195785046,0.47311580181121826,0.0,-0.011208776384592056,1.2766530513763428,0.0,-0.006487492937594652
162.0,170.0,-5.8002,0.1872,8.1691,-0.0246,0.0224,-0.1145,-2.5854584179320277,0.0,5.763157844543457,-0.7385900020599365,-0.0,2.0975706577301025,5.346006142884054,0.0,0.19696134328842163,-1.7283557097064417,0.0,0.01031055860221386,0.47315213084220886,0.0,0.004350810777395964,1.2766329050064087,0.0,0.025531072169542313
162.0,170.0,-5.8002,0.1872,8.1691,-0.0246,0.0224,-0.1145,-2.5855184994139613,0.0,5.7482757568359375,-0.7385501861572266,-0.0,2.0868873596191406,5.345950770169058,0.0,0.19507989287376404,-1.728328053151266,0.0,0.011260906234383583,0.4731721580028534,0.0,0.0027657642494887114,1.276685118675232,0.0,-0.06684069335460663
162.0,170.0,-5.8002,0.1872,8.1691,-0.0246,0.0224,-0.1145,-2.585482736627096,0.0,5.752442359924316,-0.7385859489440918,-0.0,2.092740774154663,5.345970499306478,0.0,0.1979057490825653,-1.7283275763141077,0.0,-0.006582185626029968,0.4730997681617737,0.0,0.007221114821732044,1.2766649723052979,0.0,-0.005757077131420374
162.0,170.0,-5.8002,0.1872,8.1691,-0.0246,0.0224,-0.1145,-2.5854908428587855,0.0,5.768835067749023,-0.7385379076004028,-0.0,2.13985538482666,5.345966625004568,0.0,0.19234433770179749,-1.7283476034747522,0.0,0.002818021457642317,0.47314807772636414,0.0,0.008764472790062428,1.2767091989517212,0.0,0.04275181517004967
162.0,170.0,-5.8002,0.1872,8.1691,-0.0246,0.0224,-0.1145,-2.5854584179320277,0.0,5.760687828063965,-0.7386426329612732,-0.0,2.0544466972351074,5.346010136395254,0.0,0.19344356656074524,-1.7283075491534632,0.0,0.004541810601949692,0.4731239080429077,0.0,0.009214669466018677,1.2766166925430298,0.0,0.02227827161550522
162.0,170.0,-5.8002,0.1872,8.1691,-0.0246,0.0224,-0.1145,-2.585482736627096,0.0,5.761406898498535,-0.7385745048522949,-0.0,2.145230770111084,5.345970916538992,0.0,0.1894095242023468,-1.7283476034747522,0.0,0.01329310704022646,0.4730837345123291,0.0,0.006814861670136452,1.2767174243927002,0.0,-0.03553061559796333
162.0,170.0,-5.8002,0.1872,8.1691,-0.0246,0.0224,-0.1145,-2.585466047326559,0.0,5.768038749694824,-0.7385300397872925,-0.0,2.0979151725769043,5.346002566605367,0.0,0.19323040544986725,-1.7283275763141077,0.0,0.00719557236880064,0.4731804132461548,0.0,0.004599209874868393,1.276628851890564,0.0,1.8985942006111145e-05
162.0,170.0,-5.8002,0.1872,8.1691,-0.0246,0.0224,-0.1145,-2.5854298077025355,0.0,5.777578353881836,-0.7385745048522949,-0.0,2.0652108192443848,5.345946657448568,0.0,0.20960643887519836,-1.7283075491534632,0.0,0.006991730071604252,0.47315624356269836,0.0,0.007290782406926155,1.276676893234253,0.0,0.038675591349601746
162.0,170.0,-5.8002,0.1872,8.1691,-0.0246,0.0224,-0.1145,-2.585478445092672,0.0,5.744085311889648,-0.7386065125465393,-0.0,2.0914268493652344,5.345978784352102,0.0,0.20926564931869507,-1.7283161322223108,0.0,0.015500118024647236,0.4731079936027527,0.0,0.0006786813028156757,1.2766530513763428,0.0,-0.007750404998660088
162.0,170.0,-5.8002,0.1872,8.1691,-0.0246,0.0224,-0.1145,-2.5854584179320277,0.0,5.764931678771973,-0.7385337948799133,-0.0,2.0986764430999756,5.345966565399923,0.0,0.18849366903305054,-1.728328053151266,0.0,-0.001152276061475277,0.47314441204071045,0.0,0.018105819821357727,1.2766849994659424,0.0,-0.007307138293981552
162.0,170.0,-5.8002,0.1872,8.1691,-0.0246,0.0224,-0.1145,-2.585437913934225,0.0,5.734463214874268,-0.7386065125465393,-0.0,2.0835165977478027,5.345942723542013,0.0,0.18113404512405396,-1.7283156553851526,0.0,0.015152400359511375,0.47317269444465637,0.0,-0.0067644743248820305,1.276628851890564,0.0,-0.06153387576341629
162.0,170.0,-5.8002,0.1872,8.1691,-0.0246,0.0224,-0.1145,-2.585478445092672,0.0,5.743143081665039,-0.7385703325271606,-0.0,2.088517189025879,5.345966625004568,0.0,0.18974895775318146,-1.728311840687887,0.0,0.007966920733451843,0.4731157422065735,0.0,0.000908617686945945,1.2766891717910767,0.0,0.03405412659049034
162.0,170.0,-5.8002,0.1872,8.1691,-0.0246,0.0224,-0.1145,-2.5854584179320277,0.0,5.761313438415527,-0.7386184930801392,-0.0,2.1315863132476807,5.345982777863302,0.0,0.19535359740257263,-1.7283194700824183,0.0,0.0017815518658608198,0.473156213760376,0.0,0.005816205404698849,1.2766449451446533,0.0,0.02568487823009491
162.0,170.0,-5.8002,0.1872,8.1691,-0.0246,0.0224,-0.1145,-2.5855022869505824,0.0,5.726367950439453,-0.7385901808738708,-0.0,2.1043498516082764,5.345950710564413,0.0,0.18820500373840332,-1.7283075491534632,0.0,0.0008377642370760441,0.4731804132461548,0.0,0.01941778138279915,1.2766730785369873,0.0,-0.014418468810617924
162.0,170.0,-5.8002,0.1872,8.1691,-0.0246,0.0224,-0.1145,-2.585466047326559,0.0,5.767462253570557,-0.7385663390159607,-0.0,2.0738229751586914,5.345966565399923,0.0,0.2016761302947998,-1.728323761616842,0.0,0.004594425205141306,0.4732041656970978,0.0,-0.0025369899813085794,1.276676893234253,0.0,0.041994862258434296
159.0,172.0,-5.6907,0.2016,8.0596,-0.0461,0.0284,-0.119,-2.5855184994139613,0.0,5.751701354980469,-0.7385300397872925,-0.0,2.0765810012817383,5.345958578377523,0.0,0.20149168372154236,-1.728328053151266,0.0,0.0014681861503049731,0.473188579082489,0.0,-0.00811843853443861,1.2766772508621216,0.0,-0.06714984029531479
159.0,172.0,-5.6907,0.2016,8.0596,-0.0461,0.0284,-0.119,-2.585466047326559,0.0,5.752836227416992,-0.7386224865913391,-0.0,2.0831573009490967,5.346010136395254,0.0,0.19720099866390228,-1.7283313910113733,0.0,0.002361742313951254,0.47313612699508667,0.0,0.017960522323846817,1.2766166925430298,0.0,-0.017796628177165985
159.0,172.0,-5.6907,0.2016,8.0596,-0.0461,0.0284,-0.119,-2.5854298077025355,0.0,5.772344589233398,-0.7386265993118286,-0.0,2.0970146656036377,5.345962571888723,0.0,0.1964368224143982,-1.7283600012408655,0.0,0.011014916002750397,0.47316041588783264,0.0,-0.006095157936215401,1.2766690254211426,0.0,0.009390960447490215
159.0,172.0,-5.6907,0.2016,8.0596,-0.0461,0.0284,-0.119,-2.585454126397604,0.0,5.737900733947754,-0.738646388053894,-0.0,2.081306219100952,5.345986711769857,0.0,0.19770660996437073,-1.7282875219928187,0.0,-0.0018436238169670105,0.47314393520355225,0.0,0.0019996853079646826,1.2766609191894531,0.0,0.004515917971730232
159.0,172.0,-5.6907,0.2016,8.0596,-0.0461,0.0284,-0.119,-2.5854703388609828,0.0,5.759300231933594,-0.7385942935943604,-0.0,2.0567049980163574,5.3459945795829675,0.0,0.17801791429519653,-1.7283075491534632,0.0,0.007259831763803959,0.47314393520355225,0.0,0.008644920773804188,1.2766609191894531,0.0,-0.003532941220328212
159.0,172.0,-5.6907,0.2016,8.0596,-0.0461,0.0284,-0.119,-2.5854298077025355,0.0,5.766240119934082,-0.7386586666107178,-0.0,2.0607850551605225,5.345938789635458,0.0,0.1994582712650299,-1.7283037344561976,0.0,0.002017042599618435,0.4731844961643219,0.0,0.009656027890741825,1.2766649723052979,0.0,0.00480668805539608
159.0,172.0,-5.6907,0.2016,8.0596,-0.0461,0.0284,-0.119,-2.585437913934225,0.0,5.738518238067627,-0.7385745048522949,-0.0,2.0926218032836914,5.346002566605367,0.0,0.1792292296886444,-1.7283595244037073,0.0,-0.003396277781575918,0.47312024235725403,0.0,0.004954921081662178,1.276713252067566,0.0,-0.0021735578775405884
159.0,172.0,-5.6907,0.2016,8.0596,-0.0461,0.0284,-0.119,-2.5854865513243617,0.0,5.712664604187012,-0.7386180758476257,-0.0,2.1016905307769775,5.345954704075613,0.0,0.1912427693605423,-1.728311840687887,0.0,0.000948421424254775,0.47313615679740906,0.0,0.019259436056017876,1.2767133712768555,0.0,-0.023396112024784088
159.0,172.0,-5.6907,0.2016,8.0596,-0.0461,0.0284,-0.119,-2.585437913934225,0.0,5.789698600769043,-0.7386143803596497,-0.0,2.1061196327209473,5.345986711769857,0.0,0.2004232406616211,-1.7283313910113733,0.0,0.010751708410680294,0.47316408157348633,0.0,-0.004125307314097881,1.2766411304473877,0.0,-0.006342348176985979
159.0,172.0,-5.6907,0.2016,8.0596,-0.0461,0.0284,-0.119,-2.58544983486318,0.0,5.74549674987793,-0.7385579943656921,-0.0,2.111419916152954,5.345982718258657,0.0,0.20578210055828094,-1.728351895009176,0.0,0.0029749860987067223,0.47314807772636414,0.0,-0.003476259997114539,1.276668667793274,0.0,-0.04060075432062149
159.0,172.0,-5.6907,0.2016,8.0596,-0.0461,0.0284,-0.119,-2.585454126397604,0.0,5.711117744445801,-0.7386102676391602,-0.0,2.136707067489624,5.346022116928854,0.0,0.2040778249502182,-1.7283600012408655,0.0,0.012482529506087303,0.47313985228538513,0.0,0.009299042634665966,1.2766809463500977,0.0,-0.012379547581076622
159.0,172.0,-5.6907,0.2016,8.0596,-0.0461,0.0284,-0.119,-2.585503240624899,0.0,5.774827003479004,-0.738594114780426,-0.0,2.1043429374694824,5.345990645676412,0.0,0.1910468339920044,-1.728323761616842,0.0,-0.0005305684171617031,0.47312790155410767,0.0,-0.0015133463311940432,1.2766730785369873,0.0,0.008734879083931446
159.0,172.0,-5.6907,0.2016,8.0596,-0.0461,0.0284,-0.119,-2.585482736627096,0.0,5.747745037078857,-0.7385539412498474,-0.0,2.095028877258301,5.345974492817678,0.0,0.1986134946346283,-1.7283719221698206,0.0,0.004481441807001829,0.47313207387924194,0.0,0.012298068031668663,1.2766649723052979,0.0,0.0046782223507761955
159.0,172.0,-5.6907,0.2016,8.0596,-0.0461,0.0284,-0.119,-2.5854703388609828,0.0,5.726482391357422,-0.7385581731796265,-0.0,2.071063995361328,5.346006202488699,0.0,0.19191372394561768,-1.728328053151266,0.0,0.015860170125961304,0.4731115996837616,0.0,0.010913287289440632,1.2766530513763428,0.0,-0.0026507675647735596
159.0,172.0,-5.6907,0.2016,8.0596,-0.0461,0.0284,-0.119,-2.585461755792135,0.0,5.741626739501953,-0.7385703325271606,-0.0,2.109633207321167,5.345998632698812,0.0,0.20230120420455933,-1.7283638159381312,0.0,-0.001325320452451706,0.47317224740982056,0.0,0.008629178628325462,1.2766690254211426,0.0,0.01762053370475769
159.0,172.0,-5.6907,0.2016,8.0596,-0.0461,0.0284,-0.119,-2.5854298077025355,0.0,5.7334675788879395,-0.7386624217033386,-0.0,2.093325138092041,5.345942663937368,0.0,0.20199286937713623,-1.728311840687887,0.0,0.013044397346675396,0.47317224740982056,0.0,-0.00633653998374939,1.2767091989517212,0.0,0.008879397995769978
159.0,172.0,-5.6907,0.2016,8.0596,-0.0461,0.0284,-0.119,-2.5854979954161585,0.0,5.725164413452148,-0.7386065125465393,-0.0,2.104846954345703,5.346014189511099,0.0,0.18720385432243347,-1.7283719221698206,0.0,0.0038112634792923927,0.4730837643146515,0.0,-0.009055228903889656,1.2766809463500977,0.0,-0.005602244287729263
159.0,172.0,-5.6907,0.2016,8.0596,-0.0461,0.0284,-0.119,-2.5854464970030726,0.0,5.795009613037109,-0.7386545538902283,-0.0,2.0586435794830322,5.345958578377523,0.0,0.19914239645004272,-1.7283275763141077,0.0,-0.008710799738764763,0.47315216064453125,0.0,0.006596392951905727,1.276676893234253,0.0,0.009451569058001041
154.0,173.0,-5.7685,0.1783,8.1829,-0.0402,0.0223,-0.1153,-2.585466047326559,0.0,5.782782554626465,-0.7385256290435791,-0.0,2.110438108444214,5.345986711769857,0.0,0.18832902610301971,-1.7282994429217737,0.0,0.0045361388474702835,0.4731033742427826,0.0,0.008562883362174034,1.2766730785369873,0.0,0.005053373984992504
154.0,173.0,-5.7685,0.1783,8.1829,-0.0402,0.0223,-0.1153,-2.5854703388609828,0.0,5.732940673828125,-0.738594114780426,-0.0,2.128981590270996,5.3459945795829675,0.0,0.19253511726856232,-1.7283075491534632,0.0,0.011552676558494568,0.47313615679740906,0.0,0.0011691825930029154,1.276713252067566,0.0,0.014297480694949627
154.0,173.0,-5.7685,0.1783,8.1829,-0.0402,0.0223,-0.1153,-2.58544983486318,0.0,5.721095085144043,-0.7385181784629822,-0.0,2.1199350357055664,5.346014189511099,0.0,0.18768280744552612,-1.728328053151266,0.0,0.017194919288158417,0.47317224740982056,0.0,-0.00021366984583437443,1.2766731977462769,0.0,-0.02413560263812542
154.0,173.0,-5.7685,0.1783,8.1829,-0.0402,0.0223,-0.1153,-2.585478445092672,0.0,5.736416816711426,-0.7385942339897156,-0.0,2.092635154724121,5.345958578377523,0.0,0.1964048147201538,-1.728339974080221,0.0,0.012081482447683811,0.4732128381729126,0.0,0.005983828566968441,1.2767332792282104,0.0,0.0046859364956617355
154.0,173.0,-5.7685,0.1783,8.1829,-0.0402,0.0223,-0.1153,-2.5854703388609828,0.0,5.746359825134277,-0.7386664748191833,-0.0,2.099494218826294,5.345934796124258,0.0,0.18764235079288483,-1.7283156553851526,0.0,0.017519326880574226,0.4731922447681427,0.0,0.0021063757594674826,1.2767091989517212,0.0,-0.009629873558878899
154.0,173.0,-5.7685,0.1783,8.1829,-0.0402,0.0223,-0.1153,-2.585466047326559,0.0,5.752964973449707,-0.7385818362236023,-0.0,2.090303659439087,5.345990705281057,0.0,0.1899646371603012,-1.72838002840151,0.0,0.005214701406657696,0.4730997085571289,0.0,0.004904021508991718,1.2766530513763428,0.0,0.008978304453194141
154.0,173.0,-5.7685,0.1783,8.1829,-0.0402,0.0223,-0.1153,-2.5854464970030726,0.0,5.74843168258667,-0.7385745048522949,-0.0,2.0857913494110107,5.345954644470968,0.0,0.19796836376190186,-1.7283676306353968,0.0,0.0049777645617723465,0.47316449880599976,0.0,-0.005921659059822559,1.2767009735107422,0.0,0.010766176506876945
154.0,173.0,-5.7685,0.1783,8.1829,-0.0402,0.0223,-0.1153,-2.5854865513243617,0.0,5.770637035369873,-0.7385901808738708,-0.0,2.1064348220825195,5.345998632698812,0.0,0.18365547060966492,-1.7282756010638636,0.0,0.010354478843510151,0.47314393520355225,0.0,0.015127375721931458,1.2766526937484741,0.0,0.01724107563495636
154.0,173.0,-5.7685,0.1783,8.1829,-0.0402,0.0223,-0.1153,-2.58542599300527,0.0,5.780367851257324,-0.7385703921318054,-0.0,2.0920281410217285,5.345974790840902,0.0,0.20662334561347961,-1.7283313910113733,0.0,0.0011735056759789586,0.47315216064453125,0.0,0.005827193148434162,1.2766849994659424,0.0,-0.038668952882289886
154.0,173.0,-5.7685,0.1783,8.1829,-0.0402,0.0223,-0.1153,-2.585414072076315,0.0,5.781437873840332,-0.7386065125465393,-0.0,2.0698142051696777,5.345966565399923,0.0,0.2025328278541565,-1.7283194700824183,0.0,-0.004552023950964212,0.47313618659973145,0.0,0.007944690063595772,1.276612639427185,0.0,-0.01784014143049717
154.0,173.0,-5.7685,0.1783,8.1829,-0.0402,0.0223,-0.1153,-2.585478445092672,0.0,5.783028602600098,-0.7385297417640686,-0.0,2.0753960609436035,5.345950710564413,0.0,0.20655900239944458,-1.7283957640277308,0.0,0.0046948399394750595,0.47316041588783264,0.0,0.005555411335080862,1.2766649723052979,0.0,-0.011100158095359802
154.0,173.0,-5.7685,0.1783,8.1829,-0.0402,0.0223,-0.1153,-2.5854865513243617,0.0,5.730103015899658,-0.7385859489440918,-0.0,2.1110548973083496,5.345946717053213,0.0,0.17492851614952087,-1.7283356825457972,0.0,0.0027842482086271048,0.47314441204071045,0.0,0.0041228001937270164,1.2766530513763428,0.0,0.030871272087097168
154.0,173.0,-5.7685,0.1783,8.1829,-0.0402,0.0223,-0.1153,-2.5854703388609828,0.0,5.809563636779785,-0.7386065125465393,-0.0,2.1074533462524414,5.345942723542013,0.0,0.20087675750255585,-1.7283557097064417,0.0,-0.003494818229228258,0.4731079041957855,0.0,0.008656313642859459,1.2766809463500977,0.0,0.021431535482406616
154.0,173.0,-5.7685,0.1783,8.1829,-0.0402,0.0223,-0.1153,-2.5854741535582484,0.0,5.73921012878418,-0.7386467456817627,-0.0,2.096602439880371,5.3458987949188135,0.0,0.18889126181602478,-1.7283037344561976,0.0,-0.0047395131550729275,0.4731074869632721,0.0,-0.0030085109174251556,1.2766367197036743,0.0,0.031875066459178925
154.0,173.0,-5.7685,0.1783,8.1829,-0.0402,0.0223,-0.1153,-2.585454126397604,0.0,5.765100479125977,-0.7386102676391602,-0.0,2.104191780090332,5.345978724747457,0.0,0.1969813108444214,-1.7283313910113733,0.0,0.0027508437633514404,0.47315993905067444,0.0,-0.00021839255350641906,1.2767173051834106,0.0,0.035600002855062485
154.0,173.0,-5.7685,0.1783,8.1829,-0.0402,0.0223,-0.1153,-2.5854584179320277,0.0,5.782203197479248,-0.7385859489440918,-0.0,2.1038126945495605,5.346010195999899,0.0,0.19595006108283997,-1.7283600012408655,0.0,0.006679415237158537,0.47315624356269836,0.0,-0.003332824446260929,1.276685118675232,0.0,-0.02420356124639511
154.0,173.0,-5.7685,0.1783,8.1829,-0.0402,0.0223,-0.1153,-2.585478445092672,0.0,5.744772911071777,-0.7386065125465393,-0.0,2.0383834838867188,5.345986771374502,0.0,0.20450833439826965,-1.728328053151266,0.0,0.011518934741616249,0.4731161594390869,0.0,0.015709485858678818,1.2766809463500977,0.0,0.023918338119983673
154.0,173.0,-5.7685,0.1783,8.1829,-0.0402,0.0223,-0.1153,-2.585442205468649,0.0,5.749323844909668,-0.7385663390159607,-0.0,2.0981807708740234,5.345966565399923,0.0,0.1955488622188568,-1.7283313910113733,0.0,0.01966191455721855,0.4731885492801666,0.0,0.0055623422376811504,1.2766530513763428,0.0,-0.03449937701225281
154.0,173.0,-5.7685,0.1783,8.1829,-0.0402,0.0223,-0.1153,-2.585454126397604,0.0,5.773351192474365,-0.7385736107826233,-0.0,2.1378772258758545,5.345962512284078,0.0,0.1926417350769043,-1.7283194700824183,0.0,-0.0006267672288231552,0.47316816449165344,0.0,0.011779554188251495,1.2766609191894531,0.0,0.02406865730881691
158.0,173.0,-5.747,0.1537,8.1392,-0.0341,0.0244,-0.1155,-2.585437913934225,0.0,5.754117488861084,-0.7386184334754944,-0.0,2.0798511505126953,5.345946657448568,0.0,0.19242265820503235,-1.7283919493304651,0.0,0.012547079473733902,0.47314023971557617,0.0,0.0018023797310888767,1.2766891717910767,0.0,0.035987481474876404
158.0,173.0,-5.747,0.1537,8.1392,-0.0341,0.0244,-0.1155,-2.5854417286314906,0.0,5.738633155822754,-0.7385457754135132,-0.0,2.106492519378662,5.3459229347999475,0.0,0.20129349827766418,-1.7283480803119105,0.0,0.0036194880958646536,0.47316038608551025,0.0,0.00862524937838316,1.2766690254211426,0.0,-0.027081886306405067
158.0,173.0,-5.747,0.1537,8.1392,-0.0341,0.0244,-0.1155,-2.5854460201659144,0.0,5.799317359924316,-0.7386586666107178,-0.0,2.090826988220215,5.345950710564413,0.0,0.19239406287670135,-1.7283313910113733,0.0,0.0072213225066661835,0.4731239080429077,0.0,-0.0030631590634584427,1.2767173051834106,0.0,-0.013478312641382217
158.0,173.0,-5.747,0.1537,8.1392,-0.0341,0.0244,-0.1155,-2.585478445092672,0.0,5.722217559814453,-0.7386102676391602,-0.0,2.105088233947754,5.345946657448568,0.0,0.19342830777168274,-1.7283037344561976,0.0,0.006368355359882116,0.4731844961643219,0.0,0.0022041257470846176,1.2766444683074951,0.0,-0.07838817685842514
158.0,173.0,-5.747,0.1537,8.1392,-0.0341,0.0244,-0.1155,-2.58544983486318,0.0,5.7490386962890625,-0.7385786175727844,-0.0,2.100851535797119,5.345970558911123,0.0,0.20036813616752625,-1.7283313910113733,0.0,0.014389888383448124,0.47318047285079956,0.0,0.005930136889219284,1.2767174243927002,0.0,0.04899545758962631
158.0,173.0,-5.747,0.1537,8.1392,-0.0341,0.0244,-0.1155,-2.585442205468649,0.0,5.772177219390869,-0.7385663390159607,-0.0,2.0956227779388428,5.345970558911123,0.0,0.19332650303840637,-1.7283037344561976,0.0,-0.0018417136743664742,0.473119854927063,0.0,0.00665661646053195,1.2766609191894531,0.0,-0.03736140578985214
158.0,173.0,-5.747,0.1537,8.1392,-0.0341,0.0244,-0.1155,-2.5854908428587855,0.0,5.765132904052734,-0.7385745048522949,-0.0,2.136101245880127,5.345942723542013,0.0,0.1951390653848648,-1.7283194700824183,0.0,0.0013987025013193488,0.4731721580028534,0.0,0.006643090862780809,1.2766690254211426,0.0,-0.010089932940900326
158.0,173.0,-5.747,0.1537,8.1392,-0.0341,0.0244,-0.1155,-2.5854298077025355,0.0,5.782718181610107,-0.7385736107826233,-0.0,2.0992629528045654,5.345938789635458,0.0,0.1988590657711029,-1.728311840687887,0.0,0.019033050164580345,0.47317638993263245,0.0,-0.007877431809902191,1.2766690254211426,0.0,0.03479199483990669
158.0,173.0,-5.747,0.1537,8.1392,-0.0341,0.0244,-0.1155,-2.5854979954161585,0.0,5.742069244384766,-0.7386024594306946,-0.0,2.02388334274292,5.3459388492401025,0.0,0.19221505522727966,-1.7283037344561976,0.0,0.009309343993663788,0.4731321632862091,0.0,0.0008376005571335554,1.276645302772522,0.0,0.018068373203277588
158.0,173.0,-5.747,0.1537,8.1392,-0.0341,0.0244,-0.1155,-2.5854908428587855,0.0,5.763187885284424,-0.7385900020599365,-0.0,2.0935869216918945,5.345994639187612,0.0,0.18589812517166138,-1.728339974080221,0.0,0.006145419552922249,0.47318047285079956,0.0,0.007500150240957737,1.276648998260498,0.0,0.0008477468509227037
158.0,173.0,-5.747,0.1537,8.1392,-0.0341,0.0244,-0.1155,-2.5854298077025355,0.0,5.769359588623047,-0.7385901808738708,-0.0,2.142792224884033,5.3459746716316126,0.0,0.19107180833816528,-1.7283356825457972,0.0,0.002876106183975935,0.47319236397743225,0.0,0.005469189956784248,1.276676893234253,0.0,0.06765010952949524
158.0,173.0,-5.747,0.1537,8.1392,-0.0341,0.0244,-0.1155,-2.585454126397604,0.0,5.75553035736084,-0.7386106252670288,-0.0,2.119433641433716,5.345966565399923,0.0,0.20775800943374634,-1.7282794157611292,0.0,0.014552800916135311,0.47314390540122986,0.0,0.005029087420552969,1.276628851890564,0.0,0.04136337712407112
158.0,173.0,-5.747,0.1537,8.1392,-0.0341,0.0244,-0.1155,-2.58542599300527,0.0,5.740274906158447,-0.7386020421981812,-0.0,2.1535089015960693,5.346002626210012,0.0,0.1994921863079071,-1.7283356825457972,0.0,-0.0004471628926694393,0.4731198251247406,0.0,-0.0034821818117052317,1.276685118675232,0.0,-0.017489714547991753
158.0,173.0,-5.747,0.1537,8.1392,-0.0341,0.0244,-0.1155,-2.5854703388609828,0.0,5.768642425537109,-0.7385983467102051,-0.0,2.0987799167633057,5.346037971764364,0.0,0.19438624382019043,-1.7283356825457972,0.0,0.003266623243689537,0.4731804132461548,0.0,0.003640610259026289,1.2766369581222534,0.0,0.027967195957899094
158.0,173.0,-5.747,0.1537,8.1392,-0.0341,0.0244,-0.1155,-2.585510393182272,0.0,5.7435431480407715,-0.7385579943656921,-0.0,2.0781238079071045,5.345958578377523,0.0,0.20803242921829224,-1.7283757368670862,0.0,0.006163847632706165,0.47315216064453125,0.0,-0.0048308782279491425,1.2766571044921875,0.0,0.0021193278953433037
158.0,173.0,-5.747,0.1537,8.1392,-0.0341,0.0244,-0.1155,-2.585461755792135,0.0,5.7468085289001465,-0.7385859489440918,-0.0,2.059774160385132,5.346050250321188,0.0,0.2009541094303131,-1.7283037344561976,0.0,0.006419414654374123,0.47314807772636414,0.0,-0.0029042819514870644,1.2766809463500977,0.0,0.019478987902402878
158.0,173.0,-5.747,0.1537,8.1392,-0.0341,0.0244,-0.1155,-2.5854059658446253,0.0,5.745882034301758,-0.7385818362236023,-0.0,2.141928195953369,5.345950710564413,0.0,0.1930207908153534,-1.7282961050616663,0.0,-0.005569813307374716,0.47316816449165344,0.0,0.002145147416740656,1.2766773700714111,0.0,-0.02890508435666561
158.0,173.0,-5.747,0.1537,8.1392,-0.0341,0.0244,-0.1155,-2.58544983486318,0.0,5.763843536376953,-0.7385983467102051,-0.0,2.088192939758301,5.345958578377523,0.0,0.19225919246673584,-1.7283356825457972,0.0,0.007188128773123026,0.47316408157348633,0.0,0.005536637268960476,1.2766690254211426,0.0,0.020364927127957344
156.0,168.0,-5.7787,0.1711,8.1368,-0.0348,0.0223,-0.1136,-2.585437913934225,0.0,5.751309394836426,-0.7386143207550049,-0.0,2.0782203674316406,5.345958578377523,0.0,0.18937921524047852,-1.7283557097064417,0.0,0.007402523420751095,0.47313615679740906,0.0,0.0041063567623496056,1.2766690254211426,0.0,0.0036553468089550734
156.0,168.0,-5.7787,0.1711,8.1368,-0.0348,0.0223,-0.1136,-2.5854703388609828,0.0,5.786494255065918,-0.7385859489440918,-0.0,2.1199545860290527,5.345978724747457,0.0,0.20936378836631775,-1.7283595244037073,0.0,0.002387870103120804,0.47317638993263245,0.0,0.007910376414656639,1.276676893234253,0.0,0.04344095289707184
156.0,168.0,-5.7787,0.1711,8.1368,-0.0348,0.0223,-0.1136,-2.585498949090475,0.0,5.754514694213867,-0.7386188507080078,-0.0,2.103672981262207,5.345958578377523,0.0,0.19082121551036835,-1.7283075491534632,0.0,0.01606879010796547,0.47316816449165344,0.0,0.016780219972133636,1.2767009735107422,0.0,-0.0012557441368699074
156.0,168.0,-5.7787,0.1711,8.1368,-0.0348,0.0223,-0.1136,-2.5854865513243617,0.0,5.741484642028809,-0.7385818362236023,-0.0,2.0919747352600098,5.345978724747457,0.0,0.20095965266227722,-1.7283113638507288,0.0,-0.009612072259187698,0.4730961322784424,0.0,0.00467162299901247,1.2766367197036743,0.0,0.016979532316327095
156.0,168.0,-5.7787,0.1711,8.1368,-0.0348,0.0223,-0.1136,-2.5854298077025355,0.0,5.748965263366699,-0.7385982871055603,-0.0,2.0811262130737305,5.345986771374502,0.0,0.20131631195545197,-1.7282756010638636,0.0,0.014870277605950832,0.4731844663619995,0.0,0.0006621619686484337,1.2766526937484741,0.0,-0.037571847438812256
156.0,168.0,-5.7787,0.1711,8.1368,-0.0348,0.0223,-0.1136,-2.5854340992369593,0.0,5.802634239196777,-0.738562285900116,-0.0,2.083167791366577,5.345954644470968,0.0,0.20360936224460602,-1.7283113638507288,0.0,0.009308937937021255,0.47316038608551025,0.0,-0.007370460778474808,1.276668667793274,0.0,-0.013741808012127876
156.0,168.0,-5.7787,0.1711,8.1368,-0.0348,0.0223,-0.1136,-2.585478445092672,0.0,5.768620491027832,-0.7385416626930237,-0.0,2.1272125244140625,5.345994639187612,0.0,0.18869927525520325,-1.728351895009176,0.0,0.0025742189027369022,0.4731921851634979,0.0,0.005297395400702953,1.2766649723052979,0.0,0.012953957542777061
156.0,168.0,-5.7787,0.1711,8.1368,-0.0348,0.0223,-0.1136,-2.585454126397604,0.0,5.765862464904785,-0.7386184930801392,-0.0,2.0958921909332275,5.345994639187612,0.0,0.18573613464832306,-1.7283676306353968,0.0,0.013349831104278564,0.47313207387924194,0.0,-0.001638566143810749,1.276676893234253,0.0,0.07506036758422852
156.0,168.0,-5.7787,0.1711,8.1368,-0.0348,0.0223,-0.1136,-2.5854178867735804,0.0,5.712433815002441,-0.7385942935943604,-0.0,2.094618320465088,5.346018183022299,0.0,0.19369861483573914,-1.7283437887774866,0.0,0.006550544872879982,0.47313615679740906,0.0,0.001918564084917307,1.2766849994659424,0.0,0.002372844610363245
156.0,168.0,-5.7787,0.1711,8.1368,-0.0348,0.0223,-0.1136,-2.5854584179320277,0.0,5.784019470214844,-0.7386184334754944,-0.0,2.1055877208709717,5.345986771374502,0.0,0.19829963147640228,-1.7283795515643519,0.0,0.011490321718156338,0.4731927216053009,0.0,0.0216877069324255,1.276648998260498,0.0,-0.0003535221330821514
156.0,168.0,-5.7787,0.1711,8.1368,-0.0348,0.0223,-0.1136,-2.5854741535582484,0.0,5.743602752685547,-0.7386024594306946,-0.0,2.0860354900360107,5.345958518772878,0.0,0.18779289722442627,-1.7283194700824183,0.0,0.0034641744568943977,0.4731157124042511,0.0,-0.0010399395832791924,1.2766612768173218,0.0,-0.04476722702383995
156.0,168.0,-5.7787,0.1711,8.1368,-0.0348,0.0223,-0.1136,-2.58544983486318,0.0,5.767014026641846,-0.7385983467102051,-0.0,2.1279244422912598,5.345986711769857,0.0,0.19601401686668396,-1.7282913366900843,0.0,0.0072168996557593346,0.4731804430484772,0.0,0.0010451924754306674,1.276713252067566,0.0,0.018238022923469543
156.0,168.0,-5.7787,0.1711,8.1368,-0.0348,0.0223,-0.1136,-2.5854460201659144,0.0,5.723969459533691,-0.7385622262954712,-0.0,2.0765485763549805,5.345986771374502,0.0,0.20538590848445892,-1.728339974080221,0.0,-0.0024319542571902275,0.47314807772636414,0.0,0.009443718940019608,1.2766809463500977,0.0,0.019939202815294266
156.0,168.0,-5.7787,0.1711,8.1368,-0.0348,0.0223,-0.1136,-2.58544983486318,0.0,5.768549919128418,-0.7385458946228027,-0.0,2.0681118965148926,5.346002626210012,0.0,0.20207437872886658,-1.728271786366598,0.0,0.0020167487673461437,0.47317224740982056,0.0,0.005218295846134424,1.276685118675232,0.0,0.04018331319093704
156.0,168.0,-5.7787,0.1711,8.1368,-0.0348,0.0223,-0.1136,-2.585442205468649,0.0,5.777528762817383,-0.7386505007743835,-0.0,2.1408848762512207,5.345930743008413,0.0,0.1933647096157074,-1.7283514181720179,0.0,-0.01260029524564743,0.47318851947784424,0.0,0.012855993583798409,1.2766449451446533,0.0,0.03933342918753624
156.0,168.0,-5.7787,0.1711,8.1368,-0.0348,0.0223,-0.1136,-2.5854464970030726,0.0,5.744206428527832,-0.7385296821594238,-0.0,2.0671873092651367,5.345962512284078,0.0,0.20367217063903809,-1.7283838430987757,0.0,-0.008945656940340996,0.47314441204071045,0.0,0.007558086421340704,1.276648998260498,0.0,-0.0163243617862463
156.0,168.0,-5.7787,0.1711,8.1368,-0.0348,0.0223,-0.1136,-2.585478445092672,0.0,5.786868095397949,-0.7386267185211182,-0.0,2.078482151031494,5.345974790840902,0.0,0.191409632563591,-1.7283356825457972,0.0,-0.0005073226639069617,0.47323691844940186,0.0,0.013195578008890152,1.2766449451446533,0.0,-0.00468593742698431
156.0,168.0,-5.7787,0.1711,8.1368,-0.0348,0.0223,-0.1136,-2.5854908428587855,0.0,5.741702556610107,-0.7385818362236023,-0.0,2.0948784351348877,5.345998692303457,0.0,0.2021653801202774,-1.728323761616842,0.0,0.0028329333290457726,0.4731927216053009,0.0,0.0005415455088950694,1.2766973972320557,0.0,-0.010266877710819244
156.0,168.0,-5.7787,0.1711,8.1368,-0.0348,0.0223,-0.1136,-2.5854460201659144,0.0,5.709691047668457,-0.7386143207550049,-0.0,2.046128749847412,5.346006202488699,0.0,0.1954350769519806,-1.728295628224508,0.0,-0.0038929057773202658,0.47316405177116394,0.0,-0.004373795818537474,1.2766042947769165,0.0,0.013010518625378609
157.0,165.0,-5.814,0.1292,8.208,-0.0425,0.0217,-0.1177,-2.585461755792135,0.0,5.776487350463867,-0.7385983467102051,-0.0,2.0752720832824707,5.345982777863302,0.0,0.21004894375801086,-1.7283194700824183,0.0,0.016030453145503998,0.47312796115875244,0.0,-0.003016719361767173,1.276713252067566,0.0,-0.00413869135081768
157.0,165.0,-5.814,0.1292,8.208,-0.0425,0.0217,-0.1177,-2.585414072076315,0.0,5.760691165924072,-0.7385859489440918,-0.0,2.093034267425537,5.345962512284078,0.0,0.20002135634422302,-1.7283318678485315,0.0,0.004950602538883686,0.47316816449165344,0.0,0.006336469203233719,1.276721477508545,0.0,0.03154490143060684
157.0,165.0,-5.814,0.1292,8.208,-0.0425,0.0217,-0.1177,-2.58544983486318,0.0,5.711427688598633,-0.7385704517364502,-0.0,2.051818370819092,5.345982777863302,0.0,0.20946036279201508,-1.7283356825457972,0.0,-0.0025825691409409046,0.47308385372161865,0.0,-0.003114522434771061,1.2766849994659424,0.0,0.019044222310185432
157.0,165.0,-5.814,0.1292,8.208,-0.0425,0.0217,-0.1177,-2.58544983486318,0.0,5.774750709533691,-0.738594114780426,-0.0,2.1092967987060547,5.345978724747457,0.0,0.19626545906066895,-1.7283595244037073,0.0,0.0064318543300032616,0.4731481373310089,0.0,0.011298966594040394,1.2766649723052979,0.0,0.05280778557062149
157.0,165.0,-5.814,0.1292,8.208,-0.0425,0.0217,-0.1177,-2.5854703388609828,0.0,5.735830307006836,-0.7386348843574524,-0.0,2.08059024810791,5.345974731236257,0.0,0.18270522356033325,-1.7283313910113733,0.0,0.008443376049399376,0.4731481075286865,0.0,0.003673648228868842,1.2766810655593872,0.0,0.03846368566155434
157.0,165.0,-5.814,0.1292,8.208,-0.0425,0.0217,-0.1177,-2.58544983486318,0.0,5.770211696624756,-0.7385859489440918,-0.0,2.042044162750244,5.345950650959768,0.0,0.19067151844501495,-1.7283356825457972,0.0,-0.011185727082192898,0.47314438223838806,0.0,-0.000240989844314754,1.2766809463500977,0.0,-0.001629747450351715
157.0,165.0,-5.814,0.1292,8.208,-0.0425,0.0217,-0.1177,-2.5854460201659144,0.0,5.754767894744873,-0.7386143803596497,-0.0,2.1076908111572266,5.346014308720388,0.0,0.18498146533966064,-1.7283194700824183,0.0,0.004193316213786602,0.4731239378452301,0.0,0.002520690206438303,1.2766730785369873,0.0,0.01731192320585251
157.0,165.0,-5.814,0.1292,8.208,-0.0425,0.0217,-0.1177,-2.5854703388609828,0.0,5.768430709838867,-0.7385497689247131,-0.0,2.0964956283569336,5.345974552422323,0.0,0.1931786835193634,-1.7283919493304651,0.0,0.012440275400876999,0.47310757637023926,0.0,0.0044330693781375885,1.2766809463500977,0.0,-0.016736246645450592
157.0,165.0,-5.814,0.1292,8.208,-0.0425,0.0217,-0.1177,-2.5854865513243617,0.0,5.7524213790893555,-0.7385580539703369,-0.0,2.0802671909332275,5.346030223160543,0.0,0.19601866602897644,-1.7283356825457972,0.0,-0.0013242608401924372,0.4732004404067993,0.0,0.0035998555831611156,1.2766649723052979,0.0,-0.06909416615962982
157.0,165.0,-5.814,0.1292,8.208,-0.0425,0.0217,-0.1177,-2.5854302845396937,0.0,5.759696006774902,-0.7386385798454285,-0.0,2.094372272491455,5.346010195999899,0.0,0.20008742809295654,-1.7283075491534632,0.0,0.003476605983451009,0.47319266200065613,0.0,0.003869695123285055,1.2766690254211426,0.0,0.007364981807768345
157.0,165.0,-5.814,0.1292,8.208,-0.0425,0.0217,-0.1177,-2.5854579410948695,0.0,5.785088539123535,-0.7385745048522949,-0.0,2.0528712272644043,5.345974731236257,0.0,0.18650710582733154,-1.7283194700824183,0.0,-0.000538150779902935,0.4731157720088959,0.0,0.013101069256663322,1.2766366004943848,0.0,-0.03631436452269554
157.0,165.0,-5.814,0.1292,8.208,-0.0425,0.0217,-0.1177,-2.5854340992369593,0.0,5.736763000488281,-0.7386024594306946,-0.0,2.1164588928222656,5.345942663937368,0.0,0.19463562965393066,-1.728351895009176,0.0,0.009992467239499092,0.473119854927063,0.0,-0.004633324220776558,1.2766891717910767,0.0,0.01798156648874283
157.0,165.0,-5.814,0.1292,8.208,-0.0425,0.0217,-0.1177,-2.5854298077025355,0.0,5.76413631439209,-0.7385982871055603,-0.0,2.069092273712158,5.345962512284078,0.0,0.18339812755584717,-1.7283557097064417,0.0,-0.0005082390271127224,0.4731641113758087,0.0,-0.006769392639398575,1.2766449451446533,0.0,-0.008943676017224789
157.0,165.0,-5.814,0.1292,8.208,-0.0425,0.0217,-0.1177,-2.5854865513243617,0.0,5.785719871520996,-0.7385777831077576,-0.0,2.0786502361297607,5.346014249115743,0.0,0.19529609382152557,-1.7282994429217737,0.0,-0.002229500561952591,0.47314026951789856,0.0,0.019147109240293503,1.2766330242156982,0.0,-0.028317227959632874
157.0,165.0,-5.814,0.1292,8.208,-0.0425,0.0217,-0.1177,-2.5854584179320277,0.0,5.78371524810791,-0.7386385202407837,-0.0,2.089862108230591,5.345978724747457,0.0,0.19135138392448425,-1.728339974080221,0.0,0.003835489274933934,0.47317641973495483,0.0,0.0010252526262775064,1.2766329050064087,0.0,-0.006103502586483955
157.0,165.0,-5.814,0.1292,8.208,-0.0425,0.0217,-0.1177,-2.585482736627096,0.0,5.78590202331543,-0.7386221885681152,-0.0,2.071542739868164,5.345982777863302,0.0,0.1834082007408142,-1.7283313910113733,0.0,0.010187814012169838,0.47314023971557617,0.0,0.0022718007676303387,1.2766690254211426,0.0,0.0011818818747997284
157.0,165.0,-5.814,0.1292,8.208,-0.0425,0.0217,-0.1177,-2.585437913934225,0.0,5.692673206329346,-0.7386546730995178,-0.0,2.081353187561035,5.345978724747457,0.0,0.1941547691822052,-1.7283437887774866,0.0,0.002715309849008918,0.47313210368156433,0.0,0.009418681263923645,1.2766530513763428,0.0,0.02940785139799118
157.0,165.0,-5.814,0.1292,8.208,-0.0425,0.0217,-0.1177,-2.585437913934225,0.0,5.719725608825684,-0.7386624217033386,-0.0,2.1162333488464355,5.346030103951254,0.0,0.18280303478240967,-1.7283600012408655,0.0,0.00927517469972372,0.47313618659973145,0.0,-0.002149682492017746,1.2766649723052979,0.0,-0.001074126921594143
162.0,172.0,-5.8122,0.1699,8.2481,-0.0348,0.0308,-0.1216,-2.585454126397604,0.0,5.761090278625488,-0.7385745048522949,-0.0,2.088615894317627,5.345994639187612,0.0,0.18934199213981628,-1.728351895009176,0.0,0.013535664416849613,0.47312796115875244,0.0,0.00849501509219408,1.2766649723052979,0.0,0.013704948127269745
162.0,172.0,-5.8122,0.1699,8.2481,-0.0348,0.0308,-0.1216,-2.585494180718893,0.0,5.739198684692383,-0.7385416030883789,-0.0,2.106914758682251,5.345954704075613,0.0,0.19892004132270813,-1.7283356825457972,0.0,-0.004815043415874243,0.47315216064453125,0.0,0.0017278325976803899,1.2766609191894531,0.0,0.019853506237268448
162.0,172.0,-5.8122,0.1699,8.2481,-0.0348,0.0308,-0.1216,-2.5854460201659144,0.0,5.801206588745117,-0.7386302947998047,-0.0,2.105513334274292,5.345982777863302,0.0,0.2033717930316925,-1.7283437887774866,0.0,0.007756390608847141,0.47314023971557617,0.0,-0.001740309875458479,1.276637077331543,0.0,-0.02160726860165596
162.0,172.0,-5.8122,0.1699,8.2481,-0.0348,0.0308,-0.1216,-2.585442205468649,0.0,5.708209037780762,-0.7385663390159607,-0.0,2.088141441345215,5.345970856934347,0.0,0.20451389253139496,-1.728295628224508,0.0,0.02027701586484909,0.4731001853942871,0.0,0.010209240950644016,1.2766609191894531,0.0,0.003279156517237425
162.0,172.0,-5.8122,0.1699,8.2481,-0.0348,0.0308,-0.1216,-2.585510393182272,0.0,5.79152774810791,-0.7385653853416443,-0.0,2.132585287094116,5.345954644470968,0.0,0.20089216530323029,-1.7283437887774866,0.0,0.0012556116562336683,0.473172128200531,0.0,0.013021416030824184,1.2766165733337402,0.0,0.011106192134320736
162.0,172.0,-5.8122,0.1699,8.2481,-0.0348,0.0308,-0.1216,-2.585466047326559,0.0,5.764830589294434,-0.7386102080345154,-0.0,2.0910263061523438,5.345998692303457,0.0,0.2107877880334854,-1.7283156553851526,0.0,0.006671724375337362,0.47316408157348633,0.0,0.008098697289824486,1.2766449451446533,0.0,0.030279166996479034
162.0,172.0,-5.8122,0.1699,8.2481,-0.0348,0.0308,-0.1216,-2.585506101647848,0.0,5.745640754699707,-0.7385296821594238,-0.0,2.0957024097442627,5.345982777863302,0.0,0.1870359480381012,-1.7283476034747522,0.0,0.005754723679274321,0.47320863604545593,0.0,0.0034987207036465406,1.2767333984375,0.0,0.03010602295398712
162.0,172.0,-5.8122,0.1699,8.2481,-0.0348,0.0308,-0.1216,-2.58542599300527,0.0,5.761430740356445,-0.7385663390159607,-0.0,2.11372971534729,5.345978724747457,0.0,0.21052366495132446,-1.7283433119403284,0.0,-0.0014743899228051305,0.473128080368042,0.0,-0.0033965199254453182,1.2766809463500977,0.0,0.01924113556742668
162.0,172.0,-5.8122,0.1699,8.2481,-0.0348,0.0308,-0.1216,-2.585510393182272,0.0,5.693887710571289,-0.7386587262153625,-0.0,2.043513059616089,5.346034157067098,0.0,0.19519853591918945,-1.7283437887774866,0.0,-0.005838830955326557,0.47311586141586304,0.0,0.0016757017001509666,1.2767293453216553,0.0,-0.05538523942232132
162.0,172.0,-5.8122,0.1699,8.2481,-0.0348,0.0308,-0.1216,-2.5855146847166957,0.0,5.783669471740723,-0.7385416030883789,-0.0,2.1174986362457275,5.345958578377523,0.0,0.19736206531524658,-1.7283161322223108,0.0,0.01604095846414566,0.473119854927063,0.0,0.020635005086660385,1.2766411304473877,0.0,-0.05381157994270325
162.0,172.0,-5.8122,0.1699,8.2481,-0.0348,0.0308,-0.1216,-2.5854703388609828,0.0,5.762749195098877,-0.7385983467102051,-0.0,2.1243772506713867,5.3460062620933435,0.0,0.20927008986473083,-1.728328053151266,0.0,-0.006802605465054512,0.4731844961643219,0.0,-0.00027788063744083047,1.276648998260498,0.0,-0.013582236133515835
162.0,172.0,-5.8122,0.1699,8.2481,-0.0348,0.0308,-0.1216,-2.585494657556051,0.0,5.774204254150391,-0.7386348843574524,-0.0,2.134833812713623,5.346006202488699,0.0,0.19869525730609894,-1.7283313910113733,0.0,0.009910289198160172,0.4731399118900299,0.0,0.012503698468208313,1.2766609191894531,0.0,-0.01297746505588293
162.0,172.0,-5.8122,0.1699,8.2481,-0.0348,0.0308,-0.1216,-2.585489889184469,0.0,5.7887468338012695,-0.7385579943656921,-0.0,2.0895113945007324,5.3459945795829675,0.0,0.19898858666419983,-1.728323761616842,0.0,0.008847847580909729,0.47316813468933105,0.0,-0.005986403673887253,1.2767497301101685,0.0,-0.03431905061006546
162.0,172.0,-5.8122,0.1699,8.2481,-0.0348,0.0308,-0.1216,-2.585489889184469,0.0,5.74091911315918,-0.7385416030883789,-0.0,2.089409112930298,5.345938789635458,0.0,0.18627886474132538,-1.7283275763141077,0.0,0.002356776036322117,0.4731079936027527,0.0,0.01035277359187603,1.2766448259353638,0.0,-0.04823998361825943
162.0,172.0,-5.8122,0.1699,8.2481,-0.0348,0.0308,-0.1216,-2.58544983486318,0.0,5.722014904022217,-0.7386147975921631,-0.0,2.0782718658447266,5.3460102556045435,0.0,0.19899818301200867,-1.7283676306353968,0.0,0.009885933250188828,0.473111629486084,0.0,0.0063016340136528015,1.2767174243927002,0.0,-0.05736584588885307
162.0,172.0,-5.8122,0.1699,8.2481,-0.0348,0.0308,-0.1216,-2.5854865513243617,0.0,5.744759559631348,-0.7386065125465393,-0.0,2.0633089542388916,5.346010195999899,0.0,0.20093660056591034,-1.7283476034747522,0.0,-0.0057865651324391365,0.4731481075286865,0.0,0.018149813637137413,1.276713252067566,0.0,-0.01635155826807022
162.0,172.0,-5.8122,0.1699,8.2481,-0.0348,0.0308,-0.1216,-2.585461755792135,0.0,5.7565598487854,-0.7386106848716736,-0.0,2.0631816387176514,5.3460102556045435,0.0,0.21249207854270935,-1.7283356825457972,0.0,0.005282150581479073,0.47314023971557617,0.0,-0.0012049112701788545,1.2766646146774292,0.0,-0.005684523843228817
162.0,172.0,-5.8122,0.1699,8.2481,-0.0348,0.0308,-0.1216,-2.5854703388609828,0.0,5.727287292480469,-0.7385259866714478,-0.0,2.102391242980957,5.345974731236257,0.0,0.19130279123783112,-1.7283514181720179,0.0,0.00876620877534151,0.47314438223838806,0.0,0.005934053100645542,1.2767091989517212,0.0,0.004763737320899963
162.0,172.0,-5.8122,0.1699,8.2481,-0.0348,0.0308,-0.1216,-2.58544983486318,0.0,5.743015289306641,-0.7385296821594238,-0.0,2.0498178005218506,5.345962512284078,0.0,0.1923932284116745,-1.7283838430987757,0.0,0.004917792044579983,0.4731599688529968,0.0,-0.003067938843742013,1.276648998260498,0.0,0.05788872018456459
157.0,172.0,-5.8008,0.0526,8.1529,-0.0441,0.0234,-0.1219,-2.585466047326559,0.0,5.773257255554199,-0.7385622262954712,-0.0,2.0780997276306152,5.345966565399923,0.0,0.2007654756307602,-1.7283719221698206,0.0,0.006994232535362244,0.4731321334838867,0.0,0.00037061888724565506,1.2766609191894531,0.0,0.007026730105280876
157.0,172.0,-5.8008,0.0526,8.1529,-0.0441,0.0234,-0.1219,-2.585461755792135,0.0,5.744298934936523,-0.7385818362236023,-0.0,2.0941340923309326,5.345958578377523,0.0,0.20116260647773743,-1.7282994429217737,0.0,-0.000723373843356967,0.4730720520019531,0.0,-0.0025917189195752144,1.2766486406326294,0.0,-0.03515692427754402
157.0,172.0,-5.8008,0.0526,8.1529,-0.0441,0.0234,-0.1219,-2.5854703388609828,0.0,5.766881942749023,-0.7386106848716736,-0.0,2.0714685916900635,5.345974731236257,0.0,0.2038268893957138,-1.728335205708639,0.0,-0.0003454475663602352,0.4731721580028534,0.0,0.0005701528862118721,1.2766649723052979,0.0,0.04572375491261482
157.0,172.0,-5.8008,0.0526,8.1529,-0.0441,0.0234,-0.1219,-2.585454126397604,0.0,5.74650764465332,-0.7385786175727844,-0.0,2.132385015487671,5.345946597843923,0.0,0.20602861046791077,-1.728295628224508,0.0,0.003725734306499362,0.4731280207633972,0.0,0.0026569936890155077,1.2766649723052979,0.0,-0.008006465621292591
157.0,172.0,-5.8008,0.0526,8.1529,-0.0441,0.0234,-0.1219,-2.585437913934225,0.0,5.757248878479004,-0.7386143207550049,-0.0,2.1242313385009766,5.345994639187612,0.0,0.18891212344169617,-1.7283676306353968,0.0,0.01146062184125185,0.47316816449165344,0.0,-0.0011140238493680954,1.2767174243927002,0.0,-0.0020677652209997177
157.0,172.0,-5.8008,0.0526,8.1529,-0.0441,0.0234,-0.1219,-2.5854703388609828,0.0,5.734974384307861,-0.7386385798454285,-0.0,2.061593770980835,5.345942663937368,0.0,0.18770918250083923,-1.7283437887774866,0.0,0.002439924282953143,0.47317633032798767,0.0,0.01742711290717125,1.2767009735107422,0.0,0.0047583309933543205
157.0,172.0,-5.8008,0.0526,8.1529,-0.0441,0.0234,-0.1219,-2.585414072076315,0.0,5.742611885070801,-0.7386065125465393,-0.0,2.067770481109619,5.345990645676412,0.0,0.19704687595367432,-1.7283356825457972,0.0,0.01311773806810379,0.4731239378452301,0.0,0.001178476493805647,1.2766449451446533,0.0,-0.025181833654642105
157.0,172.0,-5.8008,0.0526,8.1529,-0.0441,0.0234,-0.1219,-2.585510393182272,0.0,5.732902526855469,-0.7385460734367371,-0.0,2.067845582962036,5.346006202488699,0.0,0.2044859528541565,-1.7283313910113733,0.0,0.00713005755096674,0.47309574484825134,0.0,0.00643119215965271,1.2766530513763428,1.3441694424187745e-09,-0.004388733766973019
157.0,172.0,-5.8008,0.0526,8.1529,-0.0441,0.0234,-0.1219,-2.585466047326559,0.0,5.7948994636535645,-0.7385296821594238,-0.0,2.081367015838623,5.345994639187612,0.0,0.20111867785453796,-1.7283356825457972,0.0,0.006397823803126812,0.47314807772636414,0.0,0.005162335932254791,1.2766809463500977,3.2460113071709545e-15,-0.019507059827446938
157.0,172.0,-5.8008,0.0526,8.1529,-0.0441,0.0234,-0.1219,-2.585478445092672,0.0,5.7740325927734375,-0.7385579943656921,-0.0,2.0977933406829834,5.345986771374502,0.0,0.19089093804359436,-1.7283557097064417,0.0,0.01732952520251274,0.47314029932022095,0.0,0.002848586766049266,1.276713252067566,5.84270650473129e-19,0.014421247877180576
157.0,172.0,-5.8008,0.0526,8.1529,-0.0441,0.0234,-0.1219,-2.585454126397604,0.0,5.772456169128418,-0.7385415434837341,-0.0,2.110882520675659,5.345962512284078,0.0,0.19033241271972656,-1.728339974080221,0.0,0.022036051377654076,0.47320041060447693,0.0,0.0011274018324911594,1.276725172996521,1.4109447821647234e-24,0.06418601423501968
157.0,172.0,-5.8008,0.0526,8.1529,-0.0441,0.0234,-0.1219,-2.5854703388609828,0.0,5.719277381896973,-0.7386468648910522,-0.0,2.1019816398620605,5.345998692303457,0.0,0.19550395011901855,-1.728351895009176,0.0,0.007349914405494928,0.4731198847293854,0.0,0.008358552120625973,1.2766609191894531,2.5396508730668043e-28,-0.02118035778403282
157.0,172.0,-5.8008,0.0526,8.1529,-0.0441,0.0234,-0.1219,-2.585461755792135,0.0,5.802614212036133,-0.7385818362236023,-0.0,2.108386993408203,5.345974731236257,0.0,0.20062914490699768,-1.7283075491534632,0.0,0.010572602972388268,0.47314438223838806,0.0,0.011510795913636684,1.2766330242156982,6.13295856360045e-34,0.017862755805253983
157.0,172.0,-5.8008,0.0526,8.1529,-0.0441,0.0234,-0.1219,-2.5854460201659144,0.0,5.769295692443848,-0.7385456562042236,-0.0,2.0868430137634277,5.345986771374502,0.0,0.20234760642051697,-1.7283356825457972,0.0,-0.0014340812340378761,0.47316408157348633,0.0,0.019205506891012192,1.276676893234253,1.1039108684862271e-37,0.008270397782325745
157.0,172.0,-5.8008,0.0526,8.1529,-0.0441,0.0234,-0.1219,-2.58544983486318,0.0,5.730594635009766,-0.7385621666908264,-0.0,2.080172061920166,5.346030163555898,0.0,0.195021390914917,-1.728375260029928,0.0,0.006871018558740616,0.4730879068374634,0.0,0.008743677288293839,1.2767497301101685,2.6624670822171524e-43,-0.0036948472261428833
157.0,172.0,-5.8008,0.0526,8.1529,-0.0441,0.0234,-0.1219,-2.585510393182272,0.0,5.780684471130371,-0.7386024594306946,-0.0,2.126707077026367,5.346010195999899,0.0,0.20079146325588226,-1.7283638159381312,0.0,0.008201772347092628,0.47310391068458557,0.0,0.0063354456797242165,1.276676893234253,0.0,-0.0028357435949146748
157.0,172.0,-5.8008,0.0526,8.1529,-0.0441,0.0234,-0.1219,-2.585478445092672,0.0,5.781436443328857,-0.7385983467102051,-0.0,2.069816827774048,5.345994639187612,0.0,0.18398639559745789,-1.7283075491534632,0.0,0.00707004452124238,0.4731198847293854,0.0,-0.0008009728044271469,1.276637077331543,0.0,-0.04075781628489494
157.0,172.0,-5.8008,0.0526,8.1529,-0.0441,0.0234,-0.1219,-2.5854703388609828,0.0,5.784716606140137,-0.7385982871055603,-0.0,2.1403298377990723,5.345982777863302,0.0,0.19112148880958557,-1.728311840687887,0.0,0.013336587697267532,0.4731038808822632,0.0,0.010834192857146263,1.276628851890564,0.0,0.013239431194961071
159.0,167.0,-5.7876,0.1932,8.0907,-0.0324,0.0328,-0.1159,-2.5854178867735804,0.0,5.7726640701293945,-0.7385818362236023,-0.0,2.0948550701141357,5.345986771374502,0.0,0.19746893644332886,-1.7283313910113733,0.0,0.009002861566841602,0.47314438223838806,0.0,0.008800746873021126,1.2766609191894531,0.0,0.03257004916667938
159.0,167.0,-5.7876,0.1932,8.0907,-0.0324,0.0328,-0.1159,-2.5854703388609828,0.0,5.774044513702393,-0.7386147975921631,-0.0,2.118058681488037,5.345994639187612,0.0,0.20010849833488464,-1.7283113638507288,0.0,0.007321005687117577,0.47314023971557617,0.0,0.006728767417371273,1.2766649723052979,0.0,0.024106178432703018
159.0,167.0,-5.7876,0.1932,8.0907,-0.0324,0.0328,-0.1159,-2.585409780541891,0.0,5.735651016235352,-0.7385622262954712,-0.0,2.0768625736236572,5.345962512284078,0.0,0.19805902242660522,-1.7283113638507288,0.0,0.008302472531795502,0.47316813468933105,0.0,0.003877381794154644,1.2766166925430298,0.0,0.04723002016544342
159.0,167.0,-5.7876,0.1932,8.0907,-0.0324,0.0328,-0.1159,-2.5854579410948695,0.0,5.743834972381592,-0.7385786175727844,-0.0,2.0777220726013184,5.345982777863302,0.0,0.1930863857269287,-1.7283313910113733,0.0,-0.0006758069503121078,0.47317224740982056,0.0,0.01437096856534481,1.2766809463500977,0.0,-0.01929580233991146
159.0,167.0,-5.7876,0.1932,8.0907,-0.0324,0.0328,-0.1159,-2.5854417286314906,0.0,5.782012939453125,-0.7385663390159607,-0.0,2.1079602241516113,5.345958637982168,0.0,0.19720759987831116,-1.728295628224508,0.0,-0.003874740330502391,0.4731239080429077,0.0,0.005775021389126778,1.2766526937484741,0.0,-0.047342728823423386
159.0,167.0,-5.7876,0.1932,8.0907,-0.0324,0.0328,-0.1159,-2.585437913934225,0.0,5.751091003417969,-0.7386184334754944,-0.0,2.096109390258789,5.345954644470968,0.0,0.19951131939888,-1.7283638159381312,0.0,0.005510158836841583,0.47315624356269836,0.0,0.004429657012224197,1.2767332792282104,0.0,-0.05857356637716293
159.0,167.0,-5.7876,0.1932,8.0907,-0.0324,0.0328,-0.1159,-2.5854340992369593,0.0,5.7653656005859375,-0.7385818362236023,-0.0,2.0910885334014893,5.346002685814657,0.0,0.2057349979877472,-1.7283676306353968,0.0,0.0016679905820637941,0.4732127785682678,0.0,0.012876409105956554,1.2766449451446533,0.0,0.012354792095720768
159.0,167.0,-5.7876,0.1932,8.0907,-0.0324,0.0328,-0.1159,-2.5854584179320277,0.0,5.758286476135254,-0.7386024594306946,-0.0,2.0928263664245605,5.346010195999899,0.0,0.1979454755783081,-1.7283638159381312,0.0,0.005453523248434067,0.4731922149658203,0.0,0.011157277971506119,1.276713252067566,0.0,-0.017062850296497345
159.0,167.0,-5.7876,0.1932,8.0907,-0.0324,0.0328,-0.1159,-2.58542599300527,0.0,5.73827600479126,-0.7386065125465393,-0.0,2.10843563079834,5.346006202488699,0.0,0.19289708137512207,-1.7283595244037073,0.0,0.011636289767920971,0.47315624356269836,0.0,0.006311270873993635,1.276668667793274,0.0,0.012889004312455654
159.0,167.0,-5.7876,0.1932,8.0907,-0.0324,0.0328,-0.1159,-2.5854703388609828,0.0,5.724065780639648,-0.7386184334754944,-0.0,2.1538777351379395,5.346006202488699,0.0,0.1918463110923767,-1.7283194700824183,0.0,-0.006154084578156471,0.47311580181121826,0.0,-0.0024367901496589184,1.2766526937484741,0.0,-0.017167184501886368
159.0,167.0,-5.7876,0.1932,8.0907,-0.0324,0.0328,-0.1159,-2.5854340992369593,0.0,5.746964454650879,-0.7385296821594238,-0.0,2.0832998752593994,5.345994639187612,0.0,0.19227762520313263,-1.7283476034747522,0.0,0.012527034617960453,0.4731238782405853,0.0,0.0029551403131335974,1.2766486406326294,0.0,0.04469730332493782
159.0,167.0,-5.7876,0.1932,8.0907,-0.0324,0.0328,-0.1159,-2.5854741535582484,0.0,5.719391822814941,-0.7386024594306946,-0.0,2.0774874687194824,5.346018242626943,0.0,0.20101948082447052,-1.7283075491534632,0.0,0.011211752891540527,0.47315990924835205,0.0,0.010812520980834961,1.2767128944396973,0.0,0.031351685523986816
159.0,167.0,-5.7876,0.1932,8.0907,-0.0324,0.0328,-0.1159,-2.585466047326559,0.0,5.724586486816406,-0.7386020421981812,-0.0,2.0944719314575195,5.345950650959768,0.0,0.1983383297920227,-1.7283275763141077,0.0,0.0024113794788718224,0.4731845557689667,0.0,0.0032307994551956654,1.2766609191894531,0.0,-0.01059984415769577
159.0,167.0,-5.7876,0.1932,8.0907,-0.0324,0.0328,-0.1159,-2.585454126397604,0.0,5.757512092590332,-0.7385900020599365,-0.0,2.095834255218506,5.345950591355123,0.0,0.19460806250572205,-1.7283275763141077,0.0,0.0009309113956987858,0.47314023971557617,0.0,0.011384012177586555,1.2767091989517212,0.0,-0.04664896801114082
159.0,167.0,-5.7876,0.1932,8.0907,-0.0324,0.0328,-0.1159,-2.5854178867735804,0.0,5.761597156524658,-0.7386665940284729,-0.0,2.059884548187256,5.345966565399923,0.0,0.19906876981258392,-1.7283356825457972,0.0,0.008016202598810196,0.47316816449165344,0.0,0.001024492084980011,1.2766809463500977,0.0,-0.013364297337830067
159.0,167.0,-5.7876,0.1932,8.0907,-0.0324,0.0328,-0.1159,-2.5854584179320277,0.0,5.764350891113281,-0.7385736107826233,-0.0,2.1282906532287598,5.345998692303457,0.0,0.1819877326488495,-1.728351895009176,0.0,0.00800777692347765,0.47317638993263245,0.0,-0.003639516420662403,1.2766485214233398,0.0,-0.011438988149166107
159.0,167.0,-5.7876,0.1932,8.0907,-0.0324,0.0328,-0.1159,-2.585461755792135,0.0,5.804976463317871,-0.7385736703872681,-0.0,2.086174964904785,5.345974731236257,0.0,0.1950351893901825,-1.7283275763141077,0.0,0.005053829867392778,0.47315624356269836,0.0,-0.003766104346141219,1.2767332792282104,0.0,0.010376292280852795
159.0,167.0,-5.7876,0.1932,8.0907,-0.0324,0.0328,-0.1159,-2.5854460201659144,0.0,5.768072128295898,-0.7385900616645813,-0.0,2.1226460933685303,5.345982777863302,0.0,0.19392496347427368,-1.7283719221698206,0.0,0.011602168902754784,0.4731762409210205,0.0,0.005702925845980644,1.2766530513763428,0.0,0.020692545920610428
159.0,167.0,-5.7876,0.1932,8.0907,-0.0324,0.0328,-0.1159,-2.5854340992369593,0.0,5.719351768493652,-0.7385942339897156,-0.0,2.103132486343384,5.345938670426168,0.0,0.1908518373966217,-1.728351895009176,0.0,0.009027327410876751,0.4732127785682678,0.0,0.010155715048313141,1.2766690254211426,0.0,-0.0015392615459859371
156.0,167.0,-5.6901,0.0796,8.0632,-0.0457,0.0157,-0.1109,-2.585494180718893,0.0,5.718877792358398,-0.7385786175727844,-0.0,2.0562329292297363,5.345974552422323,0.0,0.2000945508480072,-1.7283719221698206,0.0,0.01207013800740242,0.47315624356269836,0.0,0.00988112110644579,1.2766607999801636,0.0,-0.031245548278093338
156.0,167.0,-5.6901,0.0796,8.0632,-0.0457,0.0157,-0.1109,-2.5854741535582484,0.0,5.755563735961914,-0.738602340221405,-0.0,2.1032681465148926,5.345966565399923,0.0,0.1950874924659729,-1.7283838430987757,0.0,0.020249594002962112,0.47317638993263245,0.0,-0.002300233580172062,1.2767091989517212,0.0,-0.04984090477228165
156.0,167.0,-5.6901,0.0796,8.0632,-0.0457,0.0157,-0.1109,-2.5854865513243617,0.0,5.791378974914551,-0.7385704517364502,-0.0,2.1013026237487793,5.345970618515768,0.0,0.18825125694274902,-1.7283313910113733,0.0,0.00996307097375393,0.4731239676475525,0.0,0.014267372898757458,1.2766809463500977,0.0,-0.024842308834195137
156.0,167.0,-5.6901,0.0796,8.0632,-0.0457,0.0157,-0.1109,-2.5854059658446253,0.0,5.754595756530762,-0.7385983467102051,-0.0,2.089014768600464,5.345966625004568,0.0,0.20582619309425354,-1.7283600012408655,0.0,0.01426977664232254,0.473119854927063,0.0,0.009496242739260197,1.2766609191894531,0.0,0.0031702984124422073
156.0,167.0,-5.6901,0.0796,8.0632,-0.0457,0.0157,-0.1109,-2.5854703388609828,0.0,5.784903049468994,-0.7385859489440918,-0.0,2.0805039405822754,5.345998811512747,0.0,0.19750311970710754,-1.728396240864889,0.0,0.0009956122376024723,0.47316038608551025,0.0,-0.006054297089576721,1.2767009735107422,0.0,0.027466701343655586
156.0,167.0,-5.6901,0.0796,8.0632,-0.0457,0.0157,-0.1109,-2.58542599300527,0.0,5.737920761108398,-0.738646924495697,-0.0,2.0859627723693848,5.345974731236257,0.0,0.19736391305923462,-1.7282794157611292,0.0,-0.0021375338546931744,0.47315216064453125,0.0,0.0014216320123523474,1.276676893234253,0.0,-0.002806308912113309
156.0,167.0,-5.6901,0.0796,8.0632,-0.0457,0.0157,-0.1109,-2.585454126397604,4.79899675553952e-09,5.768248558044434,-0.7385983467102051,-0.0,2.0536391735076904,5.345974731236257,0.0,0.20610037446022034,-1.7283075491534632,0.0,-0.004452305845916271,0.47314807772636414,0.0,0.012213189154863358,1.276676893234253,0.0,-0.004141033161431551
156.0,167.0,-5.6901,0.0796,8.0632,-0.0457,0.0157,-0.1109,-2.5854703388609828,1.158901161070914e-14,5.774177551269531,-0.7385612726211548,-0.0,2.0987892150878906,5.345982777863302,0.0,0.1939222812652588,-1.7283676306353968,0.0,-0.001896304776892066,0.4731844663619995,0.0,0.00036940351128578186,1.2766649723052979,0.0,0.019318263977766037
156.0,167.0,-5.6901,0.0796,8.0632,-0.0457,0.0157,-0.1109,-2.5854584179320277,2.0859811736040813e-18,5.76261043548584,-0.7385621070861816,-0.0,2.046876907348633,5.346010613232412,0.0,0.20382270216941833,-1.7283194700824183,0.0,0.00013589300215244293,0.473119854927063,0.0,-0.0048562996089458466,1.2766731977462769,0.0,-0.0015788981691002846
156.0,167.0,-5.6901,0.0796,8.0632,-0.0457,0.0157,-0.1109,-2.5854622326292933,5.0374002890467745e-24,5.7342529296875,-0.7385859489440918,-0.0,2.0490989685058594,5.345986771374502,0.0,0.18820339441299438,-1.7283437887774866,0.0,0.011158677749335766,0.4731804132461548,0.0,0.010187107138335705,1.2766530513763428,0.0,-0.011397430673241615
156.0,167.0,-5.6901,0.0796,8.0632,-0.0457,0.0157,-0.1109,-2.585437913934225,9.067142400114027e-28,5.759593963623047,-0.7385984063148499,-0.0,2.1100432872772217,5.3459786651428125,0.0,0.19943949580192566,-1.7283476034747522,0.0,0.00031994294840842485,0.4731362462043762,0.0,0.00843600369989872,1.2766649723052979,0.0,-0.011546566151082516
156.0,167.0,-5.6901,0.0796,8.0632,-0.0457,0.0157,-0.1109,-2.58544983486318,2.1896082046270525e-33,5.79653787612915,-0.7386106252670288,-0.0,2.0832138061523438,5.345982777863302,0.0,0.1893720030784607,-1.7283113638507288,0.0,-0.006762620992958546,0.4730956256389618,0.0,0.003612757194787264,1.276676893234253,0.0,0.02231748029589653
156.0,167.0,-5.6901,0.0796,8.0632,-0.0457,0.0157,-0.1109,-2.5854703388609828,3.941217175370047e-37,5.7712554931640625,-0.7385745048522949,-0.0,2.13852858543396,5.345938730030813,0.0,0.20803534984588623,-1.728323761616842,0.0,0.006915252655744553,0.47314438223838806,0.0,0.012287541292607784,1.2766649723052979,0.0,0.00881676934659481
156.0,167.0,-5.6901,0.0796,8.0632,-0.0457,0.0157,-0.1109,-2.5854345760741175,9.514816572765508e-43,5.703023910522461,-0.7385258674621582,-0.0,2.124744415283203,5.345950650959768,0.0,0.19681373238563538,-1.7283156553851526,0.0,0.022339973598718643,0.4731198251247406,0.0,-0.00014151091454550624,1.2766571044921875,0.0,-0.00557720335200429
156.0,167.0,-5.6901,0.0796,8.0632,-0.0457,0.0157,-0.1109,-2.585454126397604,0.0,5.752101898193359,-0.7386267185211182,-0.0,2.070699691772461,5.345970856934347,0.0,0.200872004032135,-1.7283476034747522,0.0,-0.00139714777469635,0.4731239080429077,0.0,0.001906256191432476,1.2766809463500977,0.0,-0.005178519524633884
156.0,167.0,-5.6901,0.0796,8.0632,-0.0457,0.0157,-0.1109,-2.5854908428587855,0.0,5.762380599975586,-0.7385420203208923,-0.0,2.105989456176758,5.345946597843923,0.0,0.1898544728755951,-1.7283557097064417,0.0,0.002803906798362732,0.47317641973495483,0.0,0.008666089735925198,1.2767091989517212,0.0,-0.007004911080002785
156.0,167.0,-5.6901,0.0796,8.0632,-0.0457,0.0157,-0.1109,-2.5854340992369593,0.0,5.746173858642578,-0.7385662198066711,-0.0,2.119257688522339,5.345974552422323,0.0,0.18571233749389648,-1.7283595244037073,0.0,-0.0002647009096108377,0.4731845259666443,0.0,0.02146051824092865,1.2767128944396973,0.0,-0.04461216181516647
156.0,167.0,-5.6901,0.0796,8.0632,-0.0457,0.0157,-0.1109,-2.585442205468649,0.0,5.765737533569336,-0.7386189699172974,-0.0,2.125344753265381,5.345958637982168,0.0,0.189814031124115,-1.7283557097064417,0.0,0.005457785911858082,0.4731161296367645,0.0,-0.010135005228221416,1.2767292261123657,9.74662252701819e-05,-0.008691105991601944
153.0,171.0,-5.729,0.46,7.9591,-0.0226,0.0182,-0.1066,-2.5854464970030726,0.0,5.715080738067627,-0.7386061549186707,-0.0,2.082235097885132,5.345942604332723,0.0,0.18787318468093872,-1.7283876577960413,4.4646508712276045e-08,0.0032277030404657125,0.4731558561325073,0.0,0.00983637198805809,1.2767128944396973,0.0008428767323493958,-0.06556034833192825
153.0,171.0,-5.729,0.46,7.9591,-0.0226,0.0182,-0.1066,-2.58542599300527,0.0,5.764276504516602,-0.7385300397872925,-0.0,2.119591474533081,5.345902609616079,0.0,0.19557513296604156,-1.7283833662616175,1.2427519083257899e-11,0.0038981011603027582,0.4731764495372772,0.0,0.006605858914554119,1.2767651081085205,0.0028196326456964016,-0.011193925514817238
153.0,171.0,-5.729,0.46,7.9591,-0.0226,0.0182,-0.1066,-2.585461755792135,0.0,5.755444526672363,-0.738594114780426,-0.0,2.0579700469970703,5.345954584866323,0.0,0.18069657683372498,-1.7283790747271937,5.298046073035079e-14,0.00044194975635036826,0.4730956256389618,0.0,-0.0045361751690506935,1.2767367362976074,0.0042494828812778,0.037774261087179184
153.0,171.0,-5.729,0.46,7.9591,-0.0226,0.0182,-0.1066,-2.5854221783080042,0.0,5.705053806304932,-0.7385419607162476,-8.615233859643467e-09,2.0707879066467285,5.345938730030813,0.0,0.19017888605594635,-1.7283790747271937,1.47473068328404e-17,0.007632414344698191,0.47316816449165344,0.0,-0.01071142591536045,1.2767891883850098,0.0067137726582586765,0.0033603589981794357
153.0,171.0,-5.729,0.46,7.9591,-0.0226,0.0182,-0.1066,-2.5854622326292933,0.0,5.740579605102539,-0.7385941743850708,-1.550711707480612e-12,2.100023031234741,5.345950650959768,0.0,0.1936621218919754,-1.7283952871905726,6.287008217694308e-20,0.012719526886940002,0.47314807772636414,0.0,-0.00894387997686863,1.2768409252166748,0.00849197804927826,-0.014587236568331718
153.0,171.0,-5.729,0.46,7.9591,-0.0226,0.0182,-0.1066,-2.5854345760741175,0.0,5.787876605987549,-0.7385016679763794,-3.744786426551078e-18,2.1020267009735107,5.345982539444723,0.0,0.18761299550533295,-1.728363339100973,1.7500115564971893e-23,0.012789236381649971,0.47316408157348633,0.0,0.003418046049773693,1.2768969535827637,0.011128234677016735,-0.01316530629992485
153.0,171.0,-5.729,0.46,7.9591,-0.0226,0.0182,-0.1066,-2.5854345760741175,0.0,5.716263771057129,-0.7385703325271606,-6.74048347270267e-22,2.091003179550171,5.345946597843923,0.0,0.20224671065807343,-1.7283876577960413,7.460573125037197e-26,0.0053122141398489475,0.4731484651565552,0.0,-0.002025637775659561,1.2769614458084106,0.011431093327701092,0.010989593341946602
153.0,171.0,-5.729,0.46,7.9591,-0.0226,0.0182,-0.1066,-2.5854584179320277,9.095423592953011e-05,5.773778438568115,-0.7385419011116028,-1.6277472629684987e-27,2.0986688137054443,5.345994639187612,0.0,0.17875438928604126,-1.7283876577960413,2.076678349202224e-29,0.0020178358536213636,0.47319644689559937,0.0,0.015430191531777382,1.2770254611968994,0.01137557253241539,-0.011792067438364029
153.0,171.0,-5.729,0.46,7.9591,-0.0226,0.0182,-0.1066,-2.585503240624899,8.743515354581177e-05,5.76204776763916,-0.7385744452476501,-2.9298876959782092e-31,2.1103837490081787,5.345950650959768,0.0,0.19160424172878265,-1.7283671537982386,8.853205728112112e-32,0.00539791164919734,0.4731844663619995,0.0,0.008812159299850464,1.2770733833312988,0.010766638442873955,-0.040714092552661896
153.0,171.0,-5.729,0.46,7.9591,-0.0226,0.0182,-0.1066,-2.585410257379049,8.261935727205127e-05,5.751828670501709,-0.7385827302932739,-7.075333518917401e-37,2.0969624519348145,5.345970797329702,0.0,0.19068047404289246,-1.7283714453326624,2.464322313481301e-35,0.013618054799735546,0.4732045531272888,0.0,0.00371081056073308,1.2771251201629639,0.010048274882137775,-0.01105379406362772
153.0,171.0,-5.729,0.46,7.9591,-0.0226,0.0182,-0.1066,-2.585437913934225,7.969309081090614e-05,5.782700538635254,-0.7386023998260498,-1.2735280703476803e-40,2.0956978797912598,5.345970558911123,0.0,0.19504329562187195,-1.7283714453326624,1.050579354699936e-37,0.005201502703130245,0.473128080368042,0.0,-0.013476491905748844,1.2771570682525635,0.00932052731513977,-0.011691027320921421
153.0,171.0,-5.729,0.46,7.9591,-0.0226,0.0182,-0.1066,-2.5854298077025355,7.567275315523148e-05,5.7398271560668945,-0.7385378479957581,-0.0,2.0649352073669434,5.345942604332723,0.0,0.19083818793296814,-1.728351895009176,2.924369765199461e-41,0.0085467379540205,0.47314441204071045,0.0,0.0067883264273405075,1.2772455215454102,0.00784184131771326,0.034524403512477875
153.0,171.0,-5.729,0.46,7.9591,-0.0226,0.0182,-0.1066,-2.5855022869505824,6.357179518090561e-05,5.7331132888793945,-0.7386428117752075,-0.0,2.095601797103882,5.346022295742788,0.0,0.18585456907749176,-1.7283638159381312,1.2471556332490872e-43,0.0038890033029019833,0.47314393520355225,0.0,0.0010397715959697962,1.2772856950759888,0.006724346429109573,0.05116713047027588
153.0,171.0,-5.729,0.46,7.9591,-0.0226,0.0182,-0.1066,-2.5854460201659144,5.584296377492137e-05,5.753142356872559,-0.7385501265525818,-0.0,2.141036033630371,5.345986771374502,0.0,0.1933119297027588,-1.7283433119403284,0.0,-0.006276458036154509,0.47315216064453125,0.0,0.006510676350444555,1.2772611379623413,0.004180841147899628,-0.02355283498764038
153.0,171.0,-5.729,0.46,7.9591,-0.0226,0.0182,-0.1066,-2.5854703388609828,5.416269777924754e-05,5.786266326904297,-0.7385423183441162,-0.0,2.0960631370544434,5.345978724747457,0.0,0.18982644379138947,-1.7283671537982386,0.0,0.017353719100356102,0.47317638993263245,0.0,0.0008127411128953099,1.2772610187530518,0.0021562655456364155,-0.010280867107212543
153.0,171.0,-5.729,0.46,7.9591,-0.0226,0.0182,-0.1066,-2.585454126397604,5.1823579269694164e-05,5.73942232131958,-0.7385662794113159,-0.0,2.1617798805236816,5.345970558911123,0.0,0.1937038004398346,-1.7283476034747522,0.0,-0.005728633143007755,0.47314023971557617,0.0,0.0004058391787111759,1.2772290706634521,0.00029487552819773555,0.03555447608232498
153.0,171.0,-5.729,0.46,7.9591,-0.0226,0.0182,-0.1066,-2.5854865513243617,3.8157439121278e-05,5.772182941436768,-0.7385704517364502,-0.0,2.0800065994262695,5.345950650959768,0.0,0.18798089027404785,-1.7283638159381312,0.0,-0.012455650605261326,0.473128080368042,0.0,0.008332094177603722,1.277245044708252,2.3291333945962833e-06,0.06103318929672241
153.0,171.0,-5.729,0.46,7.9591,-0.0226,0.0182,-0.1066,-2.58544983486318,3.3474927477072924e-05,5.721164703369141,-0.7385786175727844,-0.0,2.0848937034606934,5.345990645676412,0.0,0.19079823791980743,-1.7283433119403284,0.0,-0.006721780635416508,0.47319677472114563,0.0,0.0030015604570508003,1.2772090435028076,5.6245823970568765e-12,-0.015767186880111694
153.0,171.0,-5.729,0.46,7.9591,-0.0226,0.0182,-0.1066,-2.5854183636107386,6.21654762653634e-05,5.729434967041016,-0.7385296821594238,-0.0,2.08353853225708,5.345986711769857,0.0,0.19456298649311066,-1.7283595244037073,0.0,-0.00039435504004359245,0.4731161594390869,0.0,0.000200328286155127,1.2771930694580078,-0.0018307631835341454,-0.039537280797958374
158.0,173.0,-5.9216,0.4199,8.3192,-0.0194,0.0463,-0.1283,-2.585386415521139,0.00011175730469403788,5.767645835876465,-0.7385299801826477,2.5413088224013336e-05,2.0903148651123047,5.346002328186788,8.044472310508866e-10,0.19947561621665955,-1.7283113638507288,0.0,0.016773495823144913,0.47314026951789856,0.0,0.010446209460496902,1.2771611213684082,-0.0029159896075725555,0.027085592970252037
158.0,173.0,-5.9216,0.4199,8.3192,-0.0194,0.0463,-0.1283,-2.5854464970030726,0.0006299474043771625,5.745569229125977,-0.7385661602020264,4.809469828614965e-05,2.092099666595459,5.346050369530477,3.429484344077971e-12,0.20330335199832916,-1.7283433119403284,5.717886324418942e-07,0.012022731825709343,0.47313612699508667,0.0,0.005189846269786358,1.2771046161651611,-0.0029339902102947235,-0.03708770126104355
158.0,173.0,-5.9216,0.4199,8.3192,-0.0194,0.0463,-0.1283,-2.5853740177550257,0.002392037771642208,5.818849563598633,-0.7386065721511841,6.670060975011438e-05,2.0744903087615967,5.3460102556045435,9.546095196873855e-16,0.19354459643363953,-1.7283476034747522,-1.6593756299698725e-05,0.013223603367805481,0.4731845557689667,0.0,-0.013921731151640415,1.2771292924880981,-0.0027684196829795837,-0.03566340357065201
158.0,173.0,-5.9216,0.4199,8.3192,-0.0194,0.0463,-0.1283,-2.58537020305776,0.0032468221615999937,5.7472381591796875,-0.7385382652282715,7.760962034808472e-05,2.098681926727295,5.345982718258657,0.00040296377846971154,0.19956351816654205,-1.7283394972430628,-5.403281875260291e-07,0.005541735794395208,0.47313207387924194,0.0,-0.00717922393232584,1.2771131992340088,-0.0038533760234713554,0.00010801292955875397
158.0,173.0,-5.9216,0.4199,8.3192,-0.0194,0.0463,-0.1283,-2.5853382549681605,0.00658562732860446,5.75887393951416,-0.7385703921318054,7.926761463750154e-05,2.132997751235962,5.346002328186788,0.00035682483576238155,0.18377618491649628,-1.728391472493307,-1.5040231560181638e-10,0.005729086697101593,0.4731844663619995,0.0,0.0006188573315739632,1.2770609855651855,-0.0064413961954414845,-0.035185299813747406
158.0,173.0,-5.9216,0.4199,8.3192,-0.0194,0.0463,-0.1283,-2.585330148736471,0.008892025798559189,5.7390055656433105,-0.738594114780426,7.592410838697106e-05,2.082279682159424,5.346010195999899,0.00036896581877954304,0.20996277034282684,-1.7283638159381312,-6.411886538208733e-13,-0.0034986247774213552,0.47313207387924194,0.0,0.006488838233053684,1.2770490646362305,-0.008231578394770622,-0.02981596812605858
158.0,173.0,-5.9216,0.4199,8.3192,-0.0194,0.0463,-0.1283,-2.5852819881834925,0.00853704009205103,5.748946666717529,-0.7385584115982056,7.140628440538421e-05,2.094377279281616,5.345982718258657,0.00030657945899292827,0.18829987943172455,-1.7283394972430628,-1.7847718735032055e-16,0.016355318948626518,0.47316038608551025,0.0,-0.0020812267903238535,1.2769930362701416,-0.008882911875844002,-0.0006647962145507336
158.0,173.0,-5.9216,0.4199,8.3192,-0.0194,0.0463,-0.1283,-2.5852462253966273,0.006601755041629076,5.710448741912842,-0.7385543584823608,5.738285108236596e-05,2.0994744300842285,5.345986711769857,0.00027530654915608466,0.19537675380706787,-1.7283113638507288,-7.6087624449382635e-19,0.0066415355540812016,0.47316449880599976,0.0,-0.010280292481184006,1.2769209146499634,-0.00864922534674406,-0.04366360977292061
158.0,173.0,-5.9216,0.4199,8.3192,-0.0194,0.0463,-0.1283,-2.585271020928854,0.004391034133732319,5.776173114776611,-0.7385140061378479,4.872272984357551e-05,2.0842909812927246,5.345974731236257,0.00020037037029396743,0.20500211417675018,-1.7283638159381312,-2.1179269425791514e-22,0.016804687678813934,0.47310787439346313,0.0,0.006125327665358782,1.2768850326538086,-0.008167166262865067,-0.010252773761749268
158.0,173.0,-5.9216,0.4199,8.3192,-0.0194,0.0463,-0.1283,-2.5851503811278285,0.00405389117076993,5.733103275299072,-0.738534152507782,6.267566641326994e-05,2.0911128520965576,5.345978724747457,0.00018281540542375296,0.19573816657066345,-1.7283194700824183,-9.029053429974557e-25,0.007867403328418732,0.4731280505657196,0.0,0.00724331010133028,1.2768290042877197,-0.007661772891879082,-0.0004717819392681122
158.0,173.0,-5.9216,0.4199,8.3192,-0.0194,0.0463,-0.1283,-2.5851947269835414,0.004988089203834534,5.778190612792969,-0.738534152507782,5.958729889243841e-05,2.050551414489746,5.345982777863302,0.00016294718079734594,0.20136189460754395,-1.7283318678485315,-2.513270206912317e-28,0.0069266087375581264,0.47313207387924194,0.0,-0.004449107684195042,1.276764988899231,-0.008633059449493885,0.0008229822851717472
158.0,173.0,-5.9216,0.4199,8.3192,-0.0194,0.0463,-0.1283,-2.5851623020567835,0.007190342992544174,5.795488357543945,-0.7385785579681396,0.0001787896762834862,2.1041312217712402,5.345934676914968,0.00015194187290035188,0.18256257474422455,-1.728351895009176,-1.0714465498140555e-30,0.006954818964004517,0.47316813468933105,0.0,0.010413635522127151,1.2767531871795654,-0.009373441338539124,-0.008641635999083519
158.0,173.0,-5.9216,0.4199,8.3192,-0.0194,0.0463,-0.1283,-2.585074564019674,0.010519339703023434,5.792934417724609,-0.7385665774345398,0.00019323977176100016,2.0682926177978516,5.345970558911123,0.00013796534040011466,0.18936793506145477,-1.7283757368670862,-2.9824112319072766e-34,0.005022859666496515,0.47314438223838806,0.0,0.007408672012388706,1.2766927480697632,-0.00848589651286602,0.020782602950930595
158.0,173.0,-5.9216,0.4199,8.3192,-0.0194,0.0463,-0.1283,-2.585034509698385,0.012963186018168926,5.806901454925537,-0.7385386824607849,0.00020808084809686989,2.06862211227417,5.345982777863302,0.00012999358295928687,0.1958102583885193,-1.728375260029928,-1.2714487227928257e-36,0.0004152564506512135,0.4731161594390869,0.0,-0.0018516161944717169,1.276668667793274,-0.0068510002456605434,-0.021173911169171333
158.0,173.0,-5.9216,0.4199,8.3192,-0.0194,0.0463,-0.1283,-2.584982534448141,0.01470964215695858,5.802567005157471,-0.7384774088859558,0.00019148390856571496,2.1350340843200684,5.345994758396902,0.00011962558346567675,0.19447818398475647,-1.7283156553851526,-3.539119401498758e-40,0.009622881188988686,0.47320085763931274,0.0,0.005076033994555473,1.2766609191894531,-0.004632605705410242,-0.005626415368169546
158.0,173.0,-5.9216,0.4199,8.3192,-0.0194,0.0463,-0.1283,-2.584886213342184,0.014952249825000763,5.792925834655762,-0.7385181188583374,0.0001818131422623992,2.0849215984344482,5.345930683403768,9.674781904323027e-05,0.2013644278049469,-1.7283714453326624,-1.509198446077828e-42,0.011357851326465607,0.4731038510799408,0.0,-0.0029594600200653076,1.2766330242156982,-0.003286316292360425,0.016469681635499
158.0,173.0,-5.9216,0.4199,8.3192,-0.0194,0.0463,-0.1283,-2.5847865543761195,0.015187717042863369,5.808785438537598,-0.7386146187782288,0.00016900966875255108,2.119103193283081,5.345942723542013,8.447379514109343e-05,0.18939298391342163,-1.7283156553851526,-0.0,6.950949318706989e-05,0.47312384843826294,0.0,-0.012844761833548546,1.2766010761260986,-0.0018436724785715342,-0.03354381024837494
158.0,173.0,-5.9216,0.4199,8.3192,-0.0194,0.0463,-0.1283,-2.584705492059225,0.014583167620003223,5.769372463226318,-0.738493800163269,0.00016143108950927854,2.117015838623047,5.345970618515768,8.068548049777746e-05,0.19470252096652985,-1.728351895009176,-0.0,0.003804253414273262,0.47315216064453125,0.0,0.0011859796941280365,1.2766207456588745,-0.0012411007191985846,0.016148991882801056
158.0,173.0,-5.9216,0.4199,8.3192,-0.0194,0.0463,-0.1283,-2.584686895410055,0.013560604304075241,5.771549224853516,-0.7385144233703613,0.00015125711797736585,2.0872373580932617,5.345954644470968,7.560203812317923e-05,0.20197999477386475,-1.728391472493307,-0.0,0.017132535576820374,0.47316038608551025,0.0,0.006730377208441496,1.2766612768173218,-0.0006631553987972438,0.04973028600215912
153.0,163.0,-5.8487,0.3236,8.2235,-0.0487,0.0353,-0.1089,-2.584602495233053,0.013187169097363949,5.7920942306518555,-0.738562822341919,0.00020454775949474424,2.144615650177002,5.345954644470968,5.449651143862866e-05,0.19532421231269836,-1.7283638159381312,-0.0,-0.003986283205449581,0.47313207387924194,0.0,0.004227889701724052,1.2766371965408325,-0.00042224492062814534,0.04486827552318573
153.0,163.0,-5.8487,0.3236,8.2235,-0.0487,0.0353,-0.1089,-2.5845304928221644,0.015084812417626381,5.818868637084961,-0.7385144233703613,0.00025337180704809725,2.1141109466552734,5.345922815590658,5.131333819008432e-05,0.19695287942886353,-1.7283638159381312,-0.0,0.007071583531796932,0.47312384843826294,0.0,-0.00039431810728274286,1.2766289710998535,0.00028149658464826643,0.13557787239551544
153.0,163.0,-5.8487,0.3236,8.2235,-0.0487,0.0353,-0.1089,-2.584466596642965,0.015906719490885735,5.814850807189941,-0.7385222315788269,0.0007186797447502613,2.1292476654052734,5.345938789635458,5.711464837077074e-06,0.16773805022239685,-1.7283433119403284,-0.0,0.00877943355590105,0.47316038608551025,0.0,0.005518585909157991,1.2766448259353638,0.0004428968532010913,0.1536022573709488
153.0,163.0,-5.8487,0.3236,8.2235,-0.0487,0.0353,-0.1089,-2.5843097172179164,0.01796906068921089,5.844483375549316,-0.7384859919548035,0.0010974203469231725,2.172820568084717,5.345910596638479,-5.0802456826204434e-05,0.19242016971111298,-1.7283714453326624,-0.0,0.012338085100054741,0.47316446900367737,0.0,-0.0032184869050979614,1.2766411304473877,0.0019140630029141903,0.19052782654762268
153.0,163.0,-5.8487,0.3236,8.2235,-0.0487,0.0353,-0.1089,-2.5842744312682093,0.01866721920669079,5.847579002380371,-0.7384699583053589,0.0012359360698610544,2.1580023765563965,5.345954704075613,-5.338025584933348e-05,0.17583298683166504,-1.7283433119403284,-0.0,-0.005632186308503151,0.47313615679740906,0.0,0.011567110195755959,1.2766448259353638,0.0020777054596692324,0.14464420080184937
153.0,163.0,-5.8487,0.3236,8.2235,-0.0487,0.0353,-0.1089,-2.5841905079283656,0.018413839861750603,5.847332954406738,-0.7384859323501587,0.001289504929445684,2.133572816848755,5.345918643265524,-8.344322122866288e-05,0.18262583017349243,-1.7283113638507288,-0.0,-0.008491173386573792,0.4731922447681427,0.0,0.0033213836140930653,1.2766969203948975,0.002251456491649151,0.1329239308834076
153.0,163.0,-5.8487,0.3236,8.2235,-0.0487,0.0353,-0.1089,-2.584057947198385,0.017885301262140274,5.82276725769043,-0.7384420037269592,0.0011918283998966217,2.1465299129486084,5.345942723542013,-0.0005017624353058636,0.1660401076078415,-1.7283557097064417,-0.0,-0.010886948555707932,0.47315990924835205,0.0,0.011180366389453411,1.2767413854599,0.002623814158141613,0.21277305483818054
153.0,163.0,-5.8487,0.3236,8.2235,-0.0487,0.0353,-0.1089,-2.584010263482565,0.01652507297694683,5.854944229125977,-0.7384703755378723,0.0009773068595677614,2.159578323364258,5.345938789635458,-0.0005297426250763237,0.17534762620925903,-1.7283433119403284,-0.0,-0.01582248881459236,0.4731558859348297,0.0,0.0008916721562854946,1.2767413854599,0.003794816555455327,0.24957945942878723
153.0,163.0,-5.8487,0.3236,8.2235,-0.0487,0.0353,-0.1089,-2.5839339695372523,0.014747494831681252,5.861497402191162,-0.7384703755378723,0.0007472200668416917,2.2185072898864746,5.345843004971304,-0.0006799687398597598,0.17056484520435333,-1.7283557097064417,-0.0,-0.017944930121302605,0.47315990924835205,0.0,0.008492222055792809,1.2767126560211182,0.004617121070623398,0.26798635721206665
153.0,163.0,-5.8487,0.3236,8.2235,-0.0487,0.0353,-0.1089,-2.583874841729635,0.012661660090088844,5.82855224609375,-0.7384213209152222,0.0007970209117047489,2.1828534603118896,5.345855045109548,-0.0005724934162572026,0.16289326548576355,-1.7283433119403284,-0.0,-0.019228026270866394,0.47315216064453125,0.0,0.018550770357251167,1.2768172025680542,0.0053820013999938965,0.27942097187042236
153.0,163.0,-5.8487,0.3236,8.2235,-0.0487,0.0353,-0.1089,-2.583778520623678,0.011849247850477695,5.804865837097168,-0.7384703755378723,0.0012406548485159874,2.1606979370117188,5.345867144852438,-0.0005503646680153906,0.17242911458015442,-1.7283595244037073,-0.0,-0.025254420936107635,0.4731721580028534,0.0,0.008255518041551113,1.2767810821533203,0.006091703660786152,0.2821156680583954
153.0,163.0,-5.8487,0.3236,8.2235,-0.0487,0.0353,-0.1089,-2.583726545373434,0.012144564650952816,5.809335708618164,-0.7383978962898254,0.0027304757386446,2.1721487045288086,5.345879125386038,-0.0004944732063449919,0.16742999851703644,-1.728363339100973,-0.0,-0.035291582345962524,0.47315219044685364,0.0,0.01838100329041481,1.2768568992614746,0.00617957953363657,0.2683628797531128
