ramyac6/ROB537/final_project/csv/good/good_86.csv
tof_0,tof_1,accelx,accely,accelz,gyrox,gyroy,gyroz,shoulder_lift_joint_position,shoulder_lift_joint_velocity,shoulder_lift_joint_effort,elbow_joint_position,elbow_joint_velocity,elbow_joint_effort,wrist_1_joint_position,wrist_1_joint_velocity,wrist_1_joint_effort,wrist_2_joint_position,wrist_2_joint_velocity,wrist_2_joint_effort,wrist_3_joint_position,wrist_3_joint_velocity,wrist_3_joint_effort,shoulder_pan_joint_position,shoulder_pan_joint_velocity,shoulder_pan_joint_effort
176.0,144.0,-0.4038,0.5581,9.7843,-0.0363,0.0273,-0.1158,-2.0907589397826136,0.0,4.17696475982666,-1.3833935260772705,-0.0,2.0833587646484375,4.966133582382955,0.0,0.2525562345981598,-1.5967300573932093,0.0,-0.006438013166189194,0.22382868826389313,-0.0,0.013803046196699142,0.7637748718261719,0.0,0.0087704723700881
176.0,144.0,-0.4038,0.5581,9.7843,-0.0363,0.0273,-0.1158,-2.0907865963377894,0.0,4.269193649291992,-1.3833566904067993,-0.0,2.029714584350586,4.966153907566824,0.0,0.2730247974395752,-1.59674579301943,0.0,-0.003090018406510353,0.22377213835716248,-0.0,-0.011669769883155823,0.7637990117073059,0.0,0.020535560324788094
176.0,144.0,-0.4038,0.5581,9.7843,-0.0363,0.0273,-0.1158,-2.09072270015859,0.0,4.220679759979248,-1.3833329677581787,-0.0,2.058635711669922,4.966145711928167,0.0,0.2655021548271179,-1.596689526234762,0.0,-0.011735438369214535,0.22380444407463074,-0.0,-0.00981946662068367,0.763778805732727,0.0,0.003675180021673441
176.0,144.0,-0.4038,0.5581,9.7843,-0.0363,0.0273,-0.1158,-2.090762277642721,0.0,4.194018840789795,-1.3833411931991577,-0.0,2.063845157623291,4.9661579606826685,0.0,0.2574952244758606,-1.5967581907855433,0.0,0.004524102434515953,0.2238524705171585,-0.0,-0.008827866986393929,0.7637911438941956,0.0,0.0073244450613856316
176.0,144.0,-0.4038,0.5581,9.7843,-0.0363,0.0273,-0.1158,-2.0907865963377894,0.0,4.196959972381592,-1.3833813667297363,-0.0,2.0483779907226562,4.966129410057821,0.0,0.26090916991233826,-1.5967138449298304,0.0,-0.012898956425487995,0.22384057939052582,-0.0,0.004907592665404081,0.7637948393821716,0.0,0.03480663150548935
176.0,144.0,-0.4038,0.5581,9.7843,-0.0363,0.0273,-0.1158,-2.0907708607115687,0.0,4.236942291259766,-1.3833528757095337,-0.0,2.0709264278411865,4.9661457417304895,0.0,0.2591172158718109,-1.5966818968402308,0.0,-0.015148181468248367,0.22374790906906128,-0.0,-0.012550801038742065,0.76381516456604,0.0,0.006471091881394386
176.0,144.0,-0.4038,0.5581,9.7843,-0.0363,0.0273,-0.1158,-2.090766569177145,0.0,4.174139976501465,-1.3833649158477783,-0.0,2.0695576667785645,4.966181891947546,0.0,0.273983895778656,-1.5967219511615198,0.0,-0.003644798416644335,0.2238283008337021,-0.0,-0.007932040840387344,0.7638030648231506,0.0,0.001951446756720543
176.0,144.0,-0.4038,0.5581,9.7843,-0.0363,0.0273,-0.1158,-2.09075464824819,0.0,4.2115325927734375,-1.3833611011505127,-0.0,2.013998508453369,4.966177749424734,0.0,0.24965721368789673,-1.5967381636248987,0.0,-0.012097630649805069,0.22380852699279785,-0.0,-0.007571155671030283,0.7638233304023743,0.0,0.012396393343806267
176.0,144.0,-0.4038,0.5581,9.7843,-0.0363,0.0273,-0.1158,-2.0907465420165003,0.0,4.245849609375,-1.3833528757095337,-0.0,2.0837578773498535,4.966165947705068,0.0,0.2679051160812378,-1.5967257658587855,0.0,-0.0071051158010959625,0.2238447070121765,-0.0,-0.005501193925738335,0.7637911438941956,0.0,0.04098884388804436
178.0,145.0,-0.323,0.5833,9.5946,-0.0411,0.0235,-0.1155,-2.090778966943258,0.0,4.222984313964844,-1.3833609819412231,-0.0,2.080106735229492,4.9661096809204,0.0,0.2462865710258484,-1.5967538992511194,0.0,-0.007469526492059231,0.22381678223609924,-0.0,-0.005081587471067905,0.7637385725975037,0.0,-0.013316821306943893
178.0,145.0,-0.323,0.5833,9.5946,-0.0411,0.0235,-0.1155,-2.0908194981017054,0.0,4.245020389556885,-1.3833608627319336,-0.0,2.0949277877807617,4.966133582382955,0.0,0.27450716495513916,-1.5967500845538538,0.0,-0.010678136721253395,0.2238885760307312,-0.0,-0.003072132123634219,0.7637952566146851,0.0,0.005742973648011684
178.0,145.0,-0.323,0.5833,9.5946,-0.0411,0.0235,-0.1155,-2.0907303295531214,0.0,4.229496955871582,-1.3833649158477783,-0.0,2.0515098571777344,4.966117906361379,0.0,0.26343491673469543,-1.5966737906085413,0.0,-0.01581243984401226,0.22383235394954681,-0.0,-0.004700757563114166,0.7638192176818848,0.0,0.04398380592465401
178.0,145.0,-0.323,0.5833,9.5946,-0.0411,0.0235,-0.1155,-2.0908109150328578,0.0,4.214945316314697,-1.3834091424942017,-0.0,2.1094858646392822,4.966133582382955,0.0,0.27053433656692505,-1.5967500845538538,0.0,-0.011537842452526093,0.22380849719047546,-0.0,-0.00469150859862566,0.7638192176818848,0.0,-0.028448576107621193
178.0,145.0,-0.323,0.5833,9.5946,-0.0411,0.0235,-0.1155,-2.0907346210875453,0.0,4.2311015129089355,-1.3833895921707153,-0.0,2.040166139602661,4.966161745577612,0.0,0.2646278440952301,-1.596677605305807,0.0,-0.001122497720643878,0.22382456064224243,-0.0,0.0019424785859882832,0.763859748840332,0.0,-0.034151241183280945
178.0,145.0,-0.323,0.5833,9.5946,-0.0411,0.0235,-0.1155,-2.0907708607115687,0.0,4.2389726638793945,-1.3833731412887573,-0.0,2.0963592529296875,4.966129410057821,0.0,0.2724740505218506,-1.5966737906085413,0.0,-0.003139786422252655,0.22382044792175293,-0.0,-0.00248522125184536,0.7638112902641296,0.0,0.016166094690561295
178.0,145.0,-0.323,0.5833,9.5946,-0.0411,0.0235,-0.1155,-2.0907708607115687,0.0,4.204747676849365,-1.3833528757095337,-0.0,2.1191773414611816,4.966089594155111,0.0,0.27173516154289246,-1.5967863241778772,0.0,-0.011729786172509193,0.22386479377746582,-0.0,0.007818114943802357,0.7638030648231506,0.0,-0.03422273322939873
178.0,145.0,-0.323,0.5833,9.5946,-0.0411,0.0235,-0.1155,-2.090710302392477,0.0,4.222675323486328,-1.3833731412887573,-0.0,2.083761215209961,4.966137575894155,0.0,0.27886563539505005,-1.59674579301943,0.0,-0.007158035412430763,0.22382453083992004,-0.0,0.014677577652037144,0.7637665867805481,0.0,-0.027880098670721054
178.0,145.0,-0.323,0.5833,9.5946,-0.0411,0.0235,-0.1155,-2.0907422504820765,0.0,4.217463970184326,-1.3833491802215576,-0.0,2.0949552059173584,4.966161745577612,0.0,0.27040421962738037,-1.5967376867877405,0.0,-0.004522860981523991,0.22376805543899536,-0.0,0.0005903518758714199,0.7637588977813721,0.0,0.0007340535521507263
178.0,145.0,-0.323,0.5833,9.5946,-0.0411,0.0235,-0.1155,-2.0907026729979457,0.0,4.24945592880249,-1.383357048034668,-0.0,2.0781545639038086,4.966129410057821,0.0,0.25171661376953125,-1.596677605305807,0.0,-0.015926457941532135,0.22385655343532562,-0.0,0.01969742402434349,0.7638434767723083,0.0,0.006342426873743534
178.0,145.0,-0.323,0.5833,9.5946,-0.0411,0.0235,-0.1155,-2.090766569177145,0.0,4.2116804122924805,-1.3833611011505127,-0.0,2.055403470993042,4.966101515084066,0.0,0.2682858109474182,-1.596705738698141,0.0,-0.015825366601347923,0.22373166680335999,-0.0,-0.005371373146772385,0.7638030648231506,0.0,-0.016635742038488388
178.0,145.0,-0.323,0.5833,9.5946,-0.0411,0.0235,-0.1155,-2.090835233727926,0.0,4.229372978210449,-1.3833731412887573,-0.0,2.094158172607422,4.966158020287313,0.0,0.2586287260055542,-1.5967095533954065,0.0,-0.02327931858599186,0.22381678223609924,-0.0,0.009326035156846046,0.7638151049613953,0.0,0.046919770538806915
178.0,145.0,-0.323,0.5833,9.5946,-0.0411,0.0235,-0.1155,-2.090782781640524,0.0,4.2068963050842285,-1.3833609819412231,-0.0,2.113945484161377,4.966125356941976,0.0,0.27133870124816895,-1.5967863241778772,0.0,-0.02038903906941414,0.22382453083992004,-0.0,-0.0019255017396062613,0.7637467384338379,0.0,-0.02906690537929535
178.0,145.0,-0.323,0.5833,9.5946,-0.0411,0.0235,-0.1155,-2.090762277642721,0.0,4.250195026397705,-1.3833895921707153,-0.0,2.0278825759887695,4.966121899872579,0.0,0.253645122051239,-1.5967214743243616,0.0,-0.025011612102389336,0.223816379904747,-0.0,-0.006054025609046221,0.763787031173706,0.0,-0.014365969225764275
178.0,145.0,-0.323,0.5833,9.5946,-0.0411,0.0235,-0.1155,-2.0907985172667445,0.0,4.201691627502441,-1.3833247423171997,-0.0,2.0777671337127686,4.966149914055624,0.0,0.2684841454029083,-1.5967381636248987,0.0,-0.0010696810204535723,0.22380852699279785,-0.0,0.013616999611258507,0.7638274431228638,0.0,0.06038225442171097
178.0,145.0,-0.323,0.5833,9.5946,-0.0411,0.0235,-0.1155,-2.0907865963377894,0.0,4.245236396789551,-1.3833297491073608,-0.0,2.0750856399536133,4.966177779227056,0.0,0.27681583166122437,-1.5967376867877405,0.0,-0.0032798382453620434,0.22384054958820343,-0.0,-0.011493075639009476,0.7638232707977295,0.0,-0.0015364433638751507
178.0,145.0,-0.323,0.5833,9.5946,-0.0411,0.0235,-0.1155,-2.090823312798971,0.0,4.2035393714904785,-1.38340163230896,-0.0,2.0839731693267822,4.966165888100424,0.0,0.2697489857673645,-1.5966976324664515,0.0,-0.008214480243623257,0.2238483726978302,-0.0,0.0013844306813552976,0.7637707591056824,0.0,0.022637780755758286
170.0,142.0,-0.2213,0.6497,9.4205,-0.0397,0.0231,-0.1141,-2.090807100335592,0.0,4.176692008972168,-1.383396863937378,-0.0,2.0227274894714355,4.966185885458746,0.0,0.2584577202796936,-1.596701447163717,0.0,-0.014371968805789948,0.22377216815948486,-0.0,-0.002496346365660429,0.763851523399353,0.0,0.03171220421791077
170.0,142.0,-0.2213,0.6497,9.4205,-0.0397,0.0231,-0.1141,-2.090750356713766,0.0,4.176982879638672,-1.3833529949188232,-0.0,2.047686815261841,4.966157662659445,0.0,0.2661018967628479,-1.5967333952533167,0.0,-0.0076519506983459,0.2238483726978302,-0.0,0.005560920573771,0.7638030648231506,0.0,0.0010985089465975761
170.0,142.0,-0.2213,0.6497,9.4205,-0.0397,0.0231,-0.1141,-2.090794702569479,0.0,4.2101287841796875,-1.3833812475204468,-0.0,2.0874030590057373,4.966173934727468,0.0,0.26584020256996155,-1.5966933409320276,0.0,-0.01140069030225277,0.22381678223609924,-0.0,-0.01509312354028225,0.7638311386108398,0.0,-0.025947755202651024
170.0,142.0,-0.2213,0.6497,9.4205,-0.0397,0.0231,-0.1141,-2.0907784901061,0.0,4.180546283721924,-1.3833528757095337,-0.0,2.0973639488220215,4.966105896025457,0.0,0.2729818820953369,-1.5967214743243616,0.0,-0.018128180876374245,0.22377996146678925,-0.0,0.00618304219096899,0.7637948393821716,0.0,-0.03197754546999931
170.0,142.0,-0.2213,0.6497,9.4205,-0.0397,0.0231,-0.1141,-2.090782781640524,0.0,4.189128398895264,-1.3833491802215576,-0.0,2.0720415115356445,4.966133582382955,0.0,0.26488974690437317,-1.5967538992511194,0.0,-0.012952946126461029,0.2238122671842575,-0.0,7.898081094026566e-05,0.7637707591056824,0.0,-0.03972533345222473
170.0,142.0,-0.2213,0.6497,9.4205,-0.0397,0.0231,-0.1141,-2.09075464824819,0.0,4.178350448608398,-1.383345127105713,-0.0,2.0943846702575684,4.966137665301122,0.0,0.2741883397102356,-1.596701447163717,0.0,-0.00953485444188118,0.223816379904747,-0.0,0.014929492957890034,0.7638034820556641,0.0,0.015951162204146385
170.0,142.0,-0.2213,0.6497,9.4205,-0.0397,0.0231,-0.1141,-2.0907465420165003,0.0,4.185308933258057,-1.3834173679351807,-0.0,2.130112648010254,4.966105598002233,0.0,0.2584809362888336,-1.5967944304095667,0.0,-0.007058075629174709,0.22380445897579193,-0.0,0.012294798158109188,0.7637990117073059,0.0,0.07117908447980881
170.0,142.0,-0.2213,0.6497,9.4205,-0.0397,0.0231,-0.1141,-2.090766569177145,0.0,4.194051742553711,-1.383357048034668,-0.0,2.092532157897949,4.966093677073278,0.0,0.27058136463165283,-1.5967300573932093,0.0,0.004213242791593075,0.22385655343532562,-0.0,0.00796314887702465,0.7637548446655273,0.0,-0.04767037183046341
170.0,142.0,-0.2213,0.6497,9.4205,-0.0397,0.0231,-0.1141,-2.0907746754088343,0.0,4.234767436981201,-1.383317470550537,-0.0,2.0439162254333496,4.966117906361379,0.0,0.2626155614852905,-1.5967376867877405,0.0,-0.016200607642531395,0.22385244071483612,-0.0,-0.007865778170526028,0.7638030648231506,0.0,0.030352763831615448
170.0,142.0,-0.2213,0.6497,9.4205,-0.0397,0.0231,-0.1141,-2.090722223321432,0.0,4.1580810546875,-1.383333683013916,-0.0,2.1001858711242676,4.9661457417304895,0.0,0.276624858379364,-1.5967138449298304,0.0,-0.005726944655179977,0.22384051978588104,-0.0,0.0011598749551922083,0.7638233304023743,0.0,0.04120294377207756
170.0,142.0,-0.2213,0.6497,9.4205,-0.0397,0.0231,-0.1141,-2.090766569177145,0.0,4.2223663330078125,-1.3833491802215576,-0.0,2.0673506259918213,4.9661457417304895,0.0,0.2640136182308197,-1.596705738698141,0.0,0.005264261271804571,0.22378814220428467,-0.0,0.0007992396131157875,0.7638433575630188,0.0,-0.04132029414176941
170.0,142.0,-0.2213,0.6497,9.4205,-0.0397,0.0231,-0.1141,-2.090750356713766,0.0,4.196245193481445,-1.3834010362625122,-0.0,2.093918800354004,4.966141658812322,0.0,0.2756027281284332,-1.5967214743243616,0.0,-0.014948757365345955,0.2237803339958191,-0.0,-0.008899347856640816,0.7638154029846191,0.0,0.008938126266002655
170.0,142.0,-0.2213,0.6497,9.4205,-0.0397,0.0231,-0.1141,-2.0907985172667445,0.0,4.243414878845215,-1.383413314819336,-0.0,2.0536153316497803,4.966133582382955,0.0,0.26077765226364136,-1.596701447163717,0.0,-0.018730981275439262,0.22380852699279785,-0.0,0.004834296647459269,0.7638192176818848,0.0,-0.028661953285336494
170.0,142.0,-0.2213,0.6497,9.4205,-0.0397,0.0231,-0.1141,-2.0907784901061,0.0,4.180243015289307,-1.3833378553390503,-0.0,2.0602385997772217,4.966177749424734,0.0,0.26928672194480896,-1.5967376867877405,0.0,-0.00686312559992075,0.22377993166446686,-0.0,-0.00030906079337000847,0.763851523399353,0.0,0.004254740662872791
170.0,142.0,-0.2213,0.6497,9.4205,-0.0397,0.0231,-0.1141,-2.0907746754088343,0.0,4.199723243713379,-1.3833447694778442,-0.0,2.0820810794830322,4.966137575894155,0.0,0.2821287512779236,-1.5967214743243616,0.0,0.0013311465736478567,0.22386068105697632,-0.0,-0.004664044361561537,0.7638233304023743,0.0,0.035760197788476944
170.0,142.0,-0.2213,0.6497,9.4205,-0.0397,0.0231,-0.1141,-2.090750356713766,0.0,4.210458755493164,-1.3834171295166016,-0.0,2.101041078567505,4.966137575894155,0.0,0.28327643871307373,-1.5967333952533167,0.0,-0.009308770298957825,0.22378405928611755,-0.0,0.01574922725558281,0.7637748122215271,0.0,-0.0176683459430933
170.0,142.0,-0.2213,0.6497,9.4205,-0.0397,0.0231,-0.1141,-2.0907784901061,0.0,4.212521553039551,-1.3833296298980713,-0.0,2.0357017517089844,4.966153877764501,0.0,0.2675013244152069,-1.5967138449298304,0.0,-0.012762948870658875,0.2237684428691864,-0.0,-0.012295400723814964,0.7638071775436401,0.0,0.010853676125407219
169.0,145.0,-0.335,0.5749,9.6054,-0.0342,0.0264,-0.11,-2.0907584629454554,0.0,4.2095441818237305,-1.383405089378357,-0.0,2.070801258087158,4.966137605696478,0.0,0.2717335522174835,-1.5967095533954065,0.0,-0.012570613995194435,0.22380444407463074,-0.0,-0.0026770157273858786,0.7637994289398193,0.0,0.007010451517999172
169.0,145.0,-0.335,0.5749,9.6054,-0.0342,0.0264,-0.11,-2.090782781640524,0.0,4.213874340057373,-1.383341908454895,-0.0,2.056295394897461,4.9661579606826685,0.0,0.2701360881328583,-1.596733872090475,0.0,-0.004114562179893255,0.22379624843597412,-0.0,0.002696702256798744,0.7637911438941956,0.0,0.013900375925004482
169.0,145.0,-0.335,0.5749,9.6054,-0.0342,0.0264,-0.11,-2.090774198571676,0.0,4.250079154968262,-1.3833608627319336,-0.0,2.0494325160980225,4.966157662659445,0.0,0.2718035578727722,-1.596689526234762,0.0,-0.014675062149763107,0.22380037605762482,-0.0,-0.009407046250998974,0.7637911438941956,0.0,0.004734961315989494
169.0,145.0,-0.335,0.5749,9.6054,-0.0342,0.0264,-0.11,-2.0907422504820765,0.0,4.201970100402832,-1.3833370208740234,-0.0,2.0920681953430176,4.966141658812322,0.0,0.27580416202545166,-1.5967095533954065,0.0,-0.018182866275310516,0.22378811240196228,-0.0,-0.0010114782489836216,0.763831615447998,0.0,0.005298838019371033
169.0,145.0,-0.335,0.5749,9.6054,-0.0342,0.0264,-0.11,-2.0907784901061,0.0,4.196114540100098,-1.3833692073822021,-0.0,2.086409568786621,4.966109591513433,0.0,0.2712792754173279,-1.59674579301943,0.0,-0.020983580499887466,0.2238607257604599,-0.0,-0.012187035754323006,0.7637789249420166,0.0,-0.0126706063747406
169.0,145.0,-0.335,0.5749,9.6054,-0.0342,0.0264,-0.11,-2.0907708607115687,0.0,4.20499324798584,-1.3833813667297363,-0.0,2.064471960067749,4.966181891947546,0.0,0.27229905128479004,-1.5967095533954065,0.0,-0.015082534402608871,0.22380852699279785,-0.0,0.005497389938682318,0.7638154625892639,0.0,-0.02434958890080452
169.0,145.0,-0.335,0.5749,9.6054,-0.0342,0.0264,-0.11,-2.090794702569479,0.0,4.220651626586914,-1.3833491802215576,-0.0,2.075024366378784,4.9661819515521906,3.3718148273464976e-08,0.27902552485466003,-1.5967219511615198,0.0,-0.0002932013012468815,0.2238004356622696,-0.0,0.0010744925821200013,0.7638274431228638,0.0,0.017751894891262054
169.0,145.0,-0.335,0.5749,9.6054,-0.0342,0.0264,-0.11,-2.0907427273192347,0.0,4.177915573120117,-1.3833050727844238,-0.0,2.084306478500366,4.9661457417304895,9.385569578468367e-12,0.2760704755783081,-1.5966938177691858,0.0,-0.0049207876436412334,0.22385655343532562,-0.0,-0.007098304107785225,0.7637830972671509,0.0,0.02122320607304573
169.0,145.0,-0.335,0.5749,9.6054,-0.0342,0.0264,-0.11,-2.090766569177145,0.0,4.188668251037598,-1.3834091424942017,-0.0,2.071107864379883,4.96611379364089,2.612507742622938e-15,0.2603883743286133,-1.5967214743243616,0.0,-0.015061328187584877,0.22382010519504547,-0.0,-0.00886436365544796,0.7638274431228638,0.0,-0.03826971724629402
169.0,145.0,-0.335,0.5749,9.6054,-0.0342,0.0264,-0.11,-2.0907427273192347,0.0,4.20720100402832,-1.3833571672439575,-0.0,2.0505807399749756,4.966129410057821,1.1137531171509001e-17,0.27074337005615234,-1.5967181364642542,0.0,-0.014910032972693443,0.22380851209163666,-0.0,0.0036705408710986376,0.763762891292572,0.0,-0.031131424009799957
169.0,145.0,-0.335,0.5749,9.6054,-0.0342,0.0264,-0.11,-2.0907465420165003,0.0,4.209537506103516,-1.3833813667297363,-0.0,2.0581936836242676,4.966141658812322,3.1001727694464464e-21,0.2700585424900055,-1.5966737906085413,0.0,-0.01094100996851921,0.22383280098438263,-0.0,0.006286599673330784,0.7637830972671509,0.0,-0.019178064540028572
169.0,145.0,-0.335,0.5749,9.6054,-0.0342,0.0264,-0.11,-2.09075464824819,0.0,4.209333419799805,-1.383345127105713,-0.0,2.0605852603912354,4.966117906361379,8.629445091597406e-25,0.2694236934185028,-1.5967381636248987,0.0,-0.020472301170229912,0.22380036115646362,-0.0,-0.0010806899517774582,0.7638112902641296,0.0,0.016985023394227028
169.0,145.0,-0.335,0.5749,9.6054,-0.0342,0.0264,-0.11,-2.090766569177145,0.0,4.23187255859375,-1.3833407163619995,-0.0,2.1071906089782715,4.966125356941976,3.678867853751755e-27,0.270196795463562,-1.596701447163717,0.0,-0.0183252040296793,0.22385244071483612,-0.0,0.009935619309544563,0.7638030648231506,0.0,0.045000605285167694
169.0,145.0,-0.335,0.5749,9.6054,-0.0342,0.0264,-0.11,-2.0907908878722132,0.0,4.218572616577148,-1.3834172487258911,-0.0,2.1029443740844727,4.966149914055624,1.0240262613459518e-30,0.2758327126502991,-1.5967257658587855,0.0,-0.016018236055970192,0.22384467720985413,-0.0,-0.0012162725906819105,0.7638514637947083,0.0,-0.034237202256917953
169.0,145.0,-0.335,0.5749,9.6054,-0.0342,0.0264,-0.11,-2.0907422504820765,0.0,4.188713550567627,-1.383368968963623,-0.0,2.080960988998413,4.966173636704244,2.850414466158213e-34,0.28000563383102417,-1.5967138449298304,0.0,-0.005295192822813988,0.22382868826389313,-0.0,0.018959149718284607,0.7638357281684875,0.0,0.00813920795917511
169.0,145.0,-0.335,0.5749,9.6054,-0.0342,0.0264,-0.11,-2.090766569177145,0.0,4.250890731811523,-1.3833651542663574,-0.0,2.076096296310425,4.966157662659445,1.2151765225220165e-36,0.2652779519557953,-1.5967138449298304,0.0,-0.004780967719852924,0.22386068105697632,-0.0,-0.004771747626364231,0.7637911438941956,0.0,-0.008690147660672665
169.0,145.0,-0.335,0.5749,9.6054,-0.0342,0.0264,-0.11,-2.090762277642721,0.0,4.189162254333496,-1.3833928108215332,-0.0,2.0557098388671875,4.966121244221487,3.38248225915653e-40,0.26431041955947876,-1.596705738698141,0.0,-0.006212582811713219,0.22384467720985413,-0.0,0.009673219174146652,0.7638030648231506,0.0,0.007005191408097744
172.0,144.0,-0.268,0.5874,9.5629,-0.0286,0.0208,-0.1153,-2.09075464824819,0.0,4.1975860595703125,-1.3833447694778442,-0.0,2.059241771697998,4.9661457417304895,9.388699710976274e-44,0.25572025775909424,-1.5966938177691858,0.0,-0.01321052759885788,0.22386480867862701,-0.0,-0.007109169848263264,0.7638800144195557,0.0,-0.03480672463774681
172.0,144.0,-0.268,0.5874,9.5629,-0.0286,0.0208,-0.1153,-2.0908109150328578,0.0,4.242116928100586,-1.3833649158477783,-0.0,2.072711229324341,4.966121214419164,0.0,0.27267467975616455,-1.596705738698141,0.0,-0.0013382514007389545,0.22384428977966309,-0.0,0.007348302751779556,0.763778805732727,0.0,0.005878678523004055
172.0,144.0,-0.268,0.5874,9.5629,-0.0286,0.0208,-0.1153,-2.090762277642721,0.0,4.201010704040527,-1.3833529949188232,-0.0,2.0411062240600586,4.966153907566824,0.0,0.2645023763179779,-1.5967095533954065,0.0,-0.005877971649169922,0.22377994656562805,-0.0,0.007454118691384792,0.7638071775436401,0.0,-0.013338916003704071
172.0,144.0,-0.268,0.5874,9.5629,-0.0286,0.0208,-0.1153,-2.0907184086241664,0.0,4.203802108764648,-1.3833692073822021,-0.0,2.080893039703369,4.966113704233923,0.0,0.2732046842575073,-1.5967419783221644,0.0,-0.011712745763361454,0.2238004505634308,-0.0,-0.0079977260902524,0.76381516456604,0.0,-0.0075828032568097115
172.0,144.0,-0.268,0.5874,9.5629,-0.0286,0.0208,-0.1153,-2.090762277642721,0.0,4.196061134338379,-1.3833528757095337,-0.0,2.0701186656951904,4.966145711928167,0.0,0.27246206998825073,-1.5967300573932093,0.0,-0.006966212764382362,0.2238885760307312,-0.0,-0.0022323436569422483,0.7638112306594849,0.0,-0.027361249551177025
172.0,144.0,-0.268,0.5874,9.5629,-0.0286,0.0208,-0.1153,-2.090807100335592,0.0,4.227067947387695,-1.3833338022232056,-0.0,2.044729232788086,4.966153907566824,0.0,0.28201568126678467,-1.5967500845538538,0.0,-0.008350399322807789,0.22378401458263397,-0.0,0.006712288595736027,0.7638315558433533,0.0,0.03333080932497978
172.0,144.0,-0.268,0.5874,9.5629,-0.0286,0.0208,-0.1153,-2.0907303295531214,0.0,4.183905601501465,-1.383421540260315,-0.0,2.0554792881011963,4.966133582382955,0.0,0.2679613530635834,-1.596705738698141,0.0,-0.01732456311583519,0.22382044792175293,-0.0,-0.006378022022545338,0.7638030648231506,0.0,0.017708800733089447
172.0,144.0,-0.268,0.5874,9.5629,-0.0286,0.0208,-0.1153,-2.0907708607115687,0.0,4.236783981323242,-1.3833492994308472,-0.0,2.0193190574645996,4.966161745577612,0.0,0.274097204208374,-1.5967620054828089,0.0,-0.018888428807258606,0.22381269931793213,-0.0,-0.0015535554848611355,0.7637990117073059,0.0,-0.002488330937922001
172.0,144.0,-0.268,0.5874,9.5629,-0.0286,0.0208,-0.1153,-2.090762277642721,0.0,4.240555763244629,-1.3833611011505127,-0.0,2.1078124046325684,4.966121214419164,0.0,0.2572280764579773,-1.59674579301943,0.0,-0.01810087077319622,0.22377584874629974,-0.0,0.001671267207711935,0.7638393044471741,0.0,-0.04103738069534302
172.0,144.0,-0.268,0.5874,9.5629,-0.0286,0.0208,-0.1153,-2.0907346210875453,0.0,4.208101272583008,-1.383357048034668,-0.0,2.0764822959899902,4.9661457417304895,0.0,0.26517003774642944,-1.596717659627096,0.0,-0.014736369252204895,0.22383645176887512,-0.0,0.012274147942662239,0.7638270258903503,0.0,0.046463411301374435
172.0,144.0,-0.268,0.5874,9.5629,-0.0286,0.0208,-0.1153,-2.0907465420165003,0.0,4.235884666442871,-1.3833329677581787,-0.0,2.1224186420440674,4.966125356941976,0.0,0.2609332799911499,-1.5967419783221644,0.0,-0.0031645633280277252,0.223832368850708,-0.0,0.006577727850526571,0.7638556361198425,0.0,-0.03723966330289841
172.0,144.0,-0.268,0.5874,9.5629,-0.0286,0.0208,-0.1153,-2.090827604333395,0.0,4.2318830490112305,-1.3833730220794678,-0.0,2.0799083709716797,4.9660896239574335,0.0,0.27304553985595703,-1.5967419783221644,0.0,-0.010418672114610672,0.22386889159679413,-0.0,-0.008853457868099213,0.763827383518219,0.0,0.024728691205382347
172.0,144.0,-0.268,0.5874,9.5629,-0.0286,0.0208,-0.1153,-2.090807100335592,0.0,4.211518287658691,-1.3834338188171387,-0.0,2.074934244155884,4.9661096809204,0.0,0.2726200819015503,-1.596729580556051,0.0,-0.03086972050368786,0.22386473417282104,-0.0,-0.012402116321027279,0.7638192772865295,0.0,0.05341615527868271
172.0,144.0,-0.268,0.5874,9.5629,-0.0286,0.0208,-0.1153,-2.090807100335592,0.0,4.19726037979126,-1.383333683013916,-0.0,2.0546340942382812,4.966165888100424,0.0,0.26907315850257874,-1.596677605305807,0.0,-0.012689591385424137,0.22382868826389313,-0.0,-0.004068898502737284,0.7637989521026611,0.0,0.012232090346515179
172.0,144.0,-0.268,0.5874,9.5629,-0.0286,0.0208,-0.1153,-2.0907708607115687,0.0,4.225902557373047,-1.3833411931991577,-0.0,2.0476198196411133,4.966141658812322,0.0,0.2678528428077698,-1.5967214743243616,0.0,-0.01604921743273735,0.22379639744758606,-0.0,-0.0034346783068031073,0.7638071775436401,0.0,0.020814189687371254
172.0,144.0,-0.268,0.5874,9.5629,-0.0286,0.0208,-0.1153,-2.0907465420165003,0.0,4.232069969177246,-1.3833811283111572,-0.0,2.062265157699585,4.966145771532812,0.0,0.2610243260860443,-1.5967214743243616,0.0,-0.01676146686077118,0.22380852699279785,-0.0,-0.007622122764587402,0.7638072371482849,0.0,-0.018807094544172287
172.0,144.0,-0.268,0.5874,9.5629,-0.0286,0.0208,-0.1153,-2.0907784901061,0.0,4.181937217712402,-1.3833813667297363,-0.0,2.063563823699951,4.966149914055624,0.0,0.2765643894672394,-1.5967138449298304,0.0,-0.004003793001174927,0.22382044792175293,-0.0,0.0016986088594421744,0.7638072371482849,0.0,0.0005022501572966576
173.0,146.0,-0.2405,0.5916,9.4786,-0.0333,0.0254,-0.117,-2.0907865963377894,0.0,4.2247772216796875,-1.3833491802215576,-0.0,2.072397470474243,4.966137575894155,0.0,0.2612327039241791,-1.5967181364642542,0.0,-0.010145975276827812,0.22385245561599731,-0.0,-0.009975090622901917,0.763827383518219,0.0,0.03942188620567322
173.0,146.0,-0.2405,0.5916,9.4786,-0.0333,0.0254,-0.117,-2.0907746754088343,0.0,4.252302646636963,-1.3833611011505127,-0.0,2.0599005222320557,4.966161745577612,0.0,0.2777138948440552,-1.5967701117144983,0.0,-0.0067276256158947945,0.2238122969865799,-0.0,0.00704592652618885,0.7638433575630188,0.0,0.015027469024062157
173.0,146.0,-0.2405,0.5916,9.4786,-0.0333,0.0254,-0.117,-2.090750356713766,0.0,4.232891082763672,-1.3833528757095337,-0.0,2.0764691829681396,4.966101902514257,0.0,0.27149608731269836,-1.596729580556051,0.0,-0.02459772117435932,0.223832368850708,-0.0,0.0029507416766136885,0.7638233304023743,0.0,-0.07233305275440216
173.0,146.0,-0.2405,0.5916,9.4786,-0.0333,0.0254,-0.117,-2.0907985172667445,0.0,4.251886367797852,-1.3834009170532227,-0.0,2.0594260692596436,4.966093677073278,0.0,0.26650553941726685,-1.5967257658587855,0.0,-0.01097055058926344,0.223840594291687,-0.0,-0.004413334187120199,0.7638151049613953,0.0,0.03231202811002731
173.0,146.0,-0.2405,0.5916,9.4786,-0.0333,0.0254,-0.117,-2.090750356713766,0.0,4.242911338806152,-1.3833328485488892,-0.0,2.079660177230835,4.966113734036245,0.0,0.26256003975868225,-1.5967181364642542,0.0,0.0020132982172071934,0.22382046282291412,-0.0,0.011124132201075554,0.7638151049613953,0.0,-0.0121517488732934
173.0,146.0,-0.2405,0.5916,9.4786,-0.0333,0.0254,-0.117,-2.0907708607115687,0.0,4.187546730041504,-1.3833649158477783,-0.0,2.062894821166992,4.966169941216268,0.0,0.2650752365589142,-1.5967138449298304,0.0,-0.01736283488571644,0.22382453083992004,-0.0,-0.00015720946248620749,0.7638233304023743,0.0,0.013025444000959396
173.0,146.0,-0.2405,0.5916,9.4786,-0.0333,0.0254,-0.117,-2.090762277642721,0.0,4.220736026763916,-1.3833447694778442,-0.0,2.076296091079712,4.966129380255499,0.0,0.26309067010879517,-1.5967257658587855,0.0,-0.00560529250651598,0.2238447219133377,-0.0,0.005140784662216902,0.7637547254562378,0.0,-0.032183825969696045
173.0,146.0,-0.2405,0.5916,9.4786,-0.0333,0.0254,-0.117,-2.090738435784811,0.0,4.227773666381836,-1.3833731412887573,-0.0,2.0614733695983887,4.966173666506567,0.0,0.2732802629470825,-1.5967419783221644,0.0,-0.006635456345975399,0.22380445897579193,-0.0,-0.0013632553163915873,0.763831615447998,0.0,-0.006313254125416279
173.0,146.0,-0.2405,0.5916,9.4786,-0.0333,0.0254,-0.117,-2.090790411035055,0.0,4.234015941619873,-1.3833329677581787,-0.0,2.0626697540283203,4.9661698816116235,0.0,0.2627406716346741,-1.596705738698141,0.0,-0.031027663499116898,0.2238122671842575,-0.0,-2.24248506128788e-05,0.7638680338859558,0.0,-0.02682260051369667
173.0,146.0,-0.2405,0.5916,9.4786,-0.0333,0.0254,-0.117,-2.0907627544798792,0.0,4.246426582336426,-1.3833895921707153,-0.0,2.0460095405578613,4.966137605696478,0.0,0.2712658643722534,-1.596689526234762,0.0,-0.017914563417434692,0.22380034625530243,-0.0,0.005269028712064028,0.7638112902641296,0.0,-0.01534600742161274
173.0,146.0,-0.2405,0.5916,9.4786,-0.0333,0.0254,-0.117,-2.09075464824819,0.0,4.208186626434326,-1.383405089378357,-0.0,2.0748486518859863,4.966165888100424,0.0,0.2648434340953827,-1.59674579301943,0.0,-0.01698225364089012,0.2238524854183197,-0.0,-0.007190888747572899,0.763810932636261,0.0,-0.02499076910316944
173.0,146.0,-0.2405,0.5916,9.4786,-0.0333,0.0254,-0.117,-2.090750356713766,0.0,4.2086052894592285,-1.383421540260315,-0.0,2.117187738418579,4.966137575894155,0.0,0.273751437664032,-1.5967257658587855,0.0,-0.009958773851394653,0.223832368850708,-0.0,0.00168757070787251,0.763746440410614,0.0,-0.016435133293271065
173.0,146.0,-0.2405,0.5916,9.4786,-0.0333,0.0254,-0.117,-2.0907908878722132,0.0,4.206655502319336,-1.3834009170532227,-0.0,2.067870616912842,4.966149914055624,0.0,0.27702611684799194,-1.5967019240008753,0.0,-0.005954025778919458,0.2238524705171585,-0.0,-0.006502645090222359,0.7638030648231506,0.0,-0.006122671999037266
173.0,146.0,-0.2405,0.5916,9.4786,-0.0333,0.0254,-0.117,-2.0907784901061,0.0,4.17926025390625,-1.383421540260315,-0.0,2.0903873443603516,4.966125327139654,0.0,0.2746742367744446,-1.5967214743243616,0.0,-0.013615964911878109,0.22380852699279785,-0.0,0.0022710836492478848,0.7638152241706848,0.0,0.04202397167682648
173.0,146.0,-0.2405,0.5916,9.4786,-0.0333,0.0254,-0.117,-2.090738435784811,0.0,4.177976608276367,-1.3833649158477783,-0.0,2.045280694961548,4.9661655006702325,0.0,0.25702011585235596,-1.5967419783221644,0.0,-0.007517566438764334,0.22380851209163666,-0.0,0.006596268620342016,0.7638151049613953,0.0,-0.016018440946936607
173.0,146.0,-0.2405,0.5916,9.4786,-0.0333,0.0254,-0.117,-2.0907784901061,0.0,4.234734535217285,-1.3833329677581787,-0.0,2.0713882446289062,4.9661535797412775,0.0,0.25754162669181824,-1.5967744032489222,0.0,0.0020261239260435104,0.22381678223609924,-0.0,-0.00768935726955533,0.763823390007019,0.0,-0.04424672573804855
173.0,146.0,-0.2405,0.5916,9.4786,-0.0333,0.0254,-0.117,-2.090762277642721,0.0,4.204445838928223,-1.3833611011505127,-0.0,2.082897424697876,4.966174053936758,0.0,0.27289873361587524,-1.5967138449298304,0.0,9.802938438951969e-05,0.22383275628089905,-0.0,0.002645903965458274,0.7638071775436401,0.0,-0.007306370418518782
170.0,144.0,-0.2686,0.6072,9.3858,-0.033,0.0205,-0.1153,-2.0907584629454554,0.0,4.179356575012207,-1.383348822593689,-0.0,2.0627737045288086,4.966181891947546,0.0,0.25569409132003784,-1.5967500845538538,0.0,-0.01568368449807167,0.2238803207874298,-0.0,-0.0005788165144622326,0.7637748122215271,0.0,-0.03542493283748627
170.0,144.0,-0.2686,0.6072,9.3858,-0.033,0.0205,-0.1153,-2.090819021264547,0.0,4.165979862213135,-1.3833256959915161,-0.0,2.0753259658813477,4.966153549938955,0.0,0.2790554463863373,-1.596705738698141,0.0,-0.008087224327027798,0.2238442450761795,-0.0,-0.0008086422458291054,0.7638233304023743,0.0,0.02903885208070278
170.0,144.0,-0.2686,0.6072,9.3858,-0.033,0.0205,-0.1153,-2.090762277642721,0.0,4.193976402282715,-1.383317470550537,-0.0,2.086088180541992,4.966105598002233,0.0,0.2694648206233978,-1.5967214743243616,0.0,0.004317637532949448,0.22381269931793213,-0.0,0.0012315181083977222,0.7637948393821716,0.0,0.009794699028134346
170.0,144.0,-0.2686,0.6072,9.3858,-0.033,0.0205,-0.1153,-2.0907865963377894,0.0,4.234321117401123,-1.383385419845581,-0.0,2.0681464672088623,4.966137575894155,0.0,0.2670603394508362,-1.596689526234762,0.0,-0.007320248521864414,0.22384878993034363,-0.0,-0.01094738207757473,0.7637990117073059,0.0,0.000479990616440773
170.0,144.0,-0.2686,0.6072,9.3858,-0.033,0.0205,-0.1153,-2.090738435784811,0.0,4.225890636444092,-1.3833214044570923,-0.0,2.0456953048706055,4.966141658812322,0.0,0.26220184564590454,-1.59674579301943,0.0,-0.001037122681736946,0.22384467720985413,-0.0,0.011593871749937534,0.7638236284255981,0.0,-0.04382454603910446
170.0,144.0,-0.2686,0.6072,9.3858,-0.033,0.0205,-0.1153,-2.0907422504820765,0.0,4.180344581604004,-1.383405089378357,-0.0,2.0623815059661865,4.966121959477224,0.0,0.27390143275260925,-1.596733872090475,0.0,-0.011626720428466797,0.2237962931394577,-0.0,-0.01028959546238184,0.7637506723403931,0.0,0.0033631930127739906
170.0,144.0,-0.2686,0.6072,9.3858,-0.033,0.0205,-0.1153,-2.09075464824819,0.0,4.208468437194824,-1.3834052085876465,-0.0,2.048091411590576,4.9661457417304895,0.0,0.27251237630844116,-1.5967214743243616,0.0,-0.00044562213588505983,0.22380852699279785,-0.0,-0.0039223562926054,0.7638274431228638,0.0,0.013290735892951488
170.0,144.0,-0.2686,0.6072,9.3858,-0.033,0.0205,-0.1153,-2.0907427273192347,0.0,4.246853828430176,-1.383357048034668,-0.0,2.0396039485931396,4.966129410057821,0.0,0.27095258235931396,-1.5967662970172327,0.0,-0.017259493470191956,0.22386474907398224,-0.0,-0.008570596575737,0.7638351321220398,0.0,-0.0032478701323270798
170.0,144.0,-0.2686,0.6072,9.3858,-0.033,0.0205,-0.1153,-2.0907184086241664,0.0,4.195249080657959,-1.3833731412887573,-0.0,2.0543413162231445,4.966157662659445,0.0,0.27329233288764954,-1.596729580556051,0.0,-0.023524630814790726,0.2238607257604599,-0.0,0.0010839237365871668,0.7637994289398193,0.0,0.0031484668143093586
170.0,144.0,-0.2686,0.6072,9.3858,-0.033,0.0205,-0.1153,-2.090807100335592,0.0,4.233137607574463,-1.383377194404602,-0.0,2.0897884368896484,4.9661457417304895,0.0,0.2708822786808014,-1.5967095533954065,0.0,-0.0006317162187770009,0.22381678223609924,-0.0,0.01050197146832943,0.7638112902641296,0.0,0.006340689957141876
170.0,144.0,-0.2686,0.6072,9.3858,-0.033,0.0205,-0.1153,-2.0908028088011683,0.0,4.187355995178223,-1.3834131956100464,-0.0,2.0795443058013916,4.966145771532812,0.0,0.27354711294174194,-1.5967376867877405,0.0,-0.023324213922023773,0.2238282859325409,-0.0,0.007636310998350382,0.7638030648231506,0.0,-0.04672908037900925
170.0,144.0,-0.2686,0.6072,9.3858,-0.033,0.0205,-0.1153,-2.090806623498434,0.0,4.2118072509765625,-1.3833731412887573,-0.0,2.0990045070648193,4.966145711928167,0.0,0.27861449122428894,-1.5967257658587855,0.0,-0.01037401519715786,0.22384008765220642,-0.0,-0.000450831837952137,0.7637990117073059,0.0,0.005814126692712307
170.0,144.0,-0.2686,0.6072,9.3858,-0.033,0.0205,-0.1153,-2.0907589397826136,0.0,4.168379783630371,-1.3833491802215576,-0.0,2.078078031539917,4.9661137638385675,0.0,0.27184486389160156,-1.5967300573932093,0.0,0.004288292955607176,0.22380037605762482,-0.0,-0.00446547893807292,0.7638071775436401,0.0,-0.0023241997696459293
170.0,144.0,-0.2686,0.6072,9.3858,-0.033,0.0205,-0.1153,-2.0907746754088343,0.0,4.1848063468933105,-1.3834254741668701,-0.0,2.0595810413360596,4.966161775379934,0.0,0.2600920796394348,-1.596701447163717,0.0,-0.008806458674371243,0.22381269931793213,-0.0,-0.006540621165186167,0.7637629508972168,0.0,-0.02754301391541958
170.0,144.0,-0.2686,0.6072,9.3858,-0.033,0.0205,-0.1153,-2.0907141170897425,0.0,4.210047721862793,-1.3833215236663818,-0.0,2.0621860027313232,4.966117906361379,0.0,0.2625276446342468,-1.5967257658587855,0.0,-0.003189029172062874,0.22384880483150482,-0.0,0.01234267745167017,0.7637870907783508,0.0,0.026822704821825027
170.0,144.0,-0.2686,0.6072,9.3858,-0.033,0.0205,-0.1153,-2.0908271274962367,0.0,4.213968276977539,-1.3833365440368652,-0.0,2.071695327758789,4.966137575894155,0.0,0.2814227342605591,-1.5967419783221644,0.0,-0.005366197787225246,0.22381636500358582,-0.0,-0.006069669034332037,0.7637583613395691,0.0,-0.05993542820215225
170.0,144.0,-0.2686,0.6072,9.3858,-0.033,0.0205,-0.1153,-2.090794702569479,0.0,4.228734970092773,-1.383385419845581,-0.0,2.0800671577453613,4.966165888100424,0.0,0.256553590297699,-1.5967376867877405,0.0,-0.008403807878494263,0.22384056448936462,-0.0,0.003651414066553116,0.7637711763381958,0.0,0.0034505147486925125
178.0,147.0,-0.2291,0.606,9.3918,-0.0336,0.0286,-0.1164,-2.090766569177145,0.0,4.278392314910889,-1.3833528757095337,-0.0,2.058579206466675,4.966109978943624,0.0,0.2621285319328308,-1.5967376867877405,0.0,-0.011423258110880852,0.2238968312740326,-0.0,-0.006017250940203667,0.7638071775436401,0.0,0.04332812875509262
178.0,147.0,-0.2291,0.606,9.3918,-0.0336,0.0286,-0.1164,-2.0907865963377894,0.0,4.213158130645752,-1.3833651542663574,-0.0,2.09771466255188,4.966129410057821,0.0,0.2522531747817993,-1.5967257658587855,0.0,0.005064896307885647,0.2238607257604599,-0.0,-0.003684856928884983,0.7638151049613953,0.0,-0.03208654001355171
178.0,147.0,-0.2291,0.606,9.3918,-0.0336,0.0286,-0.1164,-2.0907708607115687,0.0,4.232419967651367,-1.3833731412887573,-0.0,2.0579934120178223,4.9661859450633905,0.0,0.2528578042984009,-1.5967257658587855,0.0,-0.007211094722151756,0.22381636500358582,-0.0,-0.00503901019692421,0.7638315558433533,0.0,0.029608426615595818
178.0,147.0,-0.2291,0.606,9.3918,-0.0336,0.0286,-0.1164,-2.09075464824819,0.0,4.270887851715088,-1.3833296298980713,-0.0,2.0819873809814453,4.966177749424734,0.0,0.2718823552131653,-1.5967095533954065,0.0,-0.011110096238553524,0.22388848662376404,-0.0,-0.011106242425739765,0.7637830972671509,0.0,-0.006121878512203693
178.0,147.0,-0.2291,0.606,9.3918,-0.0336,0.0286,-0.1164,-2.090750356713766,0.0,4.214675426483154,-1.383385419845581,-0.0,2.0737619400024414,4.966113734036245,0.0,0.2616334855556488,-1.5967095533954065,0.0,-0.01922444999217987,0.22381636500358582,-0.0,-0.004638878628611565,0.7638556957244873,0.0,0.04183674976229668
178.0,147.0,-0.2291,0.606,9.3918,-0.0336,0.0286,-0.1164,-2.0907865963377894,0.0,4.225295066833496,-1.3833928108215332,-0.0,2.032484292984009,4.966158020287313,0.0,0.27616754174232483,-1.5967257658587855,0.0,0.009931163862347603,0.22378812730312347,-0.0,0.0011310101253911853,0.7638393044471741,0.0,-0.001111011952161789
178.0,147.0,-0.2291,0.606,9.3918,-0.0336,0.0286,-0.1164,-2.0907260380186976,0.0,4.259709358215332,-1.3833608627319336,-0.0,2.0910391807556152,4.966173964529791,0.0,0.2654847502708435,-1.5967419783221644,0.0,-0.018800970166921616,0.223832368850708,-0.0,-0.0005133835365995765,0.7638112306594849,0.0,-0.02558634802699089
178.0,147.0,-0.2291,0.606,9.3918,-0.0336,0.0286,-0.1164,-2.0907303295531214,0.0,4.1983489990234375,-1.3833770751953125,-0.0,2.10562801361084,4.966125356941976,0.0,0.27856162190437317,-1.5967095533954065,0.0,-0.013461717404425144,0.2237962931394577,-0.0,0.009505992755293846,0.7637912034988403,0.0,-0.006074606440961361
178.0,147.0,-0.2291,0.606,9.3918,-0.0336,0.0286,-0.1164,-2.090774198571676,0.0,4.2214860916137695,-1.3833731412887573,-0.0,2.1012799739837646,4.966174053936758,0.0,0.2738948464393616,-1.596729580556051,0.0,-0.005230488255620003,0.2238081395626068,-0.0,0.010163146071135998,0.7638030648231506,0.0,0.00957045704126358
178.0,147.0,-0.2291,0.606,9.3918,-0.0336,0.0286,-0.1164,-2.0907422504820765,0.0,4.2064313888549805,-1.3833611011505127,-0.0,2.0909855365753174,4.966113734036245,0.0,0.26755309104919434,-1.5967419783221644,0.0,-0.02097919210791588,0.22382868826389313,-0.0,0.006946801673620939,0.7638071775436401,0.0,-0.04260387271642685
178.0,147.0,-0.2291,0.606,9.3918,-0.0336,0.0286,-0.1164,-2.090766569177145,0.0,4.213442325592041,-1.383368968963623,-0.0,2.057058334350586,4.966097283154287,0.0,0.26336365938186646,-1.5967620054828089,0.0,-0.013408488593995571,0.2238004505634308,-0.0,-0.003874406451359391,0.7637829780578613,0.0,0.02993575669825077
178.0,147.0,-0.2291,0.606,9.3918,-0.0336,0.0286,-0.1164,-2.09075464824819,0.0,4.182376861572266,-1.3833365440368652,-0.0,2.0802674293518066,4.966181921749868,0.0,0.26038116216659546,-1.5967376867877405,0.0,-0.007859581150114536,0.223832368850708,-0.0,-0.004993719048798084,0.7637912034988403,0.0,0.04301592335104942
178.0,147.0,-0.2291,0.606,9.3918,-0.0336,0.0286,-0.1164,-2.090750356713766,0.0,4.22332763671875,-1.3833532333374023,-0.0,2.0834641456604004,4.966165947705068,0.0,0.2728188633918762,-1.5967214743243616,0.0,-0.002949853427708149,0.22378401458263397,-0.0,-0.0014277384616434574,0.7638112306594849,0.0,0.04293216019868851
178.0,147.0,-0.2291,0.606,9.3918,-0.0336,0.0286,-0.1164,-2.0907627544798792,0.0,4.22308349609375,-1.3834092617034912,-0.0,2.1087613105773926,4.966141658812322,0.0,0.26213571429252625,-1.5967095533954065,0.0,-0.001368083874695003,0.22383645176887512,-0.0,0.005741239991039038,0.7638315558433533,0.0,-0.06854692101478577
178.0,147.0,-0.2291,0.606,9.3918,-0.0336,0.0286,-0.1164,-2.090762277642721,0.0,4.232550621032715,-1.3834009170532227,-0.0,2.082949638366699,4.966145711928167,0.0,0.2681240439414978,-1.5967538992511194,0.0,-0.012175810523331165,0.22384469211101532,-0.0,-6.593042053282261e-05,0.7638112902641296,0.0,-0.044052854180336
178.0,147.0,-0.2291,0.606,9.3918,-0.0336,0.0286,-0.1164,-2.0907346210875453,0.0,4.209417819976807,-1.3833608627319336,-0.0,2.0886712074279785,4.966169941216268,0.0,0.2709157168865204,-1.5967138449298304,0.0,-0.01371064968407154,0.2237560898065567,-0.0,0.009118395857512951,0.7638112902641296,0.0,0.03551565110683441
178.0,147.0,-0.2291,0.606,9.3918,-0.0336,0.0286,-0.1164,-2.090774198571676,0.0,4.210399150848389,-1.3834010362625122,-0.0,2.0558671951293945,4.966145771532812,0.0,0.27090349793434143,-1.5966857115374964,0.0,-0.00784147996455431,0.22382453083992004,-0.0,0.009735817089676857,0.7637789249420166,0.0,0.01223151944577694
171.0,145.0,-0.3607,0.5677,9.7514,-0.0435,0.0278,-0.1184,-2.0907422504820765,0.0,4.213103294372559,-1.3833447694778442,-0.0,2.0686702728271484,4.966093617468633,0.0,0.2689298689365387,-1.5967100302325647,0.0,-0.005315084010362625,0.22385655343532562,-0.0,-0.003622334683313966,0.763827383518219,0.0,-0.051682088524103165
171.0,145.0,-0.3607,0.5677,9.7514,-0.0435,0.0278,-0.1184,-2.090738435784811,0.0,4.236255645751953,-1.3833296298980713,-0.0,2.044532060623169,4.9661137638385675,0.0,0.2724417448043823,-1.596757713948385,0.0,-0.005826633423566818,0.22380809485912323,-0.0,-0.0017213963437825441,0.7638233304023743,0.0,0.023493092507123947
171.0,145.0,-0.3607,0.5677,9.7514,-0.0435,0.0278,-0.1184,-2.090762277642721,0.0,4.196587562561035,-1.3833611011505127,-0.0,2.0933034420013428,4.966133582382955,0.0,0.26537829637527466,-1.596705738698141,0.0,-0.025835590437054634,0.2237803041934967,-0.0,-0.01771710067987442,0.7638151049613953,0.0,-0.02090563252568245
171.0,145.0,-0.3607,0.5677,9.7514,-0.0435,0.0278,-0.1184,-2.0907865963377894,0.0,4.176889419555664,-1.383357048034668,-0.0,2.089709520339966,4.9661292908485315,0.0,0.26236623525619507,-1.59674579301943,0.0,-0.017438801005482674,0.22384053468704224,-0.0,5.522336869034916e-05,0.7638233304023743,0.0,-0.0009457938140258193
171.0,145.0,-0.3607,0.5677,9.7514,-0.0435,0.0278,-0.1184,-2.0907985172667445,0.0,4.214653968811035,-1.383385419845581,-0.0,2.060211420059204,4.9661055383975885,0.0,0.2793397903442383,-1.5966976324664515,0.0,-0.016797684133052826,0.22382453083992004,-0.0,-0.01130726933479309,0.7638030648231506,0.0,-0.009653140790760517
171.0,145.0,-0.3607,0.5677,9.7514,-0.0435,0.0278,-0.1184,-2.090750356713766,0.0,4.215508460998535,-1.3833895921707153,-0.0,2.0494165420532227,4.966177749424734,0.0,0.28018200397491455,-1.5966938177691858,0.0,-0.017875798046588898,0.22385650873184204,-0.0,0.0017593768425285816,0.7637911438941956,0.0,-0.015982672572135925
171.0,145.0,-0.3607,0.5677,9.7514,-0.0435,0.0278,-0.1184,-2.0907746754088343,0.0,4.187182426452637,-1.3833731412887573,-0.0,2.071023941040039,4.966141658812322,0.0,0.26873645186424255,-1.5967538992511194,0.0,0.0020886827260255814,0.22390861809253693,-0.0,-0.00592826958745718,0.7638112902641296,0.0,-0.001617228495888412
171.0,145.0,-0.3607,0.5677,9.7514,-0.0435,0.0278,-0.1184,-2.090750356713766,0.0,4.220687389373779,-1.3833370208740234,-0.0,2.090571641921997,4.9660977003868005,0.0,0.2599262297153473,-1.5967376867877405,0.0,-0.006088909227401018,0.22379210591316223,-0.0,0.00506399292498827,0.7638192176818848,0.0,0.020005464553833008
171.0,145.0,-0.3607,0.5677,9.7514,-0.0435,0.0278,-0.1184,-2.090762277642721,0.0,4.222865104675293,-1.3833773136138916,-0.0,2.0759494304656982,4.9661055383975885,0.0,0.26755186915397644,-1.596733872090475,0.0,-0.010665325447916985,0.22384051978588104,-0.0,-0.001999989151954651,0.7637748718261719,0.0,0.007983922027051449
171.0,145.0,-0.3607,0.5677,9.7514,-0.0435,0.0278,-0.1184,-2.0907703838744105,0.0,4.199328422546387,-1.3834091424942017,-0.0,2.076820135116577,4.966129439860143,0.0,0.2643769681453705,-1.596677605305807,0.0,-0.013878360390663147,0.22380444407463074,-0.0,0.0040259212255477905,0.7638636231422424,0.0,0.0013624858111143112
171.0,145.0,-0.3607,0.5677,9.7514,-0.0435,0.0278,-0.1184,-2.0907346210875453,0.0,4.229544639587402,-1.3833813667297363,-0.0,2.088050603866577,4.9661457417304895,0.0,0.2757727801799774,-1.5967300573932093,0.0,-0.010112435556948185,0.22384051978588104,-0.0,-0.002482119482010603,0.7637989521026611,0.0,-0.05690011754631996
171.0,145.0,-0.3607,0.5677,9.7514,-0.0435,0.0278,-0.1184,-2.090726514855856,0.0,4.227670192718506,-1.3833205699920654,-0.0,2.080629825592041,4.9661457417304895,0.0,0.27245596051216125,-1.5967100302325647,0.0,-0.006839319132268429,0.22384051978588104,-0.0,0.0007875858573243022,0.76381516456604,0.0,0.022116925567388535
171.0,145.0,-0.3607,0.5677,9.7514,-0.0435,0.0278,-0.1184,-2.0907703838744105,0.0,4.24055290222168,-1.3833813667297363,-0.0,2.095719814300537,4.966105896025457,0.0,0.25548943877220154,-1.5966938177691858,0.0,-0.005423981696367264,0.2238728553056717,-0.0,-0.003886476391926408,0.7638516426086426,0.0,-0.021563341841101646
171.0,145.0,-0.3607,0.5677,9.7514,-0.0435,0.0278,-0.1184,-2.090790411035055,0.0,4.258744716644287,-1.3833215236663818,-0.0,2.0628411769866943,4.96610193231658,0.0,0.2683671712875366,-1.5967095533954065,0.0,-0.009259413927793503,0.22380444407463074,-0.0,-0.012753663584589958,0.763787031173706,0.0,0.010740213096141815
171.0,145.0,-0.3607,0.5677,9.7514,-0.0435,0.0278,-0.1184,-2.0907865963377894,0.0,4.208812713623047,-1.3833447694778442,-0.0,2.0424671173095703,4.966149914055624,0.0,0.2796628773212433,-1.596705738698141,0.0,-0.013397622853517532,0.22383645176887512,-0.0,-0.0011241920292377472,0.7638475894927979,0.0,0.03186647221446037
171.0,145.0,-0.3607,0.5677,9.7514,-0.0435,0.0278,-0.1184,-2.0907303295531214,0.0,4.246743202209473,-1.3833813667297363,-0.0,2.0927047729492188,4.966153907566824,0.0,0.2737054228782654,-1.5967419783221644,0.0,-0.013717960566282272,0.2238282859325409,-0.0,-0.002770514227449894,0.7638434171676636,0.0,0.008670493960380554
171.0,145.0,-0.3607,0.5677,9.7514,-0.0435,0.0278,-0.1184,-2.0908028088011683,0.0,4.278769493103027,-1.383357048034668,-0.0,2.114621162414551,4.966177838831701,0.0,0.2651659846305847,-1.5967376867877405,0.0,0.00023995991796255112,0.22382450103759766,-0.0,-0.004189203958958387,0.7638154625892639,0.0,-0.029534006491303444
173.0,142.0,-0.2279,0.6969,9.4666,-0.0308,0.0218,-0.1246,-2.0907584629454554,0.0,4.241456031799316,-1.3832931518554688,-0.0,2.0455942153930664,4.966130065708914,0.0,0.2815075218677521,-1.5967095533954065,0.0,-0.017986083403229713,0.22382453083992004,-0.0,-0.0012572312261909246,0.7638718485832214,0.0,-0.0025544138625264168
173.0,142.0,-0.2279,0.6969,9.4666,-0.0308,0.0218,-0.1246,-2.0907865963377894,0.0,4.2333292961120605,-1.3833770751953125,-0.0,2.0936343669891357,4.966165917902746,0.0,0.2858784794807434,-1.5966694990741175,0.0,-0.007495203521102667,0.22380448877811432,-0.0,-0.0005161090521141887,0.7638233304023743,0.0,0.005643333308398724
173.0,142.0,-0.2279,0.6969,9.4666,-0.0308,0.0218,-0.1246,-2.090738435784811,0.0,4.248574733734131,-1.3833895921707153,-0.0,2.062981605529785,4.966190027981558,0.0,0.2723436951637268,-1.596757713948385,0.0,-0.0006301016546785831,0.22384047508239746,-0.0,-0.009432831779122353,0.7637748122215271,0.0,-0.020129859447479248
173.0,142.0,-0.2279,0.6969,9.4666,-0.0308,0.0218,-0.1246,-2.0907985172667445,0.0,4.259243011474609,-1.3833692073822021,-0.0,2.068984270095825,4.966153907566824,0.0,0.26171037554740906,-1.5966938177691858,0.0,-0.010235833935439587,0.22380852699279785,-0.0,0.0037021301686763763,0.7637947797775269,0.0,0.027177635580301285
173.0,142.0,-0.2279,0.6969,9.4666,-0.0308,0.0218,-0.1246,-2.090738435784811,0.0,4.247034072875977,-1.383348822593689,-0.0,2.0898525714874268,4.966093706875601,0.0,0.2808743715286255,-1.596733872090475,0.0,0.000154804321937263,0.223816379904747,-0.0,0.002518695779144764,0.7638233304023743,0.0,-0.008735178038477898
173.0,142.0,-0.2279,0.6969,9.4666,-0.0308,0.0218,-0.1246,-2.0907708607115687,0.0,4.23916482925415,-1.383348822593689,-0.0,2.0791850090026855,4.966105598002233,0.0,0.2882089912891388,-1.596733872090475,0.0,-0.012463584542274475,0.22375616431236267,-0.0,0.008135609328746796,0.7638393640518188,0.0,-0.024747658520936966
173.0,142.0,-0.2279,0.6969,9.4666,-0.0308,0.0218,-0.1246,-2.0908271274962367,0.0,4.169846057891846,-1.383357048034668,-0.0,2.0656228065490723,4.966129410057821,0.0,0.26874151825904846,-1.5967019240008753,0.0,0.00212983600795269,0.22382044792175293,-0.0,0.003334048204123974,0.7638311386108398,0.0,0.04182175546884537
173.0,142.0,-0.2279,0.6969,9.4666,-0.0308,0.0218,-0.1246,-2.0908028088011683,0.0,4.166625499725342,-1.3833975791931152,-0.0,2.0698728561401367,4.9661457417304895,0.0,0.2754959762096405,-1.5967138449298304,0.0,-0.010911112651228905,0.2237921804189682,-0.0,0.005357628688216209,0.7638474702835083,0.0,0.02607908844947815
173.0,142.0,-0.2279,0.6969,9.4666,-0.0308,0.0218,-0.1246,-2.0907465420165003,0.0,4.1922101974487305,-1.383396863937378,-0.0,2.0805578231811523,4.966161745577612,0.0,0.2699877917766571,-1.5966938177691858,0.0,-0.0058234804309904575,0.22384871542453766,-0.0,0.005517521873116493,0.7637989521026611,0.0,0.019635837525129318
173.0,142.0,-0.2279,0.6969,9.4666,-0.0308,0.0218,-0.1246,-2.090762277642721,0.0,4.173385143280029,-1.383357048034668,-0.0,2.116288900375366,4.966129410057821,0.0,0.2618446946144104,-1.5966857115374964,0.0,-0.008982643485069275,0.22383645176887512,-0.0,-0.01082376204431057,0.7637667059898376,0.0,0.03291509300470352
173.0,142.0,-0.2279,0.6969,9.4666,-0.0308,0.0218,-0.1246,-2.0907303295531214,0.0,4.218775749206543,-1.383368968963623,-0.0,2.073120355606079,4.966137546091833,0.0,0.2618408799171448,-1.5967500845538538,0.0,0.00021293805912137032,0.22384428977966309,-0.0,0.0051500373519957066,0.7637707591056824,0.0,0.025800712406635284
173.0,142.0,-0.2279,0.6969,9.4666,-0.0308,0.0218,-0.1246,-2.0907708607115687,0.0,4.21955680847168,-1.3833649158477783,-0.0,2.0807008743286133,4.966129410057821,0.0,0.28072142601013184,-1.5967214743243616,0.0,-0.015838630497455597,0.22375591099262238,-0.0,-0.0008877861546352506,0.7638071179389954,0.0,0.0034942664206027985
173.0,142.0,-0.2279,0.6969,9.4666,-0.0308,0.0218,-0.1246,-2.090750356713766,0.0,4.221393585205078,-1.383357048034668,-0.0,2.086394786834717,4.96616621592597,0.0,0.26769280433654785,-1.5967381636248987,0.0,-0.019417516887187958,0.22384051978588104,-0.0,0.004502337891608477,0.7638112306594849,0.0,0.009436755441129208
173.0,142.0,-0.2279,0.6969,9.4666,-0.0308,0.0218,-0.1246,-2.0907303295531214,0.0,4.202231407165527,-1.3833528757095337,-0.0,2.0827443599700928,4.966141658812322,0.0,0.27141982316970825,-1.5966618696795862,0.0,-0.010878186672925949,0.22383643686771393,-0.0,0.006050356663763523,0.7638071775436401,0.0,0.053103163838386536
173.0,142.0,-0.2279,0.6969,9.4666,-0.0308,0.0218,-0.1246,-2.090766569177145,0.0,4.234905242919922,-1.383368968963623,-0.0,2.0577354431152344,4.966129410057821,0.0,0.2731611132621765,-1.5967219511615198,0.0,-0.008232655934989452,0.22380852699279785,-0.0,-0.014743678271770477,0.7637990117073059,0.0,0.03364119678735733
173.0,142.0,-0.2279,0.6969,9.4666,-0.0308,0.0218,-0.1246,-2.0907746754088343,0.0,4.209925651550293,-1.3833895921707153,-0.0,2.107144832611084,4.966129410057821,0.0,0.2674199342727661,-1.596677605305807,0.0,-0.009393485262989998,0.22383643686771393,-0.0,-0.0068235271610319614,0.7637706995010376,0.0,-0.054933566600084305
173.0,142.0,-0.2279,0.6969,9.4666,-0.0308,0.0218,-0.1246,-2.0907346210875453,0.0,4.218005657196045,-1.3833976984024048,-0.0,2.1244003772735596,4.9661579606826685,0.0,0.2799525260925293,-1.59674579301943,0.0,0.0029224874451756477,0.22378408908843994,-0.0,0.0050005242228507996,0.7637707591056824,0.0,-0.05338158458471298
165.0,143.0,-0.1561,0.6592,9.3194,-0.0351,0.0263,-0.1124,-2.090767046014303,0.0,4.18400764465332,-1.3833329677581787,-0.0,2.084963083267212,4.966141658812322,0.0,0.2827332019805908,-1.5966737906085413,0.0,-0.014627911150455475,0.22378002107143402,-0.0,-0.0041246600449085236,0.7638068795204163,0.0,0.028344562277197838
165.0,143.0,-0.1561,0.6592,9.3194,-0.0351,0.0263,-0.1124,-2.090782781640524,0.0,4.214105129241943,-1.3833173513412476,-0.0,2.0698699951171875,4.966157662659445,0.0,0.2624802589416504,-1.5967415014850062,0.0,-0.01199672743678093,0.22376398742198944,-0.0,0.009156637825071812,0.7637707591056824,0.0,0.00809978786855936
165.0,143.0,-0.1561,0.6592,9.3194,-0.0351,0.0263,-0.1124,-2.090750356713766,0.0,4.2480058670043945,-1.3833491802215576,-0.0,2.0566232204437256,4.966161745577612,0.0,0.277034729719162,-1.5967333952533167,0.0,0.002516998676583171,0.22387279570102692,-0.0,0.0040511880069971085,0.7637829780578613,0.0,0.004763811826705933
165.0,143.0,-0.1561,0.6592,9.3194,-0.0351,0.0263,-0.1124,-2.090766569177145,0.0,4.256820201873779,-1.3833447694778442,-0.0,2.0808591842651367,4.9661457417304895,0.0,0.2709459364414215,-1.5967019240008753,0.0,-0.008231866173446178,0.22380851209163666,-0.0,-0.002141599776223302,0.7638109922409058,0.0,0.03993947058916092
165.0,143.0,-0.1561,0.6592,9.3194,-0.0351,0.0263,-0.1124,-2.0907589397826136,0.0,4.251501083374023,-1.3833324909210205,-0.0,2.0920939445495605,4.966157692461767,0.0,0.27889227867126465,-1.5967419783221644,0.0,-0.01544999424368143,0.22380848228931427,-0.0,-0.006762021221220493,0.7637990117073059,0.0,0.0001253983937203884
165.0,143.0,-0.1561,0.6592,9.3194,-0.0351,0.0263,-0.1124,-2.0907589397826136,0.0,4.237171173095703,-1.3833895921707153,-0.0,2.1012232303619385,4.966137605696478,0.0,0.26491105556488037,-1.5967901388751429,0.0,-0.009586595930159092,0.22374005615711212,-0.0,0.008590449579060078,0.7638233304023743,0.0,0.018823400139808655
165.0,143.0,-0.1561,0.6592,9.3194,-0.0351,0.0263,-0.1124,-2.090766569177145,1.529379956011212e-09,4.205003261566162,-1.383345127105713,-0.0,2.058210611343384,4.9661535797412775,0.0,0.2626170516014099,-1.5966976324664515,0.0,-0.010028663091361523,0.22381263971328735,-0.0,-0.007930638268589973,0.7638112306594849,0.0,-0.00801132433116436
165.0,143.0,-0.1561,0.6592,9.3194,-0.0351,0.0263,-0.1124,-2.0908109150328578,3.693273290683195e-15,4.227694034576416,-1.3833215236663818,-0.0,2.0470781326293945,4.96614949682311,0.0,0.26939812302589417,-1.5967333952533167,0.0,-0.006329311057925224,0.22383642196655273,-0.0,-0.0029704240150749683,0.763851523399353,0.0,0.014791474677622318
165.0,143.0,-0.1561,0.6592,9.3194,-0.0351,0.0263,-0.1124,-2.0907064876952113,6.64776106987429e-19,4.237344741821289,-1.3834296464920044,-0.0,2.0547800064086914,4.966157662659445,0.0,0.28023236989974976,-1.59674579301943,0.0,-0.017635527998209,0.22382046282291412,-0.0,-0.005671345628798008,0.7638071775436401,0.0,0.06362331658601761
165.0,143.0,-0.1561,0.6592,9.3194,-0.0351,0.0263,-0.1124,-2.09075464824819,1.6053561009899814e-24,4.238177299499512,-1.383368968963623,-0.0,2.069305181503296,4.9661535797412775,0.0,0.2827352285385132,-1.5967257658587855,0.0,-0.0057434020563960075,0.22378411889076233,-0.0,-0.007881240919232368,0.763843297958374,0.0,-0.008135417476296425
165.0,143.0,-0.1561,0.6592,9.3194,-0.0351,0.0263,-0.1124,-2.0907708607115687,3.876745762458216e-30,4.204195976257324,-1.3833770751953125,-0.0,2.0875837802886963,4.966157662659445,0.0,0.2704598605632782,-1.5967214743243616,0.0,-0.0011740545742213726,0.22385644912719727,-0.0,0.0005347614642232656,0.7637866139411926,0.0,-0.0431474931538105
165.0,143.0,-0.1561,0.6592,9.3194,-0.0351,0.0263,-0.1124,-2.0907708607115687,9.361886257224989e-36,4.222023963928223,-1.383357048034668,-0.0,2.1198363304138184,4.966157662659445,0.0,0.27042514085769653,-1.5967095533954065,0.0,-0.009637328796088696,0.22376804053783417,-0.0,0.00419523986056447,0.7638717889785767,0.0,-0.007896147668361664
165.0,143.0,-0.1561,0.6592,9.3194,-0.0351,0.0263,-0.1124,-2.09075464824819,1.685106244901451e-39,4.213048934936523,-1.3833091259002686,-0.0,2.0578465461730957,4.966089504748144,0.0,0.27080702781677246,-1.59674579301943,0.0,0.0010152249597012997,0.22388029098510742,-0.0,-0.0018152755219489336,0.7638594508171082,0.0,-0.01970880851149559
165.0,143.0,-0.1561,0.6592,9.3194,-0.0351,0.0263,-0.1124,-2.09075464824819,4.203895392974451e-45,4.213982582092285,-1.3833813667297363,1.2578401253904303e-07,2.0736923217773438,4.966129439860143,0.0,0.2817446291446686,-1.5967214743243616,0.0,-0.01627359725534916,0.2238004207611084,-0.0,0.005698557011783123,0.7638474702835083,0.0,0.013199573382735252
165.0,143.0,-0.1561,0.6592,9.3194,-0.0351,0.0263,-0.1124,-2.0907708607115687,0.0,4.235245227813721,-1.383385419845581,3.037535771955452e-13,2.110534906387329,4.966149943857946,0.0,0.2731446623802185,-1.5967214743243616,0.0,-0.0018734729383140802,0.22377626597881317,-0.0,0.005561208352446556,0.7638112306594849,0.0,0.039916761219501495
165.0,143.0,-0.1561,0.6592,9.3194,-0.0351,0.0263,-0.1124,-2.09075464824819,0.0,4.15886926651001,-1.3833296298980713,5.4674570538223747e-17,2.0993759632110596,4.966137605696478,0.0,0.27649372816085815,-1.5967138449298304,0.0,-0.011164184659719467,0.22382450103759766,-0.0,-0.0026593187358230352,0.7637746930122375,0.0,-0.04320090636610985
173.0,140.0,-0.3021,0.5677,9.3942,-0.0483,0.0232,-0.1202,-2.090766569177145,0.0,4.233689308166504,-1.3833009004592896,1.3203263420525046e-22,2.0599112510681152,4.966157662659445,0.0,0.2838093340396881,-1.596677605305807,0.0,-0.011435706168413162,0.22378815710544586,-0.0,0.00016366085037589073,0.7637706995010376,0.0,-0.022357270121574402
173.0,140.0,-0.3021,0.5677,9.3942,-0.0483,0.0232,-0.1202,-2.0907026729979457,0.0,4.177026748657227,-1.3833532333374023,3.188432634160213e-28,2.076688289642334,4.966129410057821,0.0,0.28647977113723755,-1.5967419783221644,0.0,-0.014168156310915947,0.22378826141357422,-0.0,0.002442307770252228,0.7638233304023743,0.0,-0.020684903487563133
173.0,140.0,-0.3021,0.5677,9.3942,-0.0483,0.0232,-0.1202,-2.090766569177145,0.0,4.202664852142334,-1.3833692073822021,5.739066110509744e-32,2.081955671310425,4.9661055383975885,0.0,0.26327404379844666,-1.5967300573932093,0.0,-0.014739845879375935,0.22375617921352386,-0.0,0.012706653214991093,0.7637670636177063,0.0,-0.009082245640456676
173.0,140.0,-0.3021,0.5677,9.3942,-0.0483,0.0232,-0.1202,-2.090738435784811,0.0,4.221552848815918,-1.383345127105713,1.3859170276532479e-37,2.053295373916626,4.966141658812322,0.0,0.27091193199157715,-1.5967095533954065,0.0,-0.012147773057222366,0.2238646298646927,-0.0,-0.0006127031520009041,0.7638071775436401,0.0,-0.03823227435350418
173.0,140.0,-0.3021,0.5677,9.3942,-0.0483,0.0232,-0.1202,-2.09072270015859,0.0,4.225645542144775,-1.3833528757095337,3.3491033297363128e-43,2.0927927494049072,4.966137546091833,0.0,0.267884224653244,-1.59674579301943,0.0,-0.004415946081280708,0.22380852699279785,-0.0,0.005609023850411177,0.7638071775436401,0.0,-0.057792894542217255
173.0,140.0,-0.3021,0.5677,9.3942,-0.0483,0.0232,-0.1202,-2.0907708607115687,0.0,4.240927219390869,-1.3833731412887573,0.0,2.087573289871216,4.966133492975988,0.0,0.27579912543296814,-1.5967219511615198,0.0,-0.014425063505768776,0.22378815710544586,-0.0,0.003237662836909294,0.7638393640518188,0.0,-0.012838564813137054
173.0,140.0,-0.3021,0.5677,9.3942,-0.0483,0.0232,-0.1202,-2.0907708607115687,0.0,4.21923828125,-1.3833407163619995,-0.0,2.0733683109283447,4.966133582382955,0.0,0.26216450333595276,-1.59674579301943,0.0,-0.0012460729340091348,0.223816379904747,-0.0,-0.011372242122888565,0.7638393640518188,0.0,-0.0001667449250817299
173.0,140.0,-0.3021,0.5677,9.3942,-0.0483,0.0232,-0.1202,-2.0907708607115687,0.0,4.247925281524658,-1.383269190788269,-0.0,2.0904476642608643,4.966125356941976,0.0,0.2675110101699829,-1.596705738698141,0.0,-0.003302871249616146,0.223816379904747,-0.0,0.0011275273282080889,0.7637829780578613,0.0,0.025529073551297188
173.0,140.0,-0.3021,0.5677,9.3942,-0.0483,0.0232,-0.1202,-2.0907346210875453,0.0,4.247220993041992,-1.3833410739898682,-0.0,2.1192855834960938,4.966093677073278,0.0,0.28434357047080994,-1.596677605305807,0.0,-0.020057834684848785,0.2238241583108902,-0.0,-0.007033868692815304,0.7637588381767273,0.0,0.016338065266609192
173.0,140.0,-0.3021,0.5677,9.3942,-0.0483,0.0232,-0.1202,-2.0907985172667445,0.0,4.248158931732178,-1.3833410739898682,-0.0,2.03800106048584,4.966129410057821,0.0,0.27282950282096863,-1.5967095533954065,0.0,-0.009494449943304062,0.22382044792175293,-0.0,-0.007990444079041481,0.763831615447998,0.0,0.019738666713237762
173.0,140.0,-0.3021,0.5677,9.3942,-0.0483,0.0232,-0.1202,-2.0907589397826136,0.0,4.2189249992370605,-1.3833255767822266,-0.0,2.1032819747924805,4.9661536095436,0.0,0.2766904830932617,-1.596705738698141,0.0,-0.0021051084622740746,0.2237880975008011,-0.0,0.017585178837180138,0.763778805732727,0.0,-0.004690788686275482
173.0,140.0,-0.3021,0.5677,9.3942,-0.0483,0.0232,-0.1202,-2.0907346210875453,0.0,4.214273929595947,-1.383377194404602,-0.0,2.0831029415130615,4.966149914055624,0.0,0.2783737778663635,-1.596733872090475,0.0,-0.006060827523469925,0.22387632727622986,-0.0,0.0003361224662512541,0.7638514637947083,0.0,-0.0016732242656871676
173.0,140.0,-0.3021,0.5677,9.3942,-0.0483,0.0232,-0.1202,-2.0907784901061,0.0,4.23850679397583,-1.383401870727539,-0.0,2.085331439971924,4.966109710722723,0.0,0.275529146194458,-1.5967419783221644,0.0,-0.003115627681836486,0.2237922102212906,-0.0,-0.006025358103215694,0.763851523399353,0.0,0.016629233956336975
173.0,140.0,-0.3021,0.5677,9.3942,-0.0483,0.0232,-0.1202,-2.0907346210875453,0.0,4.204184532165527,-1.3833132982254028,-0.0,2.077007293701172,4.9661457417304895,0.0,0.2713051438331604,-1.5967419783221644,0.0,-0.015340697951614857,0.22384053468704224,-0.0,-0.004068527836352587,0.7637994289398193,0.0,-0.028659595176577568
173.0,140.0,-0.3021,0.5677,9.3942,-0.0483,0.0232,-0.1202,-2.090726514855856,0.0,4.181399345397949,-1.3833370208740234,-0.0,2.047351360321045,4.966181921749868,0.0,0.26605725288391113,-1.5967095533954065,0.0,-0.011632932350039482,0.22381232678890228,-0.0,-0.008777108043432236,0.7638030648231506,0.0,-0.01676642894744873
173.0,140.0,-0.3021,0.5677,9.3942,-0.0483,0.0232,-0.1202,-2.090795179406637,0.0,4.215133190155029,-1.3833173513412476,-0.0,2.0237033367156982,4.966161745577612,0.0,0.2651911973953247,-1.5967538992511194,0.0,-0.003223064821213484,0.2238163948059082,-0.0,-0.0009959223680198193,0.7638233304023743,0.0,0.040763191878795624
173.0,140.0,-0.3021,0.5677,9.3942,-0.0483,0.0232,-0.1202,-2.09075464824819,0.0,4.208019256591797,-1.3833410739898682,-0.0,2.0599710941314697,4.9661618051822565,0.0,0.26775264739990234,-1.5967376867877405,0.0,-0.005268045701086521,0.22378009557724,-0.0,-0.003862030105665326,0.7638030648231506,5.672733949246833e-10,-0.036588724702596664
170.0,139.0,-0.2554,0.5192,9.7585,-0.038,0.022,-0.1194,-2.0907627544798792,0.0,4.236583709716797,-1.3833528757095337,-0.0,2.032503366470337,4.966177779227056,0.0,0.268005907535553,-1.5967214743243616,0.0,-0.025346431881189346,0.2237803339958191,-0.0,0.0034508835524320602,0.763835608959198,1.3698984446604994e-15,0.02627640590071678
170.0,139.0,-0.2554,0.5192,9.7585,-0.038,0.022,-0.1194,-2.0907465420165003,0.0,4.244684219360352,-1.3833009004592896,-0.0,2.0959482192993164,4.966145324497976,0.0,0.26655974984169006,-1.596705738698141,0.0,-0.009830372408032417,0.22386468946933746,-0.0,0.002545540686696768,0.76381516456604,2.4657685373534625e-19,0.01781223714351654
170.0,139.0,-0.2554,0.5192,9.7585,-0.038,0.022,-0.1194,-2.090766569177145,0.0,4.2346320152282715,-1.3833611011505127,-0.0,2.089078426361084,4.966137575894155,0.0,0.276056706905365,-1.5967138449298304,0.0,-0.010943707078695297,0.22378405928611755,-0.0,0.005246189422905445,0.7638233304023743,5.954541021509396e-25,0.03854953125119209
170.0,139.0,-0.2554,0.5192,9.7585,-0.038,0.022,-0.1194,-2.090738435784811,0.0,4.177772521972656,-1.3833976984024048,-0.0,2.0621867179870605,4.966177749424734,0.0,0.26871955394744873,-1.596757713948385,0.0,-0.008814450353384018,0.22377581894397736,-0.0,0.009423359297215939,0.763778805732727,1.4379513943891387e-30,0.011748678982257843
170.0,139.0,-0.2554,0.5192,9.7585,-0.038,0.022,-0.1194,-2.0907985172667445,0.0,4.1671600341796875,-1.3833733797073364,-0.0,2.0733814239501953,4.966210114746847,0.0,0.2640575170516968,-1.5967376867877405,2.8152106423817713e-08,-0.005025275982916355,0.22380037605762482,-0.0,0.004930991679430008,0.7637952566146851,2.5882615475918326e-34,0.03615890070796013
170.0,139.0,-0.2554,0.5192,9.7585,-0.038,0.022,-0.1194,-2.0907427273192347,0.0,4.1997389793396,-1.383309006690979,-0.0,2.056278944015503,4.966169613390722,0.0,0.2760401666164398,-1.5967782179461878,7.836242939263105e-12,0.0027728478889912367,0.22380037605762482,-0.0,0.003360022557899356,0.7638391852378845,6.250351670274414e-40,0.03829879313707352
170.0,139.0,-0.2554,0.5192,9.7585,-0.038,0.022,-0.1194,-2.090738435784811,0.0,4.225397109985352,-1.383385419845581,5.050363688496873e-05,2.0727169513702393,4.966157692461767,0.0,0.2630440294742584,-1.5968058745013636,2.1812468467590418e-15,-0.0015889197820797563,0.22385244071483612,-0.0,-0.012535271234810352,0.7639199495315552,0.0015304929111152887,0.03343788906931877
170.0,139.0,-0.2554,0.5192,9.7585,-0.038,0.022,-0.1194,-2.0907427273192347,0.0,4.238314151763916,-1.3833255767822266,0.0014112968929111958,2.093109369277954,4.966226118593969,0.0,0.28864896297454834,-1.5967538992511194,9.298998183018014e-18,-0.0027947002090513706,0.2238282859325409,-0.0,0.006038961932063103,0.7639355659484863,0.0033123474568128586,-0.06139860674738884
170.0,139.0,-0.2554,0.5192,9.7585,-0.038,0.022,-0.1194,-2.0906740627684535,1.684326428330607e-10,4.240324974060059,-1.3832974433898926,0.0024682804942131042,2.0900654792785645,4.966181504517355,0.0,0.2726540267467499,-1.596785847340719,2.5884098973402046e-21,0.0028194240294396877,0.22382044792175293,-0.0,0.009238138794898987,0.7639232873916626,0.00447001913562417,0.05939521640539169
170.0,139.0,-0.2554,0.5192,9.7585,-0.038,0.022,-0.1194,-2.090682169000143,0.0008371282019652426,4.222416877746582,-1.3833541870117188,0.0020221483428031206,2.0776145458221436,4.966210114746847,0.0,0.2706248462200165,-1.5968378225909632,7.20493436705321e-25,-0.008309619501233101,0.22385652363300323,-0.0,-0.0022781414445489645,0.7639471888542175,0.004677168093621731,0.0017436448251828551
170.0,139.0,-0.2554,0.5192,9.7585,-0.038,0.022,-0.1194,-2.090682169000143,0.0006631141877733171,4.224492073059082,-1.3833097219467163,0.0017674004193395376,2.101752519607544,4.966181504517355,0.0,0.27513641119003296,-1.596802059804098,2.005519841933389e-28,-0.019694533199071884,0.2238122969865799,-0.0,0.01567726768553257,0.7639836072921753,0.0037710731849074364,-0.021655747666954994
170.0,139.0,-0.2554,0.5192,9.7585,-0.038,0.022,-0.1194,-2.090698381463522,0.0005323059158399701,4.235494136810303,-1.3832974433898926,0.0018289228901267052,2.058950662612915,4.9661655006702325,0.0,0.283802330493927,-1.5967815558062952,8.54984531324823e-31,-0.007960950024425983,0.22385244071483612,-0.0,0.0031547322869300842,0.7640479207038879,0.003126411931589246,0.012462505139410496
170.0,139.0,-0.2554,0.5192,9.7585,-0.038,0.022,-0.1194,-2.0907231769957484,0.0004107815329916775,4.219897270202637,-1.3832734823226929,0.0017712839180603623,2.096087694168091,4.9661937830741785,0.0,0.26957741379737854,-1.5968220869647425,2.3798808375021002e-34,-0.01550182793289423,0.2238123118877411,-0.0,-0.0027589218225330114,0.7640070915222168,0.0021616516169160604,0.016933651641011238
170.0,139.0,-0.2554,0.5192,9.7585,-0.038,0.022,-0.1194,-2.0907145939269007,0.00027897715335711837,4.204411506652832,-1.3832895755767822,0.0016698004910722375,2.05503249168396,4.96620191910819,0.0,0.2811437249183655,-1.5968497435199183,6.624485468303268e-38,-0.022353794425725937,0.2238483726978302,-0.0,-0.0029818054754287004,0.7640635371208191,0.0017396145267412066,-0.034421537071466446
170.0,139.0,-0.2554,0.5192,9.7585,-0.038,0.022,-0.1194,-2.090738435784811,0.00020429069991223514,4.2245707511901855,-1.3832420110702515,0.0012544728815555573,2.0936944484710693,4.9661535797412775,0.0,0.2642090320587158,-1.5967934767352503,2.8241208730616633e-40,-0.010266906581819057,0.22384469211101532,-0.0,0.010772299952805042,0.7640876173973083,0.002589505398645997,-0.0006335842190310359
170.0,139.0,-0.2554,0.5192,9.7585,-0.038,0.022,-0.1194,-2.0907427273192347,0.00017023780674207956,4.2228779792785645,-1.3832215070724487,0.0007853580755181611,2.066723585128784,4.966125327139654,0.0,0.27168628573417664,-1.596830193196432,7.847271400218976e-44,-0.0015964549966156483,0.22384469211101532,-0.0,0.01225344743579626,0.7640954256057739,0.005410459358245134,0.010580388829112053
170.0,139.0,-0.2554,0.5192,9.7585,-0.038,0.022,-0.1194,-2.0907584629454554,0.00011181475565535948,4.249634742736816,-1.3832457065582275,0.0005715034785680473,2.05729079246521,4.966165917902746,0.0,0.27462226152420044,-1.5968058745013636,0.0,-0.0007753981044515967,0.2238524854183197,-0.0,-0.00741763599216938,0.7640830874443054,0.008466986939311028,0.009917245246469975
174.0,142.0,-0.8674,0.6293,9.5713,-0.0374,0.0328,-0.1235,-2.09075464824819,-8.231161336880177e-05,4.197088241577148,-1.3832818269729614,0.00048371197772212327,2.06854510307312,4.966141658812322,2.5806593839661218e-05,0.28576067090034485,-1.5967977682696741,0.0,-0.012975412420928478,0.22382867336273193,-0.0,-0.003303060308098793,0.7641475200653076,0.006839772220700979,0.035709746181964874
174.0,142.0,-0.8674,0.6293,9.5713,-0.0374,0.0328,-0.1235,-2.0907985172667445,-0.00018101987370755523,4.259327411651611,-1.3832337856292725,0.00039313785964623094,2.11043643951416,4.966157662659445,3.838411430479027e-05,0.28260087966918945,-1.5967777411090296,0.0,-0.007666383869946003,0.22380444407463074,-0.0,-0.005856592208147049,0.7641755938529968,0.0038818393368273973,-0.010017742402851582
174.0,142.0,-0.8674,0.6293,9.5713,-0.0374,0.0328,-0.1235,-2.090786119500631,-0.0009741338435560465,4.229388236999512,-1.3832416534423828,0.0003207471745554358,2.0378262996673584,4.966137605696478,5.4109335906105116e-05,0.2736835777759552,-1.5968344847308558,0.0,-0.021514084190130234,0.22381272912025452,-0.0,-0.0031358064152300358,0.7641550302505493,0.002044725464656949,0.030523428693413734
174.0,142.0,-0.8674,0.6293,9.5713,-0.0374,0.0328,-0.1235,-2.0908266506590785,-0.0014941622503101826,4.1839447021484375,-1.3832378387451172,0.00038728275103494525,2.104163646697998,4.966149914055624,5.2033767133252695e-05,0.2803034484386444,-1.596773926411764,0.0,0.004099150653928518,0.22384876012802124,-0.0,-0.006978700403124094,0.7641997933387756,0.0016264342702925205,0.030959876254200935
174.0,142.0,-0.8674,0.6293,9.5713,-0.0374,0.0328,-0.1235,-2.090858598748678,-0.002281798282638192,4.16810417175293,-1.3832497596740723,0.0006913882680237293,2.096637487411499,4.966129410057821,-0.00014141795691102743,0.2776608467102051,-1.5967901388751429,0.0,-0.026827147230505943,0.2238282859325409,-0.0,0.00345427542924881,0.7642275094985962,0.001871280139312148,0.016046160832047462
174.0,142.0,-0.8674,0.6293,9.5713,-0.0374,0.0328,-0.1235,-2.090870519677633,-0.002984212478622794,4.232626438140869,-1.3832337856292725,0.0004731248482130468,2.0857815742492676,4.966125327139654,-0.00022370752412825823,0.2746739089488983,-1.5967977682696741,0.0,-0.0006381506100296974,0.22382044792175293,-0.0,0.003477727761492133,0.7642192840576172,0.0023747405502945185,0.017156943678855896
174.0,142.0,-0.8674,0.6293,9.5713,-0.0374,0.0328,-0.1235,-2.0908824406065882,-0.0031467839144170284,4.186272621154785,-1.3832497596740723,0.0003908919752575457,2.0784409046173096,4.966141688614645,-0.000512393715325743,0.2668086886405945,-1.5967662970172327,0.0,-0.002978595206514001,0.22380037605762482,-0.0,0.0007777833379805088,0.7642395496368408,0.002307869726791978,-0.05215003341436386
174.0,142.0,-0.8674,0.6293,9.5713,-0.0374,0.0328,-0.1235,-2.090902944604391,-0.0020703068003058434,4.2094011306762695,-1.3832693099975586,0.0003695028426591307,2.0757462978363037,4.966121870070257,-0.0004406418011058122,0.2791406512260437,-1.596729580556051,-3.6558845749823377e-05,-0.0036856718361377716,0.22379213571548462,-0.0,0.004338956903666258,0.7641953825950623,0.0016327735502272844,0.0003091671969741583
174.0,142.0,-0.8674,0.6293,9.5713,-0.0374,0.0328,-0.1235,-2.090886732141012,-0.0008851018501445651,4.204831600189209,-1.3832299709320068,0.00037892075488343835,2.0345451831817627,4.9661457417304895,-0.000340526137733832,0.2805737555027008,-1.5967782179461878,-3.443956666160375e-05,-0.01136004738509655,0.2238483726978302,-0.0,-0.005287869833409786,0.7642113566398621,0.000796623295173049,0.006549788638949394
174.0,142.0,-0.8674,0.6293,9.5713,-0.0374,0.0328,-0.1235,-2.090886732141012,-0.0005325466045178473,4.208481788635254,-1.3832144737243652,0.003389235120266676,2.0941758155822754,4.966129410057821,-0.0002774892491288483,0.2833612263202667,-1.5967453161822718,-3.2569987524766475e-05,-0.009063288569450378,0.22384467720985413,-0.0,-0.0034837040584534407,0.7642035484313965,0.00031182871316559613,0.01837468519806862
174.0,142.0,-0.8674,0.6293,9.5713,-0.0374,0.0328,-0.1235,-2.0908991299071253,-0.0003445139154791832,4.257450103759766,-1.3831099271774292,0.005448923446238041,2.0881035327911377,4.966129410057821,-0.00024701215443201363,0.27015039324760437,-1.5967620054828089,-3.1432493415195495e-05,-0.013385618105530739,0.2238483726978302,-0.0,-0.0017790794372558594,0.7642356753349304,-0.00021435756934806705,0.014609754085540771
174.0,142.0,-0.8674,0.6293,9.5713,-0.0374,0.0328,-0.1235,-2.0908547840514125,-0.0002007510920520872,4.236856937408447,-1.3831263780593872,0.009266022592782974,2.0687904357910156,4.9661535797412775,-0.00017114845104515553,0.28193777799606323,-1.596729580556051,-1.4938254935259465e-05,-0.012778500095009804,0.22384051978588104,-0.0,0.0109401261433959,0.7641794681549072,-0.00040092444396577775,0.011060383170843124
174.0,142.0,-0.8674,0.6293,9.5713,-0.0374,0.0328,-0.1235,-2.0909067593016566,-0.00016410597891081125,4.226629257202148,-1.3830382823944092,0.013635742478072643,2.1406049728393555,4.966157662659445,-0.00014864103286527097,0.28967905044555664,-1.5967376867877405,-9.43757186178118e-07,-0.0077590979635715485,0.22383613884449005,-0.0,0.004400899633765221,0.7641555070877075,-0.001844555139541626,0.0010575391352176666
174.0,142.0,-0.8674,0.6293,9.5713,-0.0374,0.0328,-0.1235,-2.0908824406065882,-0.00019308509945403785,4.245772361755371,-1.3829902410507202,0.016305623576045036,2.142979621887207,4.966181921749868,-0.0001373007398797199,0.26807594299316406,-1.5967419783221644,-4.023385180573769e-09,-0.007982982322573662,0.22381198406219482,-0.0,0.005034306552261114,0.7641714811325073,-0.0021499325521290302,0.030147522687911987
174.0,142.0,-0.8674,0.6293,9.5713,-0.0374,0.0328,-0.1235,-2.0908948383727015,-4.736008486361243e-05,4.235045433044434,-1.3828548192977905,0.017412805929780006,2.063464879989624,4.96616210320548,-0.00012320178211666644,0.27682361006736755,-1.5967376867877405,-1.1199239235634706e-12,-0.01455435436218977,0.22387288510799408,-0.0,0.009032810106873512,0.7641275525093079,-0.0015682725934311748,-0.015030371956527233
174.0,142.0,-0.8674,0.6293,9.5713,-0.0374,0.0328,-0.1235,-2.0909186802306117,-0.00011825896945083514,4.202791213989258,-1.3827953338623047,0.017360685393214226,2.0892863273620605,4.966126012593069,-3.556576484697871e-05,0.2731929421424866,-1.5967181364642542,-3.1173496494609865e-16,-0.008020625449717045,0.22387628257274628,-0.0,0.01452877651900053,0.7641234993934631,-0.0015033903764560819,0.005159053951501846
174.0,142.0,-0.8674,0.6293,9.5713,-0.0374,0.0328,-0.1235,-2.0908786259093226,-0.0008139105630107224,4.2150115966796875,-1.3827275037765503,0.016639772802591324,2.1154298782348633,4.966065454273977,-3.2921554520726204e-05,0.28020498156547546,-1.5967138449298304,-1.3289750487024491e-18,-0.004396659787744284,0.22382037341594696,-0.0,-0.004825821612030268,0.7640913128852844,-0.003038423601537943,0.0049527715891599655
168.0,147.0,0.3721,0.987,9.4247,-0.0392,0.0128,-0.1413,-2.090914865533346,-0.0018230733694508672,4.200623989105225,-1.3826756477355957,0.015457455068826675,2.1422863006591797,4.966105896025457,-2.966548163385596e-05,0.2682890295982361,-1.596689526234762,-3.699250502587797e-22,-0.004517022520303726,0.2238483726978302,-0.0,0.010869147256016731,0.7640029788017273,-0.007880016230046749,-0.0038761887699365616
168.0,147.0,0.3721,0.987,9.4247,-0.0392,0.0128,-0.1413,-2.0908824406065882,-0.001987346913665533,4.2030029296875,-1.3825724124908447,0.014897148124873638,2.1056630611419678,4.966149914055624,-5.3065810789121315e-05,0.27482596039772034,-1.596705738698141,-1.0296998930659538e-25,-0.012330104596912861,0.22383235394954681,-4.622332028247911e-08,0.007845137268304825,0.7639389038085938,-0.011124053038656712,0.023944243788719177
168.0,147.0,0.3721,0.987,9.4247,-0.0392,0.0128,-0.1413,-2.0909511051573695,-0.0015420548152178526,4.2407941818237305,-1.3824561834335327,0.014310200698673725,2.088665246963501,4.966129410057821,-2.590755138953682e-05,0.28309330344200134,-1.5966976324664515,-4.389772122241827e-28,-0.009152059443295002,0.22386817634105682,-1.9705727327679057e-10,0.0005768857663497329,0.7638951539993286,-0.011994528584182262,-0.04149910435080528
168.0,147.0,0.3721,0.987,9.4247,-0.0392,0.0128,-0.1413,-2.0909186802306117,-0.0008257763693109155,4.192936420440674,-1.382360816001892,0.013262579217553139,2.0668067932128906,4.9661579606826685,-4.694261951954104e-05,0.28906363248825073,-1.5967100302325647,-1.2219090979128108e-31,-0.0122903510928154,0.22385652363300323,-5.485160733281237e-14,-0.0025749141350388527,0.7638068795204163,-0.012786727398633957,0.010803214274346828
168.0,147.0,0.3721,0.987,9.4247,-0.0392,0.0128,-0.1413,-2.090886732141012,-0.000204707175726071,4.220349311828613,-1.3822369575500488,0.014774071983993053,2.0958304405212402,4.966121899872579,-4.354222255642526e-05,0.27395835518836975,-1.5967181364642542,-3.4012291932288293e-35,-0.005096363369375467,0.22382411360740662,-1.5268147722979313e-17,0.006865041330456734,0.7637431025505066,-0.013794776983559132,0.04187828302383423
168.0,147.0,0.3721,0.987,9.4247,-0.0392,0.0128,-0.1413,-2.0908943615355433,-8.33508966024965e-05,4.184468746185303,-1.3822497129440308,0.015486637130379677,2.1468162536621094,4.966101872711935,-2.08592045964906e-05,0.2699955105781555,-1.5967019240008753,-1.4499973974919274e-37,-0.026675458997488022,0.22385245561599731,-6.50905063596739e-20,0.009942993521690369,0.7636423707008362,-0.013555040583014488,-0.07100843638181686
168.0,147.0,0.3721,0.987,9.4247,-0.0392,0.0128,-0.1413,-2.090870519677633,-1.6599545071827038e-09,4.176530838012695,-1.3820903301239014,0.01765095628798008,2.0976884365081787,4.966109978943624,-1.9421988326939754e-05,0.2780463993549347,-1.5967062155352991,-4.0361599667947706e-41,-0.029033157974481583,0.2239246517419815,-1.8118183351047124e-23,0.017128728330135345,0.7635342478752136,-0.013647787272930145,-0.05922356992959976
168.0,147.0,0.3721,0.987,9.4247,-0.0392,0.0128,-0.1413,-2.0908547840514125,-4.008594434309291e-15,4.180561542510986,-1.3819783926010132,0.018917756155133247,2.1309611797332764,4.966077703028478,-1.8240973076899536e-05,0.2793935239315033,-1.5966857115374964,-1.1210387714598537e-44,-0.000847765477374196,0.22381630539894104,-5.0432632635317485e-27,0.014417264610528946,0.7634746432304382,-0.014362925663590431,-0.003415021114051342
168.0,147.0,0.3721,0.987,9.4247,-0.0392,0.0128,-0.1413,-2.090879102746481,-9.68028387458711e-21,4.212950706481934,-1.381910800933838,0.01972777023911476,2.0894391536712646,4.966109978943624,-3.4385768231004477e-05,0.2897305190563202,-1.5966737906085413,0.0001550226443214342,-0.022483646869659424,0.22390016913414001,-1.4038111828197888e-30,0.006404244340956211,0.7634630799293518,-0.014954311773180962,-0.009456992149353027
168.0,147.0,0.3721,0.987,9.4247,-0.0392,0.0128,-0.1413,-2.0909229717650355,-1.742416640359993e-24,4.239656448364258,-1.3818031549453735,0.02019788697361946,2.118560791015625,4.966109978943624,-4.751824963022955e-05,0.26932814717292786,-1.5966857115374964,0.00014774293231312186,-0.007409181445837021,0.22380812466144562,-5.984666920672845e-33,0.011247169226408005,0.7633988857269287,-0.01506095752120018,-0.07069174945354462
168.0,147.0,0.3721,0.987,9.4247,-0.0392,0.0128,-0.1413,-2.090902944604391,-4.2077311174124685e-30,4.212622165679932,-1.3817355632781982,0.01999053917825222,2.1138110160827637,4.966114061861791,-5.873725967830978e-05,0.28152915835380554,-1.5966737906085413,0.00015959597658365965,-0.01936604455113411,0.22384013235569,-1.6658541079805606e-36,0.01044255681335926,0.7633431553840637,-0.014644816517829895,-0.07606254518032074
168.0,147.0,0.3721,0.987,9.4247,-0.0392,0.0128,-0.1413,-2.0909024677672328,-7.438170723617077e-05,4.212116241455078,-1.3815641403198242,0.01833205111324787,2.1494133472442627,4.966118234186926,-0.00014202427701093256,0.2601817548274994,-1.596694294606344,0.00016955430328380316,-0.00174450664781034,0.22385643422603607,-4.636966683374036e-40,0.034029506146907806,0.7631902694702148,-0.014193730428814888,-0.12918327748775482
168.0,147.0,0.3721,0.987,9.4247,-0.0392,0.0128,-0.1413,-2.0908786259093226,-0.00013552908785641193,4.2218780517578125,-1.3815443515777588,0.016028255224227905,2.1434202194213867,4.96607397773818,-0.00017606887558940798,0.2713804543018341,-1.5966900030719202,0.0001811526744859293,-0.013013136573135853,0.22388413548469543,-1.977232133162317e-42,0.03080987185239792,0.7631827592849731,-0.014134942553937435,-0.12041213363409042
168.0,147.0,0.3721,0.987,9.4247,-0.0392,0.0128,-0.1413,-2.090959211389059,-0.00021451685461215675,4.204551696777344,-1.3813962936401367,0.011662839911878109,2.091848134994507,4.966070312052526,-0.0006509603117592633,0.2715509533882141,-1.596649471913473,0.00017367469263263047,0.002559150569140911,0.2238960564136505,0.0006552484701387584,0.02198779582977295,0.7630948424339294,-0.013691486790776253,-0.17676249146461487
168.0,147.0,0.3721,0.987,9.4247,-0.0392,0.0128,-0.1413,-2.0909186802306117,-0.0002278408210258931,4.209941387176514,-1.381388545036316,0.0073345741257071495,2.114057779312134,4.966057973891058,-0.0005380365182645619,0.2749335467815399,-1.5966456572162073,0.00026109637110494077,-0.0015557196456938982,0.22388781607151031,0.0009244318935088813,0.03646038845181465,0.7629985213279724,-0.013847137801349163,-0.1674460768699646
168.0,147.0,0.3721,0.987,9.4247,-0.0392,0.0128,-0.1413,-2.090954443017477,-0.00021145449136383832,4.233230113983154,-1.3813285827636719,0.004906304180622101,2.1069977283477783,4.966053920775213,-0.0004573800542857498,0.26732614636421204,-1.5966737906085413,0.00027848724857904017,-0.017981762066483498,0.2239406704902649,0.0014161411672830582,0.036970749497413635,0.7629504799842834,-0.014069355092942715,-0.23084087669849396
168.0,147.0,0.3721,0.987,9.4247,-0.0392,0.0128,-0.1413,-2.090954919854635,-0.0004067325789947063,4.192191123962402,-1.3813531398773193,0.0020670003723353148,2.105079412460327,4.966041999846258,-0.00042516292887739837,0.27950960397720337,-1.5966218153582972,0.00024358868540730327,0.00698084756731987,0.22391605377197266,0.0031068073585629463,0.044265665113925934,0.7628945112228394,-0.013967456296086311,-0.22450652718544006
171.0,144.0,-0.3332,0.2124,9.6078,-0.0308,0.0124,-0.124,-2.0909630260863246,-0.000733563385438174,4.224364757537842,-1.381308913230896,0.000382281985366717,2.066837787628174,4.966037887125768,-0.00040422682650387287,0.28162866830825806,-1.5966456572162073,0.0002766569086816162,0.004577839281409979,0.22392389178276062,0.006507610436528921,0.03356197103857994,0.7627979516983032,-0.014179072342813015,-0.20843717455863953
171.0,144.0,-0.3332,0.2124,9.6078,-0.0308,0.0124,-0.124,-2.0909348926939906,-0.0009106748620979488,4.197423934936523,-1.3813250064849854,0.00013407594815362245,2.0846264362335205,4.966062056809225,-0.0003627519472502172,0.2692472040653229,-1.596682373677389,0.00026496348436921835,0.00013110809959471226,0.22396764159202576,0.010265853255987167,0.03180711716413498,0.7627662420272827,-0.013652469031512737,-0.22295278310775757
171.0,144.0,-0.3332,0.2124,9.6078,-0.0308,0.0124,-0.124,-2.090942522088522,-0.0021440538112074137,4.228568077087402,-1.3813531398773193,0.00018524640472605824,2.101151943206787,4.966021972685613,-0.00041561751277185977,0.25406092405319214,-1.596649471913473,0.00023864887771196663,0.008930295705795288,0.22401189804077148,0.00858113169670105,0.04875357449054718,0.7626539468765259,-0.012134402990341187,-0.2771114706993103
171.0,144.0,-0.3332,0.2124,9.6078,-0.0308,0.0124,-0.124,-2.0910068951048792,-0.0032387373503297567,4.192426681518555,-1.3813769817352295,0.00014153197116684169,2.0975029468536377,4.966017800360479,-0.0005971197970211506,0.2636359632015228,-1.5966375509845179,0.00023555438383482397,0.009914721362292767,0.22403597831726074,0.0030831526964902878,0.026061564683914185,0.7626343369483948,-0.010326662100851536,-0.2908211350440979
171.0,144.0,-0.3332,0.2124,9.6078,-0.0308,0.0124,-0.124,-2.09099878887319,-0.004738700110465288,4.174970626831055,-1.381320834159851,0.0001222953578690067,2.0826339721679688,4.966062056809225,-0.0005604378529824317,0.2784542441368103,-1.5967024008380335,0.0002300568448845297,0.01532828900963068,0.22401563823223114,0.001471833442337811,0.056187137961387634,0.7625662684440613,-0.009789487347006798,-0.3134448230266571
171.0,144.0,-0.3332,0.2124,9.6078,-0.0308,0.0124,-0.124,-2.0910145244994105,-0.005709524266421795,4.201040744781494,-1.3813170194625854,0.00010158606892218813,2.0686798095703125,4.966001796513357,-0.0005004878621548414,0.2677191495895386,-1.5966575781451624,0.00019952381262555718,0.0064241159707307816,0.2240394800901413,0.0008614656399004161,0.06279243528842926,0.7625141143798828,-0.008602874353528023,-0.31406497955322266
171.0,144.0,-0.3332,0.2124,9.6078,-0.0308,0.0124,-0.124,-2.091090818444723,-0.006633405108004808,4.2027716636657715,-1.3813450336456299,8.687553781783208e-05,2.0910003185272217,4.966046052962103,-0.0004058251215610653,0.26735055446624756,-1.5966456572162073,0.00017609554925002158,0.026211358606815338,0.22405138611793518,0.0006104992935433984,0.04224320501089096,0.762538492679596,-0.007579690311104059,-0.2817324101924896
171.0,144.0,-0.3332,0.2124,9.6078,-0.0308,0.0124,-0.124,-2.0911270580687464,-0.007007916457951069,4.18212366104126,-1.3813732862472534,7.588691369164735e-05,2.075010061264038,4.966001796513357,-0.0003400752611923963,0.26680415868759155,-1.596682373677389,0.000157591697643511,0.01361039001494646,0.22401966154575348,0.000522496469784528,0.05940945819020271,0.762445867061615,-0.006340129766613245,-0.35323044657707214
171.0,144.0,-0.3332,0.2124,9.6078,-0.0308,0.0124,-0.124,-2.091182848016256,-0.006978129968047142,4.167097091674805,-1.381308913230896,6.998563912929967e-05,2.1074206829071045,4.966062056809225,-0.0003069285012315959,0.2802744209766388,-1.5966456572162073,0.00014727504458278418,-0.0006467390339821577,0.22407588362693787,0.00046977607416920364,0.04300621151924133,0.7623697519302368,-0.005372215993702412,-0.3108147084712982
171.0,144.0,-0.3332,0.2124,9.6078,-0.0308,0.0124,-0.124,-2.0911747417845667,-0.007483752444386482,4.185110092163086,-1.3813450336456299,6.267472053878009e-05,2.09275221824646,4.966062444239416,-0.00026778093888424337,0.2685345411300659,-1.596661392842428,0.00013410678366199136,0.01149089727550745,0.224075585603714,0.00039289670530706644,0.05796314403414726,0.7624305486679077,-0.0034927022643387318,-0.2993510067462921
171.0,144.0,-0.3332,0.2124,9.6078,-0.0308,0.0124,-0.124,-2.0912667713561,-0.007136282976716757,4.143378257751465,-1.3813650608062744,5.67468669032678e-05,2.0750348567962646,4.966010081558981,-0.00023749127285555005,0.2650090157985687,-1.5966656843768519,0.00012310002057347447,0.005715617910027504,0.2240595668554306,0.0002272777637699619,0.04829882085323334,0.7623783349990845,-0.0021465164609253407,-0.3123784065246582
171.0,144.0,-0.3332,0.2124,9.6078,-0.0308,0.0124,-0.124,-2.0912667713561,-0.006475567352026701,4.113587856292725,-1.3813610076904297,5.338101618690416e-05,2.1159262657165527,4.966042059450903,-0.0002518313121981919,0.2724776268005371,-1.5966780821429651,0.00011671409447444603,-0.006497138179838657,0.2240796834230423,0.00023819945636205375,0.05378231033682823,0.7624063491821289,-0.0013655914226546884,-0.33732175827026367
171.0,144.0,-0.3332,0.2124,9.6078,-0.0308,0.0124,-0.124,-2.0913435421385707,-0.006365365814417601,4.136794567108154,-1.3813610076904297,4.901981810689904e-05,2.100590229034424,4.966013717442312,-0.00022836845892015845,0.2800617516040802,-1.5966780821429651,0.00010828776430571452,0.011206637136638165,0.22408367693424225,0.00028064308571629226,0.051184140145778656,0.762374222278595,-0.0009988406673073769,-0.26488474011421204
171.0,144.0,-0.3332,0.2124,9.6078,-0.0308,0.0124,-0.124,-2.0913592777647914,-0.006739589385688305,4.1469316482543945,-1.3813409805297852,4.531739978119731e-05,2.102931499481201,4.966034310847082,-0.00015958191943354905,0.2727969288825989,-1.5966132322894495,0.00010099627252202481,0.013424317352473736,0.22409194707870483,0.0006488098879344761,0.06243289262056351,0.7623664140701294,-0.0007940679206512868,-0.35707616806030273
171.0,144.0,-0.3332,0.2124,9.6078,-0.0308,0.0124,-0.124,-2.091358800927633,-0.006400923244655132,4.129718780517578,-1.3813490867614746,4.314490070100874e-05,2.0656282901763916,4.966050314694204,-0.0001459653431084007,0.26458725333213806,-1.5966861883746546,9.665735706221312e-05,0.004769839346408844,0.22405549883842468,0.0008291348349303007,0.05592791736125946,0.7623380422592163,-0.0011088248575106263,-0.2511986792087555
171.0,144.0,-0.3332,0.2124,9.6078,-0.0308,0.0124,-0.124,-2.0914107761778773,-0.0058248634450137615,4.140928745269775,-1.3813409805297852,4.02505902457051e-05,2.07080078125,4.966086286097326,-0.00015957797586452216,0.29115426540374756,-1.5966580549823206,9.080588642973453e-05,-0.016380423679947853,0.22411569952964783,0.0014451538445428014,0.05186327546834946,0.7623543739318848,-0.001758633297868073,-0.2676689624786377
171.0,144.0,-0.3332,0.2124,9.6078,-0.0308,0.0124,-0.124,-2.0914794407286585,-0.004305269569158554,4.080294132232666,-1.3813450336456299,3.7720197724411264e-05,2.1524059772491455,4.966037976532736,-0.0001830122055253014,0.2610364556312561,-1.596661392842428,8.562240691389889e-05,-0.007779979612678289,0.22406317293643951,0.0013576088240370154,0.06116863712668419,0.7623222470283508,-0.0017693951958790421,-0.2696838676929474
172.0,143.0,-0.2967,0.3793,9.7137,-0.048,0.0153,-0.122,-2.0914508304991664,-0.003701508743688464,4.163405418395996,-1.381393313407898,3.6202902265358716e-05,2.079254150390625,4.966005968838491,-0.0001857249008025974,0.259131520986557,-1.5966861883746546,6.654398748651147e-05,-0.015520366840064526,0.2241034209728241,0.0012723085237666965,0.06019999831914902,0.7623625993728638,-0.0017285050125792623,-0.23413488268852234
172.0,143.0,-0.2967,0.3793,9.7137,-0.048,0.0153,-0.122,-2.0914913616576136,-0.002881291788071394,4.123468399047852,-1.3813371658325195,4.921784420730546e-05,2.1191415786743164,4.966066646366873,-0.000386184110539034,0.26036661863327026,-1.596661392842428,6.254746404010803e-05,-0.022142568603157997,0.22404322028160095,0.0012239816132932901,0.06578923761844635,0.7623543739318848,-0.001424754853360355,-0.21318727731704712
172.0,143.0,-0.2967,0.3793,9.7137,-0.048,0.0153,-0.122,-2.09148707012319,-0.002564801834523678,4.121999740600586,-1.3813450336456299,4.845677176490426e-05,2.1112046241760254,4.966001975327291,-0.00037179311038926244,0.2580086886882782,-1.5966251532184046,5.9448670072015375e-05,-0.020013093948364258,0.22415176033973694,0.001206753309816122,0.06834849715232849,0.76231849193573,-0.0010093655437231064,-0.19753772020339966
172.0,143.0,-0.2967,0.3793,9.7137,-0.048,0.0153,-0.122,-2.0915352306761683,-0.0021958528086543083,4.151135444641113,-1.3813331127166748,4.5981159928487614e-05,2.0688822269439697,4.965973603516378,-0.00036086858017370105,0.272457480430603,-1.5966251532184046,5.664255149895325e-05,-0.018294677138328552,0.2241276055574417,0.0011384888784959912,0.07634904980659485,0.7623144388198853,-0.0007554680923931301,-0.2469843178987503
172.0,143.0,-0.2967,0.3793,9.7137,-0.048,0.0153,-0.122,-2.091518541375631,-0.0019714697264134884,4.147669792175293,-1.3813409805297852,5.928608152316883e-05,2.1528263092041016,4.966001975327291,-0.0004093661846127361,0.24549078941345215,-1.5966251532184046,5.491443880600855e-05,-0.022037683054804802,0.22413158416748047,0.0010878535686060786,0.07402195036411285,0.7623344659805298,-0.0006961580365896225,-0.2328457236289978
172.0,143.0,-0.2967,0.3793,9.7137,-0.048,0.0153,-0.122,-2.0914985142149867,-0.0016714726807549596,4.16124153137207,-1.3813453912734985,5.649755985359661e-05,2.059357166290283,4.9660223601158044,-0.0004362315812613815,0.25364023447036743,-1.5966413656817835,5.25114155607298e-05,-0.015634823590517044,0.22409558296203613,0.0010393218835815787,0.08734343945980072,0.76231849193573,-0.00045295103336684406,-0.20227229595184326
172.0,143.0,-0.2967,0.3793,9.7137,-0.048,0.0153,-0.122,-2.091506620446676,-0.001649778219871223,4.136916637420654,-1.3813329935073853,2.8182625101180747e-05,2.087587356567383,4.966042446881094,-0.0005196460406295955,0.2533409595489502,-1.5966656843768519,5.0309889047639444e-05,-0.012342705391347408,0.2241111695766449,0.000975447881501168,0.08052832633256912,0.7623304128646851,-0.00047862427891232073,-0.2613333463668823
172.0,143.0,-0.2967,0.3793,9.7137,-0.048,0.0153,-0.122,-2.091522832910055,-0.0016406045760959387,4.122760772705078,-1.3813413381576538,2.7322406822349876e-05,2.112844228744507,4.9660464999969385,-0.0006735454662702978,0.26024287939071655,-1.5966699759112757,4.894197263638489e-05,-0.022009167820215225,0.2240951508283615,0.0008952305070124567,0.09168447554111481,0.762282133102417,-0.0004817356530111283,-0.25381195545196533
172.0,143.0,-0.2967,0.3793,9.7137,-0.048,0.0153,-0.122,-2.0915633640685023,-0.0016539504285901785,4.173235893249512,-1.381300449371338,3.9191567339003086e-05,2.079378128051758,4.965997803002157,-0.000851897697430104,0.24988865852355957,-1.5966218153582972,4.702408114098944e-05,-0.018770061433315277,0.22421978414058685,0.0007959849899634719,0.06629777699708939,0.7623386383056641,-0.000591378309763968,-0.2496197521686554
172.0,143.0,-0.2967,0.3793,9.7137,-0.048,0.0153,-0.122,-2.0915714703001917,-0.002023149048909545,4.147314548492432,-1.3814013004302979,3.756266596610658e-05,2.114086627960205,4.966001975327291,-0.0006584374350495636,0.2553243041038513,-1.5966656843768519,1.4575641216652002e-05,-0.005406534299254417,0.22412344813346863,0.000713303976226598,0.09187474846839905,0.7622823715209961,-0.0009158985922113061,-0.26271575689315796
172.0,143.0,-0.2967,0.3793,9.7137,-0.048,0.0153,-0.122,-2.091506620446676,-0.0021495528053492308,4.126855373382568,-1.3813774585723877,3.6545850889524445e-05,2.099365711212158,4.965990054398336,-0.0006812135106883943,0.2529091238975525,-1.5966294447528284,1.405475995852612e-05,-0.017651619389653206,0.2241513431072235,0.0006500036106444895,0.06352929770946503,0.7622985243797302,-0.0009525144123472273,-0.22388312220573425
172.0,143.0,-0.2967,0.3793,9.7137,-0.048,0.0153,-0.122,-2.0916196308531703,-0.0027323917020112276,4.108560085296631,-1.381373405456543,4.682612052420154e-05,2.0954627990722656,4.965997803002157,-0.0005819660145789385,0.2741929888725281,-1.5966299215899866,1.342550604022108e-05,-0.011882374994456768,0.22413533926010132,0.0006155865266919136,0.06874833256006241,0.7623103857040405,-0.0018613676074892282,-0.2916972041130066
172.0,143.0,-0.2967,0.3793,9.7137,-0.048,0.0153,-0.122,-2.091611524621481,-0.0028787623159587383,4.147252082824707,-1.3814053535461426,4.506775803747587e-05,2.103951930999756,4.965978133469381,-0.0005218674195930362,0.2620696723461151,-1.5966218153582972,1.2850427992816549e-05,0.00262377574108541,0.2241431027650833,0.000487917655846104,0.08454392105340958,0.7622905373573303,-0.0028821679297834635,-0.30294686555862427
172.0,143.0,-0.2967,0.3793,9.7137,-0.048,0.0153,-0.122,-2.091619154016012,-0.0033282062504440546,4.1191911697387695,-1.3813046216964722,4.3966982048004866e-05,2.1396830081939697,4.965933519392767,-0.0005114434752613306,0.2575424313545227,-1.5966294447528284,1.2493661415646784e-05,-0.002339734463021159,0.22418734431266785,0.0003906250058207661,0.08116163313388824,0.762230396270752,-0.0035275931004434824,-0.3261546790599823
172.0,143.0,-0.2967,0.3793,9.7137,-0.048,0.0153,-0.122,-2.09167542080068,-0.0037325939629226923,4.114082336425781,-1.3813450336456299,4.241303395247087e-05,2.0949573516845703,4.965962129622259,-0.0005459390813484788,0.25580909848213196,-1.5966218153582972,1.1994153283012565e-05,-0.0049400487914681435,0.2241714596748352,0.0003711918252520263,0.09242936968803406,0.762214183807373,-0.004749577026814222,-0.33180493116378784
172.0,143.0,-0.2967,0.3793,9.7137,-0.048,0.0153,-0.122,-2.0916549168028773,-0.003936071880161762,4.107011795043945,-1.3813409805297852,4.0965183870866895e-05,2.109546661376953,4.965974050551214,-0.0005587076884694397,0.24622750282287598,-1.5966499487506312,1.1533058568602428e-05,0.00031737866811454296,0.22415541112422943,0.00035590797779150307,0.08056985586881638,0.7621658444404602,-0.005399125628173351,-0.3429303765296936
172.0,143.0,-0.2967,0.3793,9.7137,-0.048,0.0153,-0.122,-2.091671129266256,-0.0039519090205430984,4.077713966369629,-1.381365180015564,4.005364826298319e-05,2.086203098297119,4.965949880867758,-0.0006142545607872307,0.25387299060821533,-1.5966375509845179,2.2392765458789654e-05,0.013027261942625046,0.22418378293514252,0.0003451094089541584,0.07816211879253387,0.7621743679046631,-0.006560636218637228,-0.332131028175354
167.0,143.0,-0.6054,0.5312,10.2784,-0.024,0.0063,-0.1151,-2.0916949711241664,-0.00426560640335083,4.0592265129089355,-1.3813005685806274,2.4332635906176847e-09,2.066591262817383,4.966001975327291,-0.0006893687532283366,0.2622208595275879,-1.596593205128805,2.1677189579349943e-05,0.011569883674383163,0.22416360676288605,0.000319599115755409,0.08753979951143265,0.7621303200721741,-0.006688771769404411,-0.3458430767059326
167.0,143.0,-0.6054,0.5312,10.2784,-0.024,0.0063,-0.1151,-2.091743608514303,-0.00428577559068799,4.094668865203857,-1.3812810182571411,5.8760458555384785e-15,2.1204395294189453,4.96593804934577,-0.0008875361527316272,0.2558039724826813,-1.5966218153582972,3.00190022244351e-05,0.008197527378797531,0.22414715588092804,0.000282038381556049,0.07167477905750275,0.7621186375617981,-0.006456898525357246,-0.4042564034461975
167.0,143.0,-0.6054,0.5312,10.2784,-0.024,0.0063,-0.1151,-2.0917874775328578,-0.0039071692153811455,4.065171718597412,-1.3813453912734985,1.4189957059746143e-20,2.088989496231079,4.9659741697605035,-0.0011430057929828763,0.26476821303367615,-1.5966299215899866,3.032429412996862e-05,0.007796899881213903,0.22416317462921143,0.00023471377789974213,0.08048523962497711,0.762046217918396,-0.007025555241852999,-0.3938310146331787
167.0,143.0,-0.6054,0.5312,10.2784,-0.024,0.0063,-0.1151,-2.0917469463744105,-0.0033673092257231474,4.091465950012207,-1.3813610076904297,0.00011502857523737475,2.1183581352233887,4.965954053192892,-0.0012411712668836117,0.25696995854377747,-1.596638027821676,7.620317774126306e-06,0.008713537827134132,0.22420373558998108,0.00021252759324852377,0.0823129266500473,0.7620464563369751,-0.007025977596640587,-0.4025329351425171
