ramyac6/ROB537/final_project/csv/good/good_24.csv
tof_0,tof_1,accelx,accely,accelz,gyrox,gyroy,gyroz,shoulder_lift_joint_position,shoulder_lift_joint_velocity,shoulder_lift_joint_effort,elbow_joint_position,elbow_joint_velocity,elbow_joint_effort,wrist_1_joint_position,wrist_1_joint_velocity,wrist_1_joint_effort,wrist_2_joint_position,wrist_2_joint_velocity,wrist_2_joint_effort,wrist_3_joint_position,wrist_3_joint_velocity,wrist_3_joint_effort,shoulder_pan_joint_position,shoulder_pan_joint_velocity,shoulder_pan_joint_effort
274.0,540.0,-3.8429,0.9123,8.9486,-0.0368,0.0231,-0.1122,-2.1974555454649867,0.0,4.371123790740967,-1.5109658241271973,-0.0,1.880601406097412,5.5639874813850305,-0.0,0.24210216104984283,-1.7459881941424769,-0.0,0.005593787878751755,0.5002322196960449,0.0,-0.008627617731690407,1.1081554889678955,0.0,-0.023925310000777245
274.0,540.0,-3.8429,0.9123,8.9486,-0.0368,0.0231,-0.1122,-2.1974436245360316,0.0,4.3783063888549805,-1.5109333992004395,-0.0,1.8769370317459106,5.56402342298583,-0.0,0.23162318766117096,-1.7459595839129847,-0.0,0.014473098330199718,0.5002281665802002,0.0,0.004830631427466869,1.1081875562667847,0.0,0.01740310899913311
274.0,540.0,-3.8429,0.9123,8.9486,-0.0368,0.0231,-0.1122,-2.1974436245360316,0.0,4.3310418128967285,-1.510941505432129,-0.0,1.8225646018981934,5.563951182156362,-0.0,0.23967283964157104,-1.7459881941424769,-0.0,0.0035955572966486216,0.5002281665802002,0.0,-0.000626399414613843,1.1082038879394531,0.0,-0.010615254752337933
274.0,540.0,-3.8429,0.9123,8.9486,-0.0368,0.0231,-0.1122,-2.197435518304342,0.0,4.3945231437683105,-1.5108933448791504,-0.0,1.8710858821868896,5.563955235272207,-0.0,0.23247964680194855,-1.7459843794452112,-0.0,0.016539599746465683,0.5002081394195557,0.0,-0.00536450045183301,1.1082477569580078,0.0,0.018240582197904587
274.0,540.0,-3.8429,0.9123,8.9486,-0.0368,0.0231,-0.1122,-2.197407384912008,0.0,4.345857620239258,-1.5109779834747314,-0.0,1.8226227760314941,5.5640397546584985,-0.0,0.23222464323043823,-1.7459877173053187,-0.0,0.0026958640664815903,0.5002281665802002,0.0,0.005508460104465485,1.1082121133804321,0.0,-0.021247273311018944
274.0,540.0,-3.8429,0.9123,8.9486,-0.0368,0.0231,-0.1122,-2.1974393330016078,0.0,4.368960380554199,-1.5109535455703735,-0.0,1.8668758869171143,5.563951182156362,-0.0,0.23028871417045593,-1.7460201422320765,-0.0,0.008648959919810295,0.5002765655517578,0.0,-0.009231649339199066,1.1082239151000977,0.0,0.08195804804563522
274.0,540.0,-3.8429,0.9123,8.9486,-0.0368,0.0231,-0.1122,-2.197411199609274,0.0,4.370876789093018,-1.5109015703201294,-0.0,1.8488712310791016,5.563975560456075,-0.0,0.23250934481620789,-1.745971981679098,-0.0,0.0006315408973023295,0.5002241134643555,0.0,0.009262851439416409,1.108231782913208,0.0,-0.026679113507270813
274.0,516.0,-3.8632,0.944,8.9581,-0.0315,0.0279,-0.12,-2.1974674663939417,0.0,4.351199150085449,-1.5109176635742188,-0.0,1.8229631185531616,5.563975560456075,-0.0,0.22977015376091003,-1.7459881941424769,-0.0,0.020113831385970116,0.5002163052558899,0.0,0.01020080130547285,1.1082239151000977,0.0,0.03077849932014942
274.0,516.0,-3.8632,0.944,8.9581,-0.0315,0.0279,-0.12,-2.1974150143065394,0.0,4.398089408874512,-1.5109295845031738,-0.0,1.8227176666259766,5.563955235272207,-0.0,0.22380805015563965,-1.7459552923785608,-0.0,-0.005506432615220547,0.5001958012580872,0.0,0.017926394939422607,1.1082721948623657,0.0,0.05406904220581055
274.0,516.0,-3.8632,0.944,8.9581,-0.0315,0.0279,-0.12,-2.1974593601622523,0.0,4.383668422698975,-1.5109015703201294,-0.0,1.8355461359024048,5.563931453018942,-0.0,0.2400602400302887,-1.745983902608053,-0.0,0.0020958776585757732,0.5002322793006897,0.0,0.003971593454480171,1.1081715822219849,0.0,-0.009470129385590553
274.0,516.0,-3.8632,0.944,8.9581,-0.0315,0.0279,-0.12,-2.1973911724486292,0.0,4.382857799530029,-1.5109615325927734,-0.0,1.8672282695770264,5.563983428269186,-0.0,0.23230037093162537,-1.7460158506976526,-0.0,0.002197680529206991,0.5001638531684875,0.0,0.001292801694944501,1.1081798076629639,0.0,-0.00837045256048441
274.0,516.0,-3.8632,0.944,8.9581,-0.0315,0.0279,-0.12,-2.1974197826781214,0.0,4.395532608032227,-1.5109295845031738,-0.0,1.8101916313171387,5.563963401108541,-0.0,0.2179655134677887,-1.745971981679098,-0.0,0.0012376124504953623,0.5002163052558899,0.0,0.0036824995186179876,1.108228087425232,0.0,0.028542736545205116
274.0,516.0,-3.8632,0.944,8.9581,-0.0315,0.0279,-0.12,-2.197447439233297,0.0,4.363624095916748,-1.510893702507019,-0.0,1.866980791091919,5.5639874813850305,-0.0,0.23526331782341003,-1.7459762732135218,-0.0,0.01672481931746006,0.500236451625824,0.0,-0.0036904076114296913,1.1082117557525635,0.0,-0.01340665202587843
274.0,516.0,-3.8632,0.944,8.9581,-0.0315,0.0279,-0.12,-2.1974197826781214,0.0,4.384758949279785,-1.510941505432129,-0.0,1.823314905166626,5.563995647221365,-0.0,0.23853352665901184,-1.7459762732135218,-0.0,0.0009165550582110882,0.5002847909927368,0.0,0.004903415217995644,1.1081997156143188,0.0,0.008621260523796082
274.0,516.0,-3.8632,0.944,8.9581,-0.0315,0.0279,-0.12,-2.1974197826781214,0.0,4.365051746368408,-1.5109493732452393,-0.0,1.8261268138885498,5.563943314343252,-0.0,0.23693497478961945,-1.7459963003741663,-0.0,0.009347161278128624,0.5002158880233765,0.0,0.0010150761809200048,1.1081916093826294,0.0,0.0007290653884410858
274.0,516.0,-3.8632,0.944,8.9581,-0.0315,0.0279,-0.12,-2.197447439233297,0.0,4.35917329788208,-1.5109812021255493,-0.0,1.8623299598693848,5.563979673176565,-0.0,0.21602913737297058,-1.7459524313556116,-0.0,-0.0011929110623896122,0.5002322196960449,0.0,-0.0026235119439661503,1.1081956624984741,0.0,-0.00899921078234911
274.0,516.0,-3.8632,0.944,8.9581,-0.0315,0.0279,-0.12,-2.197423597375387,0.0,4.355847358703613,-1.510945439338684,-0.0,1.810041904449463,5.563955235272207,-0.0,0.2199341058731079,-1.7459676901446741,-0.0,0.009301289916038513,0.5002002716064453,0.0,0.0005155270919203758,1.108219861984253,0.0,-0.01980496570467949
274.0,516.0,-3.8632,0.944,8.9581,-0.0315,0.0279,-0.12,-2.1973873577513636,0.0,4.379769325256348,-1.511009931564331,-0.0,1.8356280326843262,5.56400744894103,-0.0,0.22294370830059052,-1.7459676901446741,-0.0,0.014989958144724369,0.5001838803291321,0.0,0.0076115974225103855,1.1081916093826294,0.0,0.03809946030378342
274.0,516.0,-3.8632,0.944,8.9581,-0.0315,0.0279,-0.12,-2.197447439233297,0.0,4.362507343292236,-1.5109615325927734,-0.0,1.838862419128418,5.5639192936714075,-0.0,0.2437799870967865,-1.746012036000387,-0.0,0.004370669834315777,0.500252366065979,0.0,-0.0014878318179398775,1.1081916093826294,0.0,-0.011070526205003262
268.0,534.0,-3.9135,0.8979,9.0628,-0.0382,0.0205,-0.117,-2.1974274120726527,0.0,4.363705158233643,-1.5109374523162842,-0.0,1.830531120300293,5.563963401108541,-0.0,0.22880816459655762,-1.7460039297686976,-0.0,0.013020899146795273,0.5002322196960449,0.0,-0.0042477562092244625,1.1082038879394531,0.0,0.018264245241880417
268.0,534.0,-3.9135,0.8979,9.0628,-0.0382,0.0205,-0.117,-2.197407384912008,0.0,4.394397735595703,-1.5109894275665283,-0.0,1.8642802238464355,5.56400756815032,-0.0,0.23365405201911926,-1.7459514776812952,-0.0,0.01226938795298338,0.5002200603485107,0.0,-0.003799367230385542,1.1081997156143188,0.0,-0.020522652193903923
268.0,534.0,-3.9135,0.8979,9.0628,-0.0382,0.0205,-0.117,-2.197423597375387,0.0,4.379899501800537,-1.510945439338684,-0.0,1.839069128036499,5.563971507340231,-0.0,0.22304771840572357,-1.745971981679098,-0.0,0.006580138113349676,0.5002482533454895,0.0,0.007478892803192139,1.1082239151000977,0.0,0.029719799757003784
268.0,534.0,-3.9135,0.8979,9.0628,-0.0382,0.0205,-0.117,-2.1974317036070765,0.0,4.351406097412109,-1.5109779834747314,-0.0,1.8362107276916504,5.5639474270637415,-0.0,0.2325744479894638,-1.745971981679098,-0.0,0.008949782699346542,0.5002118349075317,0.0,-0.0036790897138416767,1.1082600355148315,0.0,-0.014562245458364487
268.0,534.0,-3.9135,0.8979,9.0628,-0.0382,0.0205,-0.117,-2.197407384912008,0.0,4.380478382110596,-1.510961890220642,-0.0,1.8408417701721191,5.56399159410552,-0.0,0.22707083821296692,-1.7459514776812952,-0.0,0.016080372035503387,0.5001842975616455,0.0,0.017086496576666832,1.108240008354187,0.0,0.006120034493505955
268.0,534.0,-3.9135,0.8979,9.0628,-0.0382,0.0205,-0.117,-2.1974197826781214,0.0,4.370169162750244,-1.5109214782714844,-0.0,1.8247942924499512,5.563967454224386,-0.0,0.23190820217132568,-1.7459877173053187,-0.0,0.008161034435033798,0.5001998543739319,0.0,-0.0049135638400912285,1.1082682609558105,0.0,-0.02187514491379261
268.0,534.0,-3.9135,0.8979,9.0628,-0.0382,0.0205,-0.117,-2.1974274120726527,0.0,4.347879886627197,-1.5109214782714844,-0.0,1.8331809043884277,5.563951182156362,-0.0,0.22502225637435913,-1.7459762732135218,-0.0,-0.002474841196089983,0.5002122521400452,0.0,0.011620530858635902,1.108251929283142,0.0,-0.025651024654507637
268.0,534.0,-3.9135,0.8979,9.0628,-0.0382,0.0205,-0.117,-2.197423597375387,0.0,4.389004707336426,-1.5109455585479736,-0.0,1.8211820125579834,5.5639997003372095,-0.0,0.22974839806556702,-1.745971981679098,-0.0,0.006357114762067795,0.5002200603485107,0.0,0.004169824533164501,1.1082158088684082,0.0,-0.00589222926646471
268.0,534.0,-3.9135,0.8979,9.0628,-0.0382,0.0205,-0.117,-2.1974274120726527,0.0,4.376543998718262,-1.5109055042266846,-0.0,1.8566184043884277,5.5639392016227625,-0.0,0.2314079999923706,-1.7459676901446741,-0.0,-0.0003369498299434781,0.5002564787864685,0.0,0.010474180802702904,1.1082038879394531,0.0,-0.017728928476572037
268.0,534.0,-3.9135,0.8979,9.0628,-0.0382,0.0205,-0.117,-2.197435518304342,0.0,4.396858215332031,-1.5109575986862183,-0.0,1.8372502326965332,5.563943314343252,-0.0,0.22417134046554565,-1.7460039297686976,-0.0,0.006379786878824234,0.5001998543739319,0.0,0.001606831792742014,1.108231782913208,0.0,-0.0392933115363121
268.0,534.0,-3.9135,0.8979,9.0628,-0.0382,0.0205,-0.117,-2.1974274120726527,0.0,4.362807750701904,-1.5109779834747314,-0.0,1.8415305614471436,5.563991534500875,-0.0,0.22443298995494843,-1.7459552923785608,-0.0,0.004239273723214865,0.5002486705780029,0.0,-0.00546718155965209,1.108219861984253,0.0,-0.00522744981572032
268.0,534.0,-3.9135,0.8979,9.0628,-0.0382,0.0205,-0.117,-2.197411199609274,0.0,4.399386405944824,-1.510941505432129,-0.0,1.846988320350647,5.563959288388052,-0.0,0.22883881628513336,-1.7459595839129847,-0.0,0.016455236822366714,0.5002928972244263,0.0,0.001196634373627603,1.1081714630126953,0.0,0.011237332597374916
270.0,542.0,-3.8704,0.9224,9.0132,-0.037,0.0263,-0.1211,-2.1974674663939417,0.0,4.344958782196045,-1.5109174251556396,-0.0,1.8786191940307617,5.56398372629241,-0.0,0.22091302275657654,-1.7459319273578089,-0.0,-0.0017070281319320202,0.5001880526542664,0.0,-0.011993194930255413,1.1081756353378296,0.0,0.00790888350456953
270.0,542.0,-3.8704,0.9224,9.0132,-0.037,0.0263,-0.1211,-2.197423597375387,0.0,4.402629852294922,-1.5109575986862183,-0.0,1.8896794319152832,5.563971507340231,-0.0,0.23820044100284576,-1.7460358778582972,-0.0,0.009871302172541618,0.5002487301826477,0.0,0.0031136616598814726,1.1081793308258057,0.0,-0.011229142546653748
270.0,542.0,-3.8704,0.9224,9.0132,-0.037,0.0263,-0.1211,-2.197423597375387,0.0,4.397076606750488,-1.5109494924545288,-0.0,1.8457164764404297,5.564015674382009,-0.0,0.23024806380271912,-1.7459762732135218,-0.0,0.008653555065393448,0.5002765655517578,0.0,0.00514355069026351,1.1082074642181396,0.0,-0.023137858137488365
270.0,542.0,-3.8704,0.9224,9.0132,-0.037,0.0263,-0.1211,-2.197423597375387,0.0,4.422511577606201,-1.510913610458374,-0.0,1.8836965560913086,5.563975560456075,-0.0,0.23358988761901855,-1.7460163275348108,-0.0,-0.002073165960609913,0.5002400279045105,0.0,0.0027060359716415405,1.1081957817077637,0.0,0.02417953684926033
270.0,542.0,-3.8704,0.9224,9.0132,-0.037,0.0263,-0.1211,-2.197371622125143,0.0,4.379122734069824,-1.5109813213348389,-0.0,1.81449556350708,5.563971507340231,-0.0,0.24197813868522644,-1.745971981679098,-0.0,0.0028612297028303146,0.5001999139785767,0.0,-0.012710166163742542,1.108223557472229,0.0,-0.0072351484559476376
270.0,542.0,-3.8704,0.9224,9.0132,-0.037,0.0263,-0.1211,-2.1974030933775843,0.0,4.3916449546813965,-1.5109933614730835,-0.0,1.8526629209518433,5.563979673176565,-0.0,0.22625890374183655,-1.745971981679098,-0.0,-0.0029279894661158323,0.5001999139785767,0.0,-0.0017064062412828207,1.1082158088684082,0.0,-0.001877378672361374
270.0,542.0,-3.8704,0.9224,9.0132,-0.037,0.0263,-0.1211,-2.1973992786803187,0.0,4.38535213470459,-1.5108896493911743,-0.0,1.8886147737503052,5.563967454224386,-0.0,0.22255556285381317,-1.746000115071432,-0.0,3.989203833043575e-05,0.5002524256706238,0.0,0.006950136739760637,1.1082239151000977,0.0,-0.01927516609430313
270.0,542.0,-3.8704,0.9224,9.0132,-0.037,0.0263,-0.1211,-2.1974154911436976,0.0,4.41070556640625,-1.5109336376190186,-0.0,1.8748881816864014,5.563983428269186,-0.0,0.23030756413936615,-1.746000115071432,-0.0,0.008601294830441475,0.5002483129501343,0.0,0.0012884989846497774,1.1082441806793213,0.0,0.003840093268081546
270.0,542.0,-3.8704,0.9224,9.0132,-0.037,0.0263,-0.1211,-2.1974274120726527,0.0,4.372416973114014,-1.510961890220642,-0.0,1.8062694072723389,5.563971507340231,-0.0,0.23472243547439575,-1.746012036000387,-0.0,-0.0005929674953222275,0.5002281665802002,0.0,0.01273746695369482,1.1082477569580078,0.0,-0.007836857810616493
270.0,542.0,-3.8704,0.9224,9.0132,-0.037,0.0263,-0.1211,-2.1974436245360316,0.0,4.324213027954102,-1.510993480682373,-0.0,1.8670713901519775,5.563979673176565,-0.0,0.22969570755958557,-1.7460201422320765,-0.0,0.0014600985450670123,0.5001998543739319,0.0,-0.006891635246574879,1.108231782913208,0.0,-0.010795922949910164
270.0,542.0,-3.8704,0.9224,9.0132,-0.037,0.0263,-0.1211,-2.1973873577513636,0.0,4.337893486022949,-1.5109772682189941,-0.0,1.858522653579712,5.563931453018942,-0.0,0.23032759130001068,-1.7459357420550745,-0.0,0.01040384266525507,0.5002081394195557,0.0,-0.005084776319563389,1.108219861984253,0.0,-0.011931129731237888
270.0,542.0,-3.8704,0.9224,9.0132,-0.037,0.0263,-0.1211,-2.1974274120726527,0.0,4.400121688842773,-1.5109615325927734,-0.0,1.8510993719100952,5.563955235272207,-0.0,0.23033428192138672,-1.7459762732135218,-0.0,0.01296162512153387,0.5002405047416687,0.0,0.0030796059872955084,1.1082038879394531,0.0,-0.02150614559650421
273.0,527.0,-3.938,0.9434,8.9533,-0.0351,0.0316,-0.1161,-2.197411199609274,0.0,4.372641563415527,-1.5109333992004395,-0.0,1.8190374374389648,5.563975560456075,-0.0,0.21614477038383484,-1.7459676901446741,-0.0,0.01080459076911211,0.5002040863037109,0.0,-0.002327283378690481,1.108219861984253,0.0,-0.060964010655879974
273.0,527.0,-3.938,0.9434,8.9533,-0.0351,0.0316,-0.1161,-2.197475095788473,0.0,4.344783306121826,-1.510925531387329,-0.0,1.8499305248260498,5.564007508545675,-0.0,0.2374778538942337,-1.745971981679098,-0.0,0.006996015086770058,0.5002040266990662,0.0,0.0019331765361130238,1.1081997156143188,0.0,0.07729208469390869
273.0,527.0,-3.938,0.9434,8.9533,-0.0351,0.0316,-0.1161,-2.197423597375387,0.0,4.360842704772949,-1.5109493732452393,-0.0,1.8242793083190918,5.563971507340231,-0.0,0.2257245033979416,-1.7459843794452112,-0.0,0.015685584396123886,0.5002163052558899,0.0,0.01336670946329832,1.1081916093826294,0.0,-0.015029996633529663
273.0,527.0,-3.938,0.9434,8.9533,-0.0351,0.0316,-0.1161,-2.1973992786803187,0.0,4.437077522277832,-1.5109455585479736,-0.0,1.8845205307006836,5.563931453018942,-0.0,0.23890775442123413,-1.7459796110736292,-0.0,0.007209690287709236,0.500284731388092,0.0,-0.010160489939153194,1.108251929283142,0.0,0.02549642324447632
273.0,527.0,-3.938,0.9434,8.9533,-0.0351,0.0316,-0.1161,-2.1973992786803187,0.0,4.363836288452148,-1.5109655857086182,-0.0,1.8257436752319336,5.5639511225517175,-0.0,0.2293042540550232,-1.7459357420550745,-0.0,0.008420332334935665,0.5002158284187317,0.0,-0.0003973853890784085,1.1082239151000977,0.0,-0.012661745771765709
273.0,527.0,-3.938,0.9434,8.9533,-0.0351,0.0316,-0.1161,-2.1974274120726527,0.0,4.411343097686768,-1.5109813213348389,-0.0,1.857024908065796,5.563975560456075,-0.0,0.21671319007873535,-1.7459552923785608,-0.0,0.010085724294185638,0.5002401471138,0.0,-0.00532887689769268,1.108240008354187,0.0,0.016446759924292564
273.0,527.0,-3.938,0.9434,8.9533,-0.0351,0.0316,-0.1161,-2.197435518304342,0.0,4.403511047363281,-1.510969877243042,-0.0,1.8412714004516602,5.563943314343252,-0.0,0.22090719640254974,-1.745971981679098,-0.0,0.009266016073524952,0.5002605319023132,0.0,0.006555843632668257,1.1081591844558716,0.0,-0.01832026243209839
273.0,527.0,-3.938,0.9434,8.9533,-0.0351,0.0316,-0.1161,-2.1974393330016078,0.0,4.346790313720703,-1.5109575986862183,-0.0,1.8297860622406006,5.563975560456075,-0.0,0.22604647278785706,-1.7459595839129847,-0.0,0.00987904891371727,0.5002040863037109,0.0,-0.0014926322037354112,1.108211636543274,0.0,0.02607935667037964
273.0,527.0,-3.938,0.9434,8.9533,-0.0351,0.0316,-0.1161,-2.197379251519674,0.0,4.385114669799805,-1.5109374523162842,-0.0,1.8469254970550537,5.563939261227407,-0.0,0.2267250418663025,-1.745971981679098,-0.0,-0.004134774208068848,0.5001556873321533,0.0,0.003553942311555147,1.1081833839416504,0.0,-0.05010388791561127
273.0,527.0,-3.938,0.9434,8.9533,-0.0351,0.0316,-0.1161,-2.1973635158934535,0.0,4.375649929046631,-1.5109095573425293,-0.0,1.8821947574615479,5.563975560456075,-0.0,0.23514115810394287,-1.7459638754474085,-0.0,0.014012163504958153,0.5002241730690002,0.0,0.01900073140859604,1.108260154724121,0.0,-0.01322717685252428
273.0,527.0,-3.938,0.9434,8.9533,-0.0351,0.0316,-0.1161,-2.1974555454649867,0.0,4.3617401123046875,-1.5109455585479736,-0.0,1.844148874282837,5.564011680870809,-0.0,0.2264241725206375,-1.7459881941424769,-0.0,-0.001954694278538227,0.500228226184845,0.0,-0.0043013859540224075,1.1081916093826294,0.0,-0.024933472275733948
273.0,527.0,-3.938,0.9434,8.9533,-0.0351,0.0316,-0.1161,-2.1974274120726527,0.0,4.357654571533203,-1.510941505432129,-0.0,1.8936057090759277,5.563975560456075,-0.0,0.2338930368423462,-1.745971981679098,-0.0,0.007060854695737362,0.5002040863037109,0.0,-0.005104212090373039,1.1082277297973633,0.0,-0.0048910630866885185
279.0,523.0,-4.0211,0.8405,9.2907,-0.0434,0.0211,-0.117,-2.197435518304342,0.0,4.344726085662842,-1.5109174251556396,-0.0,1.832993507385254,5.56397973278121,-0.0,0.22777755558490753,-1.7459638754474085,-0.0,0.010571455582976341,0.5002118349075317,0.0,-0.006990102119743824,1.1082158088684082,0.0,-0.035407502204179764
279.0,523.0,-4.0211,0.8405,9.2907,-0.0434,0.0211,-0.117,-2.1974274120726527,0.0,4.36737060546875,-1.510941505432129,-0.0,1.8539609909057617,5.563967454224386,-0.0,0.2336215376853943,-1.7459920088397425,-0.0,0.006672477349638939,0.5002322196960449,0.0,0.009612958878278732,1.108228087425232,0.0,-0.01430556271225214
279.0,523.0,-4.0211,0.8405,9.2907,-0.0434,0.0211,-0.117,-2.1974436245360316,0.0,4.360289573669434,-1.510969877243042,-0.0,1.8719291687011719,5.5639392016227625,-0.0,0.23308756947517395,-1.7459552923785608,-0.0,0.010221479460597038,0.5002040266990662,0.0,0.0025721832644194365,1.1082559823989868,0.0,-0.026339977979660034
279.0,523.0,-4.0211,0.8405,9.2907,-0.0434,0.0211,-0.117,-2.197395463983053,0.0,4.419732093811035,-1.5109820365905762,-0.0,1.879511833190918,5.563943254738607,-0.0,0.23083099722862244,-1.7459762732135218,-0.0,0.01829330436885357,0.5001921057701111,0.0,0.0037849668879061937,1.108219861984253,0.0,-0.017143558710813522
279.0,523.0,-4.0211,0.8405,9.2907,-0.0434,0.0211,-0.117,-2.1974274120726527,0.0,4.369899749755859,-1.5109455585479736,-0.0,1.843389630317688,5.563971507340231,-0.0,0.23385220766067505,-1.7459920088397425,-0.0,0.003898016409948468,0.5002002716064453,0.0,0.005843653343617916,1.1082121133804321,0.0,-0.012852784246206284
279.0,523.0,-4.0211,0.8405,9.2907,-0.0434,0.0211,-0.117,-2.1973754368224085,0.0,4.359665870666504,-1.510941505432129,-0.0,1.881704568862915,5.563963401108541,-0.0,0.22543415427207947,-1.7459552923785608,-0.0,0.0017132677603513002,0.5001998543739319,0.0,0.002610323019325733,1.1082038879394531,0.0,-0.025722796097397804
279.0,523.0,-4.0211,0.8405,9.2907,-0.0434,0.0211,-0.117,-2.197423597375387,0.0,4.377959251403809,-1.5109655857086182,-0.0,1.8649961948394775,5.563959228783407,-0.0,0.22831517457962036,-1.7460201422320765,-0.0,0.0011529247276484966,0.5001921057701111,0.0,-0.008853243663907051,1.1082277297973633,0.0,-0.0009642336517572403
279.0,523.0,-4.0211,0.8405,9.2907,-0.0434,0.0211,-0.117,-2.1974317036070765,0.0,4.412106513977051,-1.510941505432129,-0.0,1.8137116432189941,5.563943254738607,-0.0,0.2247503697872162,-1.7459762732135218,-0.0,0.0070390417240560055,0.5001961588859558,0.0,0.001391025260090828,1.1082038879394531,0.0,0.007801172323524952
279.0,523.0,-4.0211,0.8405,9.2907,-0.0434,0.0211,-0.117,-2.197407384912008,0.0,4.380097389221191,-1.5109655857086182,-0.0,1.8521004915237427,5.56397973278121,-0.0,0.22136659920215607,-1.745943848286764,-0.0,0.007038586772978306,0.500244140625,0.0,0.01292891800403595,1.1081956624984741,0.0,0.0010916977189481258
279.0,523.0,-4.0211,0.8405,9.2907,-0.0434,0.0211,-0.117,-2.1974274120726527,0.0,4.357409954071045,-1.5109411478042603,-0.0,1.8148751258850098,5.563943254738607,-0.0,0.23192304372787476,-1.7459676901446741,-0.0,0.012994916178286076,0.5002445578575134,0.0,0.002243584021925926,1.1082277297973633,0.0,-0.017105158418416977
279.0,523.0,-4.0211,0.8405,9.2907,-0.0434,0.0211,-0.117,-2.197411199609274,0.0,4.355887413024902,-1.5109214782714844,-0.0,1.8462506532669067,5.563975560456075,-0.0,0.2356208860874176,-1.7459762732135218,-0.0,0.0037130890414118767,0.5001880526542664,0.0,0.0028643817640841007,1.1081675291061401,0.0,0.01064914371818304
279.0,523.0,-4.0211,0.8405,9.2907,-0.0434,0.0211,-0.117,-2.197423597375387,0.0,4.388799667358398,-1.5109455585479736,-0.0,1.805853247642517,5.5639874813850305,-0.0,0.2267683446407318,-1.745971981679098,-0.0,0.012103544548153877,0.5002805590629578,0.0,-0.001670313999056816,1.108231782913208,0.0,-0.011077580973505974
279.0,523.0,-4.0211,0.8405,9.2907,-0.0434,0.0211,-0.117,-2.197435518304342,0.0,4.3623046875,-1.510925531387329,-0.0,1.8506743907928467,5.563943254738607,-0.0,0.21743106842041016,-1.7459552923785608,-0.0,0.003909509163349867,0.5002524256706238,0.0,0.006030652672052383,1.1082158088684082,0.0,-0.047417815774679184
272.0,520.0,-3.8991,1.2293,8.9563,-0.022,0.0217,-0.1155,-2.197435518304342,0.0,4.39091157913208,-1.510953426361084,-0.0,1.8327577114105225,5.563955175667562,-0.0,0.2331646978855133,-1.745971981679098,-0.0,-0.00040216604247689247,0.5002442002296448,0.0,0.0029058426152914762,1.1083002090454102,0.0,-0.053448259830474854
272.0,520.0,-3.8991,1.2293,8.9563,-0.022,0.0217,-0.1155,-2.197423597375387,0.0,4.3613996505737305,-1.5109411478042603,-0.0,1.8674225807189941,5.564007508545675,-0.0,0.21589934825897217,-1.745955769215719,-0.0,0.012850736267864704,0.5002281665802002,0.0,-0.0034117945469915867,1.1082395315170288,0.0,-0.0039044194854795933
272.0,520.0,-3.8991,1.2293,8.9563,-0.022,0.0217,-0.1155,-2.197435518304342,0.0,4.364862442016602,-1.5109813213348389,-0.0,1.8749542236328125,5.564027714520254,-0.0,0.21394893527030945,-1.7459676901446741,-0.0,0.012942691333591938,0.5002281069755554,0.0,0.017249995842576027,1.1082358360290527,0.00024145952193066478,-0.0336436852812767
272.0,520.0,-3.8991,1.2293,8.9563,-0.022,0.0217,-0.1155,-2.1974030933775843,0.0,4.347709655761719,-1.5109690427780151,-0.0,1.8615992069244385,5.5639392016227625,-0.0,0.24129027128219604,-1.7460244337665003,-0.0,0.02055918052792549,0.5002322196960449,0.0,0.000577882572542876,1.1082158088684082,0.00024644704535603523,0.016914626583456993
272.0,520.0,-3.8991,1.2293,8.9563,-0.022,0.0217,-0.1155,-2.1973992786803187,0.0,4.40318489074707,-1.510893702507019,-0.0,1.8340206146240234,5.563979673176565,-0.0,0.22829672694206238,-1.7460158506976526,-0.0,0.008139041252434254,0.5001756548881531,0.0,0.011397608555853367,1.108251929283142,0.0002849508891813457,-0.0017489679157733917
272.0,520.0,-3.8991,1.2293,8.9563,-0.022,0.0217,-0.1155,-2.1974154911436976,0.0,4.364792823791504,-1.5109373331069946,-0.0,1.8389253616333008,5.563963401108541,-0.0,0.23138649761676788,-1.7459676901446741,-0.0,0.004742782562971115,0.5002081394195557,0.0,-0.001531100831925869,1.1082476377487183,0.0005260361940599978,-0.018307805061340332
272.0,520.0,-3.8991,1.2293,8.9563,-0.022,0.0217,-0.1155,-2.1973911724486292,0.0,4.385295391082764,-1.510913610458374,-0.0,1.8533916473388672,5.5639874813850305,-0.0,0.225093811750412,-1.7459595839129847,-0.0,0.01064842939376831,0.5002363920211792,0.0,0.008532583713531494,1.108235478401184,0.0006577378371730447,-0.004671872593462467
272.0,520.0,-3.8991,1.2293,8.9563,-0.022,0.0217,-0.1155,-2.1974030933775843,0.0,4.383203983306885,-1.51088547706604,-0.0,1.8683714866638184,5.563967454224386,-0.0,0.23640237748622894,-1.746012036000387,-0.0,0.016907356679439545,0.5002445578575134,0.0,0.004915858618915081,1.1082600355148315,0.0004707433108706027,0.034222882241010666
272.0,520.0,-3.8991,1.2293,8.9563,-0.022,0.0217,-0.1155,-2.1974030933775843,0.0,4.38519287109375,-1.511001467704773,-0.0,1.8354456424713135,5.56398372629241,-0.0,0.23019784688949585,-1.7459514776812952,-0.0,-0.0004478893242776394,0.5002040266990662,0.0,0.010873636230826378,1.1083039045333862,0.00039113042294047773,-0.024232888594269753
272.0,520.0,-3.8991,1.2293,8.9563,-0.022,0.0217,-0.1155,-2.1974274120726527,0.0,4.387070178985596,-1.5109055042266846,-0.0,1.8340187072753906,5.56397973278121,-0.0,0.2194097340106964,-1.7459796110736292,-0.0,0.015995437279343605,0.5002445578575134,0.0,0.011407177895307541,1.1082477569580078,0.00035379501059651375,-0.029000023379921913
272.0,520.0,-3.8991,1.2293,8.9563,-0.022,0.0217,-0.1155,-2.197435518304342,0.0,4.359958648681641,-1.510941505432129,-0.0,1.8479907512664795,5.56400756815032,-0.0,0.22873210906982422,-1.7459195295916956,-0.0,0.0111467856913805,0.5002200603485107,0.0,-0.0007101194933056831,1.1082477569580078,0.0002888946037273854,-0.0006929743103682995
272.0,520.0,-3.8991,1.2293,8.9563,-0.022,0.0217,-0.1155,-2.1974393330016078,0.0,4.4080705642700195,-1.5109575986862183,-0.0,1.8424677848815918,5.563999819546499,-0.0,0.22638346254825592,-1.7459638754474085,-0.0,0.013086593709886074,0.5001802444458008,0.0,0.007534507196396589,1.108251929283142,0.00024411514459643513,0.02398500218987465
267.0,499.0,-3.8512,0.8548,8.9348,-0.0345,0.0296,-0.1214,-2.197383543054098,0.0,4.38395881652832,-1.510913610458374,-0.0,1.8011410236358643,5.563975560456075,-0.0,0.23067469894886017,-1.7459481398211878,-0.0,0.02250785008072853,0.5002200603485107,0.0,0.0036326556000858545,1.1082476377487183,0.00021869213378522545,0.043893709778785706
267.0,499.0,-3.8512,0.8548,8.9348,-0.0345,0.0296,-0.1214,-2.197367330590719,0.0,4.3649797439575195,-1.5108894109725952,-0.0,1.8292820453643799,5.563935506134786,-0.0,0.23109027743339539,-1.7459762732135218,-0.0,0.01398777961730957,0.5002642273902893,0.0,0.0062756771221756935,1.108223557472229,0.0001920280046761036,-0.015199774876236916
267.0,499.0,-3.8512,0.8548,8.9348,-0.0345,0.0296,-0.1214,-2.1974317036070765,0.0,4.321230888366699,-1.510993480682373,-0.0,1.8269281387329102,5.563991534500875,-0.0,0.23228567838668823,-1.746000115071432,-0.0,0.0019781645387411118,0.5002081394195557,0.0,0.0014049422461539507,1.108223557472229,0.00017115945229306817,-0.031686294823884964
267.0,499.0,-3.8512,0.8548,8.9348,-0.0345,0.0296,-0.1214,-2.197411199609274,0.0,4.392078399658203,-1.5109772682189941,-0.0,1.874849557876587,5.5639957068260095,-0.0,0.22228039801120758,-1.7459638754474085,-0.0,0.008121008053421974,0.5002724528312683,0.0,0.0007227703463286161,1.1082559823989868,0.00015826060553081334,0.01064195018261671
267.0,499.0,-3.8512,0.8548,8.9348,-0.0345,0.0296,-0.1214,-2.197411199609274,0.0,4.397955894470215,-1.5109333992004395,-0.0,1.8413009643554688,5.564011740475454,-0.0,0.21863394975662231,-1.7459400335894983,-0.0,0.010948659852147102,0.5001797676086426,0.0,0.014280751347541809,1.1082837581634521,0.00016435309953521937,0.02594526670873165
267.0,499.0,-3.8512,0.8548,8.9348,-0.0345,0.0296,-0.1214,-2.1974274120726527,0.0,4.379870414733887,-1.510969877243042,-0.0,1.8128639459609985,5.5639837858970544,-0.0,0.2208128273487091,-1.7459638754474085,-0.0,0.019194316118955612,0.5002405047416687,0.0,0.006173992995172739,1.1082677841186523,0.0001506031258031726,0.021959546953439713
267.0,499.0,-3.8512,0.8548,8.9348,-0.0345,0.0296,-0.1214,-2.1974593601622523,0.0,4.332177639007568,-1.5109615325927734,-0.0,1.854299545288086,5.563975560456075,-0.0,0.22842872142791748,-1.7459676901446741,-0.0,0.003954285755753517,0.500252366065979,0.0,0.006227913778275251,1.1082518100738525,0.0001389754906995222,-0.005221518687903881
267.0,499.0,-3.8512,0.8548,8.9348,-0.0345,0.0296,-0.1214,-2.1974555454649867,1.4814706901233876e-06,4.393691062927246,-1.5109820365905762,-0.0,1.8671655654907227,5.563967513829031,-0.0,0.22224612534046173,-1.745971981679098,-0.0,0.011748436838388443,0.5002118349075317,0.0,0.0013548554852604866,1.1082193851470947,9.326882718596607e-05,-0.018654320389032364
267.0,499.0,-3.8512,0.8548,8.9348,-0.0345,0.0296,-0.1214,-2.1974393330016078,4.799776231307305e-14,4.383815765380859,-1.5109813213348389,-0.0,1.8290493488311768,5.563963401108541,-0.0,0.23204053938388824,-1.7459881941424769,-0.0,0.0010480507044121623,0.5002158880233765,0.0,-0.009552357718348503,1.1082998514175415,0.0001336297282250598,-0.015688080340623856
267.0,499.0,-3.8512,0.8548,8.9348,-0.0345,0.0296,-0.1214,-2.197435518304342,1.5550665330376431e-21,4.4078898429870605,-1.5109575986862183,-0.0,1.8411551713943481,5.563991534500875,-0.0,0.23821361362934113,-1.7459762732135218,-0.0,0.010929066687822342,0.5002200603485107,0.0,0.006376177072525024,1.108271837234497,0.0016460840124636889,0.04884539544582367
267.0,499.0,-3.8512,0.8548,8.9348,-0.0345,0.0296,-0.1214,-2.1974436245360316,3.75530262064064e-27,4.404401779174805,-1.5109658241271973,-0.0,1.8446190357208252,5.563947844296255,-0.0,0.24180051684379578,-1.7459881941424769,-0.0,-0.0013763927854597569,0.5002200603485107,0.0,0.003697654465213418,1.1083123683929443,0.001963352784514427,0.014747546054422855
267.0,499.0,-3.8512,0.8548,8.9348,-0.0345,0.0296,-0.1214,-2.197475095788473,-0.00011429183359723538,4.3673810958862305,-1.510925054550171,-0.0,1.8068543672561646,5.5639474270637415,-0.0,0.21454353630542755,-1.745995823537008,-0.0,0.0037603871896862984,0.5001880526542664,0.0,-0.007136932574212551,1.1083444356918335,0.0017070487374439836,0.011568637564778328
265.0,530.0,-3.7298,0.8943,8.9581,-0.0432,0.0292,-0.1112,-2.1974274120726527,-9.417030378244817e-05,4.372260093688965,-1.5109453201293945,-0.0,1.849502682685852,5.563987898617544,-0.0,0.2363833487033844,-1.7459796110736292,-0.0,0.010774306021630764,0.5002482533454895,0.0,0.006197808310389519,1.10830819606781,0.0013302117586135864,-0.003929039463400841
265.0,530.0,-3.7298,0.8943,8.9581,-0.0432,0.0292,-0.1112,-2.197423597375387,-3.8936359487706795e-05,4.429088115692139,-1.5109376907348633,1.4244878887570422e-10,1.8574583530426025,5.56400345542983,-0.0,0.22031846642494202,-1.7459915320025843,-0.0,0.005283817648887634,0.5002081394195557,0.0,0.0076608117669820786,1.1083439588546753,0.001614634064026177,-0.012677676044404507
265.0,530.0,-3.7298,0.8943,8.9581,-0.0432,0.0292,-0.1112,-2.197423597375387,-1.953570105683866e-08,4.413132190704346,-1.5109336376190186,3.4399704700869606e-16,1.879437804222107,5.563943254738607,-0.0,0.2139146625995636,-1.745995823537008,-0.0,0.01783108524978161,0.5002081394195557,0.0,0.00015425565652549267,1.1083356142044067,0.0020484942942857742,0.03237859904766083
265.0,530.0,-3.7298,0.8943,8.9581,-0.0432,0.0292,-0.1112,-2.1974555454649867,-6.329318702481791e-16,4.372917175292969,-1.510941505432129,1.1145067100868621e-23,1.8349816799163818,5.563975679665365,-0.0,0.2239864617586136,-1.7459595839129847,-0.0,0.011725906282663345,0.5002363920211792,0.0,0.0041251415386796,1.108388066291809,0.002621706575155258,0.04059365764260292
265.0,530.0,-3.7298,0.8943,8.9581,-0.0432,0.0292,-0.1112,-2.1973754368224085,-2.0506188373452342e-23,4.403153419494629,-1.510913610458374,3.6108605071666267e-31,1.8683738708496094,5.563943254738607,-0.0,0.22706903517246246,-1.7459796110736292,-0.0,0.007713437080383301,0.5002040863037109,0.0,-0.0007482278160750866,1.10837984085083,0.0023820188362151384,0.01454263273626566
265.0,530.0,-3.7298,0.8943,8.9581,-0.0432,0.0292,-0.1112,-2.1974555454649867,-6.643743137372923e-31,4.352799415588379,-1.5109455585479736,1.1698729019028021e-38,1.8313236236572266,5.563963401108541,-0.0,0.23362135887145996,-1.7460077444659632,-0.0,0.013682663440704346,0.5002806186676025,0.0,0.021124154329299927,1.1083757877349854,0.0018421488348394632,0.0017713401466608047
265.0,530.0,-3.7298,0.8943,8.9581,-0.0432,0.0292,-0.1112,-2.1974274120726527,-1.6043856687962807e-36,4.349837303161621,-1.5109373331069946,2.802596928649634e-44,1.8235969543457031,5.563967454224386,-0.0,0.22599385678768158,-1.7460158506976526,-0.0,0.003972883336246014,0.5002158880233765,0.0,0.005257600452750921,1.1084158420562744,0.001715723774395883,0.043932750821113586
265.0,530.0,-3.7298,0.8943,8.9581,-0.0432,0.0292,-0.1112,-2.197423597375387,-5.184804318001823e-44,4.396749973297119,-1.5109336376190186,-0.0,1.8546802997589111,5.563967454224386,-0.0,0.23266372084617615,-1.7459796110736292,-0.0,0.0171985886991024,0.5002121925354004,0.0,-0.005531205330044031,1.1084237098693848,0.0015723746037110686,0.08242680877447128
265.0,530.0,-3.7298,0.8943,8.9581,-0.0432,0.0292,-0.1112,-2.197487016717428,0.0,4.366556167602539,-1.5109853744506836,-0.0,1.8858786821365356,5.563927221089163,-0.0,0.22483335435390472,-1.7459595839129847,-0.0,0.008367344737052917,0.500260591506958,0.0,0.00406695157289505,1.1084195375442505,0.001775503857061267,0.019470566883683205
265.0,530.0,-3.7298,0.8943,8.9581,-0.0432,0.0292,-0.1112,-2.197395463983053,0.0,4.39262580871582,-1.5109820365905762,-0.0,1.8300527334213257,5.563963401108541,-0.0,0.23299817740917206,-1.745983902608053,-0.0,0.003017759881913662,0.5002081394195557,0.0,0.01000951323658228,1.1084237098693848,0.0014908729353919625,0.007782808504998684
265.0,530.0,-3.7298,0.8943,8.9581,-0.0432,0.0292,-0.1112,-2.1974436245360316,0.0,4.394035816192627,-1.5109336376190186,-0.0,1.8316094875335693,5.5639474270637415,-0.0,0.228973388671875,-1.7459638754474085,-0.0,0.00542305875569582,0.5001999139785767,0.0,-0.0002845153212547302,1.1084400415420532,0.001136207953095436,0.013706442900002003
265.0,530.0,-3.7298,0.8943,8.9581,-0.0432,0.0292,-0.1112,-2.197435518304342,8.9026871137321e-05,4.384417533874512,-1.5108976364135742,0.0001382386835757643,1.8226786851882935,5.563935506134786,-0.0,0.2219105213880539,-1.7459471861468714,-0.0,0.005110485013574362,0.5002322196960449,0.0,0.007164935115724802,1.108459711074829,0.0007821799372322857,0.03001565858721733
263.0,519.0,-3.8542,1.1605,8.9234,-0.0224,0.0215,-0.12,-2.197379251519674,0.00011148610792588443,4.384384632110596,-1.510901689529419,0.00012539836461655796,1.8267184495925903,5.563947009831228,-0.0,0.2269831895828247,-1.7459514776812952,-0.0,-0.001516252290457487,0.5002322793006897,0.0,-0.0052189212292432785,1.1084798574447632,0.0005287771346047521,0.0026609860360622406
263.0,519.0,-3.8542,1.1605,8.9234,-0.0224,0.0215,-0.12,-2.1974555454649867,9.91976194200106e-05,4.412367820739746,-1.5109578371047974,0.00011723143688868731,1.8489487171173096,5.564027714520254,-0.0,0.22634121775627136,-1.7459357420550745,-0.0,0.01652897521853447,0.5001962184906006,0.0,-0.0028615454211831093,1.108444094657898,0.0004223906435072422,0.012949658557772636
263.0,519.0,-3.8542,1.1605,8.9234,-0.0224,0.0215,-0.12,-2.1973754368224085,8.648715447634459e-05,4.351071357727051,-1.5109376907348633,0.00010786465281853452,1.7881288528442383,5.56397973278121,-0.0,0.2242366075515747,-1.7459762732135218,-0.0,0.01727673038840294,0.5002405047416687,0.0,0.008515218272805214,1.1083714962005615,0.00011560259736143053,0.01809077523648739
263.0,519.0,-3.8542,1.1605,8.9234,-0.0224,0.0215,-0.12,-2.197423597375387,7.666405144846067e-05,4.383518218994141,-1.510913610458374,9.988409146899357e-05,1.8361519575119019,5.563971507340231,-0.0,0.2308090180158615,-1.7459638754474085,-0.0,0.00438776845112443,0.5002201199531555,0.0,0.012383823283016682,1.108444094657898,7.739598117950663e-08,0.014068592339754105
263.0,519.0,-3.8542,1.1605,8.9234,-0.0224,0.0215,-0.12,-2.1973992786803187,7.064615783747286e-05,4.406660079956055,-1.5109493732452393,9.463282185606658e-05,1.8811628818511963,5.563971507340231,-0.0,0.22284917533397675,-1.7460039297686976,-0.0,0.013693801127374172,0.5001880526542664,0.0,0.002220917260274291,1.1084277629852295,1.8690218372540562e-13,0.039255328476428986
263.0,519.0,-3.8542,1.1605,8.9234,-0.0224,0.0215,-0.12,-2.197395463983053,6.395277887349948e-05,4.341506004333496,-1.5109496116638184,8.843390241963789e-05,1.8236124515533447,5.563955175667562,-0.0,0.23175157606601715,-1.7459595839129847,-0.0,0.00130558165255934,0.5002200603485107,0.0,-0.009624769911170006,1.1084240674972534,6.055394253446479e-21,0.0017081592231988907
263.0,519.0,-3.8542,1.1605,8.9234,-0.0224,0.0215,-0.12,-2.197411199609274,5.841800521011464e-05,4.413777828216553,-1.510953664779663,9.682964446255937e-05,1.8593318462371826,5.5639837858970544,-0.0,0.2319316565990448,-1.745971981679098,-0.0,0.006445194594562054,0.5002442002296448,0.0,0.012792939320206642,1.1083838939666748,1.9618705656737967e-28,-0.02911381796002388
263.0,519.0,-3.8542,1.1605,8.9234,-0.0224,0.0215,-0.12,-2.197367330590719,8.751139102969319e-05,4.37099552154541,-1.5108778476715088,0.00010425321670481935,1.836707592010498,5.56397973278121,-0.0,0.2318103015422821,-1.7459638754474085,-0.0,0.0041890330612659454,0.5002405047416687,0.0,-0.002908518072217703,1.1083838939666748,6.35621091304786e-36,-0.023680968210101128
263.0,519.0,-3.8542,1.1605,8.9234,-0.0224,0.0215,-0.12,-2.1974030933775843,0.0001504695537732914,4.364424228668213,-1.5108811855316162,0.00014566142635885626,1.8700419664382935,5.56397973278121,-0.0,0.22489944100379944,-1.7459762732135218,-0.0,0.009048232808709145,0.5002323389053345,0.0,0.016322460025548935,1.108363389968872,-0.00018529641965869814,-0.0324513241648674
263.0,519.0,-3.8542,1.1605,8.9234,-0.0224,0.0215,-0.12,-2.1973873577513636,0.001057168236002326,4.363600254058838,-1.5108736753463745,0.00015432137297466397,1.8097209930419922,5.563979673176565,-0.0,0.2361556887626648,-1.7460082213031214,-0.0,0.009032148867845535,0.5002241730690002,0.0,0.0029481337405741215,1.108412265777588,-0.0001928956771735102,0.00439592357724905
263.0,519.0,-3.8542,1.1605,8.9234,-0.0224,0.0215,-0.12,-2.19735111812734,0.00217795604839921,4.371516227722168,-1.5108819007873535,0.00042458565440028906,1.861608862876892,5.563999402313986,-0.0,0.22054460644721985,-1.7459638754474085,-0.0,0.006390572525560856,0.5001999139785767,0.0,0.0035226261243224144,1.1083757877349854,-0.00011359009658917785,-0.0744074136018753
263.0,519.0,-3.8542,1.1605,8.9234,-0.0224,0.0215,-0.12,-2.197299142877096,0.0051780142821371555,4.33123254776001,-1.510890007019043,0.00037248534499667585,1.8111934661865234,5.563959228783407,-0.0,0.22327961027622223,-1.745995823537008,-0.0,0.013797960244119167,0.5002365112304688,0.0,3.299093805253506e-05,1.1084200143814087,-7.5469259172678e-05,0.02977515012025833
268.0,504.0,-3.8249,0.9446,9.0036,-0.0396,0.0374,-0.1115,-2.1972838840880335,0.008576367981731892,4.398075103759766,-1.5108580589294434,0.0003086114302277565,1.8443093299865723,5.563983428269186,-0.0,0.2320534884929657,-1.7459595839129847,-0.0,0.014547649770975113,0.5001838207244873,0.0,-0.0066835000179708,1.1083675622940063,-3.611725674090849e-08,-0.005360251292586327
268.0,504.0,-3.8249,0.9446,9.0036,-0.0396,0.0374,-0.1115,-2.1972557506956996,0.007939545437693596,4.371555328369141,-1.5108973979949951,0.0002511843340471387,1.8897289037704468,5.5639474270637415,-0.0,0.22204765677452087,-1.7460320631610315,-0.0,0.013816366903483868,0.500235915184021,0.0,0.007819974794983864,1.1083879470825195,-1.17015314674224e-15,-0.029957635328173637
268.0,504.0,-3.8249,0.9446,9.0036,-0.0396,0.0374,-0.1115,-2.1971832714476527,0.005034232512116432,4.352808475494385,-1.5109299421310425,0.0002465812722221017,1.8610222339630127,5.563967454224386,-0.0,0.21909618377685547,-1.7459796110736292,-0.0,0.012548930011689663,0.5001838803291321,0.0,-0.0034655253402888775,1.108412265777588,-3.791147812445124e-23,-0.02597762644290924
268.0,504.0,-3.8249,0.9446,9.0036,-0.0396,0.0374,-0.1115,-2.1971312961974085,0.004158256575465202,4.368890762329102,-1.5108821392059326,0.00025302506401203573,1.8885796070098877,5.563983428269186,-0.0,0.22791999578475952,-1.745983902608053,-0.0,-0.0009280165540985763,0.5001761317253113,0.0,0.0016503880033269525,1.1084163188934326,-9.155177018983832e-29,0.030065812170505524
268.0,504.0,-3.8249,0.9446,9.0036,-0.0396,0.0374,-0.1115,-2.197127481500143,0.00498504564166069,4.397322177886963,-1.5107935667037964,0.00027417391538619995,1.8304316997528076,5.563991176873007,-0.0,0.2185787856578827,-1.7460125128375452,-0.0,0.008734711445868015,0.5002204179763794,0.0,-0.008190800435841084,1.1084158420562744,-2.9661607901945092e-36,-0.04428231716156006
268.0,504.0,-3.8249,0.9446,9.0036,-0.0396,0.0374,-0.1115,-2.1970836124815882,0.0052071125246584415,4.395638465881348,-1.5108177661895752,0.0002673371636774391,1.877402901649475,5.563999402313986,-0.0,0.22882942855358124,-1.7460077444659632,-0.0,0.011057729832828045,0.5002482533454895,0.0,-0.0050020464695990086,1.1083475351333618,-9.668959403841238e-44,-0.0031736958771944046
268.0,504.0,-3.8249,0.9446,9.0036,-0.0396,0.0374,-0.1115,-2.1970674000182093,0.00396047392860055,4.4063262939453125,-1.5108662843704224,0.00023276585852727294,1.8476189374923706,5.563971507340231,-0.0,0.2386075258255005,-1.7459676901446741,-0.0,0.007495971862226725,0.5002363920211792,0.0,-0.0027760379016399384,1.10837984085083,0.0,-0.023666802793741226
268.0,504.0,-3.8249,0.9446,9.0036,-0.0396,0.0374,-0.1115,-2.197087427178854,0.0020801143255084753,4.342521667480469,-1.510873556137085,0.0002121862635249272,1.8576680421829224,5.563991534500875,-0.0,0.21470007300376892,-1.7459877173053187,-0.0,0.004682868253439665,0.5002405047416687,0.0,0.0026134890504181385,1.108371615409851,0.0,-0.026053816080093384
268.0,504.0,-3.8249,0.9446,9.0036,-0.0396,0.0374,-0.1115,-2.1970235309996546,0.0008702954510226846,4.373714447021484,-1.5108214616775513,0.00018981094763148576,1.8224501609802246,5.5640079257781885,-0.0,0.21461954712867737,-1.7459796110736292,-0.0,0.009667580015957355,0.5002081394195557,0.0,0.011789010837674141,1.1083714962005615,0.0,-0.050962597131729126
268.0,504.0,-3.8249,0.9446,9.0036,-0.0396,0.0374,-0.1115,-2.197015424767965,0.0006171425338834524,4.390832901000977,-1.5108137130737305,0.0001717045670375228,1.8288147449493408,5.563971507340231,-0.0,0.2156113088130951,-1.7460201422320765,-0.0,0.011456876061856747,0.5002081394195557,0.0,-0.005589722655713558,1.1084117889404297,0.0,-0.00713580846786499
268.0,504.0,-3.8249,0.9446,9.0036,-0.0396,0.0374,-0.1115,-2.197043081323141,0.0005450277240015566,4.409491062164307,-1.5108414888381958,0.00016024048090912402,1.8939778804779053,5.56402354219512,-0.0,0.22155898809432983,-1.7460077444659632,-0.0,0.009833119809627533,0.5002040266990662,0.0,0.013840192928910255,1.1083998680114746,0.0,-0.021580878645181656
268.0,504.0,-3.8249,0.9446,9.0036,-0.0396,0.0374,-0.1115,-2.1970511875548304,0.0003527711669448763,4.371003150939941,-1.5108497142791748,0.00014714160352014005,1.8204002380371094,5.563959228783407,-0.0,0.21995380520820618,-1.7459638754474085,-0.0,0.011478062719106674,0.5002403855323792,0.0,0.0023336797021329403,1.1083273887634277,0.0,-0.04657766595482826
268.0,504.0,-3.8249,0.9446,9.0036,-0.0396,0.0374,-0.1115,-2.1970273456969203,0.0003722732362803072,4.394196510314941,-1.5108095407485962,0.00013602242688648403,1.8614534139633179,5.563971507340231,-0.0,0.21429327130317688,-1.746023956929342,-0.0,0.002011861652135849,0.5001962184906006,0.0,0.00767651479691267,1.1083797216415405,0.0,-0.07210351526737213
266.0,510.0,-3.8937,0.8357,9.0921,-0.038,0.0333,-0.126,-2.1969796619811,0.0004798573791049421,4.398913383483887,-1.5107977390289307,0.0001264658640138805,1.8666236400604248,5.563999402313986,-0.0,0.2098042070865631,-1.745971981679098,-0.0,0.010549583472311497,0.5001962184906006,0.0,0.01348903402686119,1.1083961725234985,0.0,0.020680712535977364
266.0,510.0,-3.8937,0.8357,9.0921,-0.038,0.0333,-0.126,-2.1970235309996546,0.0004420650075189769,4.3735127449035645,-1.5108540058135986,0.00012013550440315157,1.849735140800476,5.563975560456075,-0.0,0.22109101712703705,-1.7459800879107874,-0.0,0.024017158895730972,0.5002322196960449,0.0,0.0014974630903452635,1.1083598136901855,-0.0004634633951354772,0.029245106503367424
266.0,510.0,-3.8937,0.8357,9.0921,-0.038,0.0333,-0.126,-2.1969953976073207,0.00034517564927227795,4.384132385253906,-1.510890007019043,0.00011261910549364984,1.8347036838531494,5.563935088902273,-0.0,0.21763873100280762,-1.745971981679098,-0.0,0.013717951253056526,0.5002122521400452,0.0,0.009240081533789635,1.108336091041565,-0.0006651292787864804,-0.02908417209982872
266.0,510.0,-3.8937,0.8357,9.0921,-0.038,0.0333,-0.126,-2.197019239465231,0.0002831215679179877,4.3772478103637695,-1.5108779668807983,0.00010598797962302342,1.8341164588928223,5.564011740475454,-0.0,0.21635499596595764,-1.745971981679098,-0.0,0.012025446631014347,0.5002322793006897,0.0,0.003957317676395178,1.108339786529541,-0.0007666424498893321,-0.012106354348361492
266.0,510.0,-3.8937,0.8357,9.0921,-0.038,0.0333,-0.126,-2.1969796619811,0.000274262682069093,4.3569793701171875,-1.5108051300048828,0.00010009433754021302,1.8251558542251587,5.5639957068260095,-0.0,0.22353577613830566,-1.745971981679098,-0.0,0.012804442085325718,0.5001880526542664,0.0,0.01822560280561447,1.1083077192306519,-0.0006994762807153165,0.05489450693130493
266.0,510.0,-3.8937,0.8357,9.0921,-0.038,0.0333,-0.126,-2.1969953976073207,0.0002531416539568454,4.372600555419922,-1.5108414888381958,9.608703840058297e-05,1.8282382488250732,5.56397973278121,-0.0,0.23370453715324402,-1.7459357420550745,-0.0,0.012876002117991447,0.5001757144927979,0.0,0.016591517254710197,1.108327865600586,-0.0006704338011331856,-0.03344712778925896
266.0,510.0,-3.8937,0.8357,9.0921,-0.038,0.0333,-0.126,-2.19700350383901,0.0005546252941712737,4.341742992401123,-1.5109055042266846,9.121773473452777e-05,1.802908182144165,5.563967394619741,-0.0,0.22842901945114136,-1.7459514776812952,-0.0,0.021641133353114128,0.5002081990242004,0.0,-0.0011485768482089043,1.1083199977874756,-0.0005883919657208025,0.008403562009334564
266.0,510.0,-3.8937,0.8357,9.0921,-0.038,0.0333,-0.126,-2.1969672642149867,0.001157971564680338,4.368239402770996,-1.5108578205108643,7.038369221845642e-05,1.8543039560317993,5.563927221089163,-0.0,0.23494338989257812,-1.7459762732135218,-0.0,0.009096533060073853,0.5002363920211792,0.0,0.0026571277994662523,1.1083319187164307,-0.0008040839456953108,-0.021709520369768143
266.0,510.0,-3.8937,0.8357,9.0921,-0.038,0.0333,-0.126,-2.1969639263548792,0.0011418650392442942,4.385566234588623,-1.5108296871185303,6.72212554491125e-05,1.81620192527771,5.563959228783407,-0.0,0.2249092161655426,-1.7459552923785608,-0.0,0.015254444442689419,0.5002163052558899,0.0,0.00022516585886478424,1.1083040237426758,-0.000934816082008183,0.025463588535785675
266.0,510.0,-3.8937,0.8357,9.0921,-0.038,0.0333,-0.126,-2.1969996891417445,0.0011173952370882034,4.387533664703369,-1.5108665227890015,7.611735054524615e-05,1.8404860496520996,5.563971507340231,-0.0,0.2251969575881958,-1.7459762732135218,-0.0,0.022710241377353668,0.5001720786094666,0.0,0.011075718328356743,1.1083165407180786,-0.0011881182435899973,0.028698358684778214
266.0,510.0,-3.8937,0.8357,9.0921,-0.038,0.0333,-0.126,-2.196967741052145,0.0009353801142424345,4.400120258331299,-1.5108497142791748,8.400815568165854e-05,1.8373240232467651,5.563991534500875,-0.0,0.22716516256332397,-1.745943848286764,-0.0,0.017330195754766464,0.5002363920211792,0.0,-0.001338086323812604,1.1082518100738525,-0.0014986676396802068,0.0402839221060276
266.0,510.0,-3.8937,0.8357,9.0921,-0.038,0.0333,-0.126,-2.1969639263548792,0.0007174583151936531,4.374650001525879,-1.5108296871185303,9.075144771486521e-05,1.8690924644470215,5.563971507340231,-0.0,0.234895259141922,-1.7459233442889612,-0.0,0.01869025081396103,0.5002241134643555,0.0,-0.0046758828684687614,1.108268141746521,-0.002447098260745406,-0.025516321882605553
266.0,511.0,-3.8022,0.877,9.1011,-0.0403,0.0261,-0.1232,-2.197019239465231,0.0005347991827875376,4.34373140335083,-1.5107935667037964,8.7866181274876e-05,1.8442199230194092,5.563919114857473,-0.0,0.2307567596435547,-1.7459843794452112,-0.0,0.004386339336633682,0.5002241730690002,0.0,-0.009908623993396759,1.1082921028137207,-0.0033679059706628323,-0.047295451164245605
266.0,511.0,-3.8022,0.877,9.1011,-0.0403,0.0261,-0.1232,-2.1969715557494105,0.0003992113925050944,4.366142272949219,-1.51082181930542,0.00019029864051844925,1.8439265489578247,5.563955175667562,-0.0,0.22453804314136505,-1.7459595839129847,-0.0,0.014915773645043373,0.500252366065979,0.0,-0.0057137031108140945,1.1082038879394531,-0.003324495628476143,0.017667997628450394
266.0,511.0,-3.8022,0.877,9.1011,-0.0403,0.0261,-0.1232,-2.196927686730856,0.0003639725618995726,4.367603302001953,-1.5108578205108643,0.00025996577460318804,1.8290410041809082,5.563971507340231,-0.0,0.2245713472366333,-1.7460082213031214,-0.0,0.017653686925768852,0.5002363920211792,0.0,-0.005936197005212307,1.1081957817077637,-0.002017671475186944,0.010679596103727818
266.0,511.0,-3.8022,0.877,9.1011,-0.0403,0.0261,-0.1232,-2.196980138818258,0.0002723712532315403,4.358612537384033,-1.510802149772644,0.002030516741797328,1.8365187644958496,5.56397973278121,-0.0,0.22506751120090485,-1.745983902608053,-0.0,0.01403026282787323,0.5001801252365112,0.0,-0.0058785234577953815,1.1081998348236084,-0.0012930642114952207,0.03614865988492966
266.0,511.0,-3.8022,0.877,9.1011,-0.0403,0.0261,-0.1232,-2.1969553432860316,0.0006997377495281398,4.380526065826416,-1.510745644569397,0.009044242091476917,1.8754587173461914,5.5639474270637415,-0.0,0.21629519760608673,-1.745971981679098,-0.0,0.0015988873783499002,0.5001720786094666,0.0,0.006564258597791195,1.1081798076629639,-0.00067196658346802,0.007316511124372482
266.0,511.0,-3.8022,0.877,9.1011,-0.0403,0.0261,-0.1232,-2.1970163784422816,0.0007350227097049356,4.393440246582031,-1.5106091499328613,0.013656368479132652,1.8615728616714478,5.56395964601592,-0.0,0.21940729022026062,-1.7460163275348108,-0.0,0.00401811208575964,0.5001998543739319,0.0,0.0030909236520528793,1.1081637144088745,-0.0005585451144725084,0.016377829015254974
266.0,511.0,-3.8022,0.877,9.1011,-0.0403,0.0261,-0.1232,-2.1969315014281214,0.000643284700345248,4.348801136016846,-1.5105167627334595,0.012120380066335201,1.8926894664764404,5.563943254738607,-0.0,0.22352832555770874,-1.7459514776812952,-0.0,0.01072749588638544,0.5002163052558899,0.0,0.0010161524405702949,1.108135461807251,-0.0004280190041754395,-0.0036866823211312294
266.0,511.0,-3.8022,0.877,9.1011,-0.0403,0.0261,-0.1232,-2.196935316125387,0.0007557574426755309,4.390058517456055,-1.5104538202285767,0.010617670603096485,1.8711944818496704,5.563975560456075,-0.0,0.2367209792137146,-1.7459676901446741,-0.0,0.014154880307614803,0.5002281069755554,0.0,0.0035767569206655025,1.1081719398498535,-0.0003762065607588738,-0.016870150342583656
266.0,511.0,-3.8022,0.877,9.1011,-0.0403,0.0261,-0.1232,-2.1969157658019007,0.0032231807708740234,4.421187400817871,-1.5103532075881958,0.007340110372751951,1.894183874130249,5.56397973278121,-0.0,0.22499945759773254,-1.7459881941424769,-0.0,0.009509618394076824,0.5002363920211792,0.0,0.005596425384283066,1.108115792274475,-0.0012664347887039185,0.007400797680020332
266.0,511.0,-3.8022,0.877,9.1011,-0.0403,0.0261,-0.1232,-2.1968757114806117,0.005736894439905882,4.390772819519043,-1.5103540420532227,0.005712282378226519,1.8714804649353027,5.563983428269186,-0.0,0.21792425215244293,-1.746012036000387,-0.0,0.0015815254300832748,0.500203549861908,0.0,0.0013326507760211825,1.1081359386444092,-0.001693190075457096,0.003920210525393486
266.0,511.0,-3.8022,0.877,9.1011,-0.0403,0.0261,-0.1232,-2.1968070469298304,0.0069313086569309235,4.392714500427246,-1.5103015899658203,0.004272381775081158,1.8503377437591553,5.563927221089163,-0.0,0.22270289063453674,-1.7459552923785608,-0.0,0.005745862610638142,0.5002200603485107,0.0,0.003758440725505352,1.108124017715454,-0.001956409076228738,0.02335679531097412
266.0,511.0,-3.8022,0.877,9.1011,-0.0403,0.0261,-0.1232,-2.1967832050719203,0.006076883524656296,4.408310890197754,-1.5103058815002441,0.0026013527531176805,1.8375520706176758,5.563967394619741,-0.0,0.23549306392669678,-1.745943848286764,-0.0,-0.002072430681437254,0.5002481937408447,0.0,0.0003944416530430317,1.108124017715454,-0.002500295639038086,-0.03294128552079201
270.0,477.0,-3.8913,0.8477,8.7942,-0.0438,0.037,-0.1147,-2.1967278919615687,0.00413798913359642,4.347072601318359,-1.5102499723434448,0.0013014916330575943,1.8628158569335938,5.563963401108541,-0.0,0.22977551817893982,-1.7460082213031214,-0.0,0.0035342518240213394,0.5002486109733582,0.0,0.0003725638089235872,1.1080472469329834,-0.0026775971055030823,0.07872679829597473
270.0,477.0,-3.8913,0.8477,8.7942,-0.0438,0.037,-0.1147,-2.1966868839659632,0.003399472450837493,4.389749526977539,-1.5102330446243286,0.0008221888565458357,1.8694548606872559,5.56402354219512,-0.0,0.2396095097064972,-1.745943848286764,-0.0,0.0014854033943265676,0.5002363920211792,0.0,0.0033028502948582172,1.1080758571624756,-0.0025060551706701517,-0.05707966908812523
270.0,477.0,-3.8913,0.8477,8.7942,-0.0438,0.037,-0.1147,-2.1966916523375453,0.0033297352492809296,4.378932952880859,-1.5102742910385132,0.0004669155750889331,1.8346047401428223,5.563959228783407,-0.0,0.2427261769771576,-1.745943848286764,-0.0,-0.0029293533880263567,0.500244140625,0.0,0.0002740107011049986,1.1080719232559204,-0.0025721313431859016,-0.003100000787526369
270.0,477.0,-3.8913,0.8477,8.7942,-0.0438,0.037,-0.1147,-2.196655412713522,0.003681223839521408,4.379339218139648,-1.510230302810669,0.0003954672138206661,1.8908048868179321,5.563967454224386,-0.0,0.24217508733272552,-1.7459562460528772,-0.0,-0.001010631793178618,0.5002405047416687,2.588867661912353e-11,-0.000846220413222909,1.1080238819122314,-0.0025895291473716497,0.033226512372493744
270.0,477.0,-3.8913,0.8477,8.7942,-0.0438,0.037,-0.1147,-2.196667810479635,0.0028735981322824955,4.39059591293335,-1.510262370109558,0.000555865466594696,1.9145584106445312,5.564015793591299,-0.0,0.24941125512123108,-1.7459524313556116,-0.0,-0.005908707622438669,0.5002601146697998,4.705138849473182e-16,0.011516308411955833,1.107987880706787,-0.0026790699921548367,0.009923354722559452
270.0,477.0,-3.8913,0.8477,8.7942,-0.0438,0.037,-0.1147,-2.1966473064818324,0.002263477770611644,4.3892598152160645,-1.510290265083313,0.0010463298531249166,1.8525972366333008,5.563995766430654,-0.0,0.2504749894142151,-1.7459395567523401,-0.0,-0.004681568127125502,0.5002158880233765,8.551357629656254e-21,0.012164202518761158,1.1079961061477661,-0.0024718334898352623,0.014584844931960106
270.0,477.0,-3.8913,0.8477,8.7942,-0.0438,0.037,-0.1147,-2.1966477833189906,0.0020035619381815195,4.426563739776611,-1.5101977586746216,0.001282267621718347,1.8623113632202148,5.5639474270637415,-0.0,0.24706000089645386,-1.7459400335894983,-0.0,0.0029811030253767967,0.5002281069755554,2.380301204020055e-24,0.0019611837342381477,1.1079756021499634,-0.0023344471119344234,-0.023524874821305275
270.0,477.0,-3.8913,0.8477,8.7942,-0.0438,0.037,-0.1147,-2.1965958080687464,0.0019348238129168749,4.3555402755737305,-1.5102301836013794,0.0019114711321890354,1.8996617794036865,5.563971507340231,-0.0,0.25481629371643066,-1.7459357420550745,-0.0,0.009884671308100224,0.5002723932266235,4.3260804152747255e-29,0.020169416442513466,1.1079357862472534,-0.0022596879862248898,-0.030578168109059334
270.0,477.0,-3.8913,0.8477,8.7942,-0.0438,0.037,-0.1147,-2.1965795956053675,0.0016427317168563604,4.434844970703125,-1.5102219581604004,0.0019584293477237225,1.902435302734375,5.563971507340231,-0.0,0.26214247941970825,-1.7459357420550745,-0.0,-0.0008678502636030316,0.5002200603485107,7.862437228848876e-34,0.006136051844805479,1.1079920530319214,-0.001974034123122692,-0.04697003215551376
270.0,477.0,-3.8913,0.8477,8.7942,-0.0438,0.037,-0.1147,-2.1966077289977015,0.0015361568657681346,4.346099853515625,-1.5101853609085083,0.002104507526382804,1.908416509628296,5.563939142018118,-0.0,0.25670185685157776,-1.7459562460528772,-0.0,-0.003096363041549921,0.500244140625,2.1885380764413105e-37,0.01756071113049984,1.1079440116882324,-0.002291928045451641,-0.04968855157494545
270.0,477.0,-3.8913,0.8477,8.7942,-0.0438,0.037,-0.1147,-2.1965753040709437,0.0015608249232172966,4.434226989746094,-1.5101699829101562,0.0033194629941135645,1.8833316564559937,5.563975560456075,-0.0,0.27123117446899414,-1.7459357420550745,-0.0,0.004516446962952614,0.5002158880233765,3.976885041753831e-42,-0.0007319679134525359,1.1079039573669434,-0.002623035805299878,-0.04261186718940735
270.0,477.0,-3.8913,0.8477,8.7942,-0.0438,0.037,-0.1147,-2.196583410302633,0.001516155432909727,4.367109775543213,-1.5101338624954224,0.003841020166873932,1.907505989074707,5.564027714520254,-0.0,0.2622932195663452,-1.7459481398211878,-0.0,-0.00433584488928318,0.5002321600914001,0.0,0.011135975830256939,1.1079120635986328,-0.0037368505727499723,-0.06935795396566391
269.0,496.0,-3.9284,0.9063,9.082,-0.0357,0.0307,-0.1229,-2.1965395412840785,0.0014021466486155987,4.425115585327148,-1.5101507902145386,0.004929615184664726,1.9212417602539062,5.5639511225517175,-0.0,0.2604295611381531,-1.745988670979635,-0.0,0.004238353110849857,0.500252366065979,0.0,-0.0027515857946127653,1.1078275442123413,-0.004957474768161774,-0.12548191845417023
269.0,496.0,-3.9284,0.9063,9.082,-0.0357,0.0307,-0.1229,-2.196535726586813,0.0013481192290782928,4.407068729400635,-1.510077953338623,0.005532467737793922,1.9298722743988037,5.56397973278121,4.967720457216274e-09,0.25179868936538696,-1.7459357420550745,-0.0,-0.007754538208246231,0.5002036094665527,5.538218465517275e-05,0.00788208656013012,1.107811450958252,-0.0054549272172153,-0.07072585076093674
269.0,496.0,-3.9284,0.9063,9.082,-0.0357,0.0307,-0.1229,-2.1966000996031703,0.0013622076949104667,4.427098751068115,-1.5100343227386475,0.006274514365941286,1.8950724601745605,5.564015793591299,9.028587204034863e-14,0.28325560688972473,-1.74591571489443,-0.0,0.006605635862797499,0.5002601146697998,0.00010112881136592478,0.008470850996673107,1.1077558994293213,-0.007712732534855604,-0.1122732162475586
269.0,496.0,-3.9284,0.9063,9.082,-0.0357,0.0307,-0.1229,-2.1965557537474574,0.0013427094090729952,4.388926029205322,-1.509933590888977,0.008195663802325726,1.9512228965759277,5.563959228783407,1.6409010319858628e-18,0.27108025550842285,-1.74591571489443,-0.0,-0.0019315355457365513,0.5002240538597107,9.278843936044723e-05,0.018929103389382362,1.1077362298965454,-0.009836620651185513,-0.0818592980504036
269.0,496.0,-3.9284,0.9063,9.082,-0.0357,0.0307,-0.1229,-2.1965037784972132,0.001461776322685182,4.421665191650391,-1.509910225868225,0.009777622297406197,1.9380152225494385,5.5639957068260095,2.982257097751826e-23,0.27591389417648315,-1.7459114233600062,-0.0,0.015561219304800034,0.5002158284187317,8.571828220738098e-05,0.013468744233250618,1.1076159477233887,-0.012649853713810444,-0.13261227309703827
269.0,496.0,-3.9284,0.9063,9.082,-0.0357,0.0307,-0.1229,-2.196519514123434,0.0014971581986173987,4.470812797546387,-1.5098751783370972,0.011944619007408619,1.9621100425720215,5.563991534500875,8.301221053867617e-27,0.26958757638931274,-1.7459195295916956,-0.0,0.004805559292435646,0.5002723932266235,8.108457404887304e-05,-0.0047123064287006855,1.107523798942566,-0.014594231732189655,-0.16854102909564972
269.0,496.0,-3.9284,0.9063,9.082,-0.0357,0.0307,-0.1229,-2.1964837513365687,0.001521697617135942,4.445894241333008,-1.5097014904022217,0.014946076087653637,1.905714511871338,5.563927221089163,1.5087062096264325e-31,0.2768975794315338,-1.7458718458758753,-0.0,0.01715683564543724,0.5002800822257996,9.075545676751062e-05,0.020731406286358833,1.1074159145355225,-0.01803080178797245,-0.14873945713043213
269.0,496.0,-3.9284,0.9063,9.082,-0.0357,0.0307,-0.1229,-2.196507593194479,0.0016324433963745832,4.414497375488281,-1.5096020698547363,0.01988057605922222,1.9572296142578125,5.563951062947073,2.741998774284414e-36,0.2723883390426636,-1.7459161917315882,-0.0,0.010197021067142487,0.5002682209014893,8.504241850459948e-05,0.00395818380638957,1.1072721481323242,-0.02324187383055687,-0.18767300248146057
269.0,496.0,-3.9284,0.9063,9.082,-0.0357,0.0307,-0.1229,-2.1965114078917445,0.0014535111840814352,4.495473861694336,-1.5095185041427612,0.02267909049987793,1.9725217819213867,5.56400345542983,7.632452345637981e-40,0.2809489369392395,-1.7459119001971644,-0.0,0.016879349946975708,0.500276505947113,8.120581333059818e-05,0.00264285528101027,1.1070556640625,-0.027010757476091385,-0.20476335287094116
269.0,496.0,-3.9284,0.9063,9.082,-0.0357,0.0307,-0.1229,-2.1965276203551234,0.0009428563644178212,4.429605484008789,-1.5092625617980957,0.030425716191530228,1.9679617881774902,5.563955533295431,1.401298464324817e-44,0.2724650502204895,-1.745960537587301,-0.0,0.024922426789999008,0.5002683997154236,8.933608478400856e-05,0.005350611638277769,1.106847882270813,-0.03299776092171669,-0.228214830160141
269.0,496.0,-3.9284,0.9063,9.082,-0.0357,0.0307,-0.1229,-2.196495672265524,0.0005550312343984842,4.4495649337768555,-1.5090185403823853,0.03698455169796944,2.0264315605163574,5.563967454224386,0.0,0.2813887596130371,-1.7459238211261194,-0.0,0.023777585476636887,0.5002599954605103,8.456630166620016e-05,0.0074124932289123535,1.1065353155136108,-0.038068752735853195,-0.2268080711364746
269.0,496.0,-3.9284,0.9063,9.082,-0.0357,0.0307,-0.1229,-2.1965514622130335,0.0003932784602511674,4.440025806427002,-1.508665919303894,0.044612180441617966,2.0279157161712646,5.563891219883718,0.0,0.2781981825828552,-1.7459281126605433,-0.0,0.01854081079363823,0.5002396106719971,9.17094512260519e-05,0.0167517252266407,1.1062557697296143,-0.04262012988328934,-0.23146259784698486
264.0,468.0,-4.0612,1.2102,9.3745,-0.0223,0.0586,-0.1707,-2.1964994869627894,0.00027117671561427414,4.449919700622559,-1.5083614587783813,0.0510077066719532,2.0517578125,5.563987898617544,0.0,0.28491806983947754,-1.7458837668048304,-0.0,0.014605371281504631,0.5002400279045105,8.834594336804003e-05,0.018492316827178,1.1060359477996826,-0.04526853188872337,-0.25782763957977295
264.0,468.0,-4.0612,1.2102,9.3745,-0.0223,0.0586,-0.1707,-2.1965156994261683,0.00017542182467877865,4.444943904876709,-1.5079548358917236,0.06054125726222992,2.018010377883911,5.5639837858970544,0.0,0.27124205231666565,-1.7459562460528772,-0.0,0.01929974928498268,0.5003002285957336,9.962129115592688e-05,0.018089571967720985,1.1055347919464111,-0.04773590713739395,-0.2269527167081833
264.0,468.0,-4.0612,1.2102,9.3745,-0.0223,0.0586,-0.1707,-2.196479459802145,0.00014556011592503637,4.443382740020752,-1.5074139833450317,0.07230360060930252,2.024137496948242,5.563943612366476,0.0,0.24935895204544067,-1.7459281126605433,0.0001630681217648089,0.027325008064508438,0.5002518892288208,9.157633758150041e-05,0.01294034905731678,1.1051673889160156,-0.052281614392995834,-0.2328859120607376
264.0,468.0,-4.0612,1.2102,9.3745,-0.0223,0.0586,-0.1707,-2.196531911889547,9.736001084093004e-05,4.456613540649414,-1.5069910287857056,0.08166529983282089,2.0428996086120605,5.5639797923858545,0.0,0.2701815068721771,-1.745875660573141,0.00016708769544493407,0.022952230647206306,0.500223696231842,8.631042874185368e-05,0.0310018640011549,1.1048840284347534,-0.057343918830156326,-0.26213741302490234
264.0,468.0,-4.0612,1.2102,9.3745,-0.0223,0.0586,-0.1707,-2.196559568444723,-6.288020085776225e-05,4.447386741638184,-1.506291151046753,0.09092853218317032,2.0876312255859375,5.5638834712798975,-2.1851834389963187e-05,0.26104119420051575,-1.7459161917315882,0.00017457750800531358,0.02900969795882702,0.5002601742744446,9.617829346098006e-05,0.008299874141812325,1.1043753623962402,-0.061685968190431595,-0.25508394837379456
264.0,468.0,-4.0612,1.2102,9.3745,-0.0223,0.0586,-0.1707,-2.1965395412840785,-3.706071220221929e-05,4.475464820861816,-1.5054945945739746,0.09701824933290482,2.062668561935425,5.56393181064681,-4.2699721234384924e-05,0.2655600607395172,-1.7458918730365198,0.00019943223742302507,0.036478787660598755,0.5002518892288208,8.978998812381178e-05,0.011993225663900375,1.1039122343063354,-0.06163527071475983,-0.3154330253601074
264.0,468.0,-4.0612,1.2102,9.3745,-0.0223,0.0586,-0.1707,-2.1965514622130335,-2.88665455627779e-06,4.491150379180908,-1.5047481060028076,0.09608354419469833,2.043153762817383,5.56393181064681,-4.101277590962127e-05,0.25925490260124207,-1.7458632628070276,0.0002856794453691691,0.045521918684244156,0.5002482533454895,8.419033110840246e-05,0.014983342960476875,1.1033638715744019,-0.059365008026361465,-0.29912054538726807
264.0,468.0,-4.0612,1.2102,9.3745,-0.0223,0.0586,-0.1707,-2.196531911889547,-6.970930343380699e-12,4.485142707824707,-1.5040960311889648,0.09867745637893677,2.052503824234009,5.563915478974142,-3.9225305954460055e-05,0.2638815641403198,-1.7459080854998987,0.00028819881845265627,0.04369182512164116,0.5002400279045105,8.042842819122598e-05,0.015176229178905487,1.1029599905014038,-0.057934269309043884,-0.3026173412799835
264.0,468.0,-4.0612,1.2102,9.3745,-0.0223,0.0586,-0.1707,-2.196519990960592,-2.258493102472042e-19,4.496955871582031,-1.5032274723052979,0.10640862584114075,2.0936598777770996,5.563907253533163,-3.7071065889904276e-05,0.26601696014404297,-1.7458956877337855,0.000277153478236869,0.03995279222726822,0.5003002285957336,8.855698979459703e-05,0.01814081519842148,1.102512001991272,-0.05787864699959755,-0.29902756214141846
264.0,468.0,-4.0612,1.2102,9.3745,-0.0223,0.0586,-0.1707,-2.196547647515768,-7.317230319285135e-27,4.442383766174316,-1.5023715496063232,0.11265295743942261,2.0883257389068604,5.563903558045187,-3.51411072188057e-05,0.26627710461616516,-1.7459080854998987,0.0003262445388827473,0.04715660959482193,0.5002805590629578,8.384299871977419e-05,0.0036588977091014385,1.1019800901412964,-0.06055770441889763,-0.3639015555381775
264.0,468.0,-4.0612,1.2102,9.3745,-0.0223,0.0586,-0.1707,-2.196535726586813,-2.3706899410466085e-34,4.498335361480713,-1.5014081001281738,0.12524041533470154,2.1776511669158936,5.563899504929342,-4.453464498510584e-05,0.25189465284347534,-1.7459200064288538,0.0003193157899659127,0.05340466648340225,0.5003002285957336,9.097422298509628e-05,0.014841953292489052,1.101540207862854,-0.062837615609169,-0.3598511815071106
264.0,468.0,-4.0612,1.2102,9.3745,-0.0223,0.0586,-0.1707,-2.1965557537474574,-5.724934811075824e-40,4.405472755432129,-1.5006850957870483,0.12893886864185333,2.1332004070281982,5.563855576306143,-0.00011090999032603577,0.26065969467163086,-1.745875660573141,0.00031630625016987324,0.053676411509513855,0.5003445148468018,8.765473467065021e-05,0.03497122973203659,1.1011760234832764,-0.06106841191649437,-0.3446352481842041
264.0,468.0,-4.0612,1.2102,9.3745,-0.0223,0.0586,-0.1707,-2.1965676746764125,-0.0009812472853809595,4.4222917556762695,-1.499528169631958,0.12468249350786209,2.1673004627227783,5.563859629421987,-0.0002333499869564548,0.25949573516845703,-1.745875660573141,0.0002634716802276671,0.051581576466560364,0.5003325939178467,0.00010472617577761412,0.028962615877389908,1.1006802320480347,-0.06080342456698418,-0.28908056020736694
248.0,381.0,-3.5683,0.2506,9.0718,-0.0695,0.1298,-0.2089,-2.1965514622130335,-0.00031711964402347803,4.472222328186035,-1.498570442199707,0.12404702603816986,2.1736602783203125,5.563863682537832,-0.0005596785922534764,0.2526357173919678,-1.745904270802633,0.0002579317952040583,0.04817473143339157,0.5002842545509338,0.0001146524227806367,0.029496077448129654,1.1001883745193481,-0.06059930846095085,-0.34318432211875916
248.0,381.0,-3.5683,0.2506,9.0718,-0.0695,0.1298,-0.2089,-2.196575780908102,-0.0001279318385059014,4.454562664031982,-1.4978229999542236,0.12460062652826309,2.128800630569458,5.563915776997366,-0.0005283228820189834,0.24679167568683624,-1.7459319273578089,0.00023291462275665253,0.0436275452375412,0.5002642273902893,0.0001169398965430446,0.01857091672718525,1.0997846126556396,-0.0612746886909008,-0.32971394062042236
248.0,381.0,-3.5683,0.2506,9.0718,-0.0695,0.1298,-0.2089,-2.196508070031637,-1.4094244882301155e-08,4.470077037811279,-1.4967552423477173,0.12864165008068085,2.104830741882324,5.5638558743293665,-0.0004187091253697872,0.2364353984594345,-1.7458880583392542,0.00020622671581804752,0.04910307377576828,0.5002883672714233,0.00012495261034928262,0.030672136694192886,1.0993647575378418,-0.061108823865652084,-0.31511688232421875
248.0,381.0,-3.5683,0.2506,9.0718,-0.0695,0.1298,-0.2089,-2.1966072521605433,-4.566355677439117e-16,4.456201076507568,-1.495712161064148,0.13969048857688904,2.187241792678833,5.563875961094656,-0.00033909399644471705,0.25291603803634644,-1.7459281126605433,0.00018502684542909265,0.033593010157346725,0.5003162026405334,0.00023648740898352116,0.028863560408353806,1.0988726615905762,-0.056342847645282745,-0.2595827579498291
248.0,381.0,-3.5683,0.2506,9.0718,-0.0695,0.1298,-0.2089,-2.196587701837057,-1.4794414167928828e-23,4.477229118347168,-1.494555950164795,0.14239831268787384,2.182464122772217,5.563839900284567,-0.00040137849282473326,0.2354605346918106,-1.7458999792682093,0.00014840926451142877,0.04658949002623558,0.5002957582473755,0.00024834717623889446,0.026136483997106552,1.0984127521514893,-0.05058390647172928,-0.2786329686641693
248.0,381.0,-3.5683,0.2506,9.0718,-0.0695,0.1298,-0.2089,-2.1966196499266566,-3.572677084036098e-29,4.480674743652344,-1.4937162399291992,0.14239725470542908,2.1837196350097656,5.563843953400411,-0.0009815425146371126,0.239780455827713,-1.745871369038717,0.00013498414773494005,0.04733635112643242,0.500320315361023,0.00023664862965233624,0.029562590643763542,1.0981131792068481,-0.04646538197994232,-0.24912145733833313
248.0,381.0,-3.5683,0.2506,9.0718,-0.0695,0.1298,-0.2089,-2.1966196499266566,-1.157501947589662e-36,4.453792572021484,-1.4925178289413452,0.1437664031982422,2.1573071479797363,5.563775646477499,-0.001670238096266985,0.2390109896659851,-1.7459161917315882,0.00012052230886183679,0.04457855969667435,0.5002719759941101,0.0002196640707552433,0.041365306824445724,1.0977568626403809,-0.04171938821673393,-0.2741563320159912
248.0,381.0,-3.5683,0.2506,9.0718,-0.0695,0.1298,-0.2089,-2.1966315708556117,-0.0009657979826442897,4.467720985412598,-1.4913983345031738,0.14385397732257843,2.181847095489502,5.563819873123922,-0.0017641965532675385,0.24483633041381836,-1.745864216481344,0.00015221037028823048,0.04093029350042343,0.5002880096435547,0.00022031334810890257,0.03130171075463295,1.0974528789520264,-0.03835316002368927,-0.24296753108501434
248.0,381.0,-3.5683,0.2506,9.0718,-0.0695,0.1298,-0.2089,-2.196627756158346,-0.0004288632480893284,4.4715375900268555,-1.4905180931091309,0.144995778799057,2.1679024696350098,5.5637879250343225,-0.0016280639683827758,0.23381224274635315,-1.7458394209491175,0.00027788421721197665,0.05322927236557007,0.5002961158752441,0.00024216408201027662,0.0327049195766449,1.0972528457641602,-0.037055015563964844,-0.3073849380016327
248.0,381.0,-3.5683,0.2506,9.0718,-0.0695,0.1298,-0.2089,-2.1965633831419886,-0.00018136281869374216,4.4996538162231445,-1.489347219467163,0.13987457752227783,2.1969549655914307,5.563723671227255,-0.0016336606349796057,0.23133939504623413,-1.7458685080157679,0.0003129679535049945,0.05206127464771271,0.5003363490104675,0.0001995750644709915,0.03981247916817665,1.0970171689987183,-0.03048950619995594,-0.27766942977905273
248.0,381.0,-3.5683,0.2506,9.0718,-0.0695,0.1298,-0.2089,-2.196615835229391,-3.916061785957936e-08,4.434469223022461,-1.488203525543213,0.14908400177955627,2.1641087532043457,5.563800203591146,-0.0012914263643324375,0.2282402515411377,-1.7458599249469202,0.00029102503322064877,0.05927031487226486,0.500320315361023,0.00020339885668363422,0.035199422389268875,1.0968215465545654,-0.02516624704003334,-0.27134519815444946
248.0,381.0,-3.5683,0.2506,9.0718,-0.0695,0.1298,-0.2089,-2.1965915165343226,-1.268754134549745e-15,4.491430282592773,-1.4870399236679077,0.1555149406194687,2.218127727508545,5.563752281456747,-0.0013069858541712165,0.22795861959457397,-1.7458599249469202,0.0003352229541633278,0.04504535719752312,0.5003485083580017,0.00020232287351973355,0.03023289516568184,1.0965855121612549,-0.022056423127651215,-0.2905091345310211
229.0,304.0,-4.1689,0.4283,8.9982,-0.0832,0.1741,-0.1756,-2.196583410302633,-3.0638921350257948e-21,4.504321575164795,-1.4860769510269165,0.163298562169075,2.188631296157837,5.563735949784078,-0.0021180054172873497,0.23459090292453766,-1.7458437124835413,0.0004296685219742358,0.05452391505241394,0.500320315361023,0.00018778027151711285,0.022065842524170876,1.0964454412460327,-0.019847607240080833,-0.29881563782691956
229.0,304.0,-4.1689,0.4283,8.9982,-0.0832,0.1741,-0.1756,-2.196639677087301,-9.926621498976507e-29,4.478796482086182,-1.484743595123291,0.16584575176239014,2.1971805095672607,5.563655662327566,-0.0031136858742684126,0.23030157387256622,-1.7458198706256312,0.0008774653542786837,0.0579073429107666,0.5003321170806885,0.0001915323518915102,0.041347429156303406,1.0963175296783447,-0.016931110993027687,-0.3059835731983185
229.0,304.0,-4.1689,0.4283,8.9982,-0.0832,0.1741,-0.1756,-2.1965676746764125,-3.2160995232000437e-36,4.483077049255371,-1.4834699630737305,0.1638035774230957,2.1876585483551025,5.563683855324545,-0.003695238381624222,0.23557519912719727,-1.7458437124835413,0.0013750880025327206,0.05912249535322189,0.5003366470336914,0.00017355044838041067,0.03777896985411644,1.0961734056472778,-0.014204383827745914,-0.28607839345932007
229.0,304.0,-4.1689,0.4283,8.9982,-0.0832,0.1741,-0.1756,-2.196603914300436,-1.0369608636003646e-43,4.482624530792236,-1.4821265935897827,0.17047636210918427,2.293882369995117,5.563587713032522,-0.0019825552590191364,0.23688630759716034,-1.7458160559283655,0.007304654456675053,0.07134196162223816,0.5003404021263123,0.00015722461102996022,0.04949246346950531,1.0960694551467896,-0.012635468505322933,-0.26684558391571045
229.0,304.0,-4.1689,0.4283,8.9982,-0.0832,0.1741,-0.1756,-2.1966315708556117,0.0,4.470561504364014,-1.4810988903045654,0.1779264509677887,2.265324592590332,5.563616263657369,-0.0015423259465023875,0.21938394010066986,-1.7457197348224085,0.020041367039084435,0.07907023280858994,0.5003243684768677,0.0001423069043084979,0.05131947994232178,1.0960371494293213,-0.00991049688309431,-0.3396516740322113
229.0,304.0,-4.1689,0.4283,8.9982,-0.0832,0.1741,-0.1756,-2.196627756158346,0.0,4.510047912597656,-1.4795902967453003,0.18288551270961761,2.282508373260498,5.563531505852499,-0.0030858127865940332,0.22885233163833618,-1.7455876509295862,0.015990665182471275,0.07960545271635056,0.5003038644790649,0.00015158967289607972,0.053478434681892395,1.0960139036178589,-0.00719726225361228,-0.32477298378944397
229.0,304.0,-4.1689,0.4283,8.9982,-0.0832,0.1741,-0.1756,-2.1966315708556117,0.0,4.51724910736084,-1.4781856536865234,0.18371208012104034,2.246547222137451,5.563600408821859,-0.004208673257380724,0.20978224277496338,-1.745544735585348,0.0062355524860322475,0.08447062224149704,0.5003239512443542,0.00013628604938276112,0.04024706780910492,1.095913052558899,-0.005431510508060455,-0.3351256251335144
229.0,304.0,-4.1689,0.4283,8.9982,-0.0832,0.1741,-0.1756,-2.1966473064818324,0.0,4.478882789611816,-1.4770450592041016,0.19229015707969666,2.284897804260254,5.563484000950613,-0.004920193925499916,0.22677308320999146,-1.745528523121969,0.0011451896280050278,0.08273136615753174,0.5002920627593994,0.0001463968656025827,0.03817964345216751,1.0958936214447021,-0.0036322008818387985,-0.34735631942749023
229.0,304.0,-4.1689,0.4283,8.9982,-0.0832,0.1741,-0.1756,-2.196627756158346,0.0,4.506839752197266,-1.475453495979309,0.2043248564004898,2.340012311935425,5.563492643624105,-0.004066315945237875,0.21854999661445618,-1.745500389729635,0.0004994143382646143,0.08414915204048157,0.5003121495246887,0.00013512671284843236,0.04041457548737526,1.095881700515747,-0.003536764532327652,-0.41017335653305054
229.0,304.0,-4.1689,0.4283,8.9982,-0.0832,0.1741,-0.1756,-2.196639677087301,0.0,4.477289199829102,-1.4737581014633179,0.21005934476852417,2.3706188201904297,5.563532697945394,-0.0028843791224062443,0.21565593779087067,-1.7455127874957483,0.0003209659189451486,0.09186914563179016,0.5003039836883545,0.00014218792784959078,0.043016109615564346,1.0958534479141235,-0.0033120790030807257,-0.38219279050827026
229.0,304.0,-4.1689,0.4283,8.9982,-0.0832,0.1741,-0.1756,-2.1966759167113246,0.0,4.540806293487549,-1.4721112251281738,0.2130006104707718,2.3482065200805664,5.563440191536703,-0.0018400340341031551,0.2087375968694687,-1.7455204168902796,0.00023653890821151435,0.07454811036586761,0.5003162026405334,0.0001318125578109175,0.02657294273376465,1.0958216190338135,-0.003323338460177183,-0.40366822481155396
229.0,304.0,-4.1689,0.4283,8.9982,-0.0832,0.1741,-0.1756,-2.1966520748534144,0.0,4.50893497467041,-1.4708446264266968,0.21842356026172638,2.3571486473083496,5.563416111260214,-0.0016838860465213656,0.22461165487766266,-1.7455046812640589,5.380231959861703e-05,0.07238870114088058,0.5002998113632202,0.000136769114760682,0.05143791809678078,1.0958093404769897,-0.0027349090669304132,-0.4176173806190491
207.0,249.0,-4.3837,0.5946,9.1813,-0.0895,0.246,-0.1655,-2.196639677087301,0.0,4.528521537780762,-1.4690128564834595,0.22179490327835083,2.373915195465088,5.563360500126638,-0.003064398653805256,0.21346837282180786,-1.7455528418170374,4.3185158574488014e-05,0.08485521376132965,0.5003120303153992,0.00012204847007524222,0.04189305752515793,1.0958093404769897,-0.0022954412270337343,-0.39974087476730347
207.0,249.0,-4.3837,0.5946,9.1813,-0.0895,0.246,-0.1655,-2.196627756158346,-9.736658830661327e-05,4.589547634124756,-1.4671727418899536,0.22316089272499084,2.398939847946167,5.563320266991415,-0.0041831424459815025,0.20360039174556732,-1.7454965750323694,6.301153189269826e-05,0.09098056703805923,0.5002998113632202,0.00012922588211949915,0.0415954664349556,1.0958380699157715,-0.0012935556005686522,-0.4258587956428528
207.0,249.0,-4.3837,0.5946,9.1813,-0.0895,0.246,-0.1655,-2.1966315708556117,-8.787591650616378e-05,4.542470932006836,-1.4658048152923584,0.22562670707702637,2.41237473487854,5.563300537853994,-0.00592780252918601,0.20652976632118225,-1.7455204168902796,8.856225031195208e-05,0.09329376369714737,0.5003805160522461,0.00012308717123232782,0.04066239297389984,1.0957610607147217,-0.001093315426260233,-0.4494304060935974
207.0,249.0,-4.3837,0.5946,9.1813,-0.0895,0.246,-0.1655,-2.1966759167113246,-7.775328413117677e-05,4.500102519989014,-1.463916301727295,0.22804293036460876,2.4599215984344482,5.563232886582174,-0.010751507245004177,0.19578315317630768,-1.745444122944967,0.00011299103061901405,0.08952780067920685,0.5003519058227539,0.00012674838944803923,0.04995580017566681,1.0957733392715454,-0.0009320640238001943,-0.4548831582069397
207.0,249.0,-4.3837,0.5946,9.1813,-0.0895,0.246,-0.1655,-2.1966597042479457,-4.648132744478062e-05,4.5116682052612305,-1.462105631828308,0.22963657975196838,2.393031358718872,5.563080835133352,-0.015310416929423809,0.18873974680900574,-1.7454803625689905,0.00025395004195161164,0.08898589015007019,0.5003038644790649,0.00013432819105219096,0.05072825774550438,1.0957856178283691,-0.00060325424419716,-0.42561203241348267
207.0,249.0,-4.3837,0.5946,9.1813,-0.0895,0.246,-0.1655,-2.1966520748534144,-6.319442036328837e-05,4.524007797241211,-1.4602956771850586,0.23237833380699158,2.4469757080078125,5.56289296129302,-0.0204505305737257,0.18580317497253418,-1.7454121748553675,0.0008222433389164507,0.09177528321743011,0.5004002451896667,0.00012886736658401787,0.04161406308412552,1.0957775115966797,-0.00039255674346350133,-0.4379690885543823
207.0,249.0,-4.3837,0.5946,9.1813,-0.0895,0.246,-0.1655,-2.196667810479635,-7.869943510740995e-05,4.501241683959961,-1.458856225013733,0.23487736284732819,2.5042295455932617,5.562805759697714,-0.02603294886648655,0.19020769000053406,-1.7454803625689905,0.0013879014877602458,0.10523263365030289,0.5003399848937988,0.00016362634778488427,0.048308249562978745,1.09579336643219,-0.0003733704215846956,-0.4713856279850006
207.0,249.0,-4.3837,0.5946,9.1813,-0.0895,0.246,-0.1655,-2.1967154941954554,-0.00017298372404184192,4.541546821594238,-1.4569767713546753,0.23483076691627502,2.451284408569336,5.562429058342733,-0.03914053365588188,0.17473959922790527,-1.7454522291766565,0.0011102197458967566,0.099685899913311,0.5003198981285095,0.00017121323617175221,0.060175687074661255,1.095801591873169,-0.0003411881916690618,-0.5113910436630249
207.0,249.0,-4.3837,0.5946,9.1813,-0.0895,0.246,-0.1655,-2.19667973140859,-0.00018309595179744065,4.52712345123291,-1.4551422595977783,0.2401888072490692,2.4784555435180664,5.5620624897773645,-0.07007811963558197,0.16496822237968445,-1.7454245726214808,0.001128756208345294,0.10671109706163406,0.5003641843795776,0.0001757958234520629,0.03739660978317261,1.0958056449890137,-0.0002436536451568827,-0.4980088472366333
207.0,249.0,-4.3837,0.5946,9.1813,-0.0895,0.246,-0.1655,-2.1967035732665003,-0.00018797257507685572,4.554712295532227,-1.4531656503677368,0.24167458713054657,2.4940314292907715,5.5612109182174585,-0.127641960978508,0.1345946192741394,-1.7453959623919886,0.0014484680723398924,0.10490206629037857,0.500324010848999,0.00018078269204124808,0.06315795332193375,1.095757246017456,-0.001130064483731985,-0.4886974096298218
207.0,249.0,-4.3837,0.5946,9.1813,-0.0895,0.246,-0.1655,-2.1966597042479457,-0.00019729849009308964,4.596829891204834,-1.4517059326171875,0.2417692095041275,2.4566659927368164,5.560278343945303,-0.1634618490934372,0.11167928576469421,-1.745404068623678,0.0012813772773370147,0.10191605985164642,0.5003519058227539,0.00016943723312579095,0.045324355363845825,1.0957655906677246,-0.0013967892155051231,-0.5246003866195679
207.0,249.0,-4.3837,0.5946,9.1813,-0.0895,0.246,-0.1655,-2.1966916523375453,-0.00017780902271624655,4.584213733673096,-1.4497843980789185,0.2512945532798767,2.4775290489196777,5.558716940670767,-0.18710073828697205,0.11666025221347809,-1.7454407850848597,0.0013040595222264528,0.11876319348812103,0.5002792477607727,0.00021025519527029246,0.056340157985687256,1.0957696437835693,-0.0019788481295108795,-0.5190190076828003
202.0,212.0,-5.5322,1.2736,8.7972,0.0009,0.0263,-0.1348,-2.196731229821676,-0.00021919766732025892,4.593384742736816,-1.4477838277816772,0.2475406974554062,2.51774263381958,5.557060766011038,-0.24176892638206482,0.07740329205989838,-1.7453840414630335,0.0018384859431535006,0.11583425104618073,0.5003358721733093,0.00021257605112623423,0.05959542095661163,1.0957696437835693,-0.003367980709299445,-0.5526123046875
202.0,212.0,-5.5322,1.2736,8.7972,0.0009,0.0263,-0.1348,-2.196707387963766,-0.00019730135682038963,4.564645767211914,-1.4461631774902344,0.2510848343372345,2.5595521926879883,5.555410611420431,-0.27450981736183167,0.07020626962184906,-1.7454045454608362,0.0019104823004454374,0.11425810307264328,0.5003641843795776,0.00019012241682503372,0.040393371134996414,1.0957176685333252,-0.003999228589236736,-0.5594419836997986
202.0,212.0,-5.5322,1.2736,8.7972,0.0009,0.0263,-0.1348,-2.196643968621725,-0.0001343075418844819,4.56974983215332,-1.4442179203033447,0.2628224790096283,2.528360605239868,5.552905189781942,-0.3440335690975189,0.030350418761372566,-1.7453606764422815,0.0021606129594147205,0.12421661615371704,0.5003280639648438,0.00019439210882410407,0.04248494654893875,1.0956414937973022,-0.0060318331234157085,-0.6281294226646423
202.0,212.0,-5.5322,1.2736,8.7972,0.0009,0.0263,-0.1348,-2.1966639957823695,-7.797230500727892e-05,4.591628074645996,-1.4421546459197998,0.2617427408695221,2.5779287815093994,5.549907851010122,-0.39840462803840637,0.017382290214300156,-1.745312515889303,0.0032950290478765965,0.13541217148303986,0.5003162026405334,0.00017305983055848628,0.03866014629602432,1.095569133758545,-0.01093619130551815,-0.6487103700637817
202.0,212.0,-5.5322,1.2736,8.7972,0.0009,0.0263,-0.1348,-2.196719308892721,-8.302316700792289e-07,4.623002529144287,-1.4400476217269897,0.2640921473503113,2.5658974647521973,5.5464497087295435,-0.45647937059402466,-0.008150111883878708,-1.745300594960348,0.0032201060093939304,0.12240857630968094,0.5003120303153992,0.0001559258089400828,0.048254262655973434,1.0955138206481934,-0.014359729364514351,-0.6363338232040405
202.0,212.0,-5.5322,1.2736,8.7972,0.0009,0.0263,-0.1348,-2.1966477833189906,-2.0049118615306227e-12,4.588668346405029,-1.4384052753448486,0.2699226438999176,2.570486068725586,5.543520378857412,-0.4994601011276245,-0.056275855749845505,-1.745328728352682,0.0025353573728352785,0.1219891831278801,0.5003440380096436,0.0001451479474781081,0.07161132246255875,1.0954095125198364,-0.015738748013973236,-0.6550701856613159
202.0,212.0,-5.5322,1.2736,8.7972,0.0009,0.0263,-0.1348,-2.196643968621725,-6.495660003566834e-20,4.606821060180664,-1.4362857341766357,0.26409053802490234,2.5413849353790283,5.539261805802145,-0.5588932037353516,-0.05652868375182152,-1.745300594960348,0.00130003213416785,0.13400042057037354,0.5003317594528198,0.0001328997896052897,0.029665187001228333,1.095265507698059,-0.01823977753520012,-0.687157928943634
202.0,212.0,-5.5322,1.2736,8.7972,0.0009,0.0263,-0.1348,-2.196695467034811,-2.104511220701559e-27,4.557114601135254,-1.4340622425079346,0.26630422472953796,2.563281297683716,5.534647333412924,-0.6019095778465271,-0.04328225553035736,-1.7452924887286585,0.0009144048090092838,0.11774273216724396,0.5003477334976196,0.00014005617413204163,0.03593580424785614,1.0950855016708374,-0.02206435054540634,-0.6532959938049316
202.0,212.0,-5.5322,1.2736,8.7972,0.0009,0.0263,-0.1348,-2.19665588955068,-5.082147337366448e-33,4.569734573364258,-1.4324302673339844,0.2697378993034363,2.551703929901123,5.530900168209829,-0.6372397541999817,-0.026837807148694992,-1.7452567259417933,0.0005705641233362257,0.11799667775630951,0.5003357529640198,0.00013234245125204325,0.04099508747458458,1.0949534177780151,-0.02680840902030468,-0.7239558100700378
202.0,212.0,-5.5322,1.2736,8.7972,0.0009,0.0263,-0.1348,-2.19667973140859,-1.6465537215509466e-40,4.605832099914551,-1.4302431344985962,0.26819056272506714,2.578949451446533,5.525622534542837,-0.6768872737884521,-0.05167597532272339,-1.74530536333193,0.00045046498416922987,0.11194826662540436,0.5003883838653564,0.00012327852891758084,0.03812026232481003,1.0947335958480835,-0.031529005616903305,-0.70400071144104
202.0,212.0,-5.5322,1.2736,8.7972,0.0009,0.0263,-0.1348,-2.196667810479635,0.0,4.606985092163086,-1.428136944770813,0.2702127695083618,2.618307590484619,5.520191955357351,-0.7028994560241699,-0.051815614104270935,-1.7452848593341272,0.00044987694127485156,0.12086643278598785,0.5003481507301331,0.00011537651880644262,0.043839868158102036,1.0944814682006836,-0.0344618484377861,-0.719936728477478
202.0,212.0,-5.5322,1.2736,8.7972,0.0009,0.0263,-0.1348,-2.1966639957823695,0.0,4.629640102386475,-1.4259216785430908,0.2720986604690552,2.5944983959198,5.514465915947714,-0.7271912693977356,-0.03516211360692978,-1.7452405134784144,0.00034774316009134054,0.12890735268592834,0.5003160834312439,9.532908006804064e-05,0.044168487191200256,1.0942097902297974,-0.037473902106285095,-0.7253667712211609
211.0,197.0,-4.0606,1.0875,8.8158,0.1245,-0.4501,-0.0525,-2.196719308892721,0.0,4.678319454193115,-1.4243545532226562,0.27463772892951965,2.600867986679077,5.510102975159445,-0.7417149543762207,-0.01537941675633192,-1.7452648321734827,0.0003341279225423932,0.12019747495651245,0.500320315361023,9.077246795641258e-05,0.03462362661957741,1.0939573049545288,-0.03957947716116905,-0.7607131600379944
211.0,197.0,-4.0606,1.0875,8.8158,0.1245,-0.4501,-0.0525,-2.1967355213561,0.0,4.626465797424316,-1.4221670627593994,0.2732871472835541,2.5726003646850586,5.5041910884673975,-0.7507227659225464,-0.025375980883836746,-1.7452448050128382,0.0006357789388857782,0.10867273062467575,0.5002995729446411,8.58259154483676e-05,0.0236602071672678,1.093673825263977,-0.04218762367963791,-0.8058733940124512
211.0,197.0,-4.0606,1.0875,8.8158,0.1245,-0.4501,-0.0525,-2.196735998193258,-0.0006287882570177317,4.680288791656494,-1.4200165271759033,0.2740580439567566,2.56683349609375,5.4981552241142175,-0.7478058934211731,-0.03745114803314209,-1.7452572027789515,0.0006235169130377471,0.12037816643714905,0.5003440976142883,8.139069541357458e-05,0.029767395928502083,1.0933257341384888,-0.044159434735774994,-0.8022452592849731
211.0,197.0,-4.0606,1.0875,8.8158,0.1245,-0.4501,-0.0525,-2.1967317066588343,-0.001099860412068665,4.645522117614746,-1.4178452491760254,0.2760571837425232,2.571676731109619,5.492277192860403,-0.7415339946746826,-0.029515191912651062,-1.745265309010641,0.0005011936882510781,0.13994380831718445,0.5002756118774414,7.739142893115059e-05,0.02969321608543396,1.0929089784622192,-0.04781515151262283,-0.8043671250343323
211.0,197.0,-4.0606,1.0875,8.8158,0.1245,-0.4501,-0.0525,-2.1967913113036097,-0.002464230637997389,4.640961647033691,-1.4162101745605469,0.2691035270690918,2.515347957611084,5.487870144635,-0.7359828352928162,-0.017561111599206924,-1.7452529112445276,0.0004563242255244404,0.11263372004032135,0.5003244280815125,2.7316866180626675e-05,0.03985119238495827,1.0926095247268677,-0.04941694438457489,-0.8055738806724548
211.0,197.0,-4.0606,1.0875,8.8158,0.1245,-0.4501,-0.0525,-2.196791788140768,-0.0070345294661819935,4.610525131225586,-1.4141120910644531,0.27379605174064636,2.597524642944336,5.482096838742056,-0.7167298197746277,-0.019323546439409256,-1.745220963154928,0.00039806374115869403,0.12853512167930603,0.5003244280815125,1.613224776519928e-05,0.009929030202329159,1.0922696590423584,-0.0525176078081131,-0.8307836651802063
211.0,197.0,-4.0606,1.0875,8.8158,0.1245,-0.4501,-0.0525,-2.1968475780882777,-0.008410528302192688,4.645106792449951,-1.4119518995285034,0.2760840058326721,2.5781493186950684,5.476487505226888,-0.6962479948997498,0.005046605132520199,-1.7452810446368616,0.0003626995603553951,0.1277024745941162,0.5002880096435547,1.2138174497522414e-05,0.009806090965867043,1.0917937755584717,-0.05804503336548805,-0.8480496406555176
211.0,197.0,-4.0606,1.0875,8.8158,0.1245,-0.4501,-0.0525,-2.1969319782652796,-0.005799369420856237,4.601861476898193,-1.4102506637573242,0.27183789014816284,2.611441135406494,5.472467291146078,-0.6723776459693909,-0.014914099127054214,-1.7452486197101038,0.00031032622791826725,0.13893693685531616,0.500260055065155,1.006709169359965e-07,0.009954683482646942,1.091493844985962,-0.06133200228214264,-0.822081446647644
211.0,197.0,-4.0606,1.0875,8.8158,0.1245,-0.4501,-0.0525,-2.196935316125387,-0.0026069022715091705,4.633382797241211,-1.408031702041626,0.27449119091033936,2.579669713973999,5.46706514337615,-0.645574688911438,-0.003416441846638918,-1.7452691237079065,0.00024331499298568815,0.12706226110458374,0.5003080368041992,1.829644075135306e-12,0.017056651413440704,1.0910145044326782,-0.060568828135728836,-0.8404533863067627
211.0,197.0,-4.0606,1.0875,8.8158,0.1245,-0.4501,-0.0525,-2.1969996891417445,-0.004730019718408585,4.605563163757324,-1.405951738357544,0.2647542357444763,2.558790683746338,5.462034809380331,-0.6234063506126404,-0.01094018667936325,-1.7452486197101038,0.0002400382363703102,0.12094658613204956,0.5003161430358887,3.3252879000313427e-17,0.012654190883040428,1.0905015468597412,-0.05364060029387474,-0.8370583057403564
211.0,197.0,-4.0606,1.0875,8.8158,0.1245,-0.4501,-0.0525,-2.1970678768553675,-0.007457323372364044,4.6181464195251465,-1.40374755859375,0.25446924567222595,2.580526113510132,5.457276570587911,-0.5996197462081909,-0.015167472884058952,-1.7452405134784144,0.0002671768015716225,0.12175938487052917,0.5002998113632202,6.043546951045252e-22,0.016275636851787567,1.0900936126708984,-0.04938646778464317,-0.8613273501396179
211.0,197.0,-4.0606,1.0875,8.8158,0.1245,-0.4501,-0.0525,-2.197047849694723,-0.005678425543010235,4.6102986335754395,-1.4022985696792603,0.2531014680862427,2.5445995330810547,5.453728484898367,-0.5719273090362549,-0.01031343825161457,-1.7451923529254358,0.00027982116444036365,0.13450264930725098,0.5002756714820862,1.6822434151934789e-25,0.004234525840729475,1.0897902250289917,-0.04785100370645523,-0.852739155292511
211.0,197.0,-4.0606,1.0875,8.8158,0.1245,-0.4501,-0.0525,-2.1970793209471644,-0.002192205749452114,4.645324230194092,-1.4002777338027954,0.243923619389534,2.53178334236145,5.449290025025167,-0.5511186122894287,-0.0060931239277124405,-1.7451766172992151,0.0002908652531914413,0.12867075204849243,0.5002880096435547,3.0573942264887392e-30,-0.004915473982691765,1.0893981456756592,-0.046513281762599945,-0.8460862040519714
174.0,190.0,-2.8349,0.6066,8.9216,0.0816,-0.2695,-0.0767,-2.1970917187132777,-0.0008195986738428473,4.647733688354492,-1.398373007774353,0.23411975800991058,2.5509047508239746,5.445082413941183,-0.5124184489250183,0.006857597269117832,-1.7452691237079065,0.00029774176073260605,0.12762415409088135,0.5002880096435547,5.556662815382727e-35,0.010506201535463333,1.089090347290039,-0.04268389940261841,-0.8174024820327759
174.0,190.0,-2.8349,0.6066,8.9216,0.0816,-0.2695,-0.0767,-2.1971031628050746,-0.0005879995878785849,4.630489826202393,-1.397006869316101,0.23028594255447388,2.5475542545318604,5.442121314793386,-0.4985602796077728,0.005909571424126625,-1.7452047506915491,0.0002659046440385282,0.14334696531295776,0.500312089920044,1.5467177920705857e-38,0.005939962342381477,1.0888543128967285,-0.03721462935209274,-0.8589967489242554
174.0,190.0,-2.8349,0.6066,8.9216,0.0816,-0.2695,-0.0767,-2.1970516643919886,-0.0006194901652634144,4.6382269859313965,-1.395117163658142,0.22057916224002838,2.5117483139038086,5.438226210861959,-0.4656849205493927,0.003693239763379097,-1.7451847235309046,0.00026355788577347994,0.1328670233488083,0.500320315361023,2.8166099132928823e-43,0.011106951162219048,1.0885906219482422,-0.03373776748776436,-0.8503079414367676
174.0,190.0,-2.8349,0.6066,8.9216,0.0816,-0.2695,-0.0767,-2.1971475086607875,-0.00040454871486872435,4.675127983093262,-1.3934201002120972,0.2168320119380951,2.542126417160034,5.434522616654196,-0.43754178285598755,0.03769013285636902,-1.7452247778521937,0.0006002932204864919,0.14322492480278015,0.5002880096435547,0.0,0.004564472008496523,1.0882298946380615,-0.03273838385939598,-0.7973825931549072
174.0,190.0,-2.8349,0.6066,8.9216,0.0816,-0.2695,-0.0767,-2.1971031628050746,-0.00041568317101337016,4.63987922668457,-1.3917183876037598,0.21293136477470398,2.566533088684082,5.43113802650527,-0.41161468625068665,0.048166580498218536,-1.7451971212970179,0.0016002428019419312,0.12417808920145035,0.5003039836883545,0.0,0.02334781363606453,1.088006615638733,-0.032999712973833084,-0.8045474290847778
174.0,190.0,-2.8349,0.6066,8.9216,0.0816,-0.2695,-0.0767,-2.197155614892477,-0.001590315019711852,4.664500713348389,-1.3905154466629028,0.19896872341632843,2.50312876701355,5.428717899113455,-0.4049443304538727,0.043267376720905304,-1.7451079527484339,0.0013862147461622953,0.1406574845314026,0.5003563165664673,0.0,0.011407503858208656,1.0878467559814453,-0.031692150980234146,-0.8271089792251587
174.0,190.0,-2.8349,0.6066,8.9216,0.0816,-0.2695,-0.0767,-2.197143693963522,-0.0026343688368797302,4.629679203033447,-1.3890342712402344,0.19268254935741425,2.4822487831115723,5.425675797253408,-0.37552857398986816,0.05150288715958595,-1.7451446692096155,0.0006504278862848878,0.14674407243728638,0.500312089920044,0.0,0.001895881607197225,1.0876384973526,-0.02816302888095379,-0.8654067516326904
174.0,190.0,-2.8349,0.6066,8.9216,0.0816,-0.2695,-0.0767,-2.197178979913229,-0.0037513168063014746,4.689059257507324,-1.387495756149292,0.1882302165031433,2.530522346496582,5.4228336093719385,-0.3550543189048767,0.06678732484579086,-1.7451766172992151,0.0004940911312587559,0.1266258805990219,0.5003321170806885,0.0,0.004245148040354252,1.0874147415161133,-0.026725489646196365,-0.8201625347137451
174.0,190.0,-2.8349,0.6066,8.9216,0.0816,-0.2695,-0.0767,-2.1972276173033656,-0.006275857798755169,4.618246555328369,-1.3864116668701172,0.17595601081848145,2.4484434127807617,5.420724379807272,-0.3353256285190582,0.08837160468101501,-1.7451890150653284,0.0004521799273788929,0.12589021027088165,0.5003239512443542,0.0,0.016156436875462532,1.0872585773468018,-0.02635524980723858,-0.828818678855896
174.0,190.0,-2.8349,0.6066,8.9216,0.0816,-0.2695,-0.0767,-2.197247167626852,-0.007460084743797779,4.613299369812012,-1.3849892616271973,0.1597980111837387,2.43690824508667,5.418169307499685,-0.318441778421402,0.09286679327487946,-1.7451608816729944,0.0004005584924016148,0.12593986093997955,0.5003399848937988,0.0,0.0011107007740065455,1.087083101272583,-0.027582352980971336,-0.8349270820617676
174.0,190.0,-2.8349,0.6066,8.9216,0.0816,-0.2695,-0.0767,-2.197271009484762,-0.006141692865639925,4.575263500213623,-1.3838305473327637,0.15280026197433472,2.47131085395813,5.415736961155691,-0.2967640459537506,0.09570273756980896,-1.7451689879046839,0.0003282373945694417,0.13897863030433655,0.5003481507301331,0.0,0.008956503123044968,1.0868548154830933,-0.028696531429886818,-0.8531551361083984
174.0,190.0,-2.8349,0.6066,8.9216,0.0816,-0.2695,-0.0767,-2.1973473034300746,-0.004558052867650986,4.627357482910156,-1.3826541900634766,0.14697308838367462,2.4501142501831055,5.413512038975515,-0.25241631269454956,0.13379622995853424,-1.745180908833639,0.0002776052861008793,0.13253989815711975,0.5003923773765564,0.0,0.004410989116877317,1.0866711139678955,-0.028669120743870735,-0.8151413202285767
162.0,176.0,-2.7338,1.7444,8.9169,0.036,-0.1078,-0.1229,-2.1974193058409632,-0.0053675067611038685,4.638788223266602,-1.3818179368972778,0.14382894337177277,2.4519715309143066,5.412112521916189,-0.2415531575679779,0.12993600964546204,-1.74516469637026,0.0002488197642378509,0.13213832676410675,0.5002716779708862,0.0,0.007132073864340782,1.0864181518554688,-0.02790256030857563,-0.8292417526245117
162.0,176.0,-2.7338,1.7444,8.9169,0.036,-0.1078,-0.1229,-2.197491308251852,-0.009292110800743103,4.604667663574219,-1.380702018737793,0.1299666464328766,2.4738218784332275,5.410346913128652,-0.20568934082984924,0.12871651351451874,-1.7451885382281702,0.00021859895787201822,0.1377144604921341,0.5003038644790649,0.0,0.008774638175964355,1.0862305164337158,-0.027447756379842758,-0.8372558355331421
162.0,176.0,-2.7338,1.7444,8.9169,0.036,-0.1078,-0.1229,-2.197515150109762,-0.009579659439623356,4.618273735046387,-1.3797658681869507,0.11175642162561417,2.4008495807647705,5.408743667393484,-0.19593021273612976,0.1543814092874527,-1.74516469637026,0.00019492463616188616,0.13423453271389008,0.5003239512443542,0.0,0.026661915704607964,1.08599853515625,-0.028226811438798904,-0.8105301856994629
162.0,176.0,-2.7338,1.7444,8.9169,0.036,-0.1078,-0.1229,-2.1975351772704066,-0.005106761120259762,4.6213788986206055,-1.3789699077606201,0.10046125948429108,2.4333667755126953,5.407456803112783,-0.14722268283367157,0.1764504313468933,-1.7451971212970179,0.00012440481805242598,0.13962142169475555,0.500339925289154,0.0,0.02064812183380127,1.085778832435608,-0.02789648436009884,-0.8253929018974304
162.0,176.0,-2.7338,1.7444,8.9169,0.036,-0.1078,-0.1229,-2.197599550286764,-0.0037124939262866974,4.60288667678833,-1.3783833980560303,0.09050608426332474,2.3686492443084717,5.406703042774954,-0.10686143487691879,0.20019429922103882,-1.7451971212970179,0.0001148750598076731,0.13554295897483826,0.5002638101577759,0.0,0.018648484721779823,1.0856270790100098,-0.026427116245031357,-0.8407694101333618
