ramyac6/ROB537/final_project/csv/good/good_170.csv
tof_0,tof_1,accelx,accely,accelz,gyrox,gyroy,gyroz,shoulder_lift_joint_position,shoulder_lift_joint_velocity,shoulder_lift_joint_effort,elbow_joint_position,elbow_joint_velocity,elbow_joint_effort,wrist_1_joint_position,wrist_1_joint_velocity,wrist_1_joint_effort,wrist_2_joint_position,wrist_2_joint_velocity,wrist_2_joint_effort,wrist_3_joint_position,wrist_3_joint_velocity,wrist_3_joint_effort,shoulder_pan_joint_position,shoulder_pan_joint_velocity,shoulder_pan_joint_effort
1000.0,8190.0,1.3735,0.0341,9.6227,-0.0365,0.0237,-0.1203,-1.521230113958456,0.0,1.8201063871383667,-2.0728580951690674,-0.0,1.9758769273757935,4.911442908435621,-0.0,0.2840803265571594,-1.5865700880633753,0.0,-0.009054037742316723,0.788271427154541,0.0,-0.003507047425955534,0.7987062931060791,0.0,0.021771498024463654
1000.0,8190.0,1.3735,0.0341,9.6227,-0.0365,0.0237,-0.1203,-1.5212182340076943,0.0,1.7676992416381836,-2.0728704929351807,-0.0,1.993666648864746,4.9115192768867395,-0.0,0.2904713451862335,-1.5864937941180628,0.0,-0.0084742596372962,0.7882554531097412,0.0,0.00415237108245492,0.7987183332443237,0.0,0.035676367580890656
1000.0,8190.0,1.3735,0.0341,9.6227,-0.0365,0.0237,-0.1203,-1.5212424260428925,0.0,1.8200771808624268,-2.0729541778564453,-0.0,1.9793521165847778,4.911495509534635,-0.0,0.2874077260494232,-1.5865142981158655,0.0,0.00014931289479136467,0.7883356809616089,0.0,-0.009133027866482735,0.7987224459648132,0.0,-0.027204565703868866
1000.0,8190.0,1.3735,0.0341,9.6227,-0.0365,0.0237,-0.1203,-1.521230113958456,0.0,1.7484230995178223,-2.072934627532959,-0.0,1.9789328575134277,4.911535250931539,-0.0,0.3037617802619934,-1.5865619818316858,0.0,-0.0003872427623718977,0.7882635593414307,0.0,-0.0042770253494381905,0.7986903190612793,0.0,0.03368356078863144
1000.0,8190.0,1.3735,0.0341,9.6227,-0.0365,0.0237,-0.1203,-1.5212223094752808,0.0,1.7515815496444702,-2.0728745460510254,-0.0,2.02677583694458,4.911523330002584,-0.0,0.2843877971172333,-1.5865901152240198,0.0,-0.009389186277985573,0.7883074283599854,0.0,-0.011944228783249855,0.7987504601478577,0.0,0.05080452933907509
1000.0,8190.0,1.3735,0.0341,9.6227,-0.0365,0.0237,-0.1203,-1.5211617399803181,0.0,1.8134886026382446,-2.0728580951690674,-0.0,1.9829434156417847,4.911462935596266,-0.0,0.303926020860672,-1.5865581671344202,0.0,-0.023835832253098488,0.7882832288742065,0.0,-0.007255016826093197,0.7986821532249451,0.0,0.0529298335313797
1042.0,8190.0,1.41,0.0425,9.4917,-0.0353,0.0273,-0.1268,-1.5212102693370362,0.0,1.7803277969360352,-2.0728540420532227,-0.0,2.0188441276550293,4.911527457624235,-0.0,0.2985735535621643,-1.586573902760641,0.0,-0.007805712521076202,0.7883033752441406,0.0,0.001597261638380587,0.7987343072891235,0.0,0.05054587125778198
1042.0,8190.0,1.41,0.0425,9.4917,-0.0353,0.0273,-0.1268,-1.5212223094752808,0.0,1.812117099761963,-2.072866201400757,-0.0,2.0120368003845215,4.9114750949438,-0.0,0.28660279512405396,-1.5865581671344202,0.0,-0.018847394734621048,0.7883115410804749,0.0,0.006156730465590954,0.7987101078033447,0.0,0.0030277669429779053
1042.0,8190.0,1.41,0.0425,9.4917,-0.0353,0.0273,-0.1268,-1.5211821918240567,0.0,1.825709581375122,-2.0728859901428223,-0.0,2.007641553878784,4.911499249726095,-0.0,0.3057674467563629,-1.5865381399737757,0.0,-0.007478044368326664,0.7882512211799622,0.0,-0.0060483543202281,0.7987145185470581,0.0,-0.01911698654294014
1042.0,8190.0,1.41,0.0425,9.4917,-0.0353,0.0273,-0.1268,-1.5212383058718224,0.0,1.788860559463501,-2.0729026794433594,-0.0,1.997976541519165,4.911491381912985,-0.0,0.2949964702129364,-1.5865619818316858,0.0,-0.01880497857928276,0.7882554531097412,0.0,-0.004105782136321068,0.798714280128479,0.0,0.0059272972866892815
1042.0,8190.0,1.41,0.0425,9.4917,-0.0353,0.0273,-0.1268,-1.52127085373316,0.0,1.7861605882644653,-2.0728540420532227,-0.0,2.039752244949341,4.91151117065505,-0.0,0.2993331551551819,-1.586585823689596,0.0,-0.01761900819838047,0.7882672548294067,0.0,0.013171108439564705,0.7986985445022583,0.0,0.0629580020904541
1042.0,8190.0,1.41,0.0425,9.4917,-0.0353,0.0273,-0.1268,-1.5212305051139374,0.0,1.7729816436767578,-2.0728819370269775,-0.0,2.0081424713134766,4.911515223770895,-0.0,0.2866375744342804,-1.5865581671344202,0.0,0.0008599913562647998,0.7882996201515198,0.0,-0.004195511806756258,0.798726499080658,0.0,-0.05210878700017929
1042.0,8190.0,1.41,0.0425,9.4917,-0.0353,0.0273,-0.1268,-1.521246501510479,0.0,1.811407208442688,-2.0728540420532227,-0.0,1.964646577835083,4.9115594057138345,-0.0,0.3025166392326355,-1.5865419546710413,0.0,-0.0013742160517722368,0.7882832884788513,0.0,0.003910730592906475,0.798714280128479,0.0,-0.013110524043440819
1042.0,8190.0,1.41,0.0425,9.4917,-0.0353,0.0273,-0.1268,-1.521230113958456,0.0,1.8137009143829346,-2.072894334793091,-0.0,2.0292022228240967,4.91147922256545,-0.0,0.29263976216316223,-1.586522404347555,0.0,-0.015041127800941467,0.7882754802703857,0.0,-0.005529668647795916,0.7987183332443237,0.0,0.030787713825702667
1042.0,8190.0,1.41,0.0425,9.4917,-0.0353,0.0273,-0.1268,-1.5212264259210606,0.0,1.8227884769439697,-2.0728704929351807,-0.0,2.0378267765045166,4.91146698871211,-0.0,0.28228503465652466,-1.5865657965289515,0.0,-0.014733288437128067,0.7882391214370728,0.0,-0.008702214807271957,0.7987183332443237,0.0,0.000199031550437212
1042.0,8190.0,1.41,0.0425,9.4917,-0.0353,0.0273,-0.1268,-1.5212667782655735,0.0,1.808526873588562,-2.0728859901428223,-0.0,1.9816365242004395,4.91151117065505,-0.0,0.28880980610847473,-1.5865619818316858,0.0,-0.0008813121821731329,0.7882795333862305,0.0,-0.0028403918258845806,0.7987183332443237,0.0,0.03415854275226593
1042.0,8190.0,1.41,0.0425,9.4917,-0.0353,0.0273,-0.1268,-1.5212424260428925,0.0,1.7955577373504639,-2.0729188919067383,-0.0,1.9936659336090088,4.911514985352316,-0.0,0.28174325823783875,-1.5865462462054651,0.0,-0.011297238990664482,0.788275420665741,0.0,-0.0061621516942977905,0.7987062931060791,0.0,-0.03097148984670639
1006.0,1028.0,1.5296,0.0574,9.3494,-0.0363,0.027,-0.1142,-1.5212667782655735,0.0,1.7633213996887207,-2.0728776454925537,-0.0,2.004276752471924,4.911507117539205,-0.0,0.2876741588115692,-1.586585823689596,0.0,-0.0046502635814249516,0.7882553935050964,0.0,-0.009627035818994045,0.7986903190612793,0.0,-0.0069650704972445965
1006.0,1028.0,1.5296,0.0574,9.3494,-0.0363,0.027,-0.1142,-1.5211621162346383,0.0,1.8105013370513916,-2.0728940963745117,-0.0,2.013552665710449,4.91151117065505,-0.0,0.289828896522522,-1.5865262190448206,0.0,-0.004826228134334087,0.7882676124572754,0.0,-0.0009212027071043849,0.7986903190612793,0.0,-0.035025522112846375
1006.0,1028.0,1.5296,0.0574,9.3494,-0.0363,0.027,-0.1142,-1.5212061528912564,0.0,1.7936937808990479,-2.0728580951690674,-0.0,2.0195319652557373,4.9115192768867395,-0.0,0.2782582640647888,-1.586522404347555,0.0,-4.059146158397198e-05,0.7882713675498962,0.0,-0.005702056922018528,0.7986616492271423,0.0,0.0487346313893795
1006.0,1028.0,1.5296,0.0574,9.3494,-0.0363,0.027,-0.1142,-1.5211658005467434,0.0,1.8463315963745117,-2.072910785675049,-0.0,2.016537666320801,4.911523330002584,-0.0,0.2840070128440857,-1.5865657965289515,0.0,-0.014556136913597584,0.7882914543151855,0.0,0.00599435530602932,0.7986981272697449,0.0,-0.051895320415496826
1006.0,1028.0,1.5296,0.0574,9.3494,-0.0363,0.027,-0.1142,-1.5212305051139374,0.0,1.769559383392334,-2.072910785675049,-0.0,2.00506329536438,4.91149519661025,-0.0,0.2862008810043335,-1.5865619818316858,0.0,-0.01390365045517683,0.7882471084594727,0.0,-0.001059029484167695,0.7987425327301025,0.0,-0.044559985399246216
1006.0,1028.0,1.5296,0.0574,9.3494,-0.0363,0.027,-0.1142,-1.5212386970273037,0.0,1.7828733921051025,-2.072927236557007,-0.0,2.001333236694336,4.91149519661025,-0.0,0.2902314364910126,-1.5865462462054651,0.0,-0.0015079646836966276,0.7882914543151855,0.0,-0.005110305268317461,0.7987340688705444,0.0,0.02953885868191719
1006.0,1028.0,1.5296,0.0574,9.3494,-0.0363,0.027,-0.1142,-1.5212102693370362,0.0,1.8034417629241943,-2.0729312896728516,-0.0,2.0148205757141113,4.9115594057138345,-0.0,0.29853755235671997,-1.5865538755999964,0.0,-0.005547609180212021,0.7882996201515198,0.0,0.014246364124119282,0.7986939549446106,0.0,-0.0076188454404473305
1006.0,1028.0,1.5296,0.0574,9.3494,-0.0363,0.027,-0.1142,-1.5212305051139374,0.0,1.7951817512512207,-2.0728819370269775,-0.0,2.0076966285705566,4.91150330284194,-0.0,0.2898777723312378,-1.5865142981158655,0.0,-0.003238886361941695,0.7882835865020752,0.0,0.0025087250396609306,0.7987101674079895,0.0,0.06601449102163315
1006.0,1028.0,1.5296,0.0574,9.3494,-0.0363,0.027,-0.1142,-1.5212020736983796,0.0,1.8269826173782349,-2.0728745460510254,-0.0,2.036783456802368,4.911507117539205,-0.0,0.29429367184638977,-1.5865538755999964,0.0,-0.00720608327537775,0.7882634997367859,0.0,-0.009891040623188019,0.798694372177124,0.0,0.07490134239196777
1006.0,1028.0,1.5296,0.0574,9.3494,-0.0363,0.027,-0.1142,-1.5211942729404946,0.0,1.8131542205810547,-2.0728580951690674,-0.0,2.0060691833496094,4.91147922256545,-0.0,0.30125752091407776,-1.5865500609027308,0.0,-0.013412460684776306,0.788299560546875,0.0,-0.003573175985366106,0.7987467050552368,0.0,0.044566087424755096
1006.0,1028.0,1.5296,0.0574,9.3494,-0.0363,0.027,-0.1142,-1.521258582626917,0.0,1.7712078094482422,-2.0728704929351807,-0.0,1.992987871170044,4.91149519661025,-0.0,0.28943026065826416,-1.5865581671344202,0.0,-0.015289125964045525,0.7882672548294067,0.0,0.0095121581107378,0.7987062931060791,0.0,0.06912805140018463
1015.0,985.0,1.5547,0.0951,9.1388,-0.0319,0.0292,-0.1188,-1.5212143448046227,0.0,1.810624122619629,-2.072906732559204,-0.0,1.9618902206420898,4.911491381912985,-0.0,0.2933845520019531,-1.5865462462054651,0.0,-0.005598142743110657,0.7883074283599854,0.0,-0.003219328820705414,0.798714280128479,0.0,0.0010776757262647152
1015.0,985.0,1.5547,0.0951,9.1388,-0.0319,0.0292,-0.1188,-1.521246501510479,0.0,1.7703959941864014,-2.0728416442871094,-0.0,2.012845039367676,4.911507341056623,-0.0,0.2852456569671631,-1.5865777174579065,0.0,-0.005090570542961359,0.7882713675498962,0.0,0.0038459820207208395,0.7987062931060791,0.0,0.029036149382591248
1015.0,985.0,1.5547,0.0951,9.1388,-0.0319,0.0292,-0.1188,-1.5212342304042359,0.0,1.7812168598175049,-2.072882652282715,-0.0,2.007122039794922,4.91151117065505,-0.0,0.29213112592697144,-1.5865500609027308,0.0,-0.0135237080976367,0.7883197069168091,0.0,0.008619513362646103,0.798714280128479,0.0,-0.017145495861768723
1015.0,985.0,1.5547,0.0951,9.1388,-0.0319,0.0292,-0.1188,-1.5211942729404946,0.0,1.785110592842102,-2.072890043258667,-0.0,1.9610662460327148,4.911535250931539,-0.0,0.2916027307510376,-1.5865901152240198,0.0,-0.006720296572893858,0.7883115410804749,0.0,0.009880229830741882,0.7987224459648132,0.0,-0.008443275466561317
1015.0,985.0,1.5547,0.0951,9.1388,-0.0319,0.0292,-0.1188,-1.5212305051139374,0.0,1.786792278289795,-2.0728466510772705,-0.0,1.966475486755371,4.911531197815695,-0.0,0.29181990027427673,-1.586573902760641,0.0,-0.010071441531181335,0.7882992029190063,0.0,0.0009833402000367641,0.7987343072891235,0.0,0.0033563002943992615
1015.0,985.0,1.5547,0.0951,9.1388,-0.0319,0.0292,-0.1188,-1.5212182340076943,0.0,1.7818522453308105,-2.0729148387908936,-0.0,2.0407967567443848,4.91151117065505,-0.0,0.2994888424873352,-1.5865181128131312,0.0,-0.010356783866882324,0.7882753610610962,0.0,-0.0046545108780264854,0.7987145185470581,0.0,-0.02068096585571766
1015.0,985.0,1.5547,0.0951,9.1388,-0.0319,0.0292,-0.1188,-1.521230113958456,0.0,1.8140196800231934,-2.0728704929351807,-0.0,2.0032601356506348,4.91146698871211,-0.0,0.2978765368461609,-1.5865777174579065,0.0,-0.015025629661977291,0.7882914543151855,0.0,-0.0020800039637833834,0.7987546324729919,0.0,-0.03269718214869499
1015.0,985.0,1.5547,0.0951,9.1388,-0.0319,0.0292,-0.1188,-1.5212182340076943,0.0,1.7678170204162598,-2.072927236557007,-0.0,2.02816104888916,4.911535221129217,-0.0,0.2973839342594147,-1.5865657965289515,0.0,0.002836177358403802,0.7882595062255859,0.0,0.007474873214960098,0.7987224459648132,0.0,0.04534897580742836
1015.0,985.0,1.5547,0.0951,9.1388,-0.0319,0.0292,-0.1188,-1.5212544661811371,0.0,1.8141288757324219,-2.072849750518799,-0.0,1.9972786903381348,4.911519589811125,-0.0,0.29385751485824585,-1.586573902760641,0.0,-0.0043341247364878654,0.7882794737815857,0.0,0.010573986917734146,0.7987546324729919,0.0,-0.05591496452689171
1015.0,985.0,1.5547,0.0951,9.1388,-0.0319,0.0292,-0.1188,-1.5211781126311799,0.0,1.7949268817901611,-2.0728261470794678,-0.0,2.0115604400634766,4.911527174502172,-0.0,0.2891269028186798,-1.586522404347555,0.0,-0.012924181297421455,0.7883237600326538,0.0,-0.0088212750852108,0.7986898422241211,0.0,0.01644820347428322
1015.0,985.0,1.5547,0.0951,9.1388,-0.0319,0.0292,-0.1188,-1.5212264259210606,0.0,1.7754302024841309,-2.072910785675049,-0.0,2.0010337829589844,4.9115192768867395,-0.0,0.2941325306892395,-1.5865700880633753,0.0,-0.011256611905992031,0.7882951498031616,0.0,0.0008858158253133297,0.7986981272697449,0.0,-0.05487333610653877
1014.0,999.0,1.5446,0.1011,9.2842,-0.0331,0.0224,-0.1216,-1.521230113958456,0.0,1.8106913566589355,-2.0728540420532227,-0.0,1.989621877670288,4.911539304047384,-0.0,0.29729363322257996,-1.5865657965289515,0.0,-0.004859330132603645,0.7882270812988281,0.0,-0.011686512269079685,0.7987504601478577,0.0,-0.02094075456261635
1014.0,999.0,1.5446,0.1011,9.2842,-0.0331,0.0224,-0.1216,-1.5211942729404946,0.0,1.7773382663726807,-2.0728940963745117,-0.0,2.0117318630218506,4.911491381912985,-0.0,0.292020708322525,-1.5865462462054651,0.0,-0.021009152755141258,0.7882717251777649,0.0,-0.006016152910888195,0.7987302541732788,0.0,0.022164994850754738
1014.0,999.0,1.5446,0.1011,9.2842,-0.0331,0.0224,-0.1216,-1.5212383058718224,0.0,1.7662160396575928,-2.0728466510772705,-0.0,2.0317587852478027,4.911555069475927,-0.0,0.290189266204834,-1.5865538755999964,0.0,-0.01622847095131874,0.7882835865020752,0.0,-0.00048725109081715345,0.7986862063407898,0.0,0.013612203299999237
1014.0,999.0,1.5446,0.1011,9.2842,-0.0331,0.0224,-0.1216,-1.5211942729404946,0.0,1.7862437963485718,-2.0728819370269775,-0.0,2.0190393924713135,4.911462935596266,-0.0,0.29100915789604187,-1.5865500609027308,0.0,-0.010813661850988865,0.7882914543151855,0.0,-0.015818003565073013,0.7987103462219238,0.0,-0.01618339493870735
1014.0,999.0,1.5446,0.1011,9.2842,-0.0331,0.0224,-0.1216,-1.5212061528912564,0.0,1.7749382257461548,-2.0728819370269775,-0.0,1.9836188554763794,4.911547186761656,-0.0,0.2895936965942383,-1.5865700880633753,0.0,-0.0008391663432121277,0.7883279323577881,0.0,-0.006409185007214546,0.7986579537391663,0.0,0.01875399239361286
1014.0,999.0,1.5446,0.1011,9.2842,-0.0331,0.0224,-0.1216,-1.5212626580945035,0.0,1.8354071378707886,-2.072866201400757,-0.0,1.9637901782989502,4.911503273039617,-0.0,0.28511255979537964,-1.586573902760641,0.0,-0.008873962797224522,0.7882874011993408,0.0,-0.0012142360210418701,0.7987183332443237,0.0,0.0029959906823933125
1014.0,999.0,1.5446,0.1011,9.2842,-0.0331,0.0224,-0.1216,-1.5212264259210606,0.0,1.8291568756103516,-2.0728540420532227,-0.0,2.016899585723877,4.911559137492933,-0.0,0.2967877984046936,-1.5865619818316858,0.0,-0.00044313352555036545,0.7882754802703857,0.0,0.001819003140553832,0.7987183332443237,0.0,0.01968587562441826
1014.0,999.0,1.5446,0.1011,9.2842,-0.0331,0.0224,-0.1216,-1.5212101128748436,0.0,1.7814648151397705,-2.07287859916687,-0.0,2.0167016983032227,4.911527442723074,-0.0,0.3003227114677429,-1.5865300337420862,0.0,-0.00030166865326464176,0.7882874011993408,0.0,-0.006785139907151461,0.7986985445022583,0.0,-0.00131944939494133
1014.0,999.0,1.5446,0.1011,9.2842,-0.0331,0.0224,-0.1216,-1.5212223094752808,0.0,1.787853717803955,-2.0728580951690674,-0.0,2.01936411857605,4.911531182914533,-0.0,0.2890641689300537,-1.586585823689596,0.0,-0.00089040189050138,0.7883278131484985,0.0,-0.0137186823412776,0.7987343072891235,0.0,0.028554357588291168
1014.0,999.0,1.5446,0.1011,9.2842,-0.0331,0.0224,-0.1216,-1.5212061417153855,0.0,1.756202220916748,-2.0729024410247803,-0.0,2.0466396808624268,4.911483230977812,-0.0,0.2932543158531189,-1.5865619818316858,0.0,-0.018458308652043343,0.788303792476654,0.0,-0.011773983016610146,0.7986939549446106,0.0,0.04897097125649452
1014.0,999.0,1.5446,0.1011,9.2842,-0.0331,0.0224,-0.1216,-1.52122641847048,0.0,1.8419606685638428,-2.072849750518799,-0.0,1.9953947067260742,4.911507326155462,-0.0,0.298031210899353,-1.5865700880633753,0.0,-0.02242463454604149,0.788295567035675,0.0,0.010673072189092636,0.7987021803855896,0.0,-0.022691085934638977
1003.0,1043.0,1.4907,0.0873,9.3159,-0.0432,0.0298,-0.1187,-1.5212020736983796,0.0,1.7990622520446777,-2.0728819370269775,-0.0,2.003340244293213,4.911462875991621,-0.0,0.29542654752731323,-1.586522404347555,0.0,-0.01567743346095085,0.7882795333862305,0.0,0.0024481904692947865,0.7987021803855896,0.0,-0.04946490377187729
1003.0,1043.0,1.4907,0.0873,9.3159,-0.0432,0.0298,-0.1187,-1.5211979572525998,0.0,1.7724636793136597,-2.0729026794433594,-0.0,2.0240602493286133,4.911515253573217,-0.0,0.296996533870697,-1.586522404347555,0.0,-0.012145130895078182,0.7882996201515198,0.0,-0.007522474508732557,0.798738420009613,0.0,0.07712630927562714
1003.0,1043.0,1.4907,0.0873,9.3159,-0.0432,0.0298,-0.1187,-1.5211979572525998,0.0,1.7696139812469482,-2.0728983879089355,-0.0,1.9825183153152466,4.911535221129217,-0.0,0.29085829854011536,-1.586585823689596,0.0,-0.0015666132094338536,0.7882635593414307,0.0,-0.005317652132362127,0.798714280128479,0.0,-0.0372382327914238
1003.0,1043.0,1.4907,0.0873,9.3159,-0.0432,0.0298,-0.1187,-1.5212424260428925,0.0,1.805431842803955,-2.07287859916687,-0.0,2.0043232440948486,4.911539080529966,-0.0,0.2928105592727661,-1.5865657965289515,0.0,-0.016863860189914703,0.7883115410804749,0.0,-0.008066476322710514,0.798686146736145,0.0,-0.009364546276628971
1003.0,1043.0,1.4907,0.0873,9.3159,-0.0432,0.0298,-0.1187,-1.5212305051139374,0.0,1.7710957527160645,-2.0728981494903564,-0.0,2.020453453063965,4.91152714469985,-0.0,0.30203694105148315,-1.5865142981158655,0.0,-0.014794223941862583,0.7882795333862305,0.0,-0.003796262200921774,0.7987183332443237,0.0,-0.03640518710017204
1003.0,1043.0,1.4907,0.0873,9.3159,-0.0432,0.0298,-0.1187,-1.5211901527694245,0.0,1.7645764350891113,-2.0729024410247803,-0.0,2.007685899734497,4.91152714469985,-0.0,0.29033222794532776,-1.58653432527651,0.0,-0.00434216670691967,0.7883554100990295,0.0,0.0035729175433516502,0.7987302541732788,0.0,-0.007499983534216881
1003.0,1043.0,1.4907,0.0873,9.3159,-0.0432,0.0298,-0.1187,-1.5212020736983796,0.0,1.8122460842132568,-2.072910785675049,-0.0,2.0010786056518555,4.911495181709089,-0.0,0.2834416627883911,-1.5865181128131312,0.0,-0.005611197557300329,0.7882431745529175,0.0,0.00832882709801197,0.7987183332443237,0.0,-0.02034708298742771
1003.0,1043.0,1.4907,0.0873,9.3159,-0.0432,0.0298,-0.1187,-1.5212102693370362,0.0,1.796951174736023,-2.072894334793091,-0.0,1.9859578609466553,4.911499234824934,-0.0,0.2793571650981903,-1.5865500609027308,0.0,-0.010788396932184696,0.7882594466209412,0.0,-0.000104985483631026,0.7986779808998108,0.0,0.013000186532735825
1003.0,1043.0,1.4907,0.0873,9.3159,-0.0432,0.0298,-0.1187,-1.521222324376442,0.0,1.7846617698669434,-2.072906494140625,-0.0,2.0064940452575684,4.911539333849706,-0.0,0.28593796491622925,-1.5865581671344202,0.0,-0.0030814053025096655,0.7882754802703857,0.0,-0.006031989585608244,0.7987103462219238,0.0,-0.01946733333170414
1003.0,1043.0,1.4907,0.0873,9.3159,-0.0432,0.0298,-0.1187,-1.5211901527694245,0.0,1.8035519123077393,-2.0728704929351807,-0.0,2.0043768882751465,4.9115550992782495,-0.0,0.28962624073028564,-1.5865462462054651,0.0,-0.0008459833334200084,0.7882431149482727,0.0,-0.00018686807015910745,0.7987062931060791,0.0,0.018998393788933754
1003.0,1043.0,1.4907,0.0873,9.3159,-0.0432,0.0298,-0.1187,-1.5211821508458634,0.0,1.7753266096115112,-2.072882652282715,-0.0,1.9765105247497559,4.911483260780134,-0.0,0.305249959230423,-1.5865777174579065,0.0,-0.010077502578496933,0.7882758378982544,0.0,-0.00285141309723258,0.7987505197525024,0.0,-0.005150864366441965
1029.0,990.0,1.5529,0.0975,9.253,-0.0443,0.026,-0.1274,-1.5212383170476933,0.0,1.7926642894744873,-2.072890043258667,-0.0,1.9997038841247559,4.9115032879407785,-0.0,0.2957383990287781,-1.5865500609027308,0.0,-0.019062083214521408,0.7882832288742065,0.0,-0.005006127990782261,0.7987343072891235,0.0,0.004483235999941826
1029.0,990.0,1.5529,0.0975,9.253,-0.0443,0.026,-0.1274,-1.5212342304042359,0.0,1.8099244832992554,-2.0728416442871094,-0.0,2.019153356552124,4.911535280733862,-0.0,0.30581989884376526,-1.5865300337420862,0.0,-0.018315067514777184,0.788323700428009,0.0,0.0018569172825664282,0.7987425327301025,0.0,0.015203234739601612
1029.0,990.0,1.5529,0.0975,9.253,-0.0443,0.026,-0.1274,-1.5212424260428925,0.0,1.7849061489105225,-2.0728819370269775,-0.0,2.0005674362182617,4.911475124746122,-0.0,0.2808839678764343,-1.5865657965289515,0.0,-0.00441533699631691,0.788275420665741,0.0,0.009554186835885048,0.7986903190612793,0.0,0.0010628504678606987
1029.0,990.0,1.5529,0.0975,9.253,-0.0443,0.026,-0.1274,-1.5212024574032803,0.0,1.7881051301956177,-2.072930335998535,-0.0,1.9921886920928955,4.911499592452802,-0.0,0.2879834771156311,-1.586585823689596,0.0,-0.00045790578587912023,0.7883074283599854,0.0,-0.009345200844109058,0.7987546324729919,0.0,-0.02435559779405594
1029.0,990.0,1.5529,0.0975,9.253,-0.0443,0.026,-0.1274,-1.5211860512248059,0.0,1.7579280138015747,-2.0728983879089355,-0.0,1.9671272039413452,4.911523359804907,-0.0,0.29240697622299194,-1.5864899794207972,0.0,0.001883209915831685,0.788263201713562,0.0,-0.008519822731614113,0.7987545728683472,0.0,0.011279284954071045
1029.0,990.0,1.5529,0.0975,9.253,-0.0443,0.026,-0.1274,-1.5212264519980927,0.0,1.8223668336868286,-2.0728580951690674,-0.0,1.984433650970459,4.911523359804907,-0.0,0.29385966062545776,-1.5865657965289515,0.0,0.0005756997270509601,0.7882914543151855,0.0,-0.01658780314028263,0.7987224459648132,0.0,-0.00023253844119608402
1029.0,990.0,1.5529,0.0975,9.253,-0.0443,0.026,-0.1274,-1.5212664429894467,0.0,1.7544150352478027,-2.072882652282715,-0.0,1.9825067520141602,4.911458822875776,-0.0,0.3032888174057007,-1.5865381399737757,0.0,0.01151691097766161,0.7882713675498962,0.0,-0.002517575165256858,0.7987224459648132,0.0,0.0038795056752860546
1029.0,990.0,1.5529,0.0975,9.253,-0.0443,0.026,-0.1274,-1.5212383468500157,0.0,1.7879083156585693,-2.0729188919067383,-0.0,2.028608560562134,4.911527129798689,-0.0,0.2951502501964569,-1.5865939299212855,0.0,-0.01711692288517952,0.788267195224762,0.0,-0.0013300791615620255,0.7986898422241211,0.0,0.01481014583259821
1029.0,990.0,1.5529,0.0975,9.253,-0.0443,0.026,-0.1274,-1.5212223094752808,0.0,1.8014302253723145,-2.072842597961426,-0.0,1.99940025806427,4.9115275023277185,-0.0,0.2846260666847229,-1.5865657965289515,0.0,-0.009157376363873482,0.7882635593414307,0.0,0.013965314254164696,0.7987021803855896,0.0,-0.004277488216757774
1029.0,990.0,1.5529,0.0975,9.253,-0.0443,0.026,-0.1274,-1.5212301400354882,0.0,1.8107060194015503,-2.0728859901428223,-0.0,2.0007224082946777,4.911519291787901,-0.0,0.298846036195755,-1.5865381399737757,0.0,-0.014694097451865673,0.7882992029190063,0.0,-0.0027925530448555946,0.7987626791000366,0.0,-0.040882132947444916
1029.0,990.0,1.5529,0.0975,9.253,-0.0443,0.026,-0.1274,-1.5211901192418118,0.0,1.7847721576690674,-2.072849988937378,-0.0,2.0179176330566406,4.911499234824934,-0.0,0.30436083674430847,-1.5865381399737757,0.0,-0.005375861190259457,0.7883238196372986,0.0,-0.0048301806673407555,0.7987224459648132,0.0,0.016850382089614868
1045.0,1038.0,1.4752,0.0287,9.4696,-0.0363,0.0243,-0.1217,-1.5212140914848824,0.0,1.813485860824585,-2.0728745460510254,-0.0,1.9967986345291138,4.911499279528417,-0.0,0.3031572699546814,-1.586522404347555,0.0,-0.007288598455488682,0.7882512807846069,0.0,0.00348206190392375,0.7987062931060791,0.0,0.07203728705644608
1045.0,1038.0,1.4752,0.0287,9.4696,-0.0363,0.0243,-0.1217,-1.5211901192418118,0.0,1.7784746885299683,-2.0728466510772705,-0.0,2.027040481567383,4.911466944008627,-0.0,0.2900128960609436,-1.5865019003497522,0.0,-0.008296821266412735,0.7882672548294067,0.0,-0.0013026706874370575,0.7987183332443237,0.0,0.017232591286301613
1045.0,1038.0,1.4752,0.0287,9.4696,-0.0363,0.0243,-0.1217,-1.521206149165966,0.0,1.7850382328033447,-2.0728859901428223,-0.0,1.9927504062652588,4.911535280733862,-0.0,0.29230210185050964,-1.5865657965289515,0.0,-0.010945277288556099,0.7883356809616089,0.0,-0.010453252121806145,0.7987183332443237,0.0,0.02957877144217491
1045.0,1038.0,1.4752,0.0287,9.4696,-0.0363,0.0243,-0.1217,-1.521266409461834,0.0,1.7808568477630615,-2.072866201400757,-0.0,2.010551929473877,4.911491381912985,-0.0,0.28554847836494446,-1.58653432527651,0.0,-0.009510891512036324,0.7882794737815857,0.0,-0.005614766851067543,0.798721969127655,0.0,0.014069628901779652
1045.0,1038.0,1.4752,0.0287,9.4696,-0.0363,0.0243,-0.1217,-1.521210254435875,0.0,1.8188999891281128,-2.072906494140625,-0.0,2.0310134887695312,4.911519008665838,-0.0,0.2955087423324585,-1.5865500609027308,0.0,-0.023049302399158478,0.7882754802703857,0.0,-0.006669267546385527,0.7986903190612793,0.0,0.01714881882071495
1045.0,1038.0,1.4752,0.0287,9.4696,-0.0363,0.0243,-0.1217,-1.5212465313128014,0.0,1.7606191635131836,-2.0729188919067383,-0.0,1.973134994506836,4.9114750800426386,-0.0,0.3063187003135681,-1.5865500609027308,0.0,-0.01652279682457447,0.788255512714386,0.0,0.00575066264718771,0.798726499080658,0.0,0.010921329259872437
1045.0,1038.0,1.4752,0.0287,9.4696,-0.0363,0.0243,-0.1217,-1.521234245305397,0.0,1.787363886833191,-2.0729024410247803,-0.0,1.995310664176941,4.911483290582456,-0.0,0.291871577501297,-1.5865462462054651,0.0,-0.012797152623534203,0.788247287273407,0.0,-0.0013486793031916022,0.7987348437309265,0.0,-0.00914209708571434
1045.0,1038.0,1.4752,0.0287,9.4696,-0.0363,0.0243,-0.1217,-1.5212382946959515,0.0,1.832332968711853,-2.07287859916687,-0.0,2.0374832153320312,4.911507370858946,-0.0,0.3061137795448303,-1.5865381399737757,0.0,-0.013069222681224346,0.7882995009422302,0.0,0.015259620733559132,0.798714280128479,0.0,-0.0039749122224748135
1045.0,1038.0,1.4752,0.0287,9.4696,-0.0363,0.0243,-0.1217,-1.52122641847048,0.0,1.804053544998169,-2.072845935821533,-0.0,2.0017848014831543,4.9115275023277185,-0.0,0.3010273277759552,-1.5865419546710413,0.0,-0.00676225870847702,0.7882914543151855,0.0,-0.0049508605152368546,0.7986821532249451,0.0,-0.016667980700731277
1045.0,1038.0,1.4752,0.0287,9.4696,-0.0363,0.0243,-0.1217,-1.5211860474995156,0.0,1.8013485670089722,-2.0728344917297363,-0.0,1.9962269067764282,4.911531212716856,-0.0,0.30236873030662537,-1.5865300337420862,0.0,-0.0006900555454194546,0.7882999777793884,0.0,0.0013589360751211643,0.7987627387046814,0.0,-0.03903510794043541
1045.0,1038.0,1.4752,0.0287,9.4696,-0.0363,0.0243,-0.1217,-1.5212182116559525,0.0,1.8041844367980957,-2.0728342533111572,-0.0,2.018796920776367,4.911495166807928,-0.0,0.3069247901439667,-1.5865300337420862,0.0,-0.00417665857821703,0.7882835865020752,0.0,-0.010114844888448715,0.7987546324729919,0.0,0.020973732694983482
1041.0,1008.0,1.4183,-0.0377,9.326,-0.0411,0.0188,-0.1161,-1.521226019864418,0.0,1.7989680767059326,-2.0728697776794434,-0.0,2.0064926147460938,4.911519291787901,-0.0,0.29004114866256714,-1.5866058508502405,0.0,-0.0037964230868965387,0.7883114814758301,0.0,0.0035999228712171316,0.7987626791000366,0.0,-0.02216974087059498
1041.0,1008.0,1.4183,-0.0377,9.326,-0.0411,0.0188,-0.1161,-1.5212383058718224,0.0,1.756689190864563,-2.0728940963745117,-0.0,1.9717299938201904,4.911450955062666,-0.0,0.281141072511673,-1.5865419546710413,0.0,-0.015247900038957596,0.7883033752441406,0.0,0.00433743791654706,0.7987302541732788,0.0,-0.020207200199365616
1041.0,1008.0,1.4183,-0.0377,9.326,-0.0411,0.0188,-0.1161,-1.521217842852213,0.0,1.8102664947509766,-2.0728580951690674,-0.0,1.9942445755004883,4.9115434912736795,-0.0,0.2832905054092407,-1.5865381399737757,0.0,-0.003427409566938877,0.7882754802703857,0.0,0.002711421111598611,0.7987183332443237,0.0,0.02809007652103901
1041.0,1008.0,1.4183,-0.0377,9.326,-0.0411,0.0188,-0.1161,-1.52122641847048,0.0,1.8231149911880493,-2.072817802429199,-0.0,1.9929008483886719,4.911499234824934,-0.0,0.2950480878353119,-1.5866220633136194,0.0,-0.005320453085005283,0.7882554531097412,0.0,0.0031644110567867756,0.7987343072891235,0.0,0.00100646261125803
1041.0,1008.0,1.4183,-0.0377,9.326,-0.0411,0.0188,-0.1161,-1.5212184873274346,0.0,1.7795233726501465,-2.072934627532959,3.545700110407779e-06,2.020597219467163,4.911559122591772,-0.0,0.2928783893585205,-1.5865982214557093,0.0,0.003635325003415346,0.7882835865020752,0.0,-0.007667143829166889,0.7987059950828552,0.0,0.01983029395341873
1041.0,1008.0,1.4183,-0.0377,9.326,-0.0411,0.0188,-0.1161,-1.521218505953886,3.271684589911672e-10,1.7956957817077637,-2.0729024410247803,1.1487619395230547e-13,2.00620174407959,4.911555054574766,-2.9097908083031143e-08,0.2801856994628906,-1.5865863005267542,0.0,-0.016215024515986443,0.7882876992225647,0.0,0.005003701895475388,0.7987261414527893,0.0,0.020215019583702087
1041.0,1008.0,1.4183,-0.0377,9.326,-0.0411,0.0188,-0.1161,-1.5212026958218594,1.0599840612292381e-17,1.7829471826553345,-2.0728466510772705,0.0006709727458655834,1.9993507862091064,4.911523076682844,-5.288399926306475e-13,0.3011975586414337,-1.5865538755999964,0.0,-0.016970708966255188,0.7883477807044983,0.0,-0.006440464407205582,0.7987869381904602,4.1761941669583857e-13,0.01034578401595354
1041.0,1008.0,1.4183,-0.0377,9.326,-0.0411,0.0188,-0.1161,-1.521214337354042,0.00045547125046141446,1.7466046810150146,-2.0728540420532227,0.0005237771547399461,1.989025354385376,4.911507087736883,-9.611405275225204e-18,0.28377723693847656,-1.5865863005267542,0.0,-0.002717902883887291,0.7883114814758301,0.0,-0.008444160223007202,0.7987381219863892,1.3530341913546192e-20,0.011476169340312481
1041.0,1008.0,1.4183,-0.0377,9.326,-0.0411,0.0188,-0.1161,-1.5211903949132939,0.00032432351144962013,1.7689568996429443,-2.0729105472564697,0.0003930389939341694,2.046004056930542,4.911523076682844,-1.7468254419643103e-22,0.3035344183444977,-1.5865777174579065,0.0,-0.007883509621024132,0.7882432341575623,0.0,0.009177427738904953,0.7987626791000366,4.383659220598342e-28,-0.0443335622549057
1041.0,1008.0,1.4183,-0.0377,9.326,-0.0411,0.0188,-0.1161,-1.5211459596506138,0.0002517374523449689,1.84096360206604,-2.072866201400757,0.00031453592237085104,1.9930062294006348,4.911539065628805,-3.1747687871320176e-27,0.2939031720161438,-1.586625878010885,0.0,-0.011058507487177849,0.7882513403892517,0.0,-0.008816991932690144,0.7987101078033447,1.4202500103936833e-35,-0.037958115339279175
1041.0,1008.0,1.4183,-0.0377,9.326,-0.0411,0.0188,-0.1161,-1.5212304566851635,0.00020570348715409636,1.778686761856079,-2.072838544845581,0.0002621740277390927,1.9777497053146362,4.911507087736883,-5.769984550672248e-32,0.2897607088088989,-1.5866101423846644,2.189110004380268e-10,-0.017866291105747223,0.788275420665741,0.0,0.005371653940528631,0.7987464070320129,0.00023036594211589545,0.008931905962526798
1012.0,1009.0,1.6295,-0.1328,9.3182,-0.0388,0.0359,-0.1161,-1.5212184649756928,0.0001739036088110879,1.7752693891525269,-2.0728466510772705,0.00022475930745713413,1.9652496576309204,4.911479118257322,-1.0486662123533381e-36,0.28450995683670044,-1.586573902760641,3.978599303581121e-15,-0.006628353148698807,0.788271427154541,0.0,0.003989194054156542,0.7987464070320129,0.0002294548903591931,-0.03640449047088623
1012.0,1009.0,1.6295,-0.1328,9.3182,-0.0388,0.0359,-0.1161,-1.5212708202055474,0.0001506197004346177,1.7810797691345215,-2.0728704929351807,0.0001966903655556962,1.9673967361450195,4.911515223770895,-1.9059060413281837e-41,0.28831443190574646,-1.5866015593158167,7.230907245852835e-20,-0.0069704800844192505,0.7883115410804749,0.0,-0.010128713212907314,0.7987746000289917,0.00019611953757703304,0.030476592481136322
1012.0,1009.0,1.6295,-0.1328,9.3182,-0.0388,0.0359,-0.1161,-1.521190171395876,8.62603701534681e-05,1.7888612747192383,-2.0728540420532227,0.00017013175238389522,2.0138204097747803,4.9115192768867395,-0.0,0.2943224310874939,-1.5865944067584437,8.580666863599196e-26,0.0005768807604908943,0.7883074283599854,0.0,0.003935092594474554,0.7987259030342102,0.00016597846115473658,0.0012285796692594886
1012.0,1009.0,1.6295,-0.1328,9.3182,-0.0388,0.0359,-0.1161,-1.5212626431933423,6.94503978593275e-05,1.7822997570037842,-2.0728745460510254,0.00015354561037383974,1.9867491722106934,4.911479192763128,-0.0,0.3052683174610138,-1.5865581671344202,1.5594937486822406e-30,-0.012126749381422997,0.7883074283599854,0.0,-0.0014327996177598834,0.7987544536590576,0.00014780594210606068,-0.019484149292111397
1012.0,1009.0,1.6295,-0.1328,9.3182,-0.0388,0.0359,-0.1161,-1.5212465089610596,-5.197953214519657e-05,1.761399269104004,-2.072862148284912,0.00013990618754178286,1.9942193031311035,4.911519291787901,-0.0,0.292624831199646,-1.5865462462054651,2.834302846712255e-35,-0.002043655840680003,0.7882832288742065,0.0,-0.010760543867945671,0.7987664341926575,0.00013322006270755082,0.05792452394962311
1012.0,1009.0,1.6295,-0.1328,9.3182,-0.0388,0.0359,-0.1161,-1.521202479755022,-8.52131997817196e-05,1.7993671894073486,-2.072842597961426,0.00012849252379965037,2.0051939487457275,4.911523374706068,-5.3158215450821444e-05,0.29729193449020386,-1.5865462462054651,5.151201180827314e-40,-0.010250936262309551,0.7882992625236511,0.0,-0.0007216047961264849,0.7987626791000366,0.00012125456851208583,-0.036522358655929565
1012.0,1009.0,1.6295,-0.1328,9.3182,-0.0388,0.0359,-0.1161,-1.5212342304042359,-0.00010527179983910173,1.8379226922988892,-2.0728909969329834,0.00011880051897605881,2.034031629562378,4.911507370858946,-6.679849320789799e-05,0.29046550393104553,-1.5865820089923304,9.80908925027372e-45,-0.006826990284025669,0.7882673144340515,0.0,0.004963782150298357,0.7987504601478577,0.00011126120807603002,0.029474962502717972
1012.0,1009.0,1.6295,-0.1328,9.3182,-0.0388,0.0359,-0.1161,-1.521278442149498,-0.00028394436230883,1.8301812410354614,-2.072890043258667,0.00011046817235182971,2.0221807956695557,4.911487313895979,-8.26587711344473e-05,0.29031452536582947,-1.5865300337420862,0.0,0.00034450844395905733,0.7883471846580505,0.0,-0.006964255589991808,0.7988067269325256,0.00010278981790179387,0.009525720030069351
1012.0,1009.0,1.6295,-0.1328,9.3182,-0.0388,0.0359,-0.1161,-1.5212743033519764,-0.00030187072115950286,1.796895980834961,-2.07287859916687,0.00010322799062123522,2.0187463760375977,4.911451312690534,-0.00035256522824056447,0.28822535276412964,-1.5865820089923304,0.0,-0.0013999714283272624,0.7882874011993408,0.0,-0.005457397550344467,0.7987787127494812,0.00011143671872559935,0.006485174410045147
1012.0,1009.0,1.6295,-0.1328,9.3182,-0.0388,0.0359,-0.1161,-1.5212622669390221,-0.0003019588184542954,1.786281704902649,-2.0728588104248047,0.00011071812332374975,1.9809037446975708,4.911515581398763,-0.0003609434643294662,0.2928285002708435,-1.5865820089923304,0.0,-0.013183282688260078,0.7882914543151855,0.0,-0.008031973615288734,0.7988107800483704,0.00010407320223748684,-0.0169299878180027
1012.0,1009.0,1.6295,-0.1328,9.3182,-0.0388,0.0359,-0.1161,-1.5212140840343018,-0.000329156027873978,1.8062667846679688,-2.0728580951690674,0.00010430293332319707,1.9951934814453125,4.91147922256545,-0.00030908582266420126,0.29406726360321045,-1.5865657965289515,0.0,-0.002112763933837414,0.7883197069168091,0.0,-0.004224698059260845,0.7987504005432129,9.762262197909877e-05,0.022299744188785553
1014.0,991.0,1.4303,-0.0945,9.414,-0.0386,0.0133,-0.1191,-1.5212301214090367,-0.0002546434698160738,1.7678558826446533,-2.0728588104248047,9.362227137899026e-05,2.0305335521698,4.911455023079672,-0.0002895364596042782,0.29374486207962036,-1.5865300337420862,0.0,0.00337508087977767,0.7882635593414307,0.0,-0.0013783867470920086,0.7987663745880127,0.00010504995589144528,-0.034814219921827316
1014.0,991.0,1.4303,-0.0945,9.414,-0.0386,0.0133,-0.1191,-1.5212663871100922,-0.00020763911015819758,1.8091672658920288,-2.072854995727539,0.0017056665383279324,1.9942617416381836,4.911471012025633,-0.00023037959181237966,0.30005913972854614,-1.5865142981158655,0.0,0.0011093609500676394,0.7882911562919617,0.0,-0.00622937735170126,0.7987704873085022,8.114973024930805e-05,0.009472871199250221
1014.0,991.0,1.4303,-0.0945,9.414,-0.0386,0.0133,-0.1191,-1.5212540340474625,-0.00017528521129861474,1.7936534881591797,-2.0728390216827393,0.003937471192330122,2.0392236709594727,4.911431270628729,-0.00019121186051052064,0.2929205894470215,-1.586522404347555,0.0,-0.0008677866426296532,0.7883197069168091,0.0,-0.0015361853875219822,0.7987258434295654,7.569004083052278e-05,0.0057569025084376335
1014.0,991.0,1.4303,-0.0945,9.414,-0.0386,0.0133,-0.1191,-1.5212540973773976,-0.00015165514196269214,1.8353915214538574,-2.072798728942871,0.007886667735874653,2.0389418601989746,4.911511558085241,-0.00016342940216418356,0.29483258724212646,-1.586522404347555,0.0,0.001417670864611864,0.7883114218711853,0.0,-0.0038502041716128588,0.7987985014915466,9.927844803314656e-05,-0.022389650344848633
1014.0,991.0,1.4303,-0.0945,9.414,-0.0386,0.0133,-0.1191,-1.521238074903824,-0.0001336394198006019,1.81061851978302,-2.0727157592773438,0.011262479238212109,2.03206729888916,4.9114955244357965,-0.00014269709936343133,0.29488372802734375,-1.586573902760641,0.0,-0.000901665014680475,0.7883554697036743,0.0,-0.006079396232962608,0.7987582087516785,0.00036056380486115813,-0.04526312276721001
1014.0,991.0,1.4303,-0.0945,9.414,-0.0386,0.0133,-0.1191,-1.5212619949928303,-0.00011636095587164164,1.7983956336975098,-2.0724663734436035,0.01749284192919731,2.0487992763519287,4.911495554238119,-0.00012316691572777927,0.29503265023231506,-1.586585823689596,0.0,-0.00692420918494463,0.7883397340774536,0.0,-0.002099131466820836,0.798754096031189,0.0003610435232985765,0.026151344180107117
1014.0,991.0,1.4303,-0.0945,9.414,-0.0386,0.0133,-0.1191,-1.5212862205556412,-0.00012651046563405544,1.8063344955444336,-2.0723235607147217,0.023631226271390915,2.0166802406311035,4.911483245878973,-8.88107533683069e-05,0.30273133516311646,-1.5865419546710413,0.0,-0.006962532643228769,0.7883391380310059,0.0,0.005660668481141329,0.7987943887710571,0.000549153599422425,-0.016328562051057816
1014.0,991.0,1.4303,-0.0945,9.414,-0.0386,0.0133,-0.1191,-1.5212458458593865,-0.00013497877807822078,1.7718191146850586,-2.072115182876587,0.030695393681526184,2.0579216480255127,4.911471012025633,-8.083308057393879e-05,0.29543039202690125,-1.5864980856524866,0.0,-0.02259165048599243,0.78831547498703,0.0,-0.0052169207483530045,0.7988387942314148,0.0006992872804403305,-0.04080867022275925
1014.0,991.0,1.4303,-0.0945,9.414,-0.0386,0.0133,-0.1191,-1.5213306260159989,-0.00013745787146035582,1.768915057182312,-2.07188081741333,0.03722940757870674,2.063897132873535,4.911531570344724,-7.417117740260437e-05,0.2927587628364563,-1.5865462462054651,0.0,-0.010137456469237804,0.7882671356201172,0.0,0.002250934485346079,0.7987982630729675,0.0006151517736725509,0.022151265293359756
1014.0,991.0,1.4303,-0.0945,9.414,-0.0386,0.0133,-0.1191,-1.521322389399149,-0.0011473492486402392,1.8069849014282227,-2.071516275405884,0.04225781559944153,2.0715553760528564,4.91147922256545,-2.3195118046714924e-05,0.30246585607528687,-1.5865138212787073,2.014463461819105e-05,-0.012773269787430763,0.7883753776550293,0.0,-0.0029019294306635857,0.7987779378890991,0.0005447780713438988,-0.010767584666609764
1014.0,991.0,1.4303,-0.0945,9.414,-0.0386,0.0133,-0.1191,-1.5213545833579083,-0.002080692909657955,1.836940050125122,-2.0711774826049805,0.04298057779669762,2.068850517272949,4.911483290582456,-2.1021769498474896e-05,0.2994263768196106,-1.586522404347555,1.0961753282856534e-08,-0.01270127110183239,0.7883315682411194,0.0,-0.001500409096479416,0.7987779974937439,0.00038818936445750296,0.00499986857175827
1012.0,1002.0,1.5045,0.0796,9.5779,-0.0038,0.0341,-0.1153,-1.5213422191194077,-0.003179512219503522,1.7918308973312378,-2.070842742919922,0.04146673157811165,2.038947582244873,4.9114590910966776,-3.779897087952122e-05,0.2918891906738281,-1.5865138212787073,1.9922449378140944e-13,-0.0026189011987298727,0.7883513569831848,0.0,0.001410743105225265,0.7988064885139465,0.00030148346559144557,0.007886075414717197
1012.0,1002.0,1.5045,0.0796,9.5779,-0.0038,0.0341,-0.1153,-1.5214024645141144,-0.003322100965306163,1.744309663772583,-2.070510149002075,0.039471667259931564,2.0512101650238037,4.911455365806379,-5.195624544285238e-05,0.28992682695388794,-1.5865538755999964,3.620806941980405e-18,-0.005185274872928858,0.7883197069168091,0.0,0.0036163819022476673,0.7987779974937439,0.0002464418939780444,-0.029405951499938965
1012.0,1002.0,1.5045,0.0796,9.5779,-0.0038,0.0341,-0.1153,-1.5214223128608246,-0.003082957584410906,1.697972059249878,-2.07021164894104,0.034720949828624725,2.0580241680145264,4.911451312690534,-6.458562711486593e-05,0.2806313633918762,-1.5864899794207972,6.580637281675333e-23,0.008608870208263397,0.7883877754211426,0.0,-0.013382082805037498,0.7988308072090149,0.00020839688659179956,-0.0217024777084589
1012.0,1002.0,1.5045,0.0796,9.5779,-0.0038,0.0341,-0.1153,-1.5214462962797661,-0.0033433837816119194,1.7241548299789429,-2.069927930831909,0.031656745821237564,2.0348777770996094,4.91145538070754,-0.00023286369105335325,0.28102660179138184,-1.5865138212787073,0.00019172563042957336,0.006727415136992931,0.7883111238479614,0.0,-0.009776377119123936,0.7988266944885254,0.0001805280044209212,-0.006655101198703051
1012.0,1002.0,1.5045,0.0796,9.5779,-0.0038,0.0341,-0.1153,-1.521478210841753,-0.004141099285334349,1.7559587955474854,-2.069705009460449,0.02992922253906727,2.0340709686279297,4.91146736124114,-0.0002649283269420266,0.28070133924484253,-1.586454216633932,0.00017294059216510504,0.005102268420159817,0.7884074449539185,0.0,-0.002750839339569211,0.7988266944885254,0.00015923399769235402,-0.03419816866517067
1012.0,1002.0,1.5045,0.0796,9.5779,-0.0038,0.0341,-0.1153,-1.5215222288719197,-0.004391001537442207,1.7315559387207031,-2.0694327354431152,0.03111102245748043,1.9842369556427002,4.9114431021507166,-0.00048247334780171514,0.280285120010376,-1.5864937941180628,0.00017208314966410398,0.0017932977061718702,0.7882471680641174,0.0,0.003353795036673546,0.7988226413726807,0.00014243384066503495,-0.02803550474345684
1012.0,1002.0,1.5045,0.0796,9.5779,-0.0038,0.0341,-0.1153,-1.5215699237636109,-0.0054950532503426075,1.731597900390625,-2.0691776275634766,0.03366152569651604,2.0221691131591797,4.911459761648931,-0.0004587809962686151,0.26842305064201355,-1.5864861647235315,0.00015872310905251652,0.0026791745331138372,0.7882911562919617,0.0,-0.0014574176166206598,0.7987821102142334,0.00012884025636594743,-0.058595210313797
1012.0,1002.0,1.5045,0.0796,9.5779,-0.0038,0.0341,-0.1153,-1.5216220554760476,-0.005987754091620445,1.7254176139831543,-2.0688979625701904,0.03836973011493683,2.044203519821167,4.911443459778585,-0.0004915629979223013,0.2731376886367798,-1.5865057150470179,0.00014202391321305186,0.00805574283003807,0.7883673906326294,0.0,0.0007631764165125787,0.798802375793457,0.00013492224388755858,-0.05685272440314293
1012.0,1002.0,1.5045,0.0796,9.5779,-0.0038,0.0341,-0.1153,-1.5216738370111962,-0.007878821343183517,1.702627182006836,-2.0684585571289062,0.04623490571975708,2.0485167503356934,4.911411452084341,-0.0004782208998221904,0.2735438346862793,-1.5864580313311976,0.00014638887660112232,0.012276971712708473,0.7883114814758301,0.0,0.006847589276731014,0.7988182902336121,0.0001415323349647224,-0.06917829811573029
1012.0,1002.0,1.5045,0.0796,9.5779,-0.0038,0.0341,-0.1153,-1.521774200057127,-0.01039312593638897,1.7075974941253662,-2.068023681640625,0.05203360691666603,2.0828194618225098,4.911447497993269,-0.0005028354935348034,0.27585098147392273,-1.5865219275103968,0.00013397914881352335,0.017343325540423393,0.7883073687553406,0.0,0.003652192186564207,0.7988264560699463,0.00010864075011340901,-0.07817288488149643
1012.0,1002.0,1.5045,0.0796,9.5779,-0.0038,0.0341,-0.1153,-1.5218456548503418,-0.011149048805236816,1.685012698173523,-2.0676088333129883,0.06112149730324745,2.081634283065796,4.911435621767797,-0.0004901827196590602,0.26391005516052246,-1.5864456335650843,0.00012347531446721405,0.01225744653493166,0.7883632779121399,0.0,-0.004676624666899443,0.7988264560699463,0.00013645041326526552,-0.07992694526910782
1013.0,1058.0,1.4853,-0.0748,9.2788,-0.0403,0.0483,-0.1249,-1.5219296973994751,-0.01227903738617897,1.660383701324463,-2.0671136379241943,0.07305674254894257,2.0801758766174316,4.911423685937681,-0.0005444462294690311,0.2691388726234436,-1.586449925099508,0.00013085331011097878,0.007866933941841125,0.7883074879646301,0.0,0.0009004491148516536,0.798850417137146,0.0006081941537559032,-0.06808719038963318
1013.0,1058.0,1.4853,-0.0748,9.2788,-0.0403,0.0483,-0.1249,-1.5220857721618195,-0.014576168730854988,1.655822992324829,-2.0664114952087402,0.08169926702976227,2.0824241638183594,4.911415907531538,-0.0007675665547139943,0.27147620916366577,-1.5864818731891077,0.00011930632899748161,0.019768472760915756,0.7883309125900269,0.0,-0.012746828608214855,0.7988623380661011,0.001528477412648499,-0.09936213493347168
1013.0,1058.0,1.4853,-0.0748,9.2788,-0.0403,0.0483,-0.1249,-1.5221894171885033,-0.01747157610952854,1.6584895849227905,-2.065708875656128,0.0877150148153305,2.127490758895874,4.911379414587774,-0.001021444913931191,0.26981860399246216,-1.5864818731891077,0.0001236022508237511,0.0271725095808506,0.7883315086364746,0.0,0.006260855123400688,0.7989028692245483,0.0020292613189667463,-0.05390030890703201
1013.0,1058.0,1.4853,-0.0748,9.2788,-0.0403,0.0483,-0.1249,-1.5223938424936314,-0.018975386396050453,1.6557679176330566,-2.064957618713379,0.09018135815858841,2.114521026611328,4.911391693144598,-0.0006503587355837226,0.2635667324066162,-1.5864980856524866,0.0001362264301860705,0.02391008287668228,0.7883350849151611,0.0,-0.015242654830217361,0.7988827228546143,0.003537892596796155,-0.09085288643836975
1013.0,1058.0,1.4853,-0.0748,9.2788,-0.0403,0.0483,-0.1249,-1.5224575077048321,-0.017830492928624153,1.6442326307296753,-2.064222812652588,0.09385541081428528,2.1047158241271973,4.911391708045759,-0.00046014334657229483,0.26198938488960266,-1.5864537397967737,0.00014455147902481258,0.030918078497052193,0.7882992625236511,0.0,0.011364448815584183,0.7989144325256348,0.004509548656642437,-0.05295127257704735
1013.0,1058.0,1.4853,-0.0748,9.2788,-0.0403,0.0483,-0.1249,-1.522597261970379,-0.01761063188314438,1.6648023128509521,-2.0634653568267822,0.1008184477686882,2.175473928451538,4.911403628974714,-0.0003935486020054668,0.24756726622581482,-1.5864618460284632,0.00027262145886197686,0.03270159661769867,0.7882992625236511,0.0,0.01300121657550335,0.7989428043365479,0.002294352976605296,-0.04236762598156929
1013.0,1058.0,1.4853,-0.0748,9.2788,-0.0403,0.0483,-0.1249,-1.5227894981256505,-0.019464053213596344,1.6354029178619385,-2.0625827312469482,0.10723000019788742,2.195432186126709,4.911375897913732,-0.0002723531215451658,0.2652071416378021,-1.5864656607257288,0.00026341117336414754,0.03743942081928253,0.7883874773979187,0.0,-0.0027365589048713446,0.7989423871040344,0.001216204254887998,-0.0740252435207367
1013.0,1058.0,1.4853,-0.0748,9.2788,-0.0403,0.0483,-0.1249,-1.5229288277081032,-0.02514047920703888,1.6894936561584473,-2.0616519451141357,0.1179727166891098,2.234865665435791,4.911391737848081,-0.0010708845220506191,0.26805809140205383,-1.5864656607257288,0.00022043501667212695,0.02860672026872635,0.7883510589599609,0.0,0.004973403178155422,0.7989225387573242,0.0004562537942547351,-0.16406284272670746
1013.0,1058.0,1.4853,-0.0748,9.2788,-0.0403,0.0483,-0.1249,-1.523144756709673,-0.029654446989297867,1.6106433868408203,-2.0606541633605957,0.1328326165676117,2.262253522872925,4.911363947182455,-0.002438385970890522,0.2484353482723236,-1.586449925099508,0.0002210697712143883,0.028333138674497604,0.7883632183074951,0.0,0.025289183482527733,0.7989225387573242,0.0002966423926409334,-0.12003904581069946
1013.0,1058.0,1.4853,-0.0748,9.2788,-0.0403,0.0483,-0.1249,-1.5234248426607628,-0.03470177575945854,1.586094856262207,-2.059572458267212,0.13646024465560913,2.2543864250183105,4.911279770522871,-0.011258883401751518,0.2513812184333801,-1.586426083241598,0.00022142502712085843,0.035637881606817245,0.7883754372596741,0.0,0.006953501142561436,0.7989386916160583,0.00022309250198304653,-0.13834349811077118
1013.0,1058.0,1.4853,-0.0748,9.2788,-0.0403,0.0483,-0.1249,-1.523756181155779,-0.03899867832660675,1.5537059307098389,-2.058055877685547,0.147222638130188,2.264061450958252,4.911156418710508,-0.013622508384287357,0.248745396733284,-1.5864022413836878,0.00019135980983264744,0.03972644358873367,0.7882992625236511,0.0,0.014354323968291283,0.7989428043365479,0.00012773534399457276,-0.07151041179895401
1014.0,998.0,1.2401,-0.149,9.3649,-0.0388,0.1126,-0.1153,-1.5240761314383526,-0.039066608995199203,1.6037876605987549,-2.0568814277648926,0.158410906791687,2.2993178367614746,4.911072718888082,-0.005022695753723383,0.25203561782836914,-1.5864141623126429,0.00016372078971471637,0.05219767242670059,0.7883314490318298,0.0,0.014486105181276798,0.7989225387573242,-8.690412505529821e-05,-0.15872693061828613
1014.0,998.0,1.2401,-0.149,9.3649,-0.0388,0.1126,-0.1153,-1.5244319637170811,-0.03985339030623436,1.5921510457992554,-2.0555520057678223,0.1649009734392166,2.2488579750061035,4.911012846022405,-0.0013329783687368035,0.25857657194137573,-1.5863903204547327,0.00017143649165518582,0.05041986703872681,0.7883631587028503,0.0,0.015362480655312538,0.7989386916160583,-0.00014516674855258316,-0.1455625742673874
1014.0,998.0,1.2401,-0.149,9.3649,-0.0388,0.1126,-0.1153,-1.5247792688063164,-0.0448620580136776,1.55721116065979,-2.0542185306549072,0.16755133867263794,2.261312484741211,4.911076772003927,-0.0007112722378224134,0.2383631020784378,-1.5864575544940394,0.00015216968313325197,0.05692923814058304,0.7883511185646057,0.0,0.014399134553968906,0.7989345788955688,-0.00015672374865971506,-0.14381803572177887
1014.0,998.0,1.2401,-0.149,9.3649,-0.0388,0.1126,-0.1153,-1.5251386140337964,-0.04837903007864952,1.554567575454712,-2.052837371826172,0.18004155158996582,2.2556614875793457,4.911064865976133,-0.0004245979944244027,0.25304269790649414,-1.5864060560809534,0.00015953935508150607,0.053607773035764694,0.7883155345916748,0.0,-6.482936441898346e-06,0.7989185452461243,-0.00013756130647379905,-0.1991032063961029
1014.0,998.0,1.2401,-0.149,9.3649,-0.0388,0.1126,-0.1153,-1.5255144399455567,-0.043388139456510544,1.555022120475769,-2.051388740539551,0.18777459859848022,2.3360097408294678,4.911020862847128,-0.0006388933397829533,0.2418873906135559,-1.5864337126361292,0.00014487025327980518,0.06122502684593201,0.7882952094078064,0.0,0.01420171931385994,0.7988864183425903,-0.000287583185127005,-0.19614756107330322
1014.0,998.0,1.2401,-0.149,9.3649,-0.0388,0.1126,-0.1153,-1.525938880895712,-0.03772919252514839,1.5603435039520264,-2.0498433113098145,0.19103890657424927,2.2864184379577637,4.911009418755331,-0.003923554439097643,0.24505549669265747,-1.5864217917071741,0.00015159750182647258,0.049492377787828445,0.7883428335189819,0.0,0.006464620586484671,0.7988946437835693,-0.0003163137298543006,-0.16544590890407562
1014.0,998.0,1.2401,-0.149,9.3649,-0.0388,0.1126,-0.1153,-1.526210257118084,-0.03573068231344223,1.5697909593582153,-2.0483293533325195,0.19744183123111725,2.318467855453491,4.910952883749761,-0.0023750292602926493,0.23621439933776855,-1.5864179770099085,0.00013983981625642627,0.07373455911874771,0.7883151173591614,0.0,0.015531370416283607,0.7989267110824585,-0.00023540625988971442,-0.16468724608421326
1014.0,998.0,1.2401,-0.149,9.3649,-0.0388,0.1126,-0.1153,-1.5265461777201672,-0.03594318404793739,1.548073172569275,-2.046689748764038,0.20912893116474152,2.355658531188965,4.910925346403875,-0.002844852628186345,0.23204316198825836,-1.5863860289203089,0.000129758904222399,0.06968871504068375,0.7883632779121399,0.0,0.014777369797229767,0.798890233039856,-0.00020479553495533764,-0.16541787981987
1014.0,998.0,1.2401,-0.149,9.3649,-0.0388,0.1126,-0.1153,-1.5267733943513413,-0.036942705512046814,1.566293716430664,-2.0450565814971924,0.20990435779094696,2.366179943084717,4.910841229348936,-0.009792160242795944,0.2279946208000183,-1.5864060560809534,0.00012324540875852108,0.07833127677440643,0.7883714437484741,0.0,0.0005280767800286412,0.7988864183425903,-0.0002060769038507715,-0.18979252874851227
1014.0,998.0,1.2401,-0.149,9.3649,-0.0388,0.1126,-0.1153,-1.5270973306945343,-0.039586909115314484,1.5391719341278076,-2.0432682037353516,0.21206310391426086,2.3352694511413574,4.9108455059821985,-0.008581019937992096,0.2094004899263382,-1.5863860289203089,0.0001110765733756125,0.07272403687238693,0.7883754372596741,0.0,-0.007410125806927681,0.7988540530204773,-0.0001857464376371354,-0.23764070868492126
1014.0,998.0,1.2401,-0.149,9.3649,-0.0388,0.1126,-0.1153,-1.5273768876544018,-0.03975984454154968,1.4938825368881226,-2.041560173034668,0.2334480881690979,2.315716505050659,4.910825970559873,-0.002451659180223942,0.21868008375167847,-1.5864060560809534,0.00011103483120677993,0.07171985507011414,0.7883315086364746,0.0,0.01088824961334467,0.7989185452461243,-0.0001683717273408547,-0.15396927297115326
1000.0,998.0,1.4608,-0.2554,10.1874,-0.0391,0.1634,-0.1199,-1.5277370151928444,-0.04157496616244316,1.5431320667266846,-2.0397558212280273,0.2423466444015503,2.3754723072052,4.910738217621603,-0.004406420513987541,0.21427741646766663,-1.5863941351519983,0.00011131026258226484,0.08342618495225906,0.7883391380310059,0.0,0.006878593936562538,0.798934817314148,-0.00014819606440141797,-0.22197505831718445
1000.0,998.0,1.4608,-0.2554,10.1874,-0.0391,0.1634,-0.1199,-1.5281285804561158,-0.050946831703186035,1.4983441829681396,-2.0377392768859863,0.24038618803024292,2.3505406379699707,4.910750630288877,-0.006450453773140907,0.21607646346092224,-1.5863903204547327,0.00010283167648594826,0.0744098350405693,0.7883074879646301,0.0,0.005801856517791748,0.7988944053649902,-0.00010499668860575184,-0.2100357711315155
1000.0,998.0,1.4608,-0.2554,10.1874,-0.0391,0.1634,-0.1199,-1.5287205290845414,-0.06459325551986694,1.4987788200378418,-2.0352649688720703,0.26123106479644775,2.353231430053711,4.91067028322772,-0.0015593265416100621,0.21481448411941528,-1.586397949849264,9.389170008944348e-05,0.08634892851114273,0.7883309125900269,0.0,0.01024624053388834,0.7989062070846558,-9.135829895967618e-05,-0.21333983540534973
1000.0,998.0,1.4608,-0.2554,10.1874,-0.0391,0.1634,-0.1199,-1.5293001134744664,-0.07349276542663574,1.525286078453064,-2.0332090854644775,0.25763267278671265,2.2957451343536377,4.910690653115072,-0.0021134838461875916,0.21399959921836853,-1.5864060560809534,0.00010050387209048495,0.08766141533851624,0.7883350253105164,0.0,0.005736208520829678,0.7989588379859924,-6.564870272995904e-05,-0.20949506759643555
1000.0,998.0,1.4608,-0.2554,10.1874,-0.0391,0.1634,-0.1199,-1.5298471202007313,-0.07781586050987244,1.5010781288146973,-2.0310091972351074,0.26243939995765686,2.3593521118164062,4.910690280586042,-0.001574319088831544,0.2136489748954773,-1.5863783995257776,9.616381430532783e-05,0.0854954794049263,0.7884358167648315,0.0,0.006416712887585163,0.7989267706871033,-0.00010163643310079351,-0.19754332304000854
1000.0,998.0,1.4608,-0.2554,10.1874,-0.0391,0.1634,-0.1199,-1.5305832263878365,-0.07786649465560913,1.4471337795257568,-2.0288350582122803,0.2815307676792145,2.3345882892608643,4.91060537376956,-0.0005308825056999922,0.20462080836296082,-1.5864022413836878,9.063026664080098e-05,0.08171023428440094,0.7883870601654053,0.0,0.013130990788340569,0.7989025712013245,-8.290879486594349e-05,-0.22514218091964722
1000.0,998.0,1.4608,-0.2554,10.1874,-0.0391,0.1634,-0.1199,-1.5312704157880326,-0.07752591371536255,1.427659511566162,-2.026628017425537,0.2764623463153839,2.3789327144622803,4.910598325520315,-0.001690482720732689,0.20765656232833862,-1.586426083241598,8.569889178033918e-05,0.08324684947729111,0.7883754372596741,0.0,0.0029456529300659895,0.798890233039856,-3.500477396300994e-05,-0.20571967959403992
1000.0,998.0,1.4608,-0.2554,10.1874,-0.0391,0.1634,-0.1199,-1.5319213432124634,-0.07618189603090286,1.507171630859375,-2.024386167526245,0.27366188168525696,2.3441414833068848,4.910598087101736,-0.0060796053148806095,0.21883849799633026,-1.5864141623126429,8.12764628790319e-05,0.0927535742521286,0.7883228063583374,0.0,0.0020235900301486254,0.79891037940979,-3.0291825169115327e-05,-0.17843583226203918
1000.0,998.0,1.4608,-0.2554,10.1874,-0.0391,0.1634,-0.1199,-1.532565241014101,-0.08050873130559921,1.4755394458770752,-2.022207498550415,0.27690771222114563,2.372375011444092,4.910506564169683,-0.0037400044966489077,0.21454063057899475,-1.5863941351519983,8.795920439297333e-05,0.08009468019008636,0.7883551120758057,0.0,0.014548268169164658,0.7988904714584351,-2.6697414796217345e-05,-0.2623680531978607
1000.0,998.0,1.4608,-0.2554,10.1874,-0.0391,0.1634,-0.1199,-1.5331647035530587,-0.08378612995147705,1.440882921218872,-2.0200493335723877,0.2788204848766327,2.397437810897827,4.910527127772131,-0.0031543769873678684,0.21025174856185913,-1.586357895527975,8.419762889388949e-05,0.09470394253730774,0.7882992625236511,0.0,0.013652314431965351,0.798866331577301,-2.386561391176656e-05,-0.28481680154800415
1000.0,998.0,1.4608,-0.2554,10.1874,-0.0391,0.1634,-0.1199,-1.5338159476271649,-0.08649126440286636,1.472339153289795,-2.0177903175354004,0.27492380142211914,2.3698558807373047,4.910478669195928,-0.005002910736948252,0.21706809103488922,-1.5863783995257776,7.982076203916222e-05,0.09110020101070404,0.7883510589599609,0.0,0.011619549244642258,0.7988823056221008,-6.386463064700365e-05,-0.19328317046165466
894.0,842.0,0.0891,0.1364,8.747,-0.0325,0.2529,-0.1313,-1.5345474270037194,-0.09271370619535446,1.45135498046875,-2.0154917240142822,0.2887863516807556,2.3685920238494873,4.910502853780546,-0.0016746576875448227,0.19625627994537354,-1.5863736311541956,7.452492718584836e-05,0.0898132249712944,0.7883952260017395,0.0,0.01056183036416769,0.7988741397857666,-5.906658770982176e-05,-0.2438582479953766
894.0,842.0,0.0891,0.1364,8.747,-0.0325,0.2529,-0.1313,-1.5353868839195748,-0.1016952246427536,1.5167748928070068,-2.0131967067718506,0.29620108008384705,2.407498836517334,4.910443308740415,-0.0009587545064277947,0.1991032212972641,-1.5863540808307093,8.386565605178475e-05,0.09135320782661438,0.7883387207984924,0.0,0.024920066818594933,0.7989468574523926,-4.702825754065998e-05,-0.22900307178497314
894.0,842.0,0.0891,0.1364,8.747,-0.0325,0.2529,-0.1313,-1.5362096068314095,-0.1104109063744545,1.410583257675171,-2.0108540058135986,0.29672834277153015,2.3779008388519287,4.91041465380744,-0.004340490326285362,0.20117849111557007,-1.5863860289203089,7.896750321378931e-05,0.10068228840827942,0.7883309125900269,0.0,0.02048453688621521,0.7988782525062561,-4.2578431020956486e-05,-0.2520815134048462
894.0,842.0,0.0891,0.1364,8.747,-0.0325,0.2529,-0.1313,-1.5371334676495572,-0.11238282173871994,1.3833961486816406,-2.008462905883789,0.30794888734817505,2.4307897090911865,4.910379025131025,-0.0031662045512348413,0.19915398955345154,-1.5863540808307093,7.460358756361529e-05,0.09431087225675583,0.78839510679245,5.01353873971766e-08,0.02157950960099697,0.798866331577301,-3.889796425937675e-05,-0.2767660319805145
894.0,842.0,0.0891,0.1364,8.747,-0.0325,0.2529,-0.1313,-1.5380725351027031,-0.1152089312672615,1.444049596786499,-2.0060386657714844,0.3047837018966675,2.408019781112671,4.910319033056059,-0.007045740727335215,0.18899674713611603,-1.5863378683673304,8.242800686275586e-05,0.10250231623649597,0.7883391976356506,9.111858403215711e-13,0.033205438405275345,0.7988823056221008,-4.758164504892193e-05,-0.2514701783657074
894.0,842.0,0.0891,0.1364,8.747,-0.0325,0.2529,-0.1313,-1.539187667225935,-0.11947779357433319,1.4338804483413696,-2.002934455871582,0.3087833523750305,2.424773693084717,4.9102636752422235,-0.009925776161253452,0.1874312460422516,-1.586357895527975,7.741223089396954e-05,0.1019207090139389,0.7883551120758057,1.081272919141301e-18,0.03250694274902344,0.7988864183425903,-4.884681402472779e-05,-0.22613289952278137
894.0,842.0,0.0891,0.1364,8.747,-0.0325,0.2529,-0.1313,-1.540170607422926,-0.131851926445961,1.4338440895080566,-2.0003528594970703,0.30718106031417847,2.404175281524658,4.910271855979719,-0.006466133054345846,0.18381670117378235,-1.5863497892962855,8.431464084424078e-05,0.1050911694765091,0.7884033918380737,1.9651597999886505e-23,0.008893657475709915,0.7988864183425903,-4.5550572394859046e-05,-0.3082326650619507
894.0,842.0,0.0891,0.1364,8.747,-0.0325,0.2529,-0.1313,-1.5412219867906352,-0.13628196716308594,1.4102566242218018,-1.9978142976760864,0.3199089765548706,2.39290714263916,4.910228046565809,-0.0011909069726243615,0.18947488069534302,-1.5864060560809534,8.055271609919146e-05,0.09275771677494049,0.7883428335189819,3.5715814706389847e-28,0.024926867336034775,0.7989307641983032,-5.688702731276862e-05,-0.28492558002471924
894.0,842.0,0.0891,0.1364,8.747,-0.0325,0.2529,-0.1313,-1.5422725447318335,-0.13453009724617004,1.381309986114502,-1.9951785802841187,0.31675970554351807,2.4503612518310547,4.910203772574224,-0.0006860176799818873,0.18970009684562683,-1.5863102118121546,0.00011888629524037242,0.11204018443822861,0.7883632183074951,6.491173110104768e-33,0.03168796747922897,0.7988864183425903,-0.00011349483975209296,-0.27962061762809753
894.0,842.0,0.0891,0.1364,8.747,-0.0325,0.2529,-0.1313,-1.5433718872121354,-0.13462266325950623,1.4271472692489624,-1.9925689697265625,0.32489392161369324,2.433851480484009,4.910256194859304,-0.0003796668315771967,0.18924124538898468,-1.586357895527975,0.00010756574920378625,0.10969920456409454,0.7883993983268738,1.1797387157149117e-37,0.031514592468738556,0.798898458480835,-0.0001259973068954423,-0.25079044699668884
894.0,842.0,0.0891,0.1364,8.747,-0.0325,0.2529,-0.1313,-1.5444949393025418,-0.13866205513477325,1.380418300628662,-1.9899898767471313,0.32806992530822754,2.397711992263794,4.910236525326528,-0.00034005343331955373,0.18253964185714722,-1.5863459745990198,9.817816317081451e-05,0.10998934507369995,0.7883428335189819,2.14398665041697e-42,0.03279309347271919,0.7988864183425903,-0.00011330706183798611,-0.2688416838645935
526.0,526.0,1.5332,0.1765,9.542,-0.04,0.1758,-0.1301,-1.5456462905607005,-0.15107671916484833,1.3507342338562012,-1.987364411354065,0.32804447412490845,2.4512224197387695,4.910236093192854,-0.00031678113737143576,0.17448315024375916,-1.5863378683673304,9.029758803080767e-05,0.09814241528511047,0.7883268594741821,0.0,0.022558119148015976,0.7988663911819458,-0.00010315776307834312,-0.27524271607398987
526.0,526.0,1.5332,0.1765,9.542,-0.04,0.1758,-0.1301,-1.546760519301035,-0.15288417041301727,1.3751904964447021,-1.9847943782806396,0.332040011882782,2.4045095443725586,4.9102079448993585,-0.00026397244073450565,0.18099340796470642,-1.5863497892962855,0.00010030461271526292,0.11263087391853333,0.7884075045585632,0.0,0.030329972505569458,0.7988904714584351,-0.0003590820706449449,-0.3292900621891022
526.0,526.0,1.5332,0.1765,9.542,-0.04,0.1758,-0.1301,-1.5479519006660958,-0.1481429934501648,1.425288438796997,-1.9821243286132812,0.3413049280643463,2.4431705474853516,4.910216110735693,-0.0002259490720462054,0.18728426098823547,-1.5863259474383753,9.336859511677176e-05,0.1034749373793602,0.788411557674408,0.0,0.039465174078941345,0.7988260388374329,-0.0006743208505213261,-0.31123363971710205
526.0,526.0,1.5332,0.1765,9.542,-0.04,0.1758,-0.1301,-1.5492596247098227,-0.15448307991027832,1.4115867614746094,-1.97944176197052,0.3438114821910858,2.4540750980377197,4.910191911249914,-0.00022580956283491105,0.18542982637882233,-1.5863378683673304,0.00010163446131628007,0.11677652597427368,0.788411557674408,8.786968828644603e-05,0.03678297996520996,0.7988582253456116,-0.0005992321530357003,-0.3294656276702881
526.0,526.0,1.5332,0.1765,9.542,-0.04,0.1758,-0.1301,-1.5505139150521536,-0.16198624670505524,1.3884249925613403,-1.9767351150512695,0.3497413396835327,2.4835572242736816,4.910180079727926,-0.00015407870523631573,0.17123430967330933,-1.5863259474383753,9.569319081492722e-05,0.11064888536930084,0.7883632183074951,8.996771794045344e-05,0.0404987633228302,0.7988986968994141,-0.0004117559583391994,-0.32594069838523865
526.0,526.0,1.5332,0.1765,9.542,-0.04,0.1758,-0.1301,-1.5518651989153405,-0.16885784268379211,1.3918266296386719,-1.973868489265442,0.35215699672698975,2.459939479827881,4.910232412606039,-0.00018557319708634168,0.16157688200473785,-1.5863140265094202,9.02120882528834e-05,0.10090610384941101,0.7884074449539185,8.330557466251776e-05,0.03379558026790619,0.798789918422699,-0.00083619833458215,-0.35703080892562866
526.0,526.0,1.5332,0.1765,9.542,-0.04,0.1758,-0.1301,-1.5532081344029685,-0.17036043107509613,1.4295353889465332,-1.9710345268249512,0.3537006676197052,2.5367751121520996,4.910136121302404,-0.0005390821024775505,0.16766762733459473,-1.5863302389727991,9.74871582002379e-05,0.12490097433328629,0.7883673906326294,7.75620574131608e-05,0.02820756286382675,0.7988024353981018,-0.003097375389188528,-0.34898948669433594
526.0,526.0,1.5332,0.1765,9.542,-0.04,0.1758,-0.1301,-1.5545864787748833,-0.17816923558712006,1.366330623626709,-1.968153476715088,0.3540476858615875,2.442532539367676,4.910240176111021,-0.0004685284220613539,0.17433877289295197,-1.5863378683673304,0.00010640692198649049,0.1045374870300293,0.7883309721946716,7.255944365169853e-05,0.0290631502866745,0.7987907528877258,-0.011458046734333038,-0.35149186849594116
526.0,526.0,1.5332,0.1765,9.542,-0.04,0.1758,-0.1301,-1.5563928217491885,-0.1843351572751999,1.3421578407287598,-1.9645024538040161,0.3632453382015228,2.486298084259033,4.910203787475385,-0.0001911598810693249,0.175736665725708,-1.5863497892962855,9.515719284536317e-05,0.1115373745560646,0.7884477376937866,6.714597111567855e-05,0.026300743222236633,0.7986541390419006,-0.011295332573354244,-0.3325275182723999
526.0,526.0,1.5332,0.1765,9.542,-0.04,0.1758,-0.1301,-1.5579401387697835,-0.17664667963981628,1.4024897813796997,-1.9615764617919922,0.3670385777950287,2.4855446815490723,4.910223874240675,0.00016361255256924778,0.18586766719818115,-1.5863340536700647,8.773591980570927e-05,0.09323065727949142,0.7884074449539185,6.336404476314783e-05,0.029411425814032555,0.7985944151878357,-0.008486682549118996,-0.3398870825767517
526.0,526.0,1.5332,0.1765,9.542,-0.04,0.1758,-0.1301,-1.559354218920209,-0.1801546812057495,1.4020018577575684,-1.9586080312728882,0.3675261437892914,2.4515509605407715,4.910228344589033,0.00010353205288993195,0.16233697533607483,-1.586381737385885,8.138851990224794e-05,0.1051710695028305,0.7883792519569397,5.998545020702295e-05,0.03355672210454941,0.7984939217567444,-0.006185706704854965,-0.39494580030441284
435.0,419.0,0.8734,0.1729,9.6927,-0.0371,0.2043,-0.1268,-1.5608647989905258,-0.19522419571876526,1.3253519535064697,-1.955772042274475,0.3718137741088867,2.515587091445923,4.910228031664648,7.087530684657395e-05,0.16983038187026978,-1.5863378683673304,7.589764572912827e-05,0.11828222870826721,0.7883468866348267,5.694889114238322e-05,0.01970171555876732,0.7984662055969238,-0.0029194289818406105,-0.4124804437160492
435.0,419.0,0.8734,0.1729,9.6927,-0.0371,0.2043,-0.1268,-1.5624036288684984,-0.1957184076309204,1.3669968843460083,-1.9527740478515625,0.3766615390777588,2.519346237182617,4.910236108094015,0.00010775989358080551,0.16772621870040894,-1.586318318043844,7.110078149707988e-05,0.10687190294265747,0.7883751392364502,5.420497109298594e-05,0.036282025277614594,0.7983896732330322,-0.0030809210147708654,-0.32445284724235535
435.0,419.0,0.8734,0.1729,9.6927,-0.0371,0.2043,-0.1268,-1.5639867193861683,-0.18130238354206085,1.4750463962554932,-1.949690341949463,0.3776424825191498,2.5139801502227783,4.910244050412931,0.00013001864135731012,0.17222446203231812,-1.5863779226886194,6.687430141028017e-05,0.106956347823143,0.7883508801460266,5.171334123588167e-05,0.0473240427672863,0.7983900308609009,-0.004723713733255863,-0.3630843162536621
435.0,419.0,0.8734,0.1729,9.6927,-0.0371,0.2043,-0.1268,-1.5655133084258814,-0.18460719287395477,1.4264445304870605,-1.9467054605484009,0.39200109243392944,2.5710020065307617,4.91024403551177,0.00010929645941359922,0.16393181681632996,-1.5863617102252405,6.312209006864578e-05,0.10557235777378082,0.7883428335189819,1.2703098946076352e-05,0.021859347820281982,0.7983579039573669,-0.002633358584716916,-0.397686243057251
435.0,419.0,0.8734,0.1729,9.6927,-0.0371,0.2043,-0.1268,-1.5670117405573656,-0.19999165832996368,1.4152486324310303,-1.9436215162277222,0.38927924633026123,2.5293309688568115,4.910212027817526,3.6533267120830715e-05,0.1799752116203308,-1.586357895527975,5.9768539358628914e-05,0.10481955111026764,0.7883747220039368,2.3087252942755043e-10,0.027713052928447723,0.7983578443527222,-0.0008719349279999733,-0.35146087408065796
435.0,419.0,0.8734,0.1729,9.6927,-0.0371,0.2043,-0.1268,-1.5685464409510423,-0.19185173511505127,1.4744393825531006,-1.9404528141021729,0.39065754413604736,2.557161331176758,4.910239878087797,3.129521064693108e-05,0.17454960942268372,-1.586381737385885,5.675341890309937e-05,0.10528281331062317,0.7883669137954712,4.195993274109253e-15,0.02697647362947464,0.7983701229095459,-0.002540285000577569,-0.3416541516780853
435.0,419.0,0.8734,0.1729,9.6927,-0.0371,0.2043,-0.1268,-1.5700290110292663,-0.18528352677822113,1.4469316005706787,-1.937184453010559,0.39100322127342224,2.5181570053100586,4.91027187088088,5.482216511154547e-05,0.1729171872138977,-1.586318318043844,5.402783062891103e-05,0.10690208524465561,0.7884033918380737,7.626010711673643e-20,0.035784900188446045,0.7983580827713013,-0.002920669736340642,-0.3742830157279968
435.0,419.0,0.8734,0.1729,9.6927,-0.0371,0.2043,-0.1268,-1.5714994869627894,-0.18869413435459137,1.4399964809417725,-1.9340801239013672,0.39548397064208984,2.555043935775757,4.910248431354322,3.6944562452845275e-05,0.17728891968727112,-1.5863540808307093,5.155209873919375e-05,0.10026688128709793,0.7884193658828735,1.385990054896575e-24,0.0338578000664711,0.7983137965202332,-0.0015178632456809282,-0.35033920407295227
435.0,419.0,0.8734,0.1729,9.6927,-0.0371,0.2043,-0.1268,-1.5730029545226039,-0.18889398872852325,1.439797043800354,-1.9309428930282593,0.392118901014328,2.5514769554138184,4.910216066032209,2.208098885603249e-05,0.1731969118118286,-1.5863855520831507,6.419751116482075e-06,0.10748331248760223,0.7883508801460266,2.5189686123205835e-29,0.039876677095890045,0.7983301281929016,-0.000990203581750393,-0.32428503036499023
435.0,419.0,0.8734,0.1729,9.6927,-0.0371,0.2043,-0.1268,-1.5744248829283656,-0.1785474270582199,1.4266886711120605,-1.927725911140442,0.3951961100101471,2.5398800373077393,4.910256179958143,4.021176209789701e-05,0.17601227760314941,-1.5863779226886194,1.166758217818753e-10,0.09936659038066864,0.7884033918380737,4.578101420876597e-34,0.02074500545859337,0.7983381152153015,-0.001340279821306467,-0.3229752779006958
435.0,419.0,0.8734,0.1729,9.6927,-0.0371,0.2043,-0.1268,-1.5762278042235316,-0.17619973421096802,1.4901669025421143,-1.92377507686615,0.4028478264808655,2.5748631954193115,4.910236108094015,-4.263903247192502e-05,0.1711033582687378,-1.5863340536700647,1.3845514529035088e-16,0.10946059226989746,0.7883669137954712,5.43268000335624e-40,0.03769636154174805,0.7983503341674805,-0.0007669118931517005,-0.3535441756248474
392.0,368.0,0.7795,-0.1472,9.2381,-0.051,0.2231,-0.133,-1.5776306591429652,-0.1812792718410492,1.4897749423980713,-1.9206420183181763,0.4002557098865509,2.556304454803467,4.910216110735693,-0.00010628275049384683,0.17700406908988953,-1.586381737385885,2.516354105323418e-21,0.11174289882183075,0.7884074449539185,9.80908925027372e-45,0.03049273043870926,0.7983421683311462,-0.0005156824481673539,-0.3632428050041199
392.0,368.0,0.7795,-0.1472,9.2381,-0.051,0.2231,-0.133,-1.579001089135641,-0.18009506165981293,1.4461393356323242,-1.917374849319458,0.39920392632484436,2.529613494873047,4.91024802902297,-7.738650310784578e-05,0.18441170454025269,-1.5863540808307093,4.5733496074992803e-26,0.11011520028114319,0.7884353995323181,0.0,0.046714868396520615,0.798370361328125,-0.00044166320003569126,-0.3060714602470398
392.0,368.0,0.7795,-0.1472,9.2381,-0.051,0.2231,-0.133,-1.5803996525206507,-0.18009261786937714,1.5147218704223633,-1.914184808731079,0.4126346707344055,2.5394599437713623,4.910235765367307,-0.00010494476737221703,0.18071606755256653,-1.58636981645693,8.311835919071136e-31,0.11841721087694168,0.788382887840271,0.0,0.028382252901792526,0.798334002494812,-0.0003561133344192058,-0.33558547496795654
392.0,368.0,0.7795,-0.1472,9.2381,-0.051,0.2231,-0.133,-1.581851144830221,-0.17596536874771118,1.490408182144165,-1.910929560661316,0.41657739877700806,2.6553850173950195,4.910220104246893,-0.00016060368216130883,0.16049513220787048,-1.5863378683673304,1.5106353666701547e-35,0.11657708883285522,0.788427472114563,0.0,0.04068677872419357,0.7983059883117676,-0.00020990391203667969,-0.38453593850135803
392.0,368.0,0.7795,-0.1472,9.2381,-0.051,0.2231,-0.133,-1.5832449398436488,-0.17528046667575836,1.46628737449646,-1.9075872898101807,0.40734046697616577,2.5732736587524414,4.910256179958143,-0.0001729574432829395,0.16692450642585754,-1.5863540808307093,2.745508029213041e-40,0.12117281556129456,0.7883870601654053,0.0,0.02788417786359787,0.7983219623565674,-0.00021227022807579488,-0.3355860710144043
392.0,368.0,0.7795,-0.1472,9.2381,-0.051,0.2231,-0.133,-1.5846721134581507,-0.18033891916275024,1.534414291381836,-1.9042171239852905,0.41616836190223694,2.5710129737854004,4.910263705044546,-0.00010882948117796332,0.17845815420150757,-1.5863302389727991,5.605193857299268e-45,0.10230296105146408,0.7884275317192078,0.0,0.02925926074385643,0.7983499765396118,-0.00018342742987442762,-0.3289225101470947
392.0,368.0,0.7795,-0.1472,9.2381,-0.051,0.2231,-0.133,-1.5860949955382289,-0.1868128478527069,1.5288928747177124,-1.9008170366287231,0.41537415981292725,2.609574556350708,4.9102078703935526,-9.370864427182823e-05,0.1843881458044052,-1.5863497892962855,0.0,0.10873857885599136,0.788382887840271,0.0,0.027810610830783844,0.798334002494812,-0.0001604001154191792,-0.334702730178833
392.0,368.0,0.7795,-0.1472,9.2381,-0.051,0.2231,-0.133,-1.5876337490477503,-0.18825051188468933,1.4942858219146729,-1.8975352048873901,0.4119630455970764,2.5657174587249756,4.9102718261773965,8.060856998781674e-06,0.16783678531646729,-1.5863221327411097,0.0,0.11626459658145905,0.78839111328125,0.0,0.03394092619419098,0.7982857823371887,-0.0001682579895714298,-0.3518523573875427
392.0,368.0,0.7795,-0.1472,9.2381,-0.051,0.2231,-0.133,-1.5890923939146937,-0.17372645437717438,1.590428352355957,-1.894195556640625,0.4248623549938202,2.64737868309021,4.910299795656957,0.0010603251866996288,0.17274309694766998,-1.5863617102252405,0.0,0.11784835159778595,0.7884516716003418,0.0,0.04177425801753998,0.7983137965202332,-0.00020310922991484404,-0.37341487407684326
392.0,368.0,0.7795,-0.1472,9.2381,-0.051,0.2231,-0.133,-1.5905991993346156,-0.17792151868343353,1.559975266456604,-1.8908569812774658,0.42662644386291504,2.565152168273926,4.910228031664648,3.653562453109771e-05,0.1666266918182373,-1.5863540808307093,0.0,0.11497176438570023,0.7883911728858948,1.0900291336213286e-08,0.022686226293444633,0.7983421087265015,-0.00014946078590583056,-0.3782570958137512
392.0,368.0,0.7795,-0.1472,9.2381,-0.051,0.2231,-0.133,-1.5921746693053187,-0.19837698340415955,1.5409456491470337,-1.8874765634536743,0.41337689757347107,2.6072983741760254,4.910252111941137,-0.001396736828610301,0.16260187327861786,-1.586381737385885,0.0,0.12478363513946533,0.7884472608566284,1.9810745383562478e-13,0.012283719144761562,0.7983824014663696,8.306640665978193e-05,-0.37136322259902954
378.0,340.0,0.6682,-0.0179,9.7208,-0.0315,0.2825,-0.1298,-1.5937963924803675,-0.2057315707206726,1.5463504791259766,-1.8841813802719116,0.4247824549674988,2.5745420455932617,4.910299795656957,0.00016998658247757703,0.16452822089195251,-1.5863540808307093,0.0,0.1251099705696106,0.788382887840271,3.60050503461621e-18,0.037358783185482025,0.7983459830284119,0.00012585903459694237,-0.3459758460521698
378.0,340.0,0.6682,-0.0179,9.7208,-0.0315,0.2825,-0.1298,-1.5954152546324671,-0.19626174867153168,1.5659387111663818,-1.8808225393295288,0.43244650959968567,2.621736764907837,4.91024802902297,0.00041087111458182335,0.16900905966758728,-1.5863259474383753,0.0,0.11400240659713745,0.7883550524711609,6.543739417238888e-23,0.01438137236982584,0.7983499765396118,4.917734986520372e-05,-0.34186920523643494
378.0,340.0,0.6682,-0.0179,9.7208,-0.0315,0.2825,-0.1298,-1.5975381336607875,-0.20857299864292145,1.5454425811767578,-1.8765510320663452,0.4227577745914459,2.5682694911956787,4.910224380880155,-0.0028427084907889366,0.1666799783706665,-1.5863617102252405,0.0,0.11956561356782913,0.78839111328125,7.765229165147811e-29,0.01853722706437111,0.7983178496360779,3.86219508072827e-05,-0.3687181770801544
378.0,340.0,0.6682,-0.0179,9.7208,-0.0315,0.2825,-0.1298,-1.5992285213866175,-0.21795548498630524,1.552072286605835,-1.8730159997940063,0.4252098798751831,2.585052251815796,4.910256209760465,-0.0011049127206206322,0.1549445390701294,-1.586318318043844,0.0,0.11712075024843216,0.7883673906326294,1.4112920891125073e-33,0.016300080344080925,0.7983499765396118,5.255865107756108e-05,-0.36109304428100586
378.0,340.0,0.6682,-0.0179,9.7208,-0.0315,0.2825,-0.1298,-1.6009913883604945,-0.21583198010921478,1.6440110206604004,-1.8696256875991821,0.4283360540866852,2.6233534812927246,4.910167786269941,-0.00016571299056522548,0.1643574833869934,-1.5863860289203089,0.0,0.12400344014167786,0.7884074449539185,2.564953524681717e-38,0.024687714874744415,0.7983299493789673,2.0676942824593425e-07,-0.3667210042476654
378.0,340.0,0.6682,-0.0179,9.7208,-0.0315,0.2825,-0.1298,-1.602666517297262,-0.22137057781219482,1.5799665451049805,-1.8662543296813965,0.4175615906715393,2.5825014114379883,4.910160007863798,-0.0033509358763694763,0.1578206866979599,-1.5863140265094202,0.0,0.1131553202867508,0.7883428335189819,4.666323886201641e-43,0.018842056393623352,0.7983260154724121,6.699066265771067e-15,-0.33862972259521484
378.0,340.0,0.6682,-0.0179,9.7208,-0.0315,0.2825,-0.1298,-1.604424615899557,-0.2267656922340393,1.4898333549499512,-1.8628392219543457,0.4193985164165497,2.5840883255004883,4.9101881859596155,-0.0024374378845095634,0.171182781457901,-1.5863540808307093,0.0,0.11193560063838959,0.7883870601654053,0.0,0.013104874640703201,0.7983340620994568,2.17041206741404e-22,-0.34647470712661743
378.0,340.0,0.6682,-0.0179,9.7208,-0.0315,0.2825,-0.1298,-1.6062036953368128,-0.21838447451591492,1.5766358375549316,-1.8594757318496704,0.4273432493209839,2.5886340141296387,4.91015242317275,-0.0008691419498063624,0.14551003277301788,-1.5863779226886194,0.0,0.12667950987815857,0.7883714437484741,0.0,0.018270112574100494,0.7983137965202332,7.031859116449456e-30,-0.3289904296398163
378.0,340.0,0.6682,-0.0179,9.7208,-0.0315,0.2825,-0.1298,-1.6080347500243128,-0.22119000554084778,1.5805940628051758,-1.8561980724334717,0.41978803277015686,2.5305938720703125,4.910064342408933,-0.004926059395074844,0.16038310527801514,-1.5863502661334437,0.0,0.1320665180683136,0.7883350849151611,0.0,0.018916726112365723,0.7983499765396118,2.2782326127535676e-37,-0.4150661826133728
378.0,340.0,0.6682,-0.0179,9.7208,-0.0315,0.2825,-0.1298,-1.6098410091795863,-0.2323630154132843,1.6251308917999268,-1.8528051376342773,0.4212069809436798,2.582705020904541,4.910076606064596,-0.009661329910159111,0.15927737951278687,-1.5863497892962855,0.0,0.11095382273197174,0.7883152365684509,0.0,0.010301144793629646,0.7983056306838989,7.006492321624085e-45,-0.37926989793777466
378.0,340.0,0.6682,-0.0179,9.7208,-0.0315,0.2825,-0.1298,-1.6116520367064417,-0.24231119453907013,1.587846279144287,-1.8494462966918945,0.42432597279548645,2.6123175621032715,4.90994484999732,-0.008356555365025997,0.15562224388122559,-1.58636981645693,0.0,0.12336160242557526,0.7883268594741821,0.0,0.007550649344921112,0.7983219623565674,0.0,-0.37711983919143677
380.0,347.0,0.0114,-0.3817,8.6644,-0.0589,0.2298,-0.1184,-1.6135345898070277,-0.24380259215831757,1.5785129070281982,-1.8461120128631592,0.4162336587905884,2.5241119861602783,4.909917536168852,-0.010108912363648415,0.1466798037290573,-1.5863660017596644,0.0,0.1482454240322113,0.7883387804031372,0.0,-0.0009323232807219028,0.7983059883117676,0.0,-0.39631956815719604
380.0,347.0,0.0114,-0.3817,8.6644,-0.0589,0.2298,-0.1184,-1.6154691181578578,-0.23636971414089203,1.6112360954284668,-1.8426809310913086,0.41230309009552,2.5489931106567383,4.90984998920516,-0.009680829010903835,0.16695669293403625,-1.5863340536700647,0.0,0.12688812613487244,0.78839111328125,0.0,0.009138258174061775,0.7983459234237671,0.0,-0.4122542142868042
380.0,347.0,0.0114,-0.3817,8.6644,-0.0589,0.2298,-0.1184,-1.617375989953512,-0.24111513793468475,1.5931259393692017,-1.8393279314041138,0.4179985821247101,2.579836845397949,4.909813704877653,-0.0035333929117769003,0.1567208468914032,-1.586357895527975,0.0,0.12907257676124573,0.7883673906326294,0.0,0.014034472405910492,0.7983703017234802,0.0,-0.3818705976009369
380.0,347.0,0.0114,-0.3817,8.6644,-0.0589,0.2298,-0.1184,-1.6193176708617152,-0.24520756304264069,1.6125402450561523,-1.836013674736023,0.4120159447193146,2.565002679824829,4.909762057452955,-0.002984517253935337,0.13577932119369507,-1.586357895527975,0.0,0.12381021678447723,0.7883754372596741,0.0,-0.007434723433107138,0.7983459234237671,0.0,-0.41952505707740784
380.0,347.0,0.0114,-0.3817,8.6644,-0.0589,0.2298,-0.1184,-1.6213413677611292,-0.24335676431655884,1.6514747142791748,-1.8327003717422485,0.40761882066726685,2.5579376220703125,4.909673395543852,-0.004811115562915802,0.14262184500694275,-1.5863421599017542,0.0,0.13295188546180725,0.7882992029190063,0.0,0.004497024696320295,0.7983499765396118,0.0,-0.3717593550682068
380.0,347.0,0.0114,-0.3817,8.6644,-0.0589,0.2298,-0.1184,-1.6237865887083949,-0.2559119462966919,1.6497950553894043,-1.8286514282226562,0.4129076600074768,2.5842623710632324,4.909709918289938,-0.0014698128215968609,0.14666062593460083,-1.5863421599017542,0.0,0.14324668049812317,0.7883074879646301,0.0,0.010904338210821152,0.7983459830284119,0.0,-0.4511885643005371
380.0,347.0,0.0114,-0.3817,8.6644,-0.0589,0.2298,-0.1184,-1.6259414158263148,-0.24722500145435333,1.6553895473480225,-1.8254181146621704,0.40573403239250183,2.5189480781555176,4.909681874304571,-0.0017668086802586913,0.15633760392665863,-1.5863459745990198,1.7958786457938913e-08,0.13274145126342773,0.7883791923522949,0.0,-0.0038808139506727457,0.7983499765396118,0.0,-0.3924698829650879
380.0,347.0,0.0114,-0.3817,8.6644,-0.0589,0.2298,-0.1184,-1.627927919427389,-0.24776621162891388,1.638424038887024,-1.8221323490142822,0.40606990456581116,2.5726585388183594,4.909658866911688,-0.004693983122706413,0.14468875527381897,-1.586301628743307,3.263920709227486e-13,0.12992507219314575,0.7884074449539185,0.0,0.007081152871251106,0.7983459234237671,0.0,-0.43302446603775024
380.0,347.0,0.0114,-0.3817,8.6644,-0.0589,0.2298,-0.1184,-1.630026479760641,-0.2645742893218994,1.6519896984100342,-1.8188811540603638,0.40649107098579407,2.5999388694763184,4.909606057196417,-0.004039542283862829,0.1552056223154068,-1.586318318043844,5.932016161492875e-18,0.1422150582075119,0.7883471846580505,0.0,0.0013906972017139196,0.7983742356300354,0.0,-0.3957326412200928
380.0,347.0,0.0114,-0.3817,8.6644,-0.0589,0.2298,-0.1184,-1.6320935688414515,-0.2573486864566803,1.7303037643432617,-1.8157516717910767,0.40086817741394043,2.5935699939727783,4.909510540753164,-0.008505831472575665,0.16781193017959595,-1.5863378683673304,0.00037433113902807236,0.14277467131614685,0.7883309125900269,0.0,0.00020230282098054886,0.7982978820800781,0.0,-0.40857452154159546
380.0,347.0,0.0114,-0.3817,8.6644,-0.0589,0.2298,-0.1184,-1.6341554127135218,-0.26839378476142883,1.6584845781326294,-1.812509536743164,0.3842617869377136,2.535412311553955,4.909491631179609,-0.01612631231546402,0.15382710099220276,-1.5863054434405726,0.0009547860245220363,0.14752957224845886,0.7883513569831848,0.0,0.0011768393451347947,0.7983381152153015,0.0,-0.3880436420440674
401.0,385.0,-0.1932,0.07,9.3864,-0.0473,0.1878,-0.1171,-1.6362377605833949,-0.2672156095504761,1.7323129177093506,-1.8093222379684448,0.38830962777137756,2.54468035697937,4.909351321845808,-0.016670482233166695,0.1456070989370346,-1.5862177054034632,0.022236503660678864,0.14953742921352386,0.7882951498031616,0.0,-0.004527639597654343,0.7983499765396118,0.0,-0.3658868670463562
401.0,385.0,-0.1932,0.07,9.3864,-0.0473,0.1878,-0.1171,-1.638259073297018,-0.2582281827926636,1.6709020137786865,-1.8063044548034668,0.38741496205329895,2.5658392906188965,4.909179422050276,-0.019234437495470047,0.14777089655399323,-1.5859935919391077,0.03678144887089729,0.14933320879936218,0.7883754372596741,0.0,0.009298911318182945,0.7983540296554565,0.0,-0.4041648507118225
401.0,385.0,-0.1932,0.07,9.3864,-0.0473,0.1878,-0.1171,-1.640402456323141,-0.2610000669956207,1.7052068710327148,-1.8032300472259521,0.3773813247680664,2.5384459495544434,4.908960792213239,-0.030791593715548515,0.14791372418403625,-1.5857380072223108,0.030450722202658653,0.1526598036289215,0.7883754372596741,0.0,-0.007868434302508831,0.7983300089836121,0.0,-0.41256147623062134
401.0,385.0,-0.1932,0.07,9.3864,-0.0473,0.1878,-0.1171,-1.6424690685667933,-0.2628798186779022,1.7202068567276,-1.8002593517303467,0.3772021234035492,2.5358715057373047,4.908689263253965,-0.0475296787917614,0.14326763153076172,-1.5855219999896448,0.025187889114022255,0.1503329575061798,0.7883155345916748,0.0,-0.0001234892988577485,0.7983377575874329,0.0,-0.4259035885334015
401.0,385.0,-0.1932,0.07,9.3864,-0.0473,0.1878,-0.1171,-1.6445547542967738,-0.2688902020454407,1.7104299068450928,-1.79732084274292,0.37771645188331604,2.5466980934143066,4.908106747060575,-0.07455067336559296,0.13346372544765472,-1.5853574911700647,0.0273986104875803,0.15883652865886688,0.7882992625236511,0.0,0.003617882262915373,0.7983539700508118,0.0,-0.43050622940063477
401.0,385.0,-0.1932,0.07,9.3864,-0.0473,0.1878,-0.1171,-1.646689077416891,-0.26452088356018066,1.7512924671173096,-1.7942780256271362,0.36604487895965576,2.528567314147949,4.907359677344122,-0.0977403074502945,0.12300197780132294,-1.585041348134176,0.043546345084905624,0.1594405472278595,0.7883350253105164,0.0,0.00303198816254735,0.7983621954917908,0.0,-0.41196930408477783
401.0,385.0,-0.1932,0.07,9.3864,-0.0473,0.1878,-0.1171,-1.64880432705068,-0.26562345027923584,1.709542989730835,-1.7913166284561157,0.3745197355747223,2.5196611881256104,4.906676175981321,-0.09992480278015137,0.1207289844751358,-1.5845330397235315,0.08063055574893951,0.16276684403419495,0.7883234620094299,0.0,0.00039763038512319326,0.7983580231666565,0.0,-0.4436030983924866
401.0,385.0,-0.1932,0.07,9.3864,-0.0473,0.1878,-0.1171,-1.6515261135497035,-0.2592032551765442,1.7594425678253174,-1.7875938415527344,0.3752826750278473,2.5522866249084473,4.9056598273809335,-0.09335937350988388,0.11070394515991211,-1.583428684865133,0.1422095000743866,0.1942663937807083,0.7883713841438293,0.0,0.0021796172950416803,0.7983662486076355,0.0,-0.4243178963661194
401.0,385.0,-0.1932,0.07,9.3864,-0.0473,0.1878,-0.1171,-1.6536594829955042,-0.26473963260650635,1.7918589115142822,-1.784662127494812,0.36705726385116577,2.490750312805176,4.90473789253787,-0.13436654210090637,0.09425655007362366,-1.5822809378253382,0.13202737271785736,0.197988361120224,0.7883155345916748,0.0,0.0043683238327503204,0.7983499765396118,0.0,-0.4215741753578186
401.0,385.0,-0.1932,0.07,9.3864,-0.0473,0.1878,-0.1171,-1.655912538568014,-0.2760966420173645,1.7656080722808838,-1.7817070484161377,0.3609493374824524,2.5501222610473633,4.903471070318975,-0.16884323954582214,0.07913792878389359,-1.58128530183901,0.12207445502281189,0.1822202354669571,0.7883551120758057,0.0,0.0036626497749239206,0.7984021902084351,0.0003696323256008327,-0.4070517420768738
401.0,385.0,-0.1932,0.07,9.3864,-0.0473,0.1878,-0.1171,-1.658058305779928,-0.26697269082069397,1.7220855951309204,-1.7787714004516602,0.366441935300827,2.4500794410705566,4.9020606754119775,-0.17070680856704712,0.08723792433738708,-1.5800722281085413,0.16645798087120056,0.20747798681259155,0.7883391380310059,0.0,0.01011512242257595,0.7983943223953247,0.0002782039518933743,-0.42009955644607544
500.0,419.0,-0.999,0.8363,9.0808,-0.0327,0.0687,-0.1436,-1.6602117023863734,-0.2690097689628601,1.7902379035949707,-1.7758136987686157,0.3597021698951721,2.5329599380493164,4.900574344187536,-0.20099587738513947,0.07199450582265854,-1.578712288533346,0.1696326583623886,0.21019522845745087,0.7883274555206299,0.0,0.00911062490195036,0.7983620166778564,0.0002230403624707833,-0.44753527641296387
500.0,419.0,-0.999,0.8363,9.0808,-0.0327,0.0687,-0.1436,-1.6623813114561976,-0.258771687746048,1.801462173461914,-1.773005723953247,0.35430899262428284,2.4689316749572754,4.89888462701396,-0.20927360653877258,0.0641191154718399,-1.5773165861712855,0.19904251396656036,0.21937726438045502,0.7883074879646301,0.0,0.00655939569696784,0.7983660697937012,0.00014890808961354196,-0.4339025914669037
500.0,419.0,-0.999,0.8363,9.0808,-0.0327,0.0687,-0.1436,-1.6644112072386683,-0.2602776288986206,1.8077565431594849,-1.7701209783554077,0.3545008599758148,2.5041470527648926,4.897064375668325,-0.23915794491767883,0.0707295686006546,-1.5754159132586878,0.22910523414611816,0.23486819863319397,0.7882911562919617,0.0,0.003177372273057699,0.7984060049057007,0.000137370647280477,-0.414064884185791
500.0,419.0,-0.999,0.8363,9.0808,-0.0327,0.0687,-0.1436,-1.6665054760374964,-0.26685333251953125,1.7921528816223145,-1.7673884630203247,0.34549838304519653,2.517967462539673,4.895030411868849,-0.24956443905830383,0.03857078030705452,-1.5736396948443812,0.23929482698440552,0.23652759194374084,0.7883714437484741,0.0,0.009066946804523468,0.7983942627906799,0.0006330669857561588,-0.41004669666290283
500.0,419.0,-0.999,0.8363,9.0808,-0.0327,0.0687,-0.1436,-1.6685673199095667,-0.25787636637687683,1.8275654315948486,-1.764691710472107,0.34298110008239746,2.4650042057037354,4.892894285708227,-0.2858140468597412,0.04103446006774902,-1.5715797583209437,0.25148433446884155,0.22850193083286285,0.7883194088935852,0.0,-0.004705233033746481,0.7983540296554565,0.00032412103610113263,-0.38798898458480835
500.0,419.0,-0.999,0.8363,9.0808,-0.0327,0.0687,-0.1436,-1.670584341088766,-0.2525426149368286,1.8242440223693848,-1.7619510889053345,0.3430972695350647,2.4681992530822754,4.890482696681776,-0.31706562638282776,0.01692914590239525,-1.5694440046893519,0.29427608847618103,0.2351883202791214,0.7883360981941223,0.0,0.006757970899343491,0.7983779907226562,0.00023581220011692494,-0.4538877308368683
500.0,419.0,-0.999,0.8363,9.0808,-0.0327,0.0687,-0.1436,-1.672570367852682,-0.24807524681091309,1.8933207988739014,-1.759225845336914,0.34669846296310425,2.4882164001464844,4.887785392790594,-0.3400489091873169,0.01209338754415512,-1.5669949690448206,0.3010522723197937,0.23554778099060059,0.7882952094078064,0.0,-0.005687108263373375,0.7984063029289246,6.611950811930001e-05,-0.45178523659706116
500.0,419.0,-0.999,0.8363,9.0808,-0.0327,0.0687,-0.1436,-1.674544473687643,-0.24922598898410797,1.8542468547821045,-1.7566015720367432,0.33804401755332947,2.4617013931274414,4.884971457510748,-0.36424246430397034,0.0066408379934728146,-1.564406696950094,0.327455997467041,0.23359988629817963,0.7883074879646301,0.0,0.006659576669335365,0.7983900308609009,0.00010217189264949411,-0.4140118956565857
500.0,419.0,-0.999,0.8363,9.0808,-0.0327,0.0687,-0.1436,-1.6764332256712855,-0.24823829531669617,1.9186022281646729,-1.7538670301437378,0.33985647559165955,2.512363910675049,4.881878572493353,-0.40658196806907654,-0.011169019155204296,-1.5615704695331019,0.3713010251522064,0.2589972913265228,0.7883114814758301,0.0,0.00017739529721438885,0.7983900308609009,0.00012319660163484514,-0.4026948809623718
500.0,419.0,-0.999,0.8363,9.0808,-0.0327,0.0687,-0.1436,-1.678420206109518,-0.24666380882263184,1.9590890407562256,-1.7511473894119263,0.3303188681602478,2.4920694828033447,4.878511535912313,-0.4393640160560608,-0.014212259091436863,-1.5584748427020472,0.3983777165412903,0.27478787302970886,0.7883356809616089,0.0,0.0017518284730613232,0.7984543442726135,0.00014046758587937802,-0.37418609857559204
500.0,419.0,-0.999,0.8363,9.0808,-0.0327,0.0687,-0.1436,-1.6808411083617152,-0.24343347549438477,1.962707757949829,-1.7477476596832275,0.32959267497062683,2.4690568447113037,4.873968857317724,-0.4665689766407013,-0.037605565041303635,-1.554241959248678,0.4393887519836426,0.275426983833313,0.7883238196372986,0.0,0.0002447505248710513,0.7984181642532349,0.00023793085711076856,-0.331895112991333
577.0,405.0,-0.7573,0.2213,10.4291,-0.3308,-0.1648,-0.1138,-1.6827994785704554,-0.22692009806632996,2.003706455230713,-1.7450616359710693,0.3327884078025818,2.4706482887268066,4.870036545186796,-0.4974784553050995,-0.04425986483693123,-1.5506866613971155,0.4611232578754425,0.26460832357406616,0.7882992625236511,0.0,-0.0031058662571012974,0.7983620166778564,0.00019639120728243142,-0.35828208923339844
577.0,405.0,-0.7573,0.2213,10.4291,-0.3308,-0.1648,-0.1138,-1.684617658654684,-0.22345952689647675,2.042224884033203,-1.7423925399780273,0.33029770851135254,2.460407018661499,4.865791174560346,-0.5242922902107239,-0.016971051692962646,-1.5467155615436,0.486162930727005,0.27621832489967346,0.7882874011993408,0.0,-0.005793816410005093,0.7983779907226562,0.0002336157631361857,-0.30639761686325073
577.0,405.0,-0.7573,0.2213,10.4291,-0.3308,-0.1648,-0.1138,-1.6864625416197718,-0.22858209908008575,2.03298020362854,-1.7397401332855225,0.32560816407203674,2.4758529663085938,4.86157805004672,-0.5463861227035522,-0.03261641785502434,-1.5427148977862757,0.5083669424057007,0.27482324838638306,0.7883357405662537,0.0,-0.001330610946752131,0.7984018921852112,0.00044461226207204163,-0.312640905380249
577.0,405.0,-0.7573,0.2213,10.4291,-0.3308,-0.1648,-0.1138,-1.688249250451559,-0.2113642543554306,2.1201343536376953,-1.7371348142623901,0.32648465037345886,2.471841335296631,4.857149514346876,-0.5531753301620483,-0.024520419538021088,-1.5384390989886683,0.5376142263412476,0.2892330586910248,0.7882668972015381,0.0,-0.0120701240375638,0.7984263300895691,0.0010280255228281021,-0.28429147601127625
577.0,405.0,-0.7573,0.2213,10.4291,-0.3308,-0.1648,-0.1138,-1.6899472675719203,-0.20546020567417145,2.184971332550049,-1.734598159790039,0.32710304856300354,2.4625911712646484,4.8527211276586435,-0.5641046166419983,-0.016995802521705627,-1.534050766621725,0.5676487684249878,0.26130497455596924,0.7882992029190063,0.0,0.004757213406264782,0.7983978390693665,0.0007121913367882371,-0.25091972947120667
577.0,405.0,-0.7573,0.2213,10.4291,-0.3308,-0.1648,-0.1138,-1.6916772327818812,-0.20832909643650055,2.169584035873413,-1.7319482564926147,0.3191087245941162,2.440582752227783,4.848247605353155,-0.5841977596282959,-0.02019081637263298,-1.5295112768756312,0.5756239295005798,0.23942187428474426,0.7882671356201172,0.0,-0.006248435936868191,0.7984100580215454,0.0004883107612840831,-0.21204674243927002
577.0,405.0,-0.7573,0.2213,10.4291,-0.3308,-0.1648,-0.1138,-1.6932512722411097,-0.18889228999614716,2.218337059020996,-1.729378581047058,0.3274039030075073,2.528085470199585,4.843632671027937,-0.5719219446182251,-0.007520362734794617,-1.524860684071676,0.5951496362686157,0.2539752721786499,0.7883274555206299,0.0,-0.007100045680999756,0.7984461784362793,0.0005357075133360922,-0.1676124930381775
577.0,405.0,-0.7573,0.2213,10.4291,-0.3308,-0.1648,-0.1138,-1.6947056255736292,-0.17465224862098694,2.3199126720428467,-1.7268469333648682,0.3234623074531555,2.4547924995422363,4.8389151869113824,-0.5753008127212524,0.0011723206844180822,-1.5200541655169886,0.6120867729187012,0.23988251388072968,0.7883356809616089,0.0,-0.0008828889112919569,0.7984060645103455,0.0006025820621289313,-0.14472949504852295
577.0,405.0,-0.7573,0.2213,10.4291,-0.3308,-0.1648,-0.1138,-1.6961037121214808,-0.17883920669555664,2.2867438793182373,-1.7242809534072876,0.3217189610004425,2.4924778938293457,4.834237406938829,-0.5828582048416138,-0.00012372166384011507,-1.5150750319110315,0.6119267344474792,0.24398383498191833,0.7883471846580505,0.0,-0.004536153748631477,0.7984178066253662,0.0018268342828378081,-0.16750511527061462
577.0,405.0,-0.7573,0.2213,10.4291,-0.3308,-0.1648,-0.1138,-1.697498460809225,-0.17430099844932556,2.3093440532684326,-1.7217258214950562,0.3129613995552063,2.3991668224334717,4.829692940204897,-0.576953649520874,0.025654228404164314,-1.5100935141192835,0.6237404346466064,0.23443782329559326,0.7883033752441406,0.0,-0.006334869656711817,0.7984703183174133,0.0020268363878130913,-0.1388598084449768
577.0,405.0,-0.7573,0.2213,10.4291,-0.3308,-0.1648,-0.1138,-1.6987887821593226,-0.1528232842683792,2.385974407196045,-1.7191498279571533,0.318124383687973,2.4852237701416016,4.824994417815962,-0.5676436424255371,0.02337155118584633,-1.5050585905658167,0.6213537454605103,0.20187848806381226,0.7883471846580505,0.0,-0.0038253390230238438,0.7984458804130554,0.0026477493811398745,-0.155961811542511
494.0,369.0,0.7836,0.2632,9.8824,-0.5855,-0.4644,-0.1759,-1.6999756298460902,-0.1370486468076706,2.4091336727142334,-1.7165656089782715,0.3162114918231964,2.4581360816955566,4.8205130500491045,-0.5645282864570618,0.020176447927951813,-1.500089470540182,0.632634162902832,0.2271806299686432,0.7883513569831848,0.0,-0.0013742465525865555,0.7985020875930786,0.004264303483068943,-0.09633011370897293
494.0,369.0,0.7836,0.2632,9.8824,-0.5855,-0.4644,-0.1759,-1.7011343441405238,-0.13150286674499512,2.4548604488372803,-1.7141371965408325,0.3079897165298462,2.5115573406219482,4.816117617278852,-0.5589447021484375,0.02754875458776951,-1.4950416723834437,0.6290342211723328,0.21652531623840332,0.7883278131484985,0.0,-0.010029058903455734,0.7985823750495911,0.0062732212245464325,-0.07423358410596848
494.0,369.0,0.7836,0.2632,9.8824,-0.5855,-0.4644,-0.1759,-1.7023645840086878,-0.13232652842998505,2.4078145027160645,-1.7110095024108887,0.3017076253890991,2.426006317138672,4.810604001372614,-0.5571208000183105,0.024498458951711655,-1.488741699849264,0.6344349980354309,0.1979631632566452,0.7883514165878296,0.0,-0.0032662195153534412,0.7985942959785461,0.005681036040186882,-0.10344777256250381
494.0,369.0,0.7836,0.2632,9.8824,-0.5855,-0.4644,-0.1759,-1.7032915554442347,-0.11390842497348785,2.430882453918457,-1.7086577415466309,0.3026168644428253,2.449049472808838,4.806079211622038,-0.5580955147743225,0.04148732125759125,-1.4836700598346155,0.6276819109916687,0.21438387036323547,0.7883714437484741,0.0,-0.008067206479609013,0.7986663579940796,0.0041619096882641315,-0.05387222394347191
494.0,369.0,0.7836,0.2632,9.8824,-0.5855,-0.4644,-0.1759,-1.7040616474547328,-0.09678228199481964,2.5242507457733154,-1.7063301801681519,0.3012685179710388,2.479160785675049,4.801670419960775,-0.5403356552124023,0.0377819761633873,-1.4786155859576624,0.6307068467140198,0.21312272548675537,0.7883350849151611,0.0,-0.001500833430327475,0.7986541986465454,0.002660450292751193,-0.07087437808513641
494.0,369.0,0.7836,0.2632,9.8824,-0.5855,-0.4644,-0.1759,-1.7048212490477503,-0.08502867817878723,2.544013261795044,-1.7039463520050049,0.30266839265823364,2.473985195159912,4.797236355930128,-0.540657639503479,0.037548672407865524,-1.473624054585592,0.6151851415634155,0.20218777656555176,0.7883234620094299,0.0,-0.017998984083533287,0.7986822128295898,0.0024947277270257473,-0.07959268242120743
