ramyac6/ROB537/final_project/csv/good/good_88.csv
tof_0,tof_1,accelx,accely,accelz,gyrox,gyroy,gyroz,shoulder_lift_joint_position,shoulder_lift_joint_velocity,shoulder_lift_joint_effort,elbow_joint_position,elbow_joint_velocity,elbow_joint_effort,wrist_1_joint_position,wrist_1_joint_velocity,wrist_1_joint_effort,wrist_2_joint_position,wrist_2_joint_velocity,wrist_2_joint_effort,wrist_3_joint_position,wrist_3_joint_velocity,wrist_3_joint_effort,shoulder_pan_joint_position,shoulder_pan_joint_velocity,shoulder_pan_joint_effort
230.0,235.0,0.0508,0.3081,9.5498,-0.0319,0.0199,-0.1188,-1.9817453823485316,0.0,3.7613048553466797,-1.5657896995544434,-0.0,2.0210092067718506,5.000445562392034,-0.0,0.2807721793651581,-1.532008473073141,-0.0,-0.016449004411697388,0.15937064588069916,0.0,0.00040938996244221926,0.951727032661438,0.0,0.006362041458487511
230.0,235.0,0.0508,0.3081,9.5498,-0.0319,0.0199,-0.1188,-1.9817692242064417,0.0,3.750383138656616,-1.5657899379730225,-0.0,1.9963443279266357,5.000441479473867,-0.0,0.2744353711605072,-1.5320294539081019,-0.0,-0.01791590452194214,0.15943875908851624,0.0,0.013087892904877663,0.9517590999603271,0.0,-0.026549458503723145
230.0,235.0,0.0508,0.3081,9.5498,-0.0319,0.0199,-0.1188,-1.9817372761168421,0.0,3.7410573959350586,-1.5657612085342407,-0.0,2.0490193367004395,5.000429230719366,-0.0,0.2805943191051483,-1.5320213476764124,-0.0,0.0003075515851378441,0.15937434136867523,0.0,0.011259561404585838,0.9516873955726624,0.0,-0.03125230222940445
230.0,235.0,0.0508,0.3081,9.5498,-0.0319,0.0199,-0.1188,-1.9817372761168421,0.0,3.792848587036133,-1.5658379793167114,-0.0,1.985209345817566,5.000485437899389,-0.0,0.2882494628429413,-1.532013241444723,-0.0,-0.005372026469558477,0.15939071774482727,0.0,0.004882396198809147,0.9517427682876587,0.0,-0.00790761411190033
230.0,235.0,0.0508,0.3081,9.5498,-0.0319,0.0199,-0.1188,-1.981764932672018,0.0,3.795353889465332,-1.5657734870910645,-0.0,2.0341131687164307,5.000457483320989,-0.0,0.28673508763313293,-1.5319846312152308,-0.0,-0.010823355987668037,0.1593870222568512,0.0,0.0007711420767009258,0.951735258102417,0.0,0.005592808127403259
230.0,235.0,0.0508,0.3081,9.5498,-0.0319,0.0199,-0.1188,-1.9817372761168421,0.0,3.7803587913513184,-1.5658220052719116,-0.0,2.0025124549865723,5.000429618149557,-0.0,0.2720959186553955,-1.532008473073141,-0.0,-0.028419535607099533,0.15941490232944489,0.0,-0.009636125527322292,0.9517872929573059,0.0,0.03562483191490173
230.0,235.0,0.0508,0.3081,9.5498,-0.0319,0.0199,-0.1188,-1.9817940197386683,0.0,3.7734761238098145,-1.5657415390014648,-0.0,2.0754261016845703,5.000445562392034,-0.0,0.28112807869911194,-1.5320003668414515,-0.0,-0.008937694132328033,0.159342423081398,0.0,0.009490475058555603,0.9517590403556824,0.0,0.0121669452637434
229.0,251.0,-0.0724,0.2106,9.7986,-0.0264,0.0185,-0.1133,-1.9817291698851527,0.0,3.7138171195983887,-1.5657579898834229,-0.0,1.9961457252502441,5.0005057630832574,-0.0,0.2806747257709503,-1.5320003668414515,-0.0,-0.008787098340690136,0.15940670669078827,0.0,-1.894962042570114e-05,0.9517273902893066,0.0,0.01597323641180992
229.0,251.0,-0.0724,0.2106,9.7986,-0.0264,0.0185,-0.1133,-1.9817453823485316,0.0,3.707766056060791,-1.565809726715088,-0.0,2.040391445159912,5.000453847437658,-0.0,0.28399211168289185,-1.5320285002337855,-0.0,-0.019033249467611313,0.15939439833164215,0.0,0.0017869863659143448,0.9517549872398376,0.0,0.01854168064892292
229.0,251.0,-0.0724,0.2106,9.7986,-0.0264,0.0185,-0.1133,-1.9817615948119105,0.0,3.816018581390381,-1.5658220052719116,-0.0,2.051037311553955,5.000473874598303,-0.0,0.28215306997299194,-1.532053295766012,-0.0,-0.0053361551836133,0.15940670669078827,0.0,-0.0022516888566315174,0.9517232775688171,0.0,-0.00998373981565237
229.0,251.0,-0.0724,0.2106,9.7986,-0.0264,0.0185,-0.1133,-1.9817530117430628,0.0,3.778437852859497,-1.5657457113265991,-0.0,2.0459704399108887,5.000465619355001,-0.0,0.28346124291419983,-1.532025162373678,-0.0,-0.005370408296585083,0.15938255190849304,0.0,0.014064044691622257,0.951731264591217,0.0,-0.022623635828495026
229.0,251.0,-0.0724,0.2106,9.7986,-0.0264,0.0185,-0.1133,-1.9817530117430628,0.0,3.7228193283081055,-1.565757155418396,-0.0,2.028961181640625,5.0004697916801355,-0.0,0.2785551846027374,-1.5320170561419886,-0.0,-0.02573862299323082,0.15939071774482727,0.0,-0.0001886896206997335,0.9517393708229065,0.0,-0.02067471109330654
229.0,251.0,-0.0724,0.2106,9.7986,-0.0264,0.0185,-0.1133,-1.981725355187887,0.0,3.758945941925049,-1.5657652616500854,-0.0,2.0786149501800537,5.000449645310201,-0.0,0.2807360589504242,-1.532013241444723,-0.0,-0.014335712417960167,0.15936656296253204,0.0,-0.01037861593067646,0.9517273902893066,0.0,0.012178328819572926
229.0,251.0,-0.0724,0.2106,9.7986,-0.0264,0.0185,-0.1133,-1.9817410908141078,0.0,3.7563910484313965,-1.565817952156067,-0.0,2.0450246334075928,5.000461536436834,-0.0,0.2870887517929077,-1.5320127646075647,-0.0,-0.010129665955901146,0.15943466126918793,0.0,-0.0018911204533651471,0.9517273902893066,0.0,0.027189813554286957
229.0,251.0,-0.0724,0.2106,9.7986,-0.0264,0.0185,-0.1133,-1.9817410908141078,0.0,3.768822193145752,-1.5657497644424438,-0.0,2.041388511657715,5.000509875803747,-0.0,0.2685164213180542,-1.5320003668414515,-0.0,-0.02008083462715149,0.15939438343048096,0.0,-0.0010987232672050595,0.9517509341239929,0.0,-0.0012734350748360157
229.0,251.0,-0.0724,0.2106,9.7986,-0.0264,0.0185,-0.1133,-1.9817372761168421,0.0,3.7477006912231445,-1.5657652616500854,-0.0,2.033447504043579,5.000429260521688,-0.0,0.27629679441452026,-1.5319607893573206,-0.0,-0.021504689007997513,0.1593710035085678,0.0,-0.004462463315576315,0.951735258102417,0.0,0.025722626596689224
229.0,251.0,-0.0724,0.2106,9.7986,-0.0264,0.0185,-0.1133,-1.9817692242064417,0.0,3.770071506500244,-1.5657776594161987,-0.0,2.031987190246582,5.0004615662391565,-0.0,0.26409515738487244,-1.5319808165179651,-0.0,-0.01258132979273796,0.15940271317958832,0.0,0.014021110720932484,0.9517032504081726,0.0,0.00909912958741188
229.0,251.0,-0.0724,0.2106,9.7986,-0.0264,0.0185,-0.1133,-1.981725355187887,0.0,3.743804931640625,-1.5657817125320435,-0.0,2.023702383041382,5.0004615662391565,-0.0,0.27761536836624146,-1.5320404211627405,-0.0,-0.011778300628066063,0.15940675139427185,0.0,-0.015242096036672592,0.9517393112182617,0.0,-0.005181267857551575
229.0,251.0,-0.0724,0.2106,9.7986,-0.0264,0.0185,-0.1133,-1.9817859135069789,0.0,3.7571699619293213,-1.5657858848571777,-0.0,2.00726056098938,5.000445562392034,-0.0,0.27361834049224854,-1.5319927374469202,-0.0,-0.01612675189971924,0.15940262377262115,0.0,0.005586153361946344,0.9517393708229065,0.0,0.05080133676528931
229.0,251.0,-0.0724,0.2106,9.7986,-0.0264,0.0185,-0.1133,-1.9817773304381312,0.0,3.7466630935668945,-1.5658297538757324,-0.0,2.054804801940918,5.000465649157324,-0.0,0.2744204103946686,-1.5319684187518519,-0.0,-0.018835244700312614,0.15939071774482727,0.0,0.002872437471523881,0.951735258102417,0.0,-0.0005216675344854593
229.0,251.0,-0.0724,0.2106,9.7986,-0.0264,0.0185,-0.1133,-1.9817530117430628,0.0,3.747966766357422,-1.5658060312271118,-0.0,2.0699987411499023,5.000429260521688,-0.0,0.26271072030067444,-1.5320408979998987,-0.0,-0.018692467361688614,0.1593904048204422,0.0,-0.007437163032591343,0.9517073035240173,0.0,0.03391948714852333
231.0,253.0,0.1585,0.3176,9.3709,-0.0284,0.0231,-0.102,-1.9817773304381312,0.0,3.7265515327453613,-1.565809726715088,-0.0,2.0777955055236816,5.000497597246923,-0.0,0.2833598256111145,-1.5320089499102991,-0.0,-0.016486067324876785,0.15940262377262115,0.0,-0.001294948160648346,0.9517032504081726,0.0,0.0014291758416220546
231.0,253.0,0.1585,0.3176,9.3709,-0.0284,0.0231,-0.102,-1.9817172489561976,0.0,3.746483325958252,-1.5657858848571777,-0.0,2.0084619522094727,5.000465649157324,-0.0,0.27952080965042114,-1.532008473073141,-0.0,-0.014183981344103813,0.15936656296253204,0.0,0.002617728430777788,0.9516992568969727,0.0,0.04213946312665939
231.0,253.0,0.1585,0.3176,9.3709,-0.0284,0.0231,-0.102,-1.9817491970457972,0.0,3.697737693786621,-1.5657817125320435,-0.0,2.035552978515625,5.000473487168112,-0.0,0.27783292531967163,-1.5319889227496546,-0.0,-0.005502714775502682,0.15942302346229553,0.0,-0.009217629209160805,0.951735258102417,0.0,0.003942483104765415
231.0,253.0,0.1585,0.3176,9.3709,-0.0284,0.0231,-0.102,-1.9817773304381312,0.0,3.7458009719848633,-1.565809726715088,-0.0,2.009552478790283,5.000493633538046,-0.0,0.27408742904663086,-1.5320404211627405,-0.0,-0.01625722274184227,0.15935871005058289,0.0,0.004754810594022274,0.9517427682876587,0.0,0.035154473036527634
231.0,253.0,0.1585,0.3176,9.3709,-0.0284,0.0231,-0.102,-1.9817530117430628,0.0,3.777557849884033,-1.5657373666763306,-0.0,2.0451862812042236,5.0004694042499445,-0.0,0.27540627121925354,-1.5320046583758753,-0.0,-0.007893857546150684,0.159358412027359,0.0,0.004321960732340813,0.9517672657966614,0.0,0.014990703202784061
231.0,253.0,0.1585,0.3176,9.3709,-0.0284,0.0231,-0.102,-1.9817291698851527,0.0,3.7563343048095703,-1.5658297538757324,-0.0,2.0204031467437744,5.000457453518667,-0.0,0.2838924527168274,-1.5320451895343226,-0.0,0.0031647549476474524,0.15939438343048096,0.0,0.010486937128007412,0.9517393112182617,0.0,-0.001526614767499268
231.0,253.0,0.1585,0.3176,9.3709,-0.0284,0.0231,-0.102,-1.9817530117430628,0.0,3.7633891105651855,-1.565801978111267,-0.0,2.019747257232666,5.000445562392034,-0.0,0.2789243459701538,-1.5320170561419886,-0.0,-0.022406142204999924,0.15944655239582062,0.0,-0.008978404104709625,0.9517192840576172,0.0,-0.02594940923154354
231.0,253.0,0.1585,0.3176,9.3709,-0.0284,0.0231,-0.102,-1.9817735157408656,0.0,3.785712242126465,-1.5657817125320435,-0.0,2.0344061851501465,5.000441479473867,-0.0,0.28500494360923767,-1.5320046583758753,-0.0,-0.010921793058514595,0.1593383252620697,0.0,-0.002350569935515523,0.9517152905464172,0.0,0.012996348552405834
231.0,253.0,0.1585,0.3176,9.3709,-0.0284,0.0231,-0.102,-1.9818140468993128,0.0,3.751929759979248,-1.5657899379730225,-0.0,2.0209269523620605,5.000445562392034,-0.0,0.2693852484226227,-1.5319846312152308,-0.0,-0.011156253516674042,0.1593787968158722,0.0,0.007204718422144651,0.9517427682876587,0.0,0.015199732035398483
231.0,253.0,0.1585,0.3176,9.3709,-0.0284,0.0231,-0.102,-1.9817053280272425,0.0,3.7930068969726562,-1.5658056735992432,-0.0,2.013448476791382,5.000465619355001,-0.0,0.2825451195240021,-1.532065216694967,-0.0,-0.021953396499156952,0.1594189554452896,0.0,-0.007664687931537628,0.951735258102417,0.0,-0.017408594489097595
231.0,253.0,0.1585,0.3176,9.3709,-0.0284,0.0231,-0.102,-1.9818140468993128,0.0,3.751397132873535,-1.565821647644043,-0.0,2.046555995941162,5.000449645310201,-0.0,0.28915733098983765,-1.5319965521441858,-0.0,-0.016601838171482086,0.15939894318580627,0.0,0.00042293535079807043,0.9517590999603271,0.0,-0.017220694571733475
231.0,253.0,0.1585,0.3176,9.3709,-0.0284,0.0231,-0.102,-1.9817410908141078,0.0,3.7654337882995605,-1.5657539367675781,-0.0,1.9956852197647095,5.000425177603521,-0.0,0.27871716022491455,-1.5320213476764124,-0.0,-0.013336243107914925,0.15939481556415558,0.0,0.003913714550435543,0.9516829252243042,0.0,-0.007197437807917595
231.0,253.0,0.1585,0.3176,9.3709,-0.0284,0.0231,-0.102,-1.981764932672018,0.0,3.7508041858673096,-1.5657694339752197,-0.0,2.0323374271392822,5.00044150927619,-0.0,0.28497692942619324,-1.5320408979998987,-0.0,-0.006634616293013096,0.15938252210617065,0.0,0.0013317698612809181,0.9517032504081726,0.0,-0.01170426793396473
231.0,253.0,0.1585,0.3176,9.3709,-0.0284,0.0231,-0.102,-1.9817697010436,0.0,3.7886476516723633,-1.565801978111267,-0.0,2.0234169960021973,5.000445562392034,-0.0,0.27764391899108887,-1.5319808165179651,-0.0,-0.020937394350767136,0.15939852595329285,0.0,-0.0020019286312162876,0.9517672657966614,0.0,-0.040131036192178726
234.0,245.0,0.1119,0.3159,9.481,-0.0362,0.0232,-0.1206,-1.9817573032774867,0.0,3.700059175491333,-1.5658379793167114,-0.0,2.085829734802246,5.0004615662391565,-0.0,0.2731565535068512,-1.5319765249835413,-0.0,-0.020413367077708244,0.15937840938568115,0.0,-0.004502578638494015,0.951735258102417,0.0,0.015590952709317207
234.0,245.0,0.1119,0.3159,9.481,-0.0362,0.0232,-0.1206,-1.9817453823485316,0.0,3.740011215209961,-1.5658220052719116,-0.0,2.012714147567749,5.000477570086279,-0.0,0.2749335467815399,-1.532025162373678,-0.0,-0.009589482098817825,0.1594507098197937,0.0,-0.001415743725374341,0.9517754316329956,0.0,-0.04966234788298607
234.0,245.0,0.1119,0.3159,9.481,-0.0362,0.0232,-0.1206,-1.9817449055113734,0.0,3.774106025695801,-1.5657529830932617,-0.0,2.002995729446411,5.000481653004446,-0.0,0.2844277024269104,-1.5320165793048304,-0.0,-0.025857962667942047,0.15941907465457916,0.0,-0.002562364563345909,0.9517152905464172,0.0,0.03150582313537598
234.0,245.0,0.1119,0.3159,9.481,-0.0362,0.0232,-0.1206,-1.9817530117430628,0.0,3.73901104927063,-1.5657539367675781,-0.0,1.9916880130767822,5.000409173756399,-0.0,0.27858078479766846,-1.532008473073141,-0.0,-0.014172585681080818,0.15938661992549896,0.0,-0.005292213521897793,0.951735258102417,0.0,0.03431927040219307
234.0,245.0,0.1119,0.3159,9.481,-0.0362,0.0232,-0.1206,-1.9817530117430628,0.0,3.724332332611084,-1.5658260583877563,-0.0,2.0158510208129883,5.000425565033712,-0.0,0.2841687500476837,-1.532036606465475,-0.0,-0.0098192123696208,0.15932640433311462,0.0,0.004609141033142805,0.951711118221283,0.0,-0.019910024479031563
234.0,245.0,0.1119,0.3159,9.481,-0.0362,0.0232,-0.1206,-1.9817453823485316,0.0,3.7480993270874023,-1.5657694339752197,-0.0,2.0182902812957764,5.000425177603521,-0.0,0.27077430486679077,-1.5319846312152308,-0.0,-0.011028707027435303,0.15937063097953796,0.0,0.002687996719032526,0.9516992568969727,0.0,-0.00992543250322342
234.0,245.0,0.1119,0.3159,9.481,-0.0362,0.0232,-0.1206,-1.9817530117430628,0.0,3.726492404937744,-1.5657858848571777,-0.0,2.076496124267578,5.000481653004446,-0.0,0.26728516817092896,-1.532036606465475,-0.0,-0.00322261406108737,0.15939071774482727,0.0,-0.015001255087554455,0.9517192840576172,0.0,0.007050498854368925
234.0,245.0,0.1119,0.3159,9.481,-0.0362,0.0232,-0.1206,-1.9817897282042445,0.0,3.7176196575164795,-1.5658220052719116,-0.0,2.0173444747924805,5.000485735922613,-0.0,0.27958062291145325,-1.5320046583758753,-0.0,-0.007436553947627544,0.1593703329563141,0.0,0.006616716738790274,0.9517270922660828,0.0,0.032282449305057526
234.0,245.0,0.1119,0.3159,9.481,-0.0362,0.0232,-0.1206,-1.9817773304381312,0.0,3.7649879455566406,-1.5657817125320435,-0.0,2.000950336456299,5.000429260521688,-0.0,0.27944445610046387,-1.5319846312152308,-0.0,-0.024686282500624657,0.15942710638046265,0.0,-0.003110873978585005,0.9517114162445068,0.0,0.016038959845900536
234.0,245.0,0.1119,0.3159,9.481,-0.0362,0.0232,-0.1206,-1.9817329845824183,0.0,3.7523951530456543,-1.5657776594161987,-0.0,2.0511374473571777,5.000497954874792,-0.0,0.27586424350738525,-1.5319564978228968,-0.0,-0.016323741525411606,0.15941071510314941,0.0,-0.012197377160191536,0.9517434239387512,0.0,0.026146583259105682
234.0,245.0,0.1119,0.3159,9.481,-0.0362,0.0232,-0.1206,-1.9817410908141078,0.0,3.7491297721862793,-1.5658339262008667,-0.0,2.0132155418395996,5.000445562392034,-0.0,0.2750770151615143,-1.5320170561419886,-0.0,-0.012257271446287632,0.15938255190849304,0.0,-0.0044670552015304565,0.9516991972923279,0.0,0.0342162624001503
234.0,245.0,0.1119,0.3159,9.481,-0.0362,0.0232,-0.1206,-1.9817692242064417,0.0,3.764741897583008,-1.5657694339752197,-0.0,2.0754952430725098,5.000457453518667,-0.0,0.28580978512763977,-1.5320003668414515,-0.0,-0.017851289361715317,0.15938295423984528,0.0,0.005954104475677013,0.951735258102417,0.0,-0.026119288057088852
234.0,245.0,0.1119,0.3159,9.481,-0.0362,0.0232,-0.1206,-1.9817530117430628,0.0,3.775331974029541,-1.5657978057861328,-0.0,2.000643491744995,5.000457453518667,-0.0,0.2763369083404541,-1.5319846312152308,-0.0,-0.0053484393283724785,0.15937063097953796,0.0,-0.007618302013725042,0.9517713189125061,0.0,0.031011227518320084
231.0,248.0,0.1083,0.3248,9.4582,-0.0338,0.0246,-0.1156,-1.9817773304381312,0.0,3.8012003898620605,-1.565817952156067,-0.0,2.050482749938965,5.000413256674566,-0.0,0.27452999353408813,-1.5320213476764124,-0.0,-0.017091995105147362,0.15934237837791443,0.0,0.002247207798063755,0.9517509341239929,0.0,-0.003125309944152832
231.0,248.0,0.1083,0.3248,9.4582,-0.0338,0.0246,-0.1156,-1.9817453823485316,0.0,3.7729134559631348,-1.5657817125320435,-0.0,2.0185937881469727,5.000461536436834,-0.0,0.266495943069458,-1.5319727102862757,-0.0,-0.020459333434700966,0.15940670669078827,0.0,0.005466931499540806,0.951735258102417,0.0,-0.038697995245456696
231.0,248.0,0.1083,0.3248,9.4582,-0.0338,0.0246,-0.1156,-1.9817410908141078,0.0,3.7178897857666016,-1.565773606300354,-0.0,2.0252251625061035,5.000509875803747,-0.0,0.28282687067985535,-1.5320003668414515,-0.0,-0.018709108233451843,0.15942713618278503,0.0,0.005971619859337807,0.9517393708229065,0.0,0.0016553755849599838
231.0,248.0,0.1083,0.3248,9.4582,-0.0338,0.0246,-0.1156,-1.9817573032774867,0.0,3.79360294342041,-1.5657978057861328,-0.0,1.9918564558029175,5.000457483320989,-0.0,0.27096161246299744,-1.5319684187518519,-0.0,-0.01762053743004799,0.1593424379825592,0.0,0.0003359396941959858,0.9517549872398376,0.0,0.003909577149897814
231.0,248.0,0.1083,0.3248,9.4582,-0.0338,0.0246,-0.1156,-1.9817573032774867,0.0,3.7510318756103516,-1.5657776594161987,-0.0,2.0214905738830566,5.000429260521688,-0.0,0.2880171537399292,-1.5319765249835413,-0.0,-0.01840091682970524,0.15936657786369324,0.0,-0.00883733481168747,0.9517632722854614,0.0,0.014204921200871468
231.0,248.0,0.1083,0.3248,9.4582,-0.0338,0.0246,-0.1156,-1.9817692242064417,0.0,3.7526912689208984,-1.5657899379730225,-0.0,2.010436534881592,5.0004615662391565,-0.0,0.2774514853954315,-1.5320170561419886,-0.0,-0.009536923840641975,0.15940262377262115,0.0,-0.006219722330570221,0.9517549872398376,0.0,-0.012193470261991024
231.0,248.0,0.1083,0.3248,9.4582,-0.0338,0.0246,-0.1156,-1.9817615948119105,0.0,3.73220157623291,-1.565809726715088,-0.0,2.052030563354492,5.000441568880834,-0.0,0.28071773052215576,-1.5320003668414515,-0.0,-0.008482801727950573,0.15936656296253204,0.0,0.001917244284413755,0.951735258102417,0.0,-0.03945760801434517
231.0,248.0,0.1083,0.3248,9.4582,-0.0338,0.0246,-0.1156,-1.9817530117430628,0.0,3.728180408477783,-1.5657978057861328,-0.0,2.0462002754211426,5.000449645310201,-0.0,0.2691332697868347,-1.5319846312152308,-0.0,-0.02593272179365158,0.15936656296253204,0.0,0.006021353416144848,0.9517192244529724,0.0,0.011342059820890427
231.0,248.0,0.1083,0.3248,9.4582,-0.0338,0.0246,-0.1156,-1.9817291698851527,0.0,3.751617908477783,-1.5657734870910645,-0.0,2.059542655944824,5.000473487168112,-0.0,0.2772163152694702,-1.532008473073141,-0.0,-0.005199642851948738,0.15938632190227509,0.0,-0.01032272633165121,0.9516992568969727,0.0,-0.010856198146939278
231.0,248.0,0.1083,0.3248,9.4582,-0.0338,0.0246,-0.1156,-1.9817372761168421,0.0,3.730433464050293,-1.565838098526001,-0.0,1.9747014045715332,5.000457483320989,-0.0,0.28012967109680176,-1.5320046583758753,-0.0,-0.01750732958316803,0.15939858555793762,0.0,-0.0014826080296188593,0.9517428278923035,0.0,0.01630529947578907
231.0,248.0,0.1083,0.3248,9.4582,-0.0338,0.0246,-0.1156,-1.9817530117430628,0.0,3.791311740875244,-1.565817952156067,-0.0,2.050990343093872,5.000437485962667,-0.0,0.28402867913246155,-1.5319765249835413,-0.0,-0.007679265923798084,0.15943126380443573,0.0,-0.0032832452561706305,0.9517393112182617,0.0,0.005260865204036236
231.0,248.0,0.1083,0.3248,9.4582,-0.0338,0.0246,-0.1156,-1.9817697010436,0.0,3.779250144958496,-1.5657896995544434,-0.0,2.0303711891174316,5.000417339592733,-0.0,0.284660667181015,-1.5320046583758753,-0.0,-0.011922210454940796,0.15944278240203857,0.0,-0.007374787703156471,0.951735258102417,0.0,-0.03029538318514824
231.0,248.0,0.1083,0.3248,9.4582,-0.0338,0.0246,-0.1156,-1.9817573032774867,0.0,3.73372745513916,-1.5657694339752197,-0.0,2.0500752925872803,5.0004374263580225,-0.0,0.2684757113456726,-1.5320170561419886,-0.0,-0.014068089425563812,0.15935836732387543,0.0,0.0013772872043773532,0.9517590999603271,0.0,0.015032130293548107
231.0,248.0,0.1083,0.3248,9.4582,-0.0338,0.0246,-0.1156,-1.9817897282042445,0.0,3.7679848670959473,-1.5658379793167114,-0.0,2.0482990741729736,5.000437485962667,-0.0,0.2821619510650635,-1.5320089499102991,-0.0,-0.016189225018024445,0.1593787968158722,0.0,-0.007363801822066307,0.9517509341239929,0.0,-0.005679730325937271
232.0,246.0,0.0311,0.3021,9.6012,-0.0412,0.0339,-0.1264,-1.981837888757223,0.0,3.766784429550171,-1.5657978057861328,-0.0,2.057445526123047,5.000437485962667,-0.0,0.28173261880874634,-1.531992260609762,-0.0,-0.015031276270747185,0.15939439833164215,0.0,-0.007410801015794277,0.9517633318901062,0.0,0.0122096948325634
232.0,246.0,0.0311,0.3021,9.6012,-0.0412,0.0339,-0.1264,-1.981725355187887,0.0,3.7556872367858887,-1.5657899379730225,-0.0,2.039119005203247,5.000453400402822,-0.0,0.2776181101799011,-1.5320046583758753,-0.0,-0.007035264745354652,0.15940259397029877,0.0,-0.0043741436675190926,0.9517434239387512,0.0,-0.02200109325349331
232.0,246.0,0.0311,0.3021,9.6012,-0.0412,0.0339,-0.1264,-1.9817053280272425,0.0,3.7279305458068848,-1.5658260583877563,-0.0,2.0072526931762695,5.0004374263580225,-0.0,0.2871691882610321,-1.532013241444723,-0.0,-0.018807176500558853,0.15937471389770508,0.0,0.004198773298412561,0.9517152905464172,0.0,0.005685906857252121
232.0,246.0,0.0311,0.3021,9.6012,-0.0412,0.0339,-0.1264,-1.9817453823485316,0.0,3.749725341796875,-1.5657539367675781,-0.0,2.04498291015625,5.0004615662391565,-0.0,0.2786514461040497,-1.5319646040545862,-0.0,-0.015290926210582256,0.15941494703292847,0.0,0.0032730065286159515,0.9516910314559937,0.0,0.004563221707940102
232.0,246.0,0.0311,0.3021,9.6012,-0.0412,0.0339,-0.1264,-1.9817692242064417,0.0,3.7558693885803223,-1.5657612085342407,-0.0,2.0119705200195312,5.000453817635336,-0.0,0.27996838092803955,-1.5320170561419886,-0.0,-0.02425401657819748,0.15937063097953796,0.0,0.013905338943004608,0.951731264591217,0.0,-0.0729168951511383
232.0,246.0,0.0311,0.3021,9.6012,-0.0412,0.0339,-0.1264,-1.9817697010436,0.0,3.721785068511963,-1.5657250881195068,-0.0,2.0277254581451416,5.000417339592733,-0.0,0.2881365418434143,-1.532008473073141,-0.0,-0.012262115254998207,0.15939855575561523,0.0,-0.00432329997420311,0.9517509341239929,0.0,-0.006720580160617828
232.0,246.0,0.0311,0.3021,9.6012,-0.0412,0.0339,-0.1264,-1.9817573032774867,0.0,3.746837615966797,-1.5658100843429565,-0.0,1.9966670274734497,5.000465649157324,-0.0,0.26543545722961426,-1.5319684187518519,-0.0,-0.020653435960412025,0.15940676629543304,0.0,-0.008295446634292603,0.9517516493797302,0.0,0.02616855688393116
232.0,246.0,0.0311,0.3021,9.6012,-0.0412,0.0339,-0.1264,-1.9817773304381312,0.0,3.7708497047424316,-1.5657734870910645,-0.0,2.047365665435791,5.000453400402822,-0.0,0.2842888832092285,-1.532032314931051,-0.0,-0.009935901500284672,0.1594790369272232,0.0,0.0004238567780703306,0.9517434239387512,0.0,-0.01198304072022438
232.0,246.0,0.0311,0.3021,9.6012,-0.0412,0.0339,-0.1264,-1.9817210636534632,0.0,3.7760329246520996,-1.565830111503601,-0.0,2.0438756942749023,5.000421035080709,-0.0,0.2775239944458008,-1.5320003668414515,-0.0,-0.014856941998004913,0.1594066619873047,0.0,0.006994863040745258,0.9517632722854614,0.0,-0.035354845225811005
232.0,246.0,0.0311,0.3021,9.6012,-0.0412,0.0339,-0.1264,-1.9818016491331996,0.0,3.745250940322876,-1.565801978111267,-0.0,2.049548387527466,5.000449645310201,-0.0,0.2804325222969055,-1.5320046583758753,-0.0,-0.02897188812494278,0.15938255190849304,0.0,-0.008731421083211899,0.951735258102417,0.0,0.013674933463335037
232.0,246.0,0.0311,0.3021,9.6012,-0.0412,0.0339,-0.1264,-1.9817410908141078,0.0,3.7997989654541016,-1.5657817125320435,-0.0,1.981382966041565,5.000445562392034,-0.0,0.28088462352752686,-1.5320213476764124,-0.0,-0.012240322306752205,0.1593947857618332,0.0,-0.0009367314632982016,0.951731264591217,0.0,0.001300886506214738
232.0,246.0,0.0311,0.3021,9.6012,-0.0412,0.0339,-0.1264,-1.9817329845824183,0.0,3.7734932899475098,-1.5657694339752197,-0.0,2.0548465251922607,5.000441479473867,-0.0,0.28607654571533203,-1.5320170561419886,-0.0,-0.031053442507982254,0.15935057401657104,0.0,-0.009825805202126503,0.9517233371734619,0.0,-0.007788965478539467
232.0,246.0,0.0311,0.3021,9.6012,-0.0412,0.0339,-0.1264,-1.9817615948119105,0.0,3.723350763320923,-1.565817952156067,-0.0,2.0306665897369385,5.000421482115545,-0.0,0.28458717465400696,-1.5320046583758753,-0.0,-0.015567921102046967,0.15935464203357697,0.0,-0.00240154261700809,0.9517152905464172,0.0,0.0034722015261650085
232.0,246.0,0.0311,0.3021,9.6012,-0.0412,0.0339,-0.1264,-1.9817210636534632,0.0,3.722853183746338,-1.5658339262008667,-0.0,2.0507612228393555,5.000453817635336,-0.0,0.27959316968917847,-1.5320294539081019,-0.0,-0.012363076210021973,0.15937839448451996,0.0,-0.008701912127435207,0.951735258102417,0.0,-0.017525626346468925
233.0,247.0,0.1292,0.3194,9.3428,-0.0397,0.0295,-0.1147,-1.9818016491331996,0.0,3.7650299072265625,-1.5658220052719116,-0.0,1.9898866415023804,5.0004935441310785,-0.0,0.28705716133117676,-1.5319846312152308,-0.0,-0.013762302696704865,0.15942302346229553,0.0,-0.0014467539731413126,0.9517509341239929,0.0,-0.011840328574180603
233.0,247.0,0.1292,0.3194,9.3428,-0.0397,0.0295,-0.1147,-1.981725355187887,0.0,3.792768955230713,-1.5657415390014648,-0.0,2.023047685623169,5.000481653004446,-0.0,0.2720608115196228,-1.5320408979998987,-0.0,-0.01273038424551487,0.15941071510314941,0.0,0.0025570280849933624,0.9517032504081726,0.0,-0.03714241832494736
233.0,247.0,0.1292,0.3194,9.3428,-0.0397,0.0295,-0.1147,-1.98179354290151,0.0,3.7550318241119385,-1.5657539367675781,-0.0,2.0219154357910156,5.000449645310201,-0.0,0.2781170606613159,-1.5320490042315882,-0.0,-0.023254558444023132,0.15940263867378235,0.0,0.012366721406579018,0.9517032504081726,0.0,0.05173046886920929
233.0,247.0,0.1292,0.3194,9.3428,-0.0397,0.0295,-0.1147,-1.9817859135069789,0.0,3.757689952850342,-1.565801978111267,-0.0,2.012526035308838,5.000473487168112,-0.0,0.27526453137397766,-1.5320003668414515,-0.0,-0.019599761813879013,0.15939855575561523,0.0,-0.01582079939544201,0.9517033100128174,0.0,0.011035993695259094
233.0,247.0,0.1292,0.3194,9.3428,-0.0397,0.0295,-0.1147,-1.9817615948119105,0.0,3.779788017272949,-1.5657817125320435,-0.0,2.0477499961853027,5.0004374263580225,-0.0,0.2773572504520416,-1.53196889558901,-0.0,-0.019842257723212242,0.15935464203357697,0.0,-0.016497859731316566,0.9517433643341064,0.0,-0.01354281697422266
233.0,247.0,0.1292,0.3194,9.3428,-0.0397,0.0295,-0.1147,-1.9817530117430628,0.0,3.77748703956604,-1.5657539367675781,-0.0,2.0111522674560547,5.000465649157324,-0.0,0.27652937173843384,-1.5320213476764124,-0.0,-0.014233272522687912,0.15937440097332,0.0,-0.0018916651606559753,0.9517233371734619,0.0,-0.03284822776913643
233.0,247.0,0.1292,0.3194,9.3428,-0.0397,0.0295,-0.1147,-1.9817491970457972,0.0,3.734326124191284,-1.5657817125320435,-0.0,2.032397508621216,5.000449645310201,-0.0,0.2761751413345337,-1.5320170561419886,-0.0,-0.01976751908659935,0.1593947857618332,0.0,-0.0019001452019438148,0.9517192840576172,0.0,-0.026927007362246513
233.0,247.0,0.1292,0.3194,9.3428,-0.0397,0.0295,-0.1147,-1.9817453823485316,0.0,3.7509236335754395,-1.5658060312271118,-0.0,2.0029945373535156,5.000449645310201,-0.0,0.27376091480255127,-1.5319965521441858,-0.0,-0.01678040251135826,0.15935055911540985,0.0,-0.007480421103537083,0.9517549872398376,0.0,-0.03568355739116669
233.0,247.0,0.1292,0.3194,9.3428,-0.0397,0.0295,-0.1147,-1.9817940197386683,0.0,3.7629475593566895,-1.565809726715088,-0.0,2.0685923099517822,5.000421094685354,-0.0,0.2738698720932007,-1.5319846312152308,-0.0,-0.008693712763488293,0.15940670669078827,0.0,-0.013532320037484169,0.9517114758491516,0.0,-0.0072610219940543175
233.0,247.0,0.1292,0.3194,9.3428,-0.0397,0.0295,-0.1147,-1.9817697010436,0.0,3.7715606689453125,-1.5658060312271118,-0.0,2.0000321865081787,5.0004697916801355,-0.0,0.28675949573516846,-1.532013241444723,-0.0,-0.020039670169353485,0.15943463146686554,0.0,0.003918196074664593,0.9517073631286621,0.0,-0.03456909954547882
233.0,247.0,0.1292,0.3194,9.3428,-0.0397,0.0295,-0.1147,-1.981797834435934,0.0,3.785024642944336,-1.5657817125320435,-0.0,2.0551130771636963,5.000417339592733,-0.0,0.28287383913993835,-1.53204852739443,-0.0,-0.021448027342557907,0.15939070284366608,0.0,0.014239874668419361,0.951735258102417,0.0,-0.00029666326008737087
233.0,247.0,0.1292,0.3194,9.3428,-0.0397,0.0295,-0.1147,-1.9817940197386683,0.0,3.7338075637817383,-1.5657694339752197,-0.0,2.0222272872924805,5.000465649157324,-0.0,0.2753509283065796,-1.5320208708392542,-0.0,-0.01158158015459776,0.1594190001487732,0.0,-0.004958660341799259,0.9517632126808167,0.0,-0.06577509641647339
233.0,247.0,0.1292,0.3194,9.3428,-0.0397,0.0295,-0.1147,-1.9817773304381312,0.0,3.7759623527526855,-1.5658539533615112,-0.0,2.0238118171691895,5.000465649157324,-0.0,0.2880462110042572,-1.532013241444723,-0.0,-0.01931394264101982,0.15934234857559204,0.0,-0.0068023717030882835,0.951746940612793,0.0,0.012144038453698158
233.0,247.0,0.1292,0.3194,9.3428,-0.0397,0.0295,-0.1147,-1.9817697010436,0.0,3.758756160736084,-1.5658220052719116,-0.0,2.012993812561035,5.000473874598303,-0.0,0.2830445170402527,-1.5319965521441858,-0.0,-0.02109469100832939,0.15936243534088135,0.0,-0.008902207016944885,0.9517632722854614,0.0,0.024191539734601974
240.0,262.0,0.1669,0.32,9.2997,-0.036,0.0287,-0.1136,-1.981781621972555,0.0,3.798137664794922,-1.565817952156067,-0.0,2.037013053894043,5.000421482115545,-0.0,0.2782134413719177,-1.5319965521441858,-0.0,-0.02279409021139145,0.15939436852931976,0.0,0.005339013412594795,0.9517590999603271,0.0,0.0558379590511322
240.0,262.0,0.1669,0.32,9.2997,-0.036,0.0287,-0.1136,-1.9817692242064417,0.0,3.7775769233703613,-1.5657858848571777,-0.0,2.049041271209717,5.000473874598303,-0.0,0.28145042061805725,-1.532036606465475,-0.0,-0.023518025875091553,0.15939854085445404,0.0,-0.00399982463568449,0.9517509341239929,0.0,-0.024038122966885567
240.0,262.0,0.1669,0.32,9.2997,-0.036,0.0287,-0.1136,-1.9817372761168421,0.0,3.768899440765381,-1.565809726715088,-0.0,2.0307278633117676,5.000445562392034,-0.0,0.2751096487045288,-1.532008473073141,-0.0,-0.014116895385086536,0.15936279296875,0.0,0.004389842040836811,0.951731264591217,0.0,-0.0017785081872716546
240.0,262.0,0.1669,0.32,9.2997,-0.036,0.0287,-0.1136,-1.9817491970457972,0.0,3.778402328491211,-1.5657734870910645,-0.0,2.0049285888671875,5.0004694042499445,-0.0,0.2901154160499573,-1.5320008436786097,-0.0,-0.01819809526205063,0.15935459733009338,0.0,0.0009230202995240688,0.9517590403556824,0.0,-0.033892713487148285
240.0,262.0,0.1669,0.32,9.2997,-0.036,0.0287,-0.1136,-1.9817410908141078,0.0,3.740089178085327,-1.5657694339752197,-0.0,2.0059378147125244,5.000457483320989,-0.0,0.2796267867088318,-1.5320003668414515,-0.0,-0.0057129571214318275,0.15939073264598846,0.0,0.005590028129518032,0.9517475962638855,0.0,-0.028274856507778168
240.0,262.0,0.1669,0.32,9.2997,-0.036,0.0287,-0.1136,-1.9817329845824183,0.0,3.765516757965088,-1.565793752670288,-0.0,2.0651915073394775,5.0004697916801355,-0.0,0.27423936128616333,-1.5320490042315882,-0.0,-0.009079951792955399,0.15938256680965424,0.0,0.0024669368285685778,0.9516991972923279,0.0,-0.012845088727772236
240.0,262.0,0.1669,0.32,9.2997,-0.036,0.0287,-0.1136,-1.9817248783507289,0.0,3.7676024436950684,-1.5657694339752197,-0.0,2.0042049884796143,5.000433313637533,-0.0,0.26307475566864014,-1.5319889227496546,-0.0,-0.021987684071063995,0.15939071774482727,0.0,-0.018626458942890167,0.951735258102417,0.0,-0.06389997154474258
240.0,262.0,0.1669,0.32,9.2997,-0.036,0.0287,-0.1136,-1.981809755364889,0.0,3.7676403522491455,-1.5657011270523071,-0.0,2.0622494220733643,5.0004615662391565,-0.0,0.276366651058197,-1.5319765249835413,-0.0,-0.012019080109894276,0.159418985247612,0.0,0.0017096493393182755,0.9517475962638855,0.0,0.01634519174695015
240.0,262.0,0.1669,0.32,9.2997,-0.036,0.0287,-0.1136,-1.9817286930479945,0.0,3.7140960693359375,-1.5658541917800903,-0.0,2.058870792388916,5.000522184162893,-0.0,0.2703970670700073,-1.532025162373678,-0.0,-0.021137036383152008,0.1594107747077942,0.0,-0.007289966568350792,0.9517393112182617,0.0,0.036458760499954224
240.0,262.0,0.1669,0.32,9.2997,-0.036,0.0287,-0.1136,-1.9817453823485316,0.0,3.7590389251708984,-1.5657776594161987,-0.0,2.06571626663208,5.000473874598303,-0.0,0.27975496649742126,-1.5320213476764124,-0.0,-0.012170571833848953,0.15943463146686554,0.0,-0.00433320039883256,0.9516910314559937,0.0,0.0024692565202713013
240.0,262.0,0.1669,0.32,9.2997,-0.036,0.0287,-0.1136,-1.9817410908141078,0.0,3.7640933990478516,-1.565793752670288,-0.0,2.0590038299560547,5.0004697916801355,-0.0,0.29450830817222595,-1.5320208708392542,-0.0,-0.011660590767860413,0.15935461223125458,0.0,-0.00343857379630208,0.9517192244529724,0.0,0.009248463436961174
240.0,262.0,0.1669,0.32,9.2997,-0.036,0.0287,-0.1136,-1.9817410908141078,0.0,3.744180202484131,-1.5657978057861328,-0.0,2.029741048812866,5.000429260521688,-0.0,0.27178430557250977,-1.5319927374469202,-0.0,-0.01515372097492218,0.15941071510314941,0.0,-0.008642906323075294,0.9517475962638855,0.0,-0.020988520234823227
240.0,262.0,0.1669,0.32,9.2997,-0.036,0.0287,-0.1136,-1.9817172489561976,0.0,3.7321829795837402,-1.5657172203063965,-0.0,2.019552230834961,5.000453400402822,-0.0,0.288594126701355,-1.5319727102862757,-0.0,-0.005090201739221811,0.15938663482666016,0.0,-0.0011400396469980478,0.951783299446106,0.0,0.010716388002038002
229.0,243.0,0.0185,0.2967,9.5234,-0.0283,0.0264,-0.1116,-1.9817491970457972,0.0,3.7807834148406982,-1.5657978057861328,-0.0,2.02362322807312,5.000449645310201,-0.0,0.2859794795513153,-1.5319808165179651,-0.0,-0.011068901047110558,0.15932640433311462,0.0,-0.009316684678196907,0.9517393708229065,0.0,0.015187563374638557
229.0,243.0,0.0185,0.2967,9.5234,-0.0283,0.0264,-0.1116,-1.9817735157408656,0.0,3.672849416732788,-1.5657899379730225,-0.0,2.022843837738037,5.000449645310201,-0.0,0.27657073736190796,-1.5319889227496546,-0.0,-0.01604370027780533,0.15934643149375916,0.0,-0.0030408441089093685,0.9517393112182617,0.0,0.015789933502674103
229.0,243.0,0.0185,0.2967,9.5234,-0.0283,0.0264,-0.1116,-1.981781621972555,0.0,3.739316940307617,-1.565821647644043,-0.0,2.034745216369629,5.000441568880834,-0.0,0.2769099473953247,-1.5320046583758753,-0.0,-0.024376288056373596,0.15941496193408966,0.0,-0.00235695019364357,0.951735258102417,0.0,-1.878337934613228e-05
229.0,243.0,0.0185,0.2967,9.5234,-0.0283,0.0264,-0.1116,-1.9817410908141078,0.0,3.7902278900146484,-1.5658339262008667,-0.0,2.035893440246582,5.000425177603521,-0.0,0.27534258365631104,-1.5319927374469202,-0.0,-0.013395663350820541,0.15935055911540985,0.0,-0.003314401488751173,0.9517549872398376,0.0,0.005668012425303459
229.0,243.0,0.0185,0.2967,9.5234,-0.0283,0.0264,-0.1116,-1.9817291698851527,0.0,3.7530131340026855,-1.5658137798309326,-0.0,2.0513343811035156,5.000513958721914,-0.0,0.2789197564125061,-1.5320127646075647,-0.0,-0.008610200136899948,0.15941070020198822,0.0,0.01053600199520588,0.9517832398414612,0.0,-0.0013826633803546429
229.0,243.0,0.0185,0.2967,9.5234,-0.0283,0.0264,-0.1116,-1.981781621972555,0.0,3.7210710048675537,-1.5657694339752197,-0.0,2.0653200149536133,5.0004615662391565,-0.0,0.28593456745147705,-1.532025162373678,-0.0,-0.01590421050786972,0.15940263867378235,0.0,-0.007802101317793131,0.951735258102417,0.0,0.04471723735332489
229.0,243.0,0.0185,0.2967,9.5234,-0.0283,0.0264,-0.1116,-1.981764932672018,0.0,3.766930103302002,-1.5658141374588013,-0.0,2.029418468475342,5.000441479473867,-0.0,0.2791147232055664,-1.5320046583758753,-0.0,-0.01998332142829895,0.15937471389770508,0.0,0.004018506966531277,0.9516749978065491,0.0,0.018052639439702034
229.0,243.0,0.0185,0.2967,9.5234,-0.0283,0.0264,-0.1116,-1.981781621972555,0.0,3.776097297668457,-1.5657652616500854,-0.0,1.9806216955184937,5.000445562392034,-0.0,0.27783727645874023,-1.531997028981344,-0.0,-0.021263012662529945,0.15939855575561523,0.0,-0.010027811862528324,0.9517672657966614,0.0,-0.014608621597290039
229.0,243.0,0.0185,0.2967,9.5234,-0.0283,0.0264,-0.1116,-1.9817615948119105,0.0,3.7722082138061523,-1.565817952156067,-0.0,1.9880952835083008,5.000449645310201,-0.0,0.2678163945674896,-1.5320046583758753,-0.0,-0.00787360779941082,0.15943877398967743,0.0,0.0033379325177520514,0.951731264591217,0.0,0.025512631982564926
229.0,243.0,0.0185,0.2967,9.5234,-0.0283,0.0264,-0.1116,-1.9817859135069789,0.0,3.7372355461120605,-1.5658060312271118,-0.0,2.041104316711426,5.000413256674566,-0.0,0.27489715814590454,-1.5320046583758753,-0.0,-0.025024855509400368,0.15943869948387146,0.0,-0.0029966903384774923,0.9517832398414612,0.0,-0.014442989602684975
229.0,243.0,0.0185,0.2967,9.5234,-0.0283,0.0264,-0.1116,-1.9817453823485316,0.0,3.711728811264038,-1.5658339262008667,-0.0,2.077871084213257,5.000457483320989,-0.0,0.29301103949546814,-1.532008473073141,-0.0,-0.006302880123257637,0.15939854085445404,0.0,0.00010966556146740913,0.9516869783401489,0.0,0.054985761642456055
229.0,243.0,0.0185,0.2967,9.5234,-0.0283,0.0264,-0.1116,-1.9817692242064417,0.0,3.7526564598083496,-1.565773606300354,-0.0,2.017652988433838,5.000497627049246,-0.0,0.28484877943992615,-1.532025162373678,-0.0,-0.01401212066411972,0.15934230387210846,0.0,0.006354050245136023,0.951711118221283,0.0,0.007722058799117804
229.0,243.0,0.0185,0.2967,9.5234,-0.0283,0.0264,-0.1116,-1.9817735157408656,0.0,3.7893991470336914,-1.5658421516418457,-0.0,1.9952139854431152,5.0004615662391565,-0.0,0.2828439176082611,-1.5319727102862757,-0.0,-0.016636371612548828,0.1594230830669403,0.0,-0.006560124456882477,0.951735258102417,0.0,0.01982293650507927
229.0,243.0,0.0185,0.2967,9.5234,-0.0283,0.0264,-0.1116,-1.9817491970457972,0.0,3.772033214569092,-1.5657858848571777,-0.0,2.017315149307251,5.000445562392034,-0.0,0.2871156930923462,-1.532008473073141,-0.0,0.0010999389924108982,0.15939439833164215,0.0,0.004184314515441656,0.9517754316329956,0.0,-0.009026587009429932
230.0,245.0,0.0604,0.3206,9.5043,-0.0348,0.0287,-0.1142,-1.9817735157408656,0.0,3.7767410278320312,-1.5657817125320435,-0.0,2.0110299587249756,5.000465649157324,-0.0,0.2735312879085541,-1.5319927374469202,-0.0,-0.010335675440728664,0.15937471389770508,0.0,0.002258152235299349,0.9517509937286377,0.0,0.0186714306473732
230.0,245.0,0.0604,0.3206,9.5043,-0.0348,0.0287,-0.1142,-1.9817573032774867,0.0,3.7139759063720703,-1.565773606300354,-0.0,2.03875732421875,5.000429260521688,-0.0,0.2764100432395935,-1.5319965521441858,-0.0,-0.009065927937626839,0.1594148725271225,0.0,-0.004603480454534292,0.9517590999603271,0.0,-0.015989812090992928
230.0,245.0,0.0604,0.3206,9.5043,-0.0348,0.0287,-0.1142,-1.9817372761168421,0.0,3.746260404586792,-1.5657899379730225,-0.0,2.007115364074707,5.000413256674566,-0.0,0.2799724340438843,-1.5320289770709437,-0.0,-0.018282966688275337,0.15938664972782135,0.0,0.0050917938351631165,0.9517590999603271,0.0,0.03388286754488945
230.0,245.0,0.0604,0.3206,9.5043,-0.0348,0.0287,-0.1142,-1.9817697010436,0.0,3.72727632522583,-1.5657331943511963,-0.0,2.0259828567504883,5.0004615662391565,-0.0,0.2813432216644287,-1.5320571104632776,-0.0,-0.01841256022453308,0.15937471389770508,0.0,-0.007867302745580673,0.9517713189125061,0.0,-0.016829274594783783
230.0,245.0,0.0604,0.3206,9.5043,-0.0348,0.0287,-0.1142,-1.9817530117430628,0.0,3.764495372772217,-1.5657612085342407,-0.0,1.9786466360092163,5.000425177603521,-0.0,0.28077754378318787,-1.5319607893573206,-0.0,-0.014777308329939842,0.15937063097953796,0.0,0.002082899445667863,0.9516869187355042,0.0,-0.0018787859007716179
230.0,245.0,0.0604,0.3206,9.5043,-0.0348,0.0287,-0.1142,-1.9817897282042445,0.0,3.7930150032043457,-1.565757155418396,-0.0,2.0286848545074463,5.000465649157324,-0.0,0.28397566080093384,-1.532008473073141,-0.0,-0.015963610261678696,0.15931017696857452,0.0,-0.004240213893353939,0.9517672657966614,0.0,0.0031626613344997168
230.0,245.0,0.0604,0.3206,9.5043,-0.0348,0.0287,-0.1142,-1.981764932672018,0.0,3.720956325531006,-1.5657939910888672,-0.0,2.026667594909668,5.000449645310201,-0.0,0.28021299839019775,-1.532008473073141,-0.0,-0.010082663968205452,0.15939439833164215,0.0,0.0027913840021938086,0.951735258102417,0.0,-0.0002590920776128769
230.0,245.0,0.0604,0.3206,9.5043,-0.0348,0.0287,-0.1142,-1.981797834435934,0.0,3.7762250900268555,-1.5657652616500854,-0.0,2.079813241958618,5.000437485962667,-0.0,0.2797521948814392,-1.532025162373678,-0.0,-0.02639024704694748,0.15939070284366608,0.0,-0.0027363416738808155,0.951723039150238,0.0,0.011061901226639748
230.0,245.0,0.0604,0.3206,9.5043,-0.0348,0.0287,-0.1142,-1.9818016491331996,0.0,3.7725043296813965,-1.5657896995544434,-0.0,2.0426390171051025,5.000465649157324,-0.0,0.28225642442703247,-1.532008473073141,-0.0,-0.010310221463441849,0.15940670669078827,0.0,0.00497430469840765,0.9517233371734619,0.0,0.011794437654316425
230.0,245.0,0.0604,0.3206,9.5043,-0.0348,0.0287,-0.1142,-1.9817897282042445,0.0,3.73214054107666,-1.5658499002456665,-0.0,2.1025795936584473,5.000445562392034,-0.0,0.2750146687030792,-1.5320213476764124,-0.0,-0.011211908422410488,0.15941491723060608,0.0,-0.00040024309419095516,0.951731264591217,0.0,0.010244813747704029
230.0,245.0,0.0604,0.3206,9.5043,-0.0348,0.0287,-0.1142,-1.9817615948119105,0.0,3.7781453132629395,-1.5657978057861328,-0.0,2.0360829830169678,5.000465649157324,-0.0,0.27912554144859314,-1.5319927374469202,-0.0,-0.01889021508395672,0.15940263867378235,0.0,0.005879246164113283,0.9517032504081726,0.0,-0.013588286936283112
230.0,245.0,0.0604,0.3206,9.5043,-0.0348,0.0287,-0.1142,-1.9817410908141078,0.0,3.7764501571655273,-1.5657776594161987,-0.0,2.0598464012145996,5.000416952162542,-0.0,0.2732621133327484,-1.5320213476764124,-0.0,-0.018979735672473907,0.15936653316020966,0.0,-0.007048811763525009,0.9517468810081482,0.0,-0.029660701751708984
230.0,245.0,0.0604,0.3206,9.5043,-0.0348,0.0287,-0.1142,-1.9817410908141078,0.0,3.7187752723693848,-1.5658060312271118,-0.0,2.0442256927490234,5.000485795527258,-0.0,0.27880364656448364,-1.532008473073141,-0.0,-0.01979614980518818,0.15940675139427185,0.0,-0.007671441417187452,0.9517434239387512,0.0,0.006072765216231346
230.0,245.0,0.0604,0.3206,9.5043,-0.0348,0.0287,-0.1142,-1.9817773304381312,0.0,3.773637294769287,-1.565798044204712,-0.0,2.003405809402466,5.000417339592733,-0.0,0.2825374901294708,-1.5320213476764124,-0.0,-0.03207377344369888,0.1594230830669403,0.0,0.0021288429852575064,0.9517033100128174,0.0,0.012537219561636448
231.0,241.0,-0.0556,0.262,9.7675,-0.0272,0.0209,-0.115,-1.9817410908141078,0.0,3.740036725997925,-1.5657374858856201,-0.0,2.041998863220215,5.000497627049246,-0.0,0.27031755447387695,-1.532008473073141,-0.0,-0.01478130929172039,0.1594189554452896,0.0,-0.007000471465289593,0.9517192840576172,0.0,-0.015399038791656494
231.0,241.0,-0.0556,0.262,9.7675,-0.0272,0.0209,-0.115,-1.9817491970457972,0.0,3.7322309017181396,-1.5658137798309326,-0.0,2.0462560653686523,5.000393169909277,-0.0,0.26562368869781494,-1.531997028981344,-0.0,-0.022565942257642746,0.159358412027359,0.0,-0.015603763051331043,0.9517393708229065,0.0,0.022967131808400154
231.0,241.0,-0.0556,0.262,9.7675,-0.0272,0.0209,-0.115,-1.9817654095091761,0.0,3.75237774848938,-1.5657814741134644,-0.0,1.9975709915161133,5.000449645310201,-0.0,0.2757258415222168,-1.5320165793048304,-0.0,-0.008217645809054375,0.15937471389770508,0.0,0.00021606305381283164,0.951731264591217,0.0,-0.021865414455533028
231.0,241.0,-0.0556,0.262,9.7675,-0.0272,0.0209,-0.115,-1.9817453823485316,0.0,3.7877793312072754,-1.5657694339752197,-0.0,2.0306882858276367,5.0004615662391565,-0.0,0.28623658418655396,-1.5319927374469202,-0.0,-0.021588386967778206,0.15940263867378235,0.0,-0.003033443121239543,0.9517270922660828,0.0,0.03185044601559639
231.0,241.0,-0.0556,0.262,9.7675,-0.0272,0.0209,-0.115,-1.9817329845824183,0.0,3.765371561050415,-1.5658460855484009,-0.0,2.018205165863037,5.000437485962667,-0.0,0.2727985084056854,-1.532008473073141,-0.0,-0.018845029175281525,0.15935049951076508,0.0,0.007541630882769823,0.9517713189125061,0.0,0.016354817897081375
231.0,241.0,-0.0556,0.262,9.7675,-0.0272,0.0209,-0.115,-1.9817692242064417,0.0,3.756439685821533,-1.5658220052719116,-0.0,2.031630277633667,5.000485795527258,-0.0,0.2806413471698761,-1.5320208708392542,-0.0,-0.014934493228793144,0.15944239497184753,0.0,0.0014758841134607792,0.9517795443534851,0.0,-0.017480621114373207
231.0,241.0,-0.0556,0.262,9.7675,-0.0272,0.0209,-0.115,-1.9817334614195765,0.0,3.7688918113708496,-1.5657094717025757,-0.0,2.042477607727051,5.000485378294744,-0.0,0.28847622871398926,-1.5319965521441858,-0.0,-0.011012262664735317,0.1593787968158722,0.0,0.0034471931867301464,0.9517550468444824,0.0,0.018014313653111458
231.0,241.0,-0.0556,0.262,9.7675,-0.0272,0.0209,-0.115,-1.9817735157408656,0.0,3.7501471042633057,-1.5658539533615112,-0.0,2.0328657627105713,5.000465649157324,-0.0,0.2778041958808899,-1.5319727102862757,-0.0,-0.01803755760192871,0.15941499173641205,0.0,-0.0017969711916521192,0.9517434239387512,0.0,-0.02370123192667961
231.0,241.0,-0.0556,0.262,9.7675,-0.0272,0.0209,-0.115,-1.9817410908141078,0.0,3.7550692558288574,-1.5657457113265991,-0.0,2.0345194339752197,5.000433313637533,-0.0,0.27871325612068176,-1.5320528189288538,-0.0,-0.012891078367829323,0.15940669178962708,0.0,0.0020196745172142982,0.9517073631286621,0.0,-0.04524150863289833
231.0,241.0,-0.0556,0.262,9.7675,-0.0272,0.0209,-0.115,-1.9817940197386683,0.0,3.7692923545837402,-1.565801978111267,-0.0,2.0283925533294678,5.000445562392034,-0.0,0.28048771619796753,-1.5319889227496546,-0.0,-0.00037759216502308846,0.1593628227710724,0.0,-0.002037627622485161,0.9517032504081726,0.0,-0.03563632071018219
231.0,241.0,-0.0556,0.262,9.7675,-0.0272,0.0209,-0.115,-1.9817410908141078,0.0,3.7680163383483887,-1.5657652616500854,-0.0,2.0063772201538086,5.000453817635336,-0.0,0.2740393877029419,-1.5320170561419886,-0.0,-0.007933512330055237,0.15936279296875,0.0,-0.0031396348495036364,0.9517434239387512,0.0,0.02306978777050972
231.0,241.0,-0.0556,0.262,9.7675,-0.0272,0.0209,-0.115,-1.9817573032774867,0.0,3.7432775497436523,-1.565821647644043,-0.0,2.000002145767212,5.000445562392034,-0.0,0.28608930110931396,-1.5320213476764124,-0.0,-0.005635982844978571,0.15935465693473816,0.0,0.007089659105986357,0.951735258102417,0.0,-0.026230083778500557
231.0,241.0,-0.0556,0.262,9.7675,-0.0272,0.0209,-0.115,-1.9818059406676234,0.0,3.7131876945495605,-1.5658460855484009,-0.0,2.0042102336883545,5.0004697916801355,-0.0,0.27008843421936035,-1.532008473073141,-0.0,-0.017060665413737297,0.15940673649311066,0.0,-0.005560555495321751,0.9517152309417725,0.0,0.01581166498363018
233.0,243.0,0.0891,0.3045,9.4343,-0.0365,0.0223,-0.1179,-1.9817773304381312,0.0,3.772632122039795,-1.565790057182312,-0.0,2.038788318634033,5.000449645310201,-0.0,0.28453052043914795,-1.5319808165179651,-0.0,-0.018082212656736374,0.159418985247612,0.0,-0.002453354187309742,0.9517274498939514,0.0,-0.040925949811935425
233.0,243.0,0.0891,0.3045,9.4343,-0.0365,0.0223,-0.1179,-1.9817615948119105,0.0,3.738522529602051,-1.5657817125320435,-0.0,2.0157673358917236,5.000481653004446,-0.0,0.2797797918319702,-1.5320003668414515,-0.0,-0.02028750441968441,0.159362331032753,0.0,-0.005959067493677139,0.9517672657966614,0.0,-0.011792854405939579
233.0,243.0,0.0891,0.3045,9.4343,-0.0365,0.0223,-0.1179,-1.9817735157408656,0.0,3.746755599975586,-1.5657858848571777,-0.0,2.063199520111084,5.000441479473867,-0.0,0.27954110503196716,-1.5319846312152308,-0.0,-0.01050123292952776,0.15940266847610474,0.0,-0.005462524015456438,0.9517509937286377,0.0,0.027770670130848885
233.0,243.0,0.0891,0.3045,9.4343,-0.0365,0.0223,-0.1179,-1.9817491970457972,0.0,3.746544599533081,-1.5657694339752197,-0.0,2.054168939590454,5.000473487168112,-0.0,0.27952900528907776,-1.532025162373678,-0.0,0.004640393890440464,0.15941838920116425,0.0,-0.008769916370511055,0.9517672657966614,0.0,-0.004327862523496151
233.0,243.0,0.0891,0.3045,9.4343,-0.0365,0.0223,-0.1179,-1.981821676293844,0.0,3.723813533782959,-1.5658379793167114,-0.0,2.0165414810180664,5.000465649157324,-0.0,0.27885302901268005,-1.5320046583758753,-0.0,-0.010810171253979206,0.15942640602588654,0.0,-0.011393653228878975,0.9517475962638855,0.0,-0.002932389033958316
233.0,243.0,0.0891,0.3045,9.4343,-0.0365,0.0223,-0.1179,-1.981797834435934,0.0,3.699864149093628,-1.5658539533615112,-0.0,2.013504981994629,5.000449645310201,-0.0,0.28983959555625916,-1.5320008436786097,-0.0,-0.003953009843826294,0.15937063097953796,0.0,-0.0007846931111998856,0.9517393708229065,0.0,-0.005645185708999634
233.0,243.0,0.0891,0.3045,9.4343,-0.0365,0.0223,-0.1179,-1.9817530117430628,0.0,3.7352962493896484,-1.5657775402069092,-0.0,2.019765853881836,5.000445592194357,-0.0,0.28925853967666626,-1.5320046583758753,-0.0,-0.011165058240294456,0.15932999551296234,0.0,-0.005673468578606844,0.9517273902893066,0.0,-0.04033057764172554
233.0,243.0,0.0891,0.3045,9.4343,-0.0365,0.0223,-0.1179,-1.9817449055113734,0.0,3.766852855682373,-1.5657734870910645,-0.0,2.067028522491455,5.0004615662391565,-0.0,0.259316623210907,-1.5320289770709437,-0.0,-0.024087734520435333,0.15937063097953796,0.0,-0.003354255575686693,0.9517434239387512,0.0,-0.0087136784568429
233.0,243.0,0.0891,0.3045,9.4343,-0.0365,0.0223,-0.1179,-1.9817530117430628,0.0,3.7732322216033936,-1.5657734870910645,-0.0,2.0416691303253174,5.000477599888601,-0.0,0.2875020503997803,-1.5320208708392542,-0.0,-0.01019066758453846,0.1594190150499344,0.0,-0.0012055803090333939,0.9517114162445068,0.0,0.047082237899303436
233.0,243.0,0.0891,0.3045,9.4343,-0.0365,0.0223,-0.1179,-1.9817773304381312,0.0,3.7208669185638428,-1.5658379793167114,-0.0,2.0415563583374023,5.000453400402822,-0.0,0.2686562240123749,-1.5320289770709437,-0.0,-0.024492599070072174,0.15940670669078827,0.0,1.1696945875883102e-05,0.9517713189125061,0.0,0.022633612155914307
233.0,243.0,0.0891,0.3045,9.4343,-0.0365,0.0223,-0.1179,-1.9817735157408656,0.0,3.7256019115448,-1.5657294988632202,-0.0,2.0536744594573975,5.000449645310201,-0.0,0.26764267683029175,-1.5320647398578089,-0.0,-0.018820708617568016,0.15937471389770508,0.0,-0.010048622265458107,0.9517672657966614,0.0,-0.043429695069789886
233.0,243.0,0.0891,0.3045,9.4343,-0.0365,0.0223,-0.1179,-1.9817615948119105,0.0,3.725362777709961,-1.5657497644424438,-0.0,2.048074245452881,5.0004615662391565,-0.0,0.28447896242141724,-1.532013241444723,-0.0,-0.009774291887879372,0.15937472879886627,0.0,0.008908534422516823,0.9517192244529724,0.0,-0.01737249456346035
233.0,243.0,0.0891,0.3045,9.4343,-0.0365,0.0223,-0.1179,-1.9817615948119105,0.0,3.753162384033203,-1.5657857656478882,-0.0,2.0515642166137695,5.000413226872244,-0.0,0.2723384201526642,-1.5320208708392542,-0.0,-0.018850604072213173,0.15942704677581787,0.0,0.004115354269742966,0.9517434239387512,0.0,-0.01496169064193964
233.0,243.0,0.0891,0.3045,9.4343,-0.0365,0.0223,-0.1179,-1.9817615948119105,0.0,3.749063014984131,-1.5658339262008667,-0.0,2.043294906616211,5.000453817635336,-0.0,0.27205681800842285,-1.5320170561419886,-0.0,-0.004098714329302311,0.15937063097953796,0.0,-0.0044121574610471725,0.951711118221283,0.0,0.00923213642090559
226.0,255.0,0.0634,0.2847,9.4385,-0.042,0.0202,-0.1176,-1.9817692242064417,0.0,3.7213804721832275,-1.5657896995544434,-0.0,2.064056634902954,5.000425177603521,-0.0,0.27826786041259766,-1.5319927374469202,-0.0,-0.019874585792422295,0.15939483046531677,0.0,-0.003211282193660736,0.9517152309417725,0.0,0.01951252669095993
226.0,255.0,0.0634,0.2847,9.4385,-0.042,0.0202,-0.1176,-1.9817410908141078,0.0,3.7734596729278564,-1.5658257007598877,-0.0,2.013091802597046,5.000409114151754,-0.0,0.2837589383125305,-1.5320046583758753,-0.0,-0.005346461199223995,0.1593383103609085,0.0,-0.007076780311763287,0.951731264591217,0.0,-0.003623248776420951
226.0,255.0,0.0634,0.2847,9.4385,-0.042,0.0202,-0.1176,-1.9817410908141078,0.0,3.770209789276123,-1.565757155418396,-0.0,2.0390048027038574,5.000453817635336,-0.0,0.27130264043807983,-1.5320404211627405,-0.0,-0.012073462828993797,0.15935464203357697,0.0,0.009033264592289925,0.9517273902893066,0.0,-0.0019125137478113174
226.0,255.0,0.0634,0.2847,9.4385,-0.042,0.0202,-0.1176,-1.9817449055113734,0.0,3.7814464569091797,-1.5657734870910645,-0.0,2.0674242973327637,5.000433224230566,-0.0,0.285259872674942,-1.5319846312152308,-0.0,-0.014395447447896004,0.15936283767223358,0.0,0.002453547203913331,0.9517192840576172,0.0,-0.010415885597467422
226.0,255.0,0.0634,0.2847,9.4385,-0.042,0.0202,-0.1176,-1.9817859135069789,0.0,3.754157543182373,-1.5658260583877563,-0.0,2.0268218517303467,5.000481682806768,-0.0,0.2867121696472168,-1.5319927374469202,-0.0,-0.010716509073972702,0.15937064588069916,0.0,-0.008859981782734394,0.951746940612793,0.0,-0.015136383473873138
226.0,255.0,0.0634,0.2847,9.4385,-0.042,0.0202,-0.1176,-1.9817530117430628,0.0,3.733675956726074,-1.5657694339752197,-0.0,1.9701920747756958,5.000457483320989,-0.0,0.2733703553676605,-1.5319765249835413,-0.0,-0.01893768273293972,0.15943054854869843,0.0,0.005077357869595289,0.9517509341239929,0.0,0.01912553235888481
226.0,255.0,0.0634,0.2847,9.4385,-0.042,0.0202,-0.1176,-1.9817449055113734,0.0,3.788583755493164,-1.5657734870910645,-0.0,2.031252384185791,5.000477570086279,-0.0,0.2765864133834839,-1.5319927374469202,-0.0,-0.0063720643520355225,0.15942302346229553,0.0,0.009378131479024887,0.9517549872398376,0.0,-0.012413199990987778
226.0,255.0,0.0634,0.2847,9.4385,-0.042,0.0202,-0.1176,-1.9817940197386683,0.0,3.7521190643310547,-1.5657497644424438,-0.0,2.0398130416870117,5.000441449671545,-0.0,0.27556610107421875,-1.5320127646075647,-0.0,-0.02025577798485756,0.15937471389770508,0.0,0.0018970516975969076,0.951731264591217,0.0,-0.02699558436870575
226.0,255.0,0.0634,0.2847,9.4385,-0.042,0.0202,-0.1176,-1.9817573032774867,0.0,3.751060724258423,-1.5657817125320435,-0.0,2.0561609268188477,5.000477570086279,-0.0,0.2881981134414673,-1.5319846312152308,-0.0,-0.018703849986195564,0.15941071510314941,0.0,-0.0073460726998746395,0.9517509341239929,0.0,0.029076382517814636
226.0,255.0,0.0634,0.2847,9.4385,-0.042,0.0202,-0.1176,-1.9817453823485316,0.0,3.723450183868408,-1.5657734870910645,5.883339063324222e-13,2.035060405731201,5.000445592194357,-0.0,0.2778829336166382,-1.5319927374469202,-0.0,-0.008817861787974834,0.15936659276485443,0.0,-0.00045965472236275673,0.951746940612793,0.0,0.01212328765541315
226.0,255.0,0.0634,0.2847,9.4385,-0.042,0.0202,-0.1176,-1.9817372761168421,0.0,3.7324163913726807,-1.565817952156067,1.4207570449173782e-18,1.9969420433044434,5.000489461212911,-0.0,0.279580295085907,-1.5320246855365198,-0.0,-0.019754957407712936,0.15935464203357697,0.0,0.007917456328868866,0.9517873525619507,0.0,0.011277399957180023
226.0,255.0,0.0634,0.2847,9.4385,-0.042,0.0202,-0.1176,-1.9817496738829554,0.0,3.7264909744262695,-1.5657694339752197,3.4309615750719904e-24,2.0369839668273926,5.000509816199102,-0.0,0.274505078792572,-1.5319646040545862,-0.0,-0.018831508234143257,0.15941894054412842,0.0,0.00583402207121253,0.9517632722854614,0.0,0.05261257290840149
226.0,255.0,0.0634,0.2847,9.4385,-0.042,0.0202,-0.1176,-1.9817291698851527,0.0,3.7585222721099854,-1.5657539367675781,8.285367171714348e-30,2.0578346252441406,5.000477570086279,-0.0,0.2842869162559509,-1.5320647398578089,-0.0,-0.021598374471068382,0.1594029814004898,0.0,-0.0032162584830075502,0.9517550468444824,0.0,0.02707532048225403
226.0,255.0,0.0634,0.2847,9.4385,-0.042,0.0202,-0.1176,-1.9817615948119105,0.0,3.765913963317871,-1.5657652616500854,2.6843535705678717e-37,2.011735677719116,5.000457453518667,-0.0,0.276398241519928,-1.5320490042315882,4.553839250132086e-11,-0.008544104173779488,0.15936240553855896,0.0,0.009515798650681973,0.9518030285835266,0.0,-0.013384787365794182
230.0,245.0,0.2985,-0.2704,9.5186,-0.0505,0.024,-0.1075,-1.9817530117430628,0.0,3.7630300521850586,-1.5657415390014648,6.488011889823903e-43,2.0233893394470215,5.000489461212911,-0.0,0.2777213156223297,-1.5320246855365198,1.2675780293024824e-14,-0.016635019332170486,0.15937471389770508,0.0,0.006674936041235924,0.9518111944198608,0.0014885596465319395,-0.008417277596890926
230.0,245.0,0.2985,-0.2704,9.5186,-0.0505,0.024,-0.1075,-1.9817773304381312,0.0,3.74971342086792,-1.5657291412353516,0.00017670936358626932,1.999864101409912,5.000465649157324,-0.0,0.28583458065986633,-1.5320447126971644,3.528349656192903e-18,-0.008726118132472038,0.1593904048204422,0.0,-0.0028740759007632732,0.9518189430236816,0.003925700206309557,0.03663468733429909
230.0,245.0,0.2985,-0.2704,9.5186,-0.0505,0.024,-0.1075,-1.9817697010436,0.0,3.7531776428222656,-1.5657858848571777,0.000259808060945943,2.0361409187316895,5.0004252074058435,-0.0,0.2956992983818054,-1.5320566336261194,6.412602335798568e-23,-0.0012219533091410995,0.15939439833164215,0.0,0.018271155655384064,0.9518308639526367,0.003677352797240019,0.025004062801599503
230.0,245.0,0.2985,-0.2704,9.5186,-0.0505,0.024,-0.1075,-1.981697221795553,-1.4317022012377834e-09,3.7685623168945312,-1.5657743215560913,0.0005928002647124231,2.0636353492736816,5.000437485962667,-0.0,0.2897427976131439,-1.5320723692523401,1.7849709776831385e-26,-0.0113512072712183,0.15939857065677643,0.0,0.019424811005592346,0.9518590569496155,0.0028517611790448427,0.03253571689128876
230.0,245.0,0.2985,-0.2704,9.5186,-0.0505,0.024,-0.1075,-1.981764932672018,-3.4573921908065278e-15,3.7472405433654785,-1.5657734870910645,0.000346858287230134,2.028653621673584,5.00048582532958,-0.0,0.27235597372055054,-1.5320408979998987,4.9685317499652274e-30,-0.005661759525537491,0.1594148725271225,0.0,0.008415082469582558,0.9519069790840149,0.002527099335566163,-0.00846683606505394
230.0,245.0,0.2985,-0.2704,9.5186,-0.0505,0.024,-0.1075,-1.9818455181517542,-1.1201511834131176e-22,3.7614383697509766,-1.5658100843429565,-0.00022413069382309914,2.008466958999634,5.000457900553503,-0.0,0.26624810695648193,-1.5320685545550745,9.030060933267314e-35,-0.0073846313171088696,0.15936240553855896,0.0,0.007298908196389675,0.9519588351249695,0.0040359655395150185,-0.012890434823930264
230.0,245.0,0.2985,-0.2704,9.5186,-0.0505,0.024,-0.1075,-1.9818250141539515,-0.0014188032364472747,3.722045421600342,-1.565733551979065,-0.00024966654018498957,2.0259242057800293,5.000389444618978,-3.41443595619495e-10,0.27572327852249146,-1.532076660786764,2.513551094413354e-38,-0.014027176424860954,0.15939857065677643,0.0,-0.0011696959845721722,0.9519665837287903,0.006890451069921255,-0.00460559269413352
230.0,245.0,0.2985,-0.2704,9.5186,-0.0505,0.024,-0.1075,-1.9818335972227992,-0.0022811642847955227,3.7042157649993896,-1.5657694339752197,-0.00019543850794434547,2.023912191390991,5.000433313637533,-9.504209756445309e-14,0.2806868851184845,-1.5320966879474085,6.996683232373812e-42,-0.023754838854074478,0.15944653749465942,0.0,0.001534138573333621,0.9520303606987,0.00962896179407835,0.055263668298721313
230.0,245.0,0.2985,-0.2704,9.5186,-0.0505,0.024,-0.1075,-1.9818531475462855,-0.002385304309427738,3.7544474601745605,-1.565834403038025,-0.00016056450840551406,2.066185474395752,5.000441568880834,-2.645531717586701e-17,0.28182870149612427,-1.5321086088763636,1.401298464324817e-45,-0.009494006633758545,0.159378781914711,0.0,0.005371093284338713,0.9520459771156311,0.012345931492745876,0.07058823108673096
230.0,245.0,0.2985,-0.2704,9.5186,-0.0505,0.024,-0.1075,-1.9818769894041957,-0.002363490406423807,3.760380744934082,-1.5657858848571777,-0.0001297070411965251,2.0081026554107666,5.000417756825247,-4.808123625628896e-22,0.2932710647583008,-1.5321043173419397,0.0,-0.0026385353412479162,0.1593862920999527,0.0,-0.000246375915594399,0.9521378874778748,0.012748775072395802,0.02736988291144371
230.0,245.0,0.2985,-0.2704,9.5186,-0.0505,0.024,-0.1075,-1.9818936787047328,-0.002726146252825856,3.708416700363159,-1.5657455921173096,-0.00011336752504575998,2.065403938293457,5.0004456517990015,-1.3383587320469435e-25,0.2756931781768799,-1.5320647398578089,0.0,-0.02494373545050621,0.159378781914711,0.0,0.00015068879292812198,0.9522824287414551,0.011782059445977211,0.0067143249325454235
230.0,245.0,0.2985,-0.2704,9.5186,-0.0505,0.024,-0.1075,-1.9819494686522425,-0.004648387897759676,3.7015838623046875,-1.5657254457473755,-6.712369940942153e-05,2.016286611557007,5.000413226872244,-3.7253705276316405e-29,0.27553993463516235,-1.5320609251605433,0.0,-0.02234756201505661,0.15936695039272308,0.0,0.01035524345934391,0.9522776007652283,0.010351619683206081,0.012572958134114742
230.0,245.0,0.2985,-0.2704,9.5186,-0.0505,0.024,-0.1075,-1.9819852314391078,-0.007223024033010006,3.7460906505584717,-1.565741777420044,-5.622746268585388e-09,2.048759937286377,5.0004374263580225,-6.770677565068484e-34,0.27433887124061584,-1.5321243445025843,0.0,-0.03349599987268448,0.15937839448451996,0.0,-0.004117418546229601,0.9523575901985168,0.008887900039553642,0.029962312430143356
225.0,245.0,-0.21,0.335,9.2172,-0.042,0.0176,-0.0999,-1.982065340081686,-0.008576592430472374,3.7453536987304688,-1.5656933784484863,-1.3578270181401758e-14,2.0463881492614746,5.000461923867025,-1.8846430747421504e-37,0.2880813479423523,-1.5320528189288538,0.0,-0.006981399841606617,0.15936656296253204,0.0,0.0017994511872529984,0.9524091482162476,0.0074921585619449615,-0.0017097326926887035
225.0,245.0,-0.21,0.335,9.2172,-0.042,0.0176,-0.0999,-1.9821649990477503,-0.008537107147276402,3.7492294311523438,-1.5657702684402466,-3.278992092656792e-20,2.071465015411377,5.000457930355825,-5.246041060892818e-41,0.2710990905761719,-1.5320490042315882,0.0,-0.016247324645519257,0.15944278240203857,0.0,0.003600021358579397,0.9524455070495605,0.004866734612733126,0.011932753957808018
225.0,245.0,-0.21,0.335,9.2172,-0.042,0.0176,-0.0999,-1.9821444950499476,-0.008213043212890625,3.6551308631896973,-1.5657981634140015,-7.918379306918478e-26,1.999835729598999,5.000417727022924,-1.401298464324817e-44,0.2839272916316986,-1.5320327917682093,0.0,-0.008219337090849876,0.15938663482666016,0.0,0.004643317777663469,0.9524973034858704,0.0027121768798679113,0.0027464507147669792
225.0,245.0,-0.21,0.335,9.2172,-0.042,0.0176,-0.0999,-1.9822288952269496,-0.007291615474969149,3.701915740966797,-1.5657294988632202,-2.565454523545232e-33,2.0322985649108887,5.000381636410513,-0.0,0.274875670671463,-1.5320804754840296,-4.540182635537349e-05,-0.01729668863117695,0.1593342274427414,0.0,-0.001155828358605504,0.952417254447937,0.0012262861710041761,0.04291608929634094
225.0,245.0,-0.21,0.335,9.2172,-0.042,0.0176,-0.0999,-1.9822727642455042,-0.006058947183191776,3.740902900695801,-1.5657415390014648,-6.195270831537198e-39,2.0394983291625977,5.000441956311025,-0.0,0.28615474700927734,-1.5320609251605433,-4.220746995997615e-05,-0.018758554011583328,0.15939857065677643,0.0,-0.0011663450859487057,0.9524493217468262,0.0008113088551908731,0.011477687396109104
225.0,245.0,-0.21,0.335,9.2172,-0.042,0.0176,-0.0999,-1.9823047123351039,-0.004449686035513878,3.6854796409606934,-1.5657455921173096,-1.5414283107572988e-44,2.0401105880737305,5.000417339592733,-0.0,0.279359370470047,-1.5320609251605433,-3.943335104850121e-05,-0.005433309357613325,0.15939855575561523,0.0,0.0032842750661075115,0.9524213671684265,0.0005306153907440603,0.005895762238651514
225.0,245.0,-0.21,0.335,9.2172,-0.042,0.0176,-0.0999,-1.9823128185667933,-0.0017058082157745957,3.7303354740142822,-1.5657496452331543,-0.0,2.0319128036499023,5.000437456160345,-0.0,0.2786184847354889,-1.5320246855365198,-3.625616227509454e-05,-0.018802210688591003,0.15939071774482727,0.0,0.008211519569158554,0.9524496793746948,0.00013531646982301027,0.0470554418861866
225.0,245.0,-0.21,0.335,9.2172,-0.042,0.0176,-0.0999,-1.982248445550436,-0.0003692223399411887,3.736307144165039,-1.5657217502593994,-0.0,2.084937810897827,5.0004456517990015,-0.0,0.2821516990661621,-1.532076660786764,-3.419011409278028e-05,-0.00999536830931902,0.15934652090072632,0.0,-0.0016262494027614594,0.9524377584457397,6.132429916760884e-06,0.05159241706132889
225.0,245.0,-0.21,0.335,9.2172,-0.042,0.0176,-0.0999,-1.9822765789427699,-0.00032713470864109695,3.748696804046631,-1.5656977891921997,0.0006898133433423936,2.019595146179199,5.000449704914846,-0.0,0.2822374403476715,-1.5320685545550745,-3.234684481867589e-05,-0.015697533264756203,0.1593702733516693,0.0,-0.0016024077776819468,0.9523898363113403,1.480909839202127e-11,-0.05613163858652115
225.0,245.0,-0.21,0.335,9.2172,-0.042,0.0176,-0.0999,-1.9822846851744593,1.7972525938603212e-06,3.769002914428711,-1.565685510635376,0.0032756540458649397,2.063667058944702,5.000397640257635,-0.0,0.2892524003982544,-1.5320647398578089,-3.0177567168720998e-05,-0.015405809506773949,0.1594305783510208,0.0,0.007761101238429546,0.9523414969444275,-0.0034333360381424427,-0.04966561123728752
225.0,245.0,-0.21,0.335,9.2172,-0.042,0.0176,-0.0999,-1.9823328457274378,4.340153236803701e-12,3.7509572505950928,-1.5656821727752686,0.00596275320276618,2.0593860149383545,5.000369715481558,-5.70515840081498e-05,0.27207309007644653,-1.5320685545550745,-2.8732467399095185e-05,-0.009035988710820675,0.15937472879886627,0.0,0.002577178878709674,0.9523133039474487,-0.002891650190576911,0.002162778750061989
225.0,245.0,-0.21,0.335,9.2172,-0.042,0.0176,-0.0999,-1.9822646580138148,1.048095821465626e-17,3.751685619354248,-1.5656336545944214,0.005666103679686785,2.0144641399383545,5.000365990191259,-0.00010009969264501706,0.26916006207466125,-1.5320528189288538,-2.7419393518357538e-05,-0.023056451231241226,0.15936696529388428,0.0,-0.013928383588790894,0.9523058533668518,-0.0036021170672029257,-0.050171516835689545
225.0,245.0,-0.21,0.335,9.2172,-0.042,0.0176,-0.0999,-1.982316633264059,2.5310281866488644e-23,3.7480688095092773,-1.5656180381774902,0.003922932781279087,2.0268688201904297,5.00036187747077,-0.0007525138789787889,0.27176859974861145,-1.5320728460894983,-1.3334180948731955e-05,-0.015940742567181587,0.15945062041282654,0.0,-0.001378046115860343,0.9523017406463623,-0.005557861644774675,0.00499164592474699
225.0,245.0,-0.21,0.335,9.2172,-0.042,0.0176,-0.0999,-1.9823128185667933,8.20021003512157e-31,3.7498955726623535,-1.5656096935272217,0.00192926952149719,2.054701089859009,5.000353801041403,-0.0006090651731938124,0.28094521164894104,-1.5320728460894983,-1.2388686627673451e-05,0.004599509295076132,0.15938664972782135,0.0,0.0007284535095095634,0.9522180557250977,-0.007642979733645916,-0.04655979946255684
232.0,261.0,0.2399,0.2806,9.5474,-0.0383,0.0174,-0.1378,-1.9822565517821253,1.9802541846408675e-36,3.7686703205108643,-1.565605640411377,0.00124487339053303,2.0418360233306885,5.000393885165014,-0.000539515633136034,0.2788700461387634,-1.5320246855365198,-1.1897377589775715e-05,-0.011104990728199482,0.1594189703464508,0.0,0.003156601684167981,0.952129602432251,-0.008233293890953064,0.016486940905451775
232.0,261.0,0.2399,0.2806,9.5474,-0.0383,0.0174,-0.1378,-1.9822565517821253,4.7826316587406007e-42,3.767514705657959,-1.565605640411377,0.0007175325881689787,2.046099901199341,5.000389802246847,-0.00044045812683179975,0.2842852473258972,-1.5320170561419886,-2.5387063118387232e-08,-0.016553785651922226,0.15941493213176727,0.0,-0.006835046224296093,0.9521223306655884,-0.009630005806684494,-0.050536200404167175
232.0,261.0,0.2399,0.2806,9.5474,-0.0383,0.0174,-0.1378,-1.9822889767088832,0.0,3.745821475982666,-1.5655663013458252,0.0004664829175453633,2.0480072498321533,5.000365960388937,-0.00029855716275051236,0.2883232831954956,-1.532025162373678,-4.613973591215126e-13,-0.006522866897284985,0.15943126380443573,0.0,-0.0060660140588879585,0.9520025253295898,-0.012956911697983742,-0.042342204600572586
232.0,261.0,0.2399,0.2806,9.5474,-0.0383,0.0174,-0.1378,-1.982248445550436,0.0,3.761404514312744,-1.56557035446167,0.0017884733388200402,1.999138355255127,5.000374185829916,-0.00024897619732655585,0.27343177795410156,-1.5319965521441858,-1.284316353252293e-16,-0.012740560807287693,0.15943467617034912,0.0,0.006864601746201515,0.9518746137619019,-0.017095616087317467,-0.032405007630586624
232.0,261.0,0.2399,0.2806,9.5474,-0.0383,0.0174,-0.1378,-1.9822846851744593,0.0,3.7422194480895996,-1.5655341148376465,0.004135634750127792,2.0530447959899902,5.000353711634435,-0.00021352287149056792,0.28743165731430054,-1.5319927374469202,-3.5749418061917796e-20,-0.02123730257153511,0.15935063362121582,0.0,-0.0007164698909036815,0.9517425894737244,-0.02020622231066227,0.00463611725717783
232.0,261.0,0.2399,0.2806,9.5474,-0.0383,0.0174,-0.1378,-1.9822608433165492,0.0,3.7250633239746094,-1.5655463933944702,0.005177261773496866,2.0319106578826904,5.000374215632238,-0.0001869094994617626,0.2689042389392853,-1.5319808165179651,-9.950981759270964e-24,-0.008713938295841217,0.15941078960895538,0.0,-9.559938916936517e-05,0.9516068696975708,-0.023171568289399147,-0.018349405378103256
232.0,261.0,0.2399,0.2806,9.5474,-0.0383,0.0174,-0.1378,-1.9823047123351039,0.0,3.747605323791504,-1.5654621124267578,0.006472533103078604,2.055546522140503,5.000413942127981,-0.0001602767442818731,0.2881247401237488,-1.5319770018206995,-1.8085418661231603e-28,-0.01256364956498146,0.15936656296253204,0.0,0.002186977304518223,0.9514237642288208,-0.027561470866203308,-0.06698452681303024
232.0,261.0,0.2399,0.2806,9.5474,-0.0383,0.0174,-0.1378,-1.9822608433165492,0.0,3.750112771987915,-1.5654542446136475,0.007907206192612648,2.027352809906006,5.000381964236059,-0.00017276694416068494,0.2865487337112427,-1.5319727102862757,-5.034142719472758e-32,-0.031053684651851654,0.15939071774482727,0.0,-0.0034754318185150623,0.9512560963630676,-0.029264232143759727,-0.005260784644633532
232.0,261.0,0.2399,0.2806,9.5474,-0.0383,0.0174,-0.1378,-1.982277055779928,0.0,3.7924468517303467,-1.565390944480896,0.009013576433062553,2.002476930618286,5.00036187747077,-0.0001584635756444186,0.2834857106208801,-1.5319889227496546,-1.4012723486055971e-35,-0.011936238966882229,0.15932640433311462,0.0,0.0024782977998256683,0.9511131644248962,-0.032114285975694656,-0.004239105153828859
232.0,261.0,0.2399,0.2806,9.5474,-0.0383,0.0174,-0.1378,-1.9822565517821253,0.0,3.780315399169922,-1.5653272867202759,0.011060742661356926,2.052675247192383,5.000365960388937,-0.00014181621372699738,0.2763059139251709,-1.5319927374469202,-2.546747855033209e-40,-0.010991768911480904,0.15937840938568115,0.0,-0.009834427386522293,0.9508137702941895,-0.03487701714038849,-0.0539042092859745
232.0,261.0,0.2399,0.2806,9.5474,-0.0383,0.0174,-0.1378,-1.9822284183897914,0.0,3.8009233474731445,-1.5651869773864746,0.01428975723683834,2.04243803024292,5.000386136561193,-0.00015334272757172585,0.27002477645874023,-1.5319727102862757,-7.146622168056567e-44,-0.011342229321599007,0.1593424528837204,0.0,-0.016534004360437393,0.9505699276924133,-0.03818141296505928,-0.014051688835024834
232.0,261.0,0.2399,0.2806,9.5474,-0.0383,0.0174,-0.1378,-1.9822565517821253,0.0,3.7912075519561768,-1.5650585889816284,0.01699003390967846,2.0731353759765625,5.000353801041403,-0.00014292912965174764,0.27627843618392944,-1.5319846312152308,-0.0,-0.013500292785465717,0.15936653316020966,0.0,-0.005185517482459545,0.9503307342529297,-0.03890075162053108,-0.05078817903995514
232.0,261.0,0.2399,0.2806,9.5474,-0.0383,0.0174,-0.1378,-1.982232233087057,0.0,3.7472498416900635,-1.5649113655090332,0.02289230190217495,2.082280397415161,5.000381964236059,-0.00013103728997521102,0.2854727506637573,-1.5319369474994105,-0.0,-0.014399096369743347,0.15938663482666016,0.0,-0.004254404921084642,0.9499670267105103,-0.04059267044067383,0.003865097649395466
232.0,261.0,0.2399,0.2806,9.5474,-0.0383,0.0174,-0.1378,-1.982277055779928,0.0,3.7498035430908203,-1.5647270679473877,0.026245515793561935,2.1320714950561523,5.00039021947936,-0.0001233408402185887,0.2810359597206116,-1.5320046583758753,-0.0,-0.02319272980093956,0.15937834978103638,0.0,0.006773911416530609,0.9497600793838501,-0.04181629419326782,-0.06927694380283356
226.0,253.0,-0.0353,0.5192,9.5797,-0.0466,0.042,-0.1781,-1.9822608433165492,0.0,3.7808990478515625,-1.5645912885665894,0.029856620356440544,2.089380979537964,5.000438260823049,-0.00011649838415905833,0.2827087938785553,-1.5319846312152308,-0.0,-0.022741498425602913,0.15937061607837677,0.0,0.0011514041107147932,0.9495120644569397,-0.04504656046628952,-0.016847258433699608
226.0,253.0,-0.0353,0.5192,9.5797,-0.0466,0.042,-0.1781,-1.9822727642455042,3.4583736123749986e-05,3.761302947998047,-1.564343810081482,0.035363465547561646,2.0696213245391846,5.000397968083181,-0.00011037520016543567,0.29069024324417114,-1.5319808165179651,0.00010752146772574633,-0.01936790719628334,0.15940673649311066,0.0,0.004671773873269558,0.9491763114929199,-0.0488397516310215,-0.06501083821058273
226.0,253.0,-0.0353,0.5192,9.5797,-0.0466,0.042,-0.1781,-1.982277055779928,3.580747215892188e-05,3.742793560028076,-1.5641083717346191,0.03986627608537674,2.102173328399658,5.0003418801124475,-0.0001179201717604883,0.27523139119148254,-1.5319846312152308,0.00010013305291067809,-0.01970905251801014,0.1593746542930603,0.0,1.632794737815857e-05,0.9488453269004822,-0.051935743540525436,-0.040278736501932144
226.0,253.0,-0.0353,0.5192,9.5797,-0.0466,0.042,-0.1781,-1.9823209247984828,1.6922444046940655e-05,3.7558932304382324,-1.563788652420044,0.04316135495901108,2.0950045585632324,5.000345963030615,-0.00010033449507318437,0.29126209020614624,-1.5320046583758753,9.386676538269967e-05,-0.013062862679362297,0.15941831469535828,0.0,0.010106200352311134,0.9484773278236389,-0.052401863038539886,-0.04800078272819519
226.0,253.0,-0.0353,0.5192,9.5797,-0.0466,0.042,-0.1781,-1.9822565517821253,1.5994655768736266e-05,3.7394697666168213,-1.563529372215271,0.04713066667318344,2.101349353790283,5.0003418801124475,-0.00011306888336548582,0.28118985891342163,-1.5320127646075647,8.833857282297686e-05,-0.021109651774168015,0.15942305326461792,3.614840409227327e-07,0.01862163655459881,0.948093056678772,-0.05152761936187744,-0.05704784393310547
226.0,253.0,-0.0353,0.5192,9.5797,-0.0466,0.042,-0.1781,-1.9822565517821253,9.502182374276913e-10,3.7592058181762695,-1.5631500482559204,0.05187493935227394,2.114818572998047,5.000370192318716,-0.0005479968385770917,0.2727164030075073,-1.53196889558901,8.190680819097906e-05,-0.0138065405189991,0.15941070020198822,6.569794621519298e-12,-0.004482894204556942,0.9477059841156006,-0.05063145235180855,-0.009418033063411713
226.0,253.0,-0.0353,0.5192,9.5797,-0.0466,0.042,-0.1781,-1.9822365246214808,2.2946647701546294e-15,3.744835376739502,-1.562822699546814,0.05305960774421692,2.1094555854797363,5.00028161981658,-0.0005447391886264086,0.2570555806159973,-1.5319531599627894,9.30640017031692e-05,-0.01041460782289505,0.15940672159194946,1.8287267689466157e-15,0.01906796544790268,0.9473820328712463,-0.0508410818874836,-0.01698976568877697
226.0,253.0,-0.0353,0.5192,9.5797,-0.0466,0.042,-0.1781,-1.9822808704771937,5.541345931390954e-21,3.726829767227173,-1.56243896484375,0.052476175129413605,2.1098594665527344,5.000345963030615,-0.0005411935271695256,0.27425360679626465,-1.5319531599627894,9.957439033314586e-05,-0.0210522823035717,0.15945032238960266,5.090327834971433e-19,0.007358493283390999,0.9470988512039185,-0.052023451775312424,-0.03919858857989311
226.0,253.0,-0.0353,0.5192,9.5797,-0.0466,0.042,-0.1781,-1.982277055779928,1.338169867652877e-26,3.7786831855773926,-1.5621155500411987,0.051241401582956314,2.126016616821289,5.000285702734747,-0.00048261319170705974,0.2612649202346802,-1.5320008436786097,9.852802759269252e-05,-0.01951986365020275,0.15941424667835236,0.00040243417606689036,0.012382175773382187,0.9467427730560303,-0.0517922043800354,-0.013732644729316235
226.0,253.0,-0.0353,0.5192,9.5797,-0.0466,0.042,-0.1781,-1.9823008976378382,4.3355005090309935e-34,3.692220687866211,-1.5617403984069824,0.04954828694462776,2.1180052757263184,5.000330287009039,-0.00047297929995693266,0.28055697679519653,-1.5319808165179651,9.272813622374088e-05,-0.017891207709908485,0.15946660935878754,0.0008605425246059895,0.017478663474321365,0.9463512897491455,-0.051278255879879,-0.02041926048696041
226.0,253.0,-0.0353,0.5192,9.5797,-0.0466,0.042,-0.1781,-1.9822927914061488,1.0469717398295011e-39,3.6927695274353027,-1.5613969564437866,0.04898620769381523,2.0595898628234863,5.00031395533637,-0.00041349203092977405,0.26063939929008484,-1.5319846312152308,8.880678797140718e-05,-0.015239447355270386,0.15945836901664734,0.0009175753220915794,0.018323641270399094,0.9460352659225464,-0.04817323759198189,0.018576664850115776
226.0,253.0,-0.0353,0.5192,9.5797,-0.0466,0.042,-0.1781,-1.9822565517821253,2.802596928649634e-45,3.680996894836426,-1.561173439025879,0.04944244772195816,2.0989017486572266,5.000338214426794,-0.0004517149936873466,0.2583048641681671,-1.5319965521441858,8.520363189745694e-05,-0.035715214908123016,0.15945838391780853,0.0008037559455260634,0.025417426601052284,0.9457560777664185,-0.046283919364213943,0.046964503824710846
226.0,253.0,-0.0353,0.5192,9.5797,-0.0466,0.042,-0.1781,-1.9822846851744593,0.0,3.7087278366088867,-1.56069016456604,0.05075531825423241,2.124072313308716,5.0002455590064905,-0.0005963454023003578,0.26662588119506836,-1.5319331328021448,9.218164632329717e-05,-0.022704243659973145,0.15941008925437927,0.0006101240869611502,0.01883607730269432,0.9454002976417542,-0.04434988647699356,-0.006567690521478653
226.0,253.0,-0.0353,0.5192,9.5797,-0.0466,0.042,-0.1781,-1.9822961292662562,-0.0010785411577671766,3.6380159854888916,-1.5604026317596436,0.05219307541847229,2.1237804889678955,5.000282037049093,-0.0005783936358056962,0.26487115025520325,-1.53196889558901,8.89542352524586e-05,-0.013788975775241852,0.1594662368297577,0.00047923598322086036,0.03769652172923088,0.9450601935386658,-0.044208724051713943,-0.0024168770760297775
230.0,224.0,-0.2734,0.5515,9.3649,-0.0458,0.0899,-0.1964,-1.9823523960509242,-0.002603285014629364,3.6576128005981445,-1.5600996017456055,0.053144194185733795,2.1152210235595703,5.000273871212759,-0.0006612876313738525,0.2621493339538574,-1.5319369474994105,0.0001194579090224579,-0.016461621969938278,0.1594502478837967,0.0004552020691335201,0.03753196448087692,0.9447444081306458,-0.04433846101164818,-0.04266460984945297
230.0,224.0,-0.2734,0.5515,9.3649,-0.0458,0.0899,-0.1964,-1.9823242626585902,-0.004688845947384834,3.633918285369873,-1.5596882104873657,0.053635090589523315,2.142775535583496,5.000266033201971,-0.0007528942078351974,0.2774701714515686,-1.5319293181048792,0.00014451953757088631,-0.005220044404268265,0.1594863384962082,0.0004051381547469646,0.03434810787439346,0.9444490075111389,-0.04637914150953293,-0.07257789373397827
230.0,224.0,-0.2734,0.5515,9.3649,-0.0458,0.0899,-0.1964,-1.9824124775328578,-0.006607387214899063,3.6618480682373047,-1.5593369007110596,0.05667952820658684,2.117137908935547,5.000282037049093,-0.0007896714960224926,0.273181676864624,-1.5319650808917444,0.00042071714415214956,-0.0009892466478049755,0.15956275165081024,0.0004107905551791191,0.042348943650722504,0.944169282913208,-0.04852227121591568,-0.05423063784837723
230.0,224.0,-0.2734,0.5515,9.3649,-0.0458,0.0899,-0.1964,-1.9825006924071253,-0.008641851134598255,3.6418843269348145,-1.5589733123779297,0.05844825506210327,2.126833915710449,5.0002939877803705,-0.0009441293077543378,0.2713027894496918,-1.5319450537311,0.0003909959923475981,-0.002235728781670332,0.15949039161205292,0.0004007532261312008,0.02718476578593254,0.9438815712928772,-0.051287174224853516,-0.12916012108325958
230.0,224.0,-0.2734,0.5515,9.3649,-0.0458,0.0899,-0.1964,-1.982488294641012,-0.009253882803022861,3.594879388809204,-1.5586540699005127,0.060459814965724945,2.144221067428589,5.000282037049093,-0.00098690006416291,0.25915443897247314,-1.5319331328021448,0.00034558019251562655,0.0014294572174549103,0.15945839881896973,0.0003393494407646358,0.0410747155547142,0.9435699582099915,-0.05377448350191116,-0.10405271500349045
230.0,224.0,-0.2734,0.5515,9.3649,-0.0458,0.0899,-0.1964,-1.9825922451415003,-0.010177038609981537,3.5768446922302246,-1.5580863952636719,0.06398842483758926,2.1483278274536133,5.000278371363439,-0.0010026379022747278,0.2492055892944336,-1.5319369474994105,0.0002751292195171118,0.003091766033321619,0.15945032238960266,0.00029867602279409766,0.024752754718065262,0.9431019425392151,-0.05735496059060097,-0.11532818526029587
230.0,224.0,-0.2734,0.5515,9.3649,-0.0458,0.0899,-0.1964,-1.9826280079283656,-0.010640918277204037,3.6296029090881348,-1.5576833486557007,0.06650102138519287,2.1306369304656982,5.000237780600347,-0.0010307962074875832,0.2522387206554413,-1.5319531599627894,0.0002731013228185475,-0.0027691517025232315,0.15951086580753326,0.0002816094201989472,0.04222599416971207,0.9427381157875061,-0.05976913124322891,-0.13769365847110748
230.0,224.0,-0.2734,0.5515,9.3649,-0.0458,0.0899,-0.1964,-1.982715745965475,-0.011006845161318779,3.583332061767578,-1.5572922229766846,0.0685652568936348,2.124561309814453,5.000225561648168,-0.0012223132653161883,0.2315504401922226,-1.531912628804342,0.0002458168310113251,0.008953588083386421,0.15950269997119904,0.00025203649420291185,0.04953668266534805,0.9424348473548889,-0.06147272139787674,-0.18534693121910095
230.0,224.0,-0.2734,0.5515,9.3649,-0.0458,0.0899,-0.1964,-1.982823988000387,-0.01055111549794674,3.578270435333252,-1.55674147605896,0.06826639920473099,2.16378116607666,5.000238197832861,-0.0031631074380129576,0.2519644796848297,-1.5319331328021448,0.00021262776863295585,-0.0029078973457217216,0.15947440266609192,0.00022107728000264615,0.035805363208055496,0.9419149160385132,-0.06339527666568756,-0.1830112636089325
230.0,224.0,-0.2734,0.5515,9.3649,-0.0458,0.0899,-0.1964,-1.9828640423216761,-0.009972935542464256,3.547741413116455,-1.5563057661056519,0.06768113374710083,2.1178369522094727,5.000198352127828,-0.007293148897588253,0.24336951971054077,-1.5319293181048792,0.00019307593174744397,0.0020366308744996786,0.15943393111228943,0.00017882701649796218,0.02636607363820076,0.9414915442466736,-0.06573791056871414,-0.15454085171222687
230.0,224.0,-0.2734,0.5515,9.3649,-0.0458,0.0899,-0.1964,-1.9828673801817835,-0.00926930084824562,3.575775146484375,-1.5558741092681885,0.07055593281984329,2.1166083812713623,5.000142681389608,-0.01115366630256176,0.2270684540271759,-1.5319011847125452,0.00017681792087387294,0.02078060805797577,0.1594502180814743,0.00015707244165241718,0.03704136610031128,0.9410874843597412,-0.06884024292230606,-0.1879931092262268
230.0,224.0,-0.2734,0.5515,9.3649,-0.0458,0.0899,-0.1964,-1.982983728448385,-0.007780513726174831,3.5590617656707764,-1.5554596185684204,0.07444145530462265,2.1510772705078125,5.000062423735418,-0.009039522148668766,0.2227809727191925,-1.5319207350360315,0.00018637622997630388,0.005529987625777721,0.1594502180814743,0.0001632342318771407,0.03448864072561264,0.9406879544258118,-0.07022099196910858,-0.2126600444316864
230.0,224.0,-0.2734,0.5515,9.3649,-0.0458,0.0899,-0.1964,-1.983011385003561,-0.008446079678833485,3.5418221950531006,-1.5548650026321411,0.07448337227106094,2.154731512069702,5.000022548228063,-0.0030116569250822067,0.21782061457633972,-1.531956974660055,0.00016889396647457033,0.01348569430410862,0.15944604575634003,0.00015147200610954314,0.03282507136464119,0.9401406049728394,-0.06858134269714355,-0.2022794783115387
216.0,212.0,0.0084,0.8859,9.8572,-0.0467,0.0822,-0.2007,-1.983079572717184,-0.008980194106698036,3.5535688400268555,-1.554381012916565,0.07511171698570251,2.1289501190185547,5.000038909703054,-0.0012133480049669743,0.22871828079223633,-1.5319173971759241,0.00012275487824808806,0.0028175427578389645,0.15948224067687988,0.00015993222768884152,0.030786510556936264,0.9397456049919128,-0.06690230965614319,-0.21034911274909973
216.0,212.0,0.0084,0.8859,9.8572,-0.0467,0.0822,-0.2007,-1.9830666981139125,-0.008817282505333424,3.4689550399780273,-1.553914189338684,0.07773064821958542,2.1985621452331543,5.000038909703054,-0.0008735507144592702,0.23042762279510498,-1.531916920338766,0.00013588312140200287,0.008611840195953846,0.15944206714630127,0.0001512575981905684,0.03424275293946266,0.9392968416213989,-0.06847504526376724,-0.17715805768966675
216.0,212.0,0.0084,0.8859,9.8572,-0.0467,0.0822,-0.2007,-1.9832316837706507,-0.0075467778369784355,3.5396742820739746,-1.553267240524292,0.08077230304479599,2.1413910388946533,5.000018822937765,-0.0005881211836822331,0.22544270753860474,-1.5318968931781214,0.0004640536499209702,0.012010859325528145,0.15954631567001343,0.00021805519645567983,0.047760650515556335,0.9387257099151611,-0.07324694842100143,-0.2138271927833557
216.0,212.0,0.0084,0.8859,9.8572,-0.0467,0.0822,-0.2007,-1.9832068882384242,-0.007279444485902786,3.5515639781951904,-1.5527559518814087,0.08065992593765259,2.211867570877075,5.000058668642797,-0.00033548290957696736,0.21481603384017944,-1.5318730513202112,0.000569296651519835,0.013814886100590229,0.15951040387153625,0.0002651938993949443,0.04734193533658981,0.9383022785186768,-0.07901237905025482,-0.23959395289421082
216.0,212.0,0.0084,0.8859,9.8572,-0.0467,0.0822,-0.2007,-1.9832869968810023,-0.007876171730458736,3.473092555999756,-1.5523128509521484,0.08098143339157104,2.1420130729675293,5.000014740019598,-0.000309404858853668,0.22483310103416443,-1.5319131056415003,0.000776259636040777,0.02130649983882904,0.15951824188232422,0.0006859959103167057,0.05667814612388611,0.9378143548965454,-0.08092658221721649,-0.27772727608680725
216.0,212.0,0.0084,0.8859,9.8572,-0.0467,0.0822,-0.2007,-1.9833108387389125,-0.007923946715891361,3.489341974258423,-1.5516301393508911,0.07715307921171188,2.1782310009002686,5.000018822937765,-0.00025291391648352146,0.2089821994304657,-1.5318811575519007,0.0006587101961486042,0.016662102192640305,0.1595745086669922,0.0011254408163949847,0.04014946520328522,0.9371952414512634,-0.08111229538917542,-0.24609403312206268
216.0,212.0,0.0084,0.8859,9.8572,-0.0467,0.0822,-0.2007,-1.9833790264525355,-0.005975847132503986,3.4586949348449707,-1.5511833429336548,0.07693150639533997,2.2285537719726562,5.000026660948553,-0.0002574209647718817,0.21254831552505493,-1.531888786946432,0.0005035726353526115,0.013090204447507858,0.159529909491539,0.0013063001679256558,0.05214471369981766,0.9367040395736694,-0.08431427925825119,-0.2235107272863388
216.0,212.0,0.0084,0.8859,9.8572,-0.0467,0.0822,-0.2007,-1.9834114513792933,-0.004341830033808947,3.441889524459839,-1.5506960153579712,0.07981537282466888,2.1862432956695557,5.00000690200881,-0.00023032691387925297,0.22950825095176697,-1.5318849722491663,0.000432430679211393,0.027268212288618088,0.15953798592090607,0.0014710261020809412,0.04000738263130188,0.9361958503723145,-0.0915168896317482,-0.2679169774055481
216.0,212.0,0.0084,0.8859,9.8572,-0.0467,0.0822,-0.2007,-1.983439107934469,-0.003791581839323044,3.4895942211151123,-1.5502527952194214,0.08319833874702454,2.1258888244628906,4.999974566489019,-0.0002647465735208243,0.2212834358215332,-1.5318930784808558,0.000421253644162789,0.021273832768201828,0.15956221520900726,0.002061481587588787,0.06510280817747116,0.9356686472892761,-0.09928128123283386,-0.2994617521762848
216.0,212.0,0.0084,0.8859,9.8572,-0.0467,0.0822,-0.2007,-1.9835392437376917,-0.007597419898957014,3.466883659362793,-1.5495096445083618,0.08853767812252045,2.2205774784088135,5.000022905855932,-0.0010376560967415571,0.21765032410621643,-1.5318811575519007,0.0004127923457417637,0.02070503495633602,0.15960651636123657,0.0037861610762774944,0.0584767647087574,0.9348006844520569,-0.10127770900726318,-0.2994879484176636
216.0,212.0,0.0084,0.8859,9.8572,-0.0467,0.0822,-0.2007,-1.9835463962950648,-0.012480280362069607,3.428396463394165,-1.549022912979126,0.09103929251432419,2.1661696434020996,4.999982821732321,-0.0011152052320539951,0.20933204889297485,-1.5318649450885218,0.0005005025886930525,0.028155431151390076,0.15960651636123657,0.006164285354316235,0.05548127740621567,0.9342579245567322,-0.09414838254451752,-0.24347716569900513
216.0,212.0,0.0084,0.8859,9.8572,-0.0467,0.0822,-0.2007,-1.9836021862425746,-0.014223271049559116,3.4503097534179688,-1.5484882593154907,0.09167975187301636,2.188973903656006,4.999986487417974,-0.0009158799657598138,0.20764875411987305,-1.5318849722491663,0.0009193897130899131,0.024913232773542404,0.15963779389858246,0.0051991501823067665,0.06717725098133087,0.9337184429168701,-0.09198258817195892,-0.3147560656070709
216.0,212.0,0.0084,0.8859,9.8572,-0.0467,0.0822,-0.2007,-1.9837705097594203,-0.01578376814723015,3.4427549839019775,-1.547684907913208,0.09535057097673416,2.2575740814208984,4.999970483570852,-0.0006612152210436761,0.2104821503162384,-1.531877342854635,0.003092285944148898,0.01772168092429638,0.1596902310848236,0.0011821677908301353,0.06250330060720444,0.9329429864883423,-0.09319745749235153,-0.3407522439956665
216.0,212.0,0.0084,0.8859,9.8572,-0.0467,0.0822,-0.2007,-1.9838139019408167,-0.017040172591805458,3.4523630142211914,-1.5471748113632202,0.09652408957481384,2.170173168182373,4.999982821732321,-0.000518798828125,0.20156627893447876,-1.5318053404437464,0.006243141368031502,0.040350817143917084,0.1596536934375763,0.0006476510316133499,0.050960056483745575,0.932415783405304,-0.09585750102996826,-0.33478349447250366
207.0,190.0,0.2333,-0.1202,9.0814,-0.0948,0.0811,-0.2361,-1.9839421711363734,-0.018427764996886253,3.4433608055114746,-1.5465672016143799,0.09529971331357956,2.177682638168335,4.999986487417974,-0.0004265407333150506,0.2173622101545334,-1.531769100819723,0.008641359396278858,0.03709520399570465,0.1596216857433319,0.0004520240763667971,0.07764913886785507,0.9318158626556396,-0.09687149524688721,-0.33573248982429504
207.0,190.0,0.2333,-0.1202,9.0814,-0.0948,0.0811,-0.2361,-1.984086652795309,-0.020204568281769753,3.4763784408569336,-1.545992136001587,0.09203054755926132,2.183115005493164,5.000002848892965,-0.0003621525829657912,0.21022966504096985,-1.5317652861224573,0.005025751888751984,0.04354704171419144,0.15959374606609344,0.0003472597454674542,0.05522321164608002,0.9312563538551331,-0.10082478076219559,-0.3440956771373749
207.0,190.0,0.2333,-0.1202,9.0814,-0.0948,0.0811,-0.2361,-1.984201570550436,-0.021594874560832977,3.381815195083618,-1.5452337265014648,0.09601843357086182,2.206094264984131,4.999990570336141,-0.0003014796820934862,0.20965920388698578,-1.531729523335592,0.0005514974473044276,0.04618552327156067,0.15958592295646667,0.0002653115661814809,0.05789069086313248,0.9304687976837158,-0.10532785207033157,-0.35399115085601807
207.0,190.0,0.2333,-0.1202,9.0814,-0.0948,0.0811,-0.2361,-1.9843617878355921,-0.0242856964468956,3.4230294227600098,-1.5447068214416504,0.10189268738031387,2.1924221515655518,4.9999787388141534,-0.00019130324653815478,0.1977636218070984,-1.5317772070514124,0.0002722918288782239,0.02363274246454239,0.15960977971553802,0.00022542409715242684,0.07492131739854813,0.9298452138900757,-0.10480925440788269,-0.38180336356163025
207.0,190.0,0.2333,-0.1202,9.0814,-0.0948,0.0811,-0.2361,-1.9845296345152796,-0.027170633897185326,3.378195285797119,-1.544071912765503,0.10613158345222473,2.170292854309082,4.999994742661276,-0.00020312189008109272,0.20123106241226196,-1.5317414442645472,9.43924969760701e-05,0.028629910200834274,0.15963773429393768,0.00019596563652157784,0.057307567447423935,0.9292984008789062,-0.10337911546230316,-0.29814401268959045
207.0,190.0,0.2333,-0.1202,9.0814,-0.0948,0.0811,-0.2361,-1.9847852192320765,-0.034399013966321945,3.294853925704956,-1.543124794960022,0.1156294047832489,2.248599052429199,4.99995447972373,-0.00023519384558312595,0.20465326309204102,-1.5317090193377894,6.640468927798793e-05,0.021007832139730453,0.15966182947158813,0.00016688861069269478,0.05710211396217346,0.9284147620201111,-0.09686670452356339,-0.331985205411911
207.0,190.0,0.2333,-0.1202,9.0814,-0.0948,0.0811,-0.2361,-1.9849888286986292,-0.03864613175392151,3.3401620388031006,-1.5424139499664307,0.12225154042243958,2.2290468215942383,4.999982821732321,-0.0004365925269667059,0.2024434506893158,-1.5317452589618128,0.0001077304914360866,0.025086916983127594,0.15964962542057037,0.00015017777332104743,0.04420360177755356,0.9278674125671387,-0.0927969291806221,-0.31626492738723755
207.0,190.0,0.2333,-0.1202,9.0814,-0.0948,0.0811,-0.2361,-1.98524870494985,-0.04334226995706558,3.3311567306518555,-1.5417274236679077,0.11857473105192184,2.2583436965942383,4.99998693445281,-0.00047378914314322174,0.19909939169883728,-1.5317495504962366,9.20415623113513e-05,0.028741955757141113,0.15966182947158813,0.0001365089847240597,0.05109080299735069,0.9272669553756714,-0.0877423882484436,-0.3433935344219208
207.0,190.0,0.2333,-0.1202,9.0814,-0.0948,0.0811,-0.2361,-1.9855481586852015,-0.04680829495191574,3.339226245880127,-1.540753722190857,0.11713960766792297,2.1759321689605713,5.000015127449789,-0.000377694028429687,0.2029171586036682,-1.5317252318011683,0.00011200847802683711,0.028870809823274612,0.1596376895904541,0.00014597372501157224,0.05345599353313446,0.9266082048416138,-0.08428452908992767,-0.29415303468704224
207.0,190.0,0.2333,-0.1202,9.0814,-0.0948,0.0811,-0.2361,-1.9858471355833949,-0.04715780168771744,3.301206350326538,-1.5401027202606201,0.12378345429897308,2.2324862480163574,4.999979156046667,-0.0003762187552638352,0.21255844831466675,-1.5317209402667444,0.00010166371066588908,0.02848540060222149,0.15962985157966614,0.00013511681754607707,0.05046272650361061,0.9261402487754822,-0.0863197073340416,-0.32725733518600464
207.0,190.0,0.2333,-0.1202,9.0814,-0.0948,0.0811,-0.2361,-1.9861146412291468,-0.04793263599276543,3.3129658699035645,-1.539343237876892,0.12689675390720367,2.2219583988189697,4.999946701317587,-0.0004167079459875822,0.2122008204460144,-1.531740967427389,9.134459833148867e-05,0.02426803484559059,0.1596778929233551,0.00013596893404610455,0.058762624859809875,0.9256371259689331,-0.09009908884763718,-0.3624423146247864
207.0,190.0,0.2333,-0.1202,9.0814,-0.0948,0.0811,-0.2361,-1.9864384136595667,-0.050526633858680725,3.29986572265625,-1.5386334657669067,0.13187339901924133,2.211883068084717,4.999950903445043,-0.0021825898438692093,0.1980331838130951,-1.5317090193377894,8.292702113976702e-05,0.04656042903661728,0.15961353480815887,0.00013705555466003716,0.05818672850728035,0.9251500964164734,-0.09615752846002579,-0.2930600643157959
207.0,190.0,0.2333,-0.1202,9.0814,-0.0948,0.0811,-0.2361,-1.986950536767477,-0.05957496911287308,3.329057216644287,-1.5375269651412964,0.14137300848960876,2.2945003509521484,4.999887007265844,-0.004334059543907642,0.19788147509098053,-1.5317495504962366,7.38530870876275e-05,0.03909638896584511,0.15964177250862122,0.00014405757247004658,0.05871962383389473,0.9243460893630981,-0.09385421127080917,-0.34348130226135254
207.0,190.0,0.2333,-0.1202,9.0814,-0.0948,0.0811,-0.2361,-1.9873014889159144,-0.06902602314949036,3.249380111694336,-1.5366638898849487,0.14422573149204254,2.2626118659973145,4.999866890698232,-0.005933593027293682,0.2008935660123825,-1.5317052046405237,6.825198215665296e-05,0.03807492554187775,0.1596536934375763,0.0001359362358925864,0.07296125590801239,0.923779308795929,-0.09143959730863571,-0.35213378071784973
207.0,184.0,-1.1641,0.7519,10.1904,-0.0473,0.1182,-0.2257,-1.9877454243102015,-0.07568063586950302,3.2558398246765137,-1.5358463525772095,0.14006905257701874,2.2484467029571533,4.999819296389379,-0.007385482080280781,0.19360339641571045,-1.5317452589618128,8.180712029570714e-05,0.03245115280151367,0.15968969464302063,8.226433419622481e-05,0.06309470534324646,0.9232712984085083,-0.09021087735891342,-0.3507866859436035
207.0,184.0,-1.1641,0.7519,10.1904,-0.0473,0.1182,-0.2257,-1.988295694390768,-0.07762119174003601,3.265982151031494,-1.5346826314926147,0.14734862744808197,2.271310567855835,4.999819326191702,-0.005618830677121878,0.1903688907623291,-1.5317533651935022,7.732021913398057e-05,0.01993372291326523,0.15964137017726898,8.80118677741848e-05,0.08410067856311798,0.9225281476974487,-0.08667031675577164,-0.33748549222946167
207.0,184.0,-1.1641,0.7519,10.1904,-0.0473,0.1182,-0.2257,-1.988807817498678,-0.07532893866300583,3.230121374130249,-1.5338313579559326,0.1537824422121048,2.2739193439483643,4.9997872588928125,-0.0032185816671699286,0.1908494532108307,-1.5317614714251917,7.263968291226774e-05,0.03396915644407272,0.15964922308921814,8.74862089403905e-05,0.0620795376598835,0.9220409393310547,-0.0805177390575409,-0.31423047184944153
207.0,184.0,-1.1641,0.7519,10.1904,-0.0473,0.1182,-0.2257,-1.989218374291891,-0.08041896671056747,3.224353313446045,-1.5328519344329834,0.15808217227458954,2.2865071296691895,4.9997795698936365,-0.002801723312586546,0.18823441863059998,-1.5317052046405237,6.849345663795248e-05,0.02642938680946827,0.15967369079589844,9.732909529702738e-05,0.06047558784484863,0.9216214418411255,-0.07277542352676392,-0.29484182596206665
207.0,184.0,-1.1641,0.7519,10.1904,-0.0473,0.1182,-0.2257,-1.989786287347311,-0.09089041501283646,3.2060706615448,-1.5318559408187866,0.1636180281639099,2.300945281982422,4.999711113959112,-0.0033125116024166346,0.20297779142856598,-1.5317814985858362,6.47950146230869e-05,0.0342174656689167,0.15970204770565033,0.00010628484596963972,0.06544619053602219,0.9211533069610596,-0.06740129739046097,-0.325076699256897
207.0,184.0,-1.1641,0.7519,10.1904,-0.0473,0.1182,-0.2257,-1.9905206165709437,-0.10767195373773575,3.223653554916382,-1.5305166244506836,0.16386398673057556,2.3061232566833496,4.999715196877279,-0.004317755810916424,0.18825951218605042,-1.5317328611956995,6.044344263500534e-05,0.03628719970583916,0.15966153144836426,0.0002695003058761358,0.07335691154003143,0.9206137657165527,-0.06821200996637344,-0.2510567605495453
207.0,184.0,-1.1641,0.7519,10.1904,-0.0473,0.1182,-0.2257,-1.9911920032896937,-0.11504840105772018,3.2389369010925293,-1.529477596282959,0.1717534065246582,2.3060402870178223,4.999719369202413,-0.0022952458821237087,0.19998855888843536,-1.5317090193377894,5.7544872106518596e-05,0.03807257115840912,0.15966154634952545,0.00023905803391244262,0.0736503005027771,0.9202184081077576,-0.0700090304017067,-0.30049702525138855
207.0,184.0,-1.1641,0.7519,10.1904,-0.0473,0.1182,-0.2257,-1.9918791256346644,-0.11745694279670715,3.2330739498138428,-1.528425931930542,0.1758040189743042,2.300001621246338,4.99969961026267,-0.0009016275289468467,0.17314213514328003,-1.5316851774798792,5.4911626648390666e-05,0.03533703833818436,0.15974225103855133,0.0002461755648255348,0.08225614577531815,0.9197746515274048,-0.06985758990049362,-0.30719199776649475
207.0,184.0,-1.1641,0.7519,10.1904,-0.0473,0.1182,-0.2257,-1.9928294620909632,-0.1196262463927269,3.2411227226257324,-1.5269386768341064,0.18515580892562866,2.324075698852539,4.999699222832479,-0.0007464078953489661,0.1741410195827484,-1.5317652861224573,5.175397382117808e-05,0.020092293620109558,0.1596413552761078,0.0002432905021123588,0.0735992044210434,0.9192630648612976,-0.06567041575908661,-0.2863002419471741
207.0,184.0,-1.1641,0.7519,10.1904,-0.0473,0.1182,-0.2257,-1.9935080013670863,-0.11842474341392517,3.192140579223633,-1.5257954597473145,0.1915138214826584,2.3251798152923584,4.99964718797759,-0.0004978887736797333,0.1844998300075531,-1.5317290464984339,4.961418017046526e-05,0.016570335254073143,0.15969796478748322,0.0002209254598710686,0.07692620158195496,0.9188553094863892,-0.06467496603727341,-0.3360300064086914
207.0,184.0,-1.1641,0.7519,10.1904,-0.0473,0.1182,-0.2257,-1.9943071804442347,-0.12469157576560974,3.2514235973358154,-1.524668574333191,0.1905776858329773,2.2794580459594727,4.999663519650259,-0.0015769187593832612,0.1922733187675476,-1.5317814985858362,4.764435288961977e-05,0.015896672382950783,0.15966559946537018,0.0002310892305104062,0.06987256556749344,0.9184601306915283,-0.06407327950000763,-0.271497905254364
207.0,184.0,-1.1641,0.7519,10.1904,-0.0473,0.1182,-0.2257,-1.9953776798644007,-0.14678874611854553,3.2797327041625977,-1.523097038269043,0.1922493427991867,2.2846875190734863,4.999652015953817,-0.004191953223198652,0.19016215205192566,-1.5316851774798792,4.524895848589949e-05,0.017992103472352028,0.1597217321395874,0.00021052255760878325,0.08633268624544144,0.9179406762123108,-0.06513549387454987,-0.3159342408180237
