ramyac6/ROB537/final_project/csv/good/good_195.csv
tof_0,tof_1,accelx,accely,accelz,gyrox,gyroy,gyroz,shoulder_lift_joint_position,shoulder_lift_joint_velocity,shoulder_lift_joint_effort,elbow_joint_position,elbow_joint_velocity,elbow_joint_effort,wrist_1_joint_position,wrist_1_joint_velocity,wrist_1_joint_effort,wrist_2_joint_position,wrist_2_joint_velocity,wrist_2_joint_effort,wrist_3_joint_position,wrist_3_joint_velocity,wrist_3_joint_effort,shoulder_pan_joint_position,shoulder_pan_joint_velocity,shoulder_pan_joint_effort
344.0,359.0,1.5691,-0.3667,9.4146,-0.0396,0.0279,-0.1164,-1.5620778811028977,0.0,2.1502737998962402,-1.7989814281463623,-0.0,2.161160469055176,4.678610010738037,0.0,0.3029835820198059,-1.5973661581622522,0.0,-0.006050614640116692,1.0119831562042236,0.0,-0.0022430114913731813,0.5612663626670837,0.0,0.009929063729941845
344.0,359.0,1.5691,-0.3667,9.4146,-0.0396,0.0279,-0.1164,-1.562086092574038,0.0,2.094327449798584,-1.798961877822876,-0.0,2.1568984985351562,4.67853753148999,0.0,0.2978132963180542,-1.5973861853228968,0.0,-0.029248610138893127,1.0119949579238892,0.0,0.004201922565698624,0.5612744688987732,0.0,0.011782873421907425
344.0,359.0,1.5691,-0.3667,9.4146,-0.0396,0.0279,-0.1164,-1.5621545578217884,0.0,2.1529324054718018,-1.7989420890808105,-0.0,2.134876251220703,4.678593798274658,0.0,0.2921888530254364,-1.597325627003805,0.0,0.0005590307991951704,1.012022852897644,0.0,-0.0034853299148380756,0.5613226294517517,0.0,-0.00529949925839901
344.0,359.0,1.5691,-0.3667,9.4146,-0.0396,0.0279,-0.1164,-1.5621062408066173,0.0,2.128746509552002,-1.798950433731079,-0.0,2.130343198776245,4.678593798274658,0.0,0.2930482029914856,-1.5973694960223597,0.0,-0.0038920098450034857,1.0119221210479736,0.0,-0.013131458312273026,0.5612865090370178,0.0,-0.022106435149908066
344.0,359.0,1.5691,-0.3667,9.4146,-0.0396,0.0279,-0.1164,-1.5620860767415543,0.0,2.079911470413208,-1.7990021705627441,-0.0,2.1548149585723877,4.678593798274658,0.0,0.2953191101551056,-1.597381893788473,0.0,-0.0021428794134408236,1.0120229721069336,0.0,-0.0003453866229392588,0.5613064765930176,0.0,-0.0010207402519881725
344.0,359.0,1.5691,-0.3667,9.4146,-0.0396,0.0279,-0.1164,-1.5621383472210546,0.0,2.11541485786438,-1.7989585399627686,-0.0,2.1587514877319336,4.678637667293213,0.0,0.28830915689468384,-1.597365681325094,0.0,-0.004846255760639906,1.0119788646697998,0.0,-0.009713258594274521,0.5612623691558838,0.0,0.028812158852815628
344.0,359.0,1.5691,-0.3667,9.4146,-0.0396,0.0279,-0.1164,-1.5621102967164298,0.0,2.147918939590454,-1.7989659309387207,-0.0,2.1393778324127197,4.678581400508545,0.0,0.29322904348373413,-1.5973499456988733,0.0,-0.0030468113254755735,1.011942744255066,0.0,-0.002645287197083235,0.5613024234771729,0.0,-0.022445019334554672
353.0,360.0,1.6504,-0.3284,9.2327,-0.0351,0.0246,-0.1222,-1.5621663772365828,0.0,2.1043453216552734,-1.7989814281463623,-0.0,2.160242795944214,4.6786181169697265,0.0,0.28740769624710083,-1.5973900000201624,0.0,-0.00585983507335186,1.0119625329971313,0.0,0.002136251423507929,0.5613424777984619,0.0,0.04001419618725777
353.0,360.0,1.6504,-0.3284,9.2327,-0.0351,0.0246,-0.1222,-1.5620738373002787,0.0,2.125676155090332,-1.7989977598190308,-0.0,2.150635242462158,4.678605719203613,0.0,0.2952069640159607,-1.5973456541644495,0.0,-0.0017634297255426645,1.0119667053222656,0.0,-0.007518438622355461,0.5613104701042175,0.0,0.010061493143439293
353.0,360.0,1.6504,-0.3284,9.2327,-0.0351,0.0246,-0.1222,-1.5621466080522914,0.0,2.1469473838806152,-1.7989544868469238,-0.0,2.1536521911621094,4.678601904506348,0.0,0.29744434356689453,-1.5973699728595179,0.0,-0.005357115529477596,1.0120352506637573,0.0,0.00609686691313982,0.5612543225288391,0.0,-0.05673832446336746
353.0,360.0,1.6504,-0.3284,9.2327,-0.0351,0.0246,-0.1222,-1.5621223908713837,0.0,2.1390514373779297,-1.7990058660507202,-0.0,2.155144214630127,4.678553743953369,0.0,0.2823125123977661,-1.5973737875567835,0.0,0.008283115923404694,1.0119341611862183,0.0,-0.01353965699672699,0.5612744092941284,0.0,-0.043861038982868195
353.0,360.0,1.6504,-0.3284,9.2327,-0.0351,0.0246,-0.1222,-1.5620980135029932,0.0,2.1125292778015137,-1.798961877822876,-0.0,2.1568052768707275,4.678597612971924,0.0,0.30858558416366577,-1.5973380247699183,0.0,0.007136116269975901,1.0119425058364868,0.0,0.00016824528574943542,0.5612344145774841,0.0,-0.0014821274671703577
353.0,360.0,1.6504,-0.3284,9.2327,-0.0351,0.0246,-0.1222,-1.5621141598424693,0.0,2.1127266883850098,-1.798953890800476,-0.0,2.157492160797119,4.678601904506348,0.0,0.2929557263851166,-1.5973661581622522,0.0,0.004783072043210268,1.0119788646697998,0.0,-0.008088933303952217,0.5613104701042175,0.0,-0.05184817686676979
353.0,360.0,1.6504,-0.3284,9.2327,-0.0351,0.0246,-0.1222,-1.5621342382258554,0.0,2.1195638179779053,-1.7989773750305176,-0.0,2.1403331756591797,4.678658648128174,0.0,0.2975129187107086,-1.597325627003805,0.0,-0.0008508372702635825,1.0119788646697998,0.0,-0.002667773514986038,0.5612983703613281,0.0,-0.027381867170333862
353.0,360.0,1.6504,-0.3284,9.2327,-0.0351,0.0246,-0.1222,-1.5621100042811413,0.0,2.1337506771087646,-1.798946499824524,-0.0,2.1582603454589844,4.678637667293213,0.0,0.2970013916492462,-1.5974023977862757,0.0,0.0005071400664746761,1.0119388103485107,0.0,-0.0006336086080409586,0.5612863302230835,0.0,-0.013890666887164116
353.0,360.0,1.6504,-0.3284,9.2327,-0.0351,0.0246,-0.1222,-1.5621383472210546,0.0,2.108643054962158,-1.7989853620529175,-0.0,2.15971040725708,4.6785618501850585,0.0,0.2998437285423279,-1.5973618666278284,0.0,-0.004569279029965401,1.012010931968689,0.0,-0.0021440063137561083,0.5612943768501282,0.0,-0.05141736567020416
353.0,360.0,1.6504,-0.3284,9.2327,-0.0351,0.0246,-0.1222,-1.562126026754715,0.0,2.156216621398926,-1.7989740371704102,-0.0,2.180020332336426,4.678585692042969,0.0,0.2896208167076111,-1.5973780790912073,0.0,-0.018007362261414528,1.0119428634643555,0.0,0.00752911577001214,0.5612784624099731,0.0,-0.010274438187479973
353.0,360.0,1.6504,-0.3284,9.2327,-0.0351,0.0246,-0.1222,-1.5620902099511405,0.0,2.1210429668426514,-1.7989977598190308,-0.0,2.126235246658325,4.678585692042969,0.0,0.29827773571014404,-1.5974062124835413,0.0,-0.00840058084577322,1.0118982791900635,0.0,-0.014684220775961876,0.5612704157829285,0.0,0.009080503135919571
353.0,360.0,1.6504,-0.3284,9.2327,-0.0351,0.0246,-0.1222,-1.5621142119965334,0.0,2.1813080310821533,-1.798946499824524,-0.0,2.1806414127349854,4.678549452418945,0.0,0.29664039611816406,-1.5973699728595179,0.0,-0.006502666510641575,1.0119909048080444,0.0,-0.023935388773679733,0.5612943768501282,0.0,0.015226375311613083
353.0,360.0,1.6504,-0.3284,9.2327,-0.0351,0.0246,-0.1222,-1.5621504041231056,0.0,2.114316940307617,-1.7989938259124756,-0.0,2.1861989498138428,4.678601904506348,0.0,0.2912151515483856,-1.597393814717428,0.0,0.0024765708949416876,1.0119749307632446,0.0,-0.0028311884962022305,0.5613225698471069,0.0,-0.020229581743478775
353.0,360.0,1.6504,-0.3284,9.2327,-0.0351,0.0246,-0.1222,-1.5621062082103272,0.0,2.0967493057250977,-1.7989176511764526,-0.0,2.1515207290649414,4.678589506740234,0.0,0.30440306663513184,-1.5973213354693812,0.0,-0.01991940848529339,1.0119867324829102,0.0,-0.0006925251218490303,0.5613024234771729,0.0,0.008781887590885162
336.0,360.0,1.602,-0.332,9.3673,-0.0331,0.0244,-0.1258,-1.5621144522777577,0.0,2.1186585426330566,-1.7989853620529175,-0.0,2.123171329498291,4.678573294276855,0.0,0.30053120851516724,-1.5973132292376917,0.0,-0.013264198787510395,1.0119057893753052,0.0,-0.0004136750940233469,0.5612663626670837,0.0,0.030541155487298965
336.0,360.0,1.602,-0.332,9.3673,-0.0331,0.0244,-0.1258,-1.562110013594367,0.0,2.0777387619018555,-1.7989977598190308,-0.0,2.148865222930908,4.678581400508545,0.0,0.30947235226631165,-1.5973742643939417,0.0,-0.006419851444661617,1.0120184421539307,0.0,-0.007742938585579395,0.5613185167312622,0.0,-0.01841149665415287
336.0,360.0,1.602,-0.332,9.3673,-0.0331,0.0244,-0.1258,-1.5621182483485718,0.0,2.1264939308166504,-1.7989659309387207,-0.0,2.1757283210754395,4.678621931666992,0.0,0.2951641082763672,-1.597353760396139,0.0,-0.0032928430009633303,1.012010931968689,0.0,-0.00316074350848794,0.5612943768501282,0.0,-0.011205105111002922
336.0,360.0,1.602,-0.332,9.3673,-0.0331,0.0244,-0.1258,-1.5620778811028977,0.0,2.103915214538574,-1.798950433731079,-0.0,2.1377854347229004,4.678585692042969,0.0,0.29413121938705444,-1.5973499456988733,0.0,-0.0007068552076816559,1.0119826793670654,0.0,-0.001344617921859026,0.5612704157829285,0.0,0.006330389529466629
336.0,360.0,1.602,-0.332,9.3673,-0.0331,0.0244,-0.1258,-1.5621663446402927,0.0,2.0990653038024902,-1.798961877822876,-0.0,2.1939284801483154,4.678593798274658,0.0,0.29722970724105835,-1.5973418394671839,0.0,-0.0035170488990843296,1.0119991302490234,0.0,-0.003405794035643339,0.5613024234771729,0.0,-0.004661700688302517
336.0,360.0,1.602,-0.332,9.3673,-0.0331,0.0244,-0.1258,-1.5621223741075774,0.0,2.1241202354431152,-1.7989659309387207,-0.0,2.1290664672851562,4.67856947957959,0.0,0.2850017547607422,-1.5973461310016077,0.0,-0.0012147902743890882,1.0119547843933105,0.0,0.0002034827193710953,0.5612903833389282,0.0,-0.035814955830574036
336.0,360.0,1.602,-0.332,9.3673,-0.0331,0.0244,-0.1258,-1.5621421926519652,0.0,2.0886220932006836,-1.7989699840545654,-0.0,2.153651475906372,4.6785613733479,0.0,0.2973809540271759,-1.5973661581622522,0.0,-0.007127789780497551,1.0119788646697998,0.0,-0.008482776582241058,0.5612943768501282,0.0,-0.012423424981534481
336.0,360.0,1.602,-0.332,9.3673,-0.0331,0.0244,-0.1258,-1.5621383472210546,0.0,2.1318767070770264,-1.798946499824524,-0.0,2.1606028079986572,4.678601904506348,0.0,0.3070245683193207,-1.5973737875567835,0.0,-0.005069968290627003,1.0119907855987549,0.0,-0.007570556364953518,0.5612984299659729,0.0,0.03508264571428299
336.0,360.0,1.602,-0.332,9.3673,-0.0331,0.0244,-0.1258,-1.5621141794002433,0.0,2.161444664001465,-1.798930048942566,-0.0,2.145230293273926,4.678581400508545,0.0,0.3071519434452057,-1.597393814717428,0.0,-0.008327074348926544,1.011962652206421,0.0,-0.008393888361752033,0.5613144636154175,0.0,-0.012167556211352348
336.0,360.0,1.602,-0.332,9.3673,-0.0331,0.0244,-0.1258,-1.5621182483485718,0.0,2.1035146713256836,-1.7989461421966553,-0.0,2.1341662406921387,4.678581400508545,0.0,0.2956680655479431,-1.597353760396139,0.0,-0.0034847029019147158,1.0119786262512207,0.0,-0.0002803401439450681,0.5612583756446838,0.0,0.02176629938185215
336.0,360.0,1.602,-0.332,9.3673,-0.0331,0.0244,-0.1258,-1.5621141794002433,0.0,2.1185035705566406,-1.7989773750305176,-0.0,2.1640865802764893,4.678577585811279,0.0,0.3005214333534241,-1.5973337332354944,0.0,0.0001232100185006857,1.0119547843933105,0.0,-0.003916721325367689,0.5612943768501282,0.0,0.003514952026307583
336.0,360.0,1.602,-0.332,9.3673,-0.0331,0.0244,-0.1258,-1.5621141794002433,0.0,2.083296775817871,-1.7989176511764526,-0.0,2.151142120361328,4.678573294276855,0.0,0.28752198815345764,-1.5973337332354944,0.0,-0.009991226717829704,1.0119507312774658,0.0,-0.0016596645582467318,0.5612784624099731,0.0,-0.01629025675356388
336.0,360.0,1.602,-0.332,9.3673,-0.0331,0.0244,-0.1258,-1.5621301525137206,0.0,2.1598777770996094,-1.7989740371704102,-0.0,2.1787285804748535,4.678633852595947,0.0,0.29809728264808655,-1.5973661581622522,0.0,-0.01799558848142624,1.012019157409668,0.0,-0.0023493864573538303,0.5613306164741516,0.0,-0.033414293080568314
336.0,360.0,1.602,-0.332,9.3673,-0.0331,0.0244,-0.1258,-1.5621100042811413,0.0,2.111865520477295,-1.7989857196807861,-0.0,2.143198013305664,4.6785933214375,0.0,0.3054313361644745,-1.597426716481344,0.0,0.009036041796207428,1.0119707584381104,0.0,0.0033519607968628407,0.5612822771072388,0.0,0.04102487117052078
347.0,362.0,1.593,-0.35,9.3147,-0.0426,0.0229,-0.124,-1.5621100210449477,0.0,2.168016195297241,-1.7989176511764526,-0.0,2.114212989807129,4.678601904506348,0.0,0.2925717830657959,-1.597414795552389,0.0,-0.0035964534617960453,1.0119788646697998,0.0,-0.00027647806564345956,0.5612943768501282,0.0,-0.004261070862412453
347.0,362.0,1.593,-0.35,9.3147,-0.0426,0.0229,-0.124,-1.5621219578063865,0.0,2.138798713684082,-1.7989699840545654,-0.0,2.1348090171813965,4.678589506740234,0.0,0.2931792140007019,-1.5973694960223597,0.0,-0.010536239482462406,1.0119786262512207,0.0,0.007097572088241577,0.561338484287262,0.0,-0.03220222890377045
347.0,362.0,1.593,-0.35,9.3147,-0.0426,0.0229,-0.124,-1.5621264598197122,0.0,2.1322240829467773,-1.798953890800476,-0.0,2.1629223823547363,4.6786181169697265,0.0,0.29491299390792847,-1.5973542372332972,0.0,-0.014496760442852974,1.011890172958374,0.0,-0.002717765746638179,0.5613424777984619,0.0,0.028914516791701317
347.0,362.0,1.593,-0.35,9.3147,-0.0426,0.0229,-0.124,-1.5621301525137206,0.0,2.1242809295654297,-1.798950433731079,-0.0,2.169797658920288,4.678581400508545,0.0,0.29150688648223877,-1.5973575750934046,0.0,-0.024319151416420937,1.0119867324829102,0.0,0.005203347187489271,0.5613344311714172,0.0,0.0356425978243351
347.0,362.0,1.593,-0.35,9.3147,-0.0426,0.0229,-0.124,-1.5621622756919642,0.0,2.1293630599975586,-1.7989256381988525,-0.0,2.1660563945770264,4.678589506740234,0.0,0.304348349571228,-1.5973694960223597,0.0,-0.007387818302959204,1.0119465589523315,0.0,-0.008435874246060848,0.5612983703613281,0.0,-0.05685332790017128
347.0,362.0,1.593,-0.35,9.3147,-0.0426,0.0229,-0.124,-1.5621219093776126,0.0,2.129112482070923,-1.7989215850830078,-0.0,2.1528220176696777,4.678573294276855,0.0,0.2936263978481293,-1.5973499456988733,0.0,-0.010979334823787212,1.0119831562042236,0.0,-0.002314599696546793,0.5612623691558838,0.0,0.00689103826880455
347.0,362.0,1.593,-0.35,9.3147,-0.0426,0.0229,-0.124,-1.5621182651123782,0.0,2.0965399742126465,-1.7989779710769653,-0.0,2.1907660961151123,4.6786181169697265,0.0,0.291593074798584,-1.5973694960223597,0.0,0.004651770461350679,1.0119266510009766,0.0,0.005941904149949551,0.5613185167312622,0.0,-0.023041047155857086
347.0,362.0,1.593,-0.35,9.3147,-0.0426,0.0229,-0.124,-1.5620902099511405,0.0,2.0880236625671387,-1.798961877822876,-0.0,2.204604387283325,4.678601904506348,0.0,0.2890687882900238,-1.5973661581622522,0.0,-0.008422180078923702,1.0119547843933105,0.0,-0.001818971592001617,0.5612984895706177,0.0,-0.019865091890096664
347.0,362.0,1.593,-0.35,9.3147,-0.0426,0.0229,-0.124,-1.5621141300401469,0.0,2.104184150695801,-1.7989699840545654,-0.0,2.145636558532715,4.678589506740234,0.0,0.28779444098472595,-1.5973418394671839,0.0,-0.013978706672787666,1.0119946002960205,0.0,0.008108453825116158,0.5613104701042175,0.0,-0.01578897051513195
347.0,362.0,1.593,-0.35,9.3147,-0.0426,0.0229,-0.124,-1.5621784583530207,0.0,2.128868341445923,-1.7989585399627686,-0.0,2.146862030029297,4.678593798274658,0.0,0.2898452877998352,-1.5973661581622522,0.0,-0.015446840785443783,1.0119826793670654,0.0,-0.008946207351982594,0.5612624287605286,0.0,-0.023965856060385704
347.0,362.0,1.593,-0.35,9.3147,-0.0426,0.0229,-0.124,-1.5621424329331894,0.0,2.1259243488311768,-1.7989699840545654,-0.0,2.161283493041992,4.678585692042969,0.0,0.2823225259780884,-1.5973861853228968,0.0,0.0022867643274366856,1.0119707584381104,0.0,-0.011540700681507587,0.5612623691558838,0.0,-0.01983710378408432
347.0,362.0,1.593,-0.35,9.3147,-0.0426,0.0229,-0.124,-1.5620898020318528,0.0,2.108534097671509,-1.7989256381988525,-0.0,2.168846607208252,4.678641958827637,0.0,0.2925295829772949,-1.5973575750934046,0.0,-0.017295749858021736,1.0119907855987549,0.0,0.0009714746847748756,0.5612865090370178,0.0,-0.021463263779878616
347.0,362.0,1.593,-0.35,9.3147,-0.0426,0.0229,-0.124,-1.5620979967391868,0.0,2.1360676288604736,-1.7989625930786133,-0.0,2.1535964012145996,4.678601904506348,0.0,0.29624107480049133,-1.5973499456988733,0.0,-0.000122373690828681,1.0119991302490234,0.0,-0.0008566358592361212,0.5612822771072388,0.0,-0.04081076383590698
347.0,362.0,1.593,-0.35,9.3147,-0.0426,0.0229,-0.124,-1.5620938961258908,0.0,2.101689338684082,-1.7990102767944336,-0.0,2.1848807334899902,4.67856947957959,0.0,0.2937615215778351,-1.5973456541644495,0.0,-0.00855676457285881,1.011974811553955,0.0,-0.006232801824808121,0.5613104701042175,0.0,-0.019223907962441444
339.0,353.0,1.7007,-0.3099,9.2459,-0.0394,0.027,-0.1269,-1.5621182483485718,0.0,2.12933611869812,-1.7990297079086304,-0.0,2.1575613021850586,4.678601904506348,0.0,0.30129072070121765,-1.597393814717428,0.0,0.001437345054000616,1.0119991302490234,0.0,-0.0038346226792782545,0.5613024234771729,0.0,0.049746304750442505
339.0,353.0,1.7007,-0.3099,9.2459,-0.0394,0.027,-0.1269,-1.562082040389516,0.0,2.1193456649780273,-1.7989773750305176,-0.0,2.157867670059204,4.678549452418945,0.0,0.2854996919631958,-1.5973618666278284,0.0,-0.007421123329550028,1.011951208114624,0.0,-0.008721609599888325,0.5612744688987732,0.0,0.012279078364372253
339.0,353.0,1.7007,-0.3099,9.2459,-0.0394,0.027,-0.1269,-1.562065840964653,0.0,2.140634536743164,-1.7989853620529175,-0.0,2.152613878250122,4.678557558650635,0.0,0.3027935028076172,-1.5973337332354944,0.0,-0.001174585078842938,1.0119707584381104,0.0,-0.010117297992110252,0.5612943768501282,0.0,-0.0014509111642837524
339.0,353.0,1.7007,-0.3099,9.2459,-0.0394,0.027,-0.1269,-1.5621260435185214,0.0,2.1492908000946045,-1.7989814281463623,-0.0,2.1739625930786133,4.6785618501850585,0.0,0.29541492462158203,-1.5973699728595179,0.0,-0.00041992805199697614,1.012022852897644,0.0,-0.003117495682090521,0.5613344311714172,0.0,0.010669815354049206
339.0,353.0,1.7007,-0.3099,9.2459,-0.0394,0.027,-0.1269,-1.5621462858146806,0.0,2.1363701820373535,-1.7989544868469238,-0.0,2.181924343109131,4.678629561061523,0.0,0.30056267976760864,-1.5973699728595179,0.0,-0.003563906764611602,1.0119707584381104,0.0,-0.0003638233756646514,0.5612505078315735,0.0,0.0043933275155723095
339.0,353.0,1.7007,-0.3099,9.2459,-0.0394,0.027,-0.1269,-1.5621141710183402,0.0,2.056810140609741,-1.798950433731079,-0.0,2.1494863033294678,4.678593798274658,0.0,0.2947719693183899,-1.5973456541644495,0.0,-0.002276198472827673,1.0119140148162842,0.0,-0.011433221399784088,0.5612664222717285,0.0,0.01170371100306511
339.0,353.0,1.7007,-0.3099,9.2459,-0.0394,0.027,-0.1269,-1.562170503926911,0.0,2.1214752197265625,-1.7989380359649658,-0.0,2.130828857421875,4.678557558650635,0.0,0.30720025300979614,-1.5973456541644495,0.0,-0.013287916779518127,1.01190984249115,0.0,-0.006676975172013044,0.5612784624099731,0.0,-0.009890426881611347
339.0,353.0,1.7007,-0.3099,9.2459,-0.0394,0.027,-0.1269,-1.5621301860413332,0.0,2.1153998374938965,-1.7989733219146729,-0.0,2.1494715213775635,4.678565188045166,0.0,0.28873854875564575,-1.5974062124835413,0.0,0.0050471690483391285,1.0119667053222656,0.0,-0.0009972447296604514,0.5612823367118835,0.0,-0.055672258138656616
339.0,353.0,1.7007,-0.3099,9.2459,-0.0394,0.027,-0.1269,-1.5621141635677596,0.0,2.1252784729003906,-1.7990256547927856,-0.0,2.1468498706817627,4.67853753148999,0.0,0.2841035723686218,-1.5973780790912073,0.0,-3.925943747162819e-05,1.0120187997817993,0.0,-0.00624487129971385,0.5612583756446838,0.0,0.008413320407271385
339.0,353.0,1.7007,-0.3099,9.2459,-0.0394,0.027,-0.1269,-1.5621342708221455,0.0,2.1134860515594482,-1.7989853620529175,-0.0,2.17470645904541,4.678589506740234,0.0,0.2907862067222595,-1.5973380247699183,0.0,-0.011824103072285652,1.0119867324829102,0.0,0.0009076924761757255,0.5613144636154175,0.0,-0.038954149931669235
339.0,353.0,1.7007,-0.3099,9.2459,-0.0394,0.027,-0.1269,-1.5621059688604255,0.0,2.135267496109009,-1.7989579439163208,-0.0,2.1800575256347656,4.67854563772168,0.0,0.28930461406707764,-1.5973661581622522,0.0,0.0039598457515239716,1.0119469165802002,0.0,-0.010002035647630692,0.5612744092941284,0.0,0.013194089755415916
339.0,353.0,1.7007,-0.3099,9.2459,-0.0394,0.027,-0.1269,-1.5621545662036915,0.0,2.0536279678344727,-1.7989814281463623,-0.0,2.1725337505340576,4.678626223201416,0.0,0.284380704164505,-1.5973575750934046,0.0,-0.003166179172694683,1.0119831562042236,0.0,-0.005124435760080814,0.5613384246826172,0.0,0.015628941357135773
339.0,353.0,1.7007,-0.3099,9.2459,-0.0394,0.027,-0.1269,-1.5621622924557705,0.0,2.1110997200012207,-1.7990102767944336,-0.0,2.139599323272705,4.67865435659375,0.0,0.2935791313648224,-1.5973618666278284,0.0,-0.006525257136672735,1.0119022130966187,0.0,-0.0013415248831734061,0.5613064765930176,0.0,-0.006679100915789604
339.0,353.0,1.7007,-0.3099,9.2459,-0.0394,0.027,-0.1269,-1.562138396581151,0.0,2.1566147804260254,-1.798930048942566,-0.0,2.1791815757751465,4.6786181169697265,0.0,0.30197206139564514,-1.5973900000201624,0.0,0.0035073161125183105,1.0119138956069946,0.0,-0.006002187263220549,0.5612503290176392,0.0,0.002054351381957531
345.0,362.0,1.4518,-0.3523,9.3805,-0.0325,0.0223,-0.1136,-1.5620980302667995,0.0,2.135538101196289,-1.798933982849121,-0.0,2.1676950454711914,4.678613825435303,0.0,0.30123475193977356,-1.5973418394671839,0.0,-0.011050799861550331,1.0119991302490234,0.0,-0.0001259567216038704,0.5612863302230835,0.0,-0.02273951843380928
345.0,362.0,1.4518,-0.3523,9.3805,-0.0325,0.0223,-0.1136,-1.5620939035764714,0.0,2.121548891067505,-1.7989544868469238,-0.0,2.1364035606384277,4.678589506740234,0.0,0.30904421210289,-1.5973661581622522,0.0,-0.01053320337086916,1.0119138956069946,0.0,-0.0017897454090416431,0.5612984299659729,0.0,0.022022146731615067
345.0,362.0,1.4518,-0.3523,9.3805,-0.0325,0.0223,-0.1136,-1.5621141961640497,0.0,2.1113698482513428,-1.79898202419281,-0.0,2.1386325359344482,4.678585692042969,0.0,0.28614094853401184,-1.5973456541644495,0.0,0.00032680388540029526,1.0120068788528442,0.0,-0.0033293284941464663,0.5612943768501282,0.0,-0.003488160204142332
345.0,362.0,1.4518,-0.3523,9.3805,-0.0325,0.0223,-0.1136,-1.5620902183330436,0.0,2.0928397178649902,-1.7990102767944336,-0.0,2.175262451171875,4.678597612971924,0.0,0.30473792552948,-1.597325627003805,0.0,-0.009884357452392578,1.0119667053222656,0.0,-0.005219949409365654,0.5612983703613281,0.0,-0.008922165259718895
345.0,362.0,1.4518,-0.3523,9.3805,-0.0325,0.0223,-0.1136,-1.5621223908713837,0.0,2.103372097015381,-1.7990102767944336,-0.0,2.1385910511016846,4.67854563772168,0.0,0.287209689617157,-1.5973380247699183,0.0,-0.0037995516322553158,1.0119907855987549,0.0,-0.0032314544077962637,0.5612983703613281,0.0,0.03950665891170502
345.0,362.0,1.4518,-0.3523,9.3805,-0.0325,0.0223,-0.1136,-1.5621503715268155,0.0,2.1396896839141846,-1.7989424467086792,-0.0,2.160830497741699,4.6785613733479,0.0,0.3004838824272156,-1.5973661581622522,0.0,-0.004903636872768402,1.0119667053222656,0.0,-0.005608196835964918,0.5613024234771729,0.0,-0.006091991439461708
345.0,362.0,1.4518,-0.3523,9.3805,-0.0325,0.0223,-0.1136,-1.562118280944862,0.0,2.087981939315796,-1.7990062236785889,-0.0,2.110804557800293,4.6785570818134765,0.0,0.29286327958106995,-1.5973008314715784,0.0,-0.014128330163657665,1.0118982791900635,0.0,-0.010925380513072014,0.5613185167312622,0.0,-0.026119139045476913
345.0,362.0,1.4518,-0.3523,9.3805,-0.0325,0.0223,-0.1136,-1.5621383472210546,0.0,2.0971391201019287,-1.7989692687988281,-0.0,2.149327278137207,4.678573294276855,0.0,0.3185005784034729,-1.5973737875567835,0.0,-0.005981792695820332,1.0119826793670654,0.0,-0.003986990544945002,0.5613144636154175,0.0,-0.03700428456068039
345.0,362.0,1.4518,-0.3523,9.3805,-0.0325,0.0223,-0.1136,-1.5621545056677242,0.0,2.17227840423584,-1.7990142107009888,-0.0,2.144033908843994,4.678589506740234,0.0,0.29661092162132263,-1.5973780790912073,0.0,-0.004619687795639038,1.0119986534118652,0.0,0.013672971166670322,0.5612623691558838,0.0,-0.015061178244650364
345.0,362.0,1.4518,-0.3523,9.3805,-0.0325,0.0223,-0.1136,-1.5621301525137206,0.0,2.103959798812866,-1.7989733219146729,-0.0,2.1840670108795166,4.6786462503620605,0.0,0.29656386375427246,-1.59733754793276,0.0,-0.004347832407802343,1.0119388103485107,0.0,-0.017726372927427292,0.5613305568695068,0.0,-0.06609467417001724
345.0,362.0,1.4518,-0.3523,9.3805,-0.0325,0.0223,-0.1136,-1.5620861251703282,0.0,2.1166634559631348,-1.7989935874938965,-0.0,2.110809803009033,4.678593798274658,0.0,0.29884791374206543,-1.5973456541644495,0.0,-0.0030278402846306562,1.011962890625,0.0,-0.0009559975005686283,0.5613185167312622,0.0,-0.04428528994321823
345.0,362.0,1.4518,-0.3523,9.3805,-0.0325,0.0223,-0.1136,-1.5621062249741335,0.0,2.0703186988830566,-1.798961877822876,-0.0,2.125311851501465,4.678629561061523,0.0,0.28958624601364136,-1.5973694960223597,0.0,0.0001358790323138237,1.0118860006332397,0.0,-0.004766836296766996,0.5612744688987732,0.0,0.029882725328207016
345.0,362.0,1.4518,-0.3523,9.3805,-0.0325,0.0223,-0.1136,-1.5621141710183402,0.0,2.12898588180542,-1.7989733219146729,-0.0,2.1498255729675293,4.678589506740234,0.0,0.3015069365501404,-1.5973981062518519,0.0,-0.0059227184392511845,1.0120024681091309,0.0,-0.004413804970681667,0.5613024234771729,0.0,-0.03270825743675232
345.0,362.0,1.4518,-0.3523,9.3805,-0.0325,0.0223,-0.1136,-1.5621300873211403,0.0,2.091468572616577,-1.7989699840545654,-0.0,2.1749391555786133,4.678630037898682,0.0,0.29107949137687683,-1.5973661581622522,0.0,0.002769511193037033,1.0119547843933105,0.0,0.0010398398153483868,0.5613144636154175,0.0,0.0022848539520055056
335.0,362.0,1.5547,-0.3434,9.3003,-0.0385,0.0261,-0.1234,-1.5620737963220854,0.0,2.088153839111328,-1.7990021705627441,-0.0,2.1472482681274414,4.678589506740234,0.0,0.30094996094703674,-1.5973699728595179,0.0,-0.006002658978104591,1.0119831562042236,0.0,0.0022183454129844904,0.5613225102424622,0.0,-0.017083434388041496
335.0,362.0,1.5547,-0.3434,9.3003,-0.0385,0.0261,-0.1234,-1.5621301525137206,0.0,2.126636505126953,-1.7989853620529175,-0.0,2.16074800491333,4.678621931666992,0.0,0.28737708926200867,-1.5973132292376917,0.0,-0.0040396577678620815,1.0119388103485107,0.0,0.01091565378010273,0.5612704157829285,0.0,-0.0047625284641981125
335.0,362.0,1.5547,-0.3434,9.3003,-0.0385,0.0261,-0.1234,-1.5621545466459175,0.0,2.1155049800872803,-1.7989699840545654,-0.0,2.167210102081299,4.678605719203613,0.0,0.3027004599571228,-1.597353760396139,0.0,-0.00979271624237299,1.0120068788528442,0.0,-0.004593116231262684,0.5613064765930176,0.0,-0.02542095258831978
335.0,362.0,1.5547,-0.3434,9.3003,-0.0385,0.0261,-0.1234,-1.5621142119965334,0.0,2.0878372192382812,-1.7989773750305176,-0.0,2.118778944015503,4.678581400508545,0.0,0.29979407787323,-1.5973742643939417,0.0,-0.006934538949280977,1.0119388103485107,0.0,0.0014968343311920762,0.5612943768501282,0.0,-0.03500733524560928
335.0,362.0,1.5547,-0.3434,9.3003,-0.0385,0.0261,-0.1234,-1.5621021150476118,0.0,2.1008431911468506,-1.798993468284607,-0.0,2.1538941860198975,4.678593798274658,0.0,0.2916645109653473,-1.5973132292376917,0.0,-0.006960650905966759,1.0119425058364868,0.0,-0.0033893086947500706,0.5612744688987732,0.0,-0.015559549443423748
335.0,362.0,1.5547,-0.3434,9.3003,-0.0385,0.0261,-0.1234,-1.5621219745701929,0.0,2.12841796875,-1.7990018129348755,-0.0,2.167658805847168,4.678601904506348,0.0,0.3002498149871826,-1.5973175207721155,0.0,0.001252626534551382,1.011962890625,0.0,-0.0005877587245777249,0.5612903833389282,0.0,0.05225887522101402
335.0,362.0,1.5547,-0.3434,9.3003,-0.0385,0.0261,-0.1234,-1.5621264924160023,0.0,2.111560821533203,-1.7989420890808105,-0.0,2.117711067199707,4.6785613733479,0.0,0.28860101103782654,-1.5973661581622522,0.0,-0.0013076507020741701,1.0120067596435547,0.0,0.010321490466594696,0.5612903833389282,0.0,0.05939085781574249
335.0,362.0,1.5547,-0.3434,9.3003,-0.0385,0.0261,-0.1234,-1.5620980135029932,0.0,2.1018223762512207,-1.798950433731079,-0.0,2.1384973526000977,4.67856947957959,0.0,0.2902056872844696,-1.5973456541644495,0.0,-0.0078028058633208275,1.0119425058364868,0.0,-0.002748256316408515,0.5613185167312622,0.0,-0.005828041583299637
335.0,362.0,1.5547,-0.3434,9.3003,-0.0385,0.0261,-0.1234,-1.5621062082103272,0.0,2.1034655570983887,-1.7989424467086792,-0.0,2.186022996902466,4.678589506740234,0.0,0.29637765884399414,-1.597353760396139,0.0,-0.002805778756737709,1.0120105743408203,0.0,0.0002446353901177645,0.5613225102424622,0.0,0.006631147116422653
335.0,362.0,1.5547,-0.3434,9.3003,-0.0385,0.0261,-0.1234,-1.5621020908332248,0.0,2.1305785179138184,-1.7989215850830078,-0.0,2.1530215740203857,4.678553743953369,0.0,0.29237401485443115,-1.597393814717428,0.0,-0.017185617238283157,1.011974811553955,0.0,0.008983219042420387,0.5612863302230835,0.0,-0.006750334054231644
335.0,362.0,1.5547,-0.3434,9.3003,-0.0385,0.0261,-0.1234,-1.5621582030183454,0.0,2.1662216186523438,-1.7989773750305176,-0.0,2.159285068511963,4.678605719203613,0.0,0.3095971941947937,-1.5973618666278284,0.0,0.00466303201392293,1.0119305849075317,0.0,0.004867236595600843,0.5613424181938171,0.0,-0.013986210338771343
335.0,362.0,1.5547,-0.3434,9.3003,-0.0385,0.0261,-0.1234,-1.5621664377725502,0.0,2.0768673419952393,-1.7989424467086792,-0.0,2.17329478263855,4.678661509151123,0.0,0.2934301495552063,-1.5973981062518519,0.0,0.011054039001464844,1.0119707584381104,0.0,0.009376319125294685,0.5613185167312622,0.0,0.004584979265928268
335.0,362.0,1.5547,-0.3434,9.3003,-0.0385,0.0261,-0.1234,-1.5620740691995998,0.0,2.137423038482666,-1.7989853620529175,-0.0,2.1844115257263184,4.678593798274658,0.0,0.29721254110336304,-1.5973857084857386,0.0,-0.009298136457800865,1.0119588375091553,0.0,-0.0013600268866866827,0.5613104701042175,0.0,-0.0167239960283041
335.0,362.0,1.5547,-0.3434,9.3003,-0.0385,0.0261,-0.1234,-1.5620942872813721,4.84993956106905e-09,2.0694289207458496,-1.7989659309387207,-0.0,2.141019344329834,4.678573294276855,0.0,0.2980870306491852,-1.597353760396139,0.0,-0.0018751153256744146,1.011986494064331,0.0,-0.00525905005633831,0.5613225102424622,0.0,-0.0018709572032094002
345.0,352.0,1.5464,-0.3374,9.3308,-0.0382,0.0264,-0.1242,-1.5621224067038675,1.1712034675968354e-14,2.0996501445770264,-1.7989461421966553,-0.0,2.163806438446045,4.678665800685547,0.0,0.30360305309295654,-1.5973694960223597,0.0,0.005812838673591614,1.0119826793670654,0.0,0.0013433382846415043,0.5612744688987732,0.0,0.004718350246548653
345.0,352.0,1.5464,-0.3374,9.3308,-0.0382,0.0264,-0.1242,-1.562162691993155,2.828318568661187e-20,2.125973701477051,-1.7989853620529175,-0.0,2.141069173812866,4.678633852595947,0.0,0.2904510200023651,-1.5973737875567835,0.0,-0.008571535348892212,1.012047529220581,0.0,-0.01472843810915947,0.5613303780555725,-2.3116626390873307e-09,0.01891709864139557
345.0,352.0,1.5464,-0.3374,9.3308,-0.0382,0.0264,-0.1242,-1.5620621072924514,6.830056325016673e-26,2.1258912086486816,-1.7989659309387207,-0.0,2.153146743774414,4.678638144130371,0.0,0.29932039976119995,-1.5973456541644495,0.0,-0.014497771859169006,1.0119752883911133,0.0,0.009997641667723656,0.5613303780555725,-5.582393932285516e-15,-0.0026197098195552826
345.0,352.0,1.5464,-0.3374,9.3308,-0.0382,0.0264,-0.1242,-1.5621062082103272,1.6493779712376409e-31,2.0809378623962402,-1.7989659309387207,-0.0,2.177245616912842,4.6786462503620605,0.0,0.2990807294845581,-1.597365681325094,0.0,-0.0018190660048276186,1.0119707584381104,0.0,0.0046458737924695015,0.5612984299659729,-1.3480824167892383e-20,-0.0007794871344231069
345.0,352.0,1.5464,-0.3374,9.3308,-0.0382,0.0264,-0.1242,-1.562077865270414,0.0002556488325353712,2.101773977279663,-1.7989975214004517,-0.0,2.1786203384399414,4.678642435664795,1.0787180870774904e-10,0.3004554510116577,-1.5973494688617151,2.5045434615122986e-09,-0.013721182942390442,1.0120033025741577,0.0,-0.01458705123513937,0.5613263845443726,-4.367615261196624e-28,-0.005038033705204725
345.0,352.0,1.5464,-0.3374,9.3308,-0.0382,0.0264,-0.1242,-1.5620942872813721,0.00021852795907761902,2.111557960510254,-1.7989424467086792,-0.0,2.162024974822998,4.678605719203613,3.002651499293095e-14,0.29314541816711426,-1.5973814169513147,6.971489358020833e-13,-0.014150976203382015,1.0119826793670654,0.0,0.0030943630263209343,0.5613183379173279,-1.0547276428031559e-33,-0.004447297193109989
345.0,352.0,1.5464,-0.3374,9.3308,-0.0382,0.0264,-0.1242,-1.5620258387974282,0.00021576363360509276,2.137399196624756,-1.7989461421966553,-0.0,2.1433515548706055,4.678625746364258,8.357991727913402e-18,0.30189836025238037,-1.5973900000201624,1.9405397766653933e-16,-0.011984804645180702,1.011954426765442,0.0,0.004717901349067688,0.5612783432006836,-2.5470435290091816e-39,0.00028008827939629555
345.0,352.0,1.5464,-0.3374,9.3308,-0.0382,0.0264,-0.1242,-1.5621184914237638,0.00020306262013036758,2.1135499477386475,-1.7989379167556763,-0.0,2.1295700073242188,4.678621454829834,2.3264777845480682e-21,0.2906211316585541,-1.597466293965475,5.401563393862003e-20,-0.00943297054618597,1.0120067596435547,0.0,0.0035623207222670317,0.5613303780555725,-5.605193857299268e-45,0.029450885951519012
345.0,352.0,1.5464,-0.3374,9.3308,-0.0382,0.0264,-0.1242,-1.5620904744467516,0.00018247657862957567,2.1300294399261475,-1.798925757408142,5.242962970442022e-07,2.1798691749572754,4.678642435664795,0.00031456610304303467,0.29683035612106323,-1.5973494688617151,1.5035450617519108e-23,-0.010585162788629532,1.0119991302490234,0.0,-0.0030165689531713724,0.5613145232200623,0.0,-0.02709810435771942
345.0,352.0,1.5464,-0.3374,9.3308,-0.0382,0.0264,-0.1242,-1.5621102277985592,0.0001875394518719986,2.15766978263855,-1.7989095449447632,1.698653086137751e-14,2.1262664794921875,4.678617640132568,0.00036296661710366607,0.2936323881149292,-1.5974305311786097,2.732618701620954e-28,-0.007318025920540094,1.011999249458313,0.0,0.006606339942663908,0.5613625645637512,0.0,0.02583882212638855
345.0,352.0,1.5464,-0.3374,9.3308,-0.0382,0.0264,-0.1242,-1.5621061914465209,0.0001721641019685194,2.106199264526367,-1.7989544868469238,4.102047141904711e-20,2.2149152755737305,4.678653879756592,0.0004922046209685504,0.2945939898490906,-1.5973694960223597,7.606344176515527e-32,-0.011914443224668503,1.0119831562042236,0.0,0.000679645745549351,0.5613303780555725,0.0,-0.023944305256009102
345.0,352.0,1.5464,-0.3374,9.3308,-0.0382,0.0264,-0.1242,-1.5620378202623506,0.00015911903756204993,2.080697774887085,-1.7989773750305176,9.905961196239065e-26,2.131894588470459,4.678629561061523,0.0003750039613805711,0.3020573556423187,-1.597353760396139,2.1172537320910264e-35,0.006671645678579807,1.0119788646697998,0.0,-0.014228514395654202,0.5612583756446838,0.0,-0.030190560966730118
345.0,352.0,1.5464,-0.3374,9.3308,-0.0382,0.0264,-0.1242,-1.562078153980412,6.749895692337304e-05,2.1426479816436768,-1.7989380359649658,2.3921730866211145e-31,2.1763198375701904,4.678657694453857,0.0002999568823724985,0.3008071780204773,-1.5973857084857386,5.893453563097062e-39,-0.004625182598829269,1.0119707584381104,0.0,0.006685975007712841,0.5613104701042175,0.0,0.019619282335042953
345.0,352.0,1.5464,-0.3374,9.3308,-0.0382,0.0264,-0.1242,-1.5620984046584745,6.067169306334108e-05,2.1383132934570312,-1.7990142107009888,5.776816373315109e-37,2.1437017917633057,4.678610010738037,0.0002499498659744859,0.3018961548805237,-1.5973857084857386,1.6409205017243608e-42,-0.005959261208772659,1.0119712352752686,0.0,0.012946326285600662,0.5613665580749512,0.0,0.04988936334848404
333.0,356.0,1.4501,0.4546,9.5713,0.0113,0.0066,-0.1556,-1.5621102967164298,5.346331454347819e-05,2.1087961196899414,-1.7989814281463623,1.8216880036222622e-44,2.189574956893921,4.678625746364258,0.00016379142471123487,0.30764687061309814,-1.5973694960223597,0.0,-0.006159813608974218,1.011951208114624,0.0,0.011825725436210632,0.5612863898277283,0.0,-0.011531420983374119
333.0,356.0,1.4501,0.4546,9.5713,0.0113,0.0066,-0.1556,-1.5620860683596511,2.4545099222450517e-05,2.0880069732666016,-1.7989424467086792,-0.0,2.1364645957946777,4.678601904506348,0.00014396752521861345,0.2871067523956299,-1.597393814717428,0.0,0.001026662066578865,1.0120269060134888,0.0,0.007713030092418194,0.5613223314285278,0.0,-0.04582584649324417
333.0,356.0,1.4501,0.4546,9.5713,0.0113,0.0066,-0.1556,-1.5621264430559059,2.2688318495056592e-05,2.1508655548095703,-1.7989897727966309,-0.0,2.11686635017395,4.678613825435303,9.75176808424294e-05,0.29911768436431885,-1.5973814169513147,0.0,-0.00840604305267334,1.0119507312774658,0.0,-0.005386550910770893,0.5613143444061279,0.0,-0.030393969267606735
333.0,356.0,1.4501,0.4546,9.5713,0.0113,0.0066,-0.1556,-1.5621182483485718,1.5996673430329622e-10,2.136384963989258,-1.7990102767944336,-0.0,2.2168045043945312,4.678605719203613,8.707886445336044e-05,0.2990492284297943,-1.5974023977862757,0.0,-0.009022385813295841,1.012022852897644,0.0,0.005101533606648445,0.5613263845443726,0.0,-0.0261932872235775
333.0,356.0,1.4501,0.4546,9.5713,0.0113,0.0066,-0.1556,-1.562065810231008,3.863008370098912e-16,2.1518869400024414,-1.7989938259124756,-0.0,2.2004778385162354,4.678614302272461,-6.368386675603688e-05,0.3095027804374695,-1.5973494688617151,0.0,-0.012167420238256454,1.0120387077331543,0.0,0.0075548733584582806,0.5613385438919067,0.0,0.038594283163547516
333.0,356.0,1.4501,0.4546,9.5713,0.0113,0.0066,-0.1556,-1.5621062082103272,1.2515654547983143e-23,2.0883474349975586,-1.7990143299102783,-0.0,2.167269468307495,4.678601904506348,-5.966950629954226e-05,0.2985488474369049,-1.5974181334124964,0.0,-0.018327876925468445,1.0119547843933105,0.0,-0.004067074041813612,0.5613785982131958,0.0,-0.03624271973967552
333.0,356.0,1.4501,0.4546,9.5713,0.0113,0.0066,-0.1556,-1.5621100536412378,3.02238322751221e-29,2.1079702377319336,-1.7989060878753662,-0.0,2.185513973236084,4.678589506740234,-5.427172436611727e-05,0.29004132747650146,-1.5973981062518519,0.0,-0.002485236618667841,1.01200270652771,0.0,-0.015414103865623474,0.5613544583320618,0.0,-0.005679886322468519
333.0,356.0,1.4501,0.4546,9.5713,0.0113,0.0066,-0.1556,-1.5620860683596511,7.29870067349698e-35,2.100905656814575,-1.7989897727966309,-0.0,2.1397087574005127,4.678585692042969,-4.976947820978239e-05,0.2894081473350525,-1.5973613897906702,0.0,-0.016449153423309326,1.0119222402572632,0.0,0.0022798082791268826,0.5613223314285278,8.582100417697802e-05,-0.0023820181377232075
333.0,356.0,1.4501,0.4546,9.5713,0.0113,0.0066,-0.1556,-1.5621182483485718,1.762553208427755e-40,2.125073194503784,-1.7989379167556763,-0.0,2.1638660430908203,4.678637667293213,-4.5957145630382e-05,0.3028510510921478,-1.5973981062518519,0.0,-0.0072695049457252026,1.0119707584381104,0.0,0.004650108050554991,0.5613585114479065,8.117737888824195e-05,-0.0285164937376976
333.0,356.0,1.4501,0.4546,9.5713,0.0113,0.0066,-0.1556,-1.562130169277527,0.0,2.116353750228882,-1.7989259958267212,-0.0,2.13379168510437,4.678629561061523,-4.268735574441962e-05,0.2814459800720215,-1.5973413626300257,0.0,0.0031872899271547794,1.0119547843933105,0.0,0.004595617298036814,0.5613344311714172,0.00011773970618378371,-0.01944376900792122
333.0,356.0,1.4501,0.4546,9.5713,0.0113,0.0066,-0.1556,-1.562097980906703,0.0,2.0649971961975098,-1.7989699840545654,-0.0,2.1371231079101562,4.678610010738037,-3.898867726093158e-05,0.3040280342102051,-1.597365681325094,0.0,-0.010474245063960552,1.0120584964752197,0.0,0.001158826518803835,0.561378538608551,0.0005875807837583125,-0.0027414746582508087
333.0,356.0,1.4501,0.4546,9.5713,0.0113,0.0066,-0.1556,-1.5621182399666687,0.0,2.1622824668884277,-1.7989814281463623,-0.0,2.124021291732788,4.678625746364258,-3.6609682865673676e-05,0.29904448986053467,-1.5974181334124964,0.0,-0.009926286526024342,1.0119786262512207,1.956716566553496e-09,0.007178852800279856,0.5613505244255066,0.0017099848482757807,0.01989872194826603
333.0,356.0,1.4501,0.4546,9.5713,0.0113,0.0066,-0.1556,-1.5621100368774314,0.0,2.0590622425079346,-1.7988981008529663,-0.0,2.1340525150299072,4.678609533900879,-3.450429721851833e-05,0.29512012004852295,-1.5973900000201624,0.0,-0.013303423300385475,1.0119786262512207,5.446593154788404e-13,-0.0040827118791639805,0.5614224672317505,0.0016580198425799608,0.027725154533982277
333.0,356.0,1.4501,0.4546,9.5713,0.0113,0.0066,-0.1556,-1.562146302578487,0.0,2.124238967895508,-1.798961877822876,-0.0,2.1555874347686768,4.678573294276855,-3.2627904147375375e-05,0.29530057311058044,-1.5974181334124964,0.0,-0.018657585605978966,1.0119905471801758,1.5160792583487486e-16,0.002840586705133319,0.5614306330680847,0.0020961270201951265,-0.0021241819486021996
348.0,357.0,1.6331,-0.5539,9.6048,-0.0423,0.0124,-0.1242,-1.562130201873817,0.0,2.1254372596740723,-1.7989740371704102,-0.0,2.1656672954559326,4.678633852595947,-3.0945102480473e-05,0.2825678586959839,-1.5973814169513147,0.0,-0.007650764659047127,1.0120184421539307,4.22006158150902e-20,-0.01258130930364132,0.5614223480224609,0.0024064434692263603,0.05158083140850067
348.0,357.0,1.6331,-0.5539,9.6048,-0.0423,0.0124,-0.1242,-1.5621623576483508,0.0,2.1205837726593018,-1.798993468284607,-0.0,2.136709451675415,4.6786462503620605,-2.8954011213500053e-05,0.30202722549438477,-1.5974143187152308,0.0,0.0036209288518875837,1.011938452720642,7.669752413046258e-25,-0.008028400130569935,0.5614421367645264,0.0031863239128142595,0.019680676981806755
348.0,357.0,1.6331,-0.5539,9.6048,-0.0423,0.0124,-0.1242,-1.5621705197593947,0.0,2.1175312995910645,-1.7989935874938965,-0.0,2.1558620929718018,4.678658648128174,-2.7621104891295545e-05,0.2902214825153351,-1.5974095503436487,0.0,-0.0008154439274221659,1.012062668800354,2.134903935967945e-28,0.0002646243665367365,0.5614781379699707,0.004738260991871357,-0.0074120014905929565
348.0,357.0,1.6331,-0.5539,9.6048,-0.0423,0.0124,-0.1242,-1.5621904984912653,0.0,2.0900399684906006,-1.7989544868469238,8.503526260028593e-06,2.1580898761749268,4.678593798274658,-2.640551610966213e-05,0.29349806904792786,-1.597405735646383,0.0,-0.020521851256489754,1.0119704008102417,5.94258414944501e-32,-0.004227920901030302,0.5615260601043701,0.006493865977972746,0.03476918488740921
348.0,357.0,1.6331,-0.5539,9.6048,-0.0423,0.0124,-0.1242,-1.5621702468818803,0.0,2.0897696018218994,-1.7989780902862549,1.1669977538986132e-05,2.1468160152435303,4.678621931666992,-2.529242556192912e-05,0.2870629131793976,-1.5974701086627405,0.0,-0.009317032992839813,1.0119786262512207,1.654140239332924e-35,-0.005021562799811363,0.5615620613098145,0.008661264553666115,0.07127459347248077
348.0,357.0,1.6331,-0.5539,9.6048,-0.0423,0.0124,-0.1242,-1.5621620652130623,-0.000320829771226272,2.0895214080810547,-1.799001693725586,1.1233036275370978e-05,2.195016384124756,4.678581400508545,-2.426936771371402e-05,0.2909674346446991,-1.597462002431051,0.0,-0.017225101590156555,1.011986494064331,4.604361270706126e-39,-1.2867152690887451e-05,0.5616220235824585,0.011559032835066319,0.07530157268047333
348.0,357.0,1.6331,-0.5539,9.6048,-0.0423,0.0124,-0.1242,-1.5621740727550169,-0.00034691984183155,2.0779693126678467,-1.7989853620529175,1.0698909136408474e-05,2.1771039962768555,4.678609533900879,-2.3027467250358313e-05,0.2796039581298828,-1.597405735646383,0.0,-0.020572155714035034,1.0120545625686646,8.407790785948902e-44,0.003828932996839285,0.5617497563362122,0.014552217908203602,0.08345790207386017
348.0,357.0,1.6331,-0.5539,9.6048,-0.0423,0.0124,-0.1242,-1.5621703623658796,-0.000502667622640729,2.101015567779541,-1.7990021705627441,1.0330500117561314e-05,2.154717445373535,4.678593798274658,-2.2176362108439207e-05,0.29171043634414673,-1.5974538961993616,-3.203791720807203e-07,-0.037175506353378296,1.0119786262512207,0.0,0.004958286881446838,0.5618702173233032,0.015886111184954643,0.020014042034745216
348.0,357.0,1.6331,-0.5539,9.6048,-0.0423,0.0124,-0.1242,-1.562169943270721,-0.0004524697724264115,2.0904698371887207,-1.7989062070846558,9.986615623347461e-06,2.1606292724609375,4.678625746364258,-3.207580084563233e-05,0.3009631037712097,-1.597405735646383,-8.917872690306083e-11,-0.01044587790966034,1.0121146440505981,0.0,-0.01642044447362423,0.5619983077049255,0.01780274324119091,0.08204329013824463
348.0,357.0,1.6331,-0.5539,9.6048,-0.0423,0.0124,-0.1242,-1.5622385919890185,-0.0004215551307424903,2.0985918045043945,-1.7989853620529175,2.0705967496148503e-10,2.1770899295806885,4.678642435664795,-3.097485387115739e-05,0.28726354241371155,-1.5974457899676722,-2.482322378519978e-14,-0.03143339976668358,1.0120265483856201,0.0,0.0061387671157717705,0.5620861649513245,0.02089678682386875,0.07711164653301239
348.0,357.0,1.6331,-0.5539,9.6048,-0.0423,0.0124,-0.1242,-1.5621861408329387,-0.0004012144636362791,2.0517048835754395,-1.7989215850830078,5.000247775274541e-16,2.1067006587982178,4.678597612971924,-2.994430724356789e-05,0.2773500084877014,-1.597410027180807,-6.909635698460615e-18,-0.007790165022015572,1.0119582414627075,0.0,0.0036911796778440475,0.562250018119812,0.022610243409872055,0.12966839969158173
348.0,357.0,1.6331,-0.5539,9.6048,-0.0423,0.0124,-0.1242,-1.5622182891568919,-0.0003192411095369607,2.066118001937866,-1.7989706993103027,1.6200167456476292e-23,2.151038885116577,4.678589506740234,-1.0736338484917951e-09,0.2768239378929138,-1.5974581877337855,-1.2557923450778876e-22,-0.01975492388010025,1.0120065212249756,0.0,0.0024441038258373737,0.5623852014541626,0.024584133177995682,0.12406876683235168
348.0,357.0,1.6331,-0.5539,9.6048,-0.0423,0.0124,-0.1242,-1.5622427466190238,-0.0003150424163322896,2.0473649501800537,-1.7989625930786133,3.912149621050745e-29,2.131056547164917,4.678650541896484,-2.9884994760982775e-13,0.2793126106262207,-1.5974095503436487,-3.495543743837785e-26,-0.021746976301074028,1.0119503736495972,0.0,0.0010277963010594249,0.5626181960105896,0.02627887763082981,0.10499037057161331
340.0,371.0,1.5595,-0.3565,9.3087,-0.0392,0.0159,-0.1083,-1.5622262352010985,-0.00035793628194369376,2.058814764022827,-1.7990097999572754,9.447380368880308e-35,2.1323986053466797,4.678613825435303,-8.318597416676686e-17,0.28641635179519653,-1.5973900000201624,-9.729974121078295e-30,-0.019222121685743332,1.0120065212249756,0.0,-0.008708847686648369,0.5627735257148743,0.02761661447584629,0.15915048122406006
340.0,371.0,1.5595,-0.3565,9.3087,-0.0392,0.0159,-0.1083,-1.5622625614381214,-0.00124660087749362,2.109758138656616,-1.7989420890808105,2.281426003797948e-40,2.141382932662964,4.678597612971924,-2.3155116637593452e-20,0.28382033109664917,-1.5974138418780726,-2.7083744327960674e-33,-0.025776365771889687,1.0120141506195068,0.0,-0.007803764659911394,0.5629294514656067,0.029749682173132896,0.12898573279380798
340.0,371.0,1.5595,-0.3565,9.3087,-0.0392,0.0159,-0.1083,-1.5622621171972533,-0.00219899439252913,2.010615348815918,-1.798933982849121,0.0,2.0920920372009277,4.67856947957959,-6.4453115066004705e-24,0.28254422545433044,-1.597405735646383,-7.538860181725112e-37,-0.012200584635138512,1.0119942426681519,0.0,0.00048708810936659575,0.5631535649299622,0.031723134219646454,0.16067205369472504
340.0,371.0,1.5595,-0.3565,9.3087,-0.0392,0.0159,-0.1083,-1.5622782877511163,-0.0037270409520715475,2.087984561920166,-1.7989544868469238,-0.0,2.143148422241211,4.678577108974121,-1.171403675620409e-28,0.2856513559818268,-1.5974457899676722,-1.3701896384168061e-41,-0.0183696486055851,1.0120586156845093,0.0,0.004681078717112541,0.5633772015571594,0.03489293158054352,0.14087973535060883
340.0,371.0,1.5595,-0.3565,9.3087,-0.0392,0.0159,-0.1083,-1.562329887678363,-0.005625685211271048,2.047671318054199,-1.798961877822876,-0.0,2.1487529277801514,4.678650541896484,-3.26064529890199e-32,0.2870907783508301,-1.5974577108966272,-4.203895392974451e-45,-0.022484993562102318,1.0120141506195068,0.0,8.155289106070995e-05,0.5636539459228516,0.03870750963687897,0.13885802030563354
340.0,371.0,1.5595,-0.3565,9.3087,-0.0392,0.0159,-0.1083,-1.562378261504211,-0.0065038749016821384,2.0589280128479004,-1.7989060878753662,-0.0,2.154672622680664,4.678621454829834,-9.076126479097938e-36,0.2750359773635864,-1.5974138418780726,-0.0,-0.019569948315620422,1.0120105743408203,0.0,-0.010062232613563538,0.5638532042503357,0.04363683611154556,0.13414232432842255
340.0,371.0,1.5595,-0.3565,9.3087,-0.0392,0.0159,-0.1083,-1.5624179237386961,-0.007121773436665535,2.0913166999816895,-1.7989544868469238,-0.0,2.151247024536133,4.678642435664795,-1.276307699527024e-07,0.28341469168663025,-1.5973976294146937,-0.0,-0.0214370284229517,1.012074589729309,0.0,0.008204851299524307,0.5641528964042664,0.04990103840827942,0.18882030248641968
340.0,371.0,1.5595,-0.3565,9.3087,-0.0392,0.0159,-0.1083,-1.56244159330193,-0.007958732545375824,2.060730218887329,-1.7989740371704102,-0.0,2.1291067600250244,4.678589506740234,-3.55264949403189e-11,0.2874091863632202,-1.5974414984332483,-0.0,-0.015508346259593964,1.0120141506195068,0.0,-0.0032958644442260265,0.5644686222076416,0.058218568563461304,0.1594175398349762
340.0,371.0,1.5595,-0.3565,9.3087,-0.0392,0.0159,-0.1083,-1.562534170491137,-0.008312835358083248,2.0300357341766357,-1.798961877822876,-0.0,2.1259946823120117,4.678630037898682,-6.456764867912449e-16,0.28878718614578247,-1.5974143187152308,-0.0,-0.014861969277262688,1.0120545625686646,0.0,-0.004675380419939756,0.5649399757385254,0.06640999019145966,0.1968400627374649
340.0,371.0,1.5595,-0.3565,9.3087,-0.0392,0.0159,-0.1083,-1.5626462216353794,-0.010096359066665173,2.003652334213257,-1.798961877822876,-0.0,2.2110846042633057,4.6786743837543945,-1.7972639137549507e-19,0.2867319881916046,-1.5974701086627405,-0.0,-0.0076577430590987206,1.0120184421539307,0.0,0.0036998088471591473,0.5654124617576599,0.07280375063419342,0.18528297543525696
340.0,371.0,1.5595,-0.3565,9.3087,-0.0392,0.0159,-0.1083,-1.5626614347896357,-0.011972952634096146,2.065546989440918,-1.7989938259124756,-0.0,2.157345771789551,4.6786534029194335,-5.0027504415319373e-23,0.29027658700942993,-1.5974581877337855,-0.0,-0.029196273535490036,1.012047290802002,0.0,0.010266752913594246,0.565900444984436,0.08124849945306778,0.24868249893188477
340.0,371.0,1.5595,-0.3565,9.3087,-0.0392,0.0159,-0.1083,-1.5627898036367078,-0.012647862546145916,2.072460174560547,-1.7989897727966309,-0.0,2.1527602672576904,4.678661985988281,-1.3925340936766667e-26,0.29616579413414,-1.5974143187152308,-0.0,-0.018474608659744263,1.0119786262512207,0.0,0.0024701510556042194,0.5663995742797852,0.0896209329366684,0.16915330290794373
340.0,371.0,1.5595,-0.3565,9.3087,-0.0392,0.0159,-0.1083,-1.5629222637838502,-0.012181398458778858,2.062661647796631,-1.798950433731079,-0.0,2.1415176391601562,4.678593798274658,-3.876169864265861e-30,0.2862289249897003,-1.5974538961993616,-0.0,-0.0283485297113657,1.0120584964752197,0.0,0.004433814901858568,0.5669388175010681,0.09947685152292252,0.16573992371559143
340.0,371.0,1.5595,-0.3565,9.3087,-0.0392,0.0159,-0.1083,-1.5629818702912708,-0.011067325249314308,2.055288553237915,-1.7989773750305176,-0.0,2.1397688388824463,4.6786743837543945,-7.044748549943138e-35,0.2882174551486969,-1.597462002431051,-0.0,-0.024470265954732895,1.0119982957839966,0.0,0.00013474165461957455,0.5678223371505737,0.10759520530700684,0.24253180623054504
340.0,361.0,1.2748,-0.5486,9.4768,-0.037,0.0249,-0.0819,-1.5630377924865861,-0.010686670430004597,2.0322484970092773,-1.7990182638168335,-0.0,2.1227622032165527,4.678677244777344,-1.960931668905905e-38,0.2902030944824219,-1.597462002431051,-0.0,-0.025618448853492737,1.0120024681091309,0.0,0.0006788705941289663,0.5685300230979919,0.11047223210334778,0.2156553864479065
340.0,361.0,1.2748,-0.5486,9.4768,-0.037,0.0249,-0.0819,-1.5630855991369863,-0.010233016684651375,2.0594069957733154,-1.7989853620529175,-0.0,2.167217254638672,4.678697748775146,-5.4580575185451625e-42,0.29532188177108765,-1.5973976294146937,-0.0,-0.015394068323075771,1.0119783878326416,0.0,-0.0044203950092196465,0.5691770315170288,0.1162017434835434,0.22511784732341766
340.0,361.0,1.2748,-0.5486,9.4768,-0.037,0.0249,-0.0819,-1.5631211700714012,-0.010572162456810474,2.0676450729370117,-1.7989420890808105,-0.0,2.160400390625,4.678633375758789,0.00010593938350211829,0.29083988070487976,-1.5974581877337855,-0.0,-0.011930598877370358,1.0120066404342651,0.0,0.007744761649519205,0.5699005126953125,0.11808472871780396,0.27407658100128174
340.0,361.0,1.2748,-0.5486,9.4768,-0.037,0.0249,-0.0819,-1.5632254502600809,-0.011284653097391129,2.038771152496338,-1.7989579439163208,-0.0,2.1399435997009277,4.678690119380615,0.0005142879672348499,0.2751750946044922,-1.5973652044879358,-0.0,-0.01747843250632286,1.01206636428833,0.0,0.011905400082468987,0.5706868767738342,0.123070128262043,0.2609507143497467
340.0,361.0,1.2748,-0.5486,9.4768,-0.037,0.0249,-0.0819,-1.56328920534391,-0.011908011510968208,2.0016732215881348,-1.7989740371704102,-0.0,2.1735153198242188,4.678717775935791,0.00044070620788261294,0.2875608503818512,-1.5974181334124964,-0.0,-0.014987102709710598,1.0120742321014404,0.0,0.011981701478362083,0.571675181388855,0.13160471618175507,0.2049574851989746
340.0,361.0,1.2748,-0.5486,9.4768,-0.037,0.0249,-0.0819,-1.563397364491113,-0.013204392977058887,2.0899932384490967,-1.7989500761032104,-0.0,2.135739803314209,4.678677244777344,0.00041668766061775386,0.2978082597255707,-1.5974624792682093,-0.0,-0.011925024911761284,1.0120582580566406,0.0,0.00794030912220478,0.5725294947624207,0.14189009368419647,0.27132105827331543
340.0,361.0,1.2748,-0.5486,9.4768,-0.037,0.0249,-0.0819,-1.5634973429008205,-0.013635960407555103,2.067633628845215,-1.7989585399627686,-0.0,2.16919207572937,4.678677244777344,0.0003482996253296733,0.2857711911201477,-1.5974138418780726,-2.622900683491025e-05,-0.014132912270724773,1.012038230895996,1.4544816906436608e-08,-0.00139564776327461,0.5734005570411682,0.14954257011413574,0.2518453598022461
340.0,361.0,1.2748,-0.5486,9.4768,-0.037,0.0249,-0.0819,-1.5635934381610532,-0.014801002107560635,2.0345866680145264,-1.7989659309387207,-0.0,2.10394287109375,4.678665323848389,0.0003390097990632057,0.29361268877983093,-1.5974181334124964,0.00023428432177752256,-0.020653637126088142,1.0120147466659546,4.048603466366707e-12,0.005104966461658478,0.5743919610977173,0.1592181771993637,0.324327290058136
340.0,361.0,1.2748,-0.5486,9.4768,-0.037,0.0249,-0.0819,-1.5636570786922057,-0.016282839700579643,2.042886972427368,-1.798958659172058,-0.0,2.113985538482666,4.678669138545654,0.0003321688564028591,0.29825568199157715,-1.5973976294146937,0.00013522674271371216,-0.006601604633033276,1.0120187997817993,1.1269436667621932e-15,0.02029840648174286,0.5753551125526428,0.16664457321166992,0.30285847187042236
340.0,361.0,1.2748,-0.5486,9.4768,-0.037,0.0249,-0.0819,-1.5638211036897083,-0.020024297758936882,2.0524611473083496,-1.7989505529403687,-0.0,2.1802549362182617,4.678697748775146,0.00031411179224960506,0.2762521207332611,-1.5974300543414515,8.439351222477853e-05,-0.026194803416728973,1.01206636428833,2.0481647895189326e-20,0.004785946570336819,0.5767074227333069,0.16988936066627502,0.34696710109710693
340.0,361.0,1.2748,-0.5486,9.4768,-0.037,0.0249,-0.0819,-1.5639327804422756,-0.022786078974604607,2.0324342250823975,-1.798946499824524,-0.0,2.1308541297912598,4.678745909328125,0.00040878631989471614,0.28158310055732727,-1.5974023977862757,6.585104711120948e-05,-0.011606572195887566,1.012038230895996,5.701141543812492e-24,0.0035689666401594877,0.5777718424797058,0.17684486508369446,0.3007202744483948
340.0,361.0,1.2748,-0.5486,9.4768,-0.037,0.0249,-0.0819,-1.5641087673469265,-0.026342231780290604,2.0618035793304443,-1.7988773584365845,-0.0,2.1547932624816895,4.6786696153828125,0.000679721066262573,0.287623792886734,-1.5974262396441858,5.3992302127880976e-05,-0.017877787351608276,1.012046217918396,1.5869335333660278e-27,0.019458899274468422,0.5788046717643738,0.18254077434539795,0.35299670696258545
340.0,361.0,1.2748,-0.5486,9.4768,-0.037,0.0249,-0.0819,-1.5642283719829102,-0.029684705659747124,2.0327086448669434,-1.7989424467086792,-0.0,2.177431583404541,4.678733511562012,0.001384618110023439,0.2802649736404419,-1.5974023977862757,4.575414277496748e-05,-0.0034253590274602175,1.012045979499817,4.417288188045423e-31,0.021373601630330086,0.5799833536148071,0.19423505663871765,0.3463013768196106
340.0,361.0,1.2748,-0.5486,9.4768,-0.037,0.0249,-0.0819,-1.5644565837322553,-0.03216985985636711,2.054237127304077,-1.7989461421966553,0.000203649076865986,2.126328945159912,4.678721113795898,0.0019289797637611628,0.2828793525695801,-1.597410027180807,3.969807585235685e-05,-0.007447976153343916,1.0120902061462402,1.229568353698185e-34,0.02088242396712303,0.5810999274253845,0.20273606479167938,0.35055017471313477
335.0,354.0,1.2802,-0.6419,9.4481,0.0,0.0148,0.009,-1.5647246458432456,-0.03598474711179733,2.04121732711792,-1.798933744430542,0.0010416920995339751,2.1548914909362793,4.67878977834668,0.00576151954010129,0.28484970331192017,-1.5974181334124964,3.3743333915481344e-05,-0.015209818258881569,1.0120586156845093,2.2346800883265366e-39,0.018135294318199158,0.5827428102493286,0.2054866999387741,0.37484508752822876
335.0,354.0,1.2802,-0.6419,9.4481,0.0,0.0148,0.009,-1.5649846422350784,-0.040353741496801376,1.9966177940368652,-1.7988778352737427,0.0021071929950267076,2.1714985370635986,4.678846045131348,0.009907285682857037,0.29534900188446045,-1.5973900000201624,3.0331273592310026e-05,-0.012130930088460445,1.012030839920044,6.221765181602188e-43,0.016259074211120605,0.5839235782623291,0.20513466000556946,0.34920889139175415
335.0,354.0,1.2802,-0.6419,9.4481,0.0,0.0148,0.009,-1.565224266876914,-0.046067625284194946,1.9681930541992188,-1.798866629600525,0.0021036816760897636,2.1351816654205322,4.678921862239502,0.010184177197515965,0.2794194519519806,-1.5974262396441858,2.7545889679458924e-05,-0.01714405044913292,1.0119942426681519,0.0,0.018069284036755562,0.5851458311080933,0.2150961011648178,0.3770052194595337
335.0,354.0,1.2802,-0.6419,9.4481,0.0,0.0148,0.009,-1.5654434336214145,-0.05343624949455261,1.9720780849456787,-1.7988985776901245,0.002421709941700101,2.1360673904418945,4.678937597865723,0.006089671980589628,0.2881847023963928,-1.5974143187152308,2.5229130187653936e-05,-0.009535294026136398,1.0120781660079956,0.0,0.025833874940872192,0.5864872932434082,0.2242467850446701,0.39793887734413147
335.0,354.0,1.2802,-0.6419,9.4481,0.0,0.0148,0.009,-1.565823770394065,-0.05927131325006485,2.004446506500244,-1.798810362815857,0.0030811806209385395,2.140542984008789,4.67900197088208,0.003066670149564743,0.30174899101257324,-1.597405735646383,2.3271924874279648e-05,-0.01199873723089695,1.0120341777801514,0.0,0.012470545247197151,0.5878295302391052,0.22510860860347748,0.4533049166202545
335.0,354.0,1.2802,-0.6419,9.4481,0.0,0.0148,0.009,-1.566323607960232,-0.06326088309288025,1.9988083839416504,-1.7987533807754517,0.0068423147313296795,2.128579616546631,4.679013891811035,0.001566371414810419,0.2804042100906372,-1.5973776022540491,4.213279316900298e-05,-0.015191696584224701,1.0120503902435303,0.0,0.007984482683241367,0.5895887613296509,0.2211674600839615,0.40232643485069275
335.0,354.0,1.2802,-0.6419,9.4481,0.0,0.0148,0.009,-1.5666786891273041,-0.06687631458044052,2.0293338298797607,-1.798810601234436,0.007948222570121288,2.1822729110717773,4.679005785579346,0.0012514276895672083,0.29829150438308716,-1.5973776022540491,3.941009344998747e-05,-0.015306102111935616,1.012054204940796,0.0,0.003359428606927395,0.5909835696220398,0.23307998478412628,0.39634037017822266
335.0,354.0,1.2802,-0.6419,9.4481,0.0,0.0148,0.009,-1.5671184452115376,-0.0702667161822319,2.040271759033203,-1.7987347841262817,0.007106132805347443,2.1498541831970215,4.678997202510498,0.001300649717450142,0.3002855181694031,-1.5973981062518519,3.698099317261949e-05,-0.012649605050683022,1.0120103359222412,0.0,0.03597307950258255,0.5922842025756836,0.2394898235797882,0.37084949016571045
335.0,354.0,1.2802,-0.6419,9.4481,0.0,0.0148,0.009,-1.5675746067757537,-0.06976505368947983,2.0367484092712402,-1.7987183332443237,0.0055786482989788055,2.149538516998291,4.679033442134521,0.001079876092262566,0.2954624891281128,-1.5974023977862757,3.4833941754186526e-05,-0.015179712325334549,1.011998176574707,0.0,0.018261507153511047,0.5937693119049072,0.23979994654655457,0.41632503271102905
335.0,354.0,1.2802,-0.6419,9.4481,0.0,0.0148,0.009,-1.5679980784519394,-0.06542077660560608,2.0285069942474365,-1.7986706495285034,0.003922963514924049,2.1361610889434814,4.6789771753498535,0.0008290672558359802,0.28856292366981506,-1.5974143187152308,4.924037057207897e-05,-0.010884109884500504,1.012022852897644,7.909849955467507e-05,0.02671944722533226,0.5952463150024414,0.23820997774600983,0.3524330258369446
335.0,354.0,1.2802,-0.6419,9.4481,0.0,0.0148,0.009,-1.568533632238843,-0.06383565068244934,2.0204997062683105,-1.7986705303192139,0.0016113738529384136,2.1369128227233887,4.6790496545979,0.000570991775020957,0.30154547095298767,-1.5973737875567835,4.601709952112287e-05,-0.005387761164456606,1.0119942426681519,7.568724686279893e-05,0.030049806460738182,0.5971670746803284,0.2475055605173111,0.4156133830547333
335.0,354.0,1.2802,-0.6419,9.4481,0.0,0.0148,0.009,-1.5689170440058042,-0.06706136465072632,2.036073684692383,-1.7986466884613037,0.0004803685878869146,2.1604857444763184,4.67902581273999,0.0004046065150760114,0.2954590916633606,-1.5973900000201624,4.37786293332465e-05,-0.011953987181186676,1.0120781660079956,7.205161091405898e-05,0.014654701575636864,0.5986402034759521,0.2540229260921478,0.399383544921875
335.0,354.0,1.2802,-0.6419,9.4481,0.0,0.0148,0.009,-1.569268488940299,-0.07042741030454636,2.032989025115967,-1.7986550331115723,-0.0006532835541293025,2.167792797088623,4.679037256831787,0.00033847035956569016,0.298157274723053,-1.5973981062518519,4.1747898649191484e-05,-0.009323086589574814,1.0120141506195068,6.874920654809102e-05,0.020276378840208054,0.6001909971237183,0.25302547216415405,0.3867035508155823
335.0,354.0,1.2802,-0.6419,9.4481,0.0,0.0148,0.009,-1.5697004490396758,-0.07378590106964111,2.0276596546173096,-1.7986550331115723,-0.0002023565029958263,2.1343250274658203,4.679017706508301,0.0002914766955655068,0.3125784993171692,-1.5974062124835413,5.308110485202633e-05,-0.01216563768684864,1.0120664834976196,6.57362979836762e-05,0.0251777283847332,0.6017847061157227,0.2525898516178131,0.43768310546875
340.0,363.0,0.8566,-0.1298,8.8522,0.0313,-0.013,0.0725,-1.5701159484782075,-0.07523655891418457,2.022432327270508,-1.7985897064208984,-1.138102612152636e-09,2.1730189323425293,4.679021521205566,0.00029001879738643765,0.29667842388153076,-1.5973337332354944,5.093813524581492e-05,-0.016770202666521072,1.0120861530303955,6.297643994912505e-05,0.02183491736650467,0.6033145189285278,0.25661802291870117,0.4483155608177185
340.0,363.0,0.8566,-0.1298,8.8522,0.0313,-0.013,0.0725,-1.5707275165371648,-0.0789889544248581,1.994464635848999,-1.7985907793045044,0.003170703537762165,2.1518702507019043,4.679061575526855,0.00017721143376547843,0.29493406414985657,-1.5973900000201624,4.8209625674644485e-05,-0.003830344183370471,1.0120903253555298,5.963788498775102e-05,0.025910142809152603,0.6054642200469971,0.2623491883277893,0.3934279680252075
340.0,363.0,0.8566,-0.1298,8.8522,0.0313,-0.013,0.0725,-1.5712553463377894,-0.08562104403972626,2.0050995349884033,-1.7986023426055908,0.0028035936411470175,2.1455650329589844,4.679053469295166,0.0002198424335801974,0.2932644784450531,-1.5974143187152308,4.6347609895747155e-05,-0.020193422213196754,1.012022852897644,5.7357501646038145e-05,0.021164026111364365,0.6070846915245056,0.26301783323287964,0.4093874394893646
340.0,363.0,0.8566,-0.1298,8.8522,0.0313,-0.013,0.0725,-1.5717345676817835,-0.08935655653476715,2.054385185241699,-1.7985700368881226,0.0027581395115703344,2.181830406188965,4.679037733668945,0.0006635147728957236,0.3107234239578247,-1.5973857084857386,4.462410288397223e-05,-0.01478193886578083,1.0120820999145508,5.52449855604209e-05,0.030183276161551476,0.608641505241394,0.26144498586654663,0.4283822178840637
340.0,363.0,0.8566,-0.1298,8.8522,0.0313,-0.013,0.0725,-1.5722695789732875,-0.09922873973846436,2.0302653312683105,-1.7985260486602783,0.002801106311380863,2.148829936981201,4.679021521205566,0.0006958698504604399,0.30375128984451294,-1.5973694960223597,4.3024152546422556e-05,-0.017721805721521378,1.0120269060134888,6.39360150671564e-05,0.02712196856737137,0.6102460622787476,0.2660779356956482,0.41575998067855835
340.0,363.0,0.8566,-0.1298,8.8522,0.0313,-0.013,0.0725,-1.5729505024352015,-0.10185902565717697,2.060978412628174,-1.7985057830810547,0.002796996384859085,2.1322989463806152,4.679062052364014,0.0008287811651825905,0.309278279542923,-1.5974257628070276,4.153499685344286e-05,-0.023639541119337082,1.012046217918396,6.174577720230445e-05,0.015088824555277824,0.6118674278259277,0.2743113040924072,0.4573950171470642
340.0,363.0,0.8566,-0.1298,8.8522,0.0313,-0.013,0.0725,-1.5737129650511683,-0.1006385013461113,1.998950719833374,-1.7985713481903076,0.002597162267193198,2.1520588397979736,4.679121657008789,0.0007181247929111123,0.3044591248035431,-1.5973900000201624,2.0124563889112324e-05,-0.027592869475483894,1.0120742321014404,3.897728674928658e-06,0.01093302946537733,0.6139686703681946,0.26805755496025085,0.4350120425224304
340.0,363.0,0.8566,-0.1298,8.8522,0.0313,-0.013,0.0725,-1.5742641888060511,-0.10228564590215683,2.0225775241851807,-1.7985550165176392,0.0021247875411063433,2.1487884521484375,4.679089708919189,0.0004895145539194345,0.3053432106971741,-1.5973981062518519,5.601746622119208e-09,-0.028311068192124367,1.0120391845703125,1.0849470211127255e-09,0.0222986601293087,0.6156734824180603,0.26481279730796814,0.3849150538444519
340.0,363.0,0.8566,-0.1298,8.8522,0.0313,-0.013,0.0725,-1.5749036274352015,-0.10201601684093475,1.997370719909668,-1.798511028289795,0.0013601670507341623,2.1366069316864014,4.6790453630634765,0.00036895053926855326,0.3058088421821594,-1.5973814169513147,1.5592669299832607e-12,-0.012030044570565224,1.0120419263839722,3.019990128198119e-13,0.012158794328570366,0.6171864867210388,0.27487578988075256,0.4630223214626312
340.0,363.0,0.8566,-0.1298,8.8522,0.0313,-0.013,0.0725,-1.5755673847594203,-0.10576694458723068,2.0232694149017334,-1.7985470294952393,0.0007135614869184792,2.138542652130127,4.679053469295166,0.00029607181204482913,0.3084326386451721,-1.5973618666278284,4.340277025163228e-16,-0.02084258943796158,1.0120701789855957,8.406252753572196e-17,0.02221442572772503,0.6188023686408997,0.27740493416786194,0.46012163162231445
340.0,363.0,0.8566,-0.1298,8.8522,0.0313,-0.013,0.0725,-1.576174875298971,-0.10974229872226715,2.0176899433135986,-1.7985509634017944,0.0003864190657623112,2.1658453941345215,4.679053469295166,0.00024724577087908983,0.2913432717323303,-1.5973218123065394,1.2081320520688183e-19,-0.016045941039919853,1.0119942426681519,2.3399113915663854e-20,0.025769244879484177,0.6204110383987427,0.268324077129364,0.44707322120666504
340.0,363.0,0.8566,-0.1298,8.8522,0.0313,-0.013,0.0725,-1.5770417652525843,-0.11756596714258194,2.0592925548553467,-1.7984788417816162,8.137781696859747e-05,2.1806631088256836,4.67905776082959,0.00020268643856979907,0.2973332405090332,-1.5973900000201624,2.195719782327143e-24,-0.025078732520341873,1.0120664834976196,4.252673212184347e-25,0.012875691056251526,0.6226531267166138,0.27406010031700134,0.4536014199256897
340.0,363.0,0.8566,-0.1298,8.8522,0.0313,-0.013,0.0725,-1.5777737102904261,-0.11700262129306793,1.9883887767791748,-1.7985150814056396,0.00018915190594270825,2.1692309379577637,4.6790496545979,0.00017855400801636279,0.308180034160614,-1.597393814717428,6.111866937622465e-28,-0.0115498136729002,1.0120501518249512,1.1837473217458514e-28,0.03283405303955078,0.6242179870605469,0.2797444760799408,0.44111013412475586
340.0,363.0,0.8566,-0.1298,8.8522,0.0313,-0.013,0.0725,-1.5784450970091761,-0.11146456748247147,2.029865264892578,-1.798514485359192,0.0008078758837655187,2.1222169399261475,4.679065867061279,0.0001831678964663297,0.3117668926715851,-1.597381893788473,1.5794717910466716e-05,-0.011109587736427784,1.0120422840118408,3.2950047049029377e-32,0.022076131775975227,0.6258907914161682,0.2711009383201599,0.44853585958480835
327.0,360.0,0.9386,0.0538,9.3434,0.0315,-0.0263,0.1206,-1.5790559254088343,-0.10978268086910248,2.064298152923584,-1.7984306812286377,0.0016015636501833797,2.1692628860473633,4.6790053087421875,0.00017305606161244214,0.3001255691051483,-1.5973175207721155,4.396517816473988e-09,-0.01618327386677265,1.0120103359222412,9.171766691163163e-36,0.018005525693297386,0.6275117993354797,0.26955750584602356,0.42327943444252014
327.0,360.0,0.9386,0.0538,9.3434,0.0315,-0.0263,0.1206,-1.579787393609518,-0.1141059622168541,2.05519962310791,-1.798511028289795,0.0012464469764381647,2.1692914962768555,4.6790453630634765,0.00015787806478329003,0.31217634677886963,-1.5973618666278284,1.2237869138204127e-12,-0.012353089638054371,1.012038230895996,2.552994843587169e-39,0.006304160691797733,0.6291448473930359,0.27248236536979675,0.38753950595855713
327.0,360.0,0.9386,0.0538,9.3434,0.0315,-0.0263,0.1206,-1.580702920953268,-0.11901573836803436,2.036351442337036,-1.798534631729126,1.693278863967862e-05,2.1364669799804688,4.6790172296711425,0.00011799728235928342,0.3136685788631439,-1.5973737875567835,2.2241726964332115e-17,-0.012480943463742733,1.0119980573654175,4.624284932271896e-44,0.012686768546700478,0.6312975883483887,0.2687315344810486,0.35964781045913696
327.0,360.0,0.9386,0.0538,9.3434,0.0315,-0.0263,0.1206,-1.5814186535277308,-0.1220606341958046,2.0350399017333984,-1.7985150814056396,4.089069707835513e-11,2.1574554443359375,4.679037733668945,0.0001092124730348587,0.3043452799320221,-1.5973456541644495,6.191066010292597e-21,-0.006556447129696608,1.012030839920044,0.0,0.009670852683484554,0.632935643196106,0.26385945081710815,0.36318835616111755
327.0,360.0,0.9386,0.0538,9.3434,0.0315,-0.0263,0.1206,-1.5820938549437464,-0.12010852247476578,2.0808658599853516,-1.7984707355499268,9.874623410562438e-17,2.1985645294189453,4.679077787990234,0.00010180025128647685,0.31645458936691284,-1.5973456541644495,1.7233060905005613e-24,-0.007795331068336964,1.0120941400527954,0.0,0.012685529887676239,0.6345765590667725,0.26113975048065186,0.36427080631256104
327.0,360.0,0.9386,0.0538,9.3434,0.0315,-0.0263,0.1206,-1.5828572712340296,-0.12284062057733536,2.033531665802002,-1.7984871864318848,2.3846055998835664e-22,2.1182219982147217,4.679037256831787,9.533021511742845e-05,0.31290560960769653,-1.5973418394671839,4.796885786501095e-28,-0.014247877523303032,1.0119463205337524,0.0,0.01092507317662239,0.6360756158828735,0.25919684767723083,0.32042551040649414
327.0,360.0,0.9386,0.0538,9.3434,0.0315,-0.0263,0.1206,-1.5835763416686,-0.12340076267719269,2.080303430557251,-1.7985025644302368,5.758541126332529e-28,2.1666266918182373,4.679013414973877,0.00010293336526956409,0.30745211243629456,-1.5973623434649866,1.3352309851117423e-31,-0.007069434970617294,1.0119822025299072,0.0,0.0028372546657919884,0.6376543045043945,0.25809380412101746,0.3476083278656006
327.0,360.0,0.9386,0.0538,9.3434,0.0315,-0.0263,0.1206,-1.5845548115172328,-0.1242668405175209,2.1346397399902344,-1.7984912395477295,0.0007566627464257181,2.1592965126037598,4.679029150600098,9.962270996766165e-05,0.3033832907676697,-1.5973580519305628,2.6173636797466315e-05,-0.004161478951573372,1.0119946002960205,0.0,0.005238417536020279,0.6396880149841309,0.24695220589637756,0.3178369402885437
327.0,360.0,0.9386,0.0538,9.3434,0.0315,-0.0263,0.1206,-1.585363050500387,-0.13244086503982544,2.0659332275390625,-1.7984668016433716,0.0012945346534252167,2.1388349533081055,4.6790172296711425,9.439809218747541e-05,0.3103187680244446,-1.5973299185382288,0.00015534817066509277,0.005688714794814587,1.0120742321014404,0.0,0.0017188475467264652,0.641221284866333,0.2437397539615631,0.30702269077301025
327.0,360.0,0.9386,0.0538,9.3434,0.0315,-0.0263,0.1206,-1.5861860714354457,-0.13941170275211334,2.022239923477173,-1.798422932624817,0.001649591256864369,2.1749634742736816,4.679033442134521,8.969420014182106e-05,0.31309396028518677,-1.5973418394671839,0.0001408015814376995,-0.01459747925400734,1.011962652206421,0.0,-0.011109414510428905,0.6426786184310913,0.24562914669513702,0.28790777921676636
327.0,360.0,0.9386,0.0538,9.3434,0.0315,-0.0263,0.1206,-1.587041517297262,-0.14671246707439423,2.0996360778808594,-1.7984510660171509,0.002473267260938883,2.161970615386963,4.679061575526855,0.00011296295269858092,0.31173431873321533,-1.597309414540426,0.00012871796207036823,-0.01543874479830265,1.0119982957839966,0.0,-0.00482085719704628,0.6440197229385376,0.23731081187725067,0.32300955057144165
327.0,360.0,0.9386,0.0538,9.3434,0.0315,-0.0263,0.1206,-1.5879370174803675,-0.14808893203735352,2.0710391998291016,-1.7984437942504883,0.004580513574182987,2.1454544067382812,4.679073973292969,0.0001139328014687635,0.3185368478298187,-1.5973699728595179,0.00013611328904516995,0.005810852162539959,1.0119946002960205,0.0,-0.006188741885125637,0.6454147100448608,0.22614331543445587,0.2844327390193939
327.0,360.0,0.9386,0.0538,9.3434,0.0315,-0.0263,0.1206,-1.589140077630514,-0.13958604633808136,2.102246046066284,-1.7982537746429443,0.009805943816900253,2.182559013366699,4.679122610683105,0.0022330754436552525,0.3154454529285431,-1.5973618666278284,0.00012869185593444854,-0.008397185243666172,1.0119463205337524,0.0,0.002591045806184411,0.6472145318984985,0.22024713456630707,0.22522303462028503
327.0,360.0,0.9386,0.0538,9.3434,0.0315,-0.0263,0.1206,-1.5900513134398402,-0.14359645545482635,2.0995044708251953,-1.7983318567276,0.009854511357843876,2.168497085571289,4.679069204921387,0.002014110330492258,0.3128308057785034,-1.5973742643939417,0.00012010479986201972,-0.016140222549438477,1.012030839920044,0.0,0.008852851577103138,0.6485277414321899,0.22484324872493744,0.26980939507484436
321.0,363.0,2.0118,-0.7298,8.9904,-0.0069,-0.1335,0.1445,-1.5909744701781214,-0.15799951553344727,2.0807366371154785,-1.7982312440872192,0.00783875584602356,2.1710100173950195,4.679069204921387,0.0010562714887782931,0.311178058385849,-1.5973456541644495,0.00011259175516897812,-0.013328704982995987,1.0120351314544678,0.0,-0.0015152834821492434,0.6498085260391235,0.21871539950370789,0.2304409146308899
321.0,363.0,2.0118,-0.7298,8.9904,-0.0069,-0.1335,0.1445,-1.59196199993276,-0.17350417375564575,2.036318778991699,-1.7981950044631958,0.007040129974484444,2.179990291595459,4.67910544454541,0.0008437376818619668,0.31774693727493286,-1.5973780790912073,0.00012360386608634144,-0.023470724001526833,1.011998176574707,0.0,-0.010233125649392605,0.6511043906211853,0.2041676789522171,0.26177293062210083
321.0,363.0,2.0118,-0.7298,8.9904,-0.0069,-0.1335,0.1445,-1.5933968029417933,-0.17606614530086517,2.1217644214630127,-1.7980592250823975,0.012080267071723938,2.1527469158172607,4.679117365474365,0.003834356786683202,0.320299357175827,-1.5973699728595179,0.00012991271796636283,-0.012367574498057365,1.0120141506195068,0.0,-0.00815894827246666,0.6526612639427185,0.19806087017059326,0.22102108597755432
321.0,363.0,2.0118,-0.7298,8.9904,-0.0069,-0.1335,0.1445,-1.594463964501852,-0.16530220210552216,2.076586961746216,-1.7980074882507324,0.016541576012969017,2.150881767272949,4.679182215327881,0.007899006828665733,0.3192400336265564,-1.597325627003805,0.0001242209254996851,-0.0042364876717329025,1.0119181871414185,0.0,-0.011247307062149048,0.6537960171699524,0.19589391350746155,0.2378399670124054
321.0,363.0,2.0118,-0.7298,8.9904,-0.0069,-0.1335,0.1445,-1.595494886437887,-0.16000568866729736,2.094019651412964,-1.7979474067687988,0.018522657454013824,2.182436227798462,4.679270430202148,0.009290177375078201,0.3223392367362976,-1.597285572682516,0.00011810750584118068,-0.012072062119841576,1.011986494064331,0.0,0.0030284777749329805,0.6549851894378662,0.19176702201366425,0.1995922029018402
321.0,363.0,2.0118,-0.7298,8.9904,-0.0069,-0.1335,0.1445,-1.5965706310667933,-0.16979502141475677,2.170578718185425,-1.797836422920227,0.01641589030623436,2.2190299034118652,4.679273291225098,0.006824643351137638,0.32897117733955383,-1.597342316304342,0.00011256783182034269,-0.00751953199505806,1.0120265483856201,0.0,-0.009089602157473564,0.6561504006385803,0.18518534302711487,0.23285087943077087
321.0,363.0,2.0118,-0.7298,8.9904,-0.0069,-0.1335,0.1445,-1.5976253948607386,-0.18946704268455505,2.059375524520874,-1.7977638244628906,0.013175660744309425,2.183673620223999,4.6792895036884765,0.0036196154542267323,0.31346505880355835,-1.597342316304342,0.00010752445814432576,-0.0076116714626550674,1.011978268623352,0.0,-0.00718024792149663,0.6572611927986145,0.1773565262556076,0.20541131496429443
321.0,363.0,2.0118,-0.7298,8.9904,-0.0069,-0.1335,0.1445,-1.5991608105101527,-0.1969359815120697,2.090813159942627,-1.7976115942001343,0.011911517009139061,2.168405294418335,4.679297609920166,0.0016311752842739224,0.31442269682884216,-1.59731370607485,0.00010007547098211944,-0.018512871116399765,1.012046217918396,0.0,-0.006173751316964626,0.6586123704910278,0.17626656591892242,0.2357882261276245
321.0,363.0,2.0118,-0.7298,8.9904,-0.0069,-0.1335,0.1445,-1.600259920159811,-0.18464188277721405,2.0510756969451904,-1.7975287437438965,0.013341255486011505,2.165369749069214,4.679329081172607,0.0036245679948478937,0.32000911235809326,-1.5973461310016077,9.381643758388236e-05,-0.0036682721693068743,1.0120024681091309,0.0,-0.008762613870203495,0.6596554517745972,0.16997802257537842,0.19308708608150482
321.0,363.0,2.0118,-0.7298,8.9904,-0.0069,-0.1335,0.1445,-1.6013428173460902,-0.17941178381443024,2.1208972930908203,-1.7974717617034912,0.01444221381098032,2.160187005996704,4.679393454188965,0.006169797852635384,0.31453949213027954,-1.5973060766803187,0.00010535527690080926,-0.015272058546543121,1.012047290802002,0.0,-0.0025548632256686687,0.6606885194778442,0.16551944613456726,0.19919511675834656
321.0,363.0,2.0118,-0.7298,8.9904,-0.0069,-0.1335,0.1445,-1.6024376354613246,-0.1794404536485672,2.1092288494110107,-1.7974085807800293,0.01514498796314001,2.2104008197784424,4.67939726888623,0.006049998104572296,0.31898871064186096,-1.597325627003805,0.0001000624688458629,-0.020029259845614433,1.011974573135376,0.0,-0.009976610541343689,0.6616711020469666,0.1635795384645462,0.2352360635995865
321.0,363.0,2.0118,-0.7298,8.9904,-0.0069,-0.1335,0.1445,-1.60357727626943,-0.18768705427646637,2.056466817855835,-1.7972882986068726,0.014783506281673908,2.162748098373413,4.679481669063232,0.0053309970535337925,0.3297024071216583,-1.597325627003805,9.479300206294283e-05,-0.02508470229804516,1.0120786428451538,0.0,-0.004842132795602083,0.6626280546188354,0.15907742083072662,0.1765522062778473
321.0,363.0,2.0118,-0.7298,8.9904,-0.0069,-0.1335,0.1445,-1.605067869225973,-0.19438529014587402,2.118988037109375,-1.7971972227096558,0.01382189616560936,2.1731393337249756,4.679570837611816,0.006178547628223896,0.3246748149394989,-1.5973299185382288,8.857371722115204e-05,-0.02196437120437622,1.0120224952697754,0.0,-0.0001973779289983213,0.6638786196708679,0.15471136569976807,0.1795496791601181
321.0,363.0,2.0118,-0.7298,8.9904,-0.0069,-0.1335,0.1445,-1.6062480411925257,-0.19285772740840912,2.1416568756103516,-1.797032356262207,0.014737448655068874,2.183192729949951,4.679586096400879,0.007670875173062086,0.32751867175102234,-1.5973380247699183,8.441983663942665e-05,-0.017205366864800453,1.011986494064331,0.0,-0.0027696352917701006,0.6648417711257935,0.14746221899986267,0.2218932807445526
336.0,358.0,1.4243,0.0574,9.6622,0.0005,-0.1246,0.0924,-1.6073986492552699,-0.19017326831817627,2.1070616245269775,-1.7970503568649292,0.014838043600320816,2.182753086090088,4.679613752956055,0.007350822910666466,0.31910401582717896,-1.5972817579852503,8.063759742071852e-05,-0.009111054241657257,1.0119743347167969,0.0,-0.004551436752080917,0.6657185554504395,0.14522460103034973,0.16226157546043396
336.0,358.0,1.4243,0.0574,9.6622,0.0005,-0.1246,0.0924,-1.6084896526732386,-0.19457192718982697,2.0612053871154785,-1.7968696355819702,0.01445299107581377,2.18733549118042,4.679661913509033,0.00664082495495677,0.32985764741897583,-1.5973742643939417,7.718030246905982e-05,-0.025669125840067863,1.0119662284851074,0.0,-0.0005112928338348866,0.6665523052215576,0.1452900767326355,0.17447692155838013
336.0,358.0,1.4243,0.0574,9.6622,0.0005,-0.1246,0.0924,-1.6096650562682093,-0.19705930352210999,2.1368017196655273,-1.7968417406082153,0.014430100098252296,2.1978631019592285,4.679717703456543,0.006572611629962921,0.31755125522613525,-1.5973213354693812,7.400676258839667e-05,-0.012295706197619438,1.0120142698287964,0.0,0.0040819887071847916,0.6674599051475525,0.14433541893959045,0.1697435826063156
336.0,358.0,1.4243,0.0574,9.6622,0.0005,-0.1246,0.0924,-1.6111403904356898,-0.19315753877162933,2.1555309295654297,-1.7966893911361694,0.013735152781009674,2.196857452392578,4.6797777849384765,0.008042044937610626,0.3252829909324646,-1.597342316304342,7.016060408204794e-05,-0.026607852429151535,1.01206636428833,0.0,-3.0065246392041445e-05,0.6685779094696045,0.1423177719116211,0.16856586933135986
336.0,358.0,1.4243,0.0574,9.6622,0.0005,-0.1246,0.0924,-1.6123115024962367,-0.19456924498081207,2.141669988632202,-1.7966783046722412,0.013475961051881313,2.1480753421783447,4.679838343257568,0.00803088303655386,0.3273713290691376,-1.597309414540426,7.873401045799255e-05,-0.02084720879793167,1.0119946002960205,0.0,0.0020912543404847383,0.6694754362106323,0.13644717633724213,0.12969206273555756
336.0,358.0,1.4243,0.0574,9.6622,0.0005,-0.1246,0.0924,-1.613429685632223,-0.19217152893543243,2.195219039916992,-1.796546459197998,0.011984353885054588,2.195291757583618,4.679828806514404,0.007135618012398481,0.3372979760169983,-1.5973055998431605,7.59344402467832e-05,-0.01607983373105526,1.0119822025299072,0.0,-0.0006099771126173437,0.6703025698661804,0.1289999634027481,0.17200656235218048
336.0,358.0,1.4243,0.0574,9.6622,0.0005,-0.1246,0.0924,-1.614577432672018,-0.19271892309188843,2.180952548980713,-1.7964893579483032,0.010211166925728321,2.171814203262329,4.679853125209473,0.006739909294992685,0.33727020025253296,-1.5973337332354944,4.516592525760643e-05,-0.02137645334005356,1.0119786262512207,0.0,-0.009909747168421745,0.6710071563720703,0.1291493922472,0.11641556024551392
336.0,358.0,1.4243,0.0574,9.6622,0.0005,-0.1246,0.0924,-1.6157285175719203,-0.19197271764278412,2.185431480407715,-1.7964345216751099,0.00903474260121584,2.177988052368164,4.679928942317627,0.007004374172538519,0.3359155058860779,-1.5973299185382288,3.837683470919728e-05,-0.014221824705600739,1.0120142698287964,0.0,-0.007206872571259737,0.6718320846557617,0.12798945605754852,0.19370287656784058
336.0,358.0,1.4243,0.0574,9.6622,0.0005,-0.1246,0.0924,-1.6172715626158656,-0.19836269319057465,2.1836376190185547,-1.7963535785675049,0.00736416457220912,2.173741102218628,4.680066748256348,0.008138421922922134,0.336031436920166,-1.5973499456988733,-0.00011224614718230441,-0.022531289607286453,1.011986494064331,0.0,-0.005868210457265377,0.6727737188339233,0.1280117779970169,0.1793540120124817
336.0,358.0,1.4243,0.0574,9.6622,0.0005,-0.1246,0.0924,-1.6184379063048304,-0.19925759732723236,2.1760830879211426,-1.7963351011276245,0.007513351738452911,2.151057243347168,4.680064840907715,0.01025551836937666,0.32413485646247864,-1.5973299185382288,-8.501784031977877e-05,-0.024814201518893242,1.0120350122451782,0.0,-0.005833853036165237,0.6736055016517639,0.13255131244659424,0.14309987425804138
336.0,358.0,1.4243,0.0574,9.6622,0.0005,-0.1246,0.0924,-1.6196619472899378,-0.19641026854515076,2.1613779067993164,-1.7962552309036255,0.009095302782952785,2.1789469718933105,4.680221243495605,0.013431993313133717,0.3373855948448181,-1.5973742643939417,-1.7105475080825272e-07,-0.0238798875361681,1.0120512247085571,0.0,-0.00771946320310235,0.6743620038032532,0.12763646245002747,0.1217568963766098
336.0,358.0,1.4243,0.0574,9.6622,0.0005,-0.1246,0.0924,-1.62086882213735,-0.1882202923297882,2.1764254570007324,-1.7962316274642944,0.010738487355411053,2.2020816802978516,4.68026511251416,0.017065303400158882,0.3438056707382202,-1.5973380247699183,-4.761372893180571e-11,-0.022546663880348206,1.0120744705200195,0.0,-0.017138753086328506,0.6750747561454773,0.12071654945611954,0.12402273714542389
336.0,358.0,1.4243,0.0574,9.6622,0.0005,-0.1246,0.0924,-1.6220318279662074,-0.19370412826538086,2.269198417663574,-1.7961922883987427,0.009478660300374031,2.198237419128418,4.680369539851807,0.01898404210805893,0.3479473292827606,-1.5973179976092737,-1.3253458457118152e-14,-0.016164004802703857,1.0120387077331543,0.0,0.00244122464209795,0.6757751703262329,0.11410738527774811,0.10432863980531693
336.0,358.0,1.4243,0.0574,9.6622,0.0005,-0.1246,0.0924,-1.6237060032286585,-0.21249128878116608,2.2025115489959717,-1.7960957288742065,0.005629252642393112,2.181208610534668,4.680537386531494,0.019925301894545555,0.34314650297164917,-1.5973213354693812,-2.4087504607422994e-19,-0.03097890317440033,1.0119867324829102,0.0,-0.013136585243046284,0.6766167283058167,0.10652629286050797,0.12802539765834808
344.0,367.0,1.9681,-0.5647,9.4223,-0.0458,-0.1472,0.0223,-1.6249691448607386,-0.21306884288787842,2.148709535598755,-1.796087622642517,0.005319277755916119,2.2115299701690674,4.680684729213379,0.025163965299725533,0.3510493040084839,-1.5973504225360315,-6.704844377835468e-23,-0.012422936968505383,1.0120065212249756,0.0,-0.005617020186036825,0.6772687435150146,0.10318581759929657,0.11490696668624878
344.0,367.0,1.9681,-0.5647,9.4223,-0.0458,-0.1472,0.0223,-1.6262604198851527,-0.1999959647655487,2.200197696685791,-1.79599928855896,0.008529562503099442,2.2539772987365723,4.68094174444165,0.03732329607009888,0.360515832901001,-1.597325627003805,-1.866318252599771e-26,-0.0056650880724191666,1.011986494064331,0.0,-0.0005612974055111408,0.6778852343559265,0.1017518937587738,0.11276352405548096
344.0,367.0,1.9681,-0.5647,9.4223,-0.0458,-0.1472,0.0223,-1.6275316677489222,-0.19747109711170197,2.290121078491211,-1.7959394454956055,0.010183263570070267,2.224602460861206,4.681173487300537,0.05514704808592796,0.3637734055519104,-1.5973504225360315,-5.1949654400127114e-30,-0.029980190098285675,1.0120186805725098,0.0,-0.008177102543413639,0.6785112619400024,0.10717654228210449,0.11526191979646683
344.0,367.0,1.9681,-0.5647,9.4223,-0.0458,-0.1472,0.0223,-1.6287065945067347,-0.20517154037952423,2.216742992401123,-1.795927882194519,0.007903584279119968,2.2670516967773438,4.681643171901367,0.07926446199417114,0.36875516176223755,-1.5973380247699183,-1.446037865412891e-33,-0.031983524560928345,1.011974573135376,0.0,-0.00013558194041252136,0.6790909767150879,0.10894814878702164,0.12483546137809753
344.0,367.0,1.9681,-0.5647,9.4223,-0.0458,-0.1472,0.0223,-1.6304213009276332,-0.2112204134464264,2.2339208126068115,-1.7958310842514038,0.0035999282263219357,2.236025810241699,4.682410879726074,0.11229941993951797,0.39167773723602295,-1.5973055998431605,-2.628102479457129e-38,-0.015639564022421837,1.0120108127593994,0.0,0.004468546248972416,0.679935097694397,0.10556404292583466,0.15214073657989502
344.0,367.0,1.9681,-0.5647,9.4223,-0.0458,-0.1472,0.0223,-1.6316844425597132,-0.20399445295333862,2.2244722843170166,-1.7958117723464966,0.002660734811797738,2.1856746673583984,4.6831371027180175,0.12596893310546875,0.3946956992149353,-1.5973017851458948,-7.314777983775545e-42,-0.03259348124265671,1.011983036994934,0.0,-0.00582917220890522,0.6805488467216492,0.10245657712221146,0.11709581315517426
344.0,367.0,1.9681,-0.5647,9.4223,-0.0458,-0.1472,0.0223,-1.6329037151732386,-0.20672056078910828,2.2109644412994385,-1.7958147525787354,0.003194084856659174,2.2090954780578613,4.683953447932861,0.12166181206703186,0.3995785117149353,-1.59731370607485,-1.401298464324817e-45,-0.019810037687420845,1.0119823217391968,0.0,0.0011377406772226095,0.6811814308166504,0.09292446821928024,0.0940384566783905
344.0,367.0,1.9681,-0.5647,9.4223,-0.0458,-0.1472,0.0223,-1.6341105900206507,-0.21364831924438477,2.267871856689453,-1.795767068862915,0.0026471076998859644,2.249372959136963,4.6846043306538085,0.10631632804870605,0.3896101415157318,-1.5973218123065394,-0.0,-0.021528223529458046,1.0120227336883545,0.0,0.004203117918223143,0.6816814541816711,0.0847390815615654,0.09788742661476135
344.0,367.0,1.9681,-0.5647,9.4223,-0.0458,-0.1472,0.0223,-1.635313173333639,-0.2126326560974121,2.236612558364868,-1.7957712411880493,0.0029021291993558407,2.2508039474487305,4.685360594386719,0.11819998174905777,0.3966664671897888,-1.5973337332354944,-0.0,-0.009345835074782372,1.011898159980774,0.0,-0.006778408773243427,0.6821901202201843,0.08061374723911285,0.08389882743358612
344.0,367.0,1.9681,-0.5647,9.4223,-0.0458,-0.1472,0.0223,-1.6369687519469203,-0.19863899052143097,2.2822394371032715,-1.7957518100738525,0.007009439170360565,2.2314865589141846,4.686443968410156,0.15303945541381836,0.4142714738845825,-1.597325627003805,-0.0,-0.021406054496765137,1.0119986534118652,0.0,0.011949230916798115,0.6827661991119385,0.07601133733987808,0.10571306943893433
344.0,367.0,1.9681,-0.5647,9.4223,-0.0458,-0.1472,0.0223,-1.6381274662413539,-0.19331665337085724,2.332095146179199,-1.7956396341323853,0.008646592497825623,2.1827750205993652,4.687436266536377,0.16245749592781067,0.4142003655433655,-1.5973823706256312,-0.0,-0.007571300491690636,1.0119181871414185,0.0,-0.0029567955061793327,0.6832103729248047,0.07906264811754227,0.0905548706650734
344.0,367.0,1.9681,-0.5647,9.4223,-0.0458,-0.1472,0.0223,-1.639334341088766,-0.19442257285118103,2.292860984802246,-1.7956438064575195,0.009219394065439701,2.2262001037597656,4.688480539912842,0.1788170337677002,0.4127553701400757,-1.5972893873797815,-0.0,-0.02263549715280533,1.012014627456665,5.120902812905115e-09,0.0010685075540095568,0.6837273836135864,0.08335012197494507,0.08063903450965881
344.0,367.0,1.9681,-0.5647,9.4223,-0.0458,-0.1472,0.0223,-1.6404816112914027,-0.19581198692321777,2.307002305984497,-1.795571208000183,0.009171536192297935,2.2408385276794434,4.689684076900146,0.2113480567932129,0.44468069076538086,-1.5972936789142054,-0.0,-0.028384264558553696,1.0119867324829102,1.4254221717899251e-12,-0.012095670215785503,0.6842280030250549,0.08560924977064133,0.15318138897418976
344.0,367.0,1.9681,-0.5647,9.4223,-0.0458,-0.1472,0.0223,-1.641644140283102,-0.19667211174964905,2.278350830078125,-1.7955070734024048,0.006282873451709747,2.237056255340576,4.690975828761719,0.2259378284215927,0.4519346058368683,-1.597285572682516,-0.0,-0.02680918760597706,1.0120031833648682,3.9677156713627325e-16,-0.006210734136402607,0.6847322583198547,0.08836673200130463,0.0719541385769844
369.0,436.0,3.277,-1.858,9.1412,-0.1127,-0.1458,-0.0203,-1.643167635003561,-0.1964995563030243,2.3258461952209473,-1.7954957485198975,0.006739565636962652,2.210035800933838,4.692877455348633,0.2543042302131653,0.45477306842803955,-1.5972936789142054,0.00019361436716280878,-0.019570710137486458,1.0119426250457764,7.211127935690015e-21,-0.021812885999679565,0.6854209303855896,0.08681962639093399,0.09054096043109894
369.0,436.0,3.277,-1.858,9.1412,-0.1127,-0.1458,-0.0203,-1.6442867718138636,-0.19359928369522095,2.3075172901153564,-1.7954678535461426,0.008828546851873398,2.283179521560669,4.694559736842773,0.2740783393383026,0.4645182490348816,-1.5972817579852503,0.00023524787684436888,-0.019207142293453217,1.0119062662124634,2.0072441487756073e-24,-0.006346802692860365,0.6859289407730103,0.08776473253965378,0.048421237617731094
369.0,436.0,3.277,-1.858,9.1412,-0.1127,-0.1458,-0.0203,-1.6454054317870082,-0.1879175752401352,2.302229404449463,-1.7953318357467651,0.010435350239276886,2.2817909717559814,4.696257753963135,0.2991318702697754,0.46787264943122864,-1.597253147755758,0.0005776241305284202,-0.015808753669261932,1.0119786262512207,5.587237842981548e-28,-0.009677434340119362,0.6864617466926575,0.08428790420293808,0.05674474313855171
369.0,436.0,3.277,-1.858,9.1412,-0.1127,-0.1458,-0.0203,-1.646553178826803,-0.18427406251430511,2.314969778060913,-1.7953935861587524,0.011976812966167927,2.2515063285827637,4.698203726405762,0.3189401924610138,0.4807787537574768,-1.5972979704486292,0.0005432860343717039,-0.00224517984315753,1.0119786262512207,1.5552281618017507e-31,0.003550503170117736,0.6869863867759705,0.07909448444843292,0.06131123751401901
369.0,436.0,3.277,-1.858,9.1412,-0.1127,-0.1458,-0.0203,-1.6476723156371058,-0.18472826480865479,2.3583381175994873,-1.795293927192688,0.01436321809887886,2.215273857116699,4.700103922481201,0.34817829728126526,0.5001105666160583,-1.5972822348224085,0.0004902662476524711,-0.012348330579698086,1.011974811553955,4.329034314349324e-35,-0.012917370535433292,0.6874471306800842,0.07064992934465408,0.057200267910957336
369.0,436.0,3.277,-1.858,9.1412,-0.1127,-0.1458,-0.0203,-1.6491466961302699,-0.19044671952724457,2.2912933826446533,-1.7951010465621948,0.016683978959918022,2.2445859909057617,4.703045530910156,0.3872963488101959,0.5212867259979248,-1.5972941557513636,0.0004058003833051771,-0.004683311562985182,1.0120350122451782,7.867800422721334e-40,0.0030352934263646603,0.6879510283470154,0.06103943660855293,0.015848416835069656
369.0,436.0,3.277,-1.858,9.1412,-0.1127,-0.1458,-0.0203,-1.6503383121886195,-0.19121220707893372,2.282820701599121,-1.7949483394622803,0.019435005262494087,2.300055503845215,4.705522699947021,0.409552663564682,0.5179676413536072,-1.5972698370562952,0.00031131721334531903,-0.0115127544850111,1.011962890625,2.1860256043467146e-43,-0.012610672041773796,0.6882466077804565,0.057562462985515594,0.09529868513345718
369.0,436.0,3.277,-1.858,9.1412,-0.1127,-0.1458,-0.0203,-1.6514488659300746,-0.18267111480236053,2.3249614238739014,-1.794812560081482,0.024226680397987366,2.263363838195801,4.708079977626465,0.44331854581832886,0.5428102612495422,-1.5972254912005823,0.000256299099419266,-0.016525037586688995,1.011934518814087,0.0,-0.006487866397947073,0.688631534576416,0.05578644573688507,0.049140363931655884
369.0,436.0,3.277,-1.858,9.1412,-0.1127,-0.1458,-0.0203,-1.6525355778136195,-0.17987549304962158,2.326205253601074,-1.7946884632110596,0.030529187992215157,2.275092601776123,4.71089427053418,0.4815525412559509,0.5655267238616943,-1.597253147755758,0.00026263424661010504,-0.010425777174532413,1.0119426250457764,0.0,-0.008132537826895714,0.6889557242393494,0.05711829662322998,0.011660641990602016
369.0,436.0,3.277,-1.858,9.1412,-0.1127,-0.1458,-0.0203,-1.6537300548949183,-0.18812817335128784,2.3192427158355713,-1.7944729328155518,0.035230740904808044,2.2977890968322754,4.713908205251702,0.5103815197944641,0.5710142254829407,-1.5972655455218714,0.00026480277301743627,-0.004423096776008606,1.0119707584381104,0.0,-0.007872605696320534,0.6892513632774353,0.05839284136891365,0.08520373702049255
369.0,436.0,3.277,-1.858,9.1412,-0.1127,-0.1458,-0.0203,-1.6552883587279261,-0.20034265518188477,2.341604471206665,-1.7941819429397583,0.04267512634396553,2.303112506866455,4.718284102133968,0.5487964153289795,0.5779861807823181,-1.5972822348224085,0.00025274668587371707,0.00234195776283741,1.0119143724441528,0.0,-0.014137158170342445,0.6896998882293701,0.05709868669509888,-0.016522035002708435
369.0,436.0,3.277,-1.858,9.1412,-0.1127,-0.1458,-0.0203,-1.6564990482726039,-0.19490115344524384,2.3232157230377197,-1.7938623428344727,0.051907625049352646,2.3434338569641113,4.721605707868495,0.5768895149230957,0.5734356045722961,-1.5972655455218714,0.00026655933470465243,-0.01979445479810238,1.0119428634643555,0.0,-0.018885552883148193,0.6900282502174377,0.05359412357211113,0.0276016928255558
369.0,436.0,3.277,-1.858,9.1412,-0.1127,-0.1458,-0.0203,-1.6577617130675257,-0.18988366425037384,2.3123373985290527,-1.793531060218811,0.0631333515048027,2.3059678077697754,4.725197469792821,0.6107118129730225,0.580400824546814,-1.5972860495196741,0.00031516049057245255,-0.018569394946098328,1.0119388103485107,0.0,-0.01742047816514969,0.6903525590896606,0.05075662583112717,0.011665299534797668
413.0,524.0,3.408,0.2554,9.7633,0.0675,0.1713,-0.0699,-1.6589004002013148,-0.1969234049320221,2.3053019046783447,-1.7931517362594604,0.07166239619255066,2.3433163166046143,4.728794204979696,0.6257578730583191,0.5487313270568848,-1.5972698370562952,0.0005436947685666382,0.00040287827141582966,1.01199471950531,0.0,-0.01240520365536213,0.690640926361084,0.051553282886743546,0.027018260210752487
413.0,524.0,3.408,0.2554,9.7633,0.0675,0.1713,-0.0699,-1.6601463756956996,-0.21063581109046936,2.3267288208007812,-1.792736291885376,0.0788746327161789,2.327514886856079,4.732622469752588,0.6443387269973755,0.5426136255264282,-1.5972016493426722,0.0006884234608151019,-0.0015211766585707664,1.0119504928588867,0.0,-0.01055468712002039,0.6909731030464172,0.05132165178656578,0.006972659844905138
413.0,524.0,3.408,0.2554,9.7633,0.0675,0.1713,-0.0699,-1.661889215508932,-0.2142636924982071,2.2644693851470947,-1.7920254468917847,0.08835078030824661,2.3043696880340576,4.737844197988071,0.6637524962425232,0.5481541752815247,-1.5971935431109827,0.001696069841273129,0.004317026119679213,1.01200270652771,0.0,-0.020470788702368736,0.6913734078407288,0.04942500218749046,-0.013621943071484566
413.0,524.0,3.408,0.2554,9.7633,0.0675,0.1713,-0.0699,-1.663124223748678,-0.20529140532016754,2.2241337299346924,-1.7914615869522095,0.09793965518474579,2.304863214492798,4.741838938533821,0.6782057285308838,0.5425547361373901,-1.5972417036639612,0.004815331660211086,0.007651926018297672,1.011959195137024,0.0,-0.013988490216434002,0.6916863322257996,0.045222412794828415,0.0034820442087948322
413.0,524.0,3.408,0.2554,9.7633,0.0675,0.1713,-0.0699,-1.6643387279906214,-0.2087595909833908,2.2183194160461426,-1.79084312915802,0.10095152258872986,2.3265767097473145,4.745929571777143,0.6897483468055725,0.5324109792709351,-1.5971453825580042,0.017920980229973793,0.0030607255175709724,1.0119142532348633,0.0,-0.027115924283862114,0.6919295787811279,0.04192202538251877,0.013167251832783222
413.0,524.0,3.408,0.2554,9.7633,0.0675,0.1713,-0.0699,-1.665633340875143,-0.21777363121509552,2.2290027141571045,-1.790259838104248,0.09803997725248337,2.2915165424346924,4.750085084676304,0.6856662034988403,0.51866215467453,-1.5970614592181605,0.02225595898926258,0.019466102123260498,1.0119826793670654,0.0,-0.014590410515666008,0.6922102570533752,0.04002196341753006,-0.06252237409353256
413.0,524.0,3.408,0.2554,9.7633,0.0675,0.1713,-0.0699,-1.6668955288329066,-0.22208790481090546,2.2071733474731445,-1.7896816730499268,0.09740006178617477,2.3258261680603027,4.754277541279354,0.6918833255767822,0.5292814373970032,-1.596949879323141,0.013128995895385742,0.013864627107977867,1.0119670629501343,0.0,-0.018001655116677284,0.6924425363540649,0.03806845843791962,-0.09020668268203735
413.0,524.0,3.408,0.2554,9.7633,0.0675,0.1713,-0.0699,-1.6685620747008265,-0.21559646725654602,2.1615347862243652,-1.7888543605804443,0.10686609894037247,2.28735613822937,4.759902778058805,0.7070531845092773,0.5165005922317505,-1.5968855063067835,0.0032536599319428205,0.003985361661761999,1.011974811553955,0.0,-0.008890603668987751,0.692698061466217,0.03403095155954361,-0.01803642325103283
413.0,524.0,3.408,0.2554,9.7633,0.0675,0.1713,-0.0699,-1.6698442898192347,-0.21450963616371155,2.213681221008301,-1.7881717681884766,0.11483065038919449,2.2939648628234863,4.76407669016675,0.7066059112548828,0.5148590803146362,-1.5969536940204065,6.705947726004524e-06,0.030734065920114517,1.011974811553955,0.0,-0.01693377085030079,0.6929344534873962,0.030631257221102715,-0.03840238228440285
413.0,524.0,3.408,0.2554,9.7633,0.0675,0.1713,-0.0699,-1.6712237797179164,-0.2203691303730011,2.1656439304351807,-1.7874399423599243,0.12152149528265,2.332705020904541,4.768290298968115,0.6989322900772095,0.5085936784744263,-1.5969417730914515,1.866625520818843e-09,0.026347052305936813,1.0119986534118652,0.0,-0.007810247130692005,0.693131148815155,0.030629493296146393,-0.03654659166932106
413.0,524.0,3.408,0.2554,9.7633,0.0675,0.1713,-0.0699,-1.672514101068014,-0.22347338497638702,2.2275190353393555,-1.7867470979690552,0.13121242821216583,2.329904079437256,4.772452658950844,0.6948239207267761,0.5086917877197266,-1.596961800252096,5.19582098700011e-13,0.029409091919660568,1.0119707584381104,0.0,-0.009983222931623459,0.6933150291442871,0.030206061899662018,-0.05996211618185043
413.0,524.0,3.408,0.2554,9.7633,0.0675,0.1713,-0.0699,-1.6738606892027796,-0.2321673035621643,2.1102020740509033,-1.7858951091766357,0.1350102722644806,2.357964515686035,4.776595327049055,0.6841990947723389,0.5037142038345337,-1.5969179312335413,1.4462760672589097e-16,0.03355710208415985,1.0120024681091309,-2.032233533100225e-05,-0.007647920865565538,0.6934670805931091,0.031373281031847,-0.029388070106506348
