ramyac6/ROB537/final_project/csv/good/good_55.csv
tof_0,tof_1,accelx,accely,accelz,gyrox,gyroy,gyroz,shoulder_lift_joint_position,shoulder_lift_joint_velocity,shoulder_lift_joint_effort,elbow_joint_position,elbow_joint_velocity,elbow_joint_effort,wrist_1_joint_position,wrist_1_joint_velocity,wrist_1_joint_effort,wrist_2_joint_position,wrist_2_joint_velocity,wrist_2_joint_effort,wrist_3_joint_position,wrist_3_joint_velocity,wrist_3_joint_effort,shoulder_pan_joint_position,shoulder_pan_joint_velocity,shoulder_pan_joint_effort
408.0,431.0,-1.535,0.1908,9.6299,-0.0338,0.0228,-0.1176,-2.08977808574819,0.0,4.084103584289551,-1.5293352603912354,-0.0,1.9878989458084106,5.218748318939962,-0.0,0.264054536819458,-1.6080740133868616,0.0,-0.0034623704850673676,0.051437877118587494,-0.0,-0.002751455642282963,1.5560290813446045,0.0,0.03962304815649986
408.0,431.0,-1.535,0.1908,9.6299,-0.0338,0.0228,-0.1176,-2.0898548565306605,0.0,4.097611904144287,-1.5293552875518799,-0.0,1.9498989582061768,5.218760657101431,-0.0,0.27089443802833557,-1.6080659071551722,0.0,0.00836208276450634,0.05140583962202072,-0.0,-0.004370194859802723,1.5560212135314941,0.0,-0.022018354386091232
408.0,431.0,-1.535,0.1908,9.6299,-0.0338,0.0228,-0.1176,-2.0898381672301234,0.0,4.086981773376465,-1.529358983039856,-0.0,1.9623064994812012,5.2187238214309595,-0.0,0.2543143033981323,-1.6080053488360804,0.0,0.0074032447300851345,0.05136946216225624,-0.0,-0.005424201022833586,1.5560171604156494,0.0,0.006005844101309776
408.0,431.0,-1.535,0.1908,9.6299,-0.0338,0.0228,-0.1176,-2.089830537835592,0.0,4.053447246551514,-1.5293549299240112,-0.0,1.9494636058807373,5.218748318939962,-0.0,0.2627911865711212,-1.6079891363727015,0.0,-0.00945056788623333,0.0513857863843441,-0.0,0.0003640748327597976,1.5560370683670044,0.0,0.07547258585691452
408.0,431.0,-1.535,0.1908,9.6299,-0.0338,0.0228,-0.1176,-2.0898386440672816,0.0,4.085911273956299,-1.5293594598770142,-0.0,1.9375355243682861,5.218736159592428,-0.0,0.26049691438674927,-1.6080215612994593,0.0,0.006010174285620451,0.05138160288333893,-0.0,0.0019306644098833203,1.5560489892959595,0.0,0.015207911841571331
408.0,431.0,-1.535,0.1908,9.6299,-0.0338,0.0228,-0.1176,-2.0897823772826136,0.0,4.0822529792785645,-1.5293512344360352,-0.0,1.9550496339797974,5.218760239868917,-0.0,0.2596692740917206,-1.6080458799945276,0.0,0.015627475455403328,0.05136946216225624,-0.0,0.0026429251302033663,1.5560369491577148,0.0,0.025882776826620102
408.0,431.0,-1.535,0.1908,9.6299,-0.0338,0.0228,-0.1176,-2.089790006677145,0.0,4.067324638366699,-1.5293512344360352,-0.0,1.9243355989456177,5.218776213913717,-0.0,0.2513442635536194,-1.6080783049212855,0.0,-0.0001901029609143734,0.05137751251459122,-0.0,0.005127592943608761,1.5560250282287598,0.0,-0.008049683645367622
407.0,453.0,-1.5954,0.1286,9.661,-0.0344,0.027,-0.117,-2.089790006677145,0.0,4.118841171264648,-1.5293430089950562,-0.0,1.9527711868286133,5.2187766311462305,-0.0,0.2621835172176361,-1.6080616156207483,0.0,0.022275501862168312,0.05139350891113281,-0.0,0.0020039004739373922,1.5560412406921387,0.0,0.027227334678173065
407.0,453.0,-1.5954,0.1286,9.661,-0.0344,0.027,-0.117,-2.089757581750387,0.0,4.13726282119751,-1.529314637184143,-0.0,1.9694225788116455,5.218727934151449,-0.0,0.27181127667427063,-1.6080496946917933,0.0,0.001516697695478797,0.051397599279880524,-0.0,-0.0036589843221008778,1.5560050010681152,0.0,0.016404643654823303
407.0,453.0,-1.5954,0.1286,9.661,-0.0344,0.027,-0.117,-2.08977808574819,0.0,4.103288173675537,-1.5293471813201904,-0.0,1.9769418239593506,5.2187238214309595,-0.0,0.2571493983268738,-1.6080659071551722,0.0,0.005478690378367901,0.051425956189632416,-0.0,0.0025790890213102102,1.5560290813446045,0.0,0.013246607966721058
407.0,453.0,-1.5954,0.1286,9.661,-0.0344,0.027,-0.117,-2.0897418461241664,0.0,4.112905979156494,-1.5293594598770142,-0.0,1.9967904090881348,5.218740153103628,-0.0,0.26439833641052246,-1.6080296675311487,0.0,-0.002986219013109803,0.051389846950769424,-0.0,-0.003341392381116748,1.5560171604156494,0.0,-0.01031588390469551
407.0,453.0,-1.5954,0.1286,9.661,-0.0344,0.027,-0.117,-2.0897656879820765,0.0,4.06366491317749,-1.529358983039856,-0.0,2.0152204036712646,5.218720185547628,-0.0,0.2637383043766022,-1.6080334822284144,0.0,0.012900497764348984,0.05135707929730415,-0.0,-0.0025028132367879152,1.5560250282287598,0.0,0.0016441188054159284
407.0,453.0,-1.5954,0.1286,9.661,-0.0344,0.027,-0.117,-2.08977808574819,0.0,4.125785827636719,-1.5293186902999878,-0.0,1.900447130203247,5.218743848591604,-0.0,0.25847047567367554,-1.608025375996725,0.0,0.0037389639765024185,0.05137341096997261,-0.0,-0.0018907489720731974,1.5560450553894043,0.0,-0.014143016189336777
407.0,453.0,-1.5954,0.1286,9.661,-0.0344,0.027,-0.117,-2.089802404443258,0.0,4.122025966644287,-1.5293352603912354,-0.0,1.9122228622436523,5.218740153103628,-0.0,0.25912797451019287,-1.608025375996725,0.0,0.0021345047280192375,0.051393501460552216,-0.0,-0.013016114011406898,1.5560171604156494,0.0,0.017832349985837936
407.0,453.0,-1.5954,0.1286,9.661,-0.0344,0.027,-0.117,-2.089846273461813,0.0,4.097928524017334,-1.5293837785720825,-0.0,1.9130148887634277,5.218727874546804,-0.0,0.2594262659549713,-1.6080578009234827,0.0,0.006501277908682823,0.05135754123330116,-0.0,0.01036260835826397,1.5560410022735596,0.0,0.0216206144541502
407.0,453.0,-1.5954,0.1286,9.661,-0.0344,0.027,-0.117,-2.08977808574819,0.0,4.127900123596191,-1.5293270349502563,-0.0,1.956497073173523,5.21878861167983,-0.0,0.2599642872810364,-1.6080177466021937,0.0,0.0005429527373053133,0.05140542984008789,-0.0,0.003101619891822338,1.5560131072998047,0.0,0.00554444408044219
407.0,453.0,-1.5954,0.1286,9.661,-0.0344,0.027,-0.117,-2.0897942982115687,0.0,4.062922954559326,-1.5293549299240112,-0.0,1.9150980710983276,5.218764292984762,-0.0,0.254659503698349,-1.6080096403705042,0.0,0.004927190952003002,0.05136946216225624,-0.0,-0.0012120670871809125,1.5560450553894043,0.0,-0.009126082062721252
407.0,453.0,-1.5954,0.1286,9.661,-0.0344,0.027,-0.117,-2.0897699795165003,0.0,4.085784912109375,-1.5294033288955688,-0.0,1.9830141067504883,5.218740212708273,-0.0,0.26947131752967834,-1.6080377737628382,0.0,0.0018744380213320255,0.05134522169828415,-0.0,0.006448834668844938,1.5560250282287598,0.0,-0.025494221597909927
407.0,453.0,-1.5954,0.1286,9.661,-0.0344,0.027,-0.117,-2.0898105106749476,0.0,4.1050310134887695,-1.5293712615966797,-0.0,1.9533599615097046,5.218727934151449,-0.0,0.2576681971549988,-1.6080415884601038,0.0,-0.008533689193427563,0.05135302245616913,-0.0,0.001968317199498415,1.556009292602539,0.0,-0.03562077134847641
407.0,453.0,-1.5954,0.1286,9.661,-0.0344,0.027,-0.117,-2.089830537835592,0.0,4.058349132537842,-1.5293837785720825,-0.0,1.973266363143921,5.218748378544607,-0.0,0.24296250939369202,-1.6080902258502405,0.0,0.0034164581447839737,0.05138576030731201,-0.0,0.00407814746722579,1.5560293197631836,0.0,0.030833974480628967
417.0,434.0,-1.5912,0.1819,9.6467,-0.0394,0.0252,-0.1188,-2.08977808574819,0.0,4.106333255767822,-1.5294033288955688,-0.0,1.9789050817489624,5.218744265824117,-0.0,0.2630792260169983,-1.6080415884601038,0.0,0.002512783743441105,0.05136525630950928,-0.0,-0.0008908234303817153,1.5560612678527832,0.0,0.017882252112030983
417.0,434.0,-1.5912,0.1819,9.6467,-0.0394,0.0252,-0.1188,-2.0897942982115687,0.0,4.054943561553955,-1.5293104648590088,-0.0,1.9028687477111816,5.2187402723129175,-0.0,0.26829683780670166,-1.6080458799945276,0.0,0.005447154864668846,0.051373519003391266,-0.0,0.004959261976182461,1.5559972524642944,0.0,0.030439598485827446
417.0,434.0,-1.5912,0.1819,9.6467,-0.0394,0.0252,-0.1188,-2.089790483514303,0.0,4.053544044494629,-1.5293471813201904,-0.0,1.992755651473999,5.218760239868917,-0.0,0.25065720081329346,-1.6080215612994593,0.0,0.0041822949424386024,0.05139350891113281,-0.0,0.004186365753412247,1.5560050010681152,0.0,-0.03425835818052292
417.0,434.0,-1.5912,0.1819,9.6467,-0.0394,0.0252,-0.1188,-2.0897981129088343,0.0,4.0808424949646,-1.5293512344360352,-0.0,1.9625272750854492,5.218768465309896,-0.0,0.26987820863723755,-1.6080740133868616,0.0,-0.0024966271594166756,0.0513894185423851,-0.0,0.00047493481542915106,1.5560612678527832,0.0,-0.0062828874215483665
417.0,434.0,-1.5912,0.1819,9.6467,-0.0394,0.0252,-0.1188,-2.0897656879820765,0.0,4.127511501312256,-1.5294033288955688,-0.0,1.9378185272216797,5.218744325428762,-0.0,0.25920307636260986,-1.6080415884601038,0.0,0.012526404112577438,0.051413606852293015,-0.0,-0.005153243895620108,1.5560212135314941,0.0,0.042697712779045105
417.0,434.0,-1.5912,0.1819,9.6467,-0.0394,0.0252,-0.1188,-2.0897866688170375,0.0,4.097036361694336,-1.5293920040130615,-0.0,1.9517760276794434,5.218756544380941,-0.0,0.25836181640625,-1.60803729692568,0.0,0.014276666566729546,0.0513894222676754,-0.0,0.00448566535487771,1.5559890270233154,0.0,0.007721027359366417
417.0,434.0,-1.5912,0.1819,9.6467,-0.0394,0.0252,-0.1188,-2.08977808574819,0.0,4.058594703674316,-1.5293631553649902,-0.0,1.933179259300232,5.218704151898184,-0.0,0.27033793926239014,-1.6080134550677698,0.0,-0.0019046175293624401,0.051429618149995804,-0.0,0.0006693359464406967,1.5560331344604492,0.0,-0.01469789631664753
417.0,434.0,-1.5912,0.1819,9.6467,-0.0394,0.0252,-0.1188,-2.089774271050924,0.0,4.058042049407959,-1.529367208480835,-0.0,1.983299732208252,5.2187238214309595,-0.0,0.2693282961845398,-1.6080296675311487,0.0,-0.009127813391387463,0.051373519003391266,-0.0,-0.00253566587343812,1.5560370683670044,0.0,-0.02429901249706745
417.0,434.0,-1.5912,0.1819,9.6467,-0.0394,0.0252,-0.1188,-2.089790006677145,0.0,4.070131301879883,-1.5293712615966797,-0.0,1.9295775890350342,5.2187402723129175,-0.0,0.25972074270248413,-1.6080496946917933,0.0,0.007474383804947138,0.05136120319366455,-0.0,0.004457768052816391,1.5560171604156494,0.0,-0.0018071518279612064
417.0,434.0,-1.5912,0.1819,9.6467,-0.0394,0.0252,-0.1188,-2.089774271050924,0.0,4.08738899230957,-1.5293389558792114,-0.0,1.988847017288208,5.218752491265096,-0.0,0.2564796805381775,-1.6080616156207483,0.0,0.004524067044258118,0.051345158368349075,-0.0,0.004433066584169865,1.5560171604156494,0.0,0.032001957297325134
417.0,434.0,-1.5912,0.1819,9.6467,-0.0394,0.0252,-0.1188,-2.0897942982115687,0.0,4.087174892425537,-1.5293552875518799,-0.0,1.951249599456787,5.218731987267294,-0.0,0.25854727625846863,-1.6080220381366175,0.0,0.0025789416395127773,0.051389873027801514,-0.0,-0.010694843716919422,1.5560091733932495,0.0,-0.006914100609719753
417.0,434.0,-1.5912,0.1819,9.6467,-0.0394,0.0252,-0.1188,-2.089830060998434,0.0,4.102001190185547,-1.5293430089950562,-0.0,1.9846947193145752,5.218752431660452,-0.0,0.2664273977279663,-1.6080053488360804,0.0,0.006723287049680948,0.051325153559446335,-0.0,0.011934803798794746,1.5560290813446045,0.0,0.0231546051800251
417.0,434.0,-1.5912,0.1819,9.6467,-0.0394,0.0252,-0.1188,-2.0898105106749476,0.0,4.112544059753418,-1.5293755531311035,-0.0,1.9860632419586182,5.2187238214309595,-0.0,0.2626720070838928,-1.6080415884601038,0.0,0.0033116957638412714,0.05135340243577957,-0.0,0.006558390334248543,1.5560450553894043,0.0,-0.034604512155056
405.0,436.0,-1.5123,0.2285,9.4804,-0.0432,0.029,-0.1136,-2.0897699795165003,0.0,4.04040002822876,-1.5293349027633667,-0.0,1.915793538093567,5.218791949539938,-0.0,0.2639888823032379,-1.6080096403705042,0.0,-0.005626053083688021,0.051381587982177734,-0.0,-0.006538574583828449,1.556057095527649,0.0,0.01200599130243063
405.0,436.0,-1.5123,0.2285,9.4804,-0.0432,0.029,-0.1136,-2.0897699795165003,0.0,4.108532905578613,-1.5292505025863647,-0.0,1.9640074968338013,5.218699979573049,-0.0,0.25488749146461487,-1.6080783049212855,0.0,0.0098798219114542,0.05140133947134018,-0.0,-0.008387953042984009,1.5560212135314941,0.0,-0.011326990090310574
405.0,436.0,-1.5123,0.2285,9.4804,-0.0432,0.029,-0.1136,-2.08977808574819,0.0,4.1169753074646,-1.5293715000152588,-0.0,1.942177176475525,5.218760657101431,-0.0,0.26963624358177185,-1.608025375996725,0.0,-0.0009332138579338789,0.0513693206012249,-0.0,-0.0023722839541733265,1.5560612678527832,0.0,-0.012684882618486881
405.0,436.0,-1.5123,0.2285,9.4804,-0.0432,0.029,-0.1136,-2.089830537835592,0.0,4.047702312469482,-1.5293797254562378,-0.0,1.9706281423568726,5.218776333123007,-0.0,0.262835294008255,-1.6080172697650355,0.0,-0.0002314564771950245,0.051429618149995804,-0.0,0.0018576168222352862,1.5560250282287598,0.0,-0.014855974353849888
405.0,436.0,-1.5123,0.2285,9.4804,-0.0432,0.029,-0.1136,-2.0898262463011683,0.0,4.1627197265625,-1.5294033288955688,-0.0,1.9524213075637817,5.218784498959341,-0.0,0.2629106640815735,-1.608025375996725,0.0,-0.0037902307230979204,0.051413584500551224,-0.0,-0.0060251927934587,1.556057095527649,0.0,-0.033404335379600525
405.0,436.0,-1.5123,0.2285,9.4804,-0.0432,0.029,-0.1136,-2.0898019276061,0.0,4.093410491943359,-1.5293104648590088,-0.0,1.9807764291763306,5.218731987267294,-0.0,0.24839666485786438,-1.6080096403705042,0.0,0.00545455701649189,0.05137749761343002,-0.0,0.0022050777915865183,1.5560489892959595,0.0,-0.013721014373004436
405.0,436.0,-1.5123,0.2285,9.4804,-0.0432,0.029,-0.1136,-2.089774271050924,0.0,4.082432746887207,-1.5293430089950562,-0.0,1.9364945888519287,5.218727934151449,-0.0,0.2716788053512573,-1.6080296675311487,0.0,-0.0008385856635868549,0.05139308050274849,-0.0,-0.0028264117427170277,1.5560410022735596,0.0,-0.00027732783928513527
405.0,436.0,-1.5123,0.2285,9.4804,-0.0432,0.029,-0.1136,-2.08977808574819,0.0,4.078614234924316,-1.5293389558792114,-0.0,1.9335663318634033,5.218731987267294,-0.0,0.2642946243286133,-1.6080096403705042,0.0,0.0008558975532650948,0.05137749761343002,-0.0,0.003691776655614376,1.5560250282287598,0.0,-0.012234309688210487
405.0,436.0,-1.5123,0.2285,9.4804,-0.0432,0.029,-0.1136,-2.0898143253722132,0.0,4.05742073059082,-1.529392123222351,-0.0,1.9963620901107788,5.21876488903121,-0.0,0.2588981091976166,-1.608070198689596,0.0,0.0002973969094455242,0.0513894185423851,-0.0,-0.010062776505947113,1.5559849739074707,0.0,-0.0394255667924881
405.0,436.0,-1.5123,0.2285,9.4804,-0.0432,0.029,-0.1136,-2.089774271050924,0.0,4.1246538162231445,-1.5293920040130615,-0.0,1.918233871459961,5.218772458821096,-0.0,0.26848164200782776,-1.6080053488360804,0.0,-0.003321514930576086,0.05136159807443619,-0.0,0.0028812482487410307,1.5560290813446045,0.0,-0.014331680722534657
405.0,436.0,-1.5123,0.2285,9.4804,-0.0432,0.029,-0.1136,-2.089761873284811,0.0,4.0837907791137695,-1.5293797254562378,-0.0,2.017878293991089,5.21878861167983,-0.0,0.26753073930740356,-1.6080415884601038,0.0,-0.003409296739846468,0.05137353017926216,-0.0,0.0033624349161982536,1.5560290813446045,0.0,0.020944107323884964
405.0,436.0,-1.5123,0.2285,9.4804,-0.0432,0.029,-0.1136,-2.0897866688170375,0.0,4.100337982177734,-1.5293471813201904,-0.0,1.952832818031311,5.218808400421896,-0.0,0.2635352313518524,-1.6080339590655726,0.0,0.007330791559070349,0.05137345939874649,-0.0,-0.004214356187731028,1.5560811758041382,0.0,-0.015301782637834549
405.0,436.0,-1.5123,0.2285,9.4804,-0.0432,0.029,-0.1136,-2.0897699795165003,0.0,4.0381693840026855,-1.5293631553649902,-0.0,1.9132425785064697,5.218736099987783,-0.0,0.26255714893341064,-1.6079853216754358,0.0,-0.007589774206280708,0.05139395222067833,-0.0,-0.009962877258658409,1.5560489892959595,0.0,0.03720847889780998
411.0,421.0,-1.5852,0.1621,9.5922,-0.047,0.0269,-0.1196,-2.0898505649962367,0.0,4.123648643493652,-1.5293911695480347,-0.0,1.9742381572723389,5.218736159592428,-0.0,0.2602553069591522,-1.6080015341388147,0.0,0.00486028753221035,0.05136943608522415,-0.0,-0.00556425005197525,1.5560612678527832,0.0,-0.00745793804526329
411.0,421.0,-1.5852,0.1621,9.5922,-0.047,0.0269,-0.1196,-2.0897985897459925,0.0,4.082551002502441,-1.5293879508972168,-0.0,1.9416940212249756,5.218752133637228,-0.0,0.26091650128364563,-1.60803729692568,0.0,-0.00890595093369484,0.05133330076932907,-0.0,0.003567511448636651,1.5560331344604492,0.0,-0.030125226825475693
411.0,421.0,-1.5852,0.1621,9.5922,-0.047,0.0269,-0.1196,-2.08977808574819,0.0,4.107022285461426,-1.5293755531311035,-0.0,1.9747507572174072,5.218736159592428,-0.0,0.27188795804977417,-1.6080415884601038,0.0,0.00015532085672020912,0.051341086626052856,-0.0,-0.00011721125338226557,1.5560331344604492,0.0,-0.013353059068322182
411.0,421.0,-1.5852,0.1621,9.5922,-0.047,0.0269,-0.1196,-2.0897699795165003,0.0,4.0867156982421875,-1.5293470621109009,-0.0,1.918309211730957,5.218740153103628,-0.0,0.2761561870574951,-1.6080659071551722,0.0,0.009349816478788853,0.05137749761343002,-0.0,0.008518283255398273,1.5560450553894043,0.0,-0.001711344812065363
411.0,421.0,-1.5852,0.1621,9.5922,-0.047,0.0269,-0.1196,-2.089806219140524,0.0,4.134884357452393,-1.5293993949890137,-0.0,1.9659616947174072,5.218740153103628,-0.0,0.26197272539138794,-1.608025375996725,0.0,0.005062500946223736,0.05132551118731499,-0.0,0.003329069819301367,1.5560450553894043,0.0,0.018294479697942734
411.0,421.0,-1.5852,0.1621,9.5922,-0.047,0.0269,-0.1196,-2.08977808574819,0.0,4.1206769943237305,-1.529358983039856,-0.0,1.9509832859039307,5.218748318939962,-0.0,0.2608480751514435,-1.6080053488360804,0.0,0.011953764595091343,0.05143413320183754,-0.0,-0.005620935000479221,1.5560290813446045,0.0,-0.015162678435444832
411.0,421.0,-1.5852,0.1621,9.5922,-0.047,0.0269,-0.1196,-2.0897537670531214,0.0,4.134088039398193,-1.5293594598770142,-0.0,1.9496586322784424,5.218772578030386,-0.0,0.2518545091152191,-1.608070198689596,0.0,0.011497782543301582,0.05142144113779068,-0.0,0.005974195897579193,1.5560250282287598,0.0,0.012769126333296299
411.0,421.0,-1.5852,0.1621,9.5922,-0.047,0.0269,-0.1196,-2.0897981129088343,0.0,4.09943151473999,-1.5293549299240112,-0.0,1.9279792308807373,5.218744265824117,-0.0,0.259088397026062,-1.6079934279071253,0.0,-0.013267619535326958,0.051345158368349075,-0.0,-0.006853421218693256,1.5560572147369385,0.0,-0.02578744851052761
411.0,421.0,-1.5852,0.1621,9.5922,-0.047,0.0269,-0.1196,-2.0897942982115687,0.0,4.059226036071777,-1.5293993949890137,-0.0,1.9454214572906494,5.218756603985586,-0.0,0.2669968605041504,-1.6080215612994593,0.0,0.0020605125464498997,0.0514095202088356,-0.0,0.009525247849524021,1.5560693740844727,0.0,-0.04443352669477463
411.0,421.0,-1.5852,0.1621,9.5922,-0.047,0.0269,-0.1196,-2.0897819004454554,0.0,4.072018623352051,-1.529367208480835,-0.0,1.9743525981903076,5.218731987267294,-0.0,0.2711094319820404,-1.6080134550677698,0.0,0.004441543482244015,0.051369428634643555,-0.0,-0.00454417709261179,1.5560572147369385,0.0,0.04282777011394501
411.0,421.0,-1.5852,0.1621,9.5922,-0.047,0.0269,-0.1196,-2.0897823772826136,0.0,4.070690155029297,-1.52933931350708,-0.0,1.9091404676437378,5.218776213913717,-0.0,0.2600606083869934,-1.6080496946917933,0.0,-0.0035231993533670902,0.051385752856731415,-0.0,-0.00562345189973712,1.5560094118118286,0.0,-0.01927480474114418
411.0,421.0,-1.5852,0.1621,9.5922,-0.047,0.0269,-0.1196,-2.0897418461241664,0.0,4.134155750274658,-1.5293837785720825,-0.0,1.929010272026062,5.218716013222494,-0.0,0.25016772747039795,-1.6080096403705042,0.0,0.0033556041307747364,0.05138576030731201,-0.0,-0.012319010682404041,1.556065320968628,0.0,0.01610257476568222
411.0,421.0,-1.5852,0.1621,9.5922,-0.047,0.0269,-0.1196,-2.0898105106749476,0.0,4.061121940612793,-1.5293837785720825,-0.0,1.9701285362243652,5.218731987267294,-0.0,0.2667902112007141,-1.608025375996725,0.0,0.009013784117996693,0.05137341096997261,-0.0,0.007391446270048618,1.5560691356658936,0.0,-0.013086379505693913
422.0,423.0,-1.5679,0.1609,9.5719,-0.0415,0.0292,-0.1184,-2.0897699795165003,0.0,4.109678268432617,-1.5293430089950562,-0.0,1.9712504148483276,5.218752491265096,-0.0,0.24654194712638855,-1.6080496946917933,0.0,0.001402706140652299,0.05139350891113281,-0.0,0.00885293073952198,1.556049108505249,0.0,-0.011216218583285809
422.0,423.0,-1.5679,0.1609,9.5719,-0.0415,0.0292,-0.1184,-2.0897866688170375,0.0,4.133018493652344,-1.5293631553649902,-0.0,1.9254660606384277,5.218764292984762,-0.0,0.2607576251029968,-1.608025375996725,0.0,-0.006694864481687546,0.05140175297856331,-0.0,0.0036520780995488167,1.5559890270233154,0.0,0.026083622127771378
422.0,423.0,-1.5679,0.1609,9.5719,-0.0415,0.0292,-0.1184,-2.0897532902159632,0.0,4.117065906524658,-1.5293920040130615,-0.0,1.9444715976715088,5.2187960026557825,-0.0,0.2591838836669922,-1.608025375996725,0.0,-0.004695621319115162,0.05135344713926315,-0.0,0.0006046794587746263,1.5560410022735596,0.0,0.013412325643002987
422.0,423.0,-1.5679,0.1609,9.5719,-0.0415,0.0292,-0.1184,-2.0897985897459925,0.0,4.102208137512207,-1.5293755531311035,-0.0,1.8992266654968262,5.218711900502004,-0.0,0.25442299246788025,-1.6080215612994593,0.0,0.0020104071591049433,0.051369428634643555,-0.0,0.013970807194709778,1.5560450553894043,0.0,0.00593535415828228
422.0,423.0,-1.5679,0.1609,9.5719,-0.0415,0.0292,-0.1184,-2.089818140069479,0.0,4.095536231994629,-1.5293145179748535,-0.0,1.9774084091186523,5.218744206219473,-0.0,0.25532639026641846,-1.6080215612994593,0.0,0.012690553441643715,0.05133746564388275,-0.0,0.002211483661085367,1.5560331344604492,0.0,0.01943410560488701
422.0,423.0,-1.5679,0.1609,9.5719,-0.0415,0.0292,-0.1184,-2.089822908441061,0.0,4.096926689147949,-1.5293910503387451,-0.0,1.968819499015808,5.218699979573049,-0.0,0.26506125926971436,-1.6080296675311487,0.0,-0.017788976430892944,0.051361240446567535,-0.0,-0.0037386100739240646,1.5560450553894043,0.0,-0.02852753736078739
422.0,423.0,-1.5679,0.1609,9.5719,-0.0415,0.0292,-0.1184,-2.0897823772826136,0.0,4.088932991027832,-1.5293430089950562,-0.0,1.962087631225586,5.218748318939962,-0.0,0.2568587064743042,-1.6080296675311487,0.0,0.0023002829402685165,0.05139758437871933,-0.0,-0.013682382181286812,1.5559849739074707,0.0,-0.012141695246100426
422.0,423.0,-1.5679,0.1609,9.5719,-0.0415,0.0292,-0.1184,-2.089806219140524,0.0,4.120532989501953,-1.5293712615966797,-0.0,1.9480102062225342,5.218748318939962,-0.0,0.25373008847236633,-1.608025375996725,0.0,-0.001995393307879567,0.05139758437871933,-0.0,0.0021056735422462225,1.5560293197631836,0.0,0.010279905050992966
422.0,423.0,-1.5679,0.1609,9.5719,-0.0415,0.0292,-0.1184,-2.0897942982115687,0.0,4.108813285827637,-1.5293952226638794,-0.0,1.947688102722168,5.2187238214309595,-0.0,0.24896983802318573,-1.6080096403705042,0.0,0.02571292780339718,0.05135750770568848,-0.0,0.012106627225875854,1.5560572147369385,0.0,-0.05817345902323723
422.0,423.0,-1.5679,0.1609,9.5719,-0.0415,0.0292,-0.1184,-2.0897699795165003,0.0,4.060614585876465,-1.529358983039856,-0.0,1.9712743759155273,5.218727934151449,-0.0,0.2540792226791382,-1.6080458799945276,0.0,0.007741162087768316,0.05136527121067047,-0.0,0.0032639233395457268,1.5560450553894043,0.0,0.04207807034254074
422.0,423.0,-1.5679,0.1609,9.5719,-0.0415,0.0292,-0.1184,-2.0897699795165003,0.0,4.079836845397949,-1.5293910503387451,-0.0,1.9803050756454468,5.218760657101431,-0.0,0.25618207454681396,-1.6080296675311487,0.0,0.008136672899127007,0.051329150795936584,-0.0,-0.013765249401330948,1.5560250282287598,0.0,-0.060285381972789764
422.0,423.0,-1.5679,0.1609,9.5719,-0.0415,0.0292,-0.1184,-2.089757581750387,0.0,4.078037738800049,-1.5293552875518799,-0.0,1.95111083984375,5.218699979573049,-0.0,0.2618604898452759,-1.60803729692568,0.0,-0.0031560601200908422,0.051397599279880524,-0.0,0.00752804521471262,1.5560411214828491,0.0,-0.035895995795726776
422.0,423.0,-1.5679,0.1609,9.5719,-0.0415,0.0292,-0.1184,-2.0897823772826136,0.0,4.111377716064453,-1.5293920040130615,-0.0,1.992748498916626,5.218748318939962,-0.0,0.2516137957572937,-1.60803729692568,0.0,-0.001859195763245225,0.051381587982177734,-0.0,-0.004644173663109541,1.5560290813446045,0.0,0.003524694126099348
419.0,439.0,-1.5972,0.131,9.6754,-0.0345,0.0249,-0.109,-2.08977808574819,0.0,4.120462894439697,-1.5293512344360352,-0.0,1.9362390041351318,5.218744265824117,-0.0,0.26953020691871643,-1.607992951069967,0.0,0.0031435280106961727,0.0514095202088356,-0.0,0.0075241681188344955,1.5560091733932495,0.0,-0.03992772847414017
419.0,439.0,-1.5972,0.131,9.6754,-0.0345,0.0249,-0.109,-2.0897699795165003,0.0,4.05827522277832,-1.5293512344360352,-0.0,1.9389092922210693,5.2187320468719385,-0.0,0.2663775086402893,-1.60803729692568,0.0,0.004583755508065224,0.051381587982177734,-0.0,-0.011541922576725483,1.5560530424118042,0.0,0.020927108824253082
419.0,439.0,-1.5972,0.131,9.6754,-0.0345,0.0249,-0.109,-2.0897866688170375,0.0,4.129448890686035,-1.5294075012207031,-0.0,1.9418379068374634,5.218748318939962,-0.0,0.25524023175239563,-1.6079934279071253,0.0,0.0004944484098814428,0.05143378674983978,-0.0,0.0016946475952863693,1.5560290813446045,0.0,0.0006095794960856438
419.0,439.0,-1.5972,0.131,9.6754,-0.0345,0.0249,-0.109,-2.0897699795165003,0.0,4.122007846832275,-1.5293837785720825,-0.0,1.9453506469726562,5.218711960106649,-0.0,0.2598833441734314,-1.6080458799945276,0.0,-0.007796079386025667,0.05137341096997261,-0.0,0.0029234488029032946,1.5560331344604492,0.0,-0.003437642939388752
419.0,439.0,-1.5972,0.131,9.6754,-0.0345,0.0249,-0.109,-2.0897699795165003,0.0,4.0762810707092285,-1.529318928718567,3.272970872103542e-08,1.9503778219223022,5.218752491265096,-0.0,0.2511615753173828,-1.6080616156207483,0.0,0.0061082420870661736,0.051397569477558136,-0.0,0.005344227887690067,1.5560892820358276,0.0,-0.0013878345489501953
419.0,439.0,-1.5972,0.131,9.6754,-0.0345,0.0249,-0.109,-2.0897699795165003,0.0,4.098881721496582,-1.5293352603912354,1.0604008643050138e-15,1.9158282279968262,5.218731987267294,-0.0,0.24668742716312408,-1.6079891363727015,0.0,0.009065726771950722,0.05143378674983978,-0.0,0.002491779625415802,1.5560370683670044,0.0,-0.030046813189983368
419.0,439.0,-1.5972,0.131,9.6754,-0.0345,0.0249,-0.109,-2.089818140069479,0.0,4.140285491943359,-1.5293227434158325,2.5607433715690767e-21,1.9613819122314453,5.218791889935293,-0.0,0.2650584876537323,-1.6080296675311487,0.0,-0.005820109508931637,0.051369357854127884,-0.0,-0.011657810769975185,1.5560091733932495,0.0,0.01605761982500553
419.0,439.0,-1.5972,0.131,9.6754,-0.0345,0.0249,-0.109,-2.0897985897459925,0.0,4.08153772354126,-1.5293797254562378,8.296483097685554e-29,1.884984016418457,5.218711960106649,-0.0,0.2657593786716461,-1.60803729692568,0.0,-0.0018471787916496396,0.051361169666051865,-0.0,0.006736360490322113,1.5560250282287598,0.0,-0.03019372746348381
419.0,439.0,-1.5972,0.131,9.6754,-0.0345,0.0249,-0.109,-2.0897537670531214,0.0,4.114173412322998,-1.5292662382125854,2.0035029288144102e-34,1.971829891204834,5.218776213913717,-0.0,0.2633403539657593,-1.6080415884601038,0.0,-0.002991114277392626,0.05137350410223007,-0.0,0.002216921653598547,1.556069254875183,0.0,0.015148654580116272
419.0,439.0,-1.5972,0.131,9.6754,-0.0345,0.0249,-0.109,-2.089774271050924,0.0,4.091649055480957,-1.5293910503387451,6.490814486752553e-42,1.9214961528778076,5.21870784738616,-0.0,0.26446568965911865,-1.6080339590655726,0.0,0.0027649966068565845,0.05134519562125206,-0.0,-0.008809885941445827,1.556057095527649,0.0,0.02411537989974022
419.0,439.0,-1.5972,0.131,9.6754,-0.0345,0.0249,-0.109,-2.089774271050924,0.0,4.126358509063721,-1.5293352603912354,0.0,1.99350905418396,5.218675422459402,-0.0,0.256160169839859,-1.6080458799945276,0.0,0.007235512603074312,0.05138576775789261,-0.0,0.004305235110223293,1.5560050010681152,0.0,-0.004653234034776688
419.0,439.0,-1.5972,0.131,9.6754,-0.0345,0.0249,-0.109,-2.089806695977682,0.0,4.108488082885742,-1.5293837785720825,-0.0,1.9393318891525269,5.218748318939962,-0.0,0.2589871883392334,-1.6080134550677698,0.0,0.0035514465998858213,0.051377471536397934,-0.0,0.0034707929007709026,1.5560812950134277,0.0,0.001554868184030056
419.0,439.0,-1.5972,0.131,9.6754,-0.0345,0.0249,-0.109,-2.0897656879820765,0.0,4.094021797180176,-1.5293552875518799,-0.0,1.9837946891784668,5.2187402723129175,-0.0,0.2708262801170349,-1.6080415884601038,0.0,-0.010635269805788994,0.051361169666051865,-0.0,0.0031532193534076214,1.5560370683670044,0.0,-0.015822865068912506
410.0,434.0,-1.5027,0.1579,9.548,-0.0319,0.0279,-0.1187,-2.089761873284811,0.0,4.09187650680542,-1.5293227434158325,-0.0,1.9835567474365234,5.21870784738616,-0.0,0.26004818081855774,-1.6079891363727015,0.0,-0.00941537506878376,0.051369428634643555,-0.0,0.008156257681548595,1.5560252666473389,0.0,0.019309617578983307
410.0,434.0,-1.5027,0.1579,9.548,-0.0319,0.0279,-0.1187,-2.0897699795165003,0.0,4.03927755355835,-1.5293552875518799,-0.0,1.9494504928588867,5.218780267029562,-0.0,0.24669039249420166,-1.608025375996725,0.0,0.0009772616904228926,0.05142552778124809,-0.0,-0.00709438556805253,1.5559972524642944,0.0,0.01614905707538128
410.0,434.0,-1.5027,0.1579,9.548,-0.0319,0.0279,-0.1187,-2.0897985897459925,0.0,4.112107753753662,-1.5293312072753906,-0.0,1.994089961051941,5.218752491265096,-0.0,0.2576589584350586,-1.608086411152975,0.0,-0.002958994824439287,0.051373519003391266,-0.0,-0.0057776691392064095,1.5560693740844727,0.0,0.033447135239839554
410.0,434.0,-1.5027,0.1579,9.548,-0.0319,0.0279,-0.1187,-2.0897942982115687,0.0,4.098843097686768,-1.52933931350708,-0.0,1.973188877105713,5.218740153103628,-0.0,0.2596289813518524,-1.6080177466021937,0.0,-0.006889550015330315,0.05135750770568848,-0.0,0.008079998195171356,1.556057333946228,0.0,0.008579578250646591
410.0,434.0,-1.5027,0.1579,9.548,-0.0319,0.0279,-0.1187,-2.089846750298971,0.0,4.073301792144775,-1.5293471813201904,-0.0,1.957692265510559,5.218784498959341,-0.0,0.26665112376213074,-1.6080616156207483,0.0,-0.006065728142857552,0.05137760564684868,-0.0,-0.00043762376299127936,1.5560171604156494,0.0,0.004605178255587816
410.0,434.0,-1.5027,0.1579,9.548,-0.0319,0.0279,-0.1187,-2.0898105106749476,0.0,4.102786064147949,-1.529367208480835,-0.0,1.96748948097229,5.218787836819448,-0.0,0.25701338052749634,-1.6080096403705042,0.0,0.0009349739411845803,0.051369428634643555,-0.0,-0.0029330786783248186,1.5560410022735596,0.0,-0.06354274600744247
410.0,434.0,-1.5027,0.1579,9.548,-0.0319,0.0279,-0.1187,-2.0897494755186976,0.0,4.065778732299805,-1.5294033288955688,-0.0,1.911521077156067,5.218731987267294,-0.0,0.2609591782093048,-1.608070198689596,0.0,-0.007773761637508869,0.051421865820884705,-0.0,0.0011563824955374002,1.5560369491577148,0.0,0.031527079641819
410.0,434.0,-1.5027,0.1579,9.548,-0.0319,0.0279,-0.1187,-2.0897942982115687,0.0,4.071160316467285,-1.5293992757797241,-0.0,1.9903953075408936,5.218736159592428,-0.0,0.25271090865135193,-1.6080740133868616,0.0,-0.00519710686057806,0.051349248737096786,-0.0,-0.010047215037047863,1.5560368299484253,0.0,-0.009636043570935726
410.0,434.0,-1.5027,0.1579,9.548,-0.0319,0.0279,-0.1187,-2.0897942982115687,0.0,4.066280364990234,-1.5293352603912354,-0.0,1.8951354026794434,5.218752491265096,-0.0,0.25713783502578735,-1.6080215612994593,0.0,0.008345409296452999,0.051329221576452255,-0.0,0.009477058425545692,1.556057095527649,0.0,0.04818478226661682
410.0,434.0,-1.5027,0.1579,9.548,-0.0319,0.0279,-0.1187,-2.089834829370016,0.0,4.126832485198975,-1.5293837785720825,-0.0,1.9574065208435059,5.218768524914541,-0.0,0.26618146896362305,-1.6080015341388147,0.0,0.006677297409623861,0.051321398466825485,-0.0,-0.0012112795375287533,1.5560171604156494,0.0,0.005731081590056419
410.0,434.0,-1.5027,0.1579,9.548,-0.0319,0.0279,-0.1187,-2.0898224316039027,0.0,4.100811958312988,-1.5294076204299927,-0.0,2.0151164531707764,5.218736159592428,-0.0,0.26925036311149597,-1.6080415884601038,0.0,-0.0012734379852190614,0.051381587982177734,-0.0,-0.0114369448274374,1.5560489892959595,0.0,0.000654849223792553
410.0,434.0,-1.5027,0.1579,9.548,-0.0319,0.0279,-0.1187,-2.089802404443258,0.0,4.1185197830200195,-1.5293434858322144,-0.0,1.9325257539749146,5.218711900502004,-0.0,0.26925554871559143,-1.6080458799945276,0.0,-0.010799959301948547,0.051345158368349075,-0.0,-0.0014766044914722443,1.5560572147369385,0.0,-0.022787487134337425
410.0,434.0,-1.5027,0.1579,9.548,-0.0319,0.0279,-0.1187,-2.0897532902159632,0.0,4.071523189544678,-1.5293837785720825,-0.0,1.96234929561615,5.218784498959341,-0.0,0.2562178373336792,-1.6080134550677698,0.0,0.002408292843028903,0.05132552236318588,-0.0,0.003824240295216441,1.5560171604156494,0.0,0.005168143194168806
412.0,438.0,-1.6678,0.2985,9.6024,-0.0254,0.0286,-0.1156,-2.089757581750387,0.0,4.0933966636657715,-1.5293837785720825,-0.0,1.9352959394454956,5.218720185547628,-0.0,0.26603472232818604,-1.6080177466021937,0.0,0.005535030271857977,0.05137751251459122,-0.0,0.0019570214208215475,1.5560131072998047,0.0,-0.010605791583657265
412.0,438.0,-1.6678,0.2985,9.6024,-0.0254,0.0286,-0.1156,-2.08977808574819,0.0,4.121394157409668,-1.5293837785720825,-0.0,1.9798047542572021,5.218752372055807,-0.0,0.2670857310295105,-1.6080177466021937,0.0,0.009037596173584461,0.05134887993335724,-0.0,-0.0002670724061317742,1.5559931993484497,0.0,0.008961718529462814
412.0,438.0,-1.6678,0.2985,9.6024,-0.0254,0.0286,-0.1156,-2.0898143253722132,0.0,4.119420051574707,-1.5293879508972168,-0.0,1.9963098764419556,5.2187803266342065,-0.0,0.26905345916748047,-1.6080339590655726,0.0,-0.0044068568386137486,0.051341135054826736,-0.0,0.0004331064410507679,1.5560131072998047,0.0,-0.01988115906715393
412.0,438.0,-1.6678,0.2985,9.6024,-0.0254,0.0286,-0.1156,-2.089818616906637,0.0,4.142876625061035,-1.529392123222351,-0.0,1.935920238494873,5.218748318939962,-0.0,0.2611151933670044,-1.6080177466021937,0.0,-0.002356388373300433,0.05140950530767441,-0.0,0.0015841161366552114,1.5560612678527832,0.0,0.008079755119979382
412.0,438.0,-1.6678,0.2985,9.6024,-0.0254,0.0286,-0.1156,-2.089806219140524,0.0,4.091043472290039,-1.5293229818344116,-0.0,1.9750127792358398,5.21870784738616,-0.0,0.2625175714492798,-1.6080578009234827,0.0,0.008364573121070862,0.05138574540615082,-0.0,0.003996348474174738,1.5560051202774048,0.0,0.017997782677412033
412.0,438.0,-1.6678,0.2985,9.6024,-0.0254,0.0286,-0.1156,-2.089741369287008,0.0,4.113994598388672,-1.5293712615966797,-0.0,1.951162338256836,5.2187760947044275,-0.0,0.28129082918167114,-1.6080578009234827,0.0,0.014775210060179234,0.051381587982177734,-0.0,0.0050849937833845615,1.5559769868850708,0.0,-0.0118961650878191
412.0,438.0,-1.6678,0.2985,9.6024,-0.0254,0.0286,-0.1156,-2.089774271050924,0.0,4.079179763793945,-1.5293186902999878,-0.0,1.9449394941329956,5.218760657101431,-0.0,0.2566600441932678,-1.6080096403705042,0.0,0.0016323340823873878,0.05134927108883858,-0.0,0.0014635862316936255,1.5560171604156494,0.0,-0.04952191561460495
412.0,438.0,-1.6678,0.2985,9.6024,-0.0254,0.0286,-0.1156,-2.08977808574819,0.0,4.087430000305176,-1.5293352603912354,-0.0,1.9861176013946533,5.2187803266342065,-0.0,0.26339346170425415,-1.6080740133868616,0.0,0.00252339243888855,0.051369428634643555,-0.0,9.551626862958074e-05,1.5560489892959595,0.0,-0.0015518921427428722
412.0,438.0,-1.6678,0.2985,9.6024,-0.0254,0.0286,-0.1156,-2.089757581750387,0.0,4.125392913818359,-1.5293712615966797,-0.0,1.9663810729980469,5.218736159592428,-0.0,0.2645303010940552,-1.6080902258502405,0.0,0.008521202951669693,0.05136525630950928,-0.0,-0.007186933886259794,1.5560450553894043,0.0,0.009185642004013062
412.0,438.0,-1.6678,0.2985,9.6024,-0.0254,0.0286,-0.1156,-2.0897861919798792,0.0,4.1205902099609375,-1.5293594598770142,1.3965185452491369e-08,1.9552841186523438,5.218756305962362,-0.0,0.26209503412246704,-1.6080415884601038,0.0,-0.0012675994075834751,0.051389846950769424,-0.0,0.0064756604842841625,1.5560849905014038,0.0,-0.004580277018249035
412.0,438.0,-1.6678,0.2985,9.6024,-0.0254,0.0286,-0.1156,-2.0897699795165003,0.0,4.090691089630127,-1.5293227434158325,3.3724281369882855e-14,1.958683967590332,5.218712317734518,-0.0,0.256255567073822,-1.6080859343158167,0.0,0.009349390864372253,0.05133366584777832,-0.0,0.002089537912979722,1.556049108505249,0.0,-0.02110966108739376
412.0,438.0,-1.6678,0.2985,9.6024,-0.0254,0.0286,-0.1156,-2.0898105106749476,0.0,4.130993843078613,-1.5293114185333252,1.0926238000838962e-21,1.9516124725341797,5.2187044499214075,-0.0,0.2736091613769531,-1.6080291906939905,0.0,0.005876048933714628,0.05139802396297455,-0.0,0.0011949860490858555,1.556089162826538,0.0008123766165226698,0.0030844788998365402
412.0,438.0,-1.6678,0.2985,9.6024,-0.0254,0.0286,-0.1156,-2.089802404443258,0.0,4.074470520019531,-1.5293552875518799,2.6385579201775343e-27,1.9551948308944702,5.218740093498983,-0.0,0.2617673873901367,-1.608049217854635,0.0,0.005215723067522049,0.051357854157686234,-0.0,-0.0038283569738268852,1.5560851097106934,0.001151712378486991,-0.00421588309109211
403.0,422.0,-1.5846,-0.0072,9.3924,-0.0402,0.0238,-0.118,-2.0897819004454554,0.0,4.124615669250488,-1.5293227434158325,8.548592681672409e-35,1.9337074756622314,5.218724238663473,-0.0,0.2624427378177643,-1.6080454031573694,0.0,0.0010728160850703716,0.051389846950769424,-0.0,-0.014539976604282856,1.5561048984527588,0.0007658957620151341,0.0035821087658405304
403.0,422.0,-1.5846,-0.0072,9.3924,-0.0402,0.0238,-0.118,-2.0898019276061,0.0,4.108438014984131,-1.5293030738830566,2.0643788846586773e-40,1.9412915706634521,5.2187766311462305,-0.0,0.2678784430027008,-1.6080659071551722,0.0,0.0056555066257715225,0.05134967714548111,-0.0,0.0017248113872483373,1.5561130046844482,0.0008066864684224129,-0.008746270090341568
403.0,422.0,-1.5846,-0.0072,9.3924,-0.0402,0.0238,-0.118,-2.0898224316039027,0.0,4.109348297119141,-1.529307246208191,-0.0,1.974716067314148,5.218744027405538,-0.0,0.25388628244400024,-1.6080454031573694,0.0,-0.0057626748457551,0.05132549628615379,-0.0,0.00013726158067584038,1.5560970306396484,0.0007537598139606416,-0.005511174444109201
403.0,422.0,-1.5846,-0.0072,9.3924,-0.0402,0.0238,-0.118,-2.089830537835592,0.0,4.073576927185059,-1.5293114185333252,7.138900400605053e-05,1.9288661479949951,5.218772160797872,-0.0,0.25522029399871826,-1.60803729692568,0.0,0.00410605501383543,0.051349278539419174,-0.0,0.00797184742987156,1.5560890436172485,0.0006420129793696105,0.013570882380008698
403.0,422.0,-1.5846,-0.0072,9.3924,-0.0402,0.0238,-0.118,-2.089741369287008,0.0,4.089874744415283,-1.5293186902999878,6.16655670455657e-05,2.010773181915283,5.218696105271139,-0.0,0.260373592376709,-1.6080859343158167,0.0,0.003737530205398798,0.05131319910287857,-0.0,-0.0019455880392342806,1.5560771226882935,0.00044477955088950694,-0.01713702082633972
403.0,422.0,-1.5846,-0.0072,9.3924,-0.0402,0.0238,-0.118,-2.0897942982115687,0.0,4.080300807952881,-1.5293755531311035,5.5918379075592384e-05,1.9721672534942627,5.218720245152273,-0.0,0.26204681396484375,-1.6080978552447718,0.0,-0.0006923064356669784,0.051409896463155746,-0.0,-0.0040922039188444614,1.5560851097106934,0.00034302828134968877,-0.013389605097472668
403.0,422.0,-1.5846,-0.0072,9.3924,-0.0402,0.0238,-0.118,-2.0897942982115687,0.0,4.126063346862793,-1.5293352603912354,4.973775867256336e-05,1.9402861595153809,5.2187238214309595,-0.0,0.2576332688331604,-1.608049217854635,0.0,0.0026003518141806126,0.05131734907627106,-0.0,0.0004688201006501913,1.5561329126358032,0.00026286084903404117,0.009129983372986317
403.0,422.0,-1.5846,-0.0072,9.3924,-0.0402,0.0238,-0.118,-2.0897656879820765,0.0,4.086055278778076,-1.5293594598770142,4.593030462274328e-05,1.957068920135498,5.2187004564102075,-0.0,0.2715204954147339,-1.608021084462301,0.0,0.000556355225853622,0.051373519003391266,-0.0,0.0013145256089046597,1.5560970306396484,0.00017893033509608358,0.02368052862584591
403.0,422.0,-1.5846,-0.0072,9.3924,-0.0402,0.0238,-0.118,-2.0898343525328578,0.0,4.087294101715088,-1.5293227434158325,4.1676459659356624e-05,1.925346851348877,5.2187044499214075,-0.0,0.2533411681652069,-1.6080659071551722,0.0,0.010077489539980888,0.051353417336940765,-0.0,0.0008175220573320985,1.5560729503631592,0.00014925366849638522,-0.019514072686433792
403.0,422.0,-1.5846,-0.0072,9.3924,-0.0402,0.0238,-0.118,-2.0898343525328578,0.0,4.105876445770264,-1.5293071269989014,3.896966154570691e-05,1.9698574542999268,5.2187320468719385,-0.0,0.25645744800567627,-1.6080783049212855,0.0,-0.0059277075342834,0.05136159807443619,-0.0,0.008937804959714413,1.5561209917068481,0.00013274277443997562,0.0022206581197679043
403.0,422.0,-1.5846,-0.0072,9.3924,-0.0402,0.0238,-0.118,-2.089774271050924,0.0,4.090953826904297,-1.5293114185333252,3.5863897210219875e-05,2.002169609069824,5.218768465309896,-0.0,0.2637821435928345,-1.6080496946917933,0.0,0.00722296629101038,0.05137749761343002,-0.0,-0.0057947286404669285,1.556136965751648,0.00011568042828002945,-0.003441480454057455
403.0,422.0,-1.5846,-0.0072,9.3924,-0.0402,0.0238,-0.118,-2.089757581750387,0.0,4.1391825675964355,-1.52933931350708,5.076168235973455e-05,1.898349404335022,5.218780028610983,-0.0,0.2593860328197479,-1.6080415884601038,0.0,0.01543843187391758,0.051381587982177734,-0.0,0.012192981317639351,1.5560811758041382,0.0001055091415764764,0.012543349526822567
403.0,422.0,-1.5846,-0.0072,9.3924,-0.0402,0.0238,-0.118,-2.0897819004454554,0.0,4.0670552253723145,-1.5293227434158325,4.7211331548169255e-05,1.9249827861785889,5.218752372055807,-0.0,0.262914776802063,-1.6080015341388147,0.0,0.0009767614537850022,0.05139764025807381,-0.0,0.011018076911568642,1.556136965751648,9.443775343243033e-05,0.012407451868057251
419.0,435.0,-1.2861,0.3852,9.4666,-0.0348,0.0095,-0.1228,-2.0898143253722132,0.0,4.098233222961426,-1.5293676853179932,4.485822137212381e-05,1.9723460674285889,5.218728172570028,-0.0,0.2564213275909424,-1.6080415884601038,0.0,0.01494920440018177,0.05136936157941818,-0.0,-0.0019423167686909437,1.5560970306396484,8.754791633691639e-05,-0.029473867267370224
419.0,435.0,-1.2861,0.3852,9.4666,-0.0348,0.0095,-0.1228,-2.0897699795165003,-1.2863510789884458e-07,4.0645365715026855,-1.52931547164917,5.6083783420035616e-05,1.935715675354004,5.218780088215627,-0.0,0.26648372411727905,-1.608070198689596,0.0,0.004058863967657089,0.0514218844473362,-2.9754014807537033e-09,0.005995790008455515,1.5560932159423828,7.97865868662484e-05,-0.029403578490018845
419.0,435.0,-1.2861,0.3852,9.4666,-0.0348,0.0095,-0.1228,-2.089806219140524,-4.167614282244445e-15,4.093660354614258,-1.529323697090149,8.059210813371465e-05,1.9995708465576172,5.218756305962362,-4.131626241132835e-08,0.2644749879837036,-1.6080015341388147,0.0,-0.0017654852708801627,0.051397621631622314,-5.407645698959386e-14,-0.009610341861844063,1.5561010837554932,7.328946958296001e-05,-0.00356172863394022
419.0,435.0,-1.2861,0.3852,9.4666,-0.0348,0.0095,-0.1228,-2.0898381672301234,-0.0006874404498375952,4.04215669631958,-1.529307246208191,9.470849181525409e-05,1.9133602380752563,5.218807804375448,-1.1500533164676696e-11,0.2597758173942566,-1.6080740133868616,0.0,0.0126728480681777,0.05141735076904297,-1.505237931455608e-17,0.005602771881967783,1.5561412572860718,6.90709930495359e-05,0.020686956122517586
419.0,435.0,-1.2861,0.3852,9.4666,-0.0348,0.0095,-0.1228,-2.089858671227926,-0.002531731966882944,4.082202911376953,-1.5293195247650146,6.988507811911404e-05,1.9945706129074097,5.218756305962362,-2.0901654998199052e-16,0.2518908679485321,-1.608070198689596,0.0,0.002005959628149867,0.05140136182308197,-2.7356954032725057e-22,-0.013516785576939583,1.5561209917068481,1.8798804376274347e-05,0.034416474401950836
419.0,435.0,-1.2861,0.3852,9.4666,-0.0348,0.0095,-0.1228,-2.08982576946401,-0.00365366879850626,4.106515407562256,-1.5293350219726562,8.061765402089804e-05,1.9519704580307007,5.218732523709097,-5.818051740339293e-20,0.256050169467926,-1.6080578009234827,0.0,0.011573041789233685,0.051369428634643555,-7.614909447060613e-26,0.0020890331361442804,1.5560930967330933,4.701678699348122e-05,-0.032721713185310364
419.0,435.0,-1.2861,0.3852,9.4666,-0.0348,0.0095,-0.1228,-2.0898944340147914,-0.0038371910341084003,4.08905029296875,-1.5293269157409668,0.0002586763584986329,1.9460599422454834,5.218756365567007,-1.0574022721707935e-24,0.26397454738616943,-1.6080454031573694,0.0,0.009383929893374443,0.05139350891113281,-1.3839724116807351e-30,-0.007460545748472214,1.5561089515686035,6.560183828696609e-05,0.002215169370174408
419.0,435.0,-1.2861,0.3852,9.4666,-0.0348,0.0095,-0.1228,-2.0899058781065882,-0.0030346547719091177,4.096410751342773,-1.5293269157409668,0.0002225662028649822,1.9462076425552368,5.218764292984762,-2.9433178449493483e-28,0.26328152418136597,-1.6080458799945276,0.0,0.011937461793422699,0.051413584500551224,-3.852337433354493e-34,0.003064334625378251,1.556177020072937,4.846865340368822e-05,0.006726449355483055
419.0,435.0,-1.2861,0.3852,9.4666,-0.0348,0.0095,-0.1228,-2.0898739300169886,-0.0018262113444507122,4.078779220581055,-1.5293269157409668,0.0002214531268691644,1.9242479801177979,5.218756305962362,-5.349334999256446e-33,0.2618229389190674,-1.6080859343158167,0.0,-0.004145741928368807,0.051381587982177734,-7.001433634167873e-39,0.016989991068840027,1.5560771226882935,9.856894030235708e-05,0.008158599957823753
419.0,435.0,-1.2861,0.3852,9.4666,-0.0348,0.0095,-0.1228,-2.089934011498922,-0.0015127233928069472,4.073880195617676,-1.5293114185333252,0.0001983895926969126,2.0038793087005615,5.218740451126852,-1.4890070131911068e-36,0.25908470153808594,-1.6080177466021937,0.0,0.0005485043511725962,0.051361192017793655,-1.9492061638758205e-42,-0.008034814149141312,1.556077003479004,4.516540138865821e-05,0.03294076398015022
419.0,435.0,-1.2861,0.3852,9.4666,-0.0348,0.0095,-0.1228,-2.0899740658202113,-0.0018069386715069413,4.105411052703857,-1.5293594598770142,0.00017297017620876431,1.9118547439575195,5.218803930073538,-2.7061875943040867e-41,0.263865202665329,-1.6080415884601038,0.0,0.013478859327733517,0.05134519562125206,-0.0,-0.005317677743732929,1.5560410022735596,3.571743248387271e-11,0.04685397446155548
419.0,435.0,-1.2861,0.3852,9.4666,-0.0348,0.0095,-0.1228,-2.0899821720519007,-0.002224207855761051,4.106043338775635,-1.5293391942977905,0.00015780543617438525,2.0022945404052734,5.218760239868917,-7.006492321624085e-45,0.25977644324302673,-1.6080415884601038,0.0,-0.0022344598546624184,0.05139760673046112,-0.0,0.0011523417197167873,1.5560089349746704,8.62534047235748e-17,0.01559643354266882
419.0,435.0,-1.2861,0.3852,9.4666,-0.0348,0.0095,-0.1228,-2.0899740658202113,-0.0021862781140953302,4.08405876159668,-1.529279351234436,0.00014128972543403506,1.9097084999084473,5.218795585423269,-0.0,0.25112539529800415,-1.6080496946917933,0.0,0.006800385192036629,0.051389824599027634,-0.0,-0.0010997075587511063,1.5560369491577148,-0.0008636249112896621,0.02362627349793911
414.0,439.0,-1.2508,-0.0628,9.585,-0.0315,0.0269,-0.1191,-2.089994092980856,-0.001303365919739008,4.1271653175354,-1.529279351234436,0.0001310064981225878,1.992470622062683,5.218768167286672,-0.0,0.2671046853065491,-1.60803729692568,0.0,-0.0008600064320489764,0.051381587982177734,-0.0,-0.004631888587027788,1.5560572147369385,-0.0010309997014701366,0.022318052127957344
414.0,439.0,-1.2508,-0.0628,9.585,-0.0315,0.0269,-0.1191,-2.0900303326048792,-0.0007242753636091948,4.073286056518555,-1.5293309688568115,0.00011941811681026593,1.9662163257598877,5.218756305962362,-0.0,0.2673872113227844,-1.6080339590655726,0.0,0.0047149499878287315,0.0513734333217144,-0.0,-0.010754642076790333,1.5560611486434937,-0.0016251917695626616,-0.05933631956577301
414.0,439.0,-1.2508,-0.0628,9.585,-0.0315,0.0269,-0.1191,-2.0900103054442347,-0.0005163619061931968,4.1258368492126465,-1.52931547164917,0.00012990576215088367,1.9750025272369385,5.2187601802642725,-0.0,0.27436548471450806,-1.6080740133868616,0.0,0.0022210997994989157,0.05135711655020714,-0.0,-0.0042254189029335976,1.556009292602539,-0.002365784253925085,-0.02343764901161194
414.0,439.0,-1.2508,-0.0628,9.585,-0.0315,0.0269,-0.1191,-2.089978357354635,-0.0003734687634278089,4.072854042053223,-1.529295802116394,0.0001378706656396389,1.9527642726898193,5.2187760947044275,-0.0,0.2565447688102722,-1.6080458799945276,0.0,-0.003942902199923992,0.05140179395675659,-0.0,0.005219214595854282,1.5559532642364502,-0.0025580478832125664,-0.02956930734217167
414.0,439.0,-1.2508,-0.0628,9.585,-0.0315,0.0269,-0.1191,-2.0899864635863246,-0.000309285445837304,4.112010478973389,-1.5292750597000122,0.00011557080870261416,1.9224252700805664,5.218764233380117,-0.0,0.2610187232494354,-1.608025375996725,0.0,0.00046478305011987686,0.0514296218752861,-0.0,-0.003987767733633518,1.5559331178665161,-0.0022558262571692467,0.0248296819627285
414.0,439.0,-1.2508,-0.0628,9.585,-0.0315,0.0269,-0.1191,-2.090018411675924,-0.000334917422151193,4.072372913360596,-1.5293227434158325,0.00010480249329702929,1.9394880533218384,5.218732523709097,-0.0,0.2547396123409271,-1.6080740133868616,0.0,0.020333632826805115,0.05141773447394371,-0.0,-0.0030366224236786366,1.5559409856796265,-0.001132046920247376,0.054104920476675034
414.0,439.0,-1.2508,-0.0628,9.585,-0.0315,0.0269,-0.1191,-2.0899936161436976,-0.00033073281520046294,4.11157751083374,-1.5293030738830566,9.79582400759682e-05,1.9439096450805664,5.2187044499214075,-0.0,0.2549983561038971,-1.6080659071551722,0.0,-0.002383500337600708,0.05141359940171242,-0.0,0.005886838771402836,1.5559732913970947,-0.0006946054054424167,0.026512935757637024
414.0,439.0,-1.2508,-0.0628,9.585,-0.0315,0.0269,-0.1191,-2.0900384388365687,-0.003167579649016261,4.04873514175415,-1.529290795326233,9.01118473848328e-05,1.9065107107162476,5.218736219197073,-0.00025082813226617873,0.2817959189414978,-1.608049217854635,0.0,0.014757055789232254,0.05143779516220093,-0.0,0.0002701706252992153,1.555957317352295,-0.0004585431015584618,0.01970653422176838
414.0,439.0,-1.2508,-0.0628,9.585,-0.0315,0.0269,-0.1191,-2.090102335015768,-0.003837580792605877,4.083690643310547,-1.5293277502059937,8.500522380927578e-05,1.9505572319030762,5.218712317734518,-0.000438412360381335,0.26545625925064087,-1.6080578009234827,0.0,0.0006975755095481873,0.05137743800878525,-0.0,0.009809215553104877,1.5559370517730713,-0.0003654255997389555,0.0055335648357868195
414.0,439.0,-1.2508,-0.0628,9.585,-0.0315,0.0269,-0.1191,-2.090126176873678,-0.004669280722737312,4.074082374572754,-1.529295802116394,0.00012102516484446824,1.9290337562561035,5.218700158386984,-0.0005725828814320266,0.2567441165447235,-1.6081021467791956,0.0,0.0034855089616030455,0.0513894222676754,-0.0,0.005878749303519726,1.5559731721878052,-0.0002875714853871614,-0.0013316888362169266
414.0,439.0,-1.2508,-0.0628,9.585,-0.0315,0.0269,-0.1191,-2.0901180706419886,-0.004387003369629383,4.054758071899414,-1.5292792320251465,0.00030692442669533193,1.943267822265625,5.218744027405538,-0.0005294120055623353,0.2718587815761566,-1.6080496946917933,0.0,0.012590738013386726,0.051405444741249084,-0.0,0.007550470065325499,1.5559532642364502,-0.00020665190822910517,-0.018181268125772476
414.0,439.0,-1.2508,-0.0628,9.585,-0.0315,0.0269,-0.1191,-2.090182443658346,-0.0032864257227629423,4.091626167297363,-1.5292109251022339,0.004712424706667662,1.948541522026062,5.218700158386984,-0.00044228756451047957,0.263952374458313,-1.6080578009234827,0.0,0.017680326476693153,0.05140134319663048,-0.0,-0.009970544837415218,1.5559371709823608,-0.00013981902156956494,-0.014488622546195984
414.0,439.0,-1.2508,-0.0628,9.585,-0.0315,0.0269,-0.1191,-2.090166231194967,-0.0027792707551270723,4.105085372924805,-1.529191255569458,0.009066683240234852,1.9941043853759766,5.218672382622518,-0.00041879023774527013,0.2511565685272217,-1.6080897490130823,0.0,0.007199293468147516,0.051393523812294006,-0.0,0.003438959363847971,1.5559971332550049,-9.387097088620067e-05,0.0447254553437233
399.0,427.0,-1.7498,0.0299,9.4499,-0.0362,0.0186,-0.1122,-2.090250631371969,-0.0024361249525099993,4.089230537414551,-1.529111385345459,0.011329040862619877,2.0023586750030518,5.218668448715963,-0.0004390860558487475,0.26119744777679443,-1.6080735365497034,0.0,-0.0006554661667905748,0.051397573202848434,-0.0,-0.0063573820516467094,1.5559849739074707,0.00010811779065988958,-0.03393498808145523
399.0,427.0,-1.7498,0.0299,9.4499,-0.0362,0.0186,-0.1122,-2.090210100213522,-0.0023519443348050117,4.0661211013793945,-1.5290155410766602,0.012455574236810207,2.0011658668518066,5.218680250435629,-0.0006053000688552856,0.274370938539505,-1.6080816427813929,0.0,0.014756979420781136,0.05142141506075859,-0.0,-0.009103979915380478,1.5559972524642944,0.0008172522648237646,0.017887970432639122
399.0,427.0,-1.7498,0.0299,9.4499,-0.0362,0.0186,-0.1122,-2.090238233605856,-0.0015938126016408205,4.09483528137207,-1.5289113521575928,0.013612283393740654,1.9937448501586914,5.218636381417074,-0.0005090457852929831,0.27405035495758057,-1.6081135908709925,0.0,0.013804318383336067,0.051381587982177734,-0.0,-0.006152546964585781,1.5560331344604492,0.0009069069637916982,0.008990440517663956
399.0,427.0,-1.7498,0.0299,9.4499,-0.0362,0.0186,-0.1122,-2.090222021142477,-0.001038870308548212,4.12105131149292,-1.5288317203521729,0.01354342419654131,1.9987967014312744,5.218724298268118,-0.00042988714994862676,0.2643579840660095,-1.6080897490130823,0.0,0.025377582758665085,0.05137752369046211,-0.0,0.01399349607527256,1.556009292602539,0.0007923755911178887,0.05653955787420273
399.0,427.0,-1.7498,0.0299,9.4499,-0.0362,0.0186,-0.1122,-2.0902182064452113,-0.000658539414871484,4.095242023468018,-1.5287315845489502,0.013566859997808933,2.036440134048462,5.218660461693563,-0.00040909965173341334,0.25845053791999817,-1.6080496946917933,0.0,0.013314243406057358,0.051369428634643555,-0.0,0.010792940855026245,1.5560731887817383,0.0005724875372834504,0.0038160989060997963
399.0,427.0,-1.7498,0.0299,9.4499,-0.0362,0.0186,-0.1122,-2.090238233605856,-0.0005168677889741957,4.120814323425293,-1.5286558866500854,0.013059593737125397,1.9304969310760498,5.218668448715963,-0.0003747452574316412,0.2605307996273041,-1.6081059614764612,0.0,0.014160999096930027,0.05135715380311012,-0.0,-0.008748726919293404,1.5560369491577148,0.0004971422604285181,-0.01278794463723898
399.0,427.0,-1.7498,0.0299,9.4499,-0.0362,0.0186,-0.1122,-2.0902706585326136,-0.0003189181152265519,4.0920305252075195,-1.5285156965255737,0.012113304808735847,1.9680885076522827,5.218632328301229,-0.0006421693251468241,0.2541203796863556,-1.6080978552447718,0.0,0.022301441058516502,0.05139756575226784,-0.0,-0.004727426916360855,1.5560171604156494,0.00036331143928691745,-0.05485789477825165
399.0,427.0,-1.7498,0.0299,9.4499,-0.0362,0.0186,-0.1122,-2.0902463398375453,-0.0003741281107068062,4.0982818603515625,-1.5284680128097534,0.01107836700975895,2.020535469055176,5.218632328301229,-0.0007878793985582888,0.25997230410575867,-1.608093563710348,0.0,0.01860949397087097,0.051361218094825745,-0.0,-0.002954676281660795,1.5560250282287598,0.0003022882156074047,0.035917822271585464
399.0,427.0,-1.7498,0.0299,9.4499,-0.0362,0.0186,-0.1122,-2.090262552300924,-0.0017789319390431046,4.101178169250488,-1.5284161567687988,0.009324045851826668,1.9877047538757324,5.218624460488119,-0.0015934074763208628,0.25837814807891846,-1.6081178824054163,0.0,0.0011879387311637402,0.05138157308101654,-0.0,0.0007355495472438633,1.5559930801391602,0.00020582435536198318,-0.03617113456130028
399.0,427.0,-1.7498,0.0299,9.4499,-0.0362,0.0186,-0.1122,-2.0902863941588343,-0.0027578657027333975,4.098455905914307,-1.5283921957015991,0.00811744388192892,1.948117971420288,5.218632328301229,-0.00252763694152236,0.2543775737285614,-1.6080334822284144,0.0,0.020320003852248192,0.05144175887107849,-0.0,0.005717745516449213,1.5559611320495605,0.00014484531129710376,0.024147581309080124
399.0,427.0,-1.7498,0.0299,9.4499,-0.0362,0.0186,-0.1122,-2.0903102360167445,-0.003988755401223898,4.098127365112305,-1.5282753705978394,0.005591610912233591,1.9464616775512695,5.218556988030233,-0.004551965277642012,0.25858280062675476,-1.6080496946917933,0.0,0.012251287698745728,0.051381587982177734,-0.0,-0.004529373254626989,1.5559852123260498,-2.0210853108437732e-05,0.008168382570147514
399.0,427.0,-1.7498,0.0299,9.4499,-0.0362,0.0186,-0.1122,-2.0903102360167445,-0.004052477888762951,4.108172416687012,-1.5282483100891113,0.004783132113516331,1.9770770072937012,5.218524920731344,-0.010364580899477005,0.26651760935783386,-1.608070198689596,0.0,0.016587110236287117,0.05141773447394371,-0.0,0.0005835004267282784,1.5560052394866943,-0.00013955934264231473,0.008082278072834015
399.0,427.0,-1.7498,0.0299,9.4499,-0.0362,0.0186,-0.1122,-2.0903507671751917,-0.003757487516850233,4.091725826263428,-1.5282405614852905,0.0038512886967509985,1.8867075443267822,5.21847681978301,-0.011465134099125862,0.2531721293926239,-1.6080897490130823,0.0,0.015416093170642853,0.0513811893761158,-0.0,0.0021799562964588404,1.5559252500534058,-0.000953224312979728,-0.006410108879208565
423.0,415.0,-1.5739,0.0832,9.6138,-0.0399,0.0406,-0.1283,-2.090382238427633,-0.003468920476734638,4.069213390350342,-1.5281840562820435,0.003325119847431779,1.9778485298156738,5.218368518143453,-0.006175713147968054,0.2580358684062958,-1.6080978552447718,0.0,0.011265778914093971,0.0514337420463562,-0.0,-0.0019351290538907051,1.555989146232605,-0.0009465027833357453,0.017429856583476067
423.0,415.0,-1.5739,0.0832,9.6138,-0.0399,0.0406,-0.1283,-2.0904227695860804,-0.0036312087904661894,4.074130058288574,-1.528192400932312,0.0032771574333310127,1.9364949464797974,5.218352901726522,-0.0017576488899067044,0.2544102072715759,-1.608049217854635,0.0,0.013750399462878704,0.051421452313661575,-0.0,0.006497950293123722,1.55597722530365,-0.0007336691487580538,0.0025823237374424934
423.0,415.0,-1.5739,0.0832,9.6138,-0.0399,0.0406,-0.1283,-2.090471406976217,-0.003872152417898178,4.102391719818115,-1.5281323194503784,0.0037134389858692884,1.9703625440597534,5.21833353021697,-0.0009160081390291452,0.24895256757736206,-1.6080978552447718,0.0,0.005662630312144756,0.05138540267944336,-0.0,0.005781384184956551,1.5559574365615845,-0.0005259207100607455,0.01747487485408783
423.0,415.0,-1.5739,0.0832,9.6138,-0.0399,0.0406,-0.1283,-2.0904866657652796,-0.0034548582043498755,4.037751197814941,-1.528156042098999,0.004845333751291037,1.9744162559509277,5.218357252865591,-0.0006597745814360678,0.25662893056869507,-1.6080659071551722,0.0,0.02372569777071476,0.051493868231773376,-0.0,-0.003259061137214303,1.555957317352295,-0.00035818625474348664,0.004537001717835665
423.0,415.0,-1.5739,0.0832,9.6138,-0.0399,0.0406,-0.1283,-2.090449949304098,-0.003478489350527525,4.0549235343933105,-1.528015375137329,0.006743480451405048,1.9759405851364136,5.218372809677877,-0.0005183859029784799,0.25448083877563477,-1.6080778280841272,0.0,0.012201853096485138,0.05143368989229202,-0.0,0.006303822156041861,1.5559732913970947,-0.00028912752168253064,0.0014444973785430193
423.0,415.0,-1.5739,0.0832,9.6138,-0.0399,0.0406,-0.1283,-2.0905267200865687,-0.003451072843745351,4.002052307128906,-1.5279920101165771,0.009482845664024353,1.9725301265716553,5.2184128043945215,-0.0003140775370411575,0.23709163069725037,-1.608070198689596,0.0,0.0069849989376962185,0.05142947658896446,-0.0,0.0041346438229084015,1.555957317352295,-0.00023000709188636392,-0.030316052958369255
423.0,415.0,-1.5739,0.0832,9.6138,-0.0399,0.0406,-0.1283,-2.090522428552145,-0.004288357682526112,4.092797756195068,-1.5279324054718018,0.011454105377197266,1.9784936904907227,5.218404876976766,-0.0005428981967270374,0.24605818092823029,-1.60803729692568,0.0,0.008563251234591007,0.05143365636467934,-0.0,0.0027677183970808983,1.5559532642364502,-0.00019942478684242815,0.009701407514512539
423.0,415.0,-1.5739,0.0832,9.6138,-0.0399,0.0406,-0.1283,-2.0905944309630335,-0.00537350308150053,4.02230978012085,-1.5278685092926025,0.015128430910408497,1.9955394268035889,5.218384909420767,-0.001599899958819151,0.24821293354034424,-1.6080740133868616,0.0,0.010780958458781242,0.05144185945391655,-0.0,0.00868846382945776,1.5559653043746948,-0.00013551626761909574,0.015080570243299007
423.0,415.0,-1.5739,0.0832,9.6138,-0.0399,0.0406,-0.1283,-2.090630670587057,-0.006917041260749102,4.035698413848877,-1.52776038646698,0.016730809584259987,1.9966466426849365,5.218325066357412,-0.0021430542692542076,0.2358684241771698,-1.6080659071551722,0.0,0.008550094440579414,0.05136106163263321,-0.0,0.01561431959271431,1.555981159210205,-0.000121764671348501,0.004699133336544037
423.0,415.0,-1.5739,0.0832,9.6138,-0.0399,0.0406,-0.1283,-2.0907470188536585,-0.008378524333238602,3.9826488494873047,-1.5275521278381348,0.019647618755698204,2.0127904415130615,5.218325185566702,-0.0023818190675228834,0.23143735527992249,-1.6080415884601038,0.0,0.01419055089354515,0.05144969001412392,-0.0,0.02839149348437786,1.555957317352295,-0.00010725353058660403,0.047202277928590775
423.0,415.0,-1.5739,0.0832,9.6138,-0.0399,0.0406,-0.1283,-2.090750356713766,-0.009259731508791447,4.031003475189209,-1.5274484157562256,0.02294636331498623,2.0498809814453125,5.218352961331167,-0.002388101303949952,0.23222973942756653,-1.608070198689596,0.0,-0.0023785727098584175,0.05143779516220093,-0.0,0.02232629619538784,1.5559653043746948,-7.3956762207672e-05,0.05155288055539131
423.0,415.0,-1.5739,0.0832,9.6138,-0.0399,0.0406,-0.1283,-2.090858598748678,-0.009602644480764866,3.9955601692199707,-1.5272362232208252,0.02547222562134266,1.9910402297973633,5.218265402107992,-0.0023196239490062,0.22915489971637726,-1.608082119618551,0.0,-0.013973291032016277,0.05141321197152138,-0.0,0.015273827128112316,1.5560213327407837,-6.65591869619675e-05,0.0672328844666481
423.0,415.0,-1.5739,0.0832,9.6138,-0.0399,0.0406,-0.1283,-2.0909067593016566,-0.010204664431512356,3.984839916229248,-1.5270838737487793,0.026940589770674706,2.0603206157684326,5.218325245171346,-0.0027475401293486357,0.2149147242307663,-1.6080740133868616,0.0,-0.003610455896705389,0.05146925896406174,-0.0,0.014148264192044735,1.5560050010681152,3.6990844819229096e-05,0.09003292769193649
404.0,427.0,-1.5302,0.2806,9.7202,-0.0564,0.0452,-0.1388,-2.0909506283202113,-0.010602881200611591,3.949558734893799,-1.5268971920013428,0.028313523158431053,2.0103960037231445,5.218257415085592,-0.004257509019225836,0.21103891730308533,-1.6080616156207483,0.0,-0.013715151697397232,0.051473427563905716,-0.0,0.03355804458260536,1.5560171604156494,4.511665247264318e-05,0.05986965447664261
404.0,427.0,-1.5302,0.2806,9.7202,-0.0564,0.0452,-0.1388,-2.091066976586813,-0.010857322253286839,4.009163856506348,-1.5267128944396973,0.029058942571282387,2.025803804397583,5.218229222088613,-0.00590557511895895,0.2051093876361847,-1.608025375996725,0.0,-0.00039100440335460007,0.05152171477675438,-0.0,0.02369563654065132,1.5559531450271606,6.294187187450007e-05,0.09861791133880615
404.0,427.0,-1.5302,0.2806,9.7202,-0.0564,0.0452,-0.1388,-2.091102739373678,-0.010345482267439365,3.9527854919433594,-1.526452898979187,0.030377741903066635,2.0653274059295654,5.218189525395193,-0.006680762395262718,0.1975259631872177,-1.6080616156207483,0.0,-0.0028754451777786016,0.051453303545713425,-0.0,0.03351358696818352,1.55600106716156,7.676462701056153e-05,0.11645691841840744
404.0,427.0,-1.5302,0.2806,9.7202,-0.0564,0.0452,-0.1388,-2.0911995373167933,-0.00879350584000349,3.9399261474609375,-1.5261681079864502,0.0311448834836483,2.0891592502593994,5.218117582588949,-0.0050599644891917706,0.23249375820159912,-1.6080740133868616,0.0,0.001128499978221953,0.0514373779296875,-0.0,0.031242283061146736,1.5559653043746948,9.018651326186955e-05,0.0967843234539032
404.0,427.0,-1.5302,0.2806,9.7202,-0.0564,0.0452,-0.1388,-2.091214796105856,-0.007660735864192247,3.9394407272338867,-1.5259525775909424,0.030437927693128586,2.0892560482025146,5.218113648682394,-0.0027958869468420744,0.20570378005504608,-1.608025375996725,0.0,-0.013173993676900864,0.05145334452390671,0.0002024568966589868,0.04385044798254967,1.556009292602539,0.000244852970354259,0.11881069839000702
404.0,427.0,-1.5302,0.2806,9.7202,-0.0564,0.0452,-0.1388,-2.091339250604147,-0.007181390654295683,3.951645612716675,-1.5257728099822998,0.029605982825160027,2.0527613162994385,5.218037414341726,-0.0021134980488568544,0.20811663568019867,-1.6080134550677698,0.0,-0.004640946164727211,0.05143327638506889,0.0001809935929486528,0.03996226564049721,1.5560253858566284,0.00025258795358240604,0.08138825744390488
404.0,427.0,-1.5302,0.2806,9.7202,-0.0564,0.0452,-0.1388,-2.0913430653014125,-0.0065233600325882435,3.9987478256225586,-1.5255210399627686,0.03043404035270214,2.0962367057800293,5.218057858734884,-0.0015711855376139283,0.21447890996932983,-1.6080659071551722,0.0,-0.00679861381649971,0.051424961537122726,0.0001870835985755548,0.050007544457912445,1.5560132265090942,0.00027950885123573244,0.08126315474510193
404.0,427.0,-1.5302,0.2806,9.7202,-0.0564,0.0452,-0.1388,-2.0913387737669886,-0.005927847232669592,3.925966262817383,-1.5253691673278809,0.03171415627002716,2.0506224632263184,5.218041884690084,-0.0018155397847294807,0.20908930897712708,-1.608082119618551,0.0,-0.022157184779644012,0.051449261605739594,0.00016947195399552584,0.029242925345897675,1.556069254875183,0.00040061920299194753,0.10897085815668106
404.0,427.0,-1.5302,0.2806,9.7202,-0.0564,0.0452,-0.1388,-2.091430803338522,-0.005434276070445776,3.934357166290283,-1.525061011314392,0.03376790136098862,2.083237648010254,5.218069720059194,-0.002259431406855583,0.20673051476478577,-1.6080458799945276,0.0,-0.009826438501477242,0.051445093005895615,0.0001756482815835625,0.03595907986164093,1.5560450553894043,0.0009070777450688183,0.13796143233776093
404.0,427.0,-1.5302,0.2806,9.7202,-0.0564,0.0452,-0.1388,-2.0915032825865687,-0.005607593804597855,3.9517245292663574,-1.524906039237976,0.03603759780526161,2.0811851024627686,5.218029963761129,-0.00263825966976583,0.19963914155960083,-1.6080578009234827,0.0,-0.016216116026043892,0.05147754028439522,0.00016210250032600015,0.035644978284835815,1.5559933185577393,0.0008536131936125457,0.11156577616930008
404.0,427.0,-1.5302,0.2806,9.7202,-0.0564,0.0452,-0.1388,-2.091494699517721,-0.0063706813380122185,3.876248359680176,-1.5246098041534424,0.03952256217598915,2.094871759414673,5.218002247601309,-0.0034014531411230564,0.20451313257217407,-1.6080740133868616,0.0,-0.004619704559445381,0.05148160457611084,0.00016725718160159886,0.03533973544836044,1.5560972690582275,0.0012366387527436018,0.12288279831409454
404.0,427.0,-1.5302,0.2806,9.7202,-0.0564,0.0452,-0.1388,-2.0916158161559046,-0.006644168868660927,3.9583840370178223,-1.524264931678772,0.04234104976058006,2.1164016723632812,5.217973816185751,-0.00416077533736825,0.19145901501178741,-1.6080215612994593,0.0,-0.005779947619885206,0.051525890827178955,0.00015698322386015207,0.04141145572066307,1.556028962135315,0.001133756130002439,0.13270431756973267
404.0,427.0,-1.5302,0.2806,9.7202,-0.0564,0.0452,-0.1388,-2.0916511021056117,-0.008033828809857368,3.9103715419769287,-1.5239942073822021,0.04529388248920441,2.0933163166046143,5.217938470631399,-0.004209053236991167,0.19587427377700806,-1.608082119618551,0.0,0.007416542619466782,0.051445093005895615,0.00014439033111557364,0.03862879052758217,1.5560492277145386,0.0008147368207573891,0.09755677729845047
399.0,403.0,-1.6792,0.0939,9.7561,-0.0721,0.0753,-0.1318,-2.0917073688902796,-0.008401504717767239,3.9361214637756348,-1.5235862731933594,0.048415325582027435,2.1250646114349365,5.217877912312307,-0.00307835778221488,0.19922882318496704,-1.6080578009234827,0.0,0.0006771760527044535,0.051437340676784515,0.00013366769417189062,0.034948207437992096,1.5560729503631592,0.0006135621224530041,0.1393847018480301
399.0,403.0,-1.6792,0.0939,9.7561,-0.0721,0.0753,-0.1318,-2.091766973535055,-0.008148131892085075,3.9087657928466797,-1.5233105421066284,0.048146966844797134,2.0826833248138428,5.217890250473776,-0.0022731537465006113,0.19919255375862122,-1.608070198689596,0.0,-0.013382877223193645,0.05142499506473541,0.00012661570508498698,0.03938128426671028,1.5560890436172485,0.0004886130336672068,0.11520478874444962
399.0,403.0,-1.6792,0.0939,9.7561,-0.0721,0.0753,-0.1318,-2.0918356380858363,-0.0074258288368582726,3.929694652557373,-1.5229308605194092,0.05152994021773338,2.102731466293335,5.217870282917776,-0.0018973421538248658,0.20637007057666779,-1.6080096403705042,0.0,-0.013220185413956642,0.051502130925655365,0.00011829442519228905,0.03608017414808273,1.5560731887817383,0.0002937853860203177,0.10655664652585983
399.0,403.0,-1.6792,0.0939,9.7561,-0.0721,0.0753,-0.1318,-2.091887136498922,-0.0067581599578261375,3.9026317596435547,-1.5225626230239868,0.05569736659526825,2.1095447540283203,5.2178863165672205,-0.0019330570939928293,0.2030012607574463,-1.608025375996725,0.0,-0.021400650963187218,0.051453351974487305,0.00011273760901531205,0.034713491797447205,1.5560612678527832,0.0002456505026202649,0.17118939757347107
399.0,403.0,-1.6792,0.0939,9.7561,-0.0721,0.0753,-0.1318,-2.0919515095152796,-0.007829086855053902,3.9325060844421387,-1.5221471786499023,0.05963047966361046,2.1186747550964355,5.217854428082266,-0.0020446591079235077,0.1963571310043335,-1.6080659071551722,0.0,-0.013467659242451191,0.05139720067381859,0.0001060926733771339,0.03842376545071602,1.556028962135315,0.0002683883940335363,0.14204443991184235
399.0,403.0,-1.6792,0.0939,9.7561,-0.0721,0.0753,-0.1318,-2.0919834576048792,-0.007842662744224072,3.942431926727295,-1.5217667818069458,0.06255951523780823,2.136167526245117,5.217818426876821,-0.002339901402592659,0.20318207144737244,-1.608025375996725,0.0,-0.0020417009945958853,0.051461100578308105,0.00010160137026105076,0.023541919887065887,1.556049108505249,0.00028419727459549904,0.16681547462940216
399.0,403.0,-1.6792,0.0939,9.7561,-0.0721,0.0753,-0.1318,-2.0920473537840785,-0.0084262415766716,3.882607936859131,-1.5212756395339966,0.061157140880823135,2.140899181365967,5.217786299973287,-0.002145590726286173,0.19972312450408936,-1.6080535093890589,0.0,-0.018151868134737015,0.05148971825838089,9.617288742447272e-05,0.0336526557803154,1.556089162826538,0.00033516905386932194,0.17052015662193298
399.0,403.0,-1.6792,0.0939,9.7561,-0.0721,0.0753,-0.1318,-2.092099805871481,-0.008189615793526173,3.917088031768799,-1.5208996534347534,0.060523469001054764,2.1042494773864746,5.217758643418112,-0.001697271945886314,0.1978832185268402,-1.6080215612994593,0.0,-0.007125278003513813,0.051461078226566315,9.246747504221275e-05,0.03365422040224075,1.556077003479004,0.0003767643647734076,0.19231320917606354
399.0,403.0,-1.6792,0.0939,9.7561,-0.0721,0.0753,-0.1318,-2.092135091821188,-0.0050849467515945435,3.919123649597168,-1.5204116106033325,0.060114700347185135,2.1048965454101562,5.217794465809622,-0.0014657080173492432,0.19526058435440063,-1.6080296675311487,0.0,-0.0038919865619391203,0.051469337195158005,8.794941822998226e-05,0.03588622435927391,1.5560811758041382,0.0006400002166628838,0.17841362953186035
399.0,403.0,-1.6792,0.0939,9.7561,-0.0721,0.0753,-0.1318,-2.0921551189818324,-0.003993305843323469,3.8687238693237305,-1.5200438499450684,0.06257446110248566,2.16150164604187,5.217750477581777,-0.0019127068808302283,0.19521287083625793,-1.60803729692568,0.0,-0.016996268182992935,0.051433295011520386,8.484044519718736e-05,0.011513294652104378,1.5561131238937378,0.0008829158614389598,0.13760779798030853
399.0,403.0,-1.6792,0.0939,9.7561,-0.0721,0.0753,-0.1318,-2.0922395191588343,-0.004359125159680843,3.871703863143921,-1.5195320844650269,0.06748799234628677,2.1400275230407715,5.217730748444357,-0.0036138505674898624,0.183149516582489,-1.6080177466021937,0.0,-0.012590735219419003,0.051505740731954575,8.102165156742558e-05,0.03204897791147232,1.5561050176620483,0.0011178568238392472,0.16795188188552856
399.0,403.0,-1.6792,0.0939,9.7561,-0.0721,0.0753,-0.1318,-2.0922070942320765,-0.00615012226626277,3.9000234603881836,-1.5190763473510742,0.07331651449203491,2.1755428314208984,5.217666792660513,-0.005066243000328541,0.1936945766210556,-1.608025375996725,0.0,-0.007339057512581348,0.051445066928863525,2.622430656629149e-06,0.05169420689344406,1.5561130046844482,0.0011720308102667332,0.1856258064508438
399.0,403.0,-1.6792,0.0939,9.7561,-0.0721,0.0753,-0.1318,-2.092327734033102,-0.00969638954848051,3.870344638824463,-1.5184924602508545,0.08116888254880905,2.19700288772583,5.217630791455068,-0.0061637163162231445,0.1782793402671814,-1.6080659071551722,0.0,-0.017802253365516663,0.051477447152137756,4.766138178569079e-11,0.031671181321144104,1.5561130046844482,0.0009266547276638448,0.18593473732471466
363.0,359.0,-1.8245,-0.192,8.8792,-0.0834,0.0673,-0.1214,-2.092403551141256,-0.012701397761702538,3.8546133041381836,-1.5179811716079712,0.08632032573223114,2.2024240493774414,5.217594909458914,-0.0060217659920454025,0.1835864782333374,-1.608082119618551,0.0,-0.006129581481218338,0.05151766538619995,1.3266720451973312e-14,0.023154133930802345,1.556128978729248,0.0008042684639804065,0.1587708741426468
363.0,359.0,-1.8245,-0.192,8.8792,-0.0834,0.0673,-0.1214,-2.0924793682494105,-0.015002951957285404,3.8605408668518066,-1.5172889232635498,0.09655439853668213,2.1972804069519043,5.217543291836538,-0.0050947172567248344,0.18639212846755981,-1.6080620924579065,0.0,-0.020145727321505547,0.051453351974487305,4.948901187162846e-05,0.03540531545877457,1.5561410188674927,0.0005071338382549584,0.14680422842502594
363.0,359.0,-1.8245,-0.192,8.8792,-0.0834,0.0673,-0.1214,-2.0925995312132777,-0.017172150313854218,3.843846321105957,-1.5166492462158203,0.09914568066596985,2.258417844772339,5.217499303608694,-0.0031986497342586517,0.18751126527786255,-1.6080096403705042,0.0,-0.010340322740375996,0.0514209046959877,5.274824798107147e-05,0.04123098775744438,1.5561130046844482,0.00037529083783738315,0.16931885480880737
363.0,359.0,-1.8245,-0.192,8.8792,-0.0834,0.0673,-0.1214,-2.092748304406637,-0.01994665339589119,3.8502442836761475,-1.5158655643463135,0.10147634148597717,2.176792621612549,5.217559206276693,-0.0014163607265800238,0.18271923065185547,-1.6080616156207483,0.0,-0.013167835772037506,0.05145292356610298,5.038711606175639e-05,0.0402163565158844,1.5561130046844482,0.00033767439890652895,0.19367238879203796
363.0,359.0,-1.8245,-0.192,8.8792,-0.0834,0.0673,-0.1214,-2.092884202996725,-0.02076699025928974,3.855219841003418,-1.5152379274368286,0.09994146972894669,2.2237679958343506,5.217531370907583,-0.0008902448462322354,0.18315286934375763,-1.6080134550677698,0.0,-0.009655744768679142,0.05144559219479561,4.19072023305489e-07,0.02982253208756447,1.5561250448226929,0.00028432777617126703,0.17495271563529968
363.0,359.0,-1.8245,-0.192,8.8792,-0.0834,0.0673,-0.1214,-2.0930801830687464,-0.02342572622001171,3.8361520767211914,-1.51444673538208,0.1031372994184494,2.2211666107177734,5.217571127205648,-0.0005953427753411233,0.1950303614139557,-1.6080415884601038,0.0,-0.012899378314614296,0.05147344991564751,7.616427454004704e-12,0.03543776273727417,1.556109070777893,0.0003125964431092143,0.18800999224185944
363.0,359.0,-1.8245,-0.192,8.8792,-0.0834,0.0673,-0.1214,-2.093192239800924,-0.025918129831552505,3.8375425338745117,-1.5139435529708862,0.10785937309265137,2.1811814308166504,5.217559265881338,-0.0004229227779433131,0.19186514616012573,-1.608082119618551,0.0,-0.015425015240907669,0.05146143212914467,2.1200603630229433e-15,0.03937049210071564,1.556157112121582,0.00027700114878825843,0.20425745844841003
363.0,359.0,-1.8245,-0.192,8.8792,-0.0834,0.0673,-0.1214,-2.0934444866576136,-0.03413567319512367,3.8158631324768066,-1.5129916667938232,0.11470207571983337,2.223267078399658,5.217511105328359,-0.001603250508196652,0.1888556182384491,-1.6080134550677698,0.0,-0.013700678944587708,0.051469363272190094,3.8531055209697436e-20,0.03459491580724716,1.5560930967330933,0.00024005759041756392,0.16081710159778595
363.0,359.0,-1.8245,-0.192,8.8792,-0.0834,0.0673,-0.1214,-2.0936762295165003,-0.04280618950724602,3.773740768432617,-1.5122880935668945,0.12121017277240753,2.228464365005493,5.21747516372756,-0.0026702021714299917,0.18877951800823212,-1.6079853216754358,0.0,-0.004780897870659828,0.05150170251727104,1.0725261359519871e-23,0.03885948657989502,1.556089162826538,0.0002182286261813715,0.125369131565094
363.0,359.0,-1.8245,-0.192,8.8792,-0.0834,0.0673,-0.1214,-2.094072481194967,-0.05332787334918976,3.758439779281616,-1.5112800598144531,0.12550655007362366,2.2113423347473145,5.217499303608694,-0.0027718408964574337,0.19490888714790344,-1.6080177466021937,0.0,-0.00697343097999692,0.0514410026371479,1.9492630671459733e-28,0.035898350179195404,1.5560811758041382,0.00019463151693344116,0.1880318522453308
363.0,359.0,-1.8245,-0.192,8.8792,-0.0834,0.0673,-0.1214,-2.0943767033019007,-0.05803096294403076,3.764714479446411,-1.510513186454773,0.12555168569087982,2.245107650756836,5.21741538026885,-0.0020619197748601437,0.1974017322063446,-1.607981030141012,0.0,-0.009238465689122677,0.05151362344622612,5.425845061283988e-32,0.04015520587563515,1.5560410022735596,0.00015754012565594167,0.20006099343299866
363.0,359.0,-1.8245,-0.192,8.8792,-0.0834,0.0673,-0.1214,-2.0948854885497035,-0.06393428146839142,3.805593967437744,-1.5094691514968872,0.12690506875514984,2.1887905597686768,5.21748714426116,-0.001003459794446826,0.18573153018951416,-1.6079934279071253,0.0,0.0041351765394210815,0.05147344991564751,9.861204997512362e-37,0.059090420603752136,1.5561250448226929,0.00014320480113383383,0.12224330008029938
363.0,359.0,-1.8245,-0.192,8.8792,-0.0834,0.0673,-0.1214,-2.0953337154784144,-0.06589801609516144,3.743265151977539,-1.508790373802185,0.1317550539970398,2.2245328426361084,5.217479693680563,-0.0007007656386122108,0.19837746024131775,-1.6080177466021937,0.0,0.01173473335802555,0.051437340676784515,2.7449054708733814e-40,0.04704560711979866,1.5561010837554932,0.0001340627350145951,0.16146928071975708
346.0,358.0,-2.5149,0.0562,9.9523,0.0669,-0.0574,-0.1093,-2.095865865746969,-0.07502524554729462,3.784327507019043,-1.507685899734497,0.14063553512096405,2.243213176727295,5.21739153841094,-0.0007037136238068342,0.1908869445323944,-1.6080015341388147,0.0,-0.005084288772195578,0.05150570347905159,5.605193857299268e-45,0.04849206283688545,1.5561169385910034,0.00012354657519608736,0.18587622046470642
346.0,358.0,-2.5149,0.0562,9.9523,0.0669,-0.0574,-0.1093,-2.0964471302428187,-0.08345528692007065,3.7713165283203125,-1.5068551301956177,0.15028007328510284,2.2464826107025146,5.21742336729125,-0.003248860826715827,0.19158796966075897,-1.6080220381366175,0.0,-0.0013113796012476087,0.0514853335916996,0.0,0.0313631035387516,1.5560851097106934,0.00011693763372022659,0.16219691932201385
346.0,358.0,-2.5149,0.0562,9.9523,0.0669,-0.0574,-0.1093,-2.097130914727682,-0.08934946358203888,3.774242401123047,-1.5056800842285156,0.15266215801239014,2.2469635009765625,5.217371451645651,-0.007290367968380451,0.18352198600769043,-1.6079977194415491,0.0,0.0023136839736253023,0.05148978531360626,0.0,0.050143904983997345,1.5560650825500488,1.8291799278813414e-05,0.0909927487373352
346.0,358.0,-2.5149,0.0562,9.9523,0.0669,-0.0574,-0.1093,-2.097686906854147,-0.08991987258195877,3.7754459381103516,-1.5047311782836914,0.14931273460388184,2.30829119682312,5.217311847000875,-0.011611794121563435,0.1840352714061737,-1.6080177466021937,0.0,0.007604032289236784,0.051481034606695175,0.0,0.06110629439353943,1.5560328960418701,3.759877686970725e-10,0.12953859567642212
346.0,358.0,-2.5149,0.0562,9.9523,0.0669,-0.0574,-0.1093,-2.098403116265768,-0.09202634543180466,3.7595558166503906,-1.5035604238510132,0.14866439998149872,2.249267101287842,5.217167842179098,-0.019719790667295456,0.17956721782684326,-1.607969109212057,0.0,-0.00960969552397728,0.05147743225097656,0.0,0.02770538069307804,1.5560489892959595,1.2181525748779528e-17,0.10488906502723694
346.0,358.0,-2.5149,0.0562,9.9523,0.0669,-0.0574,-0.1093,-2.099055906335348,-0.09406862407922745,3.7745304107666016,-1.5026973485946655,0.1509438008069992,2.232538938522339,5.2169925449188135,-0.030910322442650795,0.17709395289421082,-1.6080101172076624,0.0,0.018135225400328636,0.05146938934922218,0.0,0.06019067019224167,1.5560569763183594,-0.0007034821901470423,0.09213724732398987
346.0,358.0,-2.5149,0.0562,9.9523,0.0669,-0.0574,-0.1093,-2.0997845135130824,-0.10146836191415787,3.7485105991363525,-1.5014296770095825,0.15453089773654938,2.226841688156128,5.2166568515594385,-0.05926200747489929,0.14077889919281006,-1.6079495588885706,0.0,0.012717091478407383,0.05146927759051323,0.0,0.03816340118646622,1.5561171770095825,-0.0006069319206289947,0.030325494706630707
346.0,358.0,-2.5149,0.0562,9.9523,0.0669,-0.0574,-0.1093,-2.1003481350340785,-0.10526583343744278,3.6873221397399902,-1.5004581212997437,0.15654738247394562,2.2445459365844727,5.2162131545837305,-0.09414259344339371,0.15294936299324036,-1.6080101172076624,0.00023225927725434303,0.0068531334400177,0.05147743225097656,0.0,0.05178166553378105,1.5560411214828491,-0.0005379907670430839,0.08533276617527008
346.0,358.0,-2.5149,0.0562,9.9523,0.0669,-0.0574,-0.1093,-2.1012655697264613,-0.10686691105365753,3.7628369331359863,-1.4991872310638428,0.1563856154680252,2.265655040740967,5.215275633126058,-0.14199407398700714,0.12114790081977844,-1.6080096403705042,0.00023716555733699352,0.016686851158738136,0.051533278077840805,0.0,0.05131007730960846,1.5560611486434937,-0.000509736652020365,-0.02937617525458336
346.0,358.0,-2.5149,0.0562,9.9523,0.0669,-0.0574,-0.1093,-2.101821085015768,-0.10353410989046097,3.752298355102539,-1.4982110261917114,0.1602763533592224,2.255493640899658,5.214308964997091,-0.15481741726398468,0.11247742921113968,-1.6079772154437464,0.00024347202270291746,0.020763222128152847,0.05148935317993164,0.0,0.04796711355447769,1.55600106716156,-0.0004709893837571144,0.0064477925188839436
346.0,358.0,-2.5149,0.0562,9.9523,0.0669,-0.0574,-0.1093,-2.1026212177672328,-0.09374946355819702,3.7223453521728516,-1.4968758821487427,0.16447298228740692,2.279343366622925,5.213037001877584,-0.1582750529050827,0.11929702758789062,-1.6079815069781702,0.00021451589418575168,0.02894432283937931,0.05151354521512985,0.0,0.06389309465885162,1.5560612678527832,-0.0005853520124219358,-0.007085559889674187
346.0,358.0,-2.5149,0.0562,9.9523,0.0669,-0.0574,-0.1093,-2.103270193139547,-0.09250649064779282,3.757211685180664,-1.4959567785263062,0.16696292161941528,2.252321720123291,5.212008851557531,-0.18117690086364746,0.1053164154291153,-1.6079772154437464,0.0002866077411454171,0.030644644051790237,0.05149344354867935,0.0,0.0602261945605278,1.5560449361801147,-0.0006778284441679716,-0.0075101088732481
346.0,358.0,-2.5149,0.0562,9.9523,0.0669,-0.0574,-0.1093,-2.104025980035299,-0.10308513045310974,3.7713372707366943,-1.4945974349975586,0.16265501081943512,2.2837936878204346,5.210382598429479,-0.1992989033460617,0.09143468737602234,-1.6079815069781702,0.00022959474881645292,0.024049218744039536,0.05147329717874527,0.0,0.05782455950975418,1.5560331344604492,-0.0010973652824759483,-0.012461131438612938
355.0,377.0,-1.547,-0.3823,9.8064,0.1481,-0.1697,-0.1147,-2.104598661462301,-0.10615815222263336,3.7615160942077637,-1.4935532808303833,0.1582033634185791,2.212465286254883,5.209155934840002,-0.21295146644115448,0.09749358892440796,-1.6079891363727015,0.00023874563339632004,0.04020385444164276,0.05144931748509407,0.0,0.05029338598251343,1.5560091733932495,-0.0016043944051489234,-0.044012293219566345
355.0,377.0,-1.547,-0.3823,9.8064,0.1481,-0.1697,-0.1147,-2.1053902111449183,-0.10883393883705139,3.758650541305542,-1.4922499656677246,0.15915989875793457,2.2268893718719482,5.207414495735922,-0.23551629483699799,0.06978923082351685,-1.6080382505999964,0.0002029969182331115,0.04694736748933792,0.05150124058127403,6.416415544663323e-06,0.05224066227674484,1.5559571981430054,-0.002273028949275613,-0.05611071735620499
355.0,377.0,-1.547,-0.3823,9.8064,0.1481,-0.1697,-0.1147,-2.1060430012144984,-0.10407132655382156,3.762998104095459,-1.491330862045288,0.16447237133979797,2.2665135860443115,5.205981749087133,-0.23508229851722717,0.07599598914384842,-1.6079772154437464,0.00018242097576148808,0.023616865277290344,0.051489368081092834,1.7860328771490686e-09,0.04930267110466957,1.555949330329895,-0.0027907472103834152,-0.039151161909103394
355.0,377.0,-1.547,-0.3823,9.8064,0.1481,-0.1697,-0.1147,-2.1068560085692347,-0.09673302620649338,3.7547783851623535,-1.4899314641952515,0.16878606379032135,2.2785589694976807,5.203933584481039,-0.2613318860530853,0.08072514832019806,-1.6080058256732386,0.00018748649745248258,0.02180446870625019,0.051449261605739594,3.246026426709063e-14,0.043654680252075195,1.5559732913970947,-0.0026651539374142885,-0.08317701518535614
355.0,377.0,-1.547,-0.3823,9.8064,0.1481,-0.1697,-0.1147,-2.1073996029295863,-0.08991056680679321,3.79417085647583,-1.4889158010482788,0.17027400434017181,2.273458480834961,5.2023261962230585,-0.2699427604675293,0.07642929255962372,-1.6079695860492151,0.00017211944214068353,0.027460414916276932,0.05148161202669144,9.035434451620855e-18,0.043664004653692245,1.5559654235839844,-0.0019288697512820363,-0.06421048939228058
355.0,377.0,-1.547,-0.3823,9.8064,0.1481,-0.1697,-0.1147,-2.108096262017721,-0.08829052746295929,3.823127508163452,-1.4875973463058472,0.17727835476398468,2.2918882369995117,5.199914920120992,-0.2937646508216858,0.06815795600414276,-1.6079495588885706,0.00017731470870785415,0.026345711201429367,0.05153804272413254,1.6421454931076545e-22,0.04773131012916565,1.5559613704681396,-0.0013565665576606989,-0.0807122141122818
355.0,377.0,-1.547,-0.3823,9.8064,0.1481,-0.1697,-0.1147,-2.108692785302633,-0.09186593443155289,3.805255889892578,-1.4865696430206299,0.1782352179288864,2.3033769130706787,5.198184269457617,-0.3059495687484741,0.07202523946762085,-1.60795766512026,0.00016512679576408118,0.03785257041454315,0.051465265452861786,4.5709716232783465e-26,0.04197845980525017,1.5559372901916504,-0.0013163590338081121,-0.11435398459434509
355.0,377.0,-1.547,-0.3823,9.8064,0.1481,-0.1697,-0.1147,-2.109481473962301,-0.09758281707763672,3.8402814865112305,-1.4851306676864624,0.17585539817810059,2.262209177017212,5.195682543307104,-0.3108445107936859,0.074172742664814,-1.6079776922809046,0.00013467526878230274,0.0373116061091423,0.051485683768987656,8.307515742232994e-31,0.055596377700567245,1.5559372901916504,-0.0026376580353826284,-0.10461805760860443
355.0,377.0,-1.547,-0.3823,9.8064,0.1481,-0.1697,-0.1147,-2.109976907769674,-0.09515716880559921,3.8161981105804443,-1.484062910079956,0.17587867379188538,2.243335008621216,5.19379888752059,-0.3341068923473358,0.04012483358383179,-1.6079495588885706,0.00014801198267377913,0.04453176632523537,0.051481589674949646,2.3124274359853153e-34,0.04297506809234619,1.5559011697769165,-0.003929932601749897,-0.12429487705230713
355.0,377.0,-1.547,-0.3823,9.8064,0.1481,-0.1697,-0.1147,-2.1107012234129847,-0.08756792545318604,3.845546245574951,-1.482668399810791,0.1799767017364502,2.2668209075927734,5.19119285324172,-0.33776620030403137,0.06965221464633942,-1.6080058256732386,0.0001335644192295149,0.0348181389272213,0.051481615751981735,4.2027225061598113e-39,0.05011424422264099,1.5558571815490723,-0.003852232825011015,-0.15188968181610107
355.0,377.0,-1.547,-0.3823,9.8064,0.1481,-0.1697,-0.1147,-2.1111895046629847,-0.0815596804022789,3.8910932540893555,-1.4815562963485718,0.18814516067504883,2.3071908950805664,5.189130174904623,-0.3307933211326599,0.06525082886219025,-1.6079776922809046,0.0001243377773789689,0.03556790575385094,0.051521800458431244,1.1700842177112223e-42,0.05063619464635849,1.5558571815490723,-0.0030255033634603024,-0.18040408194065094
355.0,377.0,-1.547,-0.3823,9.8064,0.1481,-0.1697,-0.1147,-2.111777444879049,-0.07606232911348343,3.9192967414855957,-1.4800735712051392,0.19064225256443024,2.2997846603393555,5.186404990940847,-0.3450720012187958,0.05771643668413162,-1.6079815069781702,0.00011385132529539987,0.0512496642768383,0.05153404176235199,0.0,0.04510404169559479,1.5558456182479858,-0.0011939223622903228,-0.14403575658798218
355.0,377.0,-1.547,-0.3823,9.8064,0.1481,-0.1697,-0.1147,-2.112270017663473,-0.07651897519826889,3.9155430793762207,-1.4789063930511475,0.18636387586593628,2.2706458568573,5.184310036688604,-0.34805259108543396,0.06917978078126907,-1.6079657713519495,0.00012491449888329953,0.04701707884669304,0.05146925523877144,0.0,0.045292481780052185,1.5557855367660522,-0.0009288247674703598,-0.14072346687316895
376.0,403.0,-0.7256,0.4313,9.737,0.0334,-0.0822,-0.1196,-2.11293425182485,-0.07426167279481888,3.933675765991211,-1.4773948192596436,0.188838392496109,2.3013176918029785,5.181513118534841,-0.3511193096637726,0.08396634459495544,-1.607985798512594,0.00011574415839277208,0.044748712331056595,0.05151362344622612,0.0,0.04552997648715973,1.5558457374572754,-0.0016201557591557503,-0.19788098335266113
376.0,403.0,-0.7256,0.4313,9.737,0.0334,-0.0822,-0.1196,-2.1133467159666957,-0.07085802406072617,3.897369861602783,-1.4763121604919434,0.1919967532157898,2.308454990386963,5.179337250977316,-0.3629242479801178,0.07127103954553604,-1.6079853216754358,0.00010969801223836839,0.03743816167116165,0.05148572474718094,0.0,0.03576454520225525,1.5557698011398315,-0.003048568032681942,-0.11095575988292694
376.0,403.0,-0.7256,0.4313,9.737,0.0334,-0.0822,-0.1196,-2.1139308414854945,-0.07041698694229126,3.945402145385742,-1.4747124910354614,0.19617539644241333,2.2883996963500977,5.176496195584097,-0.36173173785209656,0.057721227407455444,-1.6079419294940394,0.00011695513967424631,0.030956383794546127,0.05148160457611084,0.0,0.05523137003183365,1.5557738542556763,-0.004191746469587088,-0.15093789994716644
376.0,403.0,-0.7256,0.4313,9.737,0.0334,-0.0822,-0.1196,-2.114331384698385,-0.07146023958921432,3.9412589073181152,-1.4735530614852905,0.19092340767383575,2.2737631797790527,5.174385654717245,-0.3546723425388336,0.08442693948745728,-1.6079252401935022,0.00013029066030867398,0.032441869378089905,0.05151769518852234,0.0,0.05080753564834595,1.5557738542556763,-0.0037327066529542208,-0.22405780851840973
376.0,403.0,-0.7256,0.4313,9.737,0.0334,-0.0822,-0.1196,-2.114847799340719,-0.0716809406876564,3.9544434547424316,-1.4719699621200562,0.19423922896385193,2.2630667686462402,5.171516704350271,-0.34511324763298035,0.0857568085193634,-1.6079619566546839,0.00013413294800557196,0.03939340263605118,0.0515136644244194,0.0,0.04167958348989487,1.555737853050232,-0.002485807053744793,-0.1803947389125824
376.0,403.0,-0.7256,0.4313,9.737,0.0334,-0.0822,-0.1196,-2.1152554951109828,-0.06870055198669434,3.976408004760742,-1.4708101749420166,0.20008109509944916,2.2974419593811035,5.1694978950317285,-0.34316983819007874,0.08406190574169159,-1.6079652945147913,0.00013552552263718098,0.0477931872010231,0.051505327224731445,0.0,0.03699630871415138,1.555761694908142,-0.001975076040253043,-0.24500210583209991
376.0,403.0,-0.7256,0.4313,9.737,0.0334,-0.0822,-0.1196,-2.115823885003561,-0.06521821022033691,4.001489639282227,-1.4691346883773804,0.2043398916721344,2.2936971187591553,5.166823613434591,-0.33228665590286255,0.10189278423786163,-1.6079776922809046,0.00012316377251408994,0.039527155458927155,0.05148904398083687,0.0,0.04163173958659172,1.5557136535644531,-0.0013146486598998308,-0.19654080271720886
376.0,403.0,-0.7256,0.4313,9.737,0.0334,-0.0822,-0.1196,-2.11624874691152,-0.06512171030044556,4.015708923339844,-1.4679471254348755,0.19951772689819336,2.312711238861084,5.164881306677618,-0.30592530965805054,0.09956465661525726,-1.6079977194415491,0.00011527584138093516,0.039952393621206284,0.05146927759051323,0.0,0.04909033328294754,1.5557056665420532,-0.0009178323089145124,-0.19472867250442505
376.0,403.0,-0.7256,0.4313,9.737,0.0334,-0.0822,-0.1196,-2.1167246303954066,-0.0644487589597702,4.013165473937988,-1.4663081169128418,0.20000308752059937,2.276947021484375,5.162554609566488,-0.2948773503303528,0.12431053072214127,-1.6079977194415491,0.00010620664397720248,0.038324616849422455,0.051521651446819305,0.0,0.04799659550189972,1.5557057857513428,-0.0005725257797166705,-0.13347622752189636
376.0,403.0,-0.7256,0.4313,9.737,0.0334,-0.0822,-0.1196,-2.1172286472716273,-0.0638490840792656,3.989020824432373,-1.4647252559661865,0.20084230601787567,2.281980514526367,5.160284924298086,-0.2834363877773285,0.12107525765895844,-1.6079452673541468,9.846043394645676e-05,0.042906273156404495,0.05151359364390373,0.0,0.035103097558021545,1.555709719657898,-0.00085205037612468,-0.14011576771736145
376.0,403.0,-0.7256,0.4313,9.737,0.0334,-0.0822,-0.1196,-2.117608686486715,-0.06112367659807205,4.005615234375,-1.4634652137756348,0.19856111705303192,2.321155548095703,5.158632862358846,-0.261954665184021,0.12319809198379517,-1.607945744191305,9.335386857856065e-05,0.025213299319148064,0.051477447152137756,0.0,0.04034387320280075,1.5557057857513428,-0.0009557492448948324,-0.17421527206897736
376.0,403.0,-0.7256,0.4313,9.737,0.0334,-0.0822,-0.1196,-2.1180607281126917,-0.056521471589803696,3.9863719940185547,-1.4618583917617798,0.19617652893066406,2.294055223464966,5.156680810242452,-0.23559069633483887,0.15492281317710876,-1.607973877583639,8.731586422072724e-05,0.04042055457830429,0.05150536447763443,0.0,0.03863176703453064,1.5557538270950317,-0.0006132849375717342,-0.15581411123275757
376.0,403.0,-0.7256,0.4313,9.737,0.0334,-0.0822,-0.1196,-2.1183811626830042,-0.055464766919612885,4.03748083114624,-1.4607431888580322,0.19472713768482208,2.3270180225372314,5.155369627266683,-0.211161807179451,0.1479025036096573,-1.6079695860492151,6.95171402185224e-05,0.028070494532585144,0.05150942876935005,0.0,0.0369337797164917,1.555709719657898,-0.00043521710904315114,-0.1997297704219818
356.0,369.0,-1.6403,0.009,9.6401,-0.139,0.1478,-0.1506,-2.118805070916647,-0.05773283168673515,4.0547075271606445,-1.4591113328933716,0.1952328234910965,2.296431064605713,5.153843748360433,-0.18676051497459412,0.17431306838989258,-1.6079533735858362,6.536470755236223e-05,0.028548484668135643,0.05148933827877045,0.0,0.05383997783064842,1.555721640586853,-0.0002519334957469255,-0.16656655073165894
356.0,369.0,-1.6403,0.009,9.6401,-0.139,0.1478,-0.1506,-2.1191655598082484,-0.05870630219578743,4.00098991394043,-1.4579966068267822,0.19199934601783752,2.2874741554260254,5.1527903256709955,-0.18127836287021637,0.17813441157341003,-1.6079776922809046,6.26353285042569e-05,0.014518467709422112,0.0514569953083992,0.0,0.04089691489934921,1.555681824684143,-0.0002075943339150399,-0.14845475554466248
356.0,369.0,-1.6403,0.009,9.6401,-0.139,0.1478,-0.1506,-2.11962952236318,-0.06009407341480255,4.0221381187438965,-1.456376314163208,0.1988937109708786,2.2928500175476074,5.151441532164373,-0.14291124045848846,0.18388566374778748,-1.6079977194415491,5.93319782637991e-05,0.02027169056236744,0.05151362344622612,0.0,0.049325473606586456,1.555701732635498,-0.00016868165403138846,-0.14400635659694672
356.0,369.0,-1.6403,0.009,9.6401,-0.139,0.1478,-0.1506,-2.120065828362936,-0.062373820692300797,3.9929590225219727,-1.4551527500152588,0.20428681373596191,2.330787181854248,5.150649475842275,-0.11751241981983185,0.19588643312454224,-1.6079614798175257,5.707444506697357e-05,0.029379624873399734,0.05148109421133995,0.0,0.047797948122024536,1.5557018518447876,-0.00014789144915994257,-0.04973633587360382
356.0,369.0,-1.6403,0.009,9.6401,-0.139,0.1478,-0.1506,-2.120594163934225,-0.07086233794689178,4.015411376953125,-1.4535622596740723,0.20598077774047852,2.2937026023864746,5.149797248631277,-0.10257565975189209,0.2020658552646637,-1.607973877583639,5.4318727052304894e-05,0.009045528247952461,0.05150127410888672,0.0,0.05893426015973091,1.5557459592819214,-9.526373469270766e-05,-0.12621203064918518
356.0,369.0,-1.6403,0.009,9.6401,-0.139,0.1478,-0.1506,-2.1210385761656703,-0.0809217020869255,3.9346134662628174,-1.4523062705993652,0.2048225849866867,2.315973997116089,5.149274784117498,-0.08372144401073456,0.21886028349399567,-1.607985798512594,5.2420469728531316e-05,0.028133196756243706,0.051529139280319214,0.0,0.0573582649230957,1.5557538270950317,-8.614506805315614e-05,-0.1242978572845459
356.0,369.0,-1.6403,0.009,9.6401,-0.139,0.1478,-0.1506,-2.1216751537718714,-0.08740365505218506,4.013052940368652,-1.4506632089614868,0.21075665950775146,2.344752311706543,5.148775952845373,-0.04282603785395622,0.22325360774993896,-1.6079772154437464,5.008664811612107e-05,0.028040027245879173,0.051537346094846725,0.0,0.05134426802396774,1.5556696653366089,-0.00010186023428104818,-0.015538688749074936
356.0,369.0,-1.6403,0.009,9.6401,-0.139,0.1478,-0.1506,-2.122263093987936,-0.09159829467535019,3.9633350372314453,-1.4493591785430908,0.21755805611610413,2.3942131996154785,5.148664372950353,-0.008202278055250645,0.24333977699279785,-1.6080096403705042,1.070408828240943e-07,0.01675226539373398,0.05148942023515701,0.0,0.05379271134734154,1.5557136535644531,-7.052863657008857e-05,-0.029193691909313202
356.0,369.0,-1.6403,0.009,9.6401,-0.139,0.1478,-0.1506,-2.123035570184225,-0.09182547777891159,3.963467597961426,-1.447608470916748,0.21275344491004944,2.3042101860046387,5.1487448392208,0.019126635044813156,0.2642376124858856,-1.6080015341388147,1.9454153999537427e-12,0.006052304059267044,0.05146530643105507,0.0,0.056045494973659515,1.555709719657898,-6.376563396770507e-05,-0.06670451164245605
356.0,369.0,-1.6403,0.009,9.6401,-0.139,0.1478,-0.1506,-2.123620172540182,-0.09087599068880081,3.9975671768188477,-1.4463245868682861,0.212622731924057,2.292080879211426,5.148820149689474,0.01643563061952591,0.25475096702575684,-1.6079934279071253,5.4151351007515375e-16,0.013216294348239899,0.05148111656308174,0.0,0.051822155714035034,1.5557419061660767,-5.954667358309962e-05,-0.05240742489695549
356.0,369.0,-1.6403,0.009,9.6401,-0.139,0.1478,-0.1506,-2.1243726215758265,-0.09676989167928696,4.003856658935547,-1.4446941614151,0.21898601949214935,2.3442063331604004,5.14884381273345,0.0029304930940270424,0.26200878620147705,-1.6079934279071253,9.841739998193371e-21,-0.0011509023606777191,0.05150536075234413,0.0,0.05115557461977005,1.5556737184524536,-5.4719515901524574e-05,0.0060240235179662704
356.0,369.0,-1.6403,0.009,9.6401,-0.139,0.1478,-0.1506,-2.124992986718649,-0.10641566663980484,3.9576916694641113,-1.4433987140655518,0.21862483024597168,2.3619089126586914,5.148836391955175,-0.006431069690734148,0.23820418119430542,-1.6080058256732386,2.7394847597396073e-24,0.004529422614723444,0.051517583429813385,0.0,0.062452416867017746,1.5556979179382324,-5.158335261512548e-05,-0.030532948672771454
356.0,369.0,-1.6403,0.009,9.6401,-0.139,0.1478,-0.1506,-2.125885625878805,-0.12013648450374603,4.000432968139648,-1.4416474103927612,0.2114986777305603,2.287109851837158,5.148816096573629,-0.0008264976786449552,0.24457091093063354,-1.6079614798175257,4.9788782819699787e-29,0.014604129828512669,0.051505740731954575,0.0,0.05577454715967178,1.555689811706543,-6.389497866621241e-05,-0.027880817651748657
334.0,326.0,-1.8371,0.0024,10.6211,-0.0119,0.0953,-0.1596,-2.126573701898092,-0.12502671778202057,3.8963205814361572,-1.4403316974639893,0.21581755578517914,2.3215529918670654,5.148851978569784,-3.0197307410162466e-07,0.24102166295051575,-1.6080058256732386,1.38588888477307e-32,-0.004456091672182083,0.05150941014289856,0.0,0.05996159464120865,1.5556737184524536,-1.6957039406406693e-05,-0.04350186884403229
334.0,326.0,-1.8371,0.0024,10.6211,-0.0119,0.0953,-0.1596,-2.1275907955565394,-0.12385428696870804,3.9403023719787598,-1.4385197162628174,0.228976309299469,2.358583450317383,5.148795950203695,0.00032340551842935383,0.24165087938308716,-1.6079772154437464,2.51878443971016e-37,-0.012689068913459778,0.05150942504405975,8.691380948278038e-09,0.0624520480632782,1.5556817054748535,-4.5121101720724255e-05,-0.01285733375698328
334.0,326.0,-1.8371,0.0024,10.6211,-0.0119,0.0953,-0.1596,-2.1283379993834437,-0.11719586700201035,3.9342284202575684,-1.4371849298477173,0.22686176002025604,2.3771212100982666,5.148795860796728,0.0001113699545385316,0.2453140914440155,-1.6079939047442835,7.011116606556357e-41,-0.0005995116662234068,0.05148527771234512,2.4192781025028642e-12,0.06730624288320541,1.5556979179382324,-0.00022284025908447802,0.005472364369779825
334.0,326.0,-1.8371,0.0024,10.6211,-0.0119,0.0953,-0.1596,-2.1293918095030726,-0.11763668805360794,3.9797017574310303,-1.4354017972946167,0.22239859402179718,2.2947301864624023,5.148828077107229,7.113219346877031e-09,0.22923758625984192,-1.6080339590655726,1.401298464324817e-45,0.003556189825758338,0.05154930427670479,4.396919574184001e-17,0.07076884806156158,1.5556979179382324,-0.00014946066949050874,0.005744955502450466
