ramyac6/ROB537/final_project/csv/good/good_221.csv
tof_0,tof_1,accelx,accely,accelz,gyrox,gyroy,gyroz,shoulder_lift_joint_position,shoulder_lift_joint_velocity,shoulder_lift_joint_effort,elbow_joint_position,elbow_joint_velocity,elbow_joint_effort,wrist_1_joint_position,wrist_1_joint_velocity,wrist_1_joint_effort,wrist_2_joint_position,wrist_2_joint_velocity,wrist_2_joint_effort,wrist_3_joint_position,wrist_3_joint_velocity,wrist_3_joint_effort,shoulder_pan_joint_position,shoulder_pan_joint_velocity,shoulder_pan_joint_effort
218.0,254.0,-4.2772,-0.5934,8.6584,-0.0362,0.027,-0.1126,-2.359188219110006,0.0,5.008900165557861,-1.1944628953933716,-0.0,1.9420650005340576,5.4852285263831995,-0.0,0.20704622566699982,-1.6489313284503382,0.0,0.006169354543089867,0.40421101450920105,-0.0,-0.00907326303422451,1.1722115278244019,0.0,-0.014894058927893639
218.0,254.0,-4.2772,-0.5934,8.6584,-0.0362,0.027,-0.1126,-2.3591562710204066,0.0,4.979198455810547,-1.194403052330017,-0.0,1.9752240180969238,5.485276746540823,-0.0,0.21692140400409698,-1.648907486592428,0.0,0.023370876908302307,0.4041469693183899,-0.0,-0.003265752922743559,1.1721992492675781,0.0,0.03841228783130646
218.0,254.0,-4.2772,-0.5934,8.6584,-0.0362,0.027,-0.1126,-2.3591562710204066,0.0,5.015480995178223,-1.194435477256775,-0.0,1.9532971382141113,5.485232579499044,-0.0,0.19488626718521118,-1.6489508787738245,0.0,0.001426961738616228,0.40420687198638916,-0.0,0.0050351256504654884,1.1721997261047363,0.0,0.0006292182952165604
218.0,254.0,-4.2772,-0.5934,8.6584,-0.0362,0.027,-0.1126,-2.3591724834837855,0.0,4.9975690841674805,-1.1944390535354614,-0.0,1.9878122806549072,5.4852165458496,-0.0,0.20427066087722778,-1.6489151159869593,0.0,0.011905597522854805,0.4042148292064667,-0.0,-0.0034717991948127747,1.1721878051757812,0.0,0.0011713653802871704
218.0,254.0,-4.2772,-0.5934,8.6584,-0.0362,0.027,-0.1126,-2.3592001400389613,0.0,4.987838268280029,-1.1944671869277954,-0.0,1.9977083206176758,5.485216605454244,-0.0,0.20353499054908752,-1.6488831678973597,0.0,0.004467695951461792,0.404218852519989,-0.0,-0.0007162451511248946,1.1722441911697388,0.0,-0.034825004637241364
218.0,254.0,-4.2772,-0.5934,8.6584,-0.0362,0.027,-0.1126,-2.359176298181051,0.0,4.9969305992126465,-1.1944588422775269,-0.0,1.9708033800125122,5.485232579499044,-0.0,0.2020113468170166,-1.6488912741290491,0.0,0.015305081382393837,0.40419089794158936,-0.0,-0.002722465433180332,1.1721434593200684,0.0,0.05268847569823265
218.0,254.0,-4.2772,-0.5934,8.6584,-0.0362,0.027,-0.1126,-2.3591844044127406,0.0,5.017584323883057,-1.19447922706604,-0.0,1.9378129243850708,5.485264527588644,-0.0,0.20308205485343933,-1.648918930684225,0.0,0.010949124582111835,0.4042191505432129,-0.0,0.003544783918187022,1.1721755266189575,0.0,0.005837462842464447
218.0,254.0,-4.2772,-0.5934,8.6584,-0.0362,0.027,-0.1126,-2.3591963253416957,0.0,5.052477836608887,-1.1944711208343506,-0.0,1.9457200765609741,5.485204386502065,-0.0,0.19917035102844238,-1.6488869825946253,0.0,0.01603022590279579,0.4041793942451477,-0.0,-0.0011472287587821484,1.1722157001495361,0.0,-0.021246133372187614
218.0,254.0,-4.2772,-0.5934,8.6584,-0.0362,0.027,-0.1126,-2.359203954736227,0.0,4.987762451171875,-1.1944712400436401,-0.0,1.9926421642303467,5.485236573010244,-0.0,0.20643922686576843,-1.6489270369159144,0.0,0.016249582171440125,0.40419501066207886,-0.0,0.008331559598445892,1.1722480058670044,0.0,-0.028603795915842056
232.0,252.0,-4.3723,-0.6263,8.6632,-0.0454,0.024,-0.1188,-2.3592001400389613,0.0,5.036481857299805,-1.1944547891616821,-0.0,1.9458439350128174,5.485224711685934,-0.0,0.20534054934978485,-1.6488993803607386,0.0,0.02004319056868553,0.4041510224342346,-0.0,-0.006494924891740084,1.1722160577774048,0.0,-0.014873145148158073
232.0,252.0,-4.3723,-0.6263,8.6632,-0.0454,0.024,-0.1188,-2.3591724834837855,0.0,5.040329933166504,-1.1944547891616821,-0.0,1.9569716453552246,5.485248553543844,-0.0,0.2047485113143921,-1.6488912741290491,0.0,0.008784151636064053,0.4042309522628784,-0.0,0.005221202038228512,1.1722074747085571,0.0,0.039360277354717255
232.0,252.0,-4.3723,-0.6263,8.6632,-0.0454,0.024,-0.1188,-2.359192033807272,0.0,5.008139610290527,-1.1944547891616821,-0.0,1.986546516418457,5.485272633820333,-0.0,0.21688416600227356,-1.6488950888263147,0.0,0.003410052042454481,0.4041350781917572,-0.0,-0.0068617453798651695,1.1722238063812256,0.0,0.012321158312261105
232.0,252.0,-4.3723,-0.6263,8.6632,-0.0454,0.024,-0.1188,-2.3591801128783167,0.0,5.04332971572876,-1.1944711208343506,-0.0,1.9286351203918457,5.485252606659689,-0.0,0.20888328552246094,-1.6488869825946253,0.0,0.02233872562646866,0.40423497557640076,-0.0,0.008544331416487694,1.1722320318222046,0.0,-0.02474742755293846
232.0,252.0,-4.3723,-0.6263,8.6632,-0.0454,0.024,-0.1188,-2.359220167199606,0.0,5.048027515411377,-1.194467306137085,-0.0,2.048607587814331,5.485284793167867,-0.0,0.22336353361606598,-1.6489031950580042,0.0,0.003920850344002247,0.4041793942451477,-0.0,0.009693996980786324,1.172195553779602,0.0,0.02674870938062668
232.0,252.0,-4.3723,-0.6263,8.6632,-0.0454,0.024,-0.1188,-2.3591443500914515,0.0,5.001175403594971,-1.1944475173950195,-0.0,1.9720606803894043,5.485216605454244,-0.0,0.20872610807418823,-1.6489508787738245,0.0,0.018046274781227112,0.404163122177124,-0.0,0.004907316528260708,1.1722238063812256,0.0,-0.025181643664836884
232.0,252.0,-4.3723,-0.6263,8.6632,-0.0454,0.024,-0.1188,-2.3591605625548304,0.0,5.043313980102539,-1.1944671869277954,-0.0,1.9870319366455078,5.485224711685934,-0.0,0.21373134851455688,-1.6488993803607386,0.0,0.013064145110547543,0.40418341755867004,-0.0,0.013870865106582642,1.1722115278244019,0.0,0.03453456982970238
232.0,252.0,-4.3723,-0.6263,8.6632,-0.0454,0.024,-0.1188,-2.359192033807272,0.0,5.022610187530518,-1.1944671869277954,-0.0,1.9512025117874146,5.485212492733755,-0.0,0.20053470134735107,-1.6489031950580042,0.0,0.004540570080280304,0.4042309522628784,-0.0,-0.0034179920330643654,1.1722561120986938,0.0,-0.0030191317200660706
232.0,252.0,-4.3723,-0.6263,8.6632,-0.0454,0.024,-0.1188,-2.359164377252096,0.0,5.013010025024414,-1.1944351196289062,-0.0,1.9659323692321777,5.485228884011068,-0.0,0.21522995829582214,-1.6489031950580042,0.0,-0.00240075564943254,0.4042269289493561,-0.0,0.002733819652348757,1.1721795797348022,0.0,0.05427509546279907
232.0,252.0,-4.3723,-0.6263,8.6632,-0.0454,0.024,-0.1188,-2.359192033807272,0.0,4.96951150894165,-1.1944351196289062,-0.0,1.9055149555206299,5.485252606659689,-0.0,0.21097955107688904,-1.6489389578448694,0.0,0.017486076802015305,0.4041590094566345,-0.0,0.00880084652453661,1.172240138053894,0.0,-0.06190749630331993
232.0,252.0,-4.3723,-0.6263,8.6632,-0.0454,0.024,-0.1188,-2.3591963253416957,0.0,5.029336452484131,-1.1943950653076172,-0.0,1.969270944595337,5.485308992653646,-0.0,0.20292414724826813,-1.64893085161318,0.0,0.016607418656349182,0.4042148292064667,-0.0,0.011394430883228779,1.1722157001495361,0.0,-0.013022325932979584
232.0,252.0,-4.3723,-0.6263,8.6632,-0.0454,0.024,-0.1188,-2.3591486416258753,0.0,5.048182010650635,-1.194399118423462,-0.0,1.996030569076538,5.485260772496023,-0.0,0.19071796536445618,-1.6488950888263147,0.0,0.007698510307818651,0.4041793942451477,-0.0,-0.002972117392346263,1.1721681356430054,0.0,-0.00832549761980772
232.0,252.0,-4.3723,-0.6263,8.6632,-0.0454,0.024,-0.1188,-2.3592001400389613,0.0,5.044655799865723,-1.1944433450698853,-0.0,1.9756237268447876,5.485240685730734,-0.0,0.20405298471450806,-1.6488993803607386,0.0,-0.007916716858744621,0.40415507555007935,-0.0,0.0016560330986976624,1.1722520589828491,0.0,-0.004735099617391825
232.0,252.0,-4.3723,-0.6263,8.6632,-0.0454,0.024,-0.1188,-2.359152456323141,0.0,5.023541450500488,-1.1944031715393066,-0.0,1.9814867973327637,5.485232579499044,-0.0,0.20315194129943848,-1.6489232222186487,0.0,0.020538879558444023,0.40415507555007935,-0.0,0.008363223634660244,1.1722115278244019,0.0,0.0037411050871014595
232.0,252.0,-4.3723,-0.6263,8.6632,-0.0454,0.024,-0.1188,-2.359203954736227,0.0,5.05637788772583,-1.1944547891616821,-0.0,1.9837861061096191,5.485260832100668,-0.0,0.20003825426101685,-1.6489113012896937,0.0,0.009157152846455574,0.4041793942451477,-0.0,0.008369779214262962,1.1722157001495361,0.0,0.037781521677970886
232.0,252.0,-4.3723,-0.6263,8.6632,-0.0454,0.024,-0.1188,-2.3591681919493617,0.0,5.022313117980957,-1.1944150924682617,-0.0,1.9342350959777832,5.485232519894399,-0.0,0.20164570212364197,-1.648942772542135,0.0,0.003884191159158945,0.40418291091918945,-0.0,-0.005923233926296234,1.1721476316452026,0.0,0.021229060366749763
228.0,253.0,-4.4028,-0.6293,8.866,-0.0235,0.0191,-0.117,-2.3591562710204066,0.0,5.029528617858887,-1.1943752765655518,-0.0,2.0005462169647217,5.485240685730734,-0.0,0.20602300763130188,-1.6489031950580042,0.0,0.022018512710928917,0.4042068421840668,-0.0,0.00581186031922698,1.1721957921981812,0.0,-0.005016891285777092
228.0,253.0,-4.4028,-0.6293,8.866,-0.0235,0.0191,-0.117,-2.359192033807272,0.0,5.007004261016846,-1.194411039352417,-0.0,1.9685693979263306,5.4852125523384,-0.0,0.1990036517381668,-1.6489346663104456,0.0,0.013794343918561935,0.40418294072151184,-0.0,-0.006133080925792456,1.1721997261047363,0.0,0.008204948157072067
228.0,253.0,-4.4028,-0.6293,8.866,-0.0235,0.0191,-0.117,-2.359232564965719,0.0,5.007463455200195,-1.1944588422775269,-0.0,1.9624052047729492,5.485244500427999,-0.0,0.20059379935264587,-1.6488993803607386,0.0,0.016733277589082718,0.4041869640350342,-0.0,-0.0014047946315258741,1.1721681356430054,0.0,-0.00885856244713068
228.0,253.0,-4.4028,-0.6293,8.866,-0.0235,0.0191,-0.117,-2.359176298181051,0.0,4.961296081542969,-1.1944752931594849,-0.0,1.9543781280517578,5.485248553543844,-0.0,0.20730309188365936,-1.6489070097552698,0.0,0.004580424167215824,0.4041793644428253,-0.0,0.0039127785712480545,1.1722157001495361,0.0,0.04261200129985809
228.0,253.0,-4.4028,-0.6293,8.866,-0.0235,0.0191,-0.117,-2.3592001400389613,0.0,4.993939399719238,-1.1944150924682617,-0.0,1.9788036346435547,5.4852566597755334,-0.0,0.20502975583076477,-1.648918930684225,0.0,0.010984757915139198,0.4041711688041687,-0.0,0.009678788483142853,1.1721761226654053,0.0,-0.00872945785522461
228.0,253.0,-4.4028,-0.6293,8.866,-0.0235,0.0191,-0.117,-2.3591963253416957,0.0,5.010807991027832,-1.1944270133972168,-0.0,1.9884426593780518,5.485264527588644,-0.0,0.2183195799589157,-1.6489232222186487,0.0,0.001785768661648035,0.4041990041732788,-0.0,0.005912126041948795,1.1721837520599365,0.0,-0.02430618554353714
228.0,253.0,-4.4028,-0.6293,8.866,-0.0235,0.0191,-0.117,-2.359215875665182,0.0,5.053402900695801,-1.1944310665130615,-0.0,1.9429779052734375,5.485224711685934,-0.0,0.1988658756017685,-1.6488869825946253,0.0,0.017556320875883102,0.40415120124816895,-0.0,-0.0007414602441713214,1.1721878051757812,0.0,-0.04377482086420059
228.0,253.0,-4.4028,-0.6293,8.866,-0.0235,0.0191,-0.117,-2.359176298181051,0.0,5.039522647857666,-1.1944191455841064,-0.0,1.9691767692565918,5.485272633820333,-0.0,0.19736042618751526,-1.6489313284503382,0.0,0.017109062522649765,0.404163122177124,-0.0,0.007058626040816307,1.172183632850647,0.0,0.010533359833061695
228.0,253.0,-4.4028,-0.6293,8.866,-0.0235,0.0191,-0.117,-2.359188219110006,0.0,5.052894115447998,-1.1944149732589722,-0.0,1.9764742851257324,5.485200273781576,-0.0,0.20921486616134644,-1.6488993803607386,0.0,0.013074375689029694,0.4041232168674469,-0.0,-0.0012929008807986975,1.1721597909927368,0.0,0.012346792966127396
228.0,253.0,-4.4028,-0.6293,8.866,-0.0235,0.0191,-0.117,-2.3591963253416957,0.0,4.999479293823242,-1.1944353580474854,-0.0,1.9508941173553467,5.485284852772512,-0.0,0.20445939898490906,-1.6488750616656702,0.0,0.010247563943266869,0.4042109251022339,-0.0,0.017811914905905724,1.172231912612915,0.0,0.008518455550074577
228.0,253.0,-4.4028,-0.6293,8.866,-0.0235,0.0191,-0.117,-2.359152456323141,0.0,5.039617538452148,-1.1944549083709717,-0.0,1.9604015350341797,5.4852566597755334,-0.0,0.21136155724525452,-1.6488750616656702,0.0,0.005089521408081055,0.4041752517223358,-0.0,0.003933050204068422,1.1721837520599365,0.0,0.002284962683916092
228.0,253.0,-4.4028,-0.6293,8.866,-0.0235,0.0191,-0.117,-2.3591681919493617,0.0,5.043785095214844,-1.194379210472107,-0.0,1.943878412246704,5.4852125523384,-0.0,0.20459945499897003,-1.648867432271139,0.0,0.0234241746366024,0.4042268693447113,-0.0,-0.0020795464515686035,1.1721997261047363,0.0,-0.03204966336488724
228.0,253.0,-4.4028,-0.6293,8.866,-0.0235,0.0191,-0.117,-2.3591681919493617,0.0,5.034999847412109,-1.1944668292999268,-0.0,2.0062689781188965,5.485232579499044,-0.0,0.20079585909843445,-1.6489313284503382,0.0,0.008356424979865551,0.4041869640350342,-0.0,-0.00041149044409394264,1.172183632850647,0.0,0.02959800511598587
228.0,253.0,-4.4028,-0.6293,8.866,-0.0235,0.0191,-0.117,-2.3591562710204066,0.0,5.061232089996338,-1.1944669485092163,-0.0,1.9624929428100586,5.485240685730734,-0.0,0.22195956110954285,-1.6488950888263147,0.0,0.010902099311351776,0.4041990041732788,-0.0,0.017464477568864822,1.1722197532653809,0.0,0.001636864966712892
228.0,253.0,-4.4028,-0.6293,8.866,-0.0235,0.0191,-0.117,-2.3591562710204066,0.0,5.041713714599609,-1.1944750547409058,-0.0,1.9766795635223389,5.485252606659689,-0.0,0.20526060461997986,-1.648907486592428,0.0,-0.0008164483006112278,0.40418338775634766,-0.0,0.0032418305054306984,1.1721558570861816,0.0,0.021805159747600555
228.0,253.0,-4.4028,-0.6293,8.866,-0.0235,0.0191,-0.117,-2.359192033807272,0.0,5.045842170715332,-1.1944912672042847,-0.0,1.9551417827606201,5.485208499222555,-0.0,0.21051184833049774,-1.6488950888263147,0.0,0.020093601197004318,0.404163122177124,-0.0,0.0016080238856375217,1.1722197532653809,0.0,0.009375005029141903
229.0,260.0,-4.3406,-0.5533,8.6483,-0.0365,0.0255,-0.1185,-2.359176298181051,0.0,5.052215576171875,-1.194383144378662,-0.0,1.9618185758590698,5.4852285263831995,-0.0,0.20358574390411377,-1.6489113012896937,0.0,0.015264572575688362,0.4041551947593689,-0.0,0.017625803127884865,1.1722197532653809,0.0,0.013005240820348263
229.0,260.0,-4.3406,-0.5533,8.6483,-0.0365,0.0255,-0.1185,-2.359176298181051,0.0,5.036468505859375,-1.1944069862365723,-0.0,1.9665491580963135,5.4852648852165125,-0.0,0.20628419518470764,-1.648895565663473,0.0,0.027006061747670174,0.4041869640350342,-0.0,0.005836539436131716,1.1722197532653809,0.0,-0.009527798742055893
229.0,260.0,-4.3406,-0.5533,8.6483,-0.0365,0.0255,-0.1185,-2.3592082462706507,0.0,5.021564960479736,-1.1944475173950195,-0.0,1.9604668617248535,5.485256600170889,-0.0,0.19903188943862915,-1.6489232222186487,0.0,0.012712514027953148,0.4042268693447113,-0.0,0.005426578223705292,1.1722157001495361,0.0,-0.006503481417894363
229.0,260.0,-4.3406,-0.5533,8.6483,-0.0365,0.0255,-0.1185,-2.3592001400389613,0.0,5.045099258422852,-1.1944310665130615,-0.0,1.9554741382598877,5.485232579499044,-0.0,0.21558654308319092,-1.6489389578448694,0.0,0.011074993759393692,0.4041510820388794,-0.0,0.002059529535472393,1.172220230102539,0.0,0.01555507630109787
229.0,260.0,-4.3406,-0.5533,8.6483,-0.0365,0.0255,-0.1185,-2.359192033807272,0.0,4.996692180633545,-1.1944270133972168,-0.0,1.970963716506958,5.485204684525289,-0.0,0.21447065472602844,-1.6488912741290491,0.0,-0.008123354986310005,0.4042268693447113,-0.0,0.011723168194293976,1.1722197532653809,0.0,-0.00515139102935791
229.0,260.0,-4.3406,-0.5533,8.6483,-0.0365,0.0255,-0.1185,-2.359188219110006,0.0,5.026010990142822,-1.1943951845169067,-0.0,1.9245333671569824,5.4852603552635095,-0.0,0.21396175026893616,-1.6488831678973597,0.0,0.0025719739496707916,0.404243141412735,-0.0,0.0016682357527315617,1.1722197532653809,0.0,0.0023244854528456926
229.0,260.0,-4.3406,-0.5533,8.6483,-0.0365,0.0255,-0.1185,-2.359192033807272,0.0,5.030132293701172,-1.1944314241409302,-0.0,2.003643274307251,5.485264527588644,-0.0,0.21074426174163818,-1.6488831678973597,0.0,-0.005449988879263401,0.4041990041732788,-0.0,0.005756368860602379,1.1722078323364258,0.0,-0.008838425390422344
229.0,260.0,-4.3406,-0.5533,8.6483,-0.0365,0.0255,-0.1185,-2.3592244587340296,0.0,5.06015157699585,-1.194383144378662,-0.0,1.9675037860870361,5.485264527588644,-0.0,0.2118990421295166,-1.6488831678973597,0.0,0.006881468463689089,0.40416330099105835,-0.0,0.01401120238006115,1.1721837520599365,0.0,0.00497360248118639
229.0,260.0,-4.3406,-0.5533,8.6483,-0.0365,0.0255,-0.1185,-2.359220644036764,0.0,5.04396390914917,-1.1944150924682617,-0.0,1.9284424781799316,5.485248553543844,-0.0,0.21012386679649353,-1.648907486592428,0.0,0.02091309055685997,0.40419089794158936,-0.0,-0.0012012417428195477,1.1722320318222046,0.0,-0.03223680704832077
229.0,260.0,-4.3406,-0.5533,8.6483,-0.0365,0.0255,-0.1185,-2.359188219110006,0.0,5.021518707275391,-1.1944628953933716,-0.0,1.9874827861785889,5.485280859261312,-0.0,0.2096138894557953,-1.6489351431476038,0.0,0.01561545766890049,0.4040989577770233,-0.0,0.0014939559623599052,1.1721795797348022,0.0,-0.02430170215666294
229.0,260.0,-4.3406,-0.5533,8.6483,-0.0365,0.0255,-0.1185,-2.3591801128783167,0.0,5.02797269821167,-1.1943950653076172,-0.0,1.9690344333648682,5.4852768061454675,-0.0,0.20648211240768433,-1.648907486592428,0.0,0.017506279051303864,0.40413913130760193,-0.0,0.012102123349905014,1.1722441911697388,0.0,0.02129162847995758
229.0,260.0,-4.3406,-0.5533,8.6483,-0.0365,0.0255,-0.1185,-2.359188219110006,0.0,5.024578094482422,-1.194411039352417,-0.0,1.9680628776550293,5.485244500427999,-0.0,0.19978377223014832,-1.6489394346820276,0.0,0.005474461242556572,0.4041793644428253,-0.0,-0.0018666968680918217,1.172203779220581,0.0,0.037216197699308395
229.0,260.0,-4.3406,-0.5533,8.6483,-0.0365,0.0255,-0.1185,-2.359176298181051,0.0,5.0264458656311035,-1.1943950653076172,-0.0,1.9757664203643799,5.485232579499044,-0.0,0.20965176820755005,-1.6488993803607386,0.0,0.012021040543913841,0.4042068123817444,-0.0,0.005199118983000517,1.1722238063812256,0.0,-0.008709967136383057
229.0,260.0,-4.3406,-0.5533,8.6483,-0.0365,0.0255,-0.1185,-2.3591963253416957,0.0,5.053206443786621,-1.194411039352417,-0.0,1.9078420400619507,5.485228585987844,-0.0,0.2115006148815155,-1.6489313284503382,0.0,-0.0016690515913069248,0.4041431248188019,-0.0,0.0034176702611148357,1.1721638441085815,0.0,0.01155552826821804
229.0,260.0,-4.3406,-0.5533,8.6483,-0.0365,0.0255,-0.1185,-2.359188219110006,0.0,5.0203351974487305,-1.1944671869277954,-0.0,1.9623081684112549,5.485232579499044,-0.0,0.20021982491016388,-1.6489351431476038,0.0,0.0014406454283744097,0.40420272946357727,-0.0,0.00847767386585474,1.1721837520599365,0.0,0.0671348124742508
229.0,260.0,-4.3406,-0.5533,8.6483,-0.0365,0.0255,-0.1185,-2.359220644036764,0.0,5.0111541748046875,-1.194450855255127,-0.0,1.9386063814163208,5.485240685730734,-0.0,0.20965106785297394,-1.6489351431476038,0.0,0.009255673736333847,0.40421080589294434,-0.0,0.0050082821398973465,1.172191858291626,0.0,0.03860260546207428
236.0,263.0,-4.334,-0.597,8.7093,-0.0336,0.0252,-0.1223,-2.359140535394186,0.0,5.04262638092041,-1.1944475173950195,-0.0,1.9605878591537476,5.485276865750112,-0.0,0.21277497708797455,-1.6488912741290491,0.0,0.012346841394901276,0.404163122177124,-0.0,0.007743356749415398,1.172191858291626,0.0,-6.379373371601105e-05
236.0,263.0,-4.334,-0.597,8.7093,-0.0336,0.0252,-0.1223,-2.359188219110006,0.0,4.987552165985107,-1.1943992376327515,-0.0,1.9792802333831787,5.485212492733755,-0.0,0.2128254771232605,-1.6488993803607386,0.0,0.012777983210980892,0.4041869640350342,-0.0,0.005879612173885107,1.172155737876892,0.0,-0.03256871551275253
236.0,263.0,-4.334,-0.597,8.7093,-0.0336,0.0252,-0.1223,-2.359244485894674,0.0,5.002368927001953,-1.194403052330017,-0.0,1.9517886638641357,5.485244500427999,-0.0,0.21251778304576874,-1.6489389578448694,0.0,0.02270127274096012,0.404171347618103,-0.0,-0.001661702641285956,1.1722115278244019,0.0,-0.013200301676988602
236.0,263.0,-4.334,-0.597,8.7093,-0.0336,0.0252,-0.1223,-2.359188219110006,0.0,5.039035797119141,-1.1944310665130615,-0.0,1.997041940689087,5.485232579499044,-0.0,0.19796255230903625,-1.6489151159869593,0.0,0.020786438137292862,0.4041789472103119,-0.0,0.015863807871937752,1.1721878051757812,0.0,0.03694409132003784
236.0,263.0,-4.334,-0.597,8.7093,-0.0336,0.0252,-0.1223,-2.3591724834837855,0.0,5.010702610015869,-1.194411039352417,-0.0,1.9724338054656982,5.485260832100668,-0.0,0.1964549571275711,-1.6489508787738245,0.0,0.008537543937563896,0.4041391909122467,-0.0,0.0028262785635888577,1.1722360849380493,0.0,0.044928595423698425
236.0,263.0,-4.334,-0.597,8.7093,-0.0336,0.0252,-0.1223,-2.35921635250234,0.0,5.066962718963623,-1.1943992376327515,-0.0,1.9490065574645996,5.485260832100668,-0.0,0.2103317826986313,-1.6488869825946253,0.0,0.004402966238558292,0.404163122177124,-0.0,0.0053658252581954,1.172183632850647,0.0,0.025419365614652634
236.0,263.0,-4.334,-0.597,8.7093,-0.0336,0.0252,-0.1223,-2.359203954736227,0.0,5.056682109832764,-1.1944475173950195,-0.0,1.9816842079162598,5.485272693424978,-0.0,0.2070724368095398,-1.648907486592428,0.0,0.005786437075585127,0.40425899624824524,-0.0,0.003528678324073553,1.172240138053894,0.0,-0.018221592530608177
236.0,263.0,-4.334,-0.597,8.7093,-0.0336,0.0252,-0.1223,-2.35921635250234,0.0,4.997066974639893,-1.194403052330017,-0.0,1.9776060581207275,5.485264527588644,-0.0,0.2063973993062973,-1.648918930684225,0.0,0.0011264332570135593,0.40419089794158936,-0.0,-0.005551556590944529,1.1722561120986938,0.0,-0.06164693459868431
236.0,263.0,-4.334,-0.597,8.7093,-0.0336,0.0252,-0.1223,-2.3591963253416957,0.0,5.0254082679748535,-1.1944912672042847,-0.0,2.0014593601226807,5.48523627498702,-0.0,0.20943504571914673,-1.6489151159869593,0.0,0.016104664653539658,0.4041869342327118,-0.0,0.0012508119689300656,1.172203779220581,0.0,-0.011514639481902122
236.0,263.0,-4.334,-0.597,8.7093,-0.0336,0.0252,-0.1223,-2.35921635250234,0.0,5.029651165008545,-1.1944390535354614,-0.0,1.9590511322021484,5.485248553543844,-0.0,0.19763213396072388,-1.648907486592428,0.0,0.005922349635511637,0.40414708852767944,-0.0,0.009034206159412861,1.1722157001495361,0.0,0.01230295468121767
236.0,263.0,-4.334,-0.597,8.7093,-0.0336,0.0252,-0.1223,-2.3591963253416957,0.0,5.026523590087891,-1.1944230794906616,-0.0,1.9545323848724365,5.4852685807044885,-0.0,0.20492196083068848,-1.6489313284503382,0.0,0.006673157215118408,0.40419888496398926,-0.0,-0.0008254959248006344,1.172155737876892,0.0,0.0137702077627182
236.0,263.0,-4.334,-0.597,8.7093,-0.0336,0.0252,-0.1223,-2.3592001400389613,0.0,4.984983921051025,-1.1943949460983276,-0.0,2.0135927200317383,5.485208380013265,-0.0,0.20641279220581055,-1.6488831678973597,0.0,0.017059804871678352,0.4042068123817444,-0.0,-0.004944059066474438,1.1721837520599365,0.0,0.012595643289387226
236.0,263.0,-4.334,-0.597,8.7093,-0.0336,0.0252,-0.1223,-2.3591367206969203,0.0,5.068375587463379,-1.1944150924682617,-0.0,1.9561902284622192,5.485204326897421,-0.0,0.21288922429084778,-1.648890797291891,0.0,0.017430635169148445,0.4041431248188019,-0.0,-0.0013164532138034701,1.172191858291626,0.0,-0.0025054453872144222
236.0,263.0,-4.334,-0.597,8.7093,-0.0336,0.0252,-0.1223,-2.3591605625548304,0.0,5.017122745513916,-1.1944628953933716,-0.0,1.9187111854553223,5.485236632614889,-0.0,0.21211391687393188,-1.6489508787738245,0.0,0.012311520986258984,0.404167115688324,-0.0,0.0011664085322991014,1.172203779220581,0.0,-0.00665244460105896
236.0,263.0,-4.334,-0.597,8.7093,-0.0336,0.0252,-0.1223,-2.3591801128783167,0.0,5.029496669769287,-1.194391131401062,-0.0,1.9702705144882202,5.485284912377157,-0.0,0.20796386897563934,-1.6489394346820276,0.0,0.010263951495289803,0.40413522720336914,-0.0,-0.0013990724692121148,1.1721915006637573,0.0,-0.014689784497022629
236.0,263.0,-4.334,-0.597,8.7093,-0.0336,0.0252,-0.1223,-2.359176298181051,0.0,5.017362594604492,-1.194399118423462,-0.0,1.9453459978103638,5.485232579499044,-0.0,0.2186054289340973,-1.6488912741290491,0.0,0.007325989194214344,0.4041551351547241,-0.0,-0.0024887695908546448,1.1721997261047363,0.0,-0.05264776945114136
227.0,259.0,-4.4351,-0.5868,8.9139,-0.0356,0.022,-0.118,-2.3591844044127406,0.0,4.9764790534973145,-1.1944351196289062,-0.0,1.96567964553833,5.485248493939199,-0.0,0.21358613669872284,-1.6489313284503382,0.0,0.01427693571895361,0.40424686670303345,-0.0,0.0038805752992630005,1.1722557544708252,0.0,-0.011091050691902637
227.0,259.0,-4.4351,-0.5868,8.9139,-0.0356,0.022,-0.118,-2.359203954736227,0.0,5.03171968460083,-1.1944351196289062,-0.0,1.9496777057647705,5.485264527588644,-0.0,0.1883787214756012,-1.6488993803607386,0.0,0.016365567222237587,0.404202938079834,-0.0,0.0044914535246789455,1.1721795797348022,0.0,-0.03883790597319603
227.0,259.0,-4.4351,-0.5868,8.9139,-0.0356,0.022,-0.118,-2.359164377252096,0.0,5.052608966827393,-1.1944069862365723,-0.0,1.9335651397705078,5.485232519894399,-0.0,0.2078293263912201,-1.6488831678973597,0.0,0.0024041887372732162,0.40419891476631165,-0.0,0.001897015725262463,1.1722360849380493,0.0,0.024340413510799408
227.0,259.0,-4.4351,-0.5868,8.9139,-0.0356,0.022,-0.118,-2.3591801128783167,0.0,5.06407356262207,-1.1944150924682617,-0.0,2.0071897506713867,5.485232519894399,-0.0,0.19285938143730164,-1.6489031950580042,0.0,0.014024478383362293,0.4041752815246582,-0.0,0.008466384373605251,1.1722360849380493,0.0,-0.01407287735491991
227.0,259.0,-4.4351,-0.5868,8.9139,-0.0356,0.022,-0.118,-2.3591724834837855,0.0,5.052236557006836,-1.1944150924682617,-0.0,2.011214256286621,5.485228466778555,-0.0,0.20058119297027588,-1.6488631407367151,0.0,0.016029663383960724,0.40415114164352417,-0.0,0.0009596972377039492,1.1721878051757812,0.0,0.03145229443907738
227.0,259.0,-4.4351,-0.5868,8.9139,-0.0356,0.022,-0.118,-2.359176298181051,0.0,5.056582927703857,-1.19448721408844,-0.0,2.0036096572875977,5.485284912377157,-0.0,0.2090316116809845,-1.6489151159869593,0.0,0.02416602522134781,0.4042389392852783,-0.0,0.017119796946644783,1.1722157001495361,0.0,-0.0031298641115427017
227.0,259.0,-4.4351,-0.5868,8.9139,-0.0356,0.022,-0.118,-2.3591605625548304,0.0,5.009390354156494,-1.1944475173950195,-0.0,1.965126395225525,5.485220658570089,-0.0,0.21993273496627808,-1.648918930684225,0.0,0.011168944649398327,0.40411099791526794,-0.0,0.0021797630470246077,1.1721638441085815,0.0,0.0003006197512149811
227.0,259.0,-4.4351,-0.5868,8.9139,-0.0356,0.022,-0.118,-2.359208723107809,0.0,5.056310653686523,-1.1944191455841064,-0.0,1.9844284057617188,5.485224711685934,-0.0,0.21437591314315796,-1.6489351431476038,0.0,0.0035506398417055607,0.40417489409446716,-0.0,0.00958721898496151,1.1722360849380493,0.0,0.009191327728331089
227.0,259.0,-4.4351,-0.5868,8.9139,-0.0356,0.022,-0.118,-2.359203954736227,0.0,5.031119346618652,-1.194403052330017,-0.0,1.9843025207519531,5.485236632614889,-0.0,0.21178686618804932,-1.6489270369159144,0.0,0.008742215111851692,0.4041551351547241,-0.0,0.01142219640314579,1.1722078323364258,0.0,0.043841928243637085
227.0,259.0,-4.4351,-0.5868,8.9139,-0.0356,0.022,-0.118,-2.359176298181051,0.0,5.019327640533447,-1.19443941116333,-0.0,1.9442245960235596,5.4852165458496,-0.0,0.21221491694450378,-1.648907486592428,0.0,0.009762811474502087,0.4041713774204254,-0.0,0.006938117556273937,1.172191858291626,0.0,0.03392941504716873
227.0,259.0,-4.4351,-0.5868,8.9139,-0.0356,0.022,-0.118,-2.3592001400389613,0.0,5.0351362228393555,-1.1944588422775269,-0.0,1.9448671340942383,5.485248911171713,-0.0,0.20585176348686218,-1.6489031950580042,0.0,-0.010300181806087494,0.40419888496398926,-0.0,0.005204145796597004,1.1722118854522705,0.0,0.044523559510707855
227.0,259.0,-4.4351,-0.5868,8.9139,-0.0356,0.022,-0.118,-2.359188219110006,0.0,5.0519866943359375,-1.1944628953933716,-0.0,1.970348596572876,5.485260832100668,-0.0,0.211381733417511,-1.6489070097552698,0.0,-0.004794340115040541,0.4041551351547241,-0.0,0.006737539544701576,1.1722078323364258,0.0,-0.01303175464272499
227.0,259.0,-4.4351,-0.5868,8.9139,-0.0356,0.022,-0.118,-2.3591963253416957,0.0,5.05626106262207,-1.1944191455841064,-0.0,1.9786410331726074,5.485236632614889,-0.0,0.22375181317329407,-1.6489551703082483,0.0,0.009426547214388847,0.4041948914527893,-0.0,-0.005425907671451569,1.1722315549850464,0.0,-0.00373283913359046
227.0,259.0,-4.4351,-0.5868,8.9139,-0.0356,0.022,-0.118,-2.3592082462706507,0.0,5.021731376647949,-1.194403052330017,-0.0,1.9707390069961548,5.485272693424978,-0.0,0.21098479628562927,-1.6489151159869593,0.0,0.002029295079410076,0.404206782579422,-0.0,0.009384842589497566,1.1721755266189575,0.0,-0.016634702682495117
227.0,259.0,-4.4351,-0.5868,8.9139,-0.0356,0.022,-0.118,-2.359140535394186,0.0,5.007692337036133,-1.1944434642791748,-0.0,1.989698052406311,5.485272633820333,-0.0,0.20974501967430115,-1.6488993803607386,0.0,0.01241141278296709,0.40419894456863403,-0.0,0.016533546149730682,1.1721997261047363,0.0,0.0052111269906163216
227.0,259.0,-4.4351,-0.5868,8.9139,-0.0356,0.022,-0.118,-2.3592082462706507,0.0,5.044659614562988,-1.1944191455841064,-0.0,1.9384589195251465,5.485256302147665,-0.0,0.21047571301460266,-1.6489151159869593,0.0,0.013759342953562737,0.404163122177124,-0.0,-0.008894780650734901,1.1721638441085815,0.0,0.014171414077281952
233.0,260.0,-4.3735,-0.6042,8.8086,-0.0336,0.0211,-0.1144,-2.359192033807272,0.0,4.98388671875,-1.194411039352417,-0.0,1.9838863611221313,5.485248553543844,-0.0,0.2157176285982132,-1.6489113012896937,0.0,0.001349008409306407,0.4041673541069031,-0.0,0.015282656997442245,1.1722278594970703,0.0,0.00015003560110926628
233.0,260.0,-4.3735,-0.6042,8.8086,-0.0336,0.0211,-0.1144,-2.359232564965719,0.0,5.031414031982422,-1.1944353580474854,-0.0,2.006725311279297,5.485200273781576,-0.0,0.21155238151550293,-1.6489313284503382,0.0,0.0065407780930399895,0.4041392207145691,-0.0,-0.010331067256629467,1.1721795797348022,0.0,0.010234715417027473
233.0,260.0,-4.3735,-0.6042,8.8086,-0.0336,0.0211,-0.1144,-2.359176298181051,0.0,4.995471477508545,-1.1944712400436401,-0.0,1.9407038688659668,5.485224771290579,-0.0,0.20266041159629822,-1.6489232222186487,0.0,0.003680219640955329,0.4042108654975891,-0.0,0.0023106769658625126,1.172268033027649,0.0,0.06193646043539047
233.0,260.0,-4.3735,-0.6042,8.8086,-0.0336,0.0211,-0.1144,-2.359188219110006,0.0,5.0344014167785645,-1.1943790912628174,-0.0,1.988883137702942,5.485248553543844,-0.0,0.19937759637832642,-1.6488912741290491,0.0,-0.0054924339056015015,0.4041551351547241,-0.0,0.00303109223023057,1.1721878051757812,0.0,0.040296781808137894
233.0,260.0,-4.3735,-0.6042,8.8086,-0.0336,0.0211,-0.1144,-2.359203954736227,0.0,5.044944763183594,-1.1944833993911743,-0.0,1.9674861431121826,5.4852125523384,-0.0,0.21428489685058594,-1.6488993803607386,0.0,0.0023563327267766,0.4042148292064667,-0.0,0.00942583940923214,1.1722041368484497,0.0,0.023585375398397446
233.0,260.0,-4.3735,-0.6042,8.8086,-0.0336,0.0211,-0.1144,-2.359188219110006,0.0,5.065465450286865,-1.1943989992141724,-0.0,1.9687978029251099,5.485284912377157,-0.0,0.2207297384738922,-1.6489151159869593,0.0,0.011004636064171791,0.404167115688324,-0.0,-0.003606134094297886,1.1721997261047363,0.0,-0.056683409959077835
233.0,260.0,-4.3735,-0.6042,8.8086,-0.0336,0.0211,-0.1144,-2.3591367206969203,0.0,5.010193347930908,-1.1944515705108643,-0.0,1.9699153900146484,5.485252606659689,-0.0,0.20553728938102722,-1.6488712469684046,0.0,0.013733221217989922,0.40417104959487915,-0.0,0.008648727089166641,1.1722157001495361,0.0,0.02055216021835804
233.0,260.0,-4.3735,-0.6042,8.8086,-0.0336,0.0211,-0.1144,-2.3591963253416957,0.0,5.026773452758789,-1.1943830251693726,-0.0,1.9587295055389404,5.4852526662643335,-0.0,0.21198193728923798,-1.648867432271139,0.0,0.018887223675847054,0.40417933464050293,-0.0,0.005828575696796179,1.1722238063812256,0.0,0.06281782686710358
233.0,260.0,-4.3735,-0.6042,8.8086,-0.0336,0.0211,-0.1144,-2.3591724834837855,0.0,5.066762447357178,-1.1944632530212402,-0.0,1.9683828353881836,5.485216605454244,-0.0,0.20435060560703278,-1.6489155928241175,0.0,-0.00019797682762145996,0.4041752815246582,-0.0,0.004674352705478668,1.1722157001495361,0.0,0.0229041650891304
233.0,260.0,-4.3735,-0.6042,8.8086,-0.0336,0.0211,-0.1144,-2.3592120609679164,0.0,5.0374436378479,-1.1944953203201294,-0.0,1.9426323175430298,5.485232519894399,-0.0,0.19995418190956116,-1.648867432271139,0.0,0.006904930807650089,0.4041551649570465,-0.0,0.005433063488453627,1.1722157001495361,0.0,0.014450683258473873
233.0,260.0,-4.3735,-0.6042,8.8086,-0.0336,0.0211,-0.1144,-2.3591605625548304,0.0,5.045928478240967,-1.1944549083709717,-0.0,1.9998620748519897,5.485272633820333,-0.0,0.20733511447906494,-1.6488869825946253,0.0,0.015414893627166748,0.40422675013542175,-0.0,0.014306602068245411,1.1722480058670044,0.0,-0.059210799634456635
233.0,260.0,-4.3735,-0.6042,8.8086,-0.0336,0.0211,-0.1144,-2.3591562710204066,0.0,5.034138202667236,-1.194403052330017,-0.0,1.9693922996520996,5.485252606659689,-0.0,0.21362659335136414,-1.6488912741290491,0.0,0.017360616475343704,0.4041551351547241,-0.0,0.0016833088593557477,1.1721878051757812,0.0,-0.012473531067371368
233.0,260.0,-4.3735,-0.6042,8.8086,-0.0336,0.0211,-0.1144,-2.359188219110006,0.0,4.9820942878723145,-1.1944433450698853,-0.0,1.9648842811584473,5.48520843961791,-0.0,0.21355274319648743,-1.6489351431476038,0.0,0.007768268696963787,0.4041590690612793,-0.0,0.003078154753893614,1.1722157001495361,0.0,-0.031018497422337532
233.0,260.0,-4.3735,-0.6042,8.8086,-0.0336,0.0211,-0.1144,-2.3592125378050746,0.0,5.007961273193359,-1.1944270133972168,-0.0,1.9964020252227783,5.485220658570089,-0.0,0.19377146661281586,-1.6489070097552698,0.0,0.005500060971826315,0.40418729186058044,-0.0,-0.00046232622116804123,1.1722157001495361,0.0,0.0006739292293787003
233.0,260.0,-4.3735,-0.6042,8.8086,-0.0336,0.0211,-0.1144,-2.359192033807272,0.0,5.041620254516602,-1.1944833993911743,-0.0,1.9634370803833008,5.48525224903182,-0.0,0.21710464358329773,-1.6488912741290491,0.0,0.017143266275525093,0.404238760471344,-0.0,0.0035065647680312395,1.1722197532653809,0.0,-0.030110806226730347
233.0,260.0,-4.3735,-0.6042,8.8086,-0.0336,0.0211,-0.1144,-2.3591963253416957,0.0,5.047832489013672,-1.194467306137085,-0.0,1.996008038520813,5.485200273781576,-0.0,0.20731878280639648,-1.6489389578448694,0.0,-0.0013276569079607725,0.40419086813926697,-0.0,-0.0017188845667988062,1.172191858291626,0.0,-0.021118225529789925
222.0,256.0,-4.4512,-0.6419,8.9492,-0.0347,0.0121,-0.1203,-2.359152456323141,0.0,5.024317741394043,-1.1944270133972168,-0.0,1.9643919467926025,5.4852444408233545,-0.0,0.2034997045993805,-1.6489151159869593,0.0,0.007980598136782646,0.4041392505168915,-0.0,0.004013747442513704,1.1722438335418701,0.0,-0.01241763960570097
222.0,256.0,-4.4512,-0.6419,8.9492,-0.0347,0.0121,-0.1203,-2.359244485894674,0.0,5.038992881774902,-1.1944475173950195,-0.0,1.9497417211532593,5.48524038770751,-0.0,0.2151000201702118,-1.6489031950580042,0.0,0.0032706730999052525,0.404163122177124,-0.0,-0.0020857672207057476,1.1722320318222046,0.0,0.02091323956847191
222.0,256.0,-4.4512,-0.6419,8.9492,-0.0347,0.0121,-0.1203,-2.359188219110006,0.0,5.0131402015686035,-1.1944994926452637,-0.0,2.0042195320129395,5.4852125523384,-0.0,0.19884619116783142,-1.6489232222186487,0.0,0.01915435865521431,0.40421879291534424,-0.0,0.010322384536266327,1.172195553779602,0.0,0.013970991596579552
222.0,256.0,-4.4512,-0.6419,8.9492,-0.0347,0.0121,-0.1203,-2.3592120609679164,0.0,4.97990083694458,-1.194419026374817,-0.0,1.980088233947754,5.485252606659689,-0.0,0.20822244882583618,-1.6489351431476038,0.0,0.011063010431826115,0.404163122177124,-0.0,0.006104943808168173,1.1722480058670044,0.0,0.04416413977742195
222.0,256.0,-4.4512,-0.6419,8.9492,-0.0347,0.0121,-0.1203,-2.3591963253416957,0.0,5.02670955657959,-1.194422960281372,-0.0,1.9490158557891846,5.485220658570089,-0.0,0.20973406732082367,-1.6488912741290491,0.0,0.01563822664320469,0.40422672033309937,-0.0,0.010909540578722954,1.172240138053894,0.0,0.03745872154831886
222.0,256.0,-4.4512,-0.6419,8.9492,-0.0347,0.0121,-0.1203,-2.3592401943602503,0.0,5.022655963897705,-1.1944191455841064,-0.0,1.9581050872802734,5.485276925354757,-0.0,0.21594762802124023,-1.6488950888263147,0.0,0.010944213718175888,0.40421876311302185,-0.0,-0.0012290463782846928,1.1722438335418701,0.0,0.011506232433021069
222.0,256.0,-4.4512,-0.6419,8.9492,-0.0347,0.0121,-0.1203,-2.359192033807272,0.0,5.023586273193359,-1.1943832635879517,-0.0,1.9954204559326172,5.485264527588644,-0.0,0.20538198947906494,-1.648919407521383,0.0,0.006299472413957119,0.4041551649570465,-0.0,0.010697945021092892,1.1722238063812256,0.0,0.01234862208366394
222.0,256.0,-4.4512,-0.6419,8.9492,-0.0347,0.0121,-0.1203,-2.359164377252096,0.0,5.0314154624938965,-1.1944270133972168,-0.0,1.991957187652588,5.485268640309133,-0.0,0.21005544066429138,-1.648918930684225,0.0,0.008708346635103226,0.40419086813926697,-0.0,-0.006961592473089695,1.1721761226654053,0.0,0.021656740456819534
222.0,256.0,-4.4512,-0.6419,8.9492,-0.0347,0.0121,-0.1203,-2.3591605625548304,0.0,5.028432846069336,-1.1944069862365723,-0.0,1.9743895530700684,5.4852285263831995,-0.0,0.22166502475738525,-1.6489108244525355,0.0,0.005909128580242395,0.40422266721725464,-0.0,-0.003759531769901514,1.1722320318222046,0.0,-0.03265141323208809
222.0,256.0,-4.4512,-0.6419,8.9492,-0.0347,0.0121,-0.1203,-2.3592082462706507,0.0,5.0074663162231445,-1.19443941116333,-0.0,1.9941694736480713,5.485252606659689,-0.0,0.2229708731174469,-1.6488869825946253,0.0,0.013713624328374863,0.4041551947593689,-0.0,0.0070638107135891914,1.1721915006637573,0.0,0.006051117088645697
222.0,256.0,-4.4512,-0.6419,8.9492,-0.0347,0.0121,-0.1203,-2.3591367206969203,0.0,5.0129008293151855,-1.1944588422775269,-0.0,1.9767014980316162,5.485272693424978,-0.0,0.19256897270679474,-1.648918930684225,0.0,0.013943303376436234,0.4042028784751892,-0.0,0.005621496122330427,1.1721638441085815,0.0,-0.007303245365619659
222.0,256.0,-4.4512,-0.6419,8.9492,-0.0347,0.0121,-0.1203,-2.359192033807272,0.0,5.028112411499023,-1.1944434642791748,-0.0,1.9651985168457031,5.485268640309133,-0.0,0.21238410472869873,-1.6488993803607386,0.0,0.015820419415831566,0.40415120124816895,-0.0,0.003975758794695139,1.1722557544708252,0.0,0.019813721999526024
222.0,256.0,-4.4512,-0.6419,8.9492,-0.0347,0.0121,-0.1203,-2.3591724834837855,0.0,5.005389213562012,-1.1944794654846191,-0.0,1.948294758796692,5.485232579499044,-0.0,0.20130658149719238,-1.6489351431476038,0.0,0.004277943633496761,0.40418335795402527,-0.0,-0.007271265611052513,1.1722157001495361,0.0,-0.02793414518237114
222.0,256.0,-4.4512,-0.6419,8.9492,-0.0347,0.0121,-0.1203,-2.359128614465231,0.0,5.042755126953125,-1.1944752931594849,-0.0,1.9904000759124756,5.485240685730734,-0.0,0.2104353904724121,-1.648867432271139,0.0,0.018731702119112015,0.4041793942451477,-0.0,0.003224467858672142,1.1722320318222046,0.0,-0.010082198306918144
222.0,256.0,-4.4512,-0.6419,8.9492,-0.0347,0.0121,-0.1203,-2.3591801128783167,0.0,5.058313369750977,-1.194411039352417,-0.0,2.0274698734283447,5.485244858055868,-0.0,0.2172425389289856,-1.6489151159869593,0.0,-0.004046325106173754,0.40421077609062195,-0.0,-0.0014514506328850985,1.1722238063812256,0.0,-0.027548430487513542
222.0,256.0,-4.4512,-0.6419,8.9492,-0.0347,0.0121,-0.1203,-2.3591681919493617,0.0,5.071930885314941,-1.1944191455841064,-0.0,1.9678325653076172,5.485232519894399,-0.0,0.20137065649032593,-1.6488712469684046,0.0,0.014544443227350712,0.40415552258491516,-0.0,0.01106080412864685,1.1721837520599365,0.0,0.01214736420661211
221.0,259.0,-4.4082,-0.6024,8.7667,-0.0435,0.0281,-0.1161,-2.3591562710204066,0.0,5.062088966369629,-1.1944069862365723,-0.0,2.0106382369995117,5.485256719380178,-0.0,0.20298022031784058,-1.6488869825946253,0.0,0.01863708719611168,0.4041713774204254,-0.0,0.0007055486785247922,1.1721755266189575,0.0,0.027167439460754395
221.0,259.0,-4.4082,-0.6024,8.7667,-0.0435,0.0281,-0.1161,-2.359188219110006,0.0,5.060500144958496,-1.1944588422775269,-0.0,1.9880733489990234,5.485248553543844,-0.0,0.2054901123046875,-1.6488550345050257,0.0,0.005959311034530401,0.404163122177124,-0.0,-0.0002479818358551711,1.1722320318222046,0.0,0.012394142337143421
221.0,259.0,-4.4082,-0.6024,8.7667,-0.0435,0.0281,-0.1161,-2.359176298181051,0.0,5.0232110023498535,-1.1944153308868408,-0.0,1.942176342010498,5.485236632614889,-0.0,0.20313742756843567,-1.6489108244525355,0.0,0.0045687113888561726,0.404206782579422,-0.0,0.016911698505282402,1.172191858291626,0.0,-0.04058461636304855
221.0,259.0,-4.4082,-0.6024,8.7667,-0.0435,0.0281,-0.1161,-2.3591963253416957,0.0,5.044759750366211,-1.1944314241409302,-0.0,1.9981207847595215,5.4852768061454675,-0.0,0.21564528346061707,-1.6488788763629358,0.0,0.020884985104203224,0.4041551947593689,-0.0,0.001603374257683754,1.1722480058670044,0.0,-0.04727332666516304
221.0,259.0,-4.4082,-0.6024,8.7667,-0.0435,0.0281,-0.1161,-2.3592082462706507,0.0,5.0056962966918945,-1.1944353580474854,-0.0,1.9643522500991821,5.4852165458496,-0.0,0.2037774622440338,-1.6488755385028284,0.0,0.008326958864927292,0.40409520268440247,-0.0,0.005628480575978756,1.1721959114074707,0.0,-0.013837366364896297
221.0,259.0,-4.4082,-0.6024,8.7667,-0.0435,0.0281,-0.1161,-2.359192033807272,0.0,5.050985813140869,-1.194411039352417,-0.0,1.9506289958953857,5.485260474472799,-0.0,0.21455854177474976,-1.6489151159869593,0.0,0.02089603990316391,0.40422263741493225,-0.0,0.00902861449867487,1.1721516847610474,0.0,0.023318983614444733
221.0,259.0,-4.4082,-0.6024,8.7667,-0.0435,0.0281,-0.1161,-2.3591443500914515,0.0,5.013012886047363,-1.194422960281372,-0.0,1.975035548210144,5.485224771290579,-0.0,0.20199760794639587,-1.6489351431476038,0.0,-0.00023727025836706161,0.4041948914527893,-0.0,-0.0027332340832799673,1.1721997261047363,0.0,-0.0007929382845759392
221.0,259.0,-4.4082,-0.6024,8.7667,-0.0435,0.0281,-0.1161,-2.359188219110006,0.0,5.051957607269287,-1.1944314241409302,-0.0,1.9848620891571045,5.485228884011068,-0.0,0.225444495677948,-1.6489151159869593,0.0,0.002348302397876978,0.4042028486728668,-0.0,0.008943106979131699,1.1721959114074707,0.0,0.019619204103946686
221.0,259.0,-4.4082,-0.6024,8.7667,-0.0435,0.0281,-0.1161,-2.359203954736227,0.0,5.041317939758301,-1.1944588422775269,-0.0,1.959537386894226,5.4852444408233545,-0.0,0.19458740949630737,-1.648895565663473,0.0,0.016064874827861786,0.4042309820652008,-0.0,0.00035666755866259336,1.172203779220581,0.0,-0.07007226347923279
221.0,259.0,-4.4082,-0.6024,8.7667,-0.0435,0.0281,-0.1161,-2.359176298181051,0.0,4.990291595458984,-1.194399118423462,-0.0,1.996614933013916,5.485272633820333,-0.0,0.20839616656303406,-1.6489151159869593,0.0,0.0030882807914167643,0.40415120124816895,-0.0,-0.005288856104016304,1.1721878051757812,0.0,0.024379007518291473
221.0,259.0,-4.4082,-0.6024,8.7667,-0.0435,0.0281,-0.1161,-2.359220644036764,0.0,5.064920425415039,-1.1944475173950195,-0.0,1.9792070388793945,5.485256719380178,-0.0,0.21854111552238464,-1.6489313284503382,0.0,0.014104397967457771,0.404226690530777,-0.0,0.0018638742621988058,1.1721837520599365,0.0,0.03803171217441559
221.0,259.0,-4.4082,-0.6024,8.7667,-0.0435,0.0281,-0.1161,-2.359152456323141,0.0,5.009415626525879,-1.194450855255127,-0.0,1.9372925758361816,5.485232579499044,-0.0,0.20499220490455627,-1.6489031950580042,0.0,0.021684680134058,0.40416741371154785,-0.0,0.013974582776427269,1.1721878051757812,0.0,0.037379611283540726
221.0,259.0,-4.4082,-0.6024,8.7667,-0.0435,0.0281,-0.1161,-2.3592082462706507,0.0,5.031867980957031,-1.194379210472107,-0.0,1.9991624355316162,5.485236632614889,-0.0,0.20059829950332642,-1.6488993803607386,0.0,0.011968238279223442,0.40417933464050293,-0.0,0.0005780701758340001,1.1722238063812256,0.0,0.04481155425310135
221.0,259.0,-4.4082,-0.6024,8.7667,-0.0435,0.0281,-0.1161,-2.3591519794859828,0.0,5.033518314361572,-1.1944310665130615,-0.0,1.9794169664382935,5.485224771290579,-0.0,0.22211307287216187,-1.648867432271139,0.0,0.01141800731420517,0.40419086813926697,-0.0,0.0026454017497599125,1.1722238063812256,0.0,0.005429047159850597
221.0,259.0,-4.4082,-0.6024,8.7667,-0.0435,0.0281,-0.1161,-2.3592001400389613,0.0,5.032279968261719,-1.1944434642791748,-0.0,1.9669400453567505,5.485244500427999,-0.0,0.2055322527885437,-1.648942772542135,0.0,0.023310784250497818,0.40419086813926697,-0.0,-0.0011719176545739174,1.1722561120986938,0.0,0.03800644353032112
221.0,259.0,-4.4082,-0.6024,8.7667,-0.0435,0.0281,-0.1161,-2.3591963253416957,0.0,5.0383076667785645,-1.1944712400436401,-0.0,2.0033459663391113,5.48522429445342,-0.0,0.21704939007759094,-1.6489313284503382,0.0,0.005323677323758602,0.4042067527770996,-0.0,-0.0014040973037481308,1.1722115278244019,0.0,-0.012458563782274723
221.0,259.0,-4.4082,-0.6024,8.7667,-0.0435,0.0281,-0.1161,-2.3592082462706507,0.0,5.03535795211792,-1.1944314241409302,-0.0,1.9608955383300781,5.485236632614889,-0.0,0.20228806138038635,-1.6489351431476038,0.0,0.0156926941126585,0.404127299785614,-0.0,0.0013049151748418808,1.1722238063812256,0.0,-0.013473455794155598
233.0,248.0,-4.3866,-0.5737,8.7153,-0.0342,0.0237,-0.1235,-2.359140535394186,0.0,5.018885612487793,-1.1944833993911743,-0.0,1.9321558475494385,5.485252606659689,-0.0,0.22127196192741394,-1.6488712469684046,0.0,0.011561466380953789,0.4042147696018219,-0.0,0.009826513938605785,1.172248363494873,0.0,-0.02769000455737114
233.0,248.0,-4.3866,-0.5737,8.7153,-0.0342,0.0237,-0.1235,-2.359204431573385,0.0,5.007322311401367,-1.1944549083709717,-0.0,2.0385022163391113,5.4852768061454675,-0.0,0.21284466981887817,-1.6488788763629358,0.0,0.015379013493657112,0.40413928031921387,-0.0,0.0026264390908181667,1.1721997261047363,0.0,-0.04229225963354111
233.0,248.0,-4.3866,-0.5737,8.7153,-0.0342,0.0237,-0.1235,-2.3591681919493617,0.0,5.0128583908081055,-1.1944873332977295,-0.0,1.9489805698394775,5.485200273781576,-0.0,0.20811715722084045,-1.6489351431476038,0.0,0.0010233893990516663,0.4041949212551117,-0.0,-0.006789821200072765,1.1722238063812256,0.0,0.01864466816186905
233.0,248.0,-4.3866,-0.5737,8.7153,-0.0342,0.0237,-0.1235,-2.3591801128783167,0.0,5.033785343170166,-1.1944549083709717,-0.0,1.97721266746521,5.4852285263831995,-0.0,0.21200281381607056,-1.6489508787738245,0.0,0.009037179872393608,0.40419086813926697,-0.0,-0.008875970728695393,1.1722278594970703,0.0,0.028953654691576958
233.0,248.0,-4.3866,-0.5737,8.7153,-0.0342,0.0237,-0.1235,-2.3591801128783167,0.0,5.014888763427734,-1.1943870782852173,-0.0,1.9626479148864746,5.485252606659689,-0.0,0.22571776807308197,-1.6488993803607386,0.0,0.004415309987962246,0.4042028486728668,-0.0,0.010707077570259571,1.1721761226654053,0.0,-0.030709099024534225
233.0,248.0,-4.3866,-0.5737,8.7153,-0.0342,0.0237,-0.1235,-2.3591844044127406,0.0,4.996896266937256,-1.1944029331207275,-0.0,1.974537968635559,5.4852444408233545,-0.0,0.20290008187294006,-1.6488950888263147,0.0,0.01579318568110466,0.40421074628829956,-0.0,0.00830132607370615,1.1721997261047363,0.0,-0.000993204303085804
233.0,248.0,-4.3866,-0.5737,8.7153,-0.0342,0.0237,-0.1235,-2.359100957910055,0.0,5.024935722351074,-1.194419026374817,-0.0,2.004568576812744,5.485256778984823,-0.0,0.1897042989730835,-1.6488631407367151,0.0,-0.004624638706445694,0.40419885516166687,-0.0,0.0018335867207497358,1.172191858291626,0.0,-0.002159643918275833
233.0,248.0,-4.3866,-0.5737,8.7153,-0.0342,0.0237,-0.1235,-2.359140535394186,0.0,5.0276198387146,-1.1943870782852173,-0.0,1.9737205505371094,5.485220658570089,-0.0,0.2026163935661316,-1.6489031950580042,0.0,0.02529655396938324,0.40421074628829956,-0.0,-0.0001435750164091587,1.1721680164337158,0.0,-0.01641947217285633
233.0,248.0,-4.3866,-0.5737,8.7153,-0.0342,0.0237,-0.1235,-2.3591324291624964,0.0,5.024430274963379,-1.1944072246551514,-0.0,2.0010344982147217,5.485196220665731,-0.0,0.21521538496017456,-1.6488712469684046,0.0,0.020655585452914238,0.4041750133037567,-0.0,0.0017030352028086782,1.1722238063812256,0.0,0.05451764911413193
233.0,248.0,-4.3866,-0.5737,8.7153,-0.0342,0.0237,-0.1235,-2.359220644036764,0.0,5.028522491455078,-1.1944632530212402,5.305684567247226e-07,1.979788899421692,5.485220598965444,-0.0,0.21185752749443054,-1.6489070097552698,0.0,0.007889517582952976,0.40414315462112427,-0.0,0.010108769871294498,1.1721681356430054,0.0,0.009413646534085274
233.0,248.0,-4.3866,-0.5737,8.7153,-0.0342,0.0237,-0.1235,-2.359164377252096,0.0,5.024209022521973,-1.1943910121917725,1.2812604709838693e-12,1.9707629680633545,5.4852685807044885,-0.0,0.21034295856952667,-1.6488750616656702,0.0,0.0013847840018570423,0.40417903661727905,-0.0,0.002554164733737707,1.1721843481063843,0.0,-0.0017905025742948055
233.0,248.0,-4.3866,-0.5737,8.7153,-0.0342,0.0237,-0.1235,-2.35916866878652,0.0,5.017673015594482,-1.1944475173950195,3.094093069492364e-18,1.966968297958374,5.48521243312911,-1.8237351184779982e-07,0.20242053270339966,-1.6489470640765589,0.0,0.0063047390431165695,0.4041151702404022,-0.0,0.0004150029271841049,1.1722078323364258,0.0,0.007323776837438345
233.0,248.0,-4.3866,-0.5737,8.7153,-0.0342,0.0237,-0.1235,-2.3591486416258753,0.0,5.030345916748047,-1.1943790912628174,5.569257521535454e-22,1.9899864196777344,5.485232519894399,-7.774869081877966e-10,0.22219714522361755,-1.6489947477923792,-0.0016733865486457944,0.019735155627131462,0.4041590690612793,-1.1651382081367956e-08,0.003262107027694583,1.1721720695495605,0.0,-0.001680327346548438
233.0,248.0,-4.3866,-0.5737,8.7153,-0.0342,0.0237,-0.1235,-2.359152456323141,0.0,5.019222259521484,-1.194403052330017,0.000394480477552861,1.9788618087768555,5.48521243312911,-2.1641632171227887e-13,0.2111719250679016,-1.6489985624896448,-0.0029992430936545134,0.0014151723589748144,0.404059499502182,-0.0015039892168715596,-0.019966989755630493,1.1722557544708252,0.0,0.01777464710175991
233.0,248.0,-4.3866,-0.5737,8.7153,-0.0342,0.0237,-0.1235,-2.359180589715475,0.0008782214135862887,5.0388407707214355,-1.1943671703338623,0.00035457630292512476,1.977238655090332,5.485204267292776,-6.02402817595664e-17,0.21665072441101074,-1.6490147749530237,-0.00103181810118258,-0.0025388305075466633,0.40417906641960144,-0.002125680446624756,-0.025188319385051727,1.1722675561904907,0.00517810694873333,0.0336979441344738
233.0,248.0,-4.3866,-0.5737,8.7153,-0.0342,0.0237,-0.1235,-2.359160085717672,0.0009672259911894798,5.048288822174072,-1.1943793296813965,0.000362842547474429,1.9784365892410278,5.485276746540823,-1.676810454566347e-20,0.21699872612953186,-1.6489947477923792,-0.0002922248386312276,-0.01709020510315895,0.4041159451007843,-0.002826223848387599,-0.023270096629858017,1.172351598739624,0.009706329554319382,0.0022768890485167503
222.0,272.0,-3.475,-0.387,8.4784,-0.2297,-0.0432,-0.3685,-2.359140535394186,0.0009800412226468325,5.056038856506348,-1.1943793296813965,0.0003537895972840488,1.9306905269622803,5.485252785473623,8.995746611617506e-06,0.2174856811761856,-1.6490028540240687,-0.00019626827270258218,-0.011897368356585503,0.4041154980659485,-0.004015774466097355,-0.027041980996727943,1.1723798513412476,0.011622486636042595,0.043498460203409195
222.0,272.0,-3.475,-0.387,8.4784,-0.2297,-0.0432,-0.3685,-2.3591767750182093,0.000762365001719445,5.0364508628845215,-1.1944193840026855,0.00030833465280011296,1.9758646488189697,5.485260832100668,2.5039992301856273e-09,0.22094818949699402,-1.6490066687213343,-0.00014784220547880977,-0.0042603956535458565,0.4040320813655853,-0.009888864122331142,-0.027836795896291733,1.172479510307312,0.009761333465576172,0.014697487466037273
222.0,272.0,-3.475,-0.387,8.4784,-0.2297,-0.0432,-0.3685,-2.3591648540892542,0.0006832605577073991,5.077977180480957,-1.1943187713623047,0.000284007954178378,1.980647325515747,5.4852125523384,1.0674942700628076e-11,0.22856542468070984,-1.6490748564349573,-0.00012696799240075052,-0.009469231590628624,0.40397214889526367,-0.013449255377054214,-0.02106523886322975,1.1724791526794434,0.008221298456192017,-0.013591082766652107
222.0,272.0,-3.475,-0.387,8.4784,-0.2297,-0.0432,-0.3685,-2.3591281376280726,0.0005777531187050045,5.030207633972168,-1.1944313049316406,0.00025395440752618015,1.9593596458435059,5.485232579499044,2.9714095784182147e-15,0.21531942486763,-1.6490348021136683,-0.0001302981545450166,0.012217136099934578,0.40394026041030884,-0.011600693687796593,-0.027477430179715157,1.1724908351898193,0.006257885601371527,-0.04048158973455429
222.0,272.0,-3.475,-0.387,8.4784,-0.2297,-0.0432,-0.3685,-2.3591205082335414,0.0004530699225142598,5.023128509521484,-1.1944153308868408,0.00022965339303482324,1.9559602737426758,5.485192346363821,8.27102909274236e-19,0.22186684608459473,-1.649039093648092,-0.00013379078882280737,0.015573629178106785,0.40386858582496643,-0.006990648806095123,-0.024478254839777946,1.172570824623108,0.004806724842637777,0.011239953339099884
222.0,272.0,-3.475,-0.387,8.4784,-0.2297,-0.0432,-0.3685,-2.3591448269286097,0.00037265499122440815,5.093533515930176,-1.1943752765655518,0.0002095968957291916,1.9753742218017578,5.485232996731558,-0.0002467840095050633,0.2161966860294342,-1.6490066687213343,-0.00011647764767985791,0.00023272703401744366,0.4038963317871094,-0.0026442816015332937,-0.035938113927841187,1.1726313829421997,0.0045113652013242245,0.00799581129103899
222.0,272.0,-3.475,-0.387,8.4784,-0.2297,-0.0432,-0.3685,-2.359140535394186,0.00031648550066165626,5.041390419006348,-1.1943793296813965,0.00019276254170108587,1.9974725246429443,5.485228884011068,-0.00020844799291808158,0.21534442901611328,-1.6490071455584925,-0.00010312811355106533,0.0017283274792134762,0.4038047790527344,-0.0010884173680096865,-0.04736188426613808,1.1726027727127075,0.003470783121883869,-0.015430333092808723
222.0,272.0,-3.475,-0.387,8.4784,-0.2297,-0.0432,-0.3685,-2.359156747857565,0.00027503224555402994,5.017544269561768,-1.194387435913086,0.00014911394100636244,1.9445137977600098,5.485244917660513,-0.0001692316436674446,0.23069524765014648,-1.6490548292743128,-9.252442396245897e-05,-0.01461571455001831,0.40376895666122437,-0.0006771354819647968,-0.046205125749111176,1.1725826263427734,0.002428213134407997,-0.006730393506586552
222.0,272.0,-3.475,-0.387,8.4784,-0.2297,-0.0432,-0.3685,-2.359124322930807,0.0002529455232433975,5.0515971183776855,-1.1943871974945068,0.0001397292217006907,1.9557344913482666,5.485248911171713,-0.00015037252160254866,0.2182111293077469,-1.6490228811847132,-8.658917067805305e-05,-0.0031714444048702717,0.40387651324272156,-0.000541156274266541,-0.04611517861485481,1.1725986003875732,0.0015125394565984607,0.006268328055739403
222.0,272.0,-3.475,-0.387,8.4784,-0.2297,-0.0432,-0.3685,-2.3591119251646937,0.00025800036382861435,5.026844501495361,-1.1943752765655518,0.00012782200064975768,1.9714901447296143,5.485192346363821,-0.00016603106632828712,0.22444626688957214,-1.6490510145770472,-7.898884359747171e-05,-0.0009550900431349874,0.4038369059562683,-0.000415959395468235,-0.049014605581760406,1.1726429462432861,0.000881380692590028,0.002396221272647381
222.0,272.0,-3.475,-0.387,8.4784,-0.2297,-0.0432,-0.3685,-2.359108110467428,0.00020441316883079708,5.032402038574219,-1.1943507194519043,0.00011778495536418632,1.931338906288147,5.485176372319021,-0.0001502663508290425,0.2085079699754715,-1.649050537739889,-7.261523569468409e-05,0.010054421611130238,0.40383684635162354,-0.0003378359542693943,-0.03262040764093399,1.172619104385376,0.00020747659436892718,0.034929294139146805
222.0,272.0,-3.475,-0.387,8.4784,-0.2297,-0.0432,-0.3685,-2.3591329059996546,0.00021503766765818,4.98089599609375,-1.194370985031128,0.00010920938075287268,1.9827525615692139,5.485248911171713,-0.00013354214024730027,0.20151570439338684,-1.6490185896502894,-6.719351949868724e-05,-0.0069480882957577705,0.40385663509368896,-0.00028442920302040875,-0.036355290561914444,1.1726027727127075,7.709996134508401e-05,-0.028762895613908768
222.0,272.0,-3.475,-0.387,8.4784,-0.2297,-0.0432,-0.3685,-2.3591205082335414,0.00019541473011486232,5.0596818923950195,-1.194371223449707,8.144218008965254e-05,2.0115485191345215,5.485216605454244,-0.00012016754044452682,0.22110936045646667,-1.6490028540240687,-6.252517050597817e-05,-0.008354468271136284,0.4038090407848358,-0.0002456074580550194,-0.03602902963757515,1.1725831031799316,1.86187343320654e-10,-0.012580571696162224
222.0,272.0,-3.475,-0.387,8.4784,-0.2297,-0.0432,-0.3685,-2.3591119251646937,0.00015866479952819645,4.983897686004639,-1.1944072246551514,5.942884672549553e-05,1.9339890480041504,5.485160517483511,-0.00010922850924544036,0.21674218773841858,-1.649010960255758,-5.8463436289457604e-05,-0.007637310773134232,0.40385666489601135,-0.00021611245756503195,-0.05477382242679596,1.1726313829421997,4.496205996934292e-16,-0.04255072399973869
222.0,272.0,-3.475,-0.387,8.4784,-0.2297,-0.0432,-0.3685,-2.359148164788717,0.00013487445539794862,5.019576549530029,-1.194354772567749,5.487269663717598e-05,1.9657453298568726,5.485232996731558,-0.00010297888366039842,0.22217202186584473,-1.649039093648092,-5.603660974884406e-05,-0.006219082046300173,0.4039284288883209,-0.0002000937529373914,-0.03778128698468208,1.1726073026657104,8.093012328596647e-20,-0.04073255509138107
222.0,272.0,-3.475,-0.387,8.4784,-0.2297,-0.0432,-0.3685,-2.35916866878652,5.5090680689318106e-05,5.002798080444336,-1.1944351196289062,-3.3171458198921755e-05,1.9895882606506348,5.485237467079916,-4.613440250977874e-05,0.21686691045761108,-1.6490147749530237,3.605723395594396e-05,-0.0012278277426958084,0.40386468172073364,-0.00015007950423751026,-0.03761431202292442,1.1725908517837524,1.9543672706848054e-25,-0.019088417291641235
234.0,251.0,-5.9204,-5.2816,9.6353,-0.0005,0.1145,0.3308,-2.359148164788717,4.651938797906041e-05,5.033477306365967,-1.1943950653076172,-6.868339551147074e-05,1.9401366710662842,5.485232519894399,-6.714704881005673e-08,0.2240566611289978,-1.6489747206317347,3.526519503793679e-05,0.0037223976105451584,0.40386462211608887,-0.00013641288387589157,-0.040203481912612915,1.172554850578308,-0.00039676635060459375,-0.05295154079794884
234.0,251.0,-5.9204,-5.2816,9.6353,-0.0005,0.1145,0.3308,-2.3591443500914515,4.027380055049434e-05,5.020928859710693,-1.194399118423462,-6.525938078993931e-05,1.9822328090667725,5.485216605454244,-1.8690627170969698e-11,0.22237636148929596,-1.648987118397848,3.330784966237843e-05,-0.013860039412975311,0.4038606882095337,-0.0001000898628262803,-0.018486198037862778,1.1725995540618896,-0.001085909316316247,-0.009497827850282192
234.0,251.0,-5.9204,-5.2816,9.6353,-0.0005,0.1145,0.3308,-2.359148164788717,3.550683322828263e-05,5.013955116271973,-1.1944752931594849,-5.588787462329492e-05,2.0031020641326904,5.485228884011068,-5.202604264010948e-15,0.21821343898773193,-1.648958985005514,4.726431507151574e-05,-0.004590614698827267,0.40388450026512146,-9.233479795511812e-05,-0.02172914333641529,1.1725953817367554,-0.0010041927453130484,0.020741155371069908
234.0,251.0,-5.9204,-5.2816,9.6353,-0.0005,0.1145,0.3308,-2.359148164788717,3.174899393343367e-05,5.041260242462158,-1.194362998008728,-5.11255711899139e-05,1.95267915725708,5.485228884011068,-1.4481640201530977e-18,0.21215146780014038,-1.6489670912372034,5.9925052482867613e-05,-0.00020353312720544636,0.40386074781417847,-6.439891876652837e-05,-0.009610150009393692,1.172579050064087,-0.0006821196875534952,-0.026397904381155968
234.0,251.0,-5.9204,-5.2816,9.6353,-0.0005,0.1145,0.3308,-2.359164377252096,2.9656555852852762e-05,5.030453681945801,-1.194383144378662,-4.837736560148187e-05,1.9719977378845215,5.485244858055868,-6.173749339597969e-21,0.20691192150115967,-1.6489103476153772,0.00030447362223640084,0.0009467656491324306,0.40396812558174133,-6.138344906503335e-05,-0.012111647054553032,1.1725188493728638,-0.0005606279009953141,-0.029023945331573486
234.0,251.0,-5.9204,-5.2816,9.6353,-0.0005,0.1145,0.3308,-2.3591443500914515,2.698849311855156e-05,5.005984306335449,-1.194394826889038,-4.476779940887354e-05,2.0013389587402344,5.485232937126913,-1.7184857559392083e-24,0.21337495744228363,-1.6489232222186487,0.0003292984620202333,-0.00370812532491982,0.4039205014705658,3.9276041206903756e-05,-0.005760754458606243,1.1726316213607788,-0.00048377629718743265,0.0014764643274247646
234.0,251.0,-5.9204,-5.2816,9.6353,-0.0005,0.1145,0.3308,-2.359148164788717,2.4760969608905725e-05,4.9827752113342285,-1.1944310665130615,-4.165947393630631e-05,1.9490385055541992,5.4852526662643335,-4.783468314061035e-28,0.22038400173187256,-1.6488989035235804,0.0003255964838899672,0.010487698018550873,0.4038924276828766,5.057063026470132e-05,-0.01549232192337513,1.172563076019287,-0.00041939044604077935,0.022432463243603706
234.0,251.0,-5.9204,-5.2816,9.6353,-0.0005,0.1145,0.3308,-2.3591443500914515,1.4861497588114503e-09,5.029466152191162,-1.1943871974945068,-3.895475674653426e-05,1.9909981489181519,5.485208380013265,-1.3314958518120044e-31,0.203663632273674,-1.6488912741290491,0.0002867694420274347,0.008190874010324478,0.40389639139175415,5.2126171794952825e-05,-0.014971946366131306,1.1725269556045532,-0.00031147952540777624,0.06353268027305603
234.0,251.0,-5.9204,-5.2816,9.6353,-0.0005,0.1145,0.3308,-2.359180589715475,3.5888764799341024e-15,5.020701885223389,-1.1944072246551514,-3.657983324956149e-05,2.0057969093322754,5.485216605454244,-3.7062679683657345e-35,0.21468591690063477,-1.648942772542135,0.00025615657796151936,0.006237783934921026,0.40390831232070923,4.927359987050295e-05,-0.016328178346157074,1.1725027561187744,-0.0003523054183460772,0.016364241018891335
234.0,251.0,-5.9204,-5.2816,9.6353,-0.0005,0.1145,0.3308,-2.3591963253416957,8.66671539777759e-21,5.063997268676758,-1.1943750381469727,-3.4477860026527196e-05,1.968966007232666,5.485236632614889,-1.0316531654070415e-38,0.21498125791549683,-1.6488989035235804,0.00026884645922109485,-0.007462442386895418,0.40390831232070923,4.671589704230428e-05,-0.01096549816429615,1.172539234161377,-0.0004981874371878803,-0.022987155243754387
234.0,251.0,-5.9204,-5.2816,9.6353,-0.0005,0.1145,0.3308,-2.3591486416258753,1.5599780607085005e-24,5.007567405700684,-1.1944191455841064,-3.3205807994818315e-05,1.9834380149841309,5.485220658570089,-4.398115360129871e-41,0.22698405385017395,-1.6488950888263147,0.00024271999427583069,0.01763908565044403,0.40387654304504395,5.6326094636460766e-05,-0.0041312058456242085,1.1725069284439087,-0.0004915824392810464,-0.006233371794223785
234.0,251.0,-5.9204,-5.2816,9.6353,-0.0005,0.1145,0.3308,-2.359156747857565,3.7671633578881204e-30,5.0500664710998535,-1.1943550109863281,-3.1464467610931024e-05,1.9708017110824585,5.485216605454244,-1.2611686178923354e-44,0.21003322303295135,-1.6489389578448694,0.00020891545864287764,0.01128419116139412,0.40388450026512146,5.732720092055388e-05,0.006708357483148575,1.172551155090332,-0.00038636490353383124,0.002463056705892086
234.0,251.0,-5.9204,-5.2816,9.6353,-0.0005,0.1145,0.3308,-2.359108110467428,9.097255817862414e-36,5.000591278076172,-1.1943910121917725,-2.9896697014919482e-05,1.9925346374511719,5.485232937126913,-0.0,0.21151229739189148,-1.64893085161318,0.00018337010988034308,0.0095937829464674,0.40387260913848877,7.257145625771955e-05,0.001422693720087409,1.1725229024887085,-0.00031807683990336955,-0.011965185403823853
234.0,251.0,-5.9204,-5.2816,9.6353,-0.0005,0.1145,0.3308,-2.359156747857565,2.1968156025220157e-41,5.025810241699219,-1.194439172744751,-2.8477741579990834e-05,1.9950599670410156,5.485273170262136,-0.0,0.21093109250068665,-1.648918930684225,0.00016339281864929944,-0.0031312135979533195,0.4039165675640106,0.00010486380779184401,-0.00027795834466814995,1.1725794076919556,-0.0002703052887227386,-0.07502058148384094
234.0,251.0,-5.9204,-5.2816,9.6353,-0.0005,0.1145,0.3308,-2.359108110467428,0.0,5.006968021392822,-1.194427251815796,-2.7187348678126e-05,1.956119418144226,5.485204326897421,-0.0,0.2121342122554779,-1.648918930684225,0.0001473408192396164,0.003825315274298191,0.40385669469833374,9.392923675477505e-05,-0.0016418148297816515,1.1725672483444214,-0.00023501070972997695,-0.014724589884281158
234.0,251.0,-5.9204,-5.2816,9.6353,-0.0005,0.1145,0.3308,-2.359148164788717,0.0,5.006201267242432,-1.1943954229354858,-2.6008858185377903e-05,1.950089931488037,5.485232937126913,-0.0,0.20955201983451843,-1.6489232222186487,0.000134161178721115,0.015647076070308685,0.4038686454296112,8.505171717843041e-05,0.002717789262533188,1.1725068092346191,-0.0002078696124954149,0.026821844279766083
221.0,257.0,-4.3334,-0.6814,8.8086,-0.0226,0.0002,-0.0741,-2.359208723107809,0.0,5.014291763305664,-1.1943912506103516,-2.527837932575494e-05,1.966367483139038,5.485228466778555,-0.0,0.19599515199661255,-1.6489551703082483,0.00012661110667977482,0.004813780076801777,0.4039125442504883,8.001047535799444e-05,-0.004690348636358976,1.1725590229034424,-0.00019300934218335897,-0.0022132620215415955
221.0,257.0,-4.3334,-0.6814,8.8086,-0.0226,0.0002,-0.0741,-2.3591724834837855,0.0,5.049781799316406,-1.1944270133972168,-3.632836160250008e-05,1.9485883712768555,5.485204267292776,-0.0,0.21126428246498108,-1.6489313284503382,0.00011675537098199129,4.372216062620282e-05,0.4039205014705658,7.347782229771838e-05,0.0013040559133514762,1.172539234161377,-0.00017431724700145423,-0.0336909294128418
221.0,257.0,-4.3334,-0.6814,8.8086,-0.0226,0.0002,-0.0741,-2.3591562710204066,0.0,5.027662754058838,-1.19443941116333,-3.4970915294252336e-05,2.0055363178253174,5.485204326897421,-0.0,0.21808823943138123,-1.6489389578448694,0.00010832340194610879,-0.0005051662446931005,0.40395587682724,6.793131615268067e-05,0.0013697599060833454,1.1725188493728638,-0.0001589441526448354,0.005522416904568672
221.0,257.0,-4.3334,-0.6814,8.8086,-0.0226,0.0002,-0.0741,-2.359176298181051,0.0,5.0396270751953125,-1.1943988800048828,-4.488363629207015e-05,1.9875092506408691,5.485232937126913,-0.0,0.20453068614006042,-1.6489232222186487,0.00010102728992933407,0.007973664440214634,0.4039161801338196,6.316363578662276e-05,-0.006495748180896044,1.1725634336471558,-0.00017033168114721775,0.0379825197160244
221.0,257.0,-4.3334,-0.6814,8.8086,-0.0226,0.0002,-0.0741,-2.359124799767965,0.0,4.987329483032227,-1.1944351196289062,-5.408200013334863e-05,1.9286534786224365,5.485236632614889,-0.0,0.2018468976020813,-1.6489108244525355,9.465215407544747e-05,0.0008189079817384481,0.4038805067539215,5.9021185734309256e-05,0.003559377044439316,1.1725188493728638,-0.00017999234842136502,0.037565551698207855
221.0,257.0,-4.3334,-0.6814,8.8086,-0.0226,0.0002,-0.0741,-2.359192033807272,0.0,5.031558990478516,-1.1944468021392822,-5.220005914452486e-05,1.950880527496338,5.485236632614889,-0.0,0.2217196673154831,-1.6488869825946253,8.903379057301208e-05,0.002276287181302905,0.40395587682724,5.5388707551173866e-05,0.01896980218589306,1.17256760597229,-0.00015416432870551944,-0.004088891204446554
221.0,257.0,-4.3334,-0.6814,8.8086,-0.0226,0.0002,-0.0741,-2.359164377252096,0.0,5.071381568908691,-1.1944475173950195,-5.101647548144683e-05,1.9971303939819336,5.485256719380178,-0.0,0.20430633425712585,-1.6489070097552698,8.564470044802874e-05,0.014329775236546993,0.4038686752319336,5.320575655787252e-05,-0.005173692014068365,1.1724830865859985,-0.0001945249823620543,-0.007284419611096382
221.0,257.0,-4.3334,-0.6814,8.8086,-0.0226,0.0002,-0.0741,-2.3591767750182093,0.0,5.025350570678711,-1.194411039352417,-5.7463103075861e-06,2.001194477081299,5.485252725868978,-0.0,0.21384064853191376,-1.6489713827716272,8.101875573629513e-05,0.010804684832692146,0.4038766324520111,5.023585254093632e-05,0.008192252367734909,1.1725032329559326,-0.0009099954622797668,-0.00937788188457489
221.0,257.0,-4.3334,-0.6814,8.8086,-0.0226,0.0002,-0.0741,-2.3591324291624964,2.2483380234916694e-05,5.0982208251953125,-1.1944191455841064,-1.3876661972278548e-11,1.9512594938278198,5.485220718174734,-0.0,0.21124595403671265,-1.6489070097552698,7.686692697461694e-05,-0.00021300531807355583,0.40387260913848877,4.7579997044522315e-05,0.00044990377500653267,1.1725032329559326,-0.0007749958313070238,0.019865097478032112
221.0,257.0,-4.3334,-0.6814,8.8086,-0.0226,0.0002,-0.0741,-2.359156747857565,2.254790706501808e-05,5.022541046142578,-1.1943832635879517,-3.351050605645429e-17,1.973506212234497,5.485260951309957,-0.0,0.21040013432502747,-1.6489508787738245,7.311990339076146e-05,-0.0009748316369950771,0.40385279059410095,4.5190914534032345e-05,0.013494329527020454,1.1724507808685303,-0.0007823967607691884,0.013004329055547714
221.0,257.0,-4.3334,-0.6814,8.8086,-0.0226,0.0002,-0.0741,-2.3591162166991175,2.0971679987269454e-05,5.024093151092529,-1.1943751573562622,-8.092393281045327e-23,2.012765407562256,5.485188293247976,-0.0,0.20854423940181732,-1.6489070097552698,6.972122355364263e-05,0.0008318489417433739,0.4039125442504883,4.303019159124233e-05,-0.0033196313306689262,1.172499179840088,-0.000903995125554502,0.008556496351957321
221.0,257.0,-4.3334,-0.6814,8.8086,-0.0226,0.0002,-0.0741,-2.359156747857565,1.960144982149359e-05,5.033137321472168,-1.194411277770996,-2.2443329726229422e-05,1.9498183727264404,5.485164272576132,-0.0,0.2136887013912201,-1.648902718220846,6.662445957772434e-05,0.005311496555805206,0.4038924276828766,4.106674168724567e-05,0.004360113758593798,1.1724590063095093,-0.0011767314281314611,-0.03357277065515518
221.0,257.0,-4.3334,-0.6814,8.8086,-0.0226,0.0002,-0.0741,-2.359140535394186,1.8783273844746873e-05,4.984691619873047,-1.1944072246551514,-5.277863834862728e-08,1.991499423980713,5.485176431923666,-0.0,0.20469164848327637,-1.6489389578448694,7.753807585686445e-05,0.010205497965216637,0.40388837456703186,3.98543561459519e-05,-0.0011210290249437094,1.1725114583969116,-0.0010165995918214321,0.029631219804286957
221.0,257.0,-4.3334,-0.6814,8.8086,-0.0226,0.0002,-0.0741,-2.359136243859762,3.5270320950075984e-05,5.029382705688477,-1.194387435913086,0.0020820777863264084,1.9774699211120605,5.485228884011068,-0.0,0.20679397881031036,-1.648902718220846,7.443882350344211e-05,0.006953630596399307,0.40395981073379517,3.816433672909625e-05,-0.003038196824491024,1.172527551651001,-0.000714308931492269,-0.028968293219804764
221.0,257.0,-4.3334,-0.6814,8.8086,-0.0226,0.0002,-0.0741,-2.359128614465231,6.61012963973917e-05,4.987200736999512,-1.1943750381469727,0.0015391707420349121,1.954306960105896,5.485224711685934,-0.0,0.21173059940338135,-1.6489232222186487,7.148267468437552e-05,0.010216200724244118,0.4038766622543335,3.6611811083275825e-05,0.00986540224403143,1.1725353002548218,-0.0002871942415367812,-0.046022310853004456
221.0,257.0,-4.3334,-0.6814,8.8086,-0.0226,0.0002,-0.0741,-2.3591119251646937,0.0024590138345956802,5.022574424743652,-1.194387435913086,0.0009153321734629571,1.9672459363937378,5.4852165458496,-0.0,0.21583274006843567,-1.6489270369159144,6.87523715896532e-05,6.47051419946365e-05,0.40386858582496643,3.5180655686417595e-05,0.0158376507461071,1.172474980354309,-2.4531571398256347e-05,0.0037702007684856653
226.0,255.0,-4.4536,-0.14,8.9001,-0.0353,0.0397,-0.1258,-2.3590923748412074,0.0054573179222643375,5.0237579345703125,-1.1943151950836182,0.0006965625798329711,1.993375301361084,5.485224711685934,-0.0,0.19464489817619324,-1.6489313284503382,6.622295040870085e-05,0.008132373914122581,0.40386465191841125,3.385719901416451e-05,0.008056537248194218,1.1725351810455322,-5.924086221575919e-11,0.01679912582039833
226.0,255.0,-4.4536,-0.14,8.9001,-0.0353,0.0397,-0.1258,-2.359060903588766,0.006613900884985924,5.01058292388916,-1.194319248199463,0.0006604867521673441,1.9361014366149902,5.485220658570089,-0.0,0.20094004273414612,-1.6489108244525355,6.387305620592088e-05,0.013388441875576973,0.4039165675640106,3.2629704946884885e-05,-0.004787243902683258,1.1725188493728638,0.0022774836979806423,-0.00715678371489048
226.0,255.0,-4.4536,-0.14,8.9001,-0.0353,0.0397,-0.1258,-2.359048982659811,0.005360421724617481,4.999703884124756,-1.1942787170410156,0.002448698505759239,1.9626038074493408,5.485236632614889,-0.0,0.2102445662021637,-1.64893085161318,6.239694630494341e-05,0.003518424229696393,0.4039043188095093,3.185964669683017e-05,0.006212148815393448,1.1725269556045532,0.0017942379927262664,-0.021583756431937218
226.0,255.0,-4.4536,-0.14,8.9001,-0.0353,0.0397,-0.1258,-2.3590122661986292,0.0019067974062636495,5.044701099395752,-1.194263219833374,0.0026421966031193733,1.9768049716949463,5.485200631409445,-0.0,0.22156672179698944,-1.6488950888263147,6.030646545696072e-05,0.009055147878825665,0.4039004147052765,3.077037399634719e-05,0.007258899509906769,1.1725351810455322,0.0010826934594660997,0.02330213040113449
226.0,255.0,-4.4536,-0.14,8.9001,-0.0353,0.0397,-0.1258,-2.3590570888915003,0.00048166525084525347,5.038767337799072,-1.194307804107666,0.0019768928177654743,1.9763922691345215,5.48518459776,-0.0,0.2034839540719986,-1.6489346663104456,2.5425640615139855e-07,0.014555386267602444,0.4039165675640106,1.5081544006534386e-05,0.004674362484365702,1.172539234161377,0.00026486883871257305,-0.013858271762728691
226.0,255.0,-4.4536,-0.14,8.9001,-0.0353,0.0397,-0.1258,-2.35902800182485,0.0004069394199177623,5.032553672790527,-1.1943204402923584,0.0014873537002131343,1.9332308769226074,5.485241281777181,-0.0,0.20519521832466125,-1.6489794890033167,7.077319980064445e-11,0.0015148930251598358,0.4038606882095337,4.1980032783328625e-09,0.011913947761058807,1.172551155090332,9.183665679302067e-05,-0.00942117441445589
226.0,255.0,-4.4536,-0.14,8.9001,-0.0353,0.0397,-0.1258,-2.3590241871275843,0.00030386270373128355,5.117867946624756,-1.1942912340164185,0.0012258278438821435,1.994832992553711,5.4851965782936,-0.0,0.20622408390045166,-1.64893085161318,1.9699980579115928e-14,-0.007947963662445545,0.40388453006744385,1.168529682737951e-12,-0.011127803474664688,1.1724951267242432,1.821558459624839e-09,0.06469316780567169
226.0,255.0,-4.4536,-0.14,8.9001,-0.0353,0.0397,-0.1258,-2.3590241871275843,0.000242451555095613,5.01939058303833,-1.1942634582519531,0.0008358670165762305,2.0019049644470215,5.485248970776357,-0.0,0.19573956727981567,-1.6489551703082483,5.483561846758476e-18,0.000520423986017704,0.4038408696651459,3.252645428032528e-16,0.010228041559457779,1.172519326210022,-0.0013538849307224154,0.018975095823407173
226.0,255.0,-4.4536,-0.14,8.9001,-0.0353,0.0397,-0.1258,-2.359032293359274,0.00021366715373005718,5.043071269989014,-1.1942994594573975,0.000678285607136786,1.957698106765747,5.4852125523384,-0.0,0.20808738470077515,-1.648942772542135,2.3377287333484965e-20,0.006044366862624884,0.40389636158943176,1.3866537324303123e-18,0.002742764540016651,1.1724631786346436,-0.002606466645374894,-0.0496654137969017
226.0,255.0,-4.4536,-0.14,8.9001,-0.0353,0.0397,-0.1258,-2.359044691125387,5.002840771339834e-05,5.036269187927246,-1.1942875385284424,0.00041143049020320177,1.932745337486267,5.485160100250997,-0.0,0.19913887977600098,-1.6489794890033167,6.507153073973914e-24,0.016726065427064896,0.40393635630607605,3.8598014935022946e-22,0.004133907612413168,1.1724553108215332,-0.004320155363529921,-0.0220845565199852
226.0,255.0,-4.4536,-0.14,8.9001,-0.0353,0.0397,-0.1258,-2.3590527973570765,4.147710569668561e-05,4.9949951171875,-1.1942636966705322,0.00032250097137875855,1.970612645149231,5.485216665058889,-0.0,0.2119838297367096,-1.6489270369159144,1.8112897348195634e-27,0.00442605372518301,0.403932124376297,1.074389972682372e-25,0.0017930893227458,1.1724272966384888,-0.007336931768804789,-0.04410775378346443
226.0,255.0,-4.4536,-0.14,8.9001,-0.0353,0.0397,-0.1258,-2.3590246639647425,7.139611261663958e-05,5.04058837890625,-1.1942185163497925,0.0003532492555677891,1.9293310642242432,5.485248911171713,-0.0,0.2082328200340271,-1.6488989035235804,5.041792601609039e-31,0.006894134916365147,0.403888463973999,2.990604179723605e-29,0.006238454487174749,1.1723270416259766,-0.008806777186691761,0.017124656587839127
226.0,255.0,-4.4536,-0.14,8.9001,-0.0353,0.0397,-0.1258,-2.359000345269674,6.498403672594577e-05,5.028069019317627,-1.194324016571045,0.00036074715899303555,1.9623761177062988,5.485172319203176,-0.0,0.20417940616607666,-1.6489313284503382,1.403401124105132e-34,0.011651407927274704,0.40390071272850037,8.324457201915915e-33,-0.00894113164395094,1.172339677810669,-0.008641586638987064,0.02896665781736374
226.0,255.0,-4.4536,-0.14,8.9001,-0.0353,0.0397,-0.1258,-2.359048982659811,5.863347905687988e-05,5.00909423828125,-1.1942834854125977,0.00032989869941957295,1.9860584735870361,5.485192882805624,-0.0,0.2083592265844345,-1.648958985005514,3.906419627436486e-38,-0.002492443658411503,0.40391671657562256,2.317143016521473e-36,0.014004264026880264,1.1722357273101807,-0.008740166202187538,0.00525075476616621
226.0,255.0,-4.4536,-0.14,8.9001,-0.0353,0.0397,-0.1258,-2.3590694866576136,5.5047126807039604e-05,4.9984235763549805,-1.1942436695098877,0.0002945291344076395,2.0034019947052,5.4851887104804895,-7.895848830230534e-05,0.19853517413139343,-1.6489270369159144,1.6653731599268288e-40,0.009340506978332996,0.4039125442504883,9.878342821679116e-39,0.004967475775629282,1.1722562313079834,-0.009442518465220928,0.013790146447718143
226.0,255.0,-4.4536,-0.14,8.9001,-0.0353,0.0397,-0.1258,-2.359032293359274,5.042117118136957e-05,5.00655460357666,-1.1942715644836426,0.00024618388852104545,1.9338552951812744,5.485188770085134,-0.00011053052730858326,0.20464058220386505,-1.648942772542135,4.624284932271896e-44,0.012704911641776562,0.403848260641098,2.749347587005291e-42,0.008434905670583248,1.1721278429031372,-0.010008339770138264,0.011613303795456886
229.0,260.0,-4.4231,-0.947,8.8618,-0.029,0.0272,-0.0947,-2.3590084515013636,4.651246126741171e-05,5.043370246887207,-1.1942150592803955,0.0002114727976731956,1.939723014831543,5.4851563451583765,-0.0006540636532008648,0.22126081585884094,-1.6489389578448694,0.0,0.010970568284392357,0.40392082929611206,1.401298464324817e-45,0.006929925177246332,1.1720720529556274,-0.009878856129944324,-0.01527035515755415
229.0,260.0,-4.4231,-0.947,8.8618,-0.029,0.0272,-0.0947,-2.359000345269674,4.3166131945326924e-05,4.984932899475098,-1.1942753791809082,0.0001853409776231274,1.972744345664978,5.485156464367666,-0.0005531507777050138,0.2006128430366516,-1.6488869825946253,0.0,0.025769751518964767,0.40391260385513306,0.0,0.008713405579328537,1.1720197200775146,-0.008140630088746548,-0.032800160348415375
229.0,260.0,-4.4231,-0.947,8.8618,-0.029,0.0272,-0.0947,-2.3590365848936976,4.02690093324054e-05,5.049989223480225,-1.1942555904388428,0.00019749008060898632,1.9383950233459473,5.48514078834609,-0.0004935308243148029,0.2042357325553894,-1.6489551703082483,0.0,0.004267997108399868,0.4038444757461548,0.0,0.006142837926745415,1.1720242500305176,-0.005782873835414648,0.02917831391096115
229.0,260.0,-4.4231,-0.947,8.8618,-0.029,0.0272,-0.0947,-2.3590079746642054,5.660416354658082e-05,5.016473770141602,-1.1943036317825317,0.00020685780327767134,1.9668335914611816,5.485136735230245,-0.0004437122552189976,0.2029544711112976,-1.648942772542135,0.0,0.021007681265473366,0.40387654304504395,0.0,0.003744720946997404,1.1720045804977417,-0.0037354330997914076,0.05006759241223335
229.0,260.0,-4.4231,-0.947,8.8618,-0.029,0.0272,-0.0947,-2.359044691125387,5.432666512206197e-05,5.0388054847717285,-1.1942636966705322,0.00019516788597684354,1.954625129699707,5.485120403557577,-0.00042894334183074534,0.20422092080116272,-1.6489232222186487,0.0,0.004858128260821104,0.4039405286312103,0.0,0.021244913339614868,1.1719722747802734,-0.002798957284539938,0.0056760553270578384
229.0,260.0,-4.4231,-0.947,8.8618,-0.029,0.0272,-0.0947,-2.3590246639647425,6.830886559328064e-05,5.035446643829346,-1.1942633390426636,0.0001785720669431612,1.9886548519134521,5.485176968365469,-0.0004640727711375803,0.21842870116233826,-1.648918930684225,0.0,0.022484827786684036,0.40390071272850037,0.0,-0.004917904268950224,1.1719963550567627,-0.0016277689719572663,-0.009912941604852676
229.0,260.0,-4.4231,-0.947,8.8618,-0.029,0.0272,-0.0947,-2.35900415996694,6.463282625190914e-05,5.003031253814697,-1.1942315101623535,0.00018797715893015265,1.9661481380462646,5.485136854439535,-0.0008153669186867774,0.2020685374736786,-1.6489389578448694,0.0,0.011945417150855064,0.40388020873069763,0.0,0.0033767682034522295,1.171984076499939,-0.0006137374439276755,0.03988702595233917
229.0,260.0,-4.4231,-0.947,8.8618,-0.029,0.0272,-0.0947,-2.359044691125387,0.00010768054926302284,5.027617454528809,-1.1942998170852661,0.0001591164036653936,1.973975419998169,5.485104787140646,-0.0019774294923990965,0.22150272130966187,-1.6489470640765589,0.0,0.016482437029480934,0.4039207994937897,0.0,-0.007689385674893856,1.1719722747802734,-0.00030236708698794246,-0.026763714849948883
229.0,260.0,-4.4231,-0.947,8.8618,-0.029,0.0272,-0.0947,-2.3589960537352503,0.0001021637799567543,4.97412109375,-1.1942837238311768,0.00017203578318003565,1.963777780532837,5.4850807068641565,-0.004789784550666809,0.2219599187374115,-1.6488912741290491,0.0,0.010303560644388199,0.40389254689216614,0.0,-3.451947122812271e-06,1.1719882488250732,0.0003795099910348654,0.046043556183576584
229.0,260.0,-4.4231,-0.947,8.8618,-0.029,0.0272,-0.0947,-2.3590403995909632,0.00013166858116164804,4.999431610107422,-1.1942517757415771,0.00018050307699013501,1.9755158424377441,5.48498027303771,-0.015550174750387669,0.20125117897987366,-1.6489389578448694,0.0,0.0027396411169320345,0.40388062596321106,0.0,0.00182100641541183,1.17197585105896,0.0011590978829190135,-0.01462052296847105
229.0,260.0,-4.4231,-0.947,8.8618,-0.029,0.0272,-0.0947,-2.3589397869505824,0.0001465464010834694,5.02732515335083,-1.1942555904388428,0.00019534610328264534,1.9620856046676636,5.484912681370535,-0.022365402430295944,0.20115774869918823,-1.6489751974688929,0.0,0.012010684236884117,0.4038642346858978,0.0,0.005250951275229454,1.1720525026321411,0.00160433619748801,0.04223998636007309
229.0,260.0,-4.4231,-0.947,8.8618,-0.029,0.0272,-0.0947,-2.358976503411764,0.0005360580398701131,5.023870944976807,-1.1942718029022217,0.0005114856758154929,1.9287952184677124,5.484809088497915,-0.019220352172851562,0.2052949219942093,-1.6489389578448694,0.0,0.019120369106531143,0.40385645627975464,0.0,-0.0010654700454324484,1.172044277191162,0.0012986884685233235,-0.02460569702088833
229.0,260.0,-4.4231,-0.947,8.8618,-0.029,0.0272,-0.0947,-2.359008928338522,0.0011319495970383286,5.036015510559082,-1.1942393779754639,0.0011983144795522094,1.9699254035949707,5.484720933228292,-0.012928339652717113,0.21184994280338287,-1.6489875952350062,0.0,0.014826161786913872,0.4038442373275757,0.0,-1.900666393339634e-05,1.1720483303070068,0.0010153136681765318,0.056196752935647964
229.0,260.0,-4.4231,-0.947,8.8618,-0.029,0.0272,-0.0947,-2.3590127430357875,0.001094963401556015,5.046574592590332,-1.1941792964935303,0.0012824170989915729,1.9677280187606812,5.484616744309225,-0.006067311391234398,0.2125409096479416,-1.6489508787738245,0.0,0.025724831968545914,0.40391671657562256,0.0,0.005623167846351862,1.1720160245895386,0.0007143724360503256,0.025384075939655304
229.0,260.0,-4.4231,-0.947,8.8618,-0.029,0.0272,-0.0947,-2.3589683971800746,0.0009194124722853303,5.007880687713623,-1.1941518783569336,0.001366490381769836,1.9785027503967285,5.484661507397451,-0.0019676543306559324,0.2055627405643463,-1.6489952246295374,0.0,0.015871062874794006,0.40388399362564087,0.0,-0.0016899257898330688,1.172044277191162,0.0005122575676068664,-0.004902023356407881
229.0,260.0,-4.4231,-0.947,8.8618,-0.029,0.0272,-0.0947,-2.358919759789938,0.000774980173446238,5.0625152587890625,-1.1941916942596436,0.0016278923721984029,2.019852876663208,5.484645592957296,-0.00048613353283144534,0.2044646292924881,-1.6489751974688929,0.0,0.01708981953561306,0.4038962125778198,0.0,0.011601419188082218,1.172060251235962,0.0003987397358287126,-0.03163124993443489
223.0,258.0,-4.5404,-0.6616,8.9815,-0.0469,0.0173,-0.1156,-2.358964582482809,0.000739250157494098,5.041680335998535,-1.1941357851028442,0.0031868740916252136,1.9554035663604736,5.484621453076162,-0.0004839238536078483,0.22538813948631287,-1.6489713827716272,0.0,0.019923057407140732,0.4039125442504883,0.0,-0.0008553231600672007,1.172060251235962,0.0003474214463494718,0.031042618677020073
223.0,258.0,-4.5404,-0.6616,8.9815,-0.0469,0.0173,-0.1156,-2.3589283428587855,0.0006738374358974397,5.0157790184021,-1.1941035985946655,0.0056630512699484825,1.9937787055969238,5.484589087754049,-0.0003527961962390691,0.20852312445640564,-1.6489632765399378,0.0,0.011720094829797745,0.40384453535079956,3.422061922719877e-07,0.003666678909212351,1.1720079183578491,0.00029120661201886833,-0.006218202877789736
223.0,258.0,-4.5404,-0.6616,8.9815,-0.0469,0.0173,-0.1156,-2.358896394769186,0.0008165892213582993,5.036131858825684,-1.1940715312957764,0.00729867909103632,1.9840624332427979,5.484621453076162,-0.00043030441156588495,0.22315296530723572,-1.648958985005514,0.0,0.01100315060466528,0.4039289653301239,9.525434607748906e-11,-0.004364718683063984,1.1720119714736938,0.00025065219961106777,0.010632513090968132
223.0,258.0,-4.5404,-0.6616,8.9815,-0.0469,0.0173,-0.1156,-2.358892103234762,0.0008590083452872932,5.025036334991455,-1.1940852403640747,0.008282190188765526,2.007333278656006,5.484617280751028,-0.0006818709662184119,0.21921858191490173,-1.6489346663104456,0.0,0.009859520941972733,0.4039524495601654,2.6514399603292348e-14,0.011585559695959091,1.1720402240753174,0.0001833463174989447,-0.006198671646416187
223.0,258.0,-4.5404,-0.6616,8.9815,-0.0469,0.0173,-0.1156,-2.358896394769186,0.0014208866050466895,5.0558319091796875,-1.1939640045166016,0.00786840170621872,1.9482779502868652,5.4846054194267175,-0.0005782771622762084,0.21939009428024292,-1.6489670912372034,0.0,0.01097542978823185,0.40389224886894226,7.380381703522706e-18,0.013028260320425034,1.172040343284607,0.0001306993217440322,0.0005909494357183576
223.0,258.0,-4.5404,-0.6616,8.9815,-0.0469,0.0173,-0.1156,-2.3588925800719203,0.002976285992190242,5.048066139221191,-1.1939440965652466,0.008045738562941551,1.9882400035858154,5.484637427120962,-0.0004533962346613407,0.21261471509933472,-1.6489875952350062,0.0,0.009986842051148415,0.40388020873069763,2.0543565675992544e-21,-0.0034389051143079996,1.1720361709594727,8.839818474370986e-05,0.014314224943518639
223.0,258.0,-4.5404,-0.6616,8.9815,-0.0469,0.0173,-0.1156,-2.3589326343932093,0.004244418349117041,5.030235290527344,-1.193860650062561,0.008302113972604275,1.9787256717681885,5.48455290773467,-0.000396317191189155,0.219599187374115,-1.6489389578448694,0.0,0.010120564140379429,0.40392419695854187,8.758044999151309e-24,0.0008035734063014388,1.1720484495162964,-1.3717747606278863e-05,0.027537601068615913
223.0,258.0,-4.5404,-0.6616,8.9815,-0.0469,0.0173,-0.1156,-2.3588882885374964,0.0057999733835458755,5.030863285064697,-1.1938402652740479,0.008507880382239819,1.9594824314117432,5.48455290773467,-0.00033337579225189984,0.2236950695514679,-1.6489508787738245,0.0,-0.0013924436643719673,0.40392786264419556,2.4378340346995967e-27,-0.00915367528796196,1.1720242500305176,-5.8131459809374064e-05,-0.00037248479202389717
223.0,258.0,-4.5404,-0.6616,8.9815,-0.0469,0.0173,-0.1156,-2.3588205776610316,0.007272053509950638,5.063309669494629,-1.193825125694275,0.009045709855854511,2.0115840435028076,5.484561133175649,-0.00032329093664884567,0.20961666107177734,-1.648942772542135,0.0,0.023275133222341537,0.4039044678211212,6.785800219076576e-31,0.0010145856067538261,1.1720361709594727,-7.94804363977164e-05,0.04667503386735916
223.0,258.0,-4.5404,-0.6616,8.9815,-0.0469,0.0173,-0.1156,-2.3587686024107875,0.006822408642619848,5.0605998039245605,-1.1937212944030762,0.009614523500204086,2.05364990234375,5.484561133175649,-0.0002340192731935531,0.21059952676296234,-1.648942772542135,0.0,0.016402147710323334,0.4039524495601654,1.8888525107571489e-34,-0.00274822604842484,1.1720361709594727,-5.1554383389884606e-05,0.018430739641189575
223.0,258.0,-4.5404,-0.6616,8.9815,-0.0469,0.0173,-0.1156,-2.3587810001769007,0.00556329358369112,5.033809661865234,-1.1936324834823608,0.010482545010745525,2.0223350524902344,5.484565245896139,-0.00031551660504192114,0.22521641850471497,-1.6489232222186487,0.0,0.001821362180635333,0.4039643108844757,0.0001663134025875479,0.0014705713838338852,1.171992301940918,-4.5040116674499586e-05,0.07080212235450745
223.0,258.0,-4.5404,-0.6616,8.9815,-0.0469,0.0173,-0.1156,-2.358760973016256,0.00469217449426651,5.037813186645508,-1.1936373710632324,0.011318671517074108,2.0476770401000977,5.484549271851339,-0.0009927377104759216,0.21152538061141968,-1.6489751974688929,0.0,0.0072188046760857105,0.4039483070373535,0.00019442345364950597,0.012540068477392197,1.172032356262207,-6.283879338297993e-05,0.11421313881874084
223.0,258.0,-4.5404,-0.6616,8.9815,-0.0469,0.0173,-0.1156,-2.358696599999899,0.004490973427891731,5.014464378356934,-1.1935380697250366,0.013063096441328526,2.0421199798583984,5.484569358616628,-0.001955981831997633,0.20995745062828064,-1.648958985005514,0.0,0.01588030532002449,0.4039643108844757,0.00019654825155157596,0.005607957951724529,1.1720242500305176,-6.004750684951432e-05,0.08845412731170654
223.0,258.0,-4.5404,-0.6616,8.9815,-0.0469,0.0173,-0.1156,-2.3586846790709437,0.004313361365348101,5.077219486236572,-1.193469524383545,0.015368388034403324,2.0241129398345947,5.484525131970205,-0.0032567286398261786,0.18561235070228577,-1.648914639149801,0.0,0.0041776420548558235,0.40393614768981934,0.0003099307359661907,0.016984261572360992,1.171992301940918,-5.6291810324182734e-05,0.0964774563908577
223.0,258.0,-4.5404,-0.6616,8.9815,-0.0469,0.0173,-0.1156,-2.3586603603758753,0.0039443508721888065,5.017918586730957,-1.1933656930923462,0.01879054494202137,2.0756962299346924,5.484501290112295,-0.004760354291647673,0.19551807641983032,-1.6489346663104456,0.0,-0.0123923160135746,0.4039524495601654,0.0003884413745254278,0.021026600152254105,1.1720163822174072,-5.2978186431573704e-05,0.13352017104625702
223.0,258.0,-4.5404,-0.6616,8.9815,-0.0469,0.0173,-0.1156,-2.358640810052389,0.003624657401815057,5.0480570793151855,-1.1931726932525635,0.023114336654543877,2.05550217628479,5.484401035099783,-0.008086525835096836,0.20342415571212769,-1.64893085161318,0.0,-0.01120317354798317,0.40395620465278625,0.00037250196328386664,0.02071726694703102,1.1720004081726074,-5.00330570503138e-05,0.15044814348220825
211.0,236.0,-4.3525,-0.67,8.9025,-0.0562,0.0493,-0.1072,-2.358612676660055,0.002724322024732828,5.0616455078125,-1.1930583715438843,0.027308691293001175,2.066741943359375,5.484369444638052,-0.011567726731300354,0.18538066744804382,-1.648918930684225,0.0,0.0028552666772156954,0.4039963483810425,0.000366759515600279,0.021797675639390945,1.1719719171524048,-4.739811265608296e-05,0.18255332112312317
211.0,236.0,-4.3525,-0.67,8.9025,-0.0562,0.0493,-0.1072,-2.358608385125631,0.001884041354060173,5.0324387550354,-1.192931890487671,0.033108729869127274,2.1042959690093994,5.484281468182363,-0.014436923898756504,0.16878005862236023,-1.648890797291891,0.0,-0.020885569974780083,0.4039841294288635,0.0003693614271469414,0.021966857835650444,1.1720163822174072,-3.0018001780263148e-05,0.1832791268825531
211.0,236.0,-4.3525,-0.67,8.9025,-0.0562,0.0493,-0.1072,-2.3586327038206996,0.0015175200533121824,5.038382530212402,-1.1927475929260254,0.03727274015545845,2.1283726692199707,5.48420529344634,-0.016220251098275185,0.18980029225349426,-1.6489914099322718,0.0,-0.01228288747370243,0.4040161073207855,0.00037740918924100697,0.03982534259557724,1.172032356262207,-1.6220541510847397e-05,0.21211972832679749
211.0,236.0,-4.3525,-0.67,8.9025,-0.0562,0.0493,-0.1072,-2.3586327038206996,0.001055787201039493,5.002670764923096,-1.192484736442566,0.04412936791777611,2.0668556690216064,5.484145867615499,-0.01786058396100998,0.16224299371242523,-1.6489470640765589,0.0,-0.010913129895925522,0.40400007367134094,0.0003672619059216231,0.04061628878116608,1.1720082759857178,-7.53383044838074e-09,0.14601987600326538
211.0,236.0,-4.3525,-0.67,8.9025,-0.0562,0.0493,-0.1072,-2.3586532078185023,0.0007557438802905381,5.049900054931641,-1.1922575235366821,0.051755715161561966,2.1256308555603027,5.484025943070211,-0.01863519661128521,0.17625021934509277,-1.648918930684225,0.0,-0.01730634644627571,0.40397998690605164,0.0003572292916942388,0.03569634258747101,1.1719963550567627,-1.819331225385787e-14,0.23796650767326355
211.0,236.0,-4.3525,-0.67,8.9025,-0.0562,0.0493,-0.1072,-2.358596464196676,0.0005020812968723476,5.054055213928223,-1.191909670829773,0.05825498700141907,2.203415870666504,5.483877706318655,-0.018202606588602066,0.1649722456932068,-1.648942772542135,0.0,-0.009746912866830826,0.40404805541038513,0.0003636220353655517,0.04428304731845856,1.1720283031463623,0.0008576471009291708,0.26907873153686523
211.0,236.0,-4.3525,-0.67,8.9025,-0.0562,0.0493,-0.1072,-2.358612676660055,0.0003761229745578021,5.056623458862305,-1.1915239095687866,0.06567709147930145,2.1272189617156982,5.483793842583456,-0.01663353480398655,0.16637302935123444,-1.6489232222186487,0.0,-0.0009489920921623707,0.4040038287639618,0.0003526106884237379,0.06131859868764877,1.1720483303070068,0.0013605824206024408,0.251861035823822
211.0,236.0,-4.3525,-0.67,8.9025,-0.0562,0.0493,-0.1072,-2.3585926494994105,0.00024059772840701044,5.0501322746276855,-1.1911485195159912,0.0747661367058754,2.184692859649658,5.483709978848257,-0.015260699205100536,0.15827655792236328,-1.6489670912372034,0.0,-0.022478176280856133,0.4040239155292511,0.0003441873996052891,0.06370101869106293,1.1720402240753174,0.002356155076995492,0.2686341404914856
211.0,236.0,-4.3525,-0.67,8.9025,-0.0562,0.0493,-0.1072,-2.3586889706053675,0.00015990431711543351,5.02623176574707,-1.1907895803451538,0.08184828609228134,2.1992247104644775,5.483621883183279,-0.015820195898413658,0.15465760231018066,-1.648975674306051,0.0,-0.0074468376114964485,0.40406444668769836,0.0003431950754020363,0.05393640697002411,1.1720925569534302,0.0027784681878983974,0.3104769289493561
211.0,236.0,-4.3525,-0.67,8.9025,-0.0562,0.0493,-0.1072,-2.3586322269835414,-0.00012290864833630621,5.037182331085205,-1.1902947425842285,0.08963719755411148,2.2281346321105957,5.483481871872701,-0.016340576112270355,0.15409259498119354,-1.648975674306051,0.0,-0.02980928122997284,0.40399599075317383,0.00033991370582953095,0.05917893350124359,1.1720962524414062,0.0034494190476834774,0.31655773520469666
211.0,236.0,-4.3525,-0.67,8.9025,-0.0562,0.0493,-0.1072,-2.358708997766012,-0.0002035008801613003,5.0452680587768555,-1.1896709203720093,0.09721597284078598,2.223677158355713,5.483438479691305,-0.016406206414103508,0.1549103707075119,-1.6489713827716272,0.0,-0.016299616545438766,0.4040317237377167,0.0003439065476413816,0.04926604777574539,1.1720720529556274,0.004383563995361328,0.3597002625465393
211.0,236.0,-4.3525,-0.67,8.9025,-0.0562,0.0493,-0.1072,-2.3586446247496546,-0.00021815237414557487,5.045684337615967,-1.1890619993209839,0.10021045058965683,2.229133129119873,5.483314382820883,-0.01775568723678589,0.13161879777908325,-1.648918930684225,0.0,-0.02770332247018814,0.4040038287639618,0.0003463215834926814,0.05923072248697281,1.1721441745758057,0.004592369310557842,0.36379474401474
211.0,236.0,-4.3525,-0.67,8.9025,-0.0562,0.0493,-0.1072,-2.3586322269835414,-0.00019045207591261715,5.019529342651367,-1.1884284019470215,0.10266134887933731,2.213773012161255,5.483206677227773,-0.019282029941678047,0.14149105548858643,-1.6489794890033167,0.0,-0.022036336362361908,0.4039677083492279,0.0002998243144247681,0.06470878422260284,1.1721199750900269,0.00394778698682785,0.3953648805618286
211.0,236.0,-4.3525,-0.67,8.9025,-0.0562,0.0493,-0.1072,-2.358668466607565,-0.00013566616689786315,5.0428547859191895,-1.1877940893173218,0.10554969310760498,2.2618348598480225,5.4830341813857935,-0.022759800776839256,0.14016929268836975,-1.6489508787738245,0.0,-0.02635461464524269,0.4040842056274414,0.00029982486739754677,0.059014320373535156,1.1721959114074707,0.0030891785863786936,0.3529427647590637
211.0,236.0,-4.3525,-0.67,8.9025,-0.0562,0.0493,-0.1072,-2.358636518517965,-0.00011591834481805563,5.061337947845459,-1.1873974800109863,0.11096029728651047,2.2379536628723145,5.482974934368887,-0.02539905533194542,0.1283743530511856,-1.6489389578448694,0.0,-0.03058844432234764,0.40397554636001587,0.00031622909591533244,0.06641553342342377,1.1721680164337158,0.002675700234249234,0.3699662685394287
211.0,236.0,-4.3525,-0.67,8.9025,-0.0562,0.0493,-0.1072,-2.3586250744261683,-4.821956827072427e-05,5.008538722991943,-1.1867321729660034,0.11799798160791397,2.2790794372558594,5.482802617340841,-0.03490404412150383,0.12243257462978363,-1.6489151159869593,0.0,-0.028857557103037834,0.4039320647716522,0.00030041291029192507,0.06389375030994415,1.1721516847610474,0.0019204997224733233,0.3866577446460724
211.0,236.0,-4.3525,-0.67,8.9025,-0.0562,0.0493,-0.1072,-2.3586203060545863,-4.152088149567135e-05,5.006446838378906,-1.1859338283538818,0.12671300768852234,2.2801196575164795,5.482522952347555,-0.05042477324604988,0.11273336410522461,-1.648914639149801,0.0,-0.02162591926753521,0.40402427315711975,0.00026748277014121413,0.05315946042537689,1.172203779220581,0.0011561661958694458,0.43071508407592773
203.0,218.0,-5.0004,-0.9583,9.3362,-0.0276,0.0244,-0.1272,-2.358652730981344,-3.647270204965025e-05,5.019701957702637,-1.1851361989974976,0.1389636993408203,2.2562570571899414,5.482162940293112,-0.0714503675699234,0.10323691368103027,-1.648942772542135,0.0,-0.020918872207403183,0.40408387780189514,0.0002690354594960809,0.08718281984329224,1.172203779220581,0.000821301422547549,0.36226174235343933
203.0,218.0,-5.0004,-0.9583,9.3362,-0.0276,0.0244,-0.1272,-2.3586284122862757,-6.503162876470014e-05,4.9922332763671875,-1.1842948198318481,0.14791686832904816,2.3003127574920654,5.481610941677847,-0.09690029919147491,0.09443220496177673,-1.648902718220846,0.0,-0.02690330147743225,0.40403175354003906,0.00024055519315879792,0.07159902900457382,1.172195553779602,0.0005902972770854831,0.42336779832839966
203.0,218.0,-5.0004,-0.9583,9.3362,-0.0276,0.0244,-0.1272,-2.3586770496764125,-0.00011694571730913594,5.028731346130371,-1.1833330392837524,0.1548541635274887,2.3097050189971924,5.480907308846273,-0.11401085555553436,0.07049255818128586,-1.6489184538470667,6.555157597176731e-06,-0.03671429306268692,0.4040279984474182,0.00021582901536021382,0.06801940500736237,1.1722115278244019,0.0004607413720805198,0.39360636472702026
203.0,218.0,-5.0004,-0.9583,9.3362,-0.0276,0.0244,-0.1272,-2.3587047062315882,-0.0001036253961501643,4.981231689453125,-1.1827030181884766,0.15627436339855194,2.317629814147949,5.480480181961813,-0.12013594061136246,0.07376222312450409,-1.6489632765399378,2.7945667113726813e-08,-0.02912086248397827,0.40401574969291687,0.00022702402202412486,0.07686365395784378,1.1722160577774048,0.00040193868335336447,0.36394113302230835
203.0,218.0,-5.0004,-0.9583,9.3362,-0.0276,0.0244,-0.1272,-2.35868038753652,-0.00017650576774030924,5.016451835632324,-1.1817450523376465,0.16067327558994293,2.340238332748413,5.479756819992819,-0.11723646521568298,0.06839549541473389,-1.6489389578448694,7.778778489397897e-12,-0.027343813329935074,0.4040358364582062,0.00021058438869658858,0.09049230813980103,1.1721761226654053,0.00033735789475031197,0.4186638593673706
203.0,218.0,-5.0004,-0.9583,9.3362,-0.0276,0.0244,-0.1272,-2.358720918694967,-0.0006009698263369501,4.958686828613281,-1.1808052062988281,0.16528116166591644,2.295870065689087,5.479005980282583,-0.1327819973230362,0.07487601041793823,-1.6489551703082483,2.1652512648248547e-15,-0.025098290294408798,0.40398383140563965,0.00019359710859134793,0.07536932826042175,1.172203779220581,0.00029065986745990813,0.37935584783554077
203.0,218.0,-5.0004,-0.9583,9.3362,-0.0276,0.0244,-0.1272,-2.358696599999899,-0.0006051912205293775,4.9651288986206055,-1.179738998413086,0.1706063449382782,2.3300178050994873,5.478142428189077,-0.16443441808223724,0.053615592420101166,-1.6489151159869593,6.027056628935803e-19,-0.03273690864443779,0.40402752161026,0.00017914529598783702,0.0868392139673233,1.1722521781921387,0.00025569411809556186,0.3814292550086975
203.0,218.0,-5.0004,-0.9583,9.3362,-0.0276,0.0244,-0.1272,-2.358640333215231,-0.000469857215648517,4.918083667755127,-1.1786742210388184,0.17326204478740692,2.3354735374450684,5.477111744671621,-0.17548802495002747,0.03127322718501091,-1.6489232222186487,1.6776531953024834e-22,-0.018679462373256683,0.4040358364582062,0.0001667014294071123,0.07900537550449371,1.1722197532653809,7.158025982789695e-05,0.35513049364089966
