ramyac6/ROB537/final_project/csv/good/good_47.csv
tof_0,tof_1,accelx,accely,accelz,gyrox,gyroy,gyroz,shoulder_lift_joint_position,shoulder_lift_joint_velocity,shoulder_lift_joint_effort,elbow_joint_position,elbow_joint_velocity,elbow_joint_effort,wrist_1_joint_position,wrist_1_joint_velocity,wrist_1_joint_effort,wrist_2_joint_position,wrist_2_joint_velocity,wrist_2_joint_effort,wrist_3_joint_position,wrist_3_joint_velocity,wrist_3_joint_effort,shoulder_pan_joint_position,shoulder_pan_joint_velocity,shoulder_pan_joint_effort
259.0,364.0,-0.8447,-0.1101,9.5677,-0.0414,0.0212,-0.1055,-1.9428655109801234,0.0,3.5152268409729004,-1.6745281219482422,-0.0,1.9585106372833252,5.153086143523016,0.0,0.2589131295681,-1.541666332875387,0.0,-0.022174574434757233,0.477094829082489,0.0,-0.006830219179391861,1.214418888092041,0.0,0.018796280026435852
259.0,364.0,-0.8447,-0.1101,9.5677,-0.0414,0.0212,-0.1055,-1.942817827264303,0.0,3.5392656326293945,-1.6744880676269531,-0.0,1.9477874040603638,5.153045910387792,0.0,0.25849610567092896,-1.5416463057147425,0.0,-0.013408143073320389,0.47713127732276917,0.0,-0.003916002810001373,1.2144427299499512,0.0,-0.0016765771433711052
259.0,364.0,-0.8447,-0.1101,9.5677,-0.0414,0.0212,-0.1055,-1.9428698025145472,0.0,3.5179238319396973,-1.6744838953018188,-0.0,1.9500889778137207,5.153022157936849,0.0,0.2706837058067322,-1.5416463057147425,0.0,-0.0238907840102911,0.47710704803466797,0.0,-0.013075282797217369,1.2144347429275513,0.0,0.03837444633245468
259.0,364.0,-0.8447,-0.1101,9.5677,-0.0414,0.0212,-0.1055,-1.942885538140768,0.0,3.5524826049804688,-1.6745483875274658,-0.0,1.9673781394958496,5.153077888279714,0.0,0.27343881130218506,-1.5416424910174769,0.0,-0.01634134165942669,0.4770907759666443,0.0,-0.014489506371319294,1.214470386505127,0.0,0.02959585003554821
259.0,364.0,-0.8447,-0.1101,9.5677,-0.0414,0.0212,-0.1055,-1.9428655109801234,0.0,3.5112342834472656,-1.6745158433914185,-0.0,1.9860329627990723,5.153021681099691,0.0,0.27744078636169434,-1.5416620413409632,0.0,0.002453263383358717,0.47707441449165344,0.0,-0.0051070391200482845,1.2144149541854858,0.0,0.016349896788597107
259.0,364.0,-0.8447,-0.1101,9.5677,-0.0414,0.0212,-0.1055,-1.9428578815855921,0.0,3.523920774459839,-1.6744921207427979,-0.0,2.008671283721924,5.1530499933059595,0.0,0.28659677505493164,-1.5416582266436976,0.0,-0.012152343057096004,0.47710704803466797,0.0,0.006678018253296614,1.2144187688827515,0.0,-0.010272329673171043
259.0,364.0,-0.8447,-0.1101,9.5677,-0.0414,0.0212,-0.1055,-1.9428655109801234,0.0,3.5171520709991455,-1.6745240688323975,-0.0,1.952712059020996,5.153009819775381,0.0,0.26448461413383484,-1.5416620413409632,0.0,-0.008083702996373177,0.4771070182323456,0.0,-0.005078278481960297,1.2144030332565308,0.0,-0.033717796206474304
259.0,364.0,-0.8447,-0.1101,9.5677,-0.0414,0.0212,-0.1055,-1.9428698025145472,0.0,3.5454092025756836,-1.6744600534439087,-0.0,1.980079174041748,5.153021681099691,0.0,0.27031636238098145,-1.5416582266436976,0.0,-0.01834031753242016,0.4771149158477783,0.0,0.0008987815817818046,1.2144149541854858,0.0,0.04111718013882637
259.0,364.0,-0.8447,-0.1101,9.5677,-0.0414,0.0212,-0.1055,-1.9428698025145472,0.0,3.5383739471435547,-1.674472451210022,-0.0,1.974289059638977,5.153026211052694,0.0,0.28518837690353394,-1.5416739622699183,0.0,-0.023980312049388885,0.4770866632461548,0.0,0.001236332580447197,1.2144505977630615,0.0,-0.05309976637363434
251.0,347.0,-0.8177,-0.1292,9.6544,-0.0356,0.0195,-0.1038,-1.9428817234435023,0.0,3.51672625541687,-1.6744838953018188,-0.0,1.9610941410064697,5.153005587845602,0.0,0.27068009972572327,-1.5416582266436976,0.0,-0.010863086208701134,0.4770866930484772,0.0,-0.00631339754909277,1.2144426107406616,0.0,0.0042686546221375465
251.0,347.0,-0.8177,-0.1292,9.6544,-0.0356,0.0195,-0.1038,-1.942834039727682,0.0,3.567856788635254,-1.6745085716247559,-0.0,1.9534692764282227,5.153026211052694,0.0,0.2784929871559143,-1.5416701475726526,0.0,-0.027053507044911385,0.4770866632461548,0.0,0.007662861607968807,1.2144267559051514,0.0,-0.0033352887257933617
251.0,347.0,-0.8177,-0.1292,9.6544,-0.0356,0.0195,-0.1038,-1.9428941212096156,0.0,3.534993886947632,-1.6744766235351562,-0.0,1.9502592086791992,5.153025793820181,0.0,0.2771502733230591,-1.5416978041278284,0.0,-0.017022360116243362,0.47714319825172424,0.0,0.002375489566475153,1.2144585847854614,0.0,-0.010910812765359879
251.0,347.0,-0.8177,-0.1292,9.6544,-0.0356,0.0195,-0.1038,-1.9428774319090785,0.0,3.520599603652954,-1.6744921207427979,-0.0,1.9464820623397827,5.153058188944616,0.0,0.2682257294654846,-1.541678253804342,0.0,-0.0061424607411026955,0.47713902592658997,0.0,-0.00078156020026654,1.2144625186920166,0.0,0.00545620359480381
251.0,347.0,-0.8177,-0.1292,9.6544,-0.0356,0.0195,-0.1038,-1.9428655109801234,0.0,3.5620803833007812,-1.6744847297668457,-0.0,2.0061559677124023,5.153021681099691,0.0,0.2700962424278259,-1.5416582266436976,0.0,-0.017569568008184433,0.4771230220794678,0.0,-0.0055495030246675014,1.2144824266433716,0.0,-0.02336130291223526
251.0,347.0,-0.8177,-0.1292,9.6544,-0.0356,0.0195,-0.1038,-1.9428416691222132,0.0,3.5329668521881104,-1.674576759338379,-0.0,1.9883835315704346,5.153021591692724,0.0,0.26612627506256104,-1.5416901747332972,0.0,-0.012270564213395119,0.47715499997138977,0.0,-0.006854894105345011,1.2144505977630615,0.0,-6.0202088207006454e-05
251.0,347.0,-0.8177,-0.1292,9.6544,-0.0356,0.0195,-0.1038,-1.942834039727682,0.0,3.5509743690490723,-1.6745003461837769,-0.0,1.9802390336990356,5.153033989458837,0.0,0.28738778829574585,-1.5416701475726526,0.0,-0.0054049198515713215,0.4770669639110565,0.0,-0.007244965061545372,1.2144545316696167,0.0,0.029490873217582703
251.0,347.0,-0.8177,-0.1292,9.6544,-0.0356,0.0195,-0.1038,-1.9428378544249476,0.0,3.5695221424102783,-1.6745126247406006,-0.0,1.94386625289917,5.1530180154140375,0.0,0.2726185917854309,-1.541654411946432,0.0,-0.020522691309452057,0.4771915078163147,0.0,-0.002391727641224861,1.2144426107406616,0.0,-0.019532693549990654
251.0,347.0,-0.8177,-0.1292,9.6544,-0.0356,0.0195,-0.1038,-1.9428416691222132,0.0,3.5744593143463135,-1.6744880676269531,-0.0,1.9823565483093262,5.1530499933059595,0.0,0.27596449851989746,-1.541666332875387,0.0,-0.02105845883488655,0.47711488604545593,0.0,0.0020128062460571527,1.214418888092041,0.0,-0.0023314610589295626
251.0,347.0,-0.8177,-0.1292,9.6544,-0.0356,0.0195,-0.1038,-1.9428898296751917,0.0,3.5239036083221436,-1.6745126247406006,-0.0,1.9669543504714966,5.152993428498068,0.0,0.26853030920028687,-1.541654411946432,0.0,-0.02200065553188324,0.47711896896362305,0.0,-0.0010768236825242639,1.214470386505127,0.0,0.0062125930562615395
251.0,347.0,-0.8177,-0.1292,9.6544,-0.0356,0.0195,-0.1038,-1.9428817234435023,0.0,3.5188636779785156,-1.67448890209198,-0.0,1.9350881576538086,5.153082030802526,0.0,0.2849001884460449,-1.5416858831988733,0.0,-0.017392408102750778,0.47706249356269836,0.0,-0.0001578677911311388,1.2144584655761719,0.0,0.01096270140260458
251.0,347.0,-0.8177,-0.1292,9.6544,-0.0356,0.0195,-0.1038,-1.9428655109801234,0.0,3.5317189693450928,-1.6745322942733765,-0.0,1.9829365015029907,5.153025823622503,0.0,0.28116825222969055,-1.5416820685016077,0.0,-0.01628243178129196,0.47710704803466797,0.0,-0.010428433306515217,1.2144386768341064,0.0,0.013196486979722977
251.0,347.0,-0.8177,-0.1292,9.6544,-0.0356,0.0195,-0.1038,-1.9428893528380335,0.0,3.539876937866211,-1.6744683980941772,-0.0,1.9822750091552734,5.1530180154140375,0.0,0.27597904205322266,-1.541650120412008,0.0,-0.021140873432159424,0.47715097665786743,0.0,-0.0014268821105360985,1.2143950462341309,0.0,-0.04195846989750862
251.0,347.0,-0.8177,-0.1292,9.6544,-0.0356,0.0195,-0.1038,-1.9428736172118128,0.0,3.524052619934082,-1.6745126247406006,-0.0,1.9391894340515137,5.153037655144491,0.0,0.264665424823761,-1.541650120412008,0.0,-0.018559813499450684,0.4771795868873596,0.0,-0.006352510303258896,1.2144346237182617,0.0,-0.050757989287376404
251.0,347.0,-0.8177,-0.1292,9.6544,-0.0356,0.0195,-0.1038,-1.9428774319090785,0.0,3.543056011199951,-1.6745240688323975,-0.0,1.9378763437271118,5.15304188707427,0.0,0.27606603503227234,-1.541654411946432,0.0,-0.01671760156750679,0.47707849740982056,0.0,0.00243827560916543,1.2144505977630615,0.0,-0.005906329955905676
251.0,347.0,-0.8177,-0.1292,9.6544,-0.0356,0.0195,-0.1038,-1.9428578815855921,0.0,3.504516124725342,-1.6745043992996216,-0.0,1.9726159572601318,5.153042244702139,0.0,0.2951661944389343,-1.5416343847857874,0.0,-0.01590508408844471,0.4771631956100464,0.0,0.00726694893091917,1.2144505977630615,0.0,0.011335593648254871
251.0,348.0,-0.8638,-0.0748,9.6927,-0.0408,0.0273,-0.1174,-1.9428774319090785,0.0,3.547285795211792,-1.6744921207427979,-0.0,2.007601261138916,5.153070556908407,0.0,0.2677311301231384,-1.5416858831988733,0.0,-0.014888291247189045,0.4771308898925781,0.0,-0.007962950505316257,1.2144386768341064,0.0,0.006388739682734013
251.0,348.0,-0.8638,-0.0748,9.6927,-0.0408,0.0273,-0.1174,-1.9428979359068812,0.0,3.565995931625366,-1.6745085716247559,-0.0,1.9660354852676392,5.152985620289602,0.0,0.27022406458854675,-1.5416424910174769,0.0,-0.014459113590419292,0.47713127732276917,0.0,0.002148870611563325,1.2144625186920166,0.0,-0.00610035564750433
251.0,348.0,-0.8638,-0.0748,9.6927,-0.0408,0.0273,-0.1174,-1.9428378544249476,0.0,3.5211658477783203,-1.674472451210022,-0.0,1.9466946125030518,5.153045910387792,0.0,0.27948126196861267,-1.5416620413409632,0.0,-0.012604747898876667,0.47715505957603455,0.0,-0.0020970371551811695,1.2144386768341064,0.0,0.01236160658299923
251.0,348.0,-0.8638,-0.0748,9.6927,-0.0408,0.0273,-0.1174,-1.9428893528380335,0.0,3.528092384338379,-1.6745200157165527,-0.0,1.992969036102295,5.153013902693548,0.0,0.28268134593963623,-1.5416901747332972,0.0,-0.020495859906077385,0.47710707783699036,0.0,0.00365734426304698,1.2144744396209717,0.0,-0.03821980580687523
251.0,348.0,-0.8638,-0.0748,9.6927,-0.0408,0.0273,-0.1174,-1.9428774319090785,0.0,3.5204596519470215,-1.6744921207427979,-0.0,1.9783744812011719,5.1530499933059595,0.0,0.27716484665870667,-1.5416858831988733,0.0,-0.01314590498805046,0.4770625829696655,0.0,0.0035396767780184746,1.2144664525985718,0.0,-0.010798725299537182
251.0,348.0,-0.8638,-0.0748,9.6927,-0.0408,0.0273,-0.1174,-1.9428616962828578,0.0,3.549060344696045,-1.6745281219482422,-0.0,2.003436326980591,5.153025853424825,0.0,0.2719017565250397,-1.5416305700885218,0.0,-0.0048872628249228,0.4771393835544586,0.0,-0.0034171368461102247,1.2144664525985718,0.0,-0.008671033196151257
251.0,348.0,-0.8638,-0.0748,9.6927,-0.0408,0.0273,-0.1174,-1.9428774319090785,0.0,3.559541702270508,-1.6745085716247559,-0.0,1.9460475444793701,5.153013902693548,0.0,0.2743237316608429,-1.5416901747332972,0.0,-0.010712122544646263,0.4770587682723999,0.0,-0.011556243523955345,1.214430809020996,0.0,0.005925173405557871
251.0,348.0,-0.8638,-0.0748,9.6927,-0.0408,0.0273,-0.1174,-1.9428497753539027,0.0,3.5402846336364746,-1.6745322942733765,-0.0,1.9899200201034546,5.152997600823202,0.0,0.28230351209640503,-1.541654411946432,0.0,-0.01567201130092144,0.4770989418029785,0.0,0.005619955714792013,1.2144228219985962,0.0,-0.02991326153278351
251.0,348.0,-0.8638,-0.0748,9.6927,-0.0408,0.0273,-0.1174,-1.942834039727682,0.0,3.505645751953125,-1.6745043992996216,-0.0,1.9986329078674316,5.153009849577703,0.0,0.2619965672492981,-1.5416739622699183,0.0,-0.0010966139379888773,0.4770747423171997,0.0,-0.0006017320556566119,1.2144505977630615,0.0,0.003968993201851845
251.0,348.0,-0.8638,-0.0748,9.6927,-0.0408,0.0273,-0.1174,-1.9428655109801234,0.0,3.531714677810669,-1.6745085716247559,-0.0,1.9818148612976074,5.153005736857214,0.0,0.2709319591522217,-1.5417059103595179,0.0,-0.02131814695894718,0.4770907163619995,0.0,0.005016724579036236,1.2144187688827515,0.0,0.008087254129350185
251.0,348.0,-0.8638,-0.0748,9.6927,-0.0408,0.0273,-0.1174,-1.9428774319090785,0.0,3.554412841796875,-1.674472451210022,-0.0,1.926701545715332,5.153058159142294,0.0,0.2835676074028015,-1.5416820685016077,0.0,-0.011182429268956184,0.4770587384700775,0.0,-0.002019069390371442,1.2144505977630615,0.0,0.028497230261564255
251.0,348.0,-0.8638,-0.0748,9.6927,-0.0408,0.0273,-0.1174,-1.9428378544249476,0.0,3.564574718475342,-1.6745200157165527,-0.0,1.9794387817382812,5.152997600823202,0.0,0.28778499364852905,-1.5416901747332972,0.0,-0.007426948752254248,0.4771312475204468,0.0,0.006056107580661774,1.2144347429275513,0.0,-0.005386485252529383
251.0,348.0,-0.8638,-0.0748,9.6927,-0.0408,0.0273,-0.1174,-1.942834039727682,0.0,3.533583164215088,-1.6745487451553345,-0.0,2.0042006969451904,5.15298159697608,0.0,0.2871783971786499,-1.541654411946432,0.0,-0.0143042653799057,0.47710296511650085,0.0,0.004673702176660299,1.214418888092041,0.0,0.013632120564579964
251.0,348.0,-0.8638,-0.0748,9.6927,-0.0408,0.0273,-0.1174,-1.9428497753539027,0.0,3.554851531982422,-1.6745045185089111,-0.0,1.967987060546875,5.153038131981649,0.0,0.2804016172885895,-1.5417020956622522,0.0,-0.01134082954376936,0.4771308898925781,0.0,0.006617628037929535,1.2144427299499512,0.0,-0.006699956022202969
251.0,348.0,-0.8638,-0.0748,9.6927,-0.0408,0.0273,-0.1174,-1.9428893528380335,0.0,3.5376124382019043,-1.6745158433914185,-0.0,1.9745488166809082,5.153022157936849,0.0,0.27021685242652893,-1.5416858831988733,0.0,-0.011813867837190628,0.4770907163619995,0.0,0.0011282722698524594,1.2144664525985718,0.0,0.023375198245048523
251.0,348.0,-0.8638,-0.0748,9.6927,-0.0408,0.0273,-0.1174,-1.9428698025145472,0.0,3.519953727722168,-1.6745567321777344,-0.0,1.983154296875,5.153077888279714,0.0,0.27742213010787964,-1.5416858831988733,0.0,-0.013114424422383308,0.47713497281074524,0.0,-0.0074829598888754845,1.214482307434082,0.0,-0.0022737872786819935
251.0,353.0,-0.8249,-0.0927,9.6317,-0.0307,0.0272,-0.115,-1.9429017506041468,0.0,3.566323757171631,-1.6744921207427979,-0.0,1.9422581195831299,5.153017687588491,0.0,0.27879223227500916,-1.5416858831988733,0.0,-0.021036360412836075,0.47711122035980225,0.0,0.0011584039311856031,1.2144783735275269,0.0,-0.009321227669715881
251.0,353.0,-0.8249,-0.0927,9.6317,-0.0307,0.0272,-0.115,-1.9428817234435023,0.0,3.5106582641601562,-1.6745085716247559,-0.0,2.006117820739746,5.153001683741369,0.0,0.2556120753288269,-1.5416858831988733,0.0,-0.013778192922472954,0.477078914642334,0.0,0.001187128946185112,1.214462399482727,0.0,0.034318163990974426
251.0,353.0,-0.8249,-0.0927,9.6317,-0.0307,0.0272,-0.115,-1.9428817234435023,0.0,3.56282901763916,-1.6745446920394897,-0.0,1.9620115756988525,5.152989822417059,0.0,0.2771170139312744,-1.5416582266436976,0.0,-0.014250770211219788,0.47707435488700867,0.0,-0.00804845243692398,1.2144386768341064,0.0,0.008105659857392311
251.0,353.0,-0.8249,-0.0927,9.6317,-0.0307,0.0272,-0.115,-1.9428655109801234,0.0,3.5095114707946777,-1.6744682788848877,-0.0,1.9000720977783203,5.153025823622503,0.0,0.28223440051078796,-1.541654411946432,0.0,-0.01469068881124258,0.47709891200065613,0.0,0.011629966087639332,1.214482307434082,0.0,-0.004398701712489128
251.0,353.0,-0.8249,-0.0927,9.6317,-0.0307,0.0272,-0.115,-1.9428578815855921,0.0,3.5056941509246826,-1.674480676651001,-0.0,1.9365334510803223,5.153045910387792,0.0,0.28161150217056274,-1.5416305700885218,0.0,-0.021396387368440628,0.4770747721195221,0.0,0.004904927220195532,1.2144545316696167,0.0,0.0065871053375303745
251.0,353.0,-0.8249,-0.0927,9.6317,-0.0307,0.0272,-0.115,-1.9428416691222132,0.0,3.548579692840576,-1.6744879484176636,-0.0,1.9602383375167847,5.153037655144491,0.0,0.27775341272354126,-1.5416582266436976,0.0,-0.019723791629076004,0.47713127732276917,0.0,0.008730732835829258,1.214510440826416,0.0,-0.025943972170352936
251.0,353.0,-0.8249,-0.0927,9.6317,-0.0307,0.0272,-0.115,-1.9428774319090785,0.0,3.5006251335144043,-1.6744756698608398,-0.0,1.9385229349136353,5.153033661633291,0.0,0.2834109663963318,-1.541666332875387,0.0,-0.015980321913957596,0.4770866632461548,0.0,0.0028775245882570744,1.2144505977630615,0.0,0.010583139955997467
251.0,353.0,-0.8249,-0.0927,9.6317,-0.0307,0.0272,-0.115,-1.9428578815855921,0.0,3.569204807281494,-1.6744518280029297,-0.0,1.9697833061218262,5.1530097899730585,0.0,0.28525039553642273,-1.5416858831988733,0.0,-0.019338615238666534,0.4770866632461548,0.0,-0.0012017044937238097,1.2144386768341064,0.0,0.0166106428951025
251.0,353.0,-0.8249,-0.0927,9.6317,-0.0307,0.0272,-0.115,-1.942913671533102,0.0,3.55930757522583,-1.6745003461837769,-0.0,1.9594342708587646,5.1530856666858575,0.0,0.2752658724784851,-1.5416901747332972,0.0,-0.00208582472987473,0.47709888219833374,0.0,-0.002686421386897564,1.2144862413406372,0.0,-0.030671818181872368
251.0,353.0,-0.8249,-0.0927,9.6317,-0.0307,0.0272,-0.115,-1.9428774319090785,0.0,3.53354549407959,-1.6745281219482422,-0.0,1.981070637702942,5.15302990654067,0.0,0.2821364104747772,-1.5416820685016077,0.0,-0.01841587945818901,0.47709888219833374,0.0,-0.006133509334176779,1.214462399482727,0.0,-0.014226960949599743
251.0,353.0,-0.8249,-0.0927,9.6317,-0.0307,0.0272,-0.115,-1.9428898296751917,0.0,3.5269665718078613,-1.6745045185089111,-0.0,1.9703432321548462,5.1530499933059595,0.0,0.27259355783462524,-1.5416582266436976,0.0,-0.011128846555948257,0.47709891200065613,0.0,-0.010684621520340443,1.2144625186920166,0.0,-0.02814970351755619
251.0,353.0,-0.8249,-0.0927,9.6317,-0.0307,0.0272,-0.115,-1.9428616962828578,0.0,3.5370888710021973,-1.6745365858078003,-0.0,1.9793479442596436,5.15307383516387,0.0,0.27702054381370544,-1.5416701475726526,0.0,-0.017759080976247787,0.4770747423171997,0.0,-0.004958896432071924,1.2144505977630615,0.0,0.011657184921205044
251.0,353.0,-0.8249,-0.0927,9.6317,-0.0307,0.0272,-0.115,-1.942817827264303,0.0,3.5449743270874023,-1.6744798421859741,-0.0,1.9721827507019043,5.153001653939047,0.0,0.2677837610244751,-1.541650120412008,0.0,-0.01926964893937111,0.47715920209884644,0.0,-0.009373662993311882,1.2144505977630615,0.0,-0.01562485471367836
251.0,353.0,-0.8249,-0.0927,9.6317,-0.0307,0.0272,-0.115,-1.942925592462057,0.0,3.502253532409668,-1.6745085716247559,-0.0,2.017845392227173,5.153050052910604,0.0,0.2736479341983795,-1.5416105429278772,0.0,-0.017458731308579445,0.4770788848400116,0.0,0.0022162438835948706,1.2144267559051514,0.0,0.0037390077486634254
251.0,353.0,-0.8249,-0.0927,9.6317,-0.0307,0.0272,-0.115,-1.9428941212096156,0.0,3.5078907012939453,-1.6745725870132446,-0.0,1.9893286228179932,5.153025823622503,0.0,0.26879650354385376,-1.5416858831988733,0.0,-0.02071976661682129,0.4770907163619995,0.0,0.009511183947324753,1.2144783735275269,0.0,-0.008037345483899117
251.0,353.0,-0.8249,-0.0927,9.6317,-0.0307,0.0272,-0.115,-1.9428736172118128,0.0,3.5472872257232666,-1.6744880676269531,-0.0,1.9754878282546997,5.152997630625524,0.0,0.2677706480026245,-1.5416739622699183,0.0,-0.00856657326221466,0.47710296511650085,0.0,0.010524884797632694,1.2144862413406372,0.0,-0.03952160105109215
255.0,358.0,-0.7926,-0.0826,9.5898,-0.0341,0.0237,-0.113,-1.942822118798727,0.0,3.566483974456787,-1.6745685338974,-0.0,1.9221537113189697,5.153038131981649,0.0,0.2816409170627594,-1.5416978041278284,0.0,-0.009595193900167942,0.47714728116989136,0.0,0.0024446016177535057,1.214406967163086,0.0,-0.02313741110265255
255.0,358.0,-0.7926,-0.0826,9.5898,-0.0341,0.0237,-0.113,-1.9428655109801234,0.0,3.5209174156188965,-1.6745003461837769,-0.0,1.974395751953125,5.153042214899816,0.0,0.26006340980529785,-1.5416701475726526,0.0,-0.01384106557816267,0.4770866632461548,0.0,0.004167870618402958,1.2144228219985962,0.0,-0.026989955455064774
255.0,358.0,-0.7926,-0.0826,9.5898,-0.0341,0.0237,-0.113,-1.942822118798727,0.0,3.5887722969055176,-1.6745043992996216,-0.0,1.997539758682251,5.153025823622503,0.0,0.2668108642101288,-1.5416978041278284,0.0,-0.002891125390306115,0.4770788848400116,0.0,0.021264901384711266,1.2144744396209717,0.0,-0.0005677035078406334
255.0,358.0,-0.7926,-0.0826,9.5898,-0.0341,0.0237,-0.113,-1.9428535900511683,0.0,3.546276092529297,-1.6745200157165527,-0.0,1.9916062355041504,5.152993517905035,0.0,0.2840481400489807,-1.5416820685016077,0.0,-0.017648687586188316,0.4771428108215332,0.0,-0.01075594313442707,1.2144545316696167,0.0,-0.026291120797395706
255.0,358.0,-0.7926,-0.0826,9.5898,-0.0341,0.0237,-0.113,-1.9428578815855921,0.0,3.552072048187256,-1.674464225769043,-0.0,1.9656811952590942,5.153025853424825,0.0,0.2756437063217163,-1.541650120412008,0.0,-0.021517623215913773,0.47709065675735474,0.0,0.009458327665925026,1.2144505977630615,0.0,-0.048171523958444595
255.0,358.0,-0.7926,-0.0826,9.5898,-0.0341,0.0237,-0.113,-1.9428774319090785,0.0,3.544440269470215,-1.6745240688323975,-0.0,1.9749386310577393,5.153001653939047,0.0,0.27516719698905945,-1.541666332875387,0.0,-0.01034847367554903,0.47707849740982056,0.0,-0.0014369911514222622,1.2144228219985962,0.0,0.008831671439111233
255.0,358.0,-0.7926,-0.0826,9.5898,-0.0341,0.0237,-0.113,-1.9428736172118128,0.0,3.5209054946899414,-1.6745322942733765,-0.0,1.9650945663452148,5.153038161783972,0.0,0.2782176733016968,-1.5416701475726526,0.0,-0.021399620920419693,0.4770865738391876,0.0,0.00764157110825181,1.214482307434082,0.0,-0.03647000342607498
255.0,358.0,-0.7926,-0.0826,9.5898,-0.0341,0.0237,-0.113,-1.9428979359068812,0.0,3.556220054626465,-1.6744880676269531,-0.0,1.9951980113983154,5.153017955809393,0.0,0.28016841411590576,-1.5416701475726526,0.0,-0.004587482661008835,0.477126806974411,0.0,-0.010601271875202656,1.2144545316696167,0.0,0.01854385994374752
255.0,358.0,-0.7926,-0.0826,9.5898,-0.0341,0.0237,-0.113,-1.9428416691222132,0.0,3.5130791664123535,-1.6745003461837769,-0.0,1.9603407382965088,5.153038191586294,0.0,0.28538572788238525,-1.5416582266436976,0.0,-0.0136790182441473,0.47713497281074524,0.0,0.0006646661786362529,1.2144426107406616,0.0,-0.008656193502247334
255.0,358.0,-0.7926,-0.0826,9.5898,-0.0341,0.0237,-0.113,-1.9428817234435023,0.0,3.546644926071167,-1.6745166778564453,-0.0,1.9669243097305298,5.153017985611715,0.0,0.27106088399887085,-1.5416858831988733,0.0,-0.007277572527527809,0.4771873652935028,0.0,-8.802302181720734e-05,1.2144743204116821,0.0,0.009335401467978954
255.0,358.0,-0.7926,-0.0826,9.5898,-0.0341,0.0237,-0.113,-1.9428416691222132,0.0,3.492324113845825,-1.6745240688323975,-0.0,1.9411542415618896,5.153066265373983,0.0,0.2714861333370209,-1.5416463057147425,0.0,-0.020650988444685936,0.47711893916130066,0.0,-0.003574003465473652,1.2143950462341309,0.0,0.004871331620961428
255.0,358.0,-0.7926,-0.0826,9.5898,-0.0341,0.0237,-0.113,-1.9428578815855921,0.0,3.549145460128784,-1.6744880676269531,-0.0,1.961451768875122,5.153054195433416,0.0,0.2755144238471985,-1.5416820685016077,0.0,-0.0011407970450818539,0.477078914642334,0.0,-0.009848796762526035,1.214418888092041,0.0,0.08212815225124359
255.0,358.0,-0.7926,-0.0826,9.5898,-0.0341,0.0237,-0.113,-1.9428101978697718,0.0,3.5794689655303955,-1.674532413482666,-0.0,1.9869840145111084,5.153050023108282,0.0,0.2724664509296417,-1.5416620413409632,0.0,-0.013287479057908058,0.47711488604545593,0.0,-0.0065030064433813095,1.2144347429275513,0.0,-0.004578122869133949
255.0,358.0,-0.7926,-0.0826,9.5898,-0.0341,0.0237,-0.113,-1.9428817234435023,0.0,3.5351672172546387,-1.674507737159729,-0.0,1.9658838510513306,5.1530499933059595,0.0,0.2895948886871338,-1.541678253804342,0.0,-0.008606747724115849,0.47713127732276917,0.0,0.005985533818602562,1.214430809020996,0.0,0.003032420761883259
255.0,358.0,-0.7926,-0.0826,9.5898,-0.0341,0.0237,-0.113,-1.942845960656637,0.0,3.566793203353882,-1.6744766235351562,-0.0,1.9766252040863037,5.153013545065679,0.0,0.2711561918258667,-1.5416701475726526,0.0,-0.018379636108875275,0.47713497281074524,0.0,0.001672182697802782,1.2144386768341064,0.0,-0.018955491483211517
255.0,358.0,-0.7926,-0.0826,9.5898,-0.0341,0.0237,-0.113,-1.9428616962828578,0.0,3.534532070159912,-1.6745158433914185,-0.0,1.9906206130981445,5.1530499933059595,0.0,0.2811218500137329,-1.5416424910174769,0.0,-0.024021081626415253,0.47713905572891235,0.0,-0.003061081049963832,1.2144386768341064,0.0,-0.017805160954594612
252.0,354.0,-0.7992,-0.0646,9.5904,-0.0325,0.0197,-0.1035,-1.9428898296751917,0.0,3.5167837142944336,-1.6745240688323975,-0.0,1.9775447845458984,5.153025823622503,0.0,0.284873902797699,-1.5416620413409632,0.0,-0.01409369707107544,0.47709059715270996,0.0,-0.007762540131807327,1.2144149541854858,0.0,-0.016603942960500717
252.0,354.0,-0.7992,-0.0646,9.5904,-0.0325,0.0197,-0.1035,-1.9428979359068812,0.0,3.48848819732666,-1.6744961738586426,-0.0,1.9848085641860962,5.1530217109020136,0.0,0.270929753780365,-1.5416901747332972,0.0,-0.008303916081786156,0.4770788848400116,0.0,-0.004006864503026009,1.2143911123275757,0.0,-0.01574014499783516
252.0,354.0,-0.7992,-0.0646,9.5904,-0.0325,0.0197,-0.1035,-1.942845960656637,0.0,3.5114359855651855,-1.6744922399520874,-0.0,1.9740478992462158,5.153058188944616,0.0,0.2787485718727112,-1.5416305700885218,0.0,-0.0012226440012454987,0.47715502977371216,0.0,0.0069808331318199635,1.2144228219985962,0.0,-0.03337540850043297
252.0,354.0,-0.7992,-0.0646,9.5904,-0.0325,0.0197,-0.1035,-1.9428378544249476,0.0,3.499682903289795,-1.6745003461837769,-0.0,1.9577049016952515,5.153049963503637,0.0,0.27520185708999634,-1.5416424910174769,0.0,-0.013519431464374065,0.477126806974411,0.0,0.005196345038712025,1.214482307434082,0.0,0.025560352951288223
252.0,354.0,-0.7992,-0.0646,9.5904,-0.0325,0.0197,-0.1035,-1.942834039727682,0.0,3.520339250564575,-1.6745483875274658,-0.0,1.9779157638549805,5.153041827469625,0.0,0.2696782946586609,-1.5416701475726526,0.0,-0.013065550476312637,0.47715920209884644,0.0,0.003760895226150751,1.2144228219985962,0.0,-0.0006012185476720333
252.0,354.0,-0.7992,-0.0646,9.5904,-0.0325,0.0197,-0.1035,-1.9428774319090785,0.0,3.509772300720215,-1.6745240688323975,-0.0,1.98139226436615,5.153009819775381,0.0,0.276344358921051,-1.5416424910174769,0.0,-0.009841274470090866,0.47713905572891235,0.0,0.0024579076562076807,1.2144545316696167,0.0,0.02716214768588543
252.0,354.0,-0.7992,-0.0646,9.5904,-0.0325,0.0197,-0.1035,-1.9428616962828578,0.0,3.5728273391723633,-1.674544334411621,-0.0,1.9808855056762695,5.153066324978628,0.0,0.26115021109580994,-1.5416978041278284,0.0,-0.01395968347787857,0.47710704803466797,0.0,-0.001986520830541849,1.2144347429275513,0.0,0.030045606195926666
252.0,354.0,-0.7992,-0.0646,9.5904,-0.0325,0.0197,-0.1035,-1.9428497753539027,0.0,3.5315299034118652,-1.6745200157165527,-0.0,1.937465786933899,5.153041827469625,0.0,0.28518766164779663,-1.541638199483053,0.0,-0.009294644929468632,0.47712305188179016,0.0,-0.006167439743876457,1.2144347429275513,0.0,-0.015409773215651512
252.0,354.0,-0.7992,-0.0646,9.5904,-0.0325,0.0197,-0.1035,-1.942845960656637,0.0,3.5478711128234863,-1.6745085716247559,-0.0,1.9697922468185425,5.1529816565807245,0.0,0.2717524468898773,-1.5416424910174769,0.0,-0.020357681438326836,0.4770747423171997,0.0,-0.010832232423126698,1.2144347429275513,0.0,0.06434158980846405
252.0,354.0,-0.7992,-0.0646,9.5904,-0.0325,0.0197,-0.1035,-1.9428941212096156,0.0,3.5527026653289795,-1.6745045185089111,-0.0,1.9566149711608887,5.1530499933059595,0.0,0.26616841554641724,-1.5416620413409632,0.0,-0.01230356190353632,0.47713905572891235,0.0,0.00470953993499279,1.2144545316696167,0.0,-0.013933226466178894
252.0,354.0,-0.7992,-0.0646,9.5904,-0.0325,0.0197,-0.1035,-1.942845960656637,0.0,3.529167652130127,-1.6745365858078003,-0.0,1.9617823362350464,5.1530662951763055,0.0,0.2664453685283661,-1.541678253804342,0.0,-0.015256314538419247,0.4770747423171997,0.0,-0.008618653751909733,1.2144625186920166,0.0,0.015622001141309738
252.0,354.0,-0.7992,-0.0646,9.5904,-0.0325,0.0197,-0.1035,-1.942817827264303,0.0,3.5351719856262207,-1.6745003461837769,-0.0,1.981380820274353,5.153025823622503,0.0,0.27966511249542236,-1.5416186491595667,0.0,-0.016196366399526596,0.47710299491882324,0.0,-0.004125751554965973,1.2144386768341064,0.0,-0.04181496798992157
252.0,354.0,-0.7992,-0.0646,9.5904,-0.0325,0.0197,-0.1035,-1.9428979359068812,0.0,3.5355148315429688,-1.6745003461837769,-0.0,1.980226755142212,5.153041827469625,0.0,0.28259357810020447,-1.5416901747332972,0.0,-0.0034064832143485546,0.47713494300842285,0.0,0.0007762346067465842,1.214470386505127,0.0,0.07334471493959427
252.0,354.0,-0.7992,-0.0646,9.5904,-0.0325,0.0197,-0.1035,-1.9428497753539027,0.0,3.4798049926757812,-1.6745127439498901,-0.0,1.9615073204040527,5.15302990654067,0.0,0.26369509100914,-1.5416701475726526,0.0,-0.009527823887765408,0.47710704803466797,0.0,0.005442558787763119,1.2144267559051514,0.0,-0.008293148130178452
252.0,354.0,-0.7992,-0.0646,9.5904,-0.0325,0.0197,-0.1035,-1.942845960656637,0.0,3.5672597885131836,-1.6745448112487793,-0.0,1.9779536724090576,5.153017687588491,0.0,0.2646053731441498,-1.5417097250567835,0.0,-0.019400211051106453,0.477070689201355,0.0,-0.002993059577420354,1.2144466638565063,0.0,-0.004877022001892328
252.0,354.0,-0.7992,-0.0646,9.5904,-0.0325,0.0197,-0.1035,-1.9428578815855921,0.0,3.526695489883423,-1.6745045185089111,-0.0,1.9927759170532227,5.153001653939047,0.0,0.2668362259864807,-1.5416701475726526,0.0,-0.018421480432152748,0.47707855701446533,0.0,0.0018009415362030268,1.2144347429275513,0.0,0.02274298295378685
251.0,358.0,-0.8704,-0.0981,9.6275,-0.0357,0.0217,-0.1113,-1.9428578815855921,0.0,3.5585756301879883,-1.6745085716247559,-0.0,1.9483115673065186,5.153045910387792,0.0,0.2812168002128601,-1.5416901747332972,0.0,-0.018150225281715393,0.4770747721195221,0.0,0.003919921815395355,1.2144505977630615,0.0,0.04689490795135498
251.0,358.0,-0.8704,-0.0981,9.6275,-0.0357,0.0217,-0.1113,-1.9428535900511683,0.0,3.5267975330352783,-1.6745525598526,-0.0,1.9538819789886475,5.153058159142294,0.0,0.2775375545024872,-1.5416901747332972,0.0,-0.015149262733757496,0.4770948588848114,0.0,-0.01571706123650074,1.214482307434082,0.0,0.015450253151357174
251.0,358.0,-0.8704,-0.0981,9.6275,-0.0357,0.0217,-0.1113,-1.9429179630675257,0.0,3.556370973587036,-1.6745606660842896,-0.0,1.9496099948883057,5.1530499933059595,0.0,0.28336986899375916,-1.5416582266436976,0.0,-0.011569351889193058,0.47711122035980225,0.0,-0.003400056855753064,1.2143990993499756,0.0,0.017039507627487183
251.0,358.0,-0.8704,-0.0981,9.6275,-0.0357,0.0217,-0.1113,-1.9428616962828578,0.0,3.574521064758301,-1.6745045185089111,-0.0,1.9959784746170044,5.1530662951763055,0.0,0.28494521975517273,-1.5417216459857386,0.0,-0.022622400894761086,0.4771672785282135,0.0,0.0053893327713012695,1.214490294456482,0.0,-0.027614088729023933
251.0,358.0,-0.8704,-0.0981,9.6275,-0.0357,0.0217,-0.1113,-1.9428979359068812,0.0,3.546902894973755,-1.6745530366897583,-0.0,1.9369316101074219,5.153038102179327,0.0,0.270142525434494,-1.5417059103595179,0.0,-0.02195962890982628,0.4770788848400116,0.0,0.006240075454115868,1.2144862413406372,0.0,0.013139031827449799
251.0,358.0,-0.8704,-0.0981,9.6275,-0.0357,0.0217,-0.1113,-1.9428817234435023,0.0,3.5591492652893066,-1.6744848489761353,-0.0,1.979500412940979,5.15302990654067,0.0,0.279723584651947,-1.5416620413409632,0.0,-0.01944016106426716,0.47715920209884644,0.0,0.00029416391043923795,1.2144743204116821,0.0,0.045260731130838394
251.0,358.0,-0.8704,-0.0981,9.6275,-0.0357,0.0217,-0.1113,-1.9428578815855921,0.0,3.563493013381958,-1.6745166778564453,-0.0,1.9908045530319214,5.153013902693548,0.0,0.2600287199020386,-1.541638199483053,0.0,-0.022485869005322456,0.4771673381328583,0.0,-0.005298763979226351,1.2144228219985962,0.0,0.006815764121711254
251.0,358.0,-0.8704,-0.0981,9.6275,-0.0357,0.0217,-0.1113,-1.9428416691222132,0.0,3.5257861614227295,-1.6745322942733765,-0.0,1.9642329216003418,5.153025793820181,0.0,0.282634973526001,-1.5416424910174769,0.0,2.095196396112442e-05,0.47710666060447693,0.0,0.006384731270372868,1.2144783735275269,0.0,0.0010146880522370338
251.0,358.0,-0.8704,-0.0981,9.6275,-0.0357,0.0217,-0.1113,-1.9428578815855921,0.0,3.5218255519866943,-1.6745085716247559,-0.0,1.9886975288391113,5.153054195433416,0.0,0.2763208746910095,-1.5416739622699183,0.0,-0.029248159378767014,0.47715502977371216,0.0,0.0035530710592865944,1.2144505977630615,0.0,-0.02134447917342186
251.0,358.0,-0.8704,-0.0981,9.6275,-0.0357,0.0217,-0.1113,-1.9428698025145472,0.0,3.485940933227539,-1.6745166778564453,-0.0,1.9835052490234375,5.15307383516387,0.0,0.2732149362564087,-1.541678253804342,0.0,-0.012140609323978424,0.47712719440460205,0.0,-0.0059643760323524475,1.2144149541854858,0.0,0.013982664793729782
251.0,358.0,-0.8704,-0.0981,9.6275,-0.0357,0.0217,-0.1113,-1.9428259334959925,0.0,3.548138380050659,-1.6745240688323975,-0.0,1.9710533618927002,5.153041827469625,0.0,0.27764737606048584,-1.5416858831988733,0.0,-0.022106437012553215,0.4770870804786682,0.0,0.0032921191304922104,1.214470386505127,0.0,0.01098785549402237
251.0,358.0,-0.8704,-0.0981,9.6275,-0.0357,0.0217,-0.1113,-1.9428655109801234,0.0,3.5279221534729004,-1.6745085716247559,-0.0,1.9451011419296265,5.153058159142294,0.0,0.2757490873336792,-1.541650120412008,0.0,-0.005180989857763052,0.47715502977371216,0.0,0.006171469576656818,1.2144110202789307,0.0,-0.009357666596770287
251.0,358.0,-0.8704,-0.0981,9.6275,-0.0357,0.0217,-0.1113,-1.9428578815855921,0.0,3.558438777923584,-1.6744641065597534,-0.0,1.942713737487793,5.1530499933059595,0.0,0.275703489780426,-1.5416620413409632,0.0,-0.011429663747549057,0.47711122035980225,0.0,-0.002979372162371874,1.214426875114441,0.0,-0.017228808254003525
251.0,358.0,-0.8704,-0.0981,9.6275,-0.0357,0.0217,-0.1113,-1.9428655109801234,0.0,3.53989315032959,-1.6745158433914185,-0.0,1.9585669040679932,5.153050023108282,0.0,0.28095948696136475,-1.5416701475726526,0.0,-0.020234908908605576,0.477115273475647,0.0,0.004430376924574375,1.2144505977630615,0.0,-0.03451761230826378
251.0,358.0,-0.8704,-0.0981,9.6275,-0.0357,0.0217,-0.1113,-1.9428497753539027,0.0,3.537433624267578,-1.6745892763137817,-0.0,1.975243330001831,5.153038131981649,0.0,0.27001458406448364,-1.5416424910174769,0.0,-0.004891610704362392,0.4771389961242676,0.0,-0.0027007758617401123,1.2144545316696167,0.0,-0.025270448997616768
251.0,358.0,-0.8704,-0.0981,9.6275,-0.0357,0.0217,-0.1113,-1.9428416691222132,0.0,3.48935866355896,-1.6745365858078003,-0.0,1.9599416255950928,5.1530217109020136,0.0,0.26828572154045105,-1.5416582266436976,0.0,-0.019704580307006836,0.47710704803466797,0.0,0.00416042935103178,1.2144228219985962,0.0,-0.044063374400138855
252.0,354.0,-0.8136,-0.1633,9.533,-0.0408,0.026,-0.1208,-1.9428297481932582,0.0,3.5776634216308594,-1.674548864364624,-0.0,1.9871370792388916,5.153037684946813,0.0,0.2692353129386902,-1.5416305700885218,0.0,-0.018422450870275497,0.4771389663219452,0.0,0.0037765433080494404,1.2144386768341064,0.0,-0.0163783710449934
252.0,354.0,-0.8136,-0.1633,9.533,-0.0408,0.026,-0.1208,-1.9428297481932582,0.0,3.5096487998962402,-1.6744682788848877,-0.0,1.9946494102478027,5.152997541218557,0.0,0.2650439739227295,-1.5416143576251429,0.0,-0.0029438105411827564,0.47710296511650085,0.0,0.0013023773208260536,1.2144386768341064,0.0,0.047228045761585236
252.0,354.0,-0.8136,-0.1633,9.533,-0.0408,0.026,-0.1208,-1.9428578815855921,0.0,3.5671513080596924,-1.6745525598526,-0.0,1.9550836086273193,5.152977454453268,0.0,0.29175153374671936,-1.5416858831988733,0.0,-0.013799924403429031,0.47711530327796936,0.0,0.012079707346856594,1.2144664525985718,0.0,-0.012023022398352623
252.0,354.0,-0.8136,-0.1633,9.533,-0.0408,0.026,-0.1208,-1.9428416691222132,0.0,3.5296311378479004,-1.6745085716247559,-0.0,1.9743971824645996,5.153062242060461,0.0,0.2795490026473999,-1.541650120412008,0.0,-0.018764309585094452,0.4771108329296112,0.0,-0.020970240235328674,1.2144584655761719,0.0,0.0033975502010434866
252.0,354.0,-0.8136,-0.1633,9.533,-0.0408,0.026,-0.1208,-1.942913671533102,0.0,3.55244517326355,-1.6745446920394897,-0.0,1.9759219884872437,5.153009760170736,0.0,0.2751704752445221,-1.541666332875387,0.0,-0.00109195988625288,0.47715088725090027,0.0,-0.010819124057888985,1.214462399482727,0.0,0.023044012486934662
252.0,354.0,-0.8136,-0.1633,9.533,-0.0408,0.026,-0.1208,-1.9428416691222132,0.0,3.5691494941711426,-1.6745283603668213,-0.0,1.9588278532028198,5.153017657786169,0.0,0.2849426865577698,-1.541650120412008,0.0,-0.012398931197822094,0.47709888219833374,0.0,-0.0005771550349891186,1.214418888092041,0.0,-0.016672290861606598
252.0,354.0,-0.8136,-0.1633,9.533,-0.0408,0.026,-0.1208,-1.9428860149779261,0.0,3.5433900356292725,-1.6745085716247559,-0.0,1.9857001304626465,5.153009819775381,0.0,0.27953362464904785,-1.5416701475726526,0.0,-0.010046429000794888,0.47710704803466797,0.0,0.0019523161463439465,1.2144347429275513,0.0,0.0042685288935899734
252.0,354.0,-0.8136,-0.1633,9.533,-0.0408,0.026,-0.1208,-1.942885538140768,0.0,3.5296287536621094,-1.6744837760925293,-0.0,1.944847822189331,5.153022157936849,0.0,0.2735934853553772,-1.5416582266436976,0.0,-0.02268379181623459,0.4770907163619995,0.0,-0.01212326530367136,1.2144347429275513,0.0,-0.03851364180445671
252.0,354.0,-0.8136,-0.1633,9.533,-0.0408,0.026,-0.1208,-1.9428822002806605,0.0,3.5555520057678223,-1.6745045185089111,-0.0,1.9791028499603271,5.152985679894247,0.0,0.28126126527786255,-1.5416620413409632,0.0,-0.007487563416361809,0.4770907163619995,0.0,-0.005744843743741512,1.2144465446472168,0.0,-0.007018399424850941
252.0,354.0,-0.8136,-0.1633,9.533,-0.0408,0.026,-0.1208,-1.9428779087462367,0.0,3.505103588104248,-1.6745405197143555,-0.0,1.9587610960006714,5.153009849577703,0.0,0.27191293239593506,-1.5416424910174769,0.0,-0.016531862318515778,0.47713497281074524,0.0,-0.00022603594698011875,1.2144505977630615,0.0,-0.01591058075428009
252.0,354.0,-0.8136,-0.1633,9.533,-0.0408,0.026,-0.1208,-1.9428941212096156,0.0,3.5603530406951904,-1.6745003461837769,-0.0,1.9498299360275269,5.153013902693548,0.0,0.2770457863807678,-1.5416305700885218,0.0,-0.007511368952691555,0.47712305188179016,0.0,-0.004266135394573212,1.2145023345947266,0.0,-0.002320823259651661
252.0,354.0,-0.8136,-0.1633,9.533,-0.0408,0.026,-0.1208,-1.9428535900511683,0.0,3.5473053455352783,-1.6745085716247559,-0.0,1.9900457859039307,5.153025823622503,0.0,0.26960569620132446,-1.541678253804342,0.0,-0.0029196457471698523,0.477094829082489,0.0,-0.010390480048954487,1.2144466638565063,0.0,0.005670917686074972
252.0,354.0,-0.8136,-0.1633,9.533,-0.0408,0.026,-0.1208,-1.9428774319090785,0.0,3.4997446537017822,-1.6745240688323975,-0.0,1.9237381219863892,5.153033661633291,0.0,0.2707368731498718,-1.5416739622699183,0.0,-0.014419286511838436,0.47714319825172424,0.0,-0.004398430231958628,1.2144584655761719,0.0,0.0014209821820259094
252.0,354.0,-0.8136,-0.1633,9.533,-0.0408,0.026,-0.1208,-1.9428578815855921,0.0,3.5366878509521484,-1.6745566129684448,-0.0,1.9627265930175781,5.153033691435613,0.0,0.2713334262371063,-1.541650120412008,0.0,-0.014206958934664726,0.47712305188179016,0.0,-0.006613720208406448,1.2144505977630615,0.0,-0.058809928596019745
252.0,354.0,-0.8136,-0.1633,9.533,-0.0408,0.026,-0.1208,-1.942817827264303,0.0,3.503042221069336,-1.6745166778564453,-0.0,1.9845973253250122,5.153058159142294,0.0,0.272459477186203,-1.5416620413409632,0.0,-0.017883416265249252,0.4770706593990326,0.0,-0.005265350453555584,1.2144585847854614,0.0,-0.0692482739686966
252.0,354.0,-0.8136,-0.1633,9.533,-0.0408,0.026,-0.1208,-1.9428822002806605,0.0,3.5587213039398193,-1.6745365858078003,-0.0,1.9794594049453735,5.152977454453268,0.0,0.2912200689315796,-1.5416463057147425,0.0,-0.018473098054528236,0.47713497281074524,0.0,0.013210647739470005,1.214494228363037,0.0,0.006892249919474125
258.0,348.0,-0.8453,-0.1071,9.594,-0.0382,0.022,-0.1174,-1.9429098568358363,0.0,3.53994083404541,-1.6745003461837769,-0.0,2.012603759765625,5.1529734311397455,0.0,0.260783314704895,-1.5416858831988733,0.0,-0.012689599767327309,0.4770748019218445,0.0,-0.003962170332670212,1.2144427299499512,0.0,0.0012434097006917
258.0,348.0,-0.8453,-0.1071,9.594,-0.0382,0.022,-0.1174,-1.9428898296751917,0.0,3.5570883750915527,-1.6744756698608398,-0.0,1.9675285816192627,5.153041827469625,0.0,0.27893248200416565,-1.5416701475726526,0.0,-0.013557817786931992,0.47710707783699036,0.0,0.0007918914197944105,1.2144466638565063,0.0,-0.0035072623286396265
258.0,348.0,-0.8453,-0.1071,9.594,-0.0382,0.022,-0.1174,-1.9428578815855921,0.0,3.5747251510620117,-1.6744440793991089,-0.0,1.987774133682251,5.153029876738348,0.0,0.28151148557662964,-1.541701618825094,0.0,-0.02155211754143238,0.4770706593990326,0.0,0.0032140580005943775,1.2144743204116821,0.0,0.017627572640776634
258.0,348.0,-0.8453,-0.1071,9.594,-0.0382,0.022,-0.1174,-1.9429060421385707,0.0,3.565964698791504,-1.6745002269744873,-0.0,1.9291131496429443,5.153038131981649,0.0,0.27478447556495667,-1.541650120412008,0.0,-0.0075403545051813126,0.47710296511650085,0.0,-0.003064709948375821,1.2145024538040161,0.0,0.04135835915803909
258.0,348.0,-0.8453,-0.1071,9.594,-0.0382,0.022,-0.1174,-1.9429060421385707,0.0,3.5480504035949707,-1.674472451210022,-0.0,1.9528241157531738,5.153045910387792,0.0,0.2737390398979187,-1.541666332875387,0.0,-0.008932503871619701,0.47715499997138977,0.0,-0.006437677890062332,1.214482307434082,0.0,-0.008404058404266834
258.0,348.0,-0.8453,-0.1071,9.594,-0.0382,0.022,-0.1174,-1.9428979359068812,0.0,3.5293140411376953,-1.6745166778564453,-0.0,1.9677773714065552,5.1529975710208795,0.0,0.2680768668651581,-1.5416820685016077,0.0,-0.014284604229032993,0.4770989418029785,0.0,-0.009186618961393833,1.2144427299499512,0.0,-0.02241620048880577
258.0,348.0,-0.8453,-0.1071,9.594,-0.0382,0.022,-0.1174,-1.942845960656637,0.0,3.5720109939575195,-1.674560308456421,-0.0,1.9418898820877075,5.1530499933059595,0.0,0.27103492617607117,-1.541650120412008,0.0,-0.007097097113728523,0.47707071900367737,0.0,-0.003853090573102236,1.2144584655761719,0.0,-0.09405039250850677
258.0,348.0,-0.8453,-0.1071,9.594,-0.0382,0.022,-0.1174,-1.9428817234435023,0.0,3.5441532135009766,-1.674464225769043,-0.0,1.9864733219146729,5.153045910387792,0.0,0.26545393466949463,-1.5416701475726526,0.0,-0.014268944039940834,0.47710299491882324,0.0,-0.00025403674226254225,1.2144505977630615,0.0,-0.0003912333049811423
258.0,348.0,-0.8453,-0.1071,9.594,-0.0382,0.022,-0.1174,-1.9428817234435023,0.0,3.5386199951171875,-1.6745045185089111,-0.0,1.975593090057373,5.153025853424825,0.0,0.2773970365524292,-1.5416820685016077,0.0,-0.0074302139692008495,0.4770629405975342,0.0,-0.008346529677510262,1.2144466638565063,0.0,-0.014276036992669106
258.0,348.0,-0.8453,-0.1071,9.594,-0.0382,0.022,-0.1174,-1.9428817234435023,0.0,3.501898765563965,-1.674544334411621,-0.0,1.9779456853866577,5.153077888279714,0.0,0.27642151713371277,-1.541650120412008,0.0,-0.02895526960492134,0.47711896896362305,0.0,0.0015604307409375906,1.214426875114441,0.0,-0.0291019007563591
258.0,348.0,-0.8453,-0.1071,9.594,-0.0382,0.022,-0.1174,-1.9428254566588343,0.0,3.5457711219787598,-1.6745200157165527,-0.0,1.948884129524231,5.153041827469625,0.0,0.2781528830528259,-1.5416739622699183,0.0,-0.017155440524220467,0.4770587384700775,0.0,-0.005131265614181757,1.2144427299499512,0.0,0.008953627198934555
258.0,348.0,-0.8453,-0.1071,9.594,-0.0382,0.022,-0.1174,-1.9428616962828578,0.0,3.566246509552002,-1.6745365858078003,-0.0,2.002061128616333,5.15304588058547,0.0,0.28048670291900635,-1.5416505972491663,0.0,-0.022022640332579613,0.47712716460227966,0.0,-0.0037462441250681877,1.2144545316696167,0.0,0.020789755508303642
258.0,348.0,-0.8453,-0.1071,9.594,-0.0382,0.022,-0.1174,-1.9428616962828578,0.0,3.5318856239318848,-1.6744683980941772,-0.0,1.9629666805267334,5.153041827469625,0.0,0.26940762996673584,-1.5416463057147425,0.0,-0.009520289488136768,0.47709888219833374,0.0,0.000460208160802722,1.2144347429275513,0.0,-0.009716476313769817
258.0,348.0,-0.8453,-0.1071,9.594,-0.0382,0.022,-0.1174,-1.9428497753539027,0.0,3.5365989208221436,-1.6744847297668457,-0.0,2.0010809898376465,5.153033989458837,0.0,0.276416540145874,-1.5416901747332972,0.0,-0.0318153090775013,0.477115273475647,0.0,0.00407611345872283,1.2144466638565063,0.0,-0.026529461145401
258.0,348.0,-0.8453,-0.1071,9.594,-0.0382,0.022,-0.1174,-1.9428416691222132,0.0,3.5586843490600586,-1.6744641065597534,-0.0,1.948697566986084,5.153053986817159,0.0,0.28947925567626953,-1.5416343847857874,0.0,-0.008939247578382492,0.4770587384700775,0.0,0.0037194143515080214,1.2144505977630615,0.0,-0.042014963924884796
258.0,348.0,-0.8453,-0.1071,9.594,-0.0382,0.022,-0.1174,-1.9428779087462367,0.0,3.512214183807373,-1.674472451210022,1.7500716154028595e-10,1.976933479309082,5.153021353274145,0.0,0.2706369161605835,-1.5416820685016077,0.0,-0.006840324029326439,0.477103054523468,0.0,-0.007883296348154545,1.214470386505127,0.0,-0.0015622936189174652
258.0,348.0,-0.8453,-0.1071,9.594,-0.0382,0.022,-0.1174,-1.9428616962828578,0.0,3.5199973583221436,-1.6744641065597534,4.22621715667274e-16,1.9715948104858398,5.153009819775381,0.0,0.27546438574790955,-1.5417140165912073,0.0,-0.014606346376240253,0.47708258032798767,0.0,0.00972192082554102,1.214418888092041,0.0,0.008618698455393314
262.0,368.0,-0.9129,-0.0144,9.5438,-0.036,0.0286,-0.1121,-1.9428492985167445,0.0,3.49595046043396,-1.6745281219482422,1.0205816395835519e-21,1.9805679321289062,5.153037655144491,0.0,0.2601337432861328,-1.541650120412008,0.0,-0.01972220465540886,0.4770989716053009,0.0,-0.007605094462633133,1.2144505977630615,0.0,-0.0365937314927578
262.0,368.0,-0.9129,-0.0144,9.5438,-0.036,0.0286,-0.1121,-1.942869325677389,0.0,3.549098014831543,-1.6745166778564453,1.8370110222649207e-25,1.9535510540008545,5.153033989458837,0.0,0.2867799699306488,-1.5416582266436976,0.0,-0.012444179505109787,0.4771308898925781,0.0,0.008556503802537918,1.2144505977630615,0.0,0.03989216312766075
262.0,368.0,-0.9129,-0.0144,9.5438,-0.036,0.0286,-0.1121,-1.9428535900511683,0.0,3.554894208908081,-1.6745126247406006,4.436165216726408e-31,2.0144951343536377,5.15304588058547,0.0,0.27995073795318604,-1.541654411946432,0.0,-0.017702795565128326,0.4771468937397003,0.0,-0.0037852940149605274,1.214470386505127,0.0,0.008913887664675713
262.0,368.0,-0.9129,-0.0144,9.5438,-0.036,0.0286,-0.1121,-1.9428736172118128,0.0,3.569061040878296,-1.6744921207427979,1.0712816001132606e-36,1.9440150260925293,5.153026211052694,0.0,0.28670206665992737,-1.5416424910174769,0.0,-0.004109135828912258,0.4771631956100464,0.0,0.00619660085067153,1.2144545316696167,0.0,0.0025812978856265545
262.0,368.0,-0.9129,-0.0144,9.5438,-0.036,0.0286,-0.1121,-1.9428979359068812,0.0,3.54709529876709,-1.6744921207427979,2.5867969651436123e-42,1.9461514949798584,5.153041827469625,0.0,0.2847752571105957,-1.5416739622699183,0.0,-0.017689554020762444,0.47712719440460205,0.0,-0.007555293384939432,1.2144743204116821,0.0,-0.0011081239208579063
262.0,368.0,-0.9129,-0.0144,9.5438,-0.036,0.0286,-0.1121,-1.9428497753539027,0.0,3.5392098426818848,-1.674540638923645,-0.0,1.9894871711730957,5.153025823622503,0.0,0.268596887588501,-1.5417059103595179,0.0,-0.016237471252679825,0.4770907163619995,0.0,-0.012347624637186527,1.2144466638565063,0.0,0.0051054032519459724
262.0,368.0,-0.9129,-0.0144,9.5438,-0.036,0.0286,-0.1121,-1.9429103336729945,0.0,3.5257935523986816,-1.6744921207427979,-0.0,1.9753732681274414,5.153062212258138,0.0,0.2687416672706604,-1.541678253804342,0.0,-0.012377405539155006,0.47715920209884644,0.0,-0.008641038089990616,1.2144466638565063,0.0,0.0020687298383563757
262.0,368.0,-0.9129,-0.0144,9.5438,-0.036,0.0286,-0.1121,-1.9428616962828578,0.0,3.5370945930480957,-1.6745043992996216,-0.0,1.9550800323486328,5.153005766659536,0.0,0.2681664228439331,-1.5416739622699183,0.0,-0.01325211301445961,0.4771070182323456,0.0,0.009460877627134323,1.2143951654434204,0.0,-0.009313681162893772
262.0,368.0,-0.9129,-0.0144,9.5438,-0.036,0.0286,-0.1121,-1.9428297481932582,0.0,3.535390853881836,-1.674480676651001,-0.0,1.9865331649780273,5.153054135828771,0.0,0.27515608072280884,-1.541717831288473,0.0,-0.014853404834866524,0.47711896896362305,0.0,0.002425332320854068,1.2144664525985718,0.0,-0.015851261094212532
262.0,368.0,-0.9129,-0.0144,9.5438,-0.036,0.0286,-0.1121,-1.9428860149779261,0.0,3.485888719558716,-1.6745249032974243,-0.0,2.00654935836792,5.1530217109020136,0.0,0.27120280265808105,-1.5416858831988733,0.0,-0.028040189296007156,0.47710660099983215,0.0,-0.008946088142693043,1.2144664525985718,0.0,-0.039945755153894424
262.0,368.0,-0.9129,-0.0144,9.5438,-0.036,0.0286,-0.1121,-1.9428416691222132,0.0,3.539987087249756,-1.6744929552078247,-0.0,1.94508957862854,5.153001683741369,0.0,0.2762632369995117,-1.5416224638568323,0.0,-0.007316705770790577,0.47715920209884644,0.0,0.0069940476678311825,1.214426875114441,0.0,-0.00019849929958581924
262.0,368.0,-0.9129,-0.0144,9.5438,-0.036,0.0286,-0.1121,-1.9428860149779261,0.0,3.5367250442504883,-1.6745085716247559,-0.0,1.9749319553375244,5.15302990654067,0.0,0.2751239836215973,-1.541666332875387,0.0,-0.015220781788229942,0.47710704803466797,0.0,-0.0005987779004499316,1.214462399482727,0.0,0.005252803210169077
262.0,368.0,-0.9129,-0.0144,9.5438,-0.036,0.0286,-0.1121,-1.9428497753539027,0.0,3.5190978050231934,-1.6745166778564453,-0.0,1.982689380645752,5.153017985611715,0.0,0.2765456736087799,-1.541654411946432,0.0,-0.009786190465092659,0.47712719440460205,0.0,-0.0014324835501611233,1.2144664525985718,0.0,-0.04771702364087105
262.0,368.0,-0.9129,-0.0144,9.5438,-0.036,0.0286,-0.1121,-1.942857404748434,0.0,3.5298798084259033,-1.6745166778564453,-0.0,1.9428398609161377,5.153041916876592,0.0,0.275543749332428,-1.5416901747332972,0.0,-0.01742282137274742,0.47715499997138977,0.0,-0.007362868636846542,1.2144426107406616,0.0,-0.01608998142182827
262.0,368.0,-0.9129,-0.0144,9.5438,-0.036,0.0286,-0.1121,-1.9428817234435023,0.0,3.5219621658325195,-1.6744961738586426,9.33369665290229e-05,1.9897359609603882,5.153029936342993,0.0,0.27711787819862366,-1.5416978041278284,0.0,-0.010705670341849327,0.4770706593990326,0.0,0.0031658574007451534,1.2144228219985962,0.0,-0.005330824293196201
262.0,368.0,-0.9129,-0.0144,9.5438,-0.036,0.0286,-0.1121,-1.942869325677389,0.0,3.5515389442443848,-1.6744880676269531,8.788405102677643e-05,1.9993321895599365,5.153025823622503,0.0,0.2843529284000397,-1.5416739622699183,0.0,-0.0138928247615695,0.4771308898925781,0.0,-0.009014742448925972,1.2144427299499512,0.0,0.02044091187417507
258.0,356.0,-0.7747,-0.4487,9.9159,-0.0611,0.0318,-0.1208,-1.94289030651235,0.0,3.5594170093536377,-1.6745085716247559,8.301999332616106e-05,1.9495769739151,5.152977454453268,0.0,0.27735960483551025,-1.5416463057147425,0.0,-0.010312391445040703,0.4771108031272888,0.0,-0.011725608259439468,1.2144347429275513,0.0,-0.012680753134191036
258.0,356.0,-0.7747,-0.4487,9.9159,-0.0611,0.0318,-0.1208,-1.9428941212096156,0.0,3.497483730316162,-1.6745249032974243,7.866616942919791e-05,1.9941582679748535,5.153025823622503,0.0,0.26657596230506897,-1.541678253804342,0.0,-0.01608426868915558,0.47710704803466797,0.0,0.0060698967427015305,1.2144625186920166,0.0,-0.02327386662364006
258.0,356.0,-0.7747,-0.4487,9.9159,-0.0611,0.0318,-0.1208,-1.9428779087462367,0.0,3.499957799911499,-1.6745648384094238,7.474623998859897e-05,1.9747554063796997,5.15302990654067,0.0,0.2813272476196289,-1.541650120412008,0.0,-0.008667527697980404,0.47711896896362305,0.0,0.0010944112436845899,1.214426875114441,0.0,0.035358741879463196
258.0,356.0,-0.7747,-0.4487,9.9159,-0.0611,0.0318,-0.1208,-1.9428817234435023,0.0,3.5279593467712402,-1.6744766235351562,7.119840302038938e-05,1.9626538753509521,5.153058188944616,0.0,0.2706434726715088,-1.5416701475726526,0.0,-0.021158108487725258,0.4771631956100464,0.0,0.0008173063397407532,1.2144427299499512,0.0,-0.010016587562859058
258.0,356.0,-0.7747,-0.4487,9.9159,-0.0611,0.0318,-0.1208,-1.9428941212096156,0.0,3.5674009323120117,-1.674480676651001,6.901458982611075e-05,1.9786372184753418,5.153037684946813,0.0,0.2774695158004761,-1.541666332875387,0.0,-0.013628742657601833,0.4771308898925781,0.0,-0.009794559329748154,1.2144347429275513,0.0,0.028520362451672554
258.0,356.0,-0.7747,-0.4487,9.9159,-0.0611,0.0318,-0.1208,-1.94289030651235,0.0,3.537036895751953,-1.6745208501815796,6.597891479032114e-05,1.9557194709777832,5.153045940190115,0.0,0.27366742491722107,-1.5416701475726526,0.0,-0.01373046264052391,0.4771193563938141,0.0,0.012055792845785618,1.2144585847854614,0.0,0.00956360436975956
258.0,356.0,-0.7747,-0.4487,9.9159,-0.0611,0.0318,-0.1208,-1.942801137963766,0.0,3.5298688411712646,-1.6745281219482422,6.319913518382236e-05,1.9045255184173584,5.153005617647924,0.0,0.27684786915779114,-1.5416620413409632,0.0,-0.03166526183485985,0.47713905572891235,0.0,-0.007221564184874296,1.2144744396209717,0.0,0.008314976468682289
258.0,356.0,-0.7747,-0.4487,9.9159,-0.0611,0.0318,-0.1208,-1.9428373775877894,0.0,3.551830291748047,-1.6745003461837769,7.260798884090036e-05,1.9899815320968628,5.153086143523016,0.0,0.2742035388946533,-1.541650120412008,0.0,-0.022670477628707886,0.47710704803466797,0.0,0.006121250335127115,1.2144625186920166,0.0,-0.010500073432922363
258.0,356.0,-0.7747,-0.4487,9.9159,-0.0611,0.0318,-0.1208,-1.9428779087462367,0.0,3.556950569152832,-1.6745003461837769,6.994514114921913e-05,1.9564907550811768,5.153033691435613,0.0,0.2722826302051544,-1.5417097250567835,0.0,-0.01766657829284668,0.47710293531417847,0.0,9.157373278867453e-05,1.2144545316696167,0.0,-0.004725893028080463
258.0,356.0,-0.7747,-0.4487,9.9159,-0.0611,0.0318,-0.1208,-1.9428335628905238,0.0,3.5254321098327637,-1.6745002269744873,6.732885958626866e-05,1.9597413539886475,5.153066324978628,0.0,0.2672255039215088,-1.5417335669146937,0.0,-0.02080821990966797,0.47711899876594543,0.0,-0.002830835524946451,1.2144585847854614,0.0,0.012385787442326546
258.0,356.0,-0.7747,-0.4487,9.9159,-0.0611,0.0318,-0.1208,-1.9428817234435023,0.0,3.521261215209961,-1.6745045185089111,7.445767550962046e-05,1.9796795845031738,5.153058159142294,0.0,0.2700747549533844,-1.5416620413409632,0.0,-0.017723169177770615,0.47715094685554504,0.0,0.005382699891924858,1.214510440826416,0.0,0.018359169363975525
258.0,356.0,-0.7747,-0.4487,9.9159,-0.0611,0.0318,-0.1208,-1.9428736172118128,0.0,3.5188074111938477,-1.6744847297668457,8.35070968605578e-05,1.9664182662963867,5.153053986817159,0.0,0.28209298849105835,-1.5416820685016077,0.0,-0.003130295779556036,0.47704657912254333,0.0,0.010602978989481926,1.2144505977630615,0.0,0.008717327378690243
258.0,356.0,-0.7747,-0.4487,9.9159,-0.0611,0.0318,-0.1208,-1.94289030651235,0.0,3.5319595336914062,-1.6744847297668457,0.00012497555871959776,2.000234842300415,5.153069662838735,3.621833855049772e-08,0.28358766436576843,-1.5416939894305628,0.0,-0.017128396779298782,0.47713497281074524,0.0,0.00912161823362112,1.2144783735275269,0.0,-0.012052693404257298
258.0,356.0,-0.7747,-0.4487,9.9159,-0.0611,0.0318,-0.1208,-1.9428779087462367,0.0,3.5445547103881836,-1.6744563579559326,0.0001333943073404953,1.9562997817993164,5.153073864966192,1.5440444756098515e-10,0.268888920545578,-1.5417335669146937,0.0,-0.015050757676362991,0.4771350026130676,0.0,0.009978138841688633,1.2144664525985718,0.0,-0.016143307089805603
258.0,356.0,-0.7747,-0.4487,9.9159,-0.0611,0.0318,-0.1208,-1.9429103336729945,0.0,3.5442118644714355,-1.6744284629821777,0.00015035508840810508,1.9700677394866943,5.153105813055792,4.297904127861449e-14,0.2734742760658264,-1.5416978041278284,0.0,-0.009579241275787354,0.47712263464927673,0.0,-0.019093023613095284,1.2144625186920166,0.0,-0.018948188051581383
258.0,356.0,-0.7747,-0.4487,9.9159,-0.0611,0.0318,-0.1208,-1.9428779087462367,0.0,3.528831958770752,-1.6744325160980225,0.0006871121004223824,1.9791852235794067,5.153073507338323,1.1963375060192143e-17,0.265394926071167,-1.5416739622699183,0.0,-0.00902666337788105,0.47713497281074524,0.0,0.0008721139747649431,1.2144865989685059,0.0,-0.04951285943388939
249.0,352.0,-0.8207,-0.2034,9.7238,-0.0377,0.0235,-0.117,-1.9428779087462367,0.0,3.5353569984436035,-1.674424648284912,0.0023963735438883305,1.9796011447906494,5.153153914004125,0.00036190811078995466,0.29486942291259766,-1.5416458288775843,0.0,-0.013160048052668571,0.4771672785282135,0.0,0.001742213498800993,1.2144466638565063,0.0,-0.011331386864185333
249.0,352.0,-0.8207,-0.2034,9.7238,-0.0377,0.0235,-0.117,-1.9429336986937464,-4.327953995186817e-09,3.554297924041748,-1.6744163036346436,0.005853237584233284,1.9679968357086182,5.1530652222927,0.00035245169419795275,0.27053481340408325,-1.5416739622699183,0.0,-0.010957546532154083,0.47714728116989136,0.0,0.007052465807646513,1.2144585847854614,0.0,0.029039833694696426
249.0,352.0,-0.8207,-0.2034,9.7238,-0.0377,0.0235,-0.117,-1.9429780445494593,-0.003133221995085478,3.5208892822265625,-1.6744133234024048,0.007778774481266737,1.9295241832733154,5.153069692641058,0.0002948208129964769,0.27732348442077637,-1.5416820685016077,0.0,-0.007446981966495514,0.477094829082489,0.0,-0.004680999554693699,1.2144585847854614,0.0,0.02845989353954792
249.0,352.0,-0.8207,-0.2034,9.7238,-0.0377,0.0235,-0.117,-1.9429980717101039,-0.004654435906559229,3.5408027172088623,-1.6743563413619995,0.0069334679283201694,1.9818997383117676,5.153025436192312,0.00021111137175466865,0.2780248820781708,-1.5416620413409632,0.0,-0.013850405812263489,0.47714728116989136,0.0,-0.002914725337177515,1.2144783735275269,0.0,-0.06465452909469604
249.0,352.0,-0.8207,-0.2034,9.7238,-0.0377,0.0235,-0.117,-1.9430376491942347,-0.005486642010509968,3.4540796279907227,-1.6742961406707764,0.006232143845409155,1.995498776435852,5.153058129339971,0.00018504959007259458,0.2650853395462036,-1.5417259375201624,0.0,-0.013972628861665726,0.4770907163619995,0.0,-0.0033193393610417843,1.2144427299499512,0.0,-0.03267274796962738
249.0,352.0,-0.8207,-0.2034,9.7238,-0.0377,0.0235,-0.117,-1.9430457554259242,-0.0036066537722945213,3.5646584033966064,-1.6742123365402222,0.006639412604272366,2.0068724155426025,5.153077947884359,0.00013401239993982017,0.26638108491897583,-1.5416620413409632,0.0,-0.015458626672625542,0.47709888219833374,0.0,0.004019471816718578,1.2144783735275269,0.0,-0.0030532358214259148
249.0,352.0,-0.8207,-0.2034,9.7238,-0.0377,0.0235,-0.117,-1.9430371723570765,-0.0024199611507356167,3.557424545288086,-1.6742169857025146,0.007050293497741222,1.9999053478240967,5.153037625342169,0.0001227984030265361,0.2697621285915375,-1.5416982809649866,0.0,-0.006125241052359343,0.47711122035980225,0.0,0.00323391892015934,1.2145143747329712,0.0,-0.031956832855939865
249.0,352.0,-0.8207,-0.2034,9.7238,-0.0377,0.0235,-0.117,-1.9430252514281214,-0.0012150241527706385,3.510460138320923,-1.674120306968689,0.007660550530999899,2.015864849090576,5.15304588058547,0.00011138962872792035,0.2758287787437439,-1.5417140165912073,0.0,-0.014438960701227188,0.4771468937397003,0.0,0.001288398983888328,1.2144585847854614,0.0,0.006749717518687248
249.0,352.0,-0.8207,-0.2034,9.7238,-0.0377,0.0235,-0.117,-1.9430982075133265,-0.0008135371608659625,3.552333116531372,-1.6741480827331543,0.008241681382060051,1.973396897315979,5.153053986817159,0.0001019275005091913,0.26121097803115845,-1.5417497793780726,0.0,-0.010523300617933273,0.47710296511650085,0.0,0.00320912036113441,1.2144545316696167,0.0,0.053235966712236404
249.0,352.0,-0.8207,-0.2034,9.7238,-0.0377,0.0235,-0.117,-1.9430738888182582,-0.0005038472590968013,3.562321186065674,-1.6740682125091553,0.00896561797708273,1.9715051651000977,5.153017687588491,9.394700464326888e-05,0.2778124213218689,-1.5416696707354944,0.0,-0.005897581111639738,0.47710704803466797,0.0,-0.011811009608209133,1.2144783735275269,2.1732128985263444e-08,0.0055625708773732185
249.0,352.0,-0.8207,-0.2034,9.7238,-0.0377,0.0235,-0.117,-1.9430777035155238,-0.0010295698884874582,3.525702476501465,-1.6740247011184692,0.009502530097961426,1.972917914390564,5.153062271862783,8.712577982805669e-05,0.2775648236274719,-1.5417259375201624,0.0,-0.012996826320886612,0.477126806974411,0.0,0.009928420186042786,1.2144782543182373,5.2480524944222354e-14,0.0061342790722846985
249.0,352.0,-0.8207,-0.2034,9.7238,-0.0377,0.0235,-0.117,-1.9431301556029261,-0.0027609968092292547,3.5071516036987305,-1.6739362478256226,0.009667445905506611,1.9876879453659058,5.153045910387792,6.616899918299168e-05,0.29107117652893066,-1.5417302290545862,0.0,-0.015431874431669712,0.477115273475647,0.0,-0.0007808760274201632,1.2144427299499512,1.2673429327850711e-19,-0.031139101833105087
249.0,352.0,-0.8207,-0.2034,9.7238,-0.0377,0.0235,-0.117,-1.943101545373434,-0.002668807515874505,3.4931721687316895,-1.6738922595977783,0.009597557596862316,1.9461719989776611,5.153025823622503,5.705996591132134e-05,0.2782011330127716,-1.5416539351092737,0.0,-0.012648144736886024,0.4770665764808655,0.0,0.0018102606991305947,1.2144782543182373,3.060484489418068e-25,0.011247510090470314
249.0,352.0,-0.8207,-0.2034,9.7238,-0.0377,0.0235,-0.117,-1.943125387231344,-0.002185801276937127,3.4891443252563477,-1.673779845237732,0.010081881657242775,1.9863163232803345,5.153033989458837,-4.3664753320626915e-05,0.2736789584159851,-1.5416739622699183,0.0,-0.015281477011740208,0.47708258032798767,0.0,-0.008092847652733326,1.2144386768341064,7.390709141811985e-31,0.014724209904670715
249.0,352.0,-0.8207,-0.2034,9.7238,-0.0377,0.0235,-0.117,-1.9431458912291468,-0.0013474766165018082,3.5416176319122314,-1.6737761497497559,0.010267645120620728,2.0208041667938232,5.153041827469625,-4.218457979732193e-05,0.2790603041648865,-1.5416815916644495,0.0,-0.003455314552411437,0.477115273475647,0.0,0.003655489068478346,1.214418888092041,1.7847692373357326e-36,0.039112769067287445
249.0,352.0,-0.8207,-0.2034,9.7238,-0.0377,0.0235,-0.117,-1.9431210956969203,-0.0008990518399514258,3.5318660736083984,-1.6737046241760254,0.01060559507459402,2.005880832672119,5.152993517905035,-5.903290002606809e-05,0.27548205852508545,-1.5416939894305628,0.0,-0.013123870827257633,0.47713905572891235,0.0,-0.01021540816873312,1.2144862413406372,4.310394076263137e-42,0.005414207465946674
248.0,337.0,-0.9392,-0.1005,9.4594,-0.0257,0.0276,-0.1132,-1.9431091747679652,-0.0006997312302701175,3.5247623920440674,-1.6736725568771362,0.011397937312722206,1.9476165771484375,5.1530819711978815,-5.6639935792190954e-05,0.2786128520965576,-1.5416858831988733,0.0,-0.01175561174750328,0.47714319825172424,0.0,0.0032263663597404957,1.2144585847854614,1.401298464324817e-45,-0.004983163438737392
248.0,337.0,-0.9392,-0.1005,9.4594,-0.0257,0.0276,-0.1132,-1.9431091747679652,-0.0005247843218967319,3.502148151397705,-1.673604130744934,0.01161758042871952,2.0306825637817383,5.153054195433416,-7.100876973709092e-05,0.2608867585659027,-1.5416739622699183,0.0,-0.0007981318049132824,0.4770747423171997,0.0,0.003994303289800882,1.2144466638565063,0.0,0.019738519564270973
248.0,337.0,-0.9392,-0.1005,9.4594,-0.0257,0.0276,-0.1132,-1.9431458912291468,-0.00047971316962502897,3.510218620300293,-1.6735284328460693,0.012070944532752037,1.9897656440734863,5.153001683741369,-8.370048453798518e-05,0.276008665561676,-1.5416982809649866,0.0,-0.005078774876892567,0.4770866334438324,0.0,-0.0006364661385305226,1.2144228219985962,0.0,0.0631050243973732
248.0,337.0,-0.9392,-0.1005,9.4594,-0.0257,0.0276,-0.1132,-1.9431334934630335,-0.00040192014421336353,3.539905548095703,-1.6734766960144043,0.012669858522713184,2.0195858478546143,5.153013902693548,-0.00029012252343818545,0.2743905782699585,-1.5416982809649866,0.0,-0.001830838155001402,0.4771149158477783,0.0,-0.008617784827947617,1.2144664525985718,0.0,-0.0007188743911683559
248.0,337.0,-0.9392,-0.1005,9.4594,-0.0257,0.0276,-0.1132,-1.9431091747679652,-0.00028728944016620517,3.5542635917663574,-1.6733927726745605,0.012947860173881054,1.9983947277069092,5.153001653939047,-0.0003256583877373487,0.2784213423728943,-1.5416458288775843,0.0,-0.005451603792607784,0.4771230220794678,0.0,0.0003329871688038111,1.214406967163086,0.0,0.01530082244426012
248.0,337.0,-0.9392,-0.1005,9.4594,-0.0257,0.0276,-0.1132,-1.943129678765768,-0.00031797500560060143,3.537863254547119,-1.6732560396194458,0.013212742283940315,1.9696747064590454,5.152997988253393,-0.0005462156841531396,0.28549623489379883,-1.5416620413409632,0.0,-0.002332134637981653,0.47715499997138977,0.0,0.0032816436141729355,1.2144386768341064,0.0,0.04979334771633148
248.0,337.0,-0.9392,-0.1005,9.4594,-0.0257,0.0276,-0.1132,-1.9431940517821253,-0.000498376612085849,3.5389389991760254,-1.6731919050216675,0.014391130767762661,2.0204734802246094,5.153026181250372,-0.0005515475641004741,0.26249435544013977,-1.5416701475726526,0.0,0.0031442022882401943,0.4771149158477783,0.0,0.00032487878343090415,1.2144465446472168,-0.000457466027000919,0.00874915812164545
248.0,337.0,-0.9392,-0.1005,9.4594,-0.0257,0.0276,-0.1132,-1.9431539974608363,-0.00044964643893763423,3.540156364440918,-1.6730722188949585,0.015209219418466091,1.9637501239776611,5.1529618976409814,-0.0005479048704728484,0.26659801602363586,-1.5417102018939417,0.0,-0.006213539279997349,0.4771108329296112,0.0,0.0009767529554665089,1.2144426107406616,-0.0006263216491788626,-0.0006864461465738714
248.0,337.0,-0.9392,-0.1005,9.4594,-0.0257,0.0276,-0.1132,-1.943129678765768,-0.0004196448717266321,3.5475611686706543,-1.6730161905288696,0.015793511644005775,2.0061194896698,5.152905362635412,-0.0005134879611432552,0.26252758502960205,-1.5417102018939417,0.0,-0.013745328411459923,0.4771108329296112,0.0,0.009852154180407524,1.2144426107406616,-0.000715996662620455,-0.01524193212389946
248.0,337.0,-0.9392,-0.1005,9.4594,-0.0257,0.0276,-0.1132,-1.9431454143919886,-0.000423207733547315,3.528357982635498,-1.672944188117981,0.01639353483915329,1.9728494882583618,5.152990239649572,-0.0005384734249673784,0.2654981315135956,-1.5416820685016077,0.0,-0.011413782835006714,0.477070689201355,0.0,0.008171026594936848,1.2144306898117065,-0.0006577359163202345,0.0206931009888649
248.0,337.0,-0.9392,-0.1005,9.4594,-0.0257,0.0276,-0.1132,-1.9431692562498988,-0.0005679746391251683,3.575451135635376,-1.6728322505950928,0.018121492117643356,2.003481388092041,5.152917670994558,-0.0006516723078675568,0.26714104413986206,-1.5416858831988733,0.0,-0.0195576511323452,0.47714686393737793,0.0,0.0027132106479257345,1.2143950462341309,-0.0005620408337563276,-0.01055206824094057
248.0,337.0,-0.9392,-0.1005,9.4594,-0.0257,0.0276,-0.1132,-1.9431778393187464,-0.001220997772179544,3.5759758949279785,-1.672784686088562,0.017496734857559204,2.0062427520751953,5.152901756554403,-0.0009481365559622645,0.26577576994895935,-1.5416701475726526,0.0,-0.018600400537252426,0.47715094685554504,0.0,0.01413230411708355,1.2143909931182861,-0.000506686745211482,-0.04343515262007713
248.0,337.0,-0.9392,-0.1005,9.4594,-0.0257,0.0276,-0.1132,-1.9431811771788539,-0.0019526933319866657,3.5386672019958496,-1.6726163625717163,0.01769089885056019,1.982138752937317,5.152934062271871,-0.0009334954665973783,0.2592785954475403,-1.5416777769671839,0.0,-0.025678737089037895,0.4770907461643219,0.0,-0.008860778994858265,1.214438557624817,-0.0003837021067738533,0.00257250783033669
248.0,337.0,-0.9392,-0.1005,9.4594,-0.0257,0.0276,-0.1132,-1.9432178936400355,-0.0025475851725786924,3.5348458290100098,-1.672476053237915,0.017537575215101242,1.9710627794265747,5.152929979353704,-0.0007999828667379916,0.27583450078964233,-1.5416777769671839,0.0,-0.0076465485617518425,0.4771386682987213,0.0,-0.000321937317494303,1.2144187688827515,-0.00030546137713827193,-0.0429806262254715
248.0,337.0,-0.9392,-0.1005,9.4594,-0.0257,0.0276,-0.1132,-1.9432217083373011,-0.0029768559616059065,3.537790536880493,-1.6724127531051636,0.018588310107588768,2.0000088214874268,5.1529500661189935,-0.0006501359166577458,0.27753686904907227,-1.541638199483053,0.0,-0.011604206636548042,0.4771308898925781,0.0,0.0029197977855801582,1.2144029140472412,-0.0003045178309548646,-0.04027802497148514
248.0,337.0,-0.9392,-0.1005,9.4594,-0.0257,0.0276,-0.1132,-1.9432217083373011,-0.002880222164094448,3.5348153114318848,-1.672256350517273,0.01852528005838394,2.007720470428467,5.152941900282659,-0.0005002792458981276,0.2758420705795288,-1.5416701475726526,0.0,-0.004775790497660637,0.4771709144115448,0.0,-0.013012784533202648,1.2144346237182617,-0.0002604584733489901,-0.008258162066340446
248.0,357.0,-0.859,-0.0305,9.4451,-0.0289,-0.0131,-0.1161,-1.9432536564269007,-0.0023035570047795773,3.564624547958374,-1.6721439361572266,0.019833946600556374,2.009182929992676,5.152934062271871,-0.0004606196889653802,0.27768397331237793,-1.541666332875387,0.0,-0.006779832765460014,0.4770866632461548,0.0,0.006726257503032684,1.2144068479537964,-0.00022753157827537507,-0.005554039962589741
248.0,357.0,-0.859,-0.0305,9.4451,-0.0289,-0.0131,-0.1161,-1.9432898960509242,-0.0020699200686067343,3.6064682006835938,-1.671995759010315,0.02006996050477028,1.960616946220398,5.152974265604772,-0.0003871713997796178,0.2763640582561493,-1.5416777769671839,0.0,-0.0150823462754488,0.477110892534256,0.0,0.0068397801369428635,1.2143669128417969,-0.00017989556363318115,-0.005475911311805248
248.0,357.0,-0.859,-0.0305,9.4451,-0.0289,-0.0131,-0.1161,-1.943294187585348,-0.0017041697865352035,3.4868874549865723,-1.671944499015808,0.02073025517165661,1.9997472763061523,5.152945983200826,-0.00034956412855535746,0.2783068120479584,-1.5416858831988733,0.0,-0.004792933817952871,0.47717130184173584,0.0,-0.0010999470250681043,1.214398980140686,-0.00015661549696233124,0.023901697248220444
248.0,357.0,-0.859,-0.0305,9.4451,-0.0289,-0.0131,-0.1161,-1.9432860813536585,-0.0017669112421572208,3.5343360900878906,-1.6718523502349854,0.019806422293186188,2.0273895263671875,5.152929979353704,-0.00023864478862378746,0.2619066834449768,-1.5416777769671839,0.0,-0.010228917002677917,0.47718730568885803,0.0,0.013535210862755775,1.214398980140686,-0.00014180717698764056,0.014295363798737526
248.0,357.0,-0.859,-0.0305,9.4451,-0.0289,-0.0131,-0.1161,-1.9432817898192347,-0.0016659137327224016,3.5395750999450684,-1.6717000007629395,0.018747985363006592,2.0390398502349854,5.152922171145239,-0.00024398256209678948,0.2662231922149658,-1.541666332875387,0.0,-0.006647926289588213,0.4771549701690674,0.0,0.003610324813053012,1.2144148349761963,-0.00012955861166119576,0.02388961799442768
248.0,357.0,-0.859,-0.0305,9.4451,-0.0289,-0.0131,-0.1161,-1.9433056316771449,-0.0014985264278948307,3.532689094543457,-1.6715922355651855,0.01734963431954384,1.9920240640640259,5.152946013003149,-0.00025074361474253237,0.2597462832927704,-1.5416620413409632,0.0,-0.01220738235861063,0.47717124223709106,0.0,0.016410231590270996,1.2144148349761963,-0.00011925783473998308,-0.030416779220104218
248.0,357.0,-0.859,-0.0305,9.4451,-0.0289,-0.0131,-0.1161,-1.9433056316771449,-0.0017444822005927563,3.5382306575775146,-1.6714798212051392,0.014828603714704514,1.9706623554229736,5.152930366783895,-0.00043048273073509336,0.26285049319267273,-1.5417259375201624,0.0,-0.007631382904946804,0.4771308898925781,0.0,0.01368643157184124,1.2143950462341309,-0.00011047445877920836,0.0021105988416820765
248.0,357.0,-0.859,-0.0305,9.4451,-0.0289,-0.0131,-0.1161,-1.9433056316771449,-0.001927112927660346,3.522516965866089,-1.6714967489242554,0.012823008932173252,1.9774034023284912,5.15295838096694,-0.001206313376314938,0.27559635043144226,-1.5416620413409632,0.0,-0.019971495494246483,0.47717535495758057,0.0,0.011689173988997936,1.2144346237182617,-8.231836545746773e-05,0.06423291563987732
248.0,357.0,-0.859,-0.0305,9.4451,-0.0289,-0.0131,-0.1161,-1.9433371029295863,-0.0022203102707862854,3.5067973136901855,-1.6713322401046753,0.01051529124379158,1.975583553314209,5.152906226902761,-0.0018180470215156674,0.26265618205070496,-1.5417102018939417,0.0,-0.021414799615740776,0.47718319296836853,0.0,0.01590512879192829,1.2144230604171753,-6.4363848650828e-05,0.032484956085681915
248.0,357.0,-0.859,-0.0305,9.4451,-0.0289,-0.0131,-0.1161,-1.943345685998434,-0.0026806523092091084,3.500236988067627,-1.6713321208953857,0.008908471092581749,1.9695324897766113,5.152857917338171,-0.002420096192508936,0.23383685946464539,-1.5416777769671839,0.0,-0.01500982791185379,0.4771750867366791,1.6386971779525084e-08,-0.0019879695028066635,1.2143950462341309,4.192934284219518e-05,0.0894528180360794
248.0,357.0,-0.859,-0.0305,9.4451,-0.0289,-0.0131,-0.1161,-1.9433781109251917,-0.0030735309701412916,3.4712374210357666,-1.6712684631347656,0.007132925093173981,2.007995128631592,5.1529103992278955,-0.002977438736706972,0.2539099454879761,-1.5416739622699183,0.0,-0.02837258204817772,0.4771750867366791,4.561373414396774e-12,0.015863614156842232,1.2144228219985962,6.398677942343056e-05,0.10914582014083862
248.0,357.0,-0.859,-0.0305,9.4451,-0.0289,-0.0131,-0.1161,-1.9433700046935023,-0.0035494661424309015,3.4567606449127197,-1.6712605953216553,0.005564189050346613,2.001005172729492,5.152818429261007,-0.0040349713526666164,0.22974291443824768,-1.5416777769671839,0.0,-0.026964742690324783,0.47716689109802246,1.944584867208301e-14,0.006191547028720379,1.214470386505127,8.1464066170156e-05,0.10662595927715302
248.0,357.0,-0.859,-0.0305,9.4451,-0.0289,-0.0131,-0.1161,-1.9434496364989222,-0.0045285276137292385,3.447930335998535,-1.6711722612380981,0.003861431498080492,1.9726629257202148,5.152794199972906,-0.0079022366553545,0.24966087937355042,-1.5416939894305628,0.0,-0.024207551032304764,0.4771428108215332,5.412823428724472e-18,0.011505651287734509,1.2144584655761719,0.0005146858748048544,0.10647331923246384
248.0,357.0,-0.859,-0.0305,9.4451,-0.0289,-0.0131,-0.1161,-1.943437238732809,-0.005755344871431589,3.4529380798339844,-1.6711887121200562,0.0028159399516880512,2.00532865524292,5.152681994229116,-0.011123772710561752,0.23439966142177582,-1.541689697896139,0.0,-0.028702832758426666,0.477102667093277,1.5066792944807753e-21,0.019912082701921463,1.2144267559051514,0.0005411205347627401,0.1093234121799469
248.0,357.0,-0.859,-0.0305,9.4451,-0.0289,-0.0131,-0.1161,-1.9434691868224085,-0.007020920980721712,3.417123317718506,-1.671135663986206,0.0018409417243674397,1.9817067384719849,5.152614104538717,-0.012280268594622612,0.21974974870681763,-1.541689697896139,0.0,-0.032841287553310394,0.4771386682987213,4.193897158288593e-25,0.01614551991224289,1.2144110202789307,0.000631697999779135,0.15682236850261688
248.0,357.0,-0.859,-0.0305,9.4451,-0.0289,-0.0131,-0.1161,-1.9435168705382289,-0.00823245383799076,3.410183906555176,-1.671196460723877,0.0011759449262171984,2.034696102142334,5.15259878614501,-0.012840124778449535,0.22069162130355835,-1.5416777769671839,0.0,-0.03578607738018036,0.4771709144115448,1.1673866672389033e-28,0.026160113513469696,1.2144784927368164,0.0006058044382371008,0.14553211629390717
266.0,401.0,-0.4887,-0.1765,9.6915,-0.0298,-0.0226,-0.1124,-1.94358553508901,-0.00965077243745327,3.3885269165039062,-1.6711883544921875,0.0007624314748682082,1.981008768081665,5.1525390026863,-0.013484200462698936,0.21513676643371582,-1.5417059103595179,0.0,-0.03163118660449982,0.4771590828895569,0.00020693871192634106,0.02793339639902115,1.2144744396209717,0.0005588227650150657,0.17338606715202332
266.0,401.0,-0.4887,-0.1765,9.6915,-0.0298,-0.0226,-0.1124,-1.9436818561949671,-0.011891094967722893,3.3926589488983154,-1.6711764335632324,0.0006391638889908791,1.9734320640563965,5.152418899327078,-0.013781429268419743,0.21801447868347168,-1.5417140165912073,0.0,-0.038901541382074356,0.47714686393737793,0.00021597137674689293,0.0187084823846817,1.2144347429275513,0.0006568614044226706,0.16174672544002533
266.0,401.0,-0.4887,-0.1765,9.6915,-0.0298,-0.0226,-0.1124,-1.9437090359129847,-0.012396665289998055,3.3438103199005127,-1.6712408065795898,0.0005047113518230617,2.0394351482391357,5.152363556414404,-0.014985290355980396,0.21281108260154724,-1.5416739622699183,0.0,-0.046138595789670944,0.4771428108215332,0.0002261478075524792,0.020282253623008728,1.2144466638565063,0.0007687726174481213,0.23967218399047852
266.0,401.0,-0.4887,-0.1765,9.6915,-0.0298,-0.0226,-0.1124,-1.9438253841795863,-0.014600783586502075,3.397296905517578,-1.6711199283599854,0.0004170023603364825,2.0295891761779785,5.152271884470739,-0.014908994548022747,0.2117604911327362,-1.541666332875387,0.0,-0.03387242928147316,0.4771591126918793,0.00020507357839960605,0.017669931054115295,1.2144505977630615,0.000784248870331794,0.21252495050430298
266.0,401.0,-0.4887,-0.1765,9.6915,-0.0298,-0.0226,-0.1124,-1.9439169369139613,-0.016781382262706757,3.378298282623291,-1.6712164878845215,0.0003552674606908113,2.020160436630249,5.152156102448263,-0.01403244212269783,0.2194681018590927,-1.5416777769671839,0.0,-0.04865647107362747,0.4771628677845001,0.00018682765949051827,0.016529308632016182,1.2144585847854614,0.0007428615354001522,0.272677481174469
266.0,401.0,-0.4887,-0.1765,9.6915,-0.0298,-0.0226,-0.1124,-1.9439650974669398,-0.01797439716756344,3.2949788570404053,-1.6712124347686768,0.00032335350988432765,1.9751081466674805,5.152116435557165,-0.012269624508917332,0.2214057445526123,-1.541689697896139,0.0,-0.04322861135005951,0.47716689109802246,0.00019823716138489544,0.011570633389055729,1.2145143747329712,0.0006107059307396412,0.22035324573516846
266.0,401.0,-0.4887,-0.1765,9.6915,-0.0298,-0.0226,-0.1124,-1.9441052875914515,-0.019750965759158134,3.349860191345215,-1.6712325811386108,0.00028495860169641674,1.9912171363830566,5.15204809883193,-0.010893940925598145,0.20921623706817627,-1.541701618825094,0.0,-0.04106578975915909,0.4771709144115448,0.0001859432231867686,0.03286086022853851,1.2144783735275269,0.0005814959295094013,0.23314470052719116
266.0,401.0,-0.4887,-0.1765,9.6915,-0.0298,-0.0226,-0.1124,-1.9442855320372523,-0.021839026361703873,3.3154561519622803,-1.6712164878845215,0.0002547148906160146,2.016054391860962,5.152012455254354,-0.008889959193766117,0.19847580790519714,-1.5417221228228968,0.0,-0.05729793757200241,0.4771427810192108,0.00017261291213799268,0.020197924226522446,1.2144181728363037,0.0005283148493617773,0.2827719748020172
266.0,401.0,-0.4887,-0.1765,9.6915,-0.0298,-0.0226,-0.1124,-1.9444052181639613,-0.02386949583888054,3.287017822265625,-1.6711643934249878,0.00023027497809380293,1.9618228673934937,5.151920485287466,-0.006196507252752781,0.2093222439289093,-1.5416458288775843,0.0,-0.05162139981985092,0.4772428870201111,0.0001771157985785976,0.030024215579032898,1.2144906520843506,0.0004959553480148315,0.2316102236509323
266.0,401.0,-0.4887,-0.1765,9.6915,-0.0298,-0.0226,-0.1124,-1.944533487359518,-0.024942925199866295,3.2693886756896973,-1.6712164878845215,0.00021011463832110167,2.0073585510253906,5.1518844840820215,-0.004335284698754549,0.20076441764831543,-1.5416620413409632,0.0,-0.0418102890253067,0.47719070315361023,0.00015841472486499697,0.01947537623345852,1.214498519897461,0.00040313784847967327,0.32923635840415955
266.0,401.0,-0.4887,-0.1765,9.6915,-0.0298,-0.0226,-0.1124,-1.944665094415182,-0.0262007899582386,3.3115034103393555,-1.6711684465408325,0.00019320017599966377,2.0208051204681396,5.151872652560034,-0.0031782377045601606,0.20423226058483124,-1.5417259375201624,0.0,-0.03638102114200592,0.4771468937397003,0.00014328073302749544,0.03165723755955696,1.214430809020996,0.0003382026916369796,0.2827993333339691
266.0,401.0,-0.4887,-0.1765,9.6915,-0.0298,-0.0226,-0.1124,-1.944869180718893,-0.027565866708755493,3.307332992553711,-1.6712243556976318,0.0001788061490515247,2.022303819656372,5.151876735478201,-0.0028620350640267134,0.22020402550697327,-1.541666332875387,0.0,-0.04057812690734863,0.4771549701690674,0.000156825699377805,0.016185322776436806,1.214482307434082,0.0002912862109951675,0.26752880215644836
266.0,401.0,-0.4887,-0.1765,9.6915,-0.0298,-0.0226,-0.1124,-1.9449922047057093,-0.028452835977077484,3.2701945304870605,-1.6711845397949219,0.0001664085139054805,2.0238442420959473,5.1518771825130365,-0.0026375658344477415,0.20546148717403412,-1.5417102018939417,0.0,-0.05602393299341202,0.47715064883232117,0.0001443565997760743,0.031149521470069885,1.2144625186920166,0.000255802646279335,0.2906965911388397
266.0,401.0,-0.4887,-0.1765,9.6915,-0.0298,-0.0226,-0.1124,-1.9451648197569789,-0.03047848865389824,3.2824220657348633,-1.671208381652832,0.00015561850159429014,1.996185064315796,5.151808726578512,-0.002327260095626116,0.2019256204366684,-1.5416625181781214,0.0,-0.038955435156822205,0.47715091705322266,0.00015298009384423494,0.01298863161355257,1.2144466638565063,0.00022802525199949741,0.3347271978855133
266.0,401.0,-0.4887,-0.1765,9.6915,-0.0298,-0.0226,-0.1124,-1.9452845058836878,-0.031746335327625275,3.2982518672943115,-1.671220302581787,0.00014917016960680485,2.0321598052978516,5.151800560742178,-0.0021488037891685963,0.2140360176563263,-1.5416939894305628,0.0,-0.047057297080755234,0.4771866202354431,0.0001485456887166947,0.027702953666448593,1.2145024538040161,0.00021263252710923553,0.2931501269340515
266.0,401.0,-0.4887,-0.1765,9.6915,-0.0298,-0.0226,-0.1124,-1.9454637966551722,-0.036000728607177734,3.2953693866729736,-1.6711808443069458,0.00014044133422430605,1.99800443649292,5.151780503779211,-0.0015542213805019855,0.22543758153915405,-1.541706387196676,0.0,-0.04052584245800972,0.477134644985199,0.00013874282012693584,0.0210273377597332,1.2144466638565063,0.00019308167975395918,0.2659111022949219
283.0,418.0,-0.7256,-0.1418,9.618,-0.0399,0.0385,-0.1084,-1.945712228814596,-0.03742647171020508,3.220578193664551,-1.6711318492889404,0.00010255440429318696,2.034409284591675,5.151784676104345,-0.0010228613391518593,0.21624577045440674,-1.541638199483053,-3.065578130190261e-05,-0.04693722724914551,0.47715091705322266,0.00013928893895354122,0.025202026590704918,1.2144263982772827,0.00017742575437296182,0.25418856739997864
283.0,418.0,-0.7256,-0.1418,9.618,-0.0399,0.0385,-0.1084,-1.9459368191161097,-0.03911007568240166,3.2745490074157715,-1.6711726188659668,0.00011429192818468437,2.0214762687683105,5.151808339148321,-0.0007167779258452356,0.2122306525707245,-1.5416744391070765,-2.9285198252182454e-05,-0.04876675084233284,0.4771665930747986,0.00014005348202772439,0.02100636437535286,1.2144545316696167,5.9116006013937294e-05,0.24632376432418823
283.0,418.0,-0.7256,-0.1418,9.618,-0.0399,0.0385,-0.1084,-1.9461480579771937,-0.039599157869815826,3.2757105827331543,-1.6711684465408325,0.0011092512868344784,2.0033648014068604,5.151808339148321,-0.0005517974495887756,0.20376592874526978,-1.541706387196676,-2.7922364097321406e-05,-0.03855295106768608,0.4771387577056885,0.00013681777636520565,0.02644164487719536,1.2144944667816162,5.381360824685544e-05,0.2625058889389038
283.0,418.0,-0.7256,-0.1418,9.618,-0.0399,0.0385,-0.1084,-1.9463516674437464,-0.038670241832733154,3.3083925247192383,-1.6711969375610352,0.0014504934661090374,1.9919822216033936,5.1518325982387445,-0.00044859075569547713,0.21851836144924164,-1.5417221228228968,-2.6680721930461004e-05,-0.04614778608083725,0.477134644985199,0.00012945858179591596,0.03537316620349884,1.2144386768341064,4.93842780997511e-05,0.2971213459968567
283.0,418.0,-0.7256,-0.1418,9.618,-0.0399,0.0385,-0.1084,-1.9466034374632777,-0.03826148435473442,3.274296760559082,-1.6711115837097168,0.0013534806203097105,1.9949870109558105,5.151828396111288,-0.00037792298826389015,0.22059327363967896,-1.5416339079486292,-2.5544775780872442e-05,-0.04661361873149872,0.4771747589111328,0.00014298062887974083,0.02910950593650341,1.2144783735275269,4.5628665247932076e-05,0.22161121666431427
283.0,418.0,-0.7256,-0.1418,9.618,-0.0399,0.0385,-0.1084,-1.946827074090475,-0.0375870019197464,3.284406900405884,-1.6711808443069458,0.0009316502255387604,2.0192043781280518,5.1518165645893,-0.0003264942206442356,0.2224053144454956,-1.5416739622699183,-2.4501630832673982e-05,-0.043197691440582275,0.4771428406238556,0.00015418013208545744,0.031628161668777466,1.2144664525985718,4.2403957195347175e-05,0.18637023866176605
283.0,418.0,-0.7256,-0.1418,9.618,-0.0399,0.0385,-0.1084,-1.9470669231810511,-0.036652982234954834,3.3460724353790283,-1.6711927652359009,0.0006137261516414583,2.0424230098724365,5.151828813343801,-0.00028739002300426364,0.21904048323631287,-1.5417183081256312,-2.3540344045613892e-05,-0.04308003932237625,0.4772309958934784,0.0001641771523281932,0.030869390815496445,1.2144585847854614,3.96049435948953e-05,0.2789885103702545
283.0,418.0,-0.7256,-0.1418,9.618,-0.0399,0.0385,-0.1084,-1.9472032986082972,-0.03610370308160782,3.311717987060547,-1.6711561679840088,0.0005000097444280982,2.010148525238037,5.1518128392990015,-0.00026614012313075364,0.21302638947963715,-1.5416701475726526,-2.294031946803443e-05,-0.0252731591463089,0.477186918258667,0.00015741745301056653,0.029583141207695007,1.2144149541854858,3.793559153564274e-05,0.20316730439662933
283.0,418.0,-0.7256,-0.1418,9.618,-0.0399,0.0385,-0.1084,-1.947418829003805,-0.036166224628686905,3.3119802474975586,-1.6711602210998535,0.0003912830143235624,2.017578363418579,5.1517927823360345,-0.00023957010125741363,0.22248366475105286,-1.5416539351092737,-2.2095533495303243e-05,-0.05277388542890549,0.4771265983581543,0.00026193642406724393,0.02341267466545105,1.2144505977630615,1.9926894310628995e-05,0.2251611351966858
283.0,418.0,-0.7256,-0.1418,9.618,-0.0399,0.0385,-0.1084,-1.9475742779173792,-0.032691873610019684,3.3000197410583496,-1.6711523532867432,0.0003214027383364737,2.0296595096588135,5.1518165645893,-0.00021782441763207316,0.23245254158973694,-1.541638199483053,-2.131075416400563e-05,-0.04821983724832535,0.4772070050239563,0.00026740768225863576,0.030753709375858307,1.2144783735275269,1.6838544979691505e-05,0.22187930345535278
283.0,418.0,-0.7256,-0.1418,9.618,-0.0399,0.0385,-0.1084,-1.9477621517577113,-0.03134908899664879,3.3347928524017334,-1.6711523532867432,0.0003181280626449734,2.0190677642822266,5.151812422066488,-0.00019969817367382348,0.23107260465621948,-1.5416582266436976,-2.0579807824105956e-05,-0.03800594061613083,0.47721508145332336,0.000270445947535336,0.03302210196852684,1.214498519897461,1.5943654943839647e-05,0.23906557261943817
283.0,418.0,-0.7256,-0.1418,9.618,-0.0399,0.0385,-0.1084,-1.9479385815062464,-0.025710036978125572,3.3292007446289062,-1.67118501663208,0.0002689070824999362,2.0236432552337646,5.151828813343801,-0.00018435739912092686,0.21655863523483276,-1.5416620413409632,-1.9897335732821375e-05,-0.04473220556974411,0.47723913192749023,0.0002704541548155248,0.03168439120054245,1.214426875114441,1.5139084098336753e-05,0.1974625289440155
283.0,418.0,-0.7256,-0.1418,9.618,-0.0399,0.0385,-0.1084,-1.948134561578268,-0.02238117903470993,3.3450374603271484,-1.6711405515670776,0.0010007460368797183,2.009643077850342,5.151832568436422,-0.00017120556731242687,0.2276543825864792,-1.5416858831988733,-5.538496328227893e-09,-0.0448068305850029,0.47722700238227844,0.00024674469023011625,0.01675761118531227,1.2144386768341064,1.4411823030968662e-05,0.1880272626876831
283.0,418.0,-0.7256,-0.1418,9.618,-0.0399,0.0385,-0.1084,-1.9481898746886195,-0.01918584667146206,3.3783090114593506,-1.6711405515670776,0.0009893355891108513,1.9874768257141113,5.151800560742178,-0.00015980527678038925,0.22854779660701752,-1.5416820685016077,-1.541660787744703e-12,-0.04480953514575958,0.4772190749645233,0.00025236199144273996,0.0287005752325058,1.2144862413406372,1.3751227015745826e-05,0.24169757962226868
283.0,418.0,-0.7256,-0.1418,9.618,-0.0399,0.0385,-0.1084,-1.94834627727651,-0.017923347651958466,3.3504843711853027,-1.6711002588272095,0.0009510425152257085,1.956945776939392,5.151804673462667,-0.00013114236935507506,0.22221261262893677,-1.5416939894305628,-4.2912692870218704e-16,-0.04770469665527344,0.4771747887134552,0.0002165122132282704,0.02696724608540535,1.2144744396209717,1.3148550351615995e-05,0.22092881798744202
283.0,418.0,-0.7256,-0.1418,9.618,-0.0399,0.0385,-0.1084,-1.948442121545309,-0.01590217463672161,3.303473949432373,-1.6710878610610962,0.0008498461102135479,1.9945120811462402,5.1518005905445,-0.00012339637032710016,0.22771798074245453,-1.5416744391070765,-1.1944905512981117e-19,-0.052629731595516205,0.47721102833747864,0.00022445702052209526,0.030128169804811478,1.2144427299499512,1.2596470696735196e-05,0.21072229743003845
272.0,400.0,-0.932,-0.1496,9.8602,-0.0524,0.0779,-0.1159,-1.9485498867430628,-0.01290151197463274,3.3873510360717773,-1.6711084842681885,0.0008004261180758476,2.0116052627563477,5.1518128392990015,-0.0001165478170150891,0.24569079279899597,-1.541666332875387,-3.3249086138097975e-23,-0.04955688863992691,0.4771866202354431,0.0002016020443988964,0.024243364110589027,1.2144427299499512,1.2088887160643935e-05,0.24030181765556335
272.0,400.0,-0.932,-0.1496,9.8602,-0.0524,0.0779,-0.1159,-1.9486223659911097,-0.010998828336596489,3.41849422454834,-1.6710959672927856,0.0009717576904222369,1.9740846157073975,5.151820647507467,-0.0001123894180636853,0.22619210183620453,-1.5416701475726526,-1.4174608965013654e-25,-0.05006283149123192,0.4771868586540222,0.00018759355589281768,0.023226413875818253,1.2144744396209717,1.1772629477491137e-05,0.18484091758728027
272.0,400.0,-0.932,-0.1496,9.8602,-0.0524,0.0779,-0.1159,-1.9485732517638148,-0.008377273567020893,3.3935673236846924,-1.6711363792419434,0.001318182097747922,1.9755034446716309,5.15179272273139,-0.00010667986498447135,0.23675863444805145,-1.5417221228228968,-3.9455533713033726e-29,-0.04289000481367111,0.4772229492664337,0.00016988621791824698,0.025957295671105385,1.2144825458526611,2.43849773706728e-10,0.13417334854602814
272.0,400.0,-0.932,-0.1496,9.8602,-0.0524,0.0779,-0.1159,-1.9486619434752406,-0.006359720136970282,3.3793506622314453,-1.671096920967102,0.0022675725631415844,2.013719081878662,5.151812809496679,-0.00010152265895158052,0.22450734674930573,-1.5416939894305628,-1.0982590822486845e-32,-0.04386727511882782,0.4771628677845001,0.0001808762754080817,0.028487689793109894,1.2144826650619507,5.888684222386223e-16,0.19064989686012268
272.0,400.0,-0.932,-0.1496,9.8602,-0.0524,0.0779,-0.1159,-1.9486733875670375,-0.004505544435232878,3.416645050048828,-1.67106032371521,0.002739082556217909,2.045067071914673,5.151832568436422,-9.684087854111567e-05,0.2406323403120041,-1.5416701475726526,-3.0570443899108784e-36,-0.046594031155109406,0.47716689109802246,0.00016672599304001778,0.03792818263173103,1.2144228219985962,1.422048075136356e-21,0.17448002099990845
272.0,400.0,-0.932,-0.1496,9.8602,-0.0524,0.0779,-0.1159,-1.9486972294249476,-0.003392352955415845,3.402672290802002,-1.6710400581359863,0.003147437470033765,2.0090718269348145,5.151864903956213,-9.25719432416372e-05,0.23529402911663055,-1.5416696707354944,-8.509398937597095e-40,-0.05888985097408295,0.4771425426006317,0.0001544620463391766,0.025040216743946075,1.2144744396209717,3.434078691146237e-27,0.15063178539276123
272.0,400.0,-0.932,-0.1496,9.8602,-0.0524,0.0779,-0.1159,-1.9487296543517054,-0.002608982613310218,3.4112186431884766,-1.6710845232009888,0.0039388928562402725,1.9942805767059326,5.151824730425634,-8.866350253811106e-05,0.2352672815322876,-1.5417059103595179,-2.368194404708941e-43,-0.04774204641580582,0.4771990478038788,0.0001643412688281387,0.02356700971722603,1.2144783735275269,8.292895913280306e-33,0.20172041654586792
272.0,400.0,-0.932,-0.1496,9.8602,-0.0524,0.0779,-0.1159,-1.948733469048971,-0.0017792030703276396,3.455883502960205,-1.671020269393921,0.005077095702290535,2.035203456878662,5.151836651354589,-8.507174061378464e-05,0.23242110013961792,-1.5416777769671839,-0.0,-0.055509500205516815,0.4772551655769348,0.0001538890937808901,0.036001142114400864,1.2144862413406372,2.002636413151908e-38,0.20080021023750305
272.0,400.0,-0.932,-0.1496,9.8602,-0.0524,0.0779,-0.1159,-1.9487577877440394,-0.0013218740932643414,3.455270767211914,-1.6709882020950317,0.006701043341308832,2.0295820236206055,5.151804673462667,-8.175964467227459e-05,0.23630066215991974,-1.541650120412008,-0.0,-0.06433592736721039,0.47719886898994446,0.00014461606042459607,0.0327453538775444,1.2144783735275269,4.90454462513686e-44,0.2066694051027298
272.0,400.0,-0.932,-0.1496,9.8602,-0.0524,0.0779,-0.1159,-1.948709627191061,-0.0009704008116386831,3.4449996948242188,-1.6709203720092773,0.007931969128549099,2.041302442550659,5.151816594391622,-7.869583350839093e-05,0.23553301393985748,-1.5416458288775843,-0.0,-0.05544199049472809,0.47716689109802246,0.0001238379772985354,0.03059355355799198,1.214482307434082,0.0,0.23679257929325104
272.0,400.0,-0.932,-0.1496,9.8602,-0.0524,0.0779,-0.1159,-1.9487134418883265,-0.000846195500344038,3.442640781402588,-1.6708402633666992,0.009116705507040024,2.0315957069396973,5.1518325386341,-7.677773828618228e-05,0.24057002365589142,-1.5416982809649866,-0.0,-0.0442473329603672,0.4771425426006317,0.00011737231398001313,0.034201480448246,1.2144625186920166,0.0,0.19302500784397125
272.0,400.0,-0.932,-0.1496,9.8602,-0.0524,0.0779,-0.1159,-1.9487816296019496,-0.0005407380522228777,3.404499053955078,-1.6708401441574097,0.01084346603602171,2.0356287956237793,5.1518283663089655,-7.406969962175936e-05,0.2331632375717163,-1.5416539351092737,-0.0,-0.054044757038354874,0.4771387577056885,0.00010885407391469926,0.024954283609986305,1.2144862413406372,0.0,0.2066957950592041
272.0,400.0,-0.932,-0.1496,9.8602,-0.0524,0.0779,-0.1159,-1.9488383732237757,-0.0005524334846995771,3.4322876930236816,-1.670768141746521,0.012240709736943245,1.9954662322998047,5.151804673462667,-7.15462228981778e-05,0.23435291647911072,-1.5416901747332972,-0.0,-0.045749738812446594,0.4771987795829773,0.00012176310701761395,0.021547317504882812,1.2144783735275269,0.0,0.16422855854034424
272.0,400.0,-0.932,-0.1496,9.8602,-0.0524,0.0779,-0.1159,-1.9487854442992152,-0.0008862405084073544,3.4275970458984375,-1.6706682443618774,0.013917243108153343,2.0018134117126465,5.151828396111288,-1.7777116227080114e-05,0.23328961431980133,-1.5416939894305628,-0.0,-0.057346828281879425,0.4772225618362427,0.00011406851990614086,0.02117825485765934,1.2144783735275269,0.0,0.1545669138431549
272.0,400.0,-0.932,-0.1496,9.8602,-0.0524,0.0779,-0.1159,-1.9487692318358363,-0.0014960559783503413,3.405029535293579,-1.67060387134552,0.015659375116229057,2.013352394104004,5.151820677309789,-4.948325305065282e-09,0.22075027227401733,-1.5416658560382288,-0.0,-0.0523860901594162,0.47715479135513306,0.00010727049084380269,0.028236743062734604,1.214426875114441,0.0,0.1589755117893219
272.0,400.0,-0.932,-0.1496,9.8602,-0.0524,0.0779,-0.1159,-1.9487611256041468,-0.0021553663536906242,3.394115686416626,-1.6704360246658325,0.018320078030228615,2.0047709941864014,5.1518165645893,-1.3773844261336099e-12,0.23077623546123505,-1.5416701475726526,-0.0,-0.05462063103914261,0.477190762758255,0.00011807197006419301,0.02286418154835701,1.2144625186920166,0.0,0.1344785988330841
272.0,400.0,-0.932,-0.1496,9.8602,-0.0524,0.0779,-0.1159,-1.9488097629942835,-0.0024289872962981462,3.366886615753174,-1.6703604459762573,0.021142255514860153,2.03348445892334,5.151836651354589,-3.8340006680290045e-16,0.2346387803554535,-1.5416858831988733,-0.0,-0.05692946910858154,0.4771865904331207,0.00011182069283677265,0.03425528481602669,1.2144906520843506,0.0,0.16520100831985474
248.0,332.0,-0.7077,-0.2895,9.5904,-0.0589,0.0999,-0.1151,-1.9488536320128382,-0.0027323465328663588,3.4408161640167236,-1.6701958179473877,0.024635056033730507,2.0736594200134277,5.151776420861044,-1.0672081345415146e-19,0.22124439477920532,-1.5417140165912073,-0.0,-0.06947433948516846,0.47718262672424316,0.00010616749204928055,0.020242612808942795,1.2144545316696167,0.0,0.1970321238040924
248.0,332.0,-0.7077,-0.2895,9.5904,-0.0589,0.0999,-0.1151,-1.9488259754576625,-0.003118651919066906,3.425276756286621,-1.6700843572616577,0.02874564565718174,2.0308008193969727,5.151788788824835,-2.97061287970204e-23,0.2349756509065628,-1.541638199483053,-0.0,-0.0630439817905426,0.47719478607177734,0.00011543167784111574,0.032334424555301666,1.2144783735275269,0.0,0.1947428584098816
248.0,332.0,-0.7077,-0.2895,9.5904,-0.0589,0.0999,-0.1151,-1.9488855801024378,-0.003433174453675747,3.39782452583313,-1.669935703277588,0.032508525997400284,2.0359179973602295,5.151824730425634,-1.2664188083143462e-25,0.21678897738456726,-1.5417020956622522,-0.0,-0.049520883709192276,0.477190762758255,0.00011190481018275023,0.022415854036808014,1.2144665718078613,0.0,0.18620333075523376
248.0,332.0,-0.7077,-0.2895,9.5904,-0.0589,0.0999,-0.1151,-1.9489456615843714,-0.004461965523660183,3.428762435913086,-1.6696994304656982,0.03803357854485512,2.088989734649658,5.151828813343801,-3.5251234662967467e-29,0.22456681728363037,-1.5416701475726526,-0.0,-0.06715215742588043,0.4772028923034668,0.00010691979696275666,0.03611204773187637,1.2145065069198608,0.0,0.17449155449867249
248.0,332.0,-0.7077,-0.2895,9.5904,-0.0589,0.0999,-0.1151,-1.9489132366576136,-0.006544987205415964,3.372382879257202,-1.6694598197937012,0.044097937643527985,2.101001262664795,5.151824730425634,-1.3524599751235655e-07,0.23552384972572327,-1.541666332875387,-0.0,-0.05246791988611221,0.47723478078842163,0.0001023595905280672,0.017428288236260414,1.2144664525985718,0.0,0.18028107285499573
248.0,332.0,-0.7077,-0.2895,9.5904,-0.0589,0.0999,-0.1151,-1.9489413700499476,-0.008424089290201664,3.380706787109375,-1.6691755056381226,0.05024726316332817,2.0530295372009277,5.15179272273139,-3.764622641400095e-11,0.23012053966522217,-1.5416701475726526,-0.0,-0.06304855644702911,0.47719886898994446,9.817257523536682e-05,0.025068333372473717,1.2144862413406372,0.0,0.18535709381103516
248.0,332.0,-0.7077,-0.2895,9.5904,-0.0589,0.0999,-0.1151,-1.9490696392455042,-0.011697158217430115,3.3870203495025635,-1.668839454650879,0.05629900097846985,2.075714588165283,5.1517967758472345,-1.0478965615969959e-14,0.2232680767774582,-1.5417020956622522,-0.0,-0.044560499489307404,0.47718262672424316,9.431461512576789e-05,0.030765749514102936,1.214498519897461,0.0,0.13742899894714355
248.0,332.0,-0.7077,-0.2895,9.5904,-0.0589,0.0999,-0.1151,-1.9491297207274378,-0.013433576561510563,3.358593702316284,-1.6684999465942383,0.06449330598115921,2.1051859855651855,5.151812809496679,-0.0004016445018351078,0.2117501050233841,-1.5417020956622522,-0.0,-0.054206155240535736,0.4772028923034668,9.775513899512589e-05,0.030644800513982773,1.2144907712936401,-1.5358695236500353e-05,0.1465616226196289
248.0,332.0,-0.7077,-0.2895,9.5904,-0.0589,0.0999,-0.1151,-1.9491893253722132,-0.015701966360211372,3.33268666267395,-1.6680833101272583,0.07182350754737854,2.1071226596832275,5.151764499932089,-0.0004513890598900616,0.21764349937438965,-1.541666332875387,-0.0,-0.045275814831256866,0.47724297642707825,9.278428478864953e-05,0.027243509888648987,1.2145024538040161,1.3458072317007463e-05,0.1837567836046219
248.0,332.0,-0.7077,-0.2895,9.5904,-0.0589,0.0999,-0.1151,-1.9493257007994593,-0.018375271931290627,3.335599422454834,-1.6675832271575928,0.08048169314861298,2.1070101261138916,5.151805060892858,-0.0006861754809506238,0.21856817603111267,-1.5416625181781214,-0.0,-0.05366336926817894,0.4772028923034668,8.73795579536818e-05,0.02939615584909916,1.2144865989685059,1.2880328540632036e-05,0.15939387679100037
248.0,332.0,-0.7077,-0.2895,9.5904,-0.0589,0.0999,-0.1151,-1.9494053326048792,-0.02182791940867901,3.374377727508545,-1.6670352220535278,0.0873240977525711,2.1216797828674316,5.151749121933737,-0.000666819280013442,0.2144431322813034,-1.5416339079486292,-0.0,-0.05735500901937485,0.47719070315361023,8.256956789409742e-05,0.023280832916498184,1.2144865989685059,1.2350092220003717e-05,0.169784277677536
248.0,332.0,-0.7077,-0.2895,9.5904,-0.0589,0.0999,-0.1151,-1.949545522729391,-0.025487296283245087,3.342116355895996,-1.6667031049728394,0.09060200303792953,2.1179168224334717,5.151784646302023,-0.0006576940068043768,0.20720738172531128,-1.5416858831988733,-1.8435142692396767e-06,-0.04851473495364189,0.47723478078842163,7.964664837345481e-05,0.02098303660750389,1.214442491531372,1.2020206668239553e-05,0.16094009578227997
248.0,332.0,-0.7077,-0.2895,9.5904,-0.0589,0.0999,-0.1151,-1.9496852360167445,-0.0293791014701128,3.3316330909729004,-1.6661111116409302,0.09350427240133286,2.0992932319641113,5.1517686424549005,-0.0006827094475738704,0.2171381413936615,-1.5416777769671839,-5.131489122511823e-10,-0.044679827988147736,0.4772069752216339,7.56307999836281e-05,0.016901681199669838,1.214482307434082,1.570709429188355e-07,0.1485004425048828
