ramyac6/ROB537/final_project/csv/good/good_169.csv
tof_0,tof_1,accelx,accely,accelz,gyrox,gyroy,gyroz,shoulder_lift_joint_position,shoulder_lift_joint_velocity,shoulder_lift_joint_effort,elbow_joint_position,elbow_joint_velocity,elbow_joint_effort,wrist_1_joint_position,wrist_1_joint_velocity,wrist_1_joint_effort,wrist_2_joint_position,wrist_2_joint_velocity,wrist_2_joint_effort,wrist_3_joint_position,wrist_3_joint_velocity,wrist_3_joint_effort,shoulder_pan_joint_position,shoulder_pan_joint_velocity,shoulder_pan_joint_effort
355.0,415.0,-0.4277,0.1938,9.7364,-0.0287,0.0273,-0.1223,-1.5824724636473597,0.0,2.047051191329956,-1.9986293315887451,-0.0,2.0033469200134277,5.078113782196798,-0.0,0.27918553352355957,-1.5865462462054651,-0.0,-0.017592955380678177,0.6702897548675537,0.0,-0.015915634110569954,0.7353847026824951,0.0,0.01057908870279789
355.0,415.0,-0.4277,0.1938,9.7364,-0.0287,0.0273,-0.1223,-1.5824843845763148,0.0,2.090751886367798,-1.9986491203308105,1.8527591683081823e-09,1.987779140472412,5.078109788685598,-0.0,0.27666836977005005,-1.5865581671344202,-0.0,-0.00468953512609005,0.670229434967041,0.0,-0.0030077057890594006,0.7353966236114502,0.0,0.04941451922059059
355.0,415.0,-0.4277,0.1938,9.7364,-0.0287,0.0273,-0.1223,-1.5824319324889125,0.0,2.0344555377960205,-1.9986006021499634,6.002705444998493e-17,1.9745793342590332,5.078113782196798,-0.0,0.2738276422023773,-1.5865662733661097,-0.0,-0.006345834583044052,0.6702450513839722,0.0,0.0015849233604967594,0.7353443503379822,0.0,-0.03444688022136688
355.0,415.0,-0.4277,0.1938,9.7364,-0.0287,0.0273,-0.1223,-1.5824524364867152,0.0,2.0592970848083496,-1.9986613988876343,1.9448002861010277e-24,1.9803318977355957,5.078101622849264,-0.0,0.28181421756744385,-1.5865700880633753,-0.0,-0.0011309473775327206,0.6702093482017517,0.0,0.007285647559911013,0.7353484630584717,0.0,0.04313289746642113
355.0,415.0,-0.4277,0.1938,9.7364,-0.0287,0.0273,-0.1223,-1.5824281177916468,0.0,2.1040964126586914,-1.9986491203308105,6.300906565923116e-32,1.991018533706665,5.078117954521932,-0.0,0.27729567885398865,-1.5865581671344202,-0.0,-0.0037811577785760164,0.6702373027801514,0.0,-0.00037770112976431847,0.7354371547698975,0.0,0.035978566855192184
355.0,415.0,-0.4277,0.1938,9.7364,-0.0287,0.0273,-0.1223,-1.582440038720602,0.0,2.0434389114379883,-1.9985727071762085,2.0414130041268578e-39,1.9886574745178223,5.078109788685598,-0.0,0.28224268555641174,-1.5865657965289515,-0.0,-0.0007600618992000818,0.6701847910881042,0.0,-0.00459894398227334,0.7353847026824951,0.0,0.05879230052232742
371.0,382.0,-0.4457,0.1795,9.722,-0.0376,0.0276,-0.1193,-1.582440038720602,0.0,2.0522313117980957,-1.9986687898635864,5.605193857299268e-45,1.9789347648620605,5.078105705767431,-0.0,0.285341739654541,-1.5865381399737757,-0.0,-0.011011720634996891,0.6701936721801758,0.0,-0.010955478064715862,0.7354168891906738,0.0,-0.019041284918785095
371.0,382.0,-0.4457,0.1795,9.722,-0.0376,0.0276,-0.1193,-1.5824481449522914,0.0,2.0129222869873047,-1.9986646175384521,-0.0,1.996286392211914,5.07808147647933,-0.0,0.28089189529418945,-1.5865100065814417,-0.0,-0.011932173743844032,0.6702736616134644,0.0,-0.0022952042054384947,0.7353562116622925,0.0,-0.02743355929851532
371.0,382.0,-0.4457,0.1795,9.722,-0.0376,0.0276,-0.1193,-1.582440038720602,0.0,2.041992664337158,-1.9986615180969238,-0.0,2.020526170730591,5.078101622849264,-0.0,0.28684061765670776,-1.5865262190448206,-0.0,-0.014714316464960575,0.6701489686965942,0.0,-0.004639030434191227,0.7354207634925842,0.0,-0.027018558233976364
371.0,382.0,-0.4457,0.1795,9.722,-0.0376,0.0276,-0.1193,-1.5824319324889125,0.0,2.0073940753936768,-1.9986448287963867,-0.0,2.0218231678009033,5.078177678375997,-0.0,0.27983129024505615,-1.5865781942950647,-0.0,-0.010366488248109818,0.6701773405075073,0.0,0.005740780383348465,0.7353484630584717,0.0,-0.021281542256474495
371.0,382.0,-0.4457,0.1795,9.722,-0.0376,0.0276,-0.1193,-1.582468648950094,0.0,2.0718390941619873,-1.9986252784729004,-0.0,2.0177152156829834,5.078113782196798,-0.0,0.2813383936882019,-1.5865019003497522,-0.0,-0.022597603499889374,0.6702537536621094,0.0,-0.00041695369873195887,0.7353888154029846,0.0,0.04195316880941391
371.0,382.0,-0.4457,0.1795,9.722,-0.0376,0.0276,-0.1193,-1.5824524364867152,0.0,2.0333101749420166,-1.9986613988876343,-0.0,1.9975180625915527,5.078101622849264,-0.0,0.2754289507865906,-1.5865462462054651,-0.0,-0.0015770719619467854,0.67023766040802,0.0,-0.0069653745740652084,0.735416829586029,0.0,0.05609523504972458
371.0,382.0,-0.4457,0.1795,9.722,-0.0376,0.0276,-0.1193,-1.5824481449522914,0.0,2.0582756996154785,-1.998640775680542,-0.0,1.973938226699829,5.078185754805364,-0.0,0.27866166830062866,-1.586573902760641,-0.0,-0.01247923169285059,0.6702331304550171,0.0,0.0021626150701195,0.7353402376174927,0.0,0.0428718626499176
371.0,382.0,-0.4457,0.1795,9.722,-0.0376,0.0276,-0.1193,-1.582440038720602,0.0,2.051753520965576,-1.9986448287963867,-0.0,1.997720718383789,5.078125464707174,-0.0,0.27692145109176636,-1.5865381399737757,-0.0,0.0007439097389578819,0.6703099012374878,0.0,-0.00039804144762456417,0.7354412078857422,0.0,0.01802864670753479
371.0,382.0,-0.4457,0.1795,9.722,-0.0376,0.0276,-0.1193,-1.5824157200255335,0.0,2.0105414390563965,-1.998640775680542,-0.0,2.0099618434906006,5.078121381789007,-0.0,0.2762574851512909,-1.5865619818316858,-0.0,0.0016209175810217857,0.6702413558959961,0.0,0.006299173459410667,0.7353525757789612,0.0,0.04054214805364609
371.0,382.0,-0.4457,0.1795,9.722,-0.0376,0.0276,-0.1193,-1.5824443302550257,0.0,2.0267043113708496,-1.9986375570297241,-0.0,2.0111799240112305,5.078093486815252,-0.0,0.27933937311172485,-1.5865057150470179,-0.0,-0.0026874239556491375,0.6701971292495728,0.0,0.0021084649488329887,0.7353883981704712,0.0,-0.018295880407094955
371.0,382.0,-0.4457,0.1795,9.722,-0.0376,0.0276,-0.1193,-1.5825005970396937,0.0,2.0168869495391846,-1.9986613988876343,-0.0,2.0263006687164307,5.078141736775198,-0.0,0.27188023924827576,-1.5865581671344202,-0.0,-0.003589911852031946,0.6702454686164856,0.0,0.008226720616221428,0.7354007363319397,0.0,0.012362009845674038
371.0,382.0,-0.4457,0.1795,9.722,-0.0376,0.0276,-0.1193,-1.5824643574156703,0.0,2.056126594543457,-1.9986532926559448,-0.0,2.036663293838501,5.078149574785986,-0.0,0.27854347229003906,-1.5865657965289515,-0.0,-0.011738928034901619,0.6701573133468628,0.0,-0.00029537477530539036,0.7354089021682739,0.0,-0.018828148022294044
374.0,403.0,-0.3619,0.2279,9.5982,-0.0345,0.0209,-0.1214,-1.582456728021139,0.0,2.0490150451660156,-1.99858820438385,-0.0,2.019643783569336,5.07811792471961,-0.0,0.2798416018486023,-1.5865262190448206,-0.0,-0.01046271063387394,0.6702491044998169,0.0,0.006727926898747683,0.7354006767272949,0.0,-0.005955870728939772
374.0,403.0,-0.3619,0.2279,9.5982,-0.0345,0.0209,-0.1214,-1.582496782342428,0.0,2.0141243934631348,-1.998708963394165,-0.0,2.0485541820526123,5.07811792471961,-0.0,0.2887662351131439,-1.5865300337420862,-0.0,-0.01139823067933321,0.6702331304550171,0.0,0.009851566515862942,0.7353805899620056,0.0,0.0016345595940947533
374.0,403.0,-0.3619,0.2279,9.5982,-0.0345,0.0209,-0.1214,-1.5824643574156703,0.0,2.1042613983154297,-1.9986448287963867,-0.0,2.0172152519226074,5.078129458218374,-0.0,0.2790099084377289,-1.5865381399737757,-0.0,-0.0127173513174057,0.6702736616134644,0.0,0.007869112305343151,0.7353764772415161,0.0,0.004015448037534952
374.0,403.0,-0.3619,0.2279,9.5982,-0.0345,0.0209,-0.1214,-1.5824200115599574,0.0,2.05965518951416,-1.9986491203308105,-0.0,1.9853596687316895,5.078093486815252,-0.0,0.2784430980682373,-1.5865219275103968,-0.0,-0.013502519577741623,0.6702053546905518,0.0,-0.004347889684140682,0.7353723645210266,0.0,-0.005825880449265242
374.0,403.0,-0.3619,0.2279,9.5982,-0.0345,0.0209,-0.1214,-1.5824319324889125,0.0,2.0387701988220215,-1.9986449480056763,-0.0,1.9852709770202637,5.078101622849264,-0.0,0.28432610630989075,-1.5865419546710413,-0.0,-0.014049563556909561,0.6701773405075073,0.0,0.00864453800022602,0.735368549823761,0.0,-0.04056010767817497
374.0,403.0,-0.3619,0.2279,9.5982,-0.0345,0.0209,-0.1214,-1.582435747186178,0.0,2.0370638370513916,-1.9986491203308105,-0.0,2.0235016345977783,5.078085648804464,-0.0,0.27819526195526123,-1.5865300337420862,-0.0,-0.008126776665449142,0.6702414155006409,0.0,0.0038859702181071043,0.7353805899620056,0.0,-0.07090064883232117
374.0,403.0,-0.3619,0.2279,9.5982,-0.0345,0.0209,-0.1214,-1.5824276409544886,0.0,2.0872321128845215,-1.9986212253570557,-0.0,2.0037283897399902,5.078117954521932,-0.0,0.27517104148864746,-1.5865181128131312,-0.0,-0.01045234315097332,0.6702256798744202,0.0,-0.008041583001613617,0.735344409942627,0.0,-0.008017661981284618
374.0,403.0,-0.3619,0.2279,9.5982,-0.0345,0.0209,-0.1214,-1.5824481449522914,0.0,2.045302391052246,-1.9986367225646973,-0.0,1.991956114768982,5.078129458218374,-0.0,0.2813178598880768,-1.58653432527651,-0.0,-0.024036237969994545,0.6703020334243774,0.0,0.011993814259767532,0.7354168891906738,0.0,-0.021809205412864685
374.0,403.0,-0.3619,0.2279,9.5982,-0.0345,0.0209,-0.1214,-1.5824605427184046,0.0,2.0528652667999268,-1.9986810684204102,-0.0,2.002969741821289,5.07809745052413,-0.0,0.27209943532943726,-1.5865500609027308,-0.0,-0.002514988649636507,0.6702413558959961,0.0,0.008586175739765167,0.7353723645210266,0.0,-0.032450105994939804
374.0,403.0,-0.3619,0.2279,9.5982,-0.0345,0.0209,-0.1214,-1.5824643574156703,0.0,2.075728178024292,-1.9986004829406738,-0.0,1.9946684837341309,5.078109788685598,-0.0,0.285652756690979,-1.5865019003497522,-0.0,-0.006808754988014698,0.6702334880828857,0.0,-0.00561086880043149,0.7353966236114502,0.0,0.006284357979893684
374.0,403.0,-0.3619,0.2279,9.5982,-0.0345,0.0209,-0.1214,-1.5824805698790492,0.0,2.0526931285858154,-1.998604655265808,-0.0,2.0510096549987793,5.078122007637777,-0.0,0.2819368839263916,-1.5865300337420862,-0.0,-0.012996537610888481,0.6702655553817749,0.0,-0.0007544462569057941,0.7353847026824951,0.0,-0.018864940851926804
374.0,403.0,-0.3619,0.2279,9.5982,-0.0345,0.0209,-0.1214,-1.582440038720602,0.0,2.0795836448669434,-1.9986491203308105,-0.0,2.008336067199707,5.078109788685598,-0.0,0.2903132438659668,-1.5865381399737757,-0.0,-0.011178456246852875,0.6702454686164856,0.0,-0.01089401077479124,0.7353925108909607,0.0,0.017345327883958817
381.0,406.0,-0.4092,0.2261,9.5043,-0.0391,0.0305,-0.1155,-1.582440038720602,0.0,2.032297372817993,-1.9986613988876343,-0.0,1.9861164093017578,5.078113782196798,-0.0,0.28452304005622864,-1.5865181128131312,-0.0,-0.021668778732419014,0.6702818870544434,0.0,-0.004120921716094017,0.7353847026824951,0.0,0.026459457352757454
381.0,406.0,-0.4092,0.2261,9.5043,-0.0391,0.0305,-0.1155,-1.5824843845763148,0.0,2.059791088104248,-1.9986565113067627,-0.0,1.9803940057754517,5.078121381789007,-0.0,0.27837541699409485,-1.5865142981158655,-0.0,-0.017720114439725876,0.6702213287353516,0.0,-0.0018086186610162258,0.7353764772415161,0.0,0.022311462089419365
381.0,406.0,-0.4092,0.2261,9.5043,-0.0391,0.0305,-0.1155,-1.5824805698790492,0.0,2.0750560760498047,-1.9985965490341187,-0.0,1.9902119636535645,5.078133630543508,-0.0,0.27909138798713684,-1.5864818731891077,-0.0,-0.014373722486197948,0.6702700257301331,0.0,0.014504166319966316,0.73537677526474,0.0,0.016955796629190445
381.0,406.0,-0.4092,0.2261,9.5043,-0.0391,0.0305,-0.1155,-1.5824643574156703,0.0,1.9792900085449219,-1.9986449480056763,-0.0,2.0020275115966797,5.07809345701293,-0.0,0.2843065559864044,-1.5865300337420862,-0.0,-0.007416595704853535,0.6702093482017517,0.0,-0.0029720375314354897,0.7354329824447632,0.0,0.004217064939439297
381.0,406.0,-0.4092,0.2261,9.5043,-0.0391,0.0305,-0.1155,-1.5824157200255335,0.0,2.1048429012298584,-1.9986368417739868,-0.0,2.0114645957946777,5.078133630543508,-0.0,0.27566131949424744,-1.5865538755999964,-0.0,0.0007169650634750724,0.6702495217323303,0.0,0.0033432613126933575,0.7353806495666504,0.0,0.02477259188890457
381.0,406.0,-0.4092,0.2261,9.5043,-0.0391,0.0305,-0.1155,-1.5824481449522914,0.0,2.0549070835113525,-1.9986615180969238,-0.0,2.0480685234069824,5.0780696151550195,-0.0,0.28376296162605286,-1.5865300337420862,-0.0,-0.0016514903400093317,0.6702053546905518,0.0,0.0032502650283277035,0.7353847026824951,0.0,0.040743887424468994
381.0,406.0,-0.4092,0.2261,9.5043,-0.0391,0.0305,-0.1155,-1.5824724636473597,0.0,2.028201103210449,-1.998640775680542,-0.0,2.0164811611175537,5.078113782196798,-0.0,0.26896724104881287,-1.5865381399737757,-0.0,-0.01645480841398239,0.6702454090118408,0.0,0.001109651173464954,0.7354007363319397,0.0,-0.025571748614311218
381.0,406.0,-0.4092,0.2261,9.5043,-0.0391,0.0305,-0.1155,-1.5824767551817835,0.0,2.0408384799957275,-1.998579978942871,-0.0,2.0344133377075195,5.078101622849264,-0.0,0.27263006567955017,-1.5865262190448206,-0.0,-0.015628227964043617,0.6702334880828857,0.0,-0.0032694637775421143,0.735368549823761,0.0,0.01931113749742508
381.0,406.0,-0.4092,0.2261,9.5043,-0.0391,0.0305,-0.1155,-1.5824767551817835,0.0,2.053473949432373,-1.998640775680542,-0.0,1.9858767986297607,5.078105705767431,-0.0,0.2719607949256897,-1.5865262190448206,-0.0,0.002372104674577713,0.6702576875686646,0.0,-0.008794966153800488,0.735400378704071,0.0,0.01347388792783022
381.0,406.0,-0.4092,0.2261,9.5043,-0.0391,0.0305,-0.1155,-1.5824157200255335,0.0,2.085176706314087,-1.998604655265808,-0.0,2.000614643096924,5.078133630543508,-0.0,0.2804357409477234,-1.5865820089923304,-0.0,-0.014831958338618279,0.6702290177345276,0.0,0.00047990353778004646,0.7354006767272949,0.0,-0.008303480222821236
381.0,406.0,-0.4092,0.2261,9.5043,-0.0391,0.0305,-0.1155,-1.582456728021139,0.0,2.035033702850342,-1.9986647367477417,-0.0,2.038548469543457,5.078153687506475,-0.0,0.28220003843307495,-1.5865419546710413,-0.0,-0.006172874942421913,0.6702899932861328,0.0,-0.002413757611066103,0.7353525757789612,0.0,0.030880644917488098
381.0,406.0,-0.4092,0.2261,9.5043,-0.0391,0.0305,-0.1155,-1.5824080906310023,0.0,2.045499563217163,-1.9986615180969238,-0.0,1.9890766143798828,5.07809345701293,-0.0,0.2842229902744293,-1.58653432527651,-0.0,-0.004596441052854061,0.670229434967041,0.0,-0.008121986873447895,0.7353602647781372,0.0,0.00964259821921587
376.0,409.0,-0.4439,0.1854,9.7179,-0.0379,0.0241,-0.1219,-1.5824843845763148,0.0,2.049994945526123,-1.998641014099121,-0.0,2.0365283489227295,5.078125464707174,-0.0,0.2762928307056427,-1.586522404347555,-0.0,-0.002269654767587781,0.6702134609222412,0.0,0.005148668773472309,0.7353966236114502,0.0,0.029644209891557693
376.0,409.0,-0.4439,0.1854,9.7179,-0.0379,0.0241,-0.1219,-1.5823875866331996,0.0,2.046088218688965,-1.9986088275909424,-0.0,1.991995096206665,5.078101622849264,-0.0,0.2814946174621582,-1.5865262190448206,-0.0,0.00605563260614872,0.6702491641044617,0.0,-0.005356567911803722,0.7353888154029846,0.0,-0.03136139735579491
376.0,409.0,-0.4439,0.1854,9.7179,-0.0379,0.0241,-0.1219,-1.582435747186178,0.0,2.0561623573303223,-1.9986088275909424,-0.0,1.9929475784301758,5.078101622849264,-0.0,0.2833552956581116,-1.5865419546710413,-0.0,-0.010519269853830338,0.6702134609222412,0.0,-0.004827840719372034,0.735360324382782,0.0,-0.004756470210850239
376.0,409.0,-0.4439,0.1854,9.7179,-0.0379,0.0241,-0.1219,-1.5824443302550257,0.0,2.0848326683044434,-1.9986169338226318,-0.0,2.018895149230957,5.078133630543508,-0.0,0.2704486846923828,-1.5865381399737757,-0.0,-0.0013998772483319044,0.6702454686164856,0.0,-0.003849571570754051,0.7353847622871399,0.0,0.01287916861474514
376.0,409.0,-0.4439,0.1854,9.7179,-0.0379,0.0241,-0.1219,-1.582440038720602,0.0,2.042893648147583,-1.9986088275909424,-0.0,2.0045721530914307,5.078129458218374,-0.0,0.2817833423614502,-1.5865700880633753,-0.0,-0.015374135226011276,0.6702417135238647,0.0,0.008045092225074768,0.735433042049408,0.0,-0.024696573615074158
376.0,409.0,-0.4439,0.1854,9.7179,-0.0379,0.0241,-0.1219,-1.5824481449522914,0.0,2.080303192138672,-1.9986170530319214,-0.0,1.9880070686340332,5.078125464707174,-0.0,0.2697417438030243,-1.5865581671344202,-0.0,-0.010250371880829334,0.6702294945716858,0.0,-0.0035133797209709883,0.7353966236114502,0.0,0.022631198167800903
376.0,409.0,-0.4439,0.1854,9.7179,-0.0379,0.0241,-0.1219,-1.5824643574156703,0.0,2.036576986312866,-1.9985965490341187,-0.0,2.006420135498047,5.078109788685598,-0.0,0.2764323353767395,-1.5865538755999964,-0.0,-0.008574170991778374,0.6702216863632202,0.0,-0.0007942654774524271,0.7353929281234741,0.0,-0.01924082264304161
376.0,409.0,-0.4439,0.1854,9.7179,-0.0379,0.0241,-0.1219,-1.5824481449522914,0.0,2.075899600982666,-1.9986810684204102,-0.0,2.0287821292877197,5.078105735569753,-0.0,0.27051663398742676,-1.5865262190448206,-0.0,-0.002337095094844699,0.6701732277870178,0.0,-0.000554977566935122,0.7353928685188293,0.0,-0.02618250995874405
376.0,409.0,-0.4439,0.1854,9.7179,-0.0379,0.0241,-0.1219,-1.582456728021139,0.0,2.0656521320343018,-1.9986284971237183,-0.0,1.9574761390686035,5.07808147647933,-0.0,0.2740996479988098,-1.5865381399737757,-0.0,-0.010790305212140083,0.6702093482017517,0.0,0.006966471206396818,0.7353525757789612,0.0,0.0365644171833992
376.0,409.0,-0.4439,0.1854,9.7179,-0.0379,0.0241,-0.1219,-1.5824481449522914,0.0,2.037278175354004,-1.998612880706787,-0.0,2.005096197128296,5.078129458218374,-0.0,0.2756846845149994,-1.5865500609027308,-0.0,-0.0009869624627754092,0.6702696681022644,0.0,0.0018648887053132057,0.7354045510292053,0.0,0.013829845935106277
376.0,409.0,-0.4439,0.1854,9.7179,-0.0379,0.0241,-0.1219,-1.582468648950094,0.0,2.088759183883667,-1.998640775680542,-0.0,1.9848525524139404,5.078065144806661,-0.0,0.2823910117149353,-1.5865057150470179,-0.0,-0.00979684293270111,0.6702491641044617,0.0,0.0034596812911331654,0.7354006767272949,0.0,0.0279987882822752
363.0,379.0,-0.4391,0.1896,9.5563,-0.0402,0.0221,-0.1142,-1.582440038720602,0.0,2.068660259246826,-1.9986169338226318,-0.0,1.9967106580734253,5.07809345701293,-0.0,0.27101755142211914,-1.5865381399737757,-0.0,-0.01731402799487114,0.6702372431755066,0.0,0.005561765283346176,0.7353966236114502,0.0,0.05324973911046982
363.0,379.0,-0.4391,0.1896,9.5563,-0.0402,0.0221,-0.1142,-1.5824319324889125,0.0,2.0587878227233887,-1.9986367225646973,-0.0,1.9614512920379639,5.078129458218374,-0.0,0.28078004717826843,-1.58653432527651,-0.0,-0.01694639027118683,0.670189619064331,0.0,-0.004048734903335571,0.7353806495666504,0.0,0.023805296048521996
363.0,379.0,-0.4391,0.1896,9.5563,-0.0402,0.0221,-0.1142,-1.5824443302550257,0.0,2.12435245513916,-1.9986646175384521,-0.0,1.9782845973968506,5.078113782196798,-0.0,0.2917148470878601,-1.5865462462054651,-0.0,0.0035738060250878334,0.6702696681022644,0.0,0.011051665060222149,0.7353925108909607,0.0,0.019936926662921906
363.0,379.0,-0.4391,0.1896,9.5563,-0.0402,0.0221,-0.1142,-1.5824281177916468,0.0,2.0999674797058105,-1.9986047744750977,-0.0,2.0279998779296875,5.078125464707174,-0.0,0.2798132598400116,-1.5865057150470179,-0.0,-0.009194673970341682,0.6702413558959961,0.0,-0.012294698506593704,0.7353966236114502,0.0,0.005322398617863655
363.0,379.0,-0.4391,0.1896,9.5563,-0.0402,0.0221,-0.1142,-1.582440038720602,0.0,2.0705618858337402,-1.9986252784729004,-0.0,2.0246825218200684,5.078121977835455,-0.0,0.2763341963291168,-1.5865657965289515,-0.0,-0.013000646606087685,0.6702170968055725,0.0,-0.007427162490785122,0.735433042049408,0.0,-0.01834000274538994
363.0,379.0,-0.4391,0.1896,9.5563,-0.0402,0.0221,-0.1142,-1.5824643574156703,0.0,2.045396327972412,-1.9986293315887451,-0.0,2.028887987136841,5.078125464707174,-0.0,0.28695109486579895,-1.5865057150470179,-0.0,0.0008948550093919039,0.6702334880828857,0.0,-0.005561049561947584,0.7353847026824951,0.0,-0.03414243459701538
363.0,379.0,-0.4391,0.1896,9.5563,-0.0402,0.0221,-0.1142,-1.582440038720602,0.0,2.0243401527404785,-1.998652458190918,-0.0,2.0040385723114014,5.078161436110296,-0.0,0.28510716557502747,-1.5865219275103968,-0.0,-0.0127842016518116,0.6702413558959961,0.0,0.004963073879480362,0.7353966236114502,0.0,0.003307485952973366
363.0,379.0,-0.4391,0.1896,9.5563,-0.0402,0.0221,-0.1142,-1.5824843845763148,0.0,2.0463204383850098,-1.9985766410827637,-0.0,2.0100975036621094,5.078157382994451,-0.0,0.27061572670936584,-1.5865538755999964,-0.0,-0.013665683567523956,0.6702613830566406,0.0,0.002371622947975993,0.7354006767272949,0.0,-0.002499292604625225
363.0,379.0,-0.4391,0.1896,9.5563,-0.0402,0.0221,-0.1142,-1.582423826257223,0.0,2.071038246154785,-1.9986491203308105,-0.0,1.9976248741149902,5.078117388277807,-0.0,0.26961731910705566,-1.5865142981158655,-0.0,-0.010024291463196278,0.6702094078063965,0.0,-0.00177739467471838,0.735368549823761,0.0,-0.01731712371110916
363.0,379.0,-0.4391,0.1896,9.5563,-0.0402,0.0221,-0.1142,-1.5824037990965785,0.0,2.0537660121917725,-1.9986532926559448,-0.0,2.0143208503723145,5.078089433699407,-0.0,0.276435524225235,-1.5865700880633753,-0.0,-0.0028713722713291645,0.6702134609222412,0.0,-0.006780896335840225,0.7354250550270081,0.0,0.01690499484539032
363.0,379.0,-0.4391,0.1896,9.5563,-0.0402,0.0221,-0.1142,-1.5824161968626917,0.0,2.0759849548339844,-1.998632550239563,-0.0,1.9743428230285645,5.0780734596546075,-0.0,0.27968770265579224,-1.586573902760641,-0.0,-0.005789945833384991,0.6702175140380859,0.0,0.0006171588320285082,0.7353928685188293,0.0,0.0024522775784134865
363.0,379.0,-0.4391,0.1896,9.5563,-0.0402,0.0221,-0.1142,-1.5824724636473597,0.0,2.03438663482666,-1.9986687898635864,-0.0,1.979322075843811,5.078141051321783,-0.0,0.2670857608318329,-1.586557690297262,-0.0,-0.015847695991396904,0.6702372431755066,0.0,0.014458808116614819,0.7353484630584717,0.0,0.0056774672120809555
370.0,403.0,-0.4528,0.2429,9.658,-0.038,0.0249,-0.1206,-1.5824481449522914,0.0,2.0740230083465576,-1.9986293315887451,-0.0,1.9926669597625732,5.078085648804464,-0.0,0.2780453562736511,-1.5865262190448206,-0.0,-0.016056779772043228,0.670229434967041,0.0,0.005406946409493685,0.7353525757789612,0.0,0.005401317961513996
370.0,403.0,-0.4528,0.2429,9.658,-0.038,0.0249,-0.1206,-1.582440038720602,0.0,2.0380899906158447,-1.9986532926559448,-0.0,2.033142566680908,5.078125464707174,-0.0,0.28380635380744934,-1.5865019003497522,-0.0,-0.016082916408777237,0.6702454686164856,0.0,-0.007166252005845308,0.7354128360748291,0.0,-0.02341633290052414
370.0,403.0,-0.4528,0.2429,9.658,-0.038,0.0249,-0.1206,-1.582423826257223,0.0,2.0972747802734375,-1.9986170530319214,-0.0,1.988964319229126,5.078097480326452,-0.0,0.280984103679657,-1.5865419546710413,-0.0,-0.01971094310283661,0.6702335476875305,0.0,-0.012769429013133049,0.7353644371032715,0.0,-0.0006258379435166717
370.0,403.0,-0.4528,0.2429,9.658,-0.038,0.0249,-0.1206,-1.5824924908080042,0.0,2.029111385345459,-1.9986646175384521,-0.0,2.0257768630981445,5.078093784838476,-0.0,0.2716507315635681,-1.5865095297442835,-0.0,-0.0051234993152320385,0.6702495217323303,0.0,-0.0023046666756272316,0.7353888154029846,0.0,-0.04374577850103378
370.0,403.0,-0.4528,0.2429,9.658,-0.038,0.0249,-0.1206,-1.5824805698790492,0.0,2.0414085388183594,-1.9986088275909424,-0.0,2.0117781162261963,5.078153687506475,-0.0,0.2763875424861908,-1.58653432527651,-0.0,-0.020900538191199303,0.6702654957771301,0.0,-0.007179481443017721,0.7353966236114502,0.0,-0.009344757534563541
370.0,403.0,-0.4528,0.2429,9.658,-0.038,0.0249,-0.1206,-1.5824767551817835,0.0,2.079308032989502,-1.998700737953186,-0.0,1.9941706657409668,5.078085619002142,-0.0,0.28260278701782227,-1.5865057150470179,-0.0,-0.0065695419907569885,0.6702253818511963,0.0,-0.00830624159425497,0.7354210019111633,0.0,-0.014737199060618877
370.0,403.0,-0.4528,0.2429,9.658,-0.038,0.0249,-0.1206,-1.582423826257223,0.0,2.0282347202301025,-1.9986252784729004,-0.0,1.981839895248413,5.07808147647933,-0.0,0.2840335965156555,-1.586522404347555,-0.0,-0.0032250182703137398,0.6702171564102173,0.0,-0.008455033414065838,0.7353966236114502,0.0,-0.026080844923853874
370.0,403.0,-0.4528,0.2429,9.658,-0.038,0.0249,-0.1206,-1.5824805698790492,0.0,2.016885280609131,-1.998580813407898,-0.0,2.0099422931671143,5.078085320978918,-0.0,0.27492985129356384,-1.5865181128131312,-0.0,-0.008921345695853233,0.6702454090118408,0.0,-5.4809730499982834e-05,0.7354651093482971,0.0,-0.022378239780664444
370.0,403.0,-0.4528,0.2429,9.658,-0.038,0.0249,-0.1206,-1.5824200115599574,0.0,2.032454013824463,-1.998641014099121,-0.0,1.9764189720153809,5.078069317131796,-0.0,0.279697060585022,-1.5865262190448206,-0.0,-0.007565152365714312,0.6702250242233276,0.0,-0.006300304550677538,0.7353847622871399,0.0,0.021844031289219856
370.0,403.0,-0.4528,0.2429,9.658,-0.038,0.0249,-0.1206,-1.582423826257223,0.0,2.038975715637207,-1.9986448287963867,-0.0,2.025207042694092,5.078105705767431,-0.0,0.26875582337379456,-1.5865057150470179,-0.0,0.011056507006287575,0.6702413558959961,0.0,0.00015341141261160374,0.7353847026824951,0.0,0.046905647963285446
370.0,403.0,-0.4528,0.2429,9.658,-0.038,0.0249,-0.1206,-1.582435747186178,0.0,2.0552191734313965,-1.9986491203308105,-0.0,2.003505229949951,5.078121381789007,-0.0,0.2830972671508789,-1.5865262190448206,-0.0,0.004286471288651228,0.6702454090118408,0.0,0.003369155339896679,0.7353764772415161,0.0,0.007431186269968748
370.0,403.0,-0.4528,0.2429,9.658,-0.038,0.0249,-0.1206,-1.5824319324889125,0.0,2.029629707336426,-1.99858820438385,-0.0,2.0067572593688965,5.078101622849264,-0.0,0.2838839888572693,-1.586517635975973,-0.0,-0.012555861845612526,0.6702212691307068,0.0,0.008764823898673058,0.7353764772415161,0.0,0.025573385879397392
369.0,408.0,-0.4211,0.1884,9.6126,-0.0415,0.025,-0.1174,-1.5824161968626917,0.0,2.0684545040130615,-1.9986047744750977,-0.0,2.0348875522613525,5.078137683659353,-0.0,0.2806299030780792,-1.5865138212787073,-0.0,0.0038130702450871468,0.6702216863632202,0.0,0.0003934316919185221,0.7353764772415161,0.0,0.0373903326690197
369.0,408.0,-0.4211,0.1884,9.6126,-0.0415,0.025,-0.1174,-1.5824643574156703,0.0,2.0573813915252686,-1.998579978942871,-0.0,2.003258228302002,5.078101622849264,-0.0,0.2883569002151489,-1.58653432527651,-0.0,-0.01713687554001808,0.6702614426612854,0.0,0.0013924227096140385,0.7354127764701843,0.0,-0.007089646533131599
369.0,408.0,-0.4211,0.1884,9.6126,-0.0415,0.025,-0.1174,-1.5824524364867152,0.0,2.065490961074829,-1.9986613988876343,-0.0,1.9937739372253418,5.078089403897085,-0.0,0.2737553119659424,-1.5865700880633753,-0.0,-0.009675214067101479,0.6702454090118408,0.0,0.006261400878429413,0.7354289889335632,0.0,-0.0020674532279372215
369.0,408.0,-0.4211,0.1884,9.6126,-0.0415,0.025,-0.1174,-1.5824481449522914,0.0,2.043951988220215,-1.9986088275909424,-0.0,2.029201030731201,5.07808147647933,-0.0,0.2838079631328583,-1.58653432527651,-0.0,-0.008861910551786423,0.6702093482017517,0.0,-0.005443032365292311,0.7353805899620056,0.0,-0.007646387908607721
369.0,408.0,-0.4211,0.1884,9.6126,-0.0415,0.025,-0.1174,-1.582435747186178,0.0,2.081718683242798,-1.998649001121521,-0.0,2.0196924209594727,5.078129458218374,-0.0,0.2774549424648285,-1.5865820089923304,-0.0,-0.009349770843982697,0.6702373027801514,0.0,-0.0004120577941648662,0.7354168891906738,0.0,0.036141954362392426
369.0,408.0,-0.4211,0.1884,9.6126,-0.0415,0.025,-0.1174,-1.5824886761107386,0.0,2.020578384399414,-1.9986573457717896,-0.0,1.9816597700119019,5.078129458218374,-0.0,0.28560346364974976,-1.5865901152240198,-0.0,-0.017183620482683182,0.6702334880828857,0.0,0.005925011355429888,0.7353847026824951,0.0,0.020073512569069862
369.0,408.0,-0.4211,0.1884,9.6126,-0.0415,0.025,-0.1174,-1.5824200115599574,0.0,2.0174407958984375,-1.9986605644226074,-0.0,1.9736135005950928,5.078133630543508,-0.0,0.27938154339790344,-1.5865581671344202,-0.0,-0.00509025901556015,0.6702253818511963,0.0,-0.004005315713584423,0.7354248762130737,0.0,0.04686412215232849
369.0,408.0,-0.4211,0.1884,9.6126,-0.0415,0.025,-0.1174,-1.5824643574156703,0.0,2.0350208282470703,-1.9986532926559448,-0.0,1.9899711608886719,5.078117954521932,-0.0,0.2780177593231201,-1.5865381399737757,-0.0,-0.009688515216112137,0.6702257394790649,0.0,-0.005431614816188812,0.7353847026824951,0.0,-0.020069975405931473
369.0,408.0,-0.4211,0.1884,9.6126,-0.0415,0.025,-0.1174,-1.582456728021139,0.0,2.0603365898132324,-1.998632550239563,-0.0,1.992498517036438,5.078093784838476,-0.0,0.2640279531478882,-1.5865381399737757,-0.0,-0.017218083143234253,0.6701889634132385,0.0,0.003575581591576338,0.7353805899620056,0.0,0.007233167998492718
369.0,408.0,-0.4211,0.1884,9.6126,-0.0415,0.025,-0.1174,-1.5824319324889125,0.0,2.0293469429016113,-1.9986170530319214,-0.0,2.0101394653320312,5.078089701920309,-0.0,0.27858251333236694,-1.5865820089923304,-0.0,-0.005078883375972509,0.670229434967041,0.0,0.005272494163364172,0.7354168891906738,0.0,-0.026898398995399475
369.0,408.0,-0.4211,0.1884,9.6126,-0.0415,0.025,-0.1174,-1.5824643574156703,0.0,2.0715017318725586,-1.9986284971237183,-0.0,2.005242347717285,5.078065472632208,-0.0,0.2839595675468445,-1.5865262190448206,-0.0,-0.0012846754398196936,0.6702253222465515,0.0,0.0044487896375358105,0.7353566884994507,0.0,0.005611510016024113
369.0,408.0,-0.4211,0.1884,9.6126,-0.0415,0.025,-0.1174,-1.5824562511839808,0.0,2.029696464538574,-1.998632550239563,-0.0,1.988312005996704,5.078169691353597,-0.0,0.2821717858314514,-1.5865700880633753,-0.0,-0.006918671075254679,0.6702495217323303,0.0,-0.010804564692080021,0.7354048490524292,0.0,0.0027878573164343834
373.0,408.0,-0.4546,0.2142,9.7454,-0.0339,0.027,-0.1217,-1.5824281177916468,0.0,2.0424447059631348,-1.998612880706787,-0.0,2.025890350341797,5.078085619002142,-0.0,0.2844240069389343,-1.586522404347555,-0.0,-0.007526859175413847,0.6702573299407959,0.0,0.003894923720508814,0.7354007363319397,0.0,0.02611425705254078
373.0,408.0,-0.4546,0.2142,9.7454,-0.0339,0.027,-0.1217,-1.5824767551817835,0.0,2.0202808380126953,-1.9986129999160767,-0.0,2.007838010787964,5.078125464707174,-0.0,0.27953603863716125,-1.58653432527651,-0.0,-0.01126317959278822,0.6702175140380859,0.0,-0.0038190551567822695,0.7353966236114502,0.0,-0.010990695096552372
373.0,408.0,-0.4546,0.2142,9.7454,-0.0339,0.027,-0.1217,-1.5824443302550257,0.0,2.0701746940612793,-1.9986573457717896,-0.0,2.033937692642212,5.078069317131796,-0.0,0.27357980608940125,-1.5864818731891077,-0.0,-0.00489977328106761,0.6701732873916626,0.0,-0.00038577281520701945,0.7353847026824951,0.0,-0.004919583909213543
373.0,408.0,-0.4546,0.2142,9.7454,-0.0339,0.027,-0.1217,-1.5824724636473597,0.0,2.0404586791992188,-1.9986006021499634,-0.0,1.9816948175430298,5.078105705767431,-0.0,0.2799121141433716,-1.5865100065814417,-0.0,0.008795304223895073,0.6702093482017517,0.0,-0.0021799965761601925,0.7353847026824951,0.0,0.007292633410543203
373.0,408.0,-0.4546,0.2142,9.7454,-0.0339,0.027,-0.1217,-1.5824724636473597,0.0,2.0733957290649414,-1.9986367225646973,-0.0,2.0259056091308594,5.078085320978918,-0.0,0.28238606452941895,-1.5865142981158655,-0.0,-0.015652531757950783,0.6702373027801514,0.0,0.006479200907051563,0.7353847026824951,0.0,-0.014696337282657623
373.0,408.0,-0.4546,0.2142,9.7454,-0.0339,0.027,-0.1217,-1.5824200115599574,0.0,2.0735626220703125,-1.9986369609832764,-0.0,2.0749287605285645,5.078125464707174,-0.0,0.2722378373146057,-1.5865057150470179,-0.0,-0.009882320649921894,0.6701930165290833,0.0,-0.00037519331090152264,0.7353847026824951,0.0,-0.0367095060646534
373.0,408.0,-0.4546,0.2142,9.7454,-0.0339,0.027,-0.1217,-1.5824724636473597,0.0,2.0414881706237793,-1.998641014099121,-0.0,2.0090603828430176,5.078149604588308,-0.0,0.2728104889392853,-1.5865657965289515,-0.0,-0.0051883189007639885,0.6702213287353516,0.0,-0.0067597017623484135,0.7353723645210266,0.0,-0.04682885855436325
373.0,408.0,-0.4546,0.2142,9.7454,-0.0339,0.027,-0.1217,-1.5824924908080042,0.0,2.078737258911133,-1.998640775680542,-0.0,1.9969985485076904,5.078113782196798,-0.0,0.2933245003223419,-1.5865538755999964,-0.0,-0.022300543263554573,0.67023766040802,0.0,0.0066446950659155846,0.7353883385658264,0.0,-0.03698185086250305
373.0,408.0,-0.4546,0.2142,9.7454,-0.0339,0.027,-0.1217,-1.5824886761107386,0.0,2.080667018890381,-1.9986088275909424,-0.0,1.9841322898864746,5.078145462065496,-0.0,0.28604793548583984,-1.58653432527651,-0.0,-0.001172749325633049,0.67023766040802,0.0,-0.01115956250578165,0.7354089021682739,0.0,0.04299332946538925
373.0,408.0,-0.4546,0.2142,9.7454,-0.0339,0.027,-0.1217,-1.5824037990965785,0.0,2.1026968955993652,-1.9986647367477417,-0.0,2.021054744720459,5.078145462065496,-0.0,0.2810489535331726,-1.5865700880633753,-0.0,0.0038688129279762506,0.6702492237091064,0.0,0.000728911254554987,0.7353888154029846,0.0,-0.05108966678380966
373.0,408.0,-0.4546,0.2142,9.7454,-0.0339,0.027,-0.1217,-1.582440038720602,0.0,2.070556879043579,-1.9986491203308105,-0.0,2.0183849334716797,5.078145462065496,-0.0,0.27003154158592224,-1.5865419546710413,-0.0,-0.010944901965558529,0.6702134609222412,0.0,-0.006468220613896847,0.7353847026824951,0.0,0.03331896290183067
371.0,412.0,-0.4175,0.2303,9.5964,-0.038,0.0195,-0.1159,-1.5824648342528285,0.0,2.0590503215789795,-1.9986284971237183,-0.0,2.007228374481201,5.07807748296813,-0.0,0.27534741163253784,-1.586522404347555,-0.0,-0.02154305949807167,0.6702613830566406,0.0,0.0051233465783298016,0.7353764772415161,0.0,-0.022531509399414062
371.0,412.0,-0.4175,0.2303,9.5964,-0.038,0.0195,-0.1159,-1.582456728021139,0.0,2.073310375213623,-1.9986088275909424,-0.0,2.0249948501586914,5.078129458218374,-0.0,0.28797581791877747,-1.58653432527651,-0.0,-0.01967172510921955,0.670249879360199,0.0,0.001404844457283616,0.735368549823761,0.0,-0.010222080163657665
371.0,412.0,-0.4175,0.2303,9.5964,-0.038,0.0195,-0.1159,-1.5824443302550257,0.0,2.064685106277466,-1.9985718727111816,-0.0,2.0166544914245605,5.078085619002142,-0.0,0.2782702147960663,-1.58653432527651,-0.0,-0.01782412827014923,0.6702454090118408,0.0,-0.005905582569539547,0.7353566884994507,0.0,-0.026141101494431496
371.0,412.0,-0.4175,0.2303,9.5964,-0.038,0.0195,-0.1159,-1.5824843845763148,0.0,2.0623016357421875,-1.9986565113067627,-0.0,1.9549307823181152,5.078161942749777,-0.0,0.2724530100822449,-1.586573902760641,-0.0,-0.026770612224936485,0.6702736020088196,0.0,0.0017305793007835746,0.7353806495666504,0.0,-0.02079354040324688
371.0,412.0,-0.4175,0.2303,9.5964,-0.038,0.0195,-0.1159,-1.5824443302550257,0.0,2.0717010498046875,-1.998604655265808,-0.0,2.0387916564941406,5.07809745052413,-0.0,0.26621484756469727,-1.5865619818316858,-0.0,-0.010025653056800365,0.6701855063438416,0.0,0.004854215774685144,0.7353485226631165,0.0,0.01628018170595169
371.0,412.0,-0.4175,0.2303,9.5964,-0.038,0.0195,-0.1159,-1.5824319324889125,0.0,2.0390207767486572,-1.9986367225646973,-0.0,1.9902448654174805,5.078097480326452,-0.0,0.26288217306137085,-1.586522404347555,-0.0,-0.015246686525642872,0.6702297329902649,0.0,0.00820868369191885,0.7353484630584717,0.0,-0.0011241845786571503
371.0,412.0,-0.4175,0.2303,9.5964,-0.038,0.0195,-0.1159,-1.5824562511839808,0.0,2.0566601753234863,-1.9986448287963867,-0.0,1.9720001220703125,5.078129458218374,-0.0,0.2784138023853302,-1.5865619818316858,-0.0,-0.011666981503367424,0.6701855063438416,0.0,0.006538481451570988,0.7353966236114502,0.0,0.008736258372664452
371.0,412.0,-0.4175,0.2303,9.5964,-0.038,0.0195,-0.1159,-1.5824524364867152,0.0,2.0695762634277344,-1.998640775680542,-0.0,1.9747769832611084,5.078141468554296,-0.0,0.28380000591278076,-1.5865657965289515,-0.0,-0.008818847127258778,0.6701889634132385,0.0,0.006877908483147621,0.7354006767272949,0.0,0.02590818703174591
371.0,412.0,-0.4175,0.2303,9.5964,-0.038,0.0195,-0.1159,-1.582423826257223,0.0,2.076484203338623,-1.998641014099121,-0.0,2.0183188915252686,5.07809745052413,-0.0,0.2710414528846741,-1.5865138212787073,-0.0,-0.017684821039438248,0.6702454090118408,0.0,0.0012769205495715141,0.7353806495666504,0.0,-0.03591282665729523
371.0,412.0,-0.4175,0.2303,9.5964,-0.038,0.0195,-0.1159,-1.5824805698790492,0.0,2.071186065673828,-1.998640775680542,-0.0,2.006516456604004,5.07809345701293,-0.0,0.27645349502563477,-1.5865381399737757,-0.0,-0.015462552197277546,0.6702093482017517,0.0,-0.006931754294782877,0.7354047894477844,0.0,0.007788349874317646
371.0,412.0,-0.4175,0.2303,9.5964,-0.038,0.0195,-0.1159,-1.5824524364867152,0.0,2.0190696716308594,-1.9986293315887451,-0.0,1.994811773300171,5.078145432263174,-0.0,0.27891966700553894,-1.5865381399737757,-0.0,-0.018237490206956863,0.6702373027801514,0.0,0.0007618374656885862,0.7354127764701843,0.0,0.04546041786670685
371.0,412.0,-0.4175,0.2303,9.5964,-0.038,0.0195,-0.1159,-1.582423826257223,0.0,2.0459868907928467,-1.9986006021499634,-0.0,1.9930574893951416,5.078157442599096,-0.0,0.28198105096817017,-1.5865300337420862,-0.0,-0.015640484169125557,0.6702454090118408,0.0,0.006781530566513538,0.7353966236114502,0.0,0.050902996212244034
375.0,380.0,-0.5312,0.1525,9.725,-0.0367,0.0238,-0.1193,-1.582456728021139,0.0,2.0904717445373535,-1.9985601902008057,-0.0,1.9885878562927246,5.07811792471961,-0.0,0.28661563992500305,-1.5865262190448206,-0.0,-0.008764274418354034,0.6702253818511963,0.0,-0.001974439714103937,0.7353966236114502,0.0,-0.03398400545120239
375.0,380.0,-0.5312,0.1525,9.725,-0.0367,0.0238,-0.1193,-1.5824443302550257,0.0,2.0366640090942383,-1.998632550239563,-0.0,2.0234627723693848,5.078113782196798,-0.0,0.2852485775947571,-1.5865381399737757,-0.0,-0.01079888828098774,0.6702495217323303,0.0,0.0036005284637212753,0.7354004383087158,0.0,0.010418681427836418
375.0,380.0,-0.5312,0.1525,9.725,-0.0367,0.0238,-0.1193,-1.5824481449522914,0.0,2.018125295639038,-1.998632550239563,-0.0,1.9840383529663086,5.07811729887084,-0.0,0.278127521276474,-1.5865538755999964,-0.0,-0.012676157988607883,0.6702532768249512,0.0,0.0006391095230355859,0.7354409694671631,0.0,0.0011895028874278069
375.0,380.0,-0.5312,0.1525,9.725,-0.0367,0.0238,-0.1193,-1.582440038720602,0.0,2.0666589736938477,-1.9986293315887451,-0.0,1.997422456741333,5.078133600741186,-0.0,0.2846565246582031,-1.5865500609027308,-0.0,-0.018105484545230865,0.6702216863632202,0.0,-0.008634724654257298,0.7353607416152954,0.0,-0.004266753792762756
375.0,380.0,-0.5312,0.1525,9.725,-0.0367,0.0238,-0.1193,-1.5824605427184046,0.0,2.045773983001709,-1.9986293315887451,-0.0,1.9953850507736206,5.078109758883276,-0.0,0.2728137671947479,-1.5865581671344202,-0.0,-0.009438800625503063,0.6702896356582642,0.0,0.0031767329201102257,0.7354048490524292,0.0,-0.02850775606930256
375.0,380.0,-0.5312,0.1525,9.725,-0.0367,0.0238,-0.1193,-1.5824276409544886,0.0,2.0640158653259277,-1.9986532926559448,-0.0,1.9939544200897217,5.078129488020696,-0.0,0.2763199806213379,-1.586522404347555,-0.0,0.0024599742610007524,0.6701896786689758,0.0,0.0007388058584183455,0.7353847026824951,0.0,0.00500851683318615
375.0,380.0,-0.5312,0.1525,9.725,-0.0367,0.0238,-0.1193,-1.582456728021139,0.0,2.030447006225586,-1.9986169338226318,-0.0,2.057417392730713,5.078117954521932,-0.0,0.28501102328300476,-1.5864937941180628,-0.0,0.0022435919381678104,0.6702256798744202,0.0,-0.0047377003356814384,0.7353566884994507,0.0,-0.010233123786747456
375.0,380.0,-0.5312,0.1525,9.725,-0.0367,0.0238,-0.1193,-1.582468648950094,0.0,2.0339176654815674,-1.9986975193023682,-0.0,1.9947216510772705,5.078125464707174,-0.0,0.27361980080604553,-1.5865581671344202,-0.0,-0.002328830771148205,0.6702331304550171,0.0,-0.011763236485421658,0.7353764772415161,0.0,-0.019847286865115166
375.0,380.0,-0.5312,0.1525,9.725,-0.0367,0.0238,-0.1193,-1.5824643574156703,0.0,2.0655088424682617,-1.9986573457717896,-0.0,1.9918394088745117,5.078125434904852,-0.0,0.28271931409835815,-1.5865300337420862,-0.0,-0.008280998095870018,0.6702697277069092,0.0,0.012571892701089382,0.7353402972221375,0.0,0.014445614069700241
375.0,380.0,-0.5312,0.1525,9.725,-0.0367,0.0238,-0.1193,-1.582411905328268,0.0,2.009995937347412,-1.9986252784729004,-0.0,2.038235664367676,5.0781335709388635,-0.0,0.2872581481933594,-1.586573902760641,-0.0,-0.011589376255869865,0.6702212691307068,0.0,-0.000896539306268096,0.7353405356407166,0.0,-0.027082856744527817
375.0,380.0,-0.5312,0.1525,9.725,-0.0367,0.0238,-0.1193,-1.5824443302550257,0.0,2.0586626529693604,-1.998632550239563,-0.0,1.9811878204345703,5.07809745052413,-0.0,0.28796714544296265,-1.5865181128131312,-0.0,-0.01341976597905159,0.6702093482017517,0.0,0.003238694742321968,0.7353925108909607,0.0,-0.006089018192142248
375.0,380.0,-0.5312,0.1525,9.725,-0.0367,0.0238,-0.1193,-1.582440038720602,0.0,2.058485984802246,-1.9986532926559448,-0.0,1.9854531288146973,5.078133600741186,-0.0,0.2835996747016907,-1.5865100065814417,-0.0,-0.008720522746443748,0.6702413558959961,0.0,0.014713778160512447,0.7353966236114502,0.0,-0.014992954209446907
379.0,407.0,-0.3942,0.195,9.6012,-0.0338,0.0289,-0.1177,-1.582468648950094,0.0,2.030806064605713,-1.9986491203308105,-0.0,2.0117974281311035,5.078157681017675,-0.0,0.27597615122795105,-1.5865538755999964,-0.0,-0.013121329247951508,0.6701971292495728,0.0,0.003618871793150902,0.7354007363319397,0.0,-0.029322197660803795
379.0,407.0,-0.3942,0.195,9.6012,-0.0338,0.0289,-0.1177,-1.5824648342528285,0.0,2.075218915939331,-1.9986212253570557,-0.0,1.9850295782089233,5.0781138119991205,-0.0,0.28452831506729126,-1.5865019003497522,-0.0,-0.019768361002206802,0.6702614426612854,0.0,0.00630655512213707,0.7354289889335632,0.0,0.0030517689883708954
379.0,407.0,-0.3942,0.195,9.6012,-0.0338,0.0289,-0.1177,-1.582468648950094,0.0,2.0312340259552,-1.9986047744750977,-0.0,1.9900568723678589,5.078129428416052,-0.0,0.2907160818576813,-1.5865581671344202,-0.0,-0.011073213070631027,0.6702256798744202,0.0,-0.006638568826019764,0.7354045510292053,0.0,0.025673439726233482
379.0,407.0,-0.3942,0.195,9.6012,-0.0338,0.0289,-0.1177,-1.5824605427184046,0.0,2.026770830154419,-1.9986129999160767,-0.0,2.000624895095825,5.078153300076284,-0.0,0.28308233618736267,-1.5865300337420862,-0.0,-0.004777020309120417,0.6702614426612854,0.0,-0.014131066389381886,0.7353562116622925,0.0,-0.009333865717053413
379.0,407.0,-0.3942,0.195,9.6012,-0.0338,0.0289,-0.1177,-1.582440038720602,0.0,2.0529890060424805,-1.9986004829406738,-0.0,1.9982049465179443,5.078033137112417,-0.0,0.2633766829967499,-1.5865142981158655,-0.0,-0.014936555176973343,0.6702093482017517,0.0,0.018380511552095413,0.7353764772415161,0.0,0.01993592083454132
379.0,407.0,-0.3942,0.195,9.6012,-0.0338,0.0289,-0.1177,-1.5824524364867152,0.0,2.0954065322875977,-1.9986687898635864,-0.0,1.954203486442566,5.078085648804464,-0.0,0.275051474571228,-1.5865662733661097,-0.0,-0.016843533143401146,0.6702334880828857,0.0,-0.009990014135837555,0.7353562116622925,0.0,-0.010701400227844715
379.0,407.0,-0.3942,0.195,9.6012,-0.0338,0.0289,-0.1177,-1.582468648950094,0.0,2.069222927093506,-1.9986613988876343,-0.0,2.0070133209228516,5.07809345701293,-0.0,0.2723606526851654,-1.586522404347555,-0.0,-0.011073501780629158,0.67023766040802,0.0,-0.00025307940086349845,0.7354045510292053,0.0,-0.01859896443784237
379.0,407.0,-0.3942,0.195,9.6012,-0.0338,0.0289,-0.1177,-1.5824481449522914,0.0,2.0734333992004395,-1.998640775680542,-0.0,2.006866455078125,5.0780774531658075,-0.0,0.2799469530582428,-1.586501423512594,-0.0,0.00019303185399621725,0.6702134013175964,0.0,0.004655374679714441,0.735433042049408,0.0,-0.008845477364957333
379.0,407.0,-0.3942,0.195,9.6012,-0.0338,0.0289,-0.1177,-1.5824481449522914,0.0,2.0560004711151123,-1.9985923767089844,-0.0,2.0235302448272705,5.0780774531658075,-0.0,0.27994856238365173,-1.5865538755999964,-0.0,-0.0020032860338687897,0.6702216863632202,0.0,0.00782320648431778,0.735368549823761,0.0,-0.005928335711359978
379.0,407.0,-0.3942,0.195,9.6012,-0.0338,0.0289,-0.1177,-1.5824443302550257,0.0,2.0944151878356934,-1.9985767602920532,-0.0,2.0070078372955322,5.078121977835455,-0.0,0.2755391001701355,-1.5865982214557093,-0.0,-0.013294506818056107,0.6702053546905518,0.0,-0.0011953567154705524,0.7353888154029846,0.0,-0.02147991955280304
379.0,407.0,-0.3942,0.195,9.6012,-0.0338,0.0289,-0.1177,-1.582435747186178,0.0,2.0766053199768066,-1.9985883235931396,-0.0,2.011531114578247,5.078085619002142,-0.0,0.2732129991054535,-1.5865619818316858,-0.0,-0.011427956633269787,0.6702093482017517,0.0,0.0035291332751512527,0.7353925108909607,0.0,0.015978019684553146
379.0,407.0,-0.3942,0.195,9.6012,-0.0338,0.0289,-0.1177,-1.5824767551817835,0.0,2.0385754108428955,-1.9986728429794312,-0.0,2.0120811462402344,5.078105705767431,-0.0,0.27889615297317505,-1.5865500609027308,-0.0,-0.008040094748139381,0.6702614426612854,0.0,-0.0008352695149369538,0.7354331016540527,0.0,0.021935852244496346
379.0,398.0,-0.3194,0.5599,9.4146,-0.024,0.0315,-0.1145,-1.582468648950094,0.0,2.059272050857544,-1.9986333847045898,-0.0,2.0221683979034424,5.078117954521932,-0.0,0.2901157736778259,-1.586545769368307,-0.0,0.009484733454883099,0.6702334880828857,0.0,-0.008186864666640759,0.7353883385658264,0.0,-0.01615644246339798
379.0,398.0,-0.3194,0.5599,9.4146,-0.024,0.0315,-0.1145,-1.5824605427184046,0.0,2.0331320762634277,-1.9987173080444336,-0.0,2.006254196166992,5.07811792471961,-0.0,0.2843332886695862,-1.5865538755999964,-0.0,-0.01106219831854105,0.6702053546905518,0.0,-0.0001919209025800228,0.7354127764701843,0.0,-0.019328156486153603
379.0,398.0,-0.3194,0.5599,9.4146,-0.024,0.0315,-0.1145,-1.582468648950094,0.0,2.0368363857269287,-1.9986450672149658,-0.0,1.985360026359558,5.0780856786067865,-0.0,0.27826541662216187,-1.5865462462054651,-1.9436589582255692e-07,-0.026198625564575195,0.6701855063438416,0.0,0.007204101420938969,0.7353963255882263,0.0,0.0121576227247715
379.0,398.0,-0.3194,0.5599,9.4146,-0.024,0.0315,-0.1145,-1.582435747186178,0.0,2.068089723587036,-1.9986170530319214,-0.0,2.011713743209839,5.078081118851461,-0.0,0.280860960483551,-1.586569611226217,-3.532504150305371e-12,-0.004723802674561739,0.6702134609222412,0.0,0.007189528085291386,0.7354124784469604,0.0005580843426287174,0.03128040209412575
379.0,398.0,-0.3194,0.5599,9.4146,-0.024,0.0315,-0.1145,-1.582440038720602,1.1588394244199662e-08,2.0384232997894287,-1.9986252784729004,-0.0,1.973069429397583,5.078105705767431,-0.0,0.2784895896911621,-1.5866015593158167,-6.420151074673994e-17,-0.0011948631145060062,0.6701773405075073,0.0,-0.0029996507801115513,0.7354286313056946,0.0012812857748940587,-0.021809644997119904
379.0,398.0,-0.3194,0.5599,9.4146,-0.024,0.0315,-0.1145,-1.582411905328268,3.7544928616437955e-16,2.017164707183838,-1.9986006021499634,-0.0,1.979452133178711,5.078169691353597,-2.2388233628101162e-11,0.2778675854206085,-1.586597744618551,-1.166830645395265e-21,-0.0073799919337034225,0.67024165391922,0.0,-0.006076935678720474,0.7354364991188049,0.0014328912366181612,0.05766892433166504
379.0,398.0,-0.3194,0.5599,9.4146,-0.024,0.0315,-0.1145,-1.582388540307516,0.0007748176576569676,2.077275037765503,-1.9985963106155396,-0.0,1.9778509140014648,5.078145462065496,-4.0689509316361983e-16,0.28878307342529297,-1.586597744618551,-0.0002701981575228274,0.0018954901024699211,0.6701855063438416,0.0,-0.009198603220283985,0.7354364395141602,0.0009054687689058483,0.05940622836351395
379.0,398.0,-0.3194,0.5599,9.4146,-0.024,0.0315,-0.1145,-1.5824324093260707,0.0008878144435584545,2.1101791858673096,-1.9986573457717896,-0.0,1.9824812412261963,5.078149306565084,-1.1326074894624005e-19,0.2744958996772766,-1.586597744618551,-0.00022942318173591048,-0.009944317862391472,0.6702253818511963,0.0,0.005366419907659292,0.7354727387428284,0.0007215440273284912,0.05367627739906311
379.0,398.0,-0.3194,0.5599,9.4146,-0.024,0.0315,-0.1145,-1.5824161968626917,0.0006275057676248252,2.0815377235412598,-1.99858820438385,-0.0,2.0031442642211914,5.078145462065496,-2.0584581820339132e-24,0.2820950746536255,-1.5865619818316858,-0.00019055286247748882,-0.00870386604219675,0.6702573299407959,4.573476319880143e-10,0.002435167320072651,0.7355210781097412,0.0005157076520845294,0.06293020397424698
379.0,398.0,-0.3194,0.5599,9.4146,-0.024,0.0315,-0.1145,-1.5823999843993128,0.00044868089025840163,2.054655075073242,-1.9986687898635864,-0.0,2.053187370300293,5.0781574724014185,-3.74114690314171e-29,0.27811023592948914,-1.5865700880633753,-0.00016294801025651395,-0.013577534817159176,0.670205295085907,8.312067295579168e-15,-0.0014468919252976775,0.7354525923728943,0.00040084338979795575,0.001669514924287796
379.0,398.0,-0.3194,0.5599,9.4146,-0.024,0.0315,-0.1145,-1.5823999843993128,0.00013780395966023207,2.0438385009765625,-1.9986810684204102,-0.0,2.00653076171875,5.078085619002142,7.93775834608823e-05,0.28961941599845886,-1.5866301695453089,-0.00014232969260774553,-0.009101903066039085,0.6702573299407959,1.5106771092722388e-19,-0.002950671361759305,0.7354443669319153,0.0003278306103311479,0.010717219673097134
379.0,398.0,-0.3194,0.5599,9.4146,-0.024,0.0315,-0.1145,-1.582440038720602,5.6012395361904055e-05,2.0603597164154053,-1.9986687898635864,-0.0,1.9984469413757324,5.0781302628810785,4.252766666468233e-05,0.28230395913124084,-1.5866015593158167,-0.00012634388986043632,-0.016294866800308228,0.6702491044998169,2.7455812740303816e-24,0.001218507532030344,0.735493004322052,0.00019333655654918402,0.02901274710893631
373.0,410.0,-0.4834,-0.0036,9.5725,-0.0238,0.015,-0.1141,-1.5824605427184046,6.042792506377737e-07,2.021160840988159,-1.9985965490341187,-0.0,1.9715181589126587,5.07811393120841,1.0474271903149202e-06,0.2799246609210968,-1.5865538755999964,-9.401734860148281e-05,-0.010604670271277428,0.6702572107315063,7.642427538551306e-28,-0.004943938925862312,0.7354645133018494,0.00013700583076570183,-0.0028862087056040764
373.0,410.0,-0.4834,-0.0036,9.5725,-0.0238,0.015,-0.1141,-1.5823995075621546,1.9577879085703326e-14,2.0990123748779297,-1.9986367225646973,-0.0,2.0118908882141113,5.0780900893505,1.9036473786204766e-11,0.2640473544597626,-1.5865419546710413,-8.447237632935867e-05,-0.0022537983022630215,0.6703056693077087,1.3889733819496276e-32,0.0021145842038094997,0.7354404926300049,8.918392995838076e-05,-0.015737175941467285
373.0,410.0,-0.4834,-0.0036,9.5725,-0.0238,0.015,-0.1141,-1.5824724636473597,6.342983909408748e-22,2.0627293586730957,-1.9985923767089844,6.7592615948797174e-09,2.01798677444458,5.077993082791128,3.459784953003403e-16,0.2889280319213867,-1.5865944067584437,-7.722402369836345e-05,-0.013682693243026733,0.6702691912651062,0.00017189518257509917,-0.002138956915587187,0.7354446649551392,7.87710232543759e-05,-0.01094222441315651
373.0,410.0,-0.4834,-0.0036,9.5725,-0.0238,0.015,-0.1141,-1.582440038720602,2.055046243881556e-29,2.0703835487365723,-1.9986532926559448,2.1899146143176338e-16,2.001642942428589,5.078049617796697,-0.0005853921757079661,0.28854596614837646,-1.586573902760641,-5.452530240290798e-05,-0.013363631442189217,0.6702814102172852,0.00017860140360426158,-0.01432222779840231,0.7354327440261841,7.053923036437482e-05,-0.024859309196472168
373.0,410.0,-0.4834,-0.0036,9.5725,-0.0238,0.015,-0.1141,-1.5824881992735804,-0.0006652036099694669,2.026484251022339,-1.9986491203308105,7.095044169411273e-24,1.9716312885284424,5.078066009074011,-0.001631396822631359,0.2860930562019348,-1.5865262190448206,-5.052083724876866e-05,-0.01443876139819622,0.6703216433525085,0.00019789402722381055,-0.0007915716851130128,0.7354567646980286,6.386512541212142e-05,-0.07007284462451935
373.0,410.0,-0.4834,-0.0036,9.5725,-0.0238,0.015,-0.1141,-1.5824758015074671,-0.0011535268276929855,2.0806808471679688,-1.9986573457717896,2.29870341821661e-31,1.9949767589569092,5.078021782427587,-0.0028589933644980192,0.2832482159137726,-1.5865181128131312,-4.606104630511254e-05,-0.013351527974009514,0.6703134179115295,0.00032269852817989886,-0.006714890245348215,0.7354485392570496,7.77824388933368e-05,0.03897268325090408
373.0,410.0,-0.4834,-0.0036,9.5725,-0.0238,0.015,-0.1141,-1.582492013970846,-0.001276827184483409,2.0798468589782715,-1.9985965490341187,5.551098355590227e-37,2.012200355529785,5.0779699859912775,-0.005158192478120327,0.27614521980285645,-1.5865100065814417,-5.6514643802074715e-05,-0.0008216132409870625,0.6702773571014404,0.00032078876392915845,-0.00820085033774376,0.7354526519775391,3.1983250664779916e-05,0.028595780953764915
373.0,410.0,-0.4834,-0.0036,9.5725,-0.0238,0.015,-0.1141,-1.5825401745238246,-0.0011038503143936396,2.042832851409912,-1.9986646175384521,1.8216880036222622e-44,2.0394515991210938,5.077922123461523,-0.009817288257181644,0.28332293033599854,-1.586569611226217,-5.395462358137593e-05,-0.01455635204911232,0.6703376173973083,0.00043777545215561986,-0.000620155013166368,0.7354608178138733,5.458821033244021e-05,0.02169794775545597
373.0,410.0,-0.4834,-0.0036,9.5725,-0.0238,0.015,-0.1141,-1.582576414147848,-0.0008672742987982929,2.048584461212158,-1.998632550239563,-0.0,1.970618724822998,5.077814179449835,-0.010126182809472084,0.2830360531806946,-1.586545769368307,-3.878499774145894e-05,-0.009462718851864338,0.6703649759292603,0.000940490048378706,0.007835198193788528,0.7355288863182068,0.0006473607500083745,0.014307730831205845
373.0,410.0,-0.4834,-0.0036,9.5725,-0.0238,0.015,-0.1141,-1.5825640163817347,-0.0006097884615883231,2.033346652984619,-1.998641014099121,-0.0,2.0006608963012695,5.077790844231405,-0.009447521530091763,0.2782713770866394,-1.5865820089923304,-4.730578439193778e-05,-0.0020122730638831854,0.670352578163147,0.0030115724075585604,0.016219425946474075,0.7355046272277832,0.0031372441444545984,0.010759253986179829
373.0,410.0,-0.4834,-0.0036,9.5725,-0.0238,0.015,-0.1141,-1.5825478039183558,-0.0005530781345441937,2.044801712036133,-1.9986369609832764,-0.0,1.9775924682617188,5.077706622868337,-0.006936528719961643,0.2723652720451355,-1.586569611226217,-4.638102473109029e-05,-0.024361882358789444,0.670412540435791,0.013388808816671371,0.020048916339874268,0.735592782497406,0.006458817049860954,0.04697273671627045
375.0,395.0,-0.8034,0.5121,9.4935,-0.006,0.0166,-0.1057,-1.5825439892210902,-0.0005004687118344009,2.087075710296631,-1.9986852407455444,-0.0,2.001701831817627,5.077703106194296,-0.004171021748334169,0.2793949842453003,-1.5865500609027308,-4.465510937734507e-05,-0.015931077301502228,0.6706376671791077,0.02261778712272644,0.04058380797505379,0.735620379447937,0.009484920650720596,0.020583609119057655
375.0,395.0,-0.8034,0.5121,9.4935,-0.006,0.0166,-0.1057,-1.5825525722899378,-0.0003916430287063122,2.0316548347473145,-1.9985923767089844,-0.0,1.9869866371154785,5.077703046589651,-0.0017329115653410554,0.26904940605163574,-1.5865538755999964,-4.2544208554318175e-05,-0.008396001532673836,0.6707852482795715,0.023219892755150795,0.05726448819041252,0.7357363104820251,0.014021948911249638,0.0554577074944973
375.0,395.0,-0.8034,0.5121,9.4935,-0.006,0.0166,-0.1057,-1.582548280755514,-0.00031807945924811065,2.0459461212158203,-1.998608946800232,-0.0,1.965916633605957,5.077666955977239,-0.0009356361115351319,0.2846675217151642,-1.5865820089923304,-3.064026532229036e-05,-0.00020430819131433964,0.6709775924682617,0.010979057289659977,0.05414561927318573,0.7358927130699158,0.0174879040569067,0.0808870941400528
375.0,395.0,-0.8034,0.5121,9.4935,-0.006,0.0166,-0.1057,-1.5826121769347132,-0.00035465770633891225,2.047471046447754,-1.9985840320587158,-0.0,2.0141656398773193,5.077635246306219,-0.0018001404823735356,0.2799604833126068,-1.586545769368307,-1.2702591334345925e-07,-0.012735726311802864,0.6710131764411926,0.0015564702916890383,0.0409444198012352,0.7360489368438721,0.01918262243270874,0.09603846073150635
375.0,395.0,-0.8034,0.5121,9.4935,-0.006,0.0166,-0.1057,-1.582583566705221,-0.000596562516875565,2.06624698638916,-1.9986367225646973,-0.0,1.997245192527771,5.077599274903097,-0.003926623146981001,0.2685520350933075,-1.5865419546710413,-2.3086331023963735e-12,-0.013197009451687336,0.6709930896759033,0.0005380430375225842,0.05450146645307541,0.7362008690834045,0.019714394584298134,0.01679757609963417
375.0,395.0,-0.8034,0.5121,9.4935,-0.006,0.0166,-0.1057,-1.5826035938658656,-0.001232982613146305,2.037341594696045,-1.9985848665237427,-0.0,2.0387802124023438,5.07754726985053,-0.005438216961920261,0.28378498554229736,-1.5865419546710413,-6.426164743901703e-16,-0.020996492356061935,0.6709611415863037,0.00012379547115415335,0.056926846504211426,0.736264169216156,0.01921534724533558,0.08893846720457077
375.0,395.0,-0.8034,0.5121,9.4935,-0.006,0.0166,-0.1057,-1.582656045953268,-0.0028036257717758417,2.0712714195251465,-1.9986728429794312,-0.0,1.9768891334533691,5.0775036988552,-0.006705034989863634,0.2720385789871216,-1.58653432527651,2.0187831978546456e-05,-0.009841474704444408,0.6709890365600586,7.117763016140088e-05,0.07360976189374924,0.7364123463630676,0.017029287293553352,0.11847256124019623
375.0,395.0,-0.8034,0.5121,9.4935,-0.006,0.0166,-0.1057,-1.5826918087401332,-0.004605959635227919,2.0201566219329834,-1.9986047744750977,-0.0,2.019692897796631,5.077423411398687,-0.007890726439654827,0.2897662818431854,-1.5865262190448206,2.163745094208025e-08,0.0009874626994132996,0.6710495352745056,0.00015842424181755632,0.07746253907680511,0.7366049885749817,0.015331674367189407,0.06407863646745682
375.0,395.0,-0.8034,0.5121,9.4935,-0.006,0.0166,-0.1057,-1.5827518902220667,-0.006454430520534515,2.050797462463379,-1.9986448287963867,-0.0,1.9982380867004395,5.077355700522222,-0.007340888027101755,0.27246779203414917,-1.5865581671344202,3.932500213053164e-13,0.0011579880956560373,0.6710049510002136,0.0004047253169119358,0.06694196164608002,0.7366762757301331,0.013510544784367085,0.12304085493087769
375.0,395.0,-0.8034,0.5121,9.4935,-0.006,0.0166,-0.1057,-1.5828076801695765,-0.00782668124884367,2.039712905883789,-1.9985767602920532,-0.0,2.017296075820923,5.0773318884666345,-0.005655333399772644,0.276285320520401,-1.5865500609027308,7.14712586976949e-18,-0.014452625066041946,0.6710733771324158,0.00129396200645715,0.0835028737783432,0.7368167638778687,0.010940750129520893,0.08683881163597107
375.0,395.0,-0.8034,0.5121,9.4935,-0.006,0.0166,-0.1057,-1.5828758678831996,-0.008801638148725033,2.057854652404785,-1.9986212253570557,-0.0,2.02133846282959,5.077284204750814,-0.003807634813711047,0.2830467224121094,-1.5865419546710413,1.2989549010614915e-22,-0.007093431428074837,0.6710450649261475,0.0014686067588627338,0.0790155678987503,0.7368846535682678,0.009127490222454071,0.061316996812820435
375.0,395.0,-0.8034,0.5121,9.4935,-0.006,0.0166,-0.1057,-1.5829516849913539,-0.00982625875622034,2.0445621013641357,-1.9986252784729004,-0.0,2.053485870361328,5.0772441802318475,-0.002443161094561219,0.27638861536979675,-1.5865500609027308,3.6156894167444826e-26,-0.01717638596892357,0.6711093187332153,0.0015081253368407488,0.08406691998243332,0.7369203567504883,0.00830763764679432,0.08249272406101227
375.0,405.0,-0.1352,0.0592,9.4062,-0.0376,0.0118,-0.1113,-1.583099981347555,-0.012262103147804737,1.9656951427459717,-1.9985923767089844,-0.0,1.99412202835083,5.077284204750814,-0.0011783756781369448,0.26081424951553345,-1.5865305105792444,6.571337857537414e-31,-0.003711021039634943,0.6710770130157471,0.001542438636533916,0.08728275448083878,0.7369438409805298,0.007875494658946991,0.10334324836730957
375.0,405.0,-0.1352,0.0592,9.4062,-0.0376,0.0118,-0.1113,-1.58319153408193,-0.01340422872453928,2.003047466278076,-1.9986532926559448,0.0001094225372071378,2.0239078998565674,5.077308761864462,-0.0007506103138439357,0.28009721636772156,-1.58653432527651,1.1943081436469167e-35,-0.007937464863061905,0.6710607409477234,0.0016887624515220523,0.08240829408168793,0.7370444536209106,0.006490160245448351,0.11906201392412186
375.0,405.0,-0.1352,0.0592,9.4062,-0.0376,0.0118,-0.1113,-1.583304067651266,-0.01281235832720995,2.0178723335266113,-1.9986211061477661,0.00018720715888775885,2.037792205810547,5.077240067511358,-0.0005799159989692271,0.28261083364486694,-1.5865138212787073,2.1705973082544984e-40,-0.006884019356220961,0.6711253523826599,0.002095562405884266,0.09922415018081665,0.7370883226394653,0.005417296662926674,0.07324826717376709
375.0,405.0,-0.1352,0.0592,9.4062,-0.0376,0.0118,-0.1113,-1.583407541314596,-0.012620293535292149,2.0675559043884277,-1.9985684156417847,0.0006464911857619882,1.9982011318206787,5.077264535218038,-0.00043932165135629475,0.2893211245536804,-1.5865700880633753,4.203895392974451e-45,0.006874985992908478,0.6711532473564148,0.0024010867346078157,0.09369553625583649,0.7371081709861755,0.004304930567741394,0.13447365164756775
375.0,405.0,-0.1352,0.0592,9.4062,-0.0376,0.0118,-0.1113,-1.5834838352599085,-0.01216439064592123,2.0371205806732178,-1.998552918434143,0.0006320150569081306,1.9985333681106567,5.077304738550939,-0.0002702355559449643,0.278795063495636,-1.5865424315081995,0.0,-0.0114156948402524,0.6711572408676147,0.0026187319308519363,0.11137967556715012,0.737164318561554,0.004297849256545305,0.15745943784713745
375.0,405.0,-0.1352,0.0592,9.4062,-0.0376,0.0118,-0.1113,-1.5835515461363734,-0.011147008277475834,1.9919787645339966,-1.9986251592636108,0.0005007777363061905,2.037212371826172,5.077248233347692,-0.0002155117254005745,0.2793419361114502,-1.5865581671344202,0.0,0.010731490328907967,0.6711570024490356,0.002912755124270916,0.11038437485694885,0.7371883988380432,0.004086566623300314,0.1580027937889099
375.0,405.0,-0.1352,0.0592,9.4062,-0.0376,0.0118,-0.1113,-1.5836230717101039,-0.010160625912249088,2.026768684387207,-1.9985971450805664,0.000415787537349388,2.016578197479248,5.077276813774862,-0.00023472770408261567,0.28546208143234253,-1.5865381399737757,0.0,-0.008616388775408268,0.6712374091148376,0.0031332639046013355,0.10972756147384644,0.7372123599052429,0.004361412487924099,0.09414388239383698
375.0,405.0,-0.1352,0.0592,9.4062,-0.0376,0.0118,-0.1113,-1.5836745701231898,-0.010597744025290012,2.0052897930145264,-1.9986088275909424,0.00037085619987919927,1.996847152709961,5.07724820354537,-0.00024718092754483223,0.28925952315330505,-1.5865300337420862,0.0,-0.0009328356827609241,0.6712328791618347,0.0035957905929535627,0.11285340040922165,0.7372764348983765,0.00573719060048461,0.14127615094184875
375.0,405.0,-0.1352,0.0592,9.4062,-0.0376,0.0118,-0.1113,-1.5838118992247523,-0.009907351806759834,2.0101611614227295,-1.9985570907592773,0.000343025109032169,2.0396840572357178,5.077268707543173,-0.00026319752214476466,0.29180973768234253,-1.5865138212787073,0.0,-0.0012957919389009476,0.6712729930877686,0.003313749097287655,0.12373103201389313,0.7373365163803101,0.00824566837400198,0.08818213641643524
375.0,405.0,-0.1352,0.0592,9.4062,-0.0376,0.0118,-0.1113,-1.5839034519591273,-0.009790796786546707,2.0210306644439697,-1.9985570907592773,0.00028813345124945045,2.010216236114502,5.077248620777883,-0.000297961087198928,0.28973087668418884,-1.5865500609027308,0.0,0.006846196949481964,0.6712885499000549,0.0034196318592876196,0.1228894293308258,0.7374085187911987,0.010968822054564953,0.12132173776626587
375.0,405.0,-0.1352,0.0592,9.4062,-0.0376,0.0118,-0.1113,-1.5839468441405238,-0.01073226798325777,2.0299041271209717,-1.998552918434143,0.0002572478260844946,2.0345253944396973,5.077248620777883,-0.00029878938221372664,0.2855968475341797,-1.5865181128131312,0.0,-0.008926821872591972,0.6713089942932129,0.0031719065736979246,0.1278054416179657,0.7374803423881531,0.01368977501988411,0.12213726341724396
375.0,405.0,-0.1352,0.0592,9.4062,-0.0376,0.0118,-0.1113,-1.5840188465514125,-0.012033295817673206,2.0204131603240967,-1.9985766410827637,0.00020609292550943792,2.0415616035461426,5.077212530165472,-0.00041464922833256423,0.2892371118068695,-1.5865300337420862,0.0,-4.976661875844002e-05,0.6713692545890808,0.00257339165546,0.12543818354606628,0.7375879883766174,0.01799098402261734,0.1958668977022171
362.0,379.0,-0.6467,-0.0873,9.3111,-0.0302,0.0076,-0.0887,-1.5840827427306117,-0.014537779614329338,1.987026333808899,-1.9985847473144531,0.0002194576954934746,1.9922516345977783,5.077240454941549,-0.00042278249748051167,0.278403639793396,-1.5865262190448206,0.0,-0.008491823449730873,0.671320915222168,0.0018680028151720762,0.13443027436733246,0.7377923727035522,0.02165815606713295,0.14523956179618835
362.0,379.0,-0.6467,-0.0873,9.3111,-0.0302,0.0076,-0.0887,-1.584254880944723,-0.015887614339590073,2.0188612937927246,-1.9985651969909668,0.0006148179527372122,2.0369911193847656,5.077224451094427,-0.00045287489774636924,0.29395872354507446,-1.5865138212787073,0.0,0.004923130385577679,0.671357274055481,0.0012631980935111642,0.124565988779068,0.7379723787307739,0.02448265627026558,0.18718881905078888
362.0,379.0,-0.6467,-0.0873,9.3111,-0.0302,0.0076,-0.0887,-1.5843783817686976,-0.01904384419322014,1.9969542026519775,-1.9985692501068115,0.0027970271185040474,2.0391345024108887,5.077236759453573,-0.0004019513726234436,0.2954888343811035,-1.586522404347555,0.0,0.00018507539061829448,0.6713204979896545,0.0008873868500813842,0.13946233689785004,0.7381160259246826,0.026530100032687187,0.20525243878364563
362.0,379.0,-0.6467,-0.0873,9.3111,-0.0302,0.0076,-0.0887,-1.5845185718932093,-0.021945226937532425,2.0446341037750244,-1.9985125064849854,0.004414955619722605,2.051039695739746,5.077232616930761,-0.00033773606992326677,0.29507192969322205,-1.5865419546710413,0.0,-0.001644912059418857,0.6713730096817017,0.0006559198955073953,0.12690414488315582,0.7383161187171936,0.026949439197778702,0.17961373925209045
362.0,379.0,-0.6467,-0.0873,9.3111,-0.0302,0.0076,-0.0887,-1.5846744976439417,-0.02652706950902939,2.0272979736328125,-1.998481273651123,0.005145634524524212,2.0163607597351074,5.077224451094427,-0.0002780863142106682,0.280697762966156,-1.586522404347555,0.0,-0.005781204905360937,0.6713930368423462,0.0003706325951498002,0.1271599680185318,0.7385925650596619,0.028234992176294327,0.1668286919593811
362.0,379.0,-0.6467,-0.0873,9.3111,-0.0302,0.0076,-0.0887,-1.5848905048766078,-0.03186133876442909,2.039494752883911,-1.9984171390533447,0.0050244415178895,2.0561165809631348,5.077212530165472,-0.00023634826357010752,0.2920028269290924,-1.5865462462054651,0.0,-0.0041722869500517845,0.6714256405830383,0.00033441148116253316,0.1273655742406845,0.7387604713439941,0.029366079717874527,0.19395136833190918
362.0,379.0,-0.6467,-0.0873,9.3111,-0.0302,0.0076,-0.0887,-1.5852624378600062,-0.037247221916913986,1.9640185832977295,-1.998376727104187,0.004550401587039232,2.0306613445281982,5.077240454941549,-0.00023460056399926543,0.30170032382011414,-1.5865262190448206,0.0,0.0019899329636245966,0.6713729500770569,0.0002680439210962504,0.12368829548358917,0.7390283346176147,0.03294586017727852,0.1699090600013733
362.0,379.0,-0.6467,-0.0873,9.3111,-0.0302,0.0076,-0.0887,-1.5855862102904261,-0.043762486428022385,2.0003998279571533,-1.9983817338943481,0.0028857190627604723,2.033916473388672,5.077264594822683,-0.00020775313896592706,0.3013111352920532,-1.5865381399737757,0.0,-0.002669291105121374,0.671324610710144,0.0002608952345326543,0.12760625779628754,0.7393123507499695,0.0375354140996933,0.18650439381599426
362.0,379.0,-0.6467,-0.0873,9.3111,-0.0302,0.0076,-0.0887,-1.5859180889525355,-0.05298176035284996,2.020905017852783,-1.9983253479003906,0.0019469193648546934,2.026021718978882,5.07722036817626,-0.00018625451775733382,0.3039880096912384,-1.5864899794207972,0.0,-0.004431679844856262,0.6713930368423462,0.00024108696379698813,0.13934822380542755,0.7396120429039001,0.044887591153383255,0.2051144242286682
362.0,379.0,-0.6467,-0.0873,9.3111,-0.0302,0.0076,-0.0887,-1.586269041100973,-0.058283403515815735,1.936244010925293,-1.9983447790145874,0.0014601560542359948,2.057778835296631,5.077236372023382,-0.000172840227605775,0.29202479124069214,-1.5865019003497522,0.0,0.006172711029648781,0.6713728904724121,0.0002345539105590433,0.1320863515138626,0.739888072013855,0.05184851586818695,0.22051694989204407
362.0,379.0,-0.6467,-0.0873,9.3111,-0.0302,0.0076,-0.0887,-1.5867687664427699,-0.06584618240594864,1.952417254447937,-1.9982737302780151,0.0008100428967736661,2.0328919887542725,5.077208447247305,-0.0001576973299961537,0.2873147130012512,-1.5864937941180628,0.0,0.004199686460196972,0.6714411377906799,0.0005696438602171838,0.11874888837337494,0.7403196692466736,0.06473954021930695,0.24844935536384583
362.0,379.0,-0.6467,-0.0873,9.3111,-0.0302,0.0076,-0.0887,-1.5873447857298792,-0.07205593585968018,1.9534642696380615,-1.9983367919921875,0.0005061626434326172,2.0371522903442383,5.077244537859716,-0.00014499416283797473,0.30039843916893005,-1.5865019003497522,1.225137680194166e-08,0.0016111156437546015,0.6713848114013672,0.0006359951221384108,0.15050756931304932,0.74095219373703,0.07781592756509781,0.254051148891449
375.0,389.0,-0.4786,0.5067,8.3468,0.0107,-0.0524,-0.0334,-1.5879599056639613,-0.07484295964241028,1.9834411144256592,-1.9983248710632324,0.0003681051603052765,1.9796923398971558,5.077248620777883,-9.931562090059742e-05,0.28706032037734985,-1.5865138212787073,2.226627356886196e-13,0.008671876974403858,0.6713969111442566,0.0007206443697214127,0.13394367694854736,0.7416202425956726,0.08840757608413696,0.2217085063457489
375.0,389.0,-0.4786,0.5067,8.3468,0.0107,-0.0524,-0.0334,-1.5885993442931117,-0.07452359050512314,1.965598464012146,-1.9983294010162354,0.0002892276388593018,2.0215468406677246,5.077232616930761,-0.00012497615534812212,0.29074424505233765,-1.5864980856524866,4.046785518700819e-18,-0.0016037519089877605,0.6714370846748352,0.000599951483309269,0.1232747733592987,0.742347776889801,0.09456578642129898,0.2787543535232544
375.0,389.0,-0.4786,0.5067,8.3468,0.0107,-0.0524,-0.0334,-1.5891109905638636,-0.07722797244787216,1.9823815822601318,-1.9983084201812744,0.0002491846971679479,1.9837207794189453,5.077216613083639,-0.0006609586998820305,0.2980906367301941,-1.5865219275103968,1.1264375339252897e-21,0.026964519172906876,0.671389102935791,0.00043081690091639757,0.13262704014778137,0.7429565191268921,0.09585127234458923,0.2572958469390869
375.0,389.0,-0.4786,0.5067,8.3468,0.0107,-0.0524,-0.0334,-1.5897466144957484,-0.08875881135463715,1.9569199085235596,-1.9983208179473877,0.00019830501696560532,2.0442488193511963,5.077144461661138,-0.0019483480136841536,0.2999707758426666,-1.5864856878863733,2.0472444256585834e-26,0.02025230973958969,0.6714050769805908,0.00037372493534348905,0.13881082832813263,0.7436873912811279,0.09647362679243088,0.20891642570495605
375.0,389.0,-0.4786,0.5067,8.3468,0.0107,-0.0524,-0.0334,-1.590518137017721,-0.09994745999574661,1.9306278228759766,-1.9983248710632324,0.00023906958813313395,2.03794264793396,5.077196854143896,-0.001358236069791019,0.28732961416244507,-1.5864899794207972,3.7207659375843282e-31,0.01578715816140175,0.6713647842407227,0.0002926649758592248,0.11969007551670074,0.7444389462471008,0.09340956807136536,0.2537131607532501
375.0,389.0,-0.4786,0.5067,8.3468,0.0107,-0.0524,-0.0334,-1.5913053951659144,-0.10952736437320709,1.9319154024124146,-1.9982730150222778,0.0048786043189466,2.0502843856811523,5.077208447247305,-0.00027528201462700963,0.289333701133728,-1.5864699522601526,6.762307477058497e-36,0.007235038559883833,0.6713683009147644,0.000240509063587524,0.11918427795171738,0.7451993823051453,0.09723733365535736,0.224322110414505
375.0,389.0,-0.4786,0.5067,8.3468,0.0107,-0.0524,-0.0334,-1.5922008953490199,-0.1174168735742569,1.90375816822052,-1.9982211589813232,0.009306416846811771,2.088433265686035,5.077224451094427,-0.00017051918257493526,0.2933133840560913,-1.5864737669574183,1.229022831120724e-40,0.020192421972751617,0.6713487505912781,0.00020413417951203883,0.13140735030174255,0.7459911704063416,0.10804376751184464,0.260525107383728
375.0,389.0,-0.4786,0.5067,8.3468,0.0107,-0.0524,-0.0334,-1.593252798120016,-0.11939575523138046,1.930011510848999,-1.9981410503387451,0.012894811108708382,2.068157196044922,5.07718055227355,-6.181594653753564e-05,0.28471869230270386,-1.5864937941180628,2.802596928649634e-45,0.020915012806653976,0.6713528037071228,0.00017731758998706937,0.11890600621700287,0.7469397187232971,0.11873101443052292,0.2723652422428131
375.0,389.0,-0.4786,0.5067,8.3468,0.0107,-0.0524,-0.0334,-1.5940524540343226,-0.1168072372674942,1.9336539506912231,-1.9979932308197021,0.012074192985892296,2.020895004272461,5.0771846053893945,-5.1249113312223926e-05,0.29330727458000183,-1.5864818731891077,0.0,0.014767823740839958,0.6713646650314331,0.0001614151115063578,0.1199304461479187,0.7476635575294495,0.12342856824398041,0.27399584650993347
375.0,389.0,-0.4786,0.5067,8.3468,0.0107,-0.0524,-0.0334,-1.5950757465758265,-0.12000695616006851,1.9834250211715698,-1.997972846031189,0.007816518656909466,2.0367136001586914,5.077172773867407,-8.272934792330489e-05,0.2801534831523895,-1.5865262190448206,2.3431970475940034e-05,0.023509826511144638,0.6713647842407227,0.00014417513739317656,0.1098681092262268,0.7486587762832642,0.12934671342372894,0.24392926692962646
375.0,389.0,-0.4786,0.5067,8.3468,0.0107,-0.0524,-0.0334,-1.5961147747435511,-0.13878051936626434,1.9145102500915527,-1.997941493988037,0.002372673712670803,2.0618948936462402,5.077216613083639,-0.00010553646279731765,0.29069069027900696,-1.5865019003497522,0.00010168732842430472,0.0324898436665535,0.6713890433311462,0.00013026251690462232,0.11499741673469543,0.7496623396873474,0.12875017523765564,0.24751344323158264
377.0,389.0,0.4002,-0.3763,8.6058,-0.022,-0.1397,0.0305,-1.5971976719298304,-0.15142254531383514,1.8923360109329224,-1.9979215860366821,0.001017291215248406,2.0233993530273438,5.077216613083639,3.406819814699702e-05,0.29718509316444397,-1.5864899794207972,9.325901191914454e-05,0.01797010377049446,0.671344518661499,0.00011879911471623927,0.10549766570329666,0.7506660223007202,0.12692111730575562,0.201228067278862
377.0,389.0,0.4002,-0.3763,8.6058,-0.022,-0.1397,0.0305,-1.5984450779356898,-0.15519669651985168,1.8809173107147217,-1.9978610277175903,0.0038524942938238382,2.052173137664795,5.077212530165472,7.57388406782411e-05,0.2869999408721924,-1.5865019003497522,0.00010319334251107648,0.020641222596168518,0.6713889241218567,0.00010918997577391565,0.1157265305519104,0.7517101764678955,0.1305953562259674,0.21872329711914062
377.0,389.0,0.4002,-0.3763,8.6058,-0.022,-0.1397,0.0305,-1.599356313745016,-0.14132419228553772,1.912551999092102,-1.9977935552597046,0.008056971244513988,2.032285690307617,5.07722036817626,8.291011909022927e-05,0.26952728629112244,-1.586506191884176,9.773244528332725e-05,0.012638866901397705,0.6713889241218567,0.0001029450650094077,0.10470500588417053,0.7525419592857361,0.13641603291034698,0.24559712409973145
377.0,389.0,0.4002,-0.3763,8.6058,-0.022,-0.1397,0.0305,-1.6005555591978968,-0.13800570368766785,1.9067606925964355,-1.9978134632110596,0.007084765005856752,2.029222249984741,5.077228504210272,7.384317723335698e-05,0.2871816158294678,-1.5864580313311976,9.113474516198039e-05,0.017744798213243484,0.6713807582855225,9.565109212417156e-05,0.10773265361785889,0.7536296248435974,0.14314581453800201,0.2917202413082123
377.0,389.0,0.4002,-0.3763,8.6058,-0.022,-0.1397,0.0305,-1.6017385921873988,-0.15621700882911682,1.914346694946289,-1.9976977109909058,0.0022053502034395933,2.0354092121124268,5.077236759453573,5.610284279100597e-05,0.2811795175075531,-1.5864618460284632,9.865606989478692e-05,0.025046437978744507,0.6714015007019043,8.932210766943172e-05,0.1041347086429596,0.7548375725746155,0.1452043056488037,0.30616915225982666
377.0,389.0,0.4002,-0.3763,8.6058,-0.022,-0.1397,0.0305,-1.6030017338194789,-0.17276450991630554,1.8666751384735107,-1.9977256059646606,0.0001390564866596833,2.016226291656494,5.077260541706838,4.3657058995449916e-05,0.27936333417892456,-1.5864899794207972,0.00019856757717207074,0.035742927342653275,0.6714015007019043,6.981601472944021e-05,0.10950124263763428,0.7559935450553894,0.14203192293643951,0.1842365264892578
377.0,389.0,0.4002,-0.3763,8.6058,-0.022,-0.1397,0.0305,-1.6042562923827113,-0.16994139552116394,1.8340158462524414,-1.9976654052734375,0.0029722449835389853,2.018490791320801,5.0772805390651605,0.00010481266508577392,0.2744084298610687,-1.5864742437945765,0.00023327645612880588,0.03805040568113327,0.6713889241218567,6.573621794814244e-05,0.09899567067623138,0.7570770382881165,0.13964354991912842,0.24617645144462585
377.0,389.0,0.4002,-0.3763,8.6058,-0.022,-0.1397,0.0305,-1.605600496331686,-0.15509191155433655,1.8723499774932861,-1.9976658821105957,0.009932301007211208,2.035111904144287,5.077248233347692,0.0001676620595389977,0.27395081520080566,-1.5864537397967737,0.00045726203825324774,0.03731232509016991,0.671389102935791,6.210716674104333e-05,0.11097623407840729,0.7582129240036011,0.1323166936635971,0.16892480850219727
377.0,389.0,0.4002,-0.3763,8.6058,-0.022,-0.1397,0.0305,-1.6066028080382289,-0.15136204659938812,1.9041708707809448,-1.9975413084030151,0.011175277642905712,2.0040571689605713,5.07724820354537,0.0001207098102895543,0.274740993976593,-1.5864418188678187,0.000350360554875806,0.03827505558729172,0.671344518661499,5.9637855883920565e-05,0.10223080217838287,0.759064793586731,0.1334305703639984,0.18037086725234985
377.0,389.0,0.4002,-0.3763,8.6058,-0.022,-0.1397,0.0305,-1.6079017124571742,-0.1640254259109497,1.916513442993164,-1.9975457191467285,0.00808730535209179,2.0312795639038086,5.077196228295126,7.918335177237168e-05,0.2722129225730896,-1.586438004170553,0.00026711777900345623,0.05489157885313034,0.6713929772377014,5.6635504734003916e-05,0.10618212819099426,0.7601401805877686,0.1370403915643692,0.1593073606491089
377.0,389.0,0.4002,-0.3763,8.6058,-0.022,-0.1397,0.0305,-1.6092168293394984,-0.18130707740783691,1.8678548336029053,-1.9974980354309082,0.0050862254574894905,2.0346531867980957,5.077280926495352,3.3667754905764014e-05,0.27021312713623047,-1.586449925099508,0.0002908834139816463,0.05924874544143677,0.6714174747467041,5.3921037761028856e-05,0.1024453192949295,0.7612038850784302,0.13917888700962067,0.1297006458044052
377.0,389.0,0.4002,-0.3763,8.6058,-0.022,-0.1397,0.0305,-1.6105600796141566,-0.17749269306659698,1.9045730829238892,-1.9974613189697266,0.005776637699455023,2.049870014190674,5.077284741192617,2.9283966796356253e-05,0.2809351086616516,-1.5864256064044397,0.0002900536055676639,0.0535101443529129,0.6713770031929016,5.145477916812524e-05,0.09882323443889618,0.7623520493507385,0.13258109986782074,0.11829417943954468
381.0,399.0,-0.146,-0.679,8.6315,-0.0759,-0.1558,0.0104,-1.6118947468199671,-0.17318716645240784,1.862899661064148,-1.9973491430282593,0.009726173244416714,2.0040087699890137,5.077268707543173,4.286338298697956e-05,0.276553213596344,-1.5864580313311976,0.00024072520318441093,0.05732295662164688,0.6713564395904541,3.248207349315635e-06,0.08533192425966263,0.7634084820747375,0.12124110758304596,0.048999615013599396
381.0,399.0,-0.146,-0.679,8.6315,-0.0759,-0.1558,0.0104,-1.6129661999144496,-0.17010633647441864,1.8995256423950195,-1.997298002243042,0.012627286836504936,2.0346310138702393,5.077300685435095,3.750819087144919e-05,0.27733445167541504,-1.5864456335650843,0.00021236148313619196,0.057779017835855484,0.6713528633117676,9.041504211992901e-10,0.10339568555355072,0.7641487717628479,0.11835598945617676,0.10168285667896271
381.0,399.0,-0.146,-0.679,8.6315,-0.0759,-0.1558,0.0104,-1.6143652401366175,-0.17125454545021057,1.8977878093719482,-1.9971891641616821,0.014553364366292953,2.0484673976898193,5.077252375870504,3.2148094760486856e-05,0.2751680016517639,-1.5864298979388636,0.00015298202924896032,0.0587359257042408,0.6713569164276123,1.6432486610578473e-14,0.10288824141025543,0.7650530934333801,0.11551571637392044,0.07587572932243347
381.0,399.0,-0.146,-0.679,8.6315,-0.0759,-0.1558,0.0104,-1.6157518825926722,-0.1772913783788681,1.899294376373291,-1.9970625638961792,0.012074925936758518,2.055549144744873,5.077256458788671,3.323902220131458e-08,0.27929043769836426,-1.5864418188678187,0.00013461204071063548,0.05146510899066925,0.6713929772377014,2.9865226769256353e-19,0.09787999093532562,0.7659459114074707,0.11715088039636612,0.09624236077070236
381.0,399.0,-0.146,-0.679,8.6315,-0.0759,-0.1558,0.0104,-1.6171347103514613,-0.18923082947731018,1.8711774349212646,-1.9969935417175293,0.008981381542980671,2.0499353408813477,5.077208447247305,6.041028679897031e-13,0.26123929023742676,-1.5864456335650843,0.00012022529699606821,0.06003573536872864,0.6714056134223938,5.4278568548472296e-24,0.08474256098270416,0.76690673828125,0.12325385212898254,0.10855206102132797
381.0,399.0,-0.146,-0.679,8.6315,-0.0759,-0.1558,0.0104,-1.6186262569823207,-0.18917198479175568,1.8979976177215576,-1.9969096183776855,0.009137852117419243,2.068767786026001,5.077224451094427,1.0979271667992905e-17,0.2732493281364441,-1.586426083241598,0.00013034013682045043,0.06087395176291466,0.6713930368423462,9.864860536778654e-29,0.09702792763710022,0.7678636312484741,0.11733351647853851,0.12179061770439148
381.0,399.0,-0.146,-0.679,8.6315,-0.0759,-0.1558,0.0104,-1.620141168633932,-0.17657694220542908,1.9391430616378784,-1.9968103170394897,0.01441938616335392,2.055135726928711,5.07723222950057,1.9954283298131083e-22,0.27030879259109497,-1.5864179770099085,0.0001188638707390055,0.06066597253084183,0.671380877494812,1.792889697813077e-33,0.10017138719558716,0.7687157392501831,0.10253938287496567,0.053001973778009415
381.0,399.0,-0.146,-0.679,8.6315,-0.0759,-0.1558,0.0104,-1.621227880517477,-0.17731072008609772,1.9413111209869385,-1.996706485748291,0.01593065820634365,2.044978618621826,5.07724820354537,5.554348063245767e-26,0.27518945932388306,-1.586506191884176,0.00011150059435749426,0.057452790439128876,0.6713604927062988,4.990574037289706e-37,0.10404425859451294,0.7694007158279419,0.09999469667673111,0.0410604327917099
381.0,399.0,-0.146,-0.679,8.6315,-0.0759,-0.1558,0.0104,-1.6227904758849085,-0.19807547330856323,1.887352466583252,-1.996614694595337,0.012612767517566681,2.0203843116760254,5.077224451094427,1.009475333994637e-30,0.2784336805343628,-1.5864298979388636,8.640860323794186e-05,0.05094469338655472,0.6713765263557434,9.070604959574541e-42,0.09753713011741638,0.7701652646064758,0.0961342453956604,0.04542510211467743
381.0,399.0,-0.146,-0.679,8.6315,-0.0759,-0.1558,0.0104,-1.6244503460326136,-0.21411193907260895,1.8330917358398438,-1.9965177774429321,0.010996448807418346,2.030740976333618,5.077224451094427,1.8346717491169678e-35,0.26440316438674927,-1.5864699522601526,7.974429900059476e-05,0.05171880125999451,0.6713285446166992,0.0,0.10206355154514313,0.7708895802497864,0.09475810080766678,0.07235817611217499
381.0,399.0,-0.146,-0.679,8.6315,-0.0759,-0.1558,0.0104,-1.626108785668844,-0.19867053627967834,1.8908885717391968,-1.996437907218933,0.014065282419323921,2.0753440856933594,5.077280926495352,3.334431734814832e-40,0.28414323925971985,-1.5864418188678187,7.44658027542755e-05,0.03821270167827606,0.6713604927062988,0.0,0.0897672027349472,0.7716184258460999,0.09633283317089081,0.09907586127519608
381.0,399.0,-0.146,-0.679,8.6315,-0.0759,-0.1558,0.0104,-1.6277796230711878,-0.198316290974617,1.9527544975280762,-1.996297836303711,0.016228895634412766,2.040208578109741,5.077244537859716,5.605193857299268e-45,0.28023889660835266,-1.586426083241598,6.984272476984188e-05,0.04254040867090225,0.6713765263557434,0.0,0.10001261532306671,0.772362470626831,0.10057713836431503,0.13470453023910522
397.0,459.0,-0.0389,1.1468,8.9988,0.0098,-0.1862,-0.0622,-1.6290184460081996,-0.20840363204479218,1.8702938556671143,-1.9962178468704224,0.013991166837513447,2.0145111083984375,5.077220785408773,0.0,0.27508625388145447,-1.586438004170553,6.673541793134063e-05,0.03971443697810173,0.671360969543457,0.0,0.09706152975559235,0.7729510068893433,0.09923052042722702,0.08620177954435349
397.0,459.0,-0.0389,1.1468,8.9988,0.0098,-0.1862,-0.0622,-1.6307527027525843,-0.2142525315284729,1.9511253833770752,-1.996078372001648,0.011549840681254864,2.008086681365967,5.077236372023382,0.0,0.265763521194458,-1.5864418188678187,6.299835513345897e-05,0.03508414700627327,0.6713683605194092,0.0,0.10424059629440308,0.7737477421760559,0.09732726216316223,0.13630029559135437
397.0,459.0,-0.0389,1.1468,8.9988,0.0098,-0.1862,-0.0622,-1.632467886010641,-0.216288223862648,1.8479678630828857,-1.9960697889328003,0.010538114234805107,1.9583790302276611,5.077260541706838,0.0,0.2616995573043823,-1.586449925099508,5.965760283288546e-05,0.044324468821287155,0.6714091300964355,0.0,0.1030825525522232,0.774520218372345,0.09353769570589066,0.16307681798934937
397.0,459.0,-0.0389,1.1468,8.9988,0.0098,-0.1862,-0.0622,-1.6341506443419398,-0.22830338776111603,1.8711342811584473,-1.9959462881088257,0.008429888635873795,2.029175043106079,5.077240752964773,-0.00027656470774672925,0.2702327072620392,-1.5864537397967737,5.6653356296010315e-05,0.04662948101758957,0.6713849902153015,0.0,0.09675753116607666,0.7752087712287903,0.0812363401055336,0.10946694761514664
397.0,459.0,-0.0389,1.1468,8.9988,0.0098,-0.1862,-0.0622,-1.6359459362425746,-0.22597624361515045,1.844077706336975,-1.9957979917526245,0.010950048454105854,1.97402024269104,5.077228534012594,-0.0002696625888347626,0.2603501081466675,-1.5864575544940394,5.3937186748953536e-05,0.04478705674409866,0.6713728904724121,0.0,0.09429450333118439,0.7757850289344788,0.06912136822938919,0.027815623208880424
397.0,459.0,-0.0389,1.1468,8.9988,0.0098,-0.1862,-0.0622,-1.6372600994505824,-0.21933391690254211,1.8847315311431885,-1.9957388639450073,0.015231411904096603,2.028757095336914,5.077264654427328,-0.0002062476851278916,0.26867377758026123,-1.586409870778219,5.206501737120561e-05,0.04487911984324455,0.6713164448738098,0.0,0.09948299825191498,0.7762055397033691,0.0647093877196312,0.06772220879793167
397.0,459.0,-0.0389,1.1468,8.9988,0.0098,-0.1862,-0.0622,-1.6390186748900355,-0.2198306769132614,1.9056224822998047,-1.9956063032150269,0.01976942829787731,2.0378611087799072,5.077232616930761,-0.00015196549065876752,0.26592308282852173,-1.586426083241598,4.97620967507828e-05,0.03113056719303131,0.671413779258728,0.0,0.09481188654899597,0.7766533493995667,0.06420794874429703,0.04320850595831871
397.0,459.0,-0.0389,1.1468,8.9988,0.0098,-0.1862,-0.0622,-1.6408130131163539,-0.22699370980262756,1.8668785095214844,-1.9954590797424316,0.01930503360927105,2.002270221710205,5.077216613083639,-5.834491457790136e-05,0.26082056760787964,-1.5864456335650843,9.044014981363091e-10,0.04385485500097275,0.6713604927062988,0.0,0.09649962186813354,0.7772344946861267,0.06726371496915817,0.05431424081325531
397.0,459.0,-0.0389,1.1468,8.9988,0.0098,-0.1862,-0.0622,-1.6426483593382777,-0.23186880350112915,1.9378232955932617,-1.9953233003616333,0.021048763766884804,2.0198192596435547,5.077216613083639,-4.6320066758198664e-05,0.25530147552490234,-1.5864136854754847,1.643705042409828e-14,0.04484933614730835,0.6713683009147644,0.0,0.10651802271604538,0.7777669429779053,0.06819888949394226,0.0068189483135938644
397.0,459.0,-0.0389,1.1468,8.9988,0.0098,-0.1862,-0.0622,-1.6444226704039515,-0.23318970203399658,1.9294382333755493,-1.9951109886169434,0.026520734652876854,2.0664191246032715,5.077264535218038,-3.841045327135362e-05,0.2628318965435028,-1.5864337126361292,2.9873524424776025e-19,0.04836193844676018,0.6713528633117676,0.0,0.09857633709907532,0.7782350182533264,0.06536640226840973,-0.011097999289631844
397.0,459.0,-0.0389,1.1468,8.9988,0.0098,-0.1862,-0.0622,-1.6462613544859828,-0.22706660628318787,1.932658076286316,-1.9947381019592285,0.03484184294939041,2.0333807468414307,5.077248620777883,-2.67490318783814e-09,0.2699984312057495,-1.586409870778219,5.429365156898012e-24,0.03877682238817215,0.6713973879814148,0.0,0.09486836194992065,0.7787995338439941,0.06117410957813263,-0.003762685228139162
397.0,459.0,-0.0389,1.1468,8.9988,0.0098,-0.1862,-0.0622,-1.6476203403868617,-0.226822629570961,1.9261417388916016,-1.9945825338363647,0.04093235731124878,2.0612330436706543,5.077224451094427,-7.445690656908421e-13,0.27347058057785034,-1.586426083241598,1.5112838718189721e-27,0.05070182681083679,0.6712921857833862,0.0,0.09592783451080322,0.779139518737793,0.059492327272892,-0.020191248506307602
415.0,718.0,-0.1998,1.0355,9.6407,0.0003,-0.1321,-0.1023,-1.6495148144164027,-0.2346019595861435,1.9011187553405762,-1.9941630363464355,0.05018721520900726,2.073209047317505,5.077264535218038,-1.3532174377096938e-17,0.2701166868209839,-1.5864618460284632,2.7466836100183734e-32,0.05637483298778534,0.6713973879814148,0.0,0.09432422369718552,0.7796283960342407,0.05655427649617195,-0.00946205947548151
415.0,718.0,-0.1998,1.0355,9.6407,0.0003,-0.1321,-0.1023,-1.6514297924437464,-0.2337115854024887,1.9765033721923828,-1.9937912225723267,0.060291215777397156,2.076866865158081,5.077244537859716,-2.4594062744408366e-22,0.2718926966190338,-1.5864580313311976,7.574876725868762e-09,0.04678570479154587,0.6714091300964355,0.0,0.08691081404685974,0.7800122499465942,0.049397412687540054,-0.03342345356941223
415.0,718.0,-0.1998,1.0355,9.6407,0.0003,-0.1321,-0.1023,-1.6533352337279261,-0.2386806458234787,1.9199168682098389,-1.9931994676589966,0.07076197117567062,2.0588700771331787,5.077236401825704,-4.469849593027526e-27,0.27218395471572876,-1.5864375273333948,1.376696608275385e-13,0.05527907609939575,0.6713724136352539,0.0,0.09781475365161896,0.7803766131401062,0.03906862065196037,-0.04941461235284805
415.0,718.0,-0.1998,1.0355,9.6407,0.0003,-0.1321,-0.1023,-1.6552888355650843,-0.25053489208221436,1.9357550144195557,-1.992575764656067,0.07758621871471405,2.0658023357391357,5.077280926495352,-8.123731549811027e-32,0.27652865648269653,-1.5864298979388636,2.502078250726937e-18,0.03672478720545769,0.6713931560516357,0.0,0.10067298263311386,0.780600368976593,0.0301603265106678,-0.07120157033205032
415.0,718.0,-0.1998,1.0355,9.6407,0.0003,-0.1321,-0.1023,-1.6568271122374476,-0.2419728934764862,1.9731485843658447,-1.9920040369033813,0.08498331904411316,2.086155652999878,5.077272820263662,-2.2612704441519137e-35,0.2794819474220276,-1.5864418188678187,6.964628012175017e-22,0.05322258174419403,0.6714370846748352,0.0,0.10182632505893707,0.7807643413543701,0.02492818795144558,-0.06637844443321228
415.0,718.0,-0.1998,1.0355,9.6407,0.0003,-0.1321,-0.1023,-1.6588331661620082,-0.24139143526554108,1.9540369510650635,-1.9913078546524048,0.09988688677549362,2.0828065872192383,5.077260452299871,-4.109742149156467e-40,0.27815744280815125,-1.5864537397967737,1.2657867181065983e-26,0.04427965357899666,0.6714215278625488,0.0,0.10662338137626648,0.7809485793113708,0.020529458299279213,-0.07040926814079285
415.0,718.0,-0.1998,1.0355,9.6407,0.0003,-0.1321,-0.1023,-1.6608597240843714,-0.25462397933006287,1.9440523386001587,-1.9904683828353882,0.10880930721759796,2.15207576751709,5.077236401825704,-7.006492321624085e-45,0.2844736874103546,-1.5864618460284632,2.3005047457598102e-31,0.04074028879404068,0.6713683605194092,0.0,0.10704220831394196,0.7811327576637268,0.018601074814796448,-0.027042096480727196
415.0,718.0,-0.1998,1.0355,9.6407,0.0003,-0.1321,-0.1023,-1.6628486118712367,-0.24871982634067535,2.0010457038879395,-1.989573359489441,0.11516256630420685,2.111107349395752,5.0772850690181635,-0.0,0.2712121605873108,-1.586438004170553,4.1810527482347784e-36,0.03329821676015854,0.6713643074035645,0.0,0.10523949563503265,0.7813051342964172,0.01793857105076313,-0.058537162840366364
415.0,718.0,-0.1998,1.0355,9.6407,0.0003,-0.1321,-0.1023,-1.66489901165151,-0.25674691796302795,1.9417946338653564,-1.9885972738265991,0.1259571611881256,2.151865243911743,5.077280866890707,-0.0,0.28245195746421814,-1.5864580313311976,7.598821182494186e-41,0.03811159357428551,0.6713767647743225,0.0,0.10234659910202026,0.7814130783081055,0.017856599763035774,0.04511801898479462
415.0,718.0,-0.1998,1.0355,9.6407,0.0003,-0.1321,-0.1023,-1.6669088802733363,-0.262528657913208,2.009328603744507,-1.9875456094741821,0.13118799030780792,2.177337646484375,5.077244508057394,-0.0,0.2797745168209076,-1.586426083241598,1.401298464324817e-45,0.03451322019100189,0.6713643074035645,0.0,0.10741153359413147,0.7814929485321045,0.017049714922904968,-0.08467285335063934
415.0,718.0,-0.1998,1.0355,9.6407,0.0003,-0.1321,-0.1023,-1.6684185467162074,-0.25654134154319763,2.0100066661834717,-1.9867430925369263,0.13549211621284485,2.114457607269287,5.077228176384725,-0.0,0.27621185779571533,-1.5864575544940394,0.0,0.04856337606906891,0.6714134216308594,0.0,0.11166977882385254,0.781609058380127,0.016256967559456825,-0.041557200253009796
481.0,878.0,0.2405,-0.0772,9.8046,-0.0304,-0.0628,-0.0881,-1.6704284153380335,-0.2541142702102661,2.0412542819976807,-1.9856154918670654,0.14831404387950897,2.204427719116211,5.077256458788671,-0.0,0.27943024039268494,-1.5864418188678187,0.0,0.03481120243668556,0.6713973879814148,0.0,0.10643938928842545,0.7817251682281494,0.016969092190265656,-0.0567670501768589
481.0,878.0,0.2405,-0.0772,9.8046,-0.0304,-0.0628,-0.0881,-1.6725102863707484,-0.2566615641117096,1.9939963817596436,-1.984464406967163,0.15906505286693573,2.1749753952026367,5.077204483538427,-0.0,0.28675955533981323,-1.5864375273333948,0.0,0.039955150336027145,0.6714210510253906,0.0,0.12082921713590622,0.7818936705589294,0.018002795055508614,-0.07206160575151443
481.0,878.0,0.2405,-0.0772,9.8046,-0.0304,-0.0628,-0.0881,-1.674511571923727,-0.2636905908584595,1.9699405431747437,-1.9831454753875732,0.16574245691299438,2.2135298252105713,5.077212530165472,-0.0,0.28085675835609436,-1.5864298979388636,0.0,0.04597875848412514,0.6713281273841858,0.0,0.11182907223701477,0.7820454239845276,0.021019786596298218,-0.014291319996118546
481.0,878.0,0.2405,-0.0772,9.8046,-0.0304,-0.0628,-0.0881,-1.6766215763487757,-0.26829618215560913,2.0073163509368896,-1.9817696809768677,0.1667580008506775,2.2333896160125732,5.077240782767095,-0.0,0.2779674828052521,-1.586478058491842,0.0,0.043552465736866,0.6714010238647461,1.9498240817483747e-06,0.12785881757736206,0.7821773886680603,0.02310466580092907,-0.028290145099163055
481.0,878.0,0.2405,-0.0772,9.8046,-0.0304,-0.0628,-0.0881,-1.6781517467894496,-0.26691651344299316,2.051504135131836,-1.9807099103927612,0.174502432346344,2.214735507965088,5.077216613083639,-0.0,0.27628594636917114,-1.5864337126361292,0.0,0.03542467579245567,0.6714009642601013,5.4274074123839e-10,0.11638696491718292,0.7823417782783508,0.02424839697778225,-0.00905059464275837
481.0,878.0,0.2405,-0.0772,9.8046,-0.0304,-0.0628,-0.0881,-1.6803022823729457,-0.26940658688545227,1.9776675701141357,-1.9793756008148193,0.19041399657726288,2.1749610900878906,5.077212589770117,-0.0,0.2802371680736542,-1.5864217917071741,0.0,0.03662360832095146,0.6714616417884827,9.864045954284702e-15,0.11842591315507889,0.7825661301612854,0.02521839737892151,-0.006619943305850029
481.0,878.0,0.2405,-0.0772,9.8046,-0.0304,-0.0628,-0.0881,-1.682422777215475,-0.2619667947292328,2.079972505569458,-1.9777194261550903,0.20548304915428162,2.2676706314086914,5.077168720751562,-0.0,0.28535136580467224,-1.5864418188678187,0.0,0.03501002490520477,0.6714050769805908,1.7927415622497585e-19,0.12335239350795746,0.782782256603241,0.027098650112748146,-0.005923227872699499
481.0,878.0,0.2405,-0.0772,9.8046,-0.0304,-0.0628,-0.0881,-1.684636732141012,-0.27056562900543213,2.0401370525360107,-1.9760559797286987,0.21003346145153046,2.235836982727051,5.077204423933782,-0.0,0.29013264179229736,-1.5864456335650843,0.0,0.04318739473819733,0.6714128851890564,3.2582193778446352e-24,0.11417779326438904,0.7830224633216858,0.03049459122121334,0.04130034148693085
481.0,878.0,0.2405,-0.0772,9.8046,-0.0304,-0.0628,-0.0881,-1.6868988476195277,-0.2868727445602417,1.9884085655212402,-1.9743983745574951,0.22309044003486633,2.260857582092285,5.077224778919973,-0.0,0.2764141261577606,-1.5864418188678187,0.0,0.037067610770463943,0.6714133620262146,5.921651985182573e-29,0.11795531958341599,0.7832344174385071,0.033896394073963165,0.01654844917356968
481.0,878.0,0.2405,-0.0772,9.8046,-0.0304,-0.0628,-0.0881,-1.6892363033690394,-0.2826639711856842,2.0399255752563477,-1.9725903272628784,0.23693859577178955,2.2488481998443604,5.077228504210272,-0.0,0.2705957889556885,-1.586449925099508,0.0,0.038059722632169724,0.671428918838501,1.4076272236707155e-05,0.13049092888832092,0.7834908366203308,0.03376459702849388,0.020346160978078842
481.0,878.0,0.2405,-0.0772,9.8046,-0.0304,-0.0628,-0.0881,-1.6910349331297816,-0.28881415724754333,2.0261943340301514,-1.9711191654205322,0.23876360058784485,2.2183847427368164,5.077252733498373,-0.0,0.2778635621070862,-1.586426083241598,0.0,0.038188621401786804,0.6714165806770325,0.00019853556295856833,0.11535094678401947,0.7836666107177734,0.033735208213329315,0.046613141894340515
481.0,878.0,0.2405,-0.0772,9.8046,-0.0304,-0.0628,-0.0881,-1.6933680973448695,-0.2896229326725006,1.9768190383911133,-1.969081163406372,0.2525121569633484,2.2536087036132812,5.0772646246250055,-0.0,0.276839017868042,-1.586466137562887,0.0,0.0334513857960701,0.6714010238647461,0.0002058776590274647,0.1262267678976059,0.7840072512626648,0.038957275450229645,-0.018042709678411484
565.0,896.0,0.5163,0.7125,10.0164,-0.0053,0.0246,-0.0951,-1.6956693134703578,-0.29073449969291687,2.016543388366699,-1.9670281410217285,0.2674976885318756,2.263890027999878,5.077212530165472,-0.00013012619456276298,0.271125853061676,-1.5864337126361292,0.0,0.03416547551751137,0.671420693397522,0.000208142984774895,0.11952774226665497,0.7843074202537537,0.04294947534799576,0.02810424193739891
565.0,896.0,0.5163,0.7125,10.0164,-0.0053,0.0246,-0.0951,-1.698043008843893,-0.29996785521507263,2.049506902694702,-1.964841604232788,0.2668074667453766,2.317511558532715,5.07719315865592,-0.002376799937337637,0.2697909474372864,-1.5864742437945765,0.0,0.02798943594098091,0.671465277671814,0.00030300210346467793,0.11647877097129822,0.7846634984016418,0.04689166694879532,0.050282396376132965
565.0,896.0,0.5163,0.7125,10.0164,-0.0053,0.0246,-0.0951,-1.7004486523070277,-0.2996708154678345,2.079511880874634,-1.9626004695892334,0.27698132395744324,2.3301587104797363,5.0771526274974725,-0.0009517156868241727,0.2757015824317932,-1.586426083241598,0.0,0.03448716551065445,0.6714087724685669,0.0002863712434191257,0.1181367039680481,0.7850561141967773,0.04684865102171898,0.05281221866607666
565.0,896.0,0.5163,0.7125,10.0164,-0.0053,0.0246,-0.0951,-1.7022067509093226,-0.29865163564682007,2.075671911239624,-1.9609099626541138,0.28634893894195557,2.3399229049682617,5.077172773867407,-0.0002921545528806746,0.2645951509475708,-1.5864618460284632,0.0,0.05879594385623932,0.6713767647743225,0.0002470988838467747,0.13270388543605804,0.7853240370750427,0.04401494935154915,0.0328335165977478
565.0,896.0,0.5163,0.7125,10.0164,-0.0053,0.0246,-0.0951,-1.7045680485167445,-0.29687175154685974,2.1343369483947754,-1.9586373567581177,0.2945074439048767,2.3359580039978027,5.077224778919973,-0.00026526153669692576,0.26221853494644165,-1.586438004170553,0.0,0.04056908190250397,0.6714247465133667,0.00020886123820673674,0.11812272667884827,0.785692572593689,0.03900579735636711,0.03503016382455826
565.0,896.0,0.5163,0.7125,10.0164,-0.0053,0.0246,-0.0951,-1.706921716729635,-0.29757997393608093,2.0725159645080566,-1.956211805343628,0.30538398027420044,2.3565480709075928,5.0771846053893945,-0.0001904400996863842,0.2705816626548767,-1.5864575544940394,0.0,0.044507067650556564,0.671428918838501,0.0001808738015824929,0.12870261073112488,0.7859765291213989,0.03771008923649788,0.027132097631692886
565.0,896.0,0.5163,0.7125,10.0164,-0.0053,0.0246,-0.0951,-1.709238668481344,-0.3002672493457794,2.1019890308380127,-1.9537055492401123,0.31605035066604614,2.3303089141845703,5.077192771225729,-0.00014851636660750955,0.27733534574508667,-1.5864575544940394,0.0,0.04592577740550041,0.6714612245559692,0.00015950154920574278,0.11573715507984161,0.7863253355026245,0.03694453835487366,-0.015778617933392525
565.0,896.0,0.5163,0.7125,10.0164,-0.0053,0.0246,-0.0951,-1.7116762600340785,-0.30495959520339966,2.050123453140259,-1.9511888027191162,0.3246053457260132,2.384718418121338,5.077160763531484,-0.00012172565766377375,0.2743443548679352,-1.5864418188678187,0.0,0.03557649999856949,0.6714329719543457,0.00014264669152908027,0.10746961832046509,0.7865611910820007,0.03599008172750473,0.050170063972473145
565.0,896.0,0.5163,0.7125,10.0164,-0.0053,0.0246,-0.0951,-1.7140857181944789,-0.29854634404182434,2.1213345527648926,-1.9485766887664795,0.33075180649757385,2.368783473968506,5.077164548426428,-0.00010312481026630849,0.2789005637168884,-1.5864418188678187,0.0,0.021532591432332993,0.6713850498199463,0.00012901365698780864,0.12264129519462585,0.7868658304214478,0.03525370731949806,0.009648090228438377
