ramyac6/ROB537/final_project/csv/good/good_13.csv
tof_0,tof_1,accelx,accely,accelz,gyrox,gyroy,gyroz,shoulder_lift_joint_position,shoulder_lift_joint_velocity,shoulder_lift_joint_effort,elbow_joint_position,elbow_joint_velocity,elbow_joint_effort,wrist_1_joint_position,wrist_1_joint_velocity,wrist_1_joint_effort,wrist_2_joint_position,wrist_2_joint_velocity,wrist_2_joint_effort,wrist_3_joint_position,wrist_3_joint_velocity,wrist_3_joint_effort,shoulder_pan_joint_position,shoulder_pan_joint_velocity,shoulder_pan_joint_effort
288.0,326.0,6.2895,-0.469,6.4881,-0.049,0.0205,-0.1129,-1.555719844331481,6.66443957015872e-05,2.0732645988464355,-1.3138890266418457,-0.0,2.110863208770752,-2.5519892177977503,0.0,0.2767530679702759,-1.2482770125018519,-0.0,-0.02924531139433384,0.44502079486846924,0.0,-0.011823827400803566,1.3212326765060425,0.0,0.01368761993944645
288.0,326.0,6.2895,-0.469,6.4881,-0.049,0.0205,-0.1129,-1.5557081040791054,7.221231498988345e-05,2.0490245819091797,-1.313845157623291,-0.0,2.135514974594116,-2.5520574055113734,0.0,0.2684793472290039,-1.2482813040362757,-0.0,-0.04138161242008209,0.4451213777065277,0.0,-0.014395240694284439,1.321216344833374,0.0,-0.037219688296318054
288.0,326.0,6.2895,-0.469,6.4881,-0.049,0.0205,-0.1129,-1.5557118899053712,7.34468994778581e-05,2.0393447875976562,-1.3138736486434937,-0.0,2.154175281524658,-2.552025457421774,0.0,0.27415555715560913,-1.2482770125018519,-0.0,-0.03346403315663338,0.44510912895202637,0.0,-0.017687151208519936,1.3211921453475952,0.0,0.030048921704292297
288.0,326.0,6.2895,-0.469,6.4881,-0.049,0.0205,-0.1129,-1.5557238145596166,6.965726788621396e-05,2.002485752105713,-1.3138413429260254,-0.0,2.1248364448547363,-2.5520335636534632,0.0,0.26816344261169434,-1.2482975164996546,-0.0,-0.033516861498355865,0.4450972080230713,0.0,-0.011246321722865105,1.3212404251098633,0.0,-0.01765165664255619
288.0,326.0,6.2895,-0.469,6.4881,-0.049,0.0205,-0.1129,-1.5557319245165964,7.823705527698621e-05,2.048250913619995,-1.3138970136642456,-1.8672324131330242e-07,2.114935874938965,-2.552042146722311,0.0,0.2747902274131775,-1.2483380476581019,-0.0,-0.0314839631319046,0.4450809061527252,0.0,-0.01316012628376484,1.3212084770202637,0.0,-0.008561551570892334
288.0,326.0,6.2895,-0.469,6.4881,-0.049,0.0205,-0.1129,-1.5557597794434805,7.45365468901582e-05,2.0550191402435303,-1.3138974905014038,-6.049595283134359e-15,2.1215689182281494,-2.552037855187887,-8.881024768925272e-06,0.28210729360580444,-1.2483213583575647,-0.0,-0.039163436740636826,0.4450972080230713,0.0,0.0030083388555794954,1.3212323188781738,0.0,0.0047035859897732735
288.0,326.0,6.2895,-0.469,6.4881,-0.049,0.0205,-0.1129,-1.555703954105713,7.198173989308998e-05,2.047541856765747,-1.3138736486434937,-1.4609061364910633e-20,2.1219847202301025,-2.5520297489561976,-2.472065441239124e-09,0.27566325664520264,-1.2483299414264124,-0.0,-0.03926293924450874,0.44507718086242676,0.0,-0.00569853326305747,1.321244478225708,0.0,0.020634308457374573
274.0,320.0,6.323,-0.0538,6.5815,-0.0736,-0.0586,-0.1203,-1.5557198210484167,9.337227311334573e-07,2.05046010017395,-1.3139092922210693,-4.733150023886516e-28,2.1130642890930176,-2.552037855187887,-4.4928568921883197e-14,0.2751069962978363,-1.2483018080340784,-0.0,-0.029371993616223335,0.44511738419532776,0.0,-0.0042684655636549,1.3212244510650635,0.0,0.016594713553786278
274.0,320.0,6.323,-0.0538,6.5815,-0.0736,-0.0586,-0.1203,-1.5556879046237846,2.2548304369485184e-12,2.0928821563720703,-1.3138890266418457,-1.1429998298747208e-33,2.132816791534424,-2.5520817242064417,-1.2506033666167756e-17,0.2724093496799469,-1.2483018080340784,-0.0,-0.02734396606683731,0.44509315490722656,0.0,-0.009064136072993279,1.321216344833374,0.0,0.01993612013757229
274.0,320.0,6.323,-0.0538,6.5815,-0.0736,-0.0586,-0.1203,-1.555647961129882,7.305364486975118e-20,2.066169261932373,-1.3138651847839355,-3.703211451671194e-41,2.1242332458496094,-2.5520335636534632,-2.2729094590270026e-22,0.263801246881485,-1.248333756123678,-0.0,-0.03447879105806351,0.4450489282608032,0.0,-0.011741181835532188,1.3212363719940186,0.0,0.04411451518535614
274.0,320.0,6.323,-0.0538,6.5815,-0.0736,-0.0586,-0.1203,-1.555703954105713,1.7641594711487274e-25,2.071850538253784,-1.3139053583145142,-0.0,2.1178112030029297,-2.5519334278502406,-6.326726705928317e-26,0.26362311840057373,-1.2483060995685022,-0.0,-0.026425030082464218,0.44503262639045715,0.0,-0.019231071695685387,1.3212405443191528,0.0,0.0015363292768597603
274.0,320.0,6.323,-0.0538,6.5815,-0.0736,-0.0586,-0.1203,-1.5557319161346932,5.7156520997512875e-33,2.087191104888916,-1.3138890266418457,-0.0,2.087017774581909,-2.5520698032774867,-1.1498513647370656e-30,0.2761346101760864,-1.2482813040362757,-0.0,-0.03861932083964348,0.44503268599510193,0.0,0.00907711498439312,1.321216344833374,0.0,-0.021052934229373932
274.0,320.0,6.323,-0.0538,6.5815,-0.0736,-0.0586,-0.1203,-1.555703954105713,1.380262872427605e-38,2.0404884815216064,-1.3138810396194458,-0.0,2.142251491546631,-2.5520016155638636,-3.2006534671631944e-34,0.2717495858669281,-1.2483132521258753,-0.0,-0.03501833230257034,0.44500890374183655,0.0,0.004955487325787544,1.3212363719940186,0.0,-0.01924118958413601
274.0,320.0,6.323,-0.0538,6.5815,-0.0736,-0.0586,-0.1203,-1.5557279468378802,0.0,2.042776107788086,-1.3138532638549805,-0.0,2.084458351135254,-2.5519896946349085,-5.817029547449715e-39,0.257024884223938,-1.2483175436602991,-0.0,-0.02816125378012657,0.44509318470954895,0.0,-0.00023144579608924687,1.3212363719940186,0.0,-0.04723243787884712
274.0,320.0,6.323,-0.0538,6.5815,-0.0736,-0.0586,-0.1203,-1.5557079550674935,0.0,2.1019694805145264,-1.313876986503601,-0.0,2.124314546585083,-2.5520297489561976,-1.6184997262951637e-42,0.26291489601135254,-1.2482450644122522,-0.0,-0.02254151552915573,0.44504085183143616,0.0,-0.007560716010630131,1.321252703666687,0.0,0.015622659586369991
274.0,320.0,6.323,-0.0538,6.5815,-0.0736,-0.0586,-0.1203,-1.555683991206326,0.0,2.0233678817749023,-1.3138571977615356,-0.0,2.166954517364502,-2.5520059070982875,-0.0,0.2673894166946411,-1.2483175436602991,-0.0,-0.03347431868314743,0.4450649321079254,0.0,0.004732911475002766,1.3212203979492188,0.0,-0.011835466139018536
274.0,320.0,6.323,-0.0538,6.5815,-0.0736,-0.0586,-0.1203,-1.5556759995273133,0.0,2.041956901550293,-1.3138413429260254,-0.0,2.1309890747070312,-2.5520016155638636,-0.0,0.28226238489151,-1.2483213583575647,-0.0,-0.04210039973258972,0.44508132338523865,0.0,-0.0141217652708292,1.3212203979492188,-2.2924401491764e-05,-0.007231061812490225
274.0,320.0,6.323,-0.0538,6.5815,-0.0736,-0.0586,-0.1203,-1.5557158666527648,0.0,2.1118836402893066,-1.3139053583145142,-0.0,2.0867319107055664,-2.5520664654173792,-0.0,0.2768414616584778,-1.2483418623553675,-0.0,-0.028410017490386963,0.4451177418231964,0.0,-0.009715426713228226,1.3212121725082397,-7.427215309788182e-13,-0.009633327834308147
274.0,320.0,6.323,-0.0538,6.5815,-0.0736,-0.0586,-0.1203,-1.555731912409403,0.0,2.0238287448883057,-1.3138816356658936,-0.0,2.081228017807007,-2.5520135364928187,-0.0,0.2686642110347748,-1.2482779661761683,-0.0,-0.029086507856845856,0.44503673911094666,0.0,-0.015403546392917633,1.321216344833374,-1.793585027980621e-18,-0.0837922915816307
274.0,320.0,6.323,-0.0538,6.5815,-0.0736,-0.0586,-0.1203,-1.555692041558661,0.0,2.057068109512329,-1.3139094114303589,-0.0,2.129474639892578,-2.5520135364928187,-0.0,0.27235084772109985,-1.248333756123678,-0.0,-0.04371647164225578,0.4451132118701935,0.0,-0.0006787462625652552,1.321216344833374,-5.810986702427121e-26,-0.030575286597013474
296.0,329.0,6.1645,-0.3876,6.6921,-0.0426,0.0186,-0.1187,-1.5557118656909843,2.204045557174794e-10,2.036623001098633,-1.3138656616210938,-0.0,2.109921932220459,-2.55199732402944,-0.0,0.26771360635757446,-1.2483018080340784,-0.0,-0.028618134558200836,0.4450850486755371,0.0,-0.00600955868139863,1.321244478225708,-1.4032850550582478e-31,0.027487333863973618
296.0,329.0,6.1645,-0.3876,6.6921,-0.0426,0.0186,-0.1187,-1.5557158592021842,7.140826062224286e-18,2.074449062347412,-1.313901424407959,-0.0,2.078439950942993,-2.5520178280272425,-0.0,0.26426592469215393,-1.2482894102679651,-0.0,-0.04009022191166878,0.44504889845848083,0.0,0.0021318320650607347,1.321256399154663,-4.546466624652546e-39,0.0014383969828486443
296.0,329.0,6.1645,-0.3876,6.6921,-0.0426,0.0186,-0.1187,-1.5557079634493967,1.72442548412507e-23,2.033073663711548,-1.3139053583145142,-0.0,2.103867530822754,-2.552037855187887,-0.0,0.27061519026756287,-1.248265568410055,-0.0,-0.03302071988582611,0.4451095163822174,0.0,0.005262888502329588,1.3211960792541504,-1.1210387714598537e-44,0.010784368962049484
296.0,329.0,6.1645,-0.3876,6.6921,-0.0426,0.0186,-0.1187,-1.5557478147423645,5.586919173045809e-31,2.0863735675811768,-1.313913345336914,-0.0,2.0886435508728027,-2.5520178280272425,-0.0,0.26832783222198486,-1.2482975164996546,-0.0,-0.01955467276275158,0.44510138034820557,0.0,-0.005602641962468624,1.3212404251098633,0.0,0.004803027957677841
296.0,329.0,6.1645,-0.3876,6.6921,-0.0426,0.0186,-0.1187,-1.5557279151729126,1.34917518370563e-36,2.014754056930542,-1.3138571977615356,-0.0,2.1025381088256836,-2.5520502529540003,-0.0,0.2717399299144745,-1.2482851187335413,-0.0,-0.044865112751722336,0.4451254904270172,0.0,-0.00489318510517478,1.321256399154663,0.0,-0.04820465296506882
296.0,329.0,6.1645,-0.3876,6.6921,-0.0426,0.0186,-0.1187,-1.5557359105772157,4.344025239406933e-44,2.0547332763671875,-1.3138493299484253,-0.0,2.0958220958709717,-2.552037855187887,-0.0,0.26470524072647095,-1.2482736746417444,-0.0,-0.030227087438106537,0.4451255202293396,0.0,0.0008724249200895429,1.3212003707885742,0.0,-0.053997013717889786
296.0,329.0,6.1645,-0.3876,6.6921,-0.0426,0.0186,-0.1187,-1.5557358863628288,0.0,2.0726046562194824,-1.3138049840927124,-0.0,2.085080146789551,-2.5520016155638636,-0.0,0.2656974196434021,-1.2483060995685022,-0.0,-0.0431530587375164,0.44510549306869507,0.0,-0.010763963684439659,1.3212605714797974,0.0,-0.008957825601100922
296.0,329.0,6.1645,-0.3876,6.6921,-0.0426,0.0186,-0.1187,-1.5557398435524483,0.0,2.0271332263946533,-1.3139208555221558,-0.0,2.096757650375366,-2.551981588403219,-0.0,0.2513235807418823,-1.2483099142657679,-0.0,-0.03814815357327461,0.4450813829898834,0.0,-0.002425347687676549,1.3212686777114868,0.0,0.007025900296866894
296.0,329.0,6.1645,-0.3876,6.6921,-0.0426,0.0186,-0.1187,-1.555703954105713,0.0,2.0136923789978027,-1.3138929605484009,-0.0,2.089742660522461,-2.551993509332174,-0.0,0.25923866033554077,-1.2482851187335413,-0.0,-0.03318534791469574,0.4451616704463959,0.0,-0.0035365852527320385,1.321256399154663,0.0,-0.005186482332646847
296.0,329.0,6.1645,-0.3876,6.6921,-0.0426,0.0186,-0.1187,-1.5557118777981778,0.0,2.0513176918029785,-1.3138816356658936,-0.0,2.099465847015381,-2.551969667474264,-0.0,0.2723695635795593,-1.2482851187335413,-0.0,-0.05171599239110947,0.4450891613960266,0.0,-0.013040078803896904,1.3212522268295288,0.0,0.006149057298898697
296.0,329.0,6.1645,-0.3876,6.6921,-0.0426,0.0186,-0.1187,-1.5557319049588223,0.0,2.0335025787353516,-1.3138571977615356,-0.0,2.0738017559051514,-2.551973959008688,-0.0,0.25445038080215454,-1.2483132521258753,-0.0,-0.034514833241701126,0.4450690448284149,0.0,-0.014689452946186066,1.321248173713684,0.0,-0.009116429835557938
296.0,329.0,6.1645,-0.3876,6.6921,-0.0426,0.0186,-0.1187,-1.5557118740728875,0.0,2.0365982055664062,-1.3138611316680908,-0.0,2.135718584060669,-2.551969667474264,-0.0,0.267336905002594,-1.2482851187335413,-0.0,-0.03265907242894173,0.4451254904270172,0.0,-0.014221953228116035,1.321236252784729,0.0,-0.011549368500709534
296.0,329.0,6.1645,-0.3876,6.6921,-0.0426,0.0186,-0.1187,-1.5557118694162746,0.0,2.088594436645508,-1.3138816356658936,-0.0,2.110260009765625,-2.551957746545309,-0.0,0.2675185799598694,-1.2483060995685022,-0.0,-0.023445796221494675,0.4450448751449585,0.0,-0.005280655808746815,1.3212240934371948,0.0,-0.017363902181386948
286.0,324.0,6.125,-0.2913,6.7825,-0.0344,0.0241,-0.1112,-1.555771736694016,0.0,2.0434935092926025,-1.3138929605484009,-0.0,2.0881428718566895,-2.551993509332174,-0.0,0.26174700260162354,-1.2483132521258753,-0.0,-0.03653282672166824,0.44507351517677307,0.0,-0.0008751563727855682,1.3212321996688843,0.0,0.07196744531393051
286.0,324.0,6.125,-0.2913,6.7825,-0.0344,0.0241,-0.1112,-1.5556839744425197,0.0,2.0381436347961426,-1.3138929605484009,-0.0,2.1563351154327393,-2.55194153408193,-0.0,0.2612663209438324,-1.2483294645892542,-0.0,-0.048018183559179306,0.44508087635040283,0.0,-0.003761940635740757,1.3212605714797974,0.0,0.0030453482177108526
286.0,324.0,6.125,-0.2913,6.7825,-0.0344,0.0241,-0.1112,-1.5557318490794678,0.0,2.06135892868042,-1.3138450384140015,-0.0,2.132925510406494,-2.552009721795553,-0.0,0.2635321617126465,-1.2482574621783655,-0.0,-0.048948533833026886,0.44508951902389526,0.0,-7.107270357664675e-05,1.3212767839431763,0.0,-0.04836925491690636
286.0,324.0,6.125,-0.2913,6.7825,-0.0344,0.0241,-0.1112,-1.5557677860236545,0.0,2.0409226417541504,-1.3139287233352661,-0.0,2.0834500789642334,-2.5520016155638636,-0.0,0.2640390992164612,-1.2483132521258753,-0.0,-0.04671557992696762,0.4450813829898834,0.0,-0.007495105266571045,1.3212685585021973,0.0,0.02616986818611622
286.0,324.0,6.125,-0.2913,6.7825,-0.0344,0.0241,-0.1112,-1.5557877899012347,0.0,2.040942668914795,-1.3138692378997803,-0.0,2.15104341506958,-2.5520016155638636,-0.0,0.267084002494812,-1.2482851187335413,-0.0,-0.04397966340184212,0.44510138034820557,0.0,-0.015170047990977764,1.321256399154663,0.0,0.0316585935652256
286.0,324.0,6.125,-0.2913,6.7825,-0.0344,0.0241,-0.1112,-1.5557437942228098,0.0,2.0300049781799316,-1.3138850927352905,-0.0,2.0895326137542725,-2.551969667474264,-0.0,0.26320022344589233,-1.2482770125018519,-0.0,-0.034821607172489166,0.44508087635040283,0.0,-0.0017589488998055458,1.321236252784729,0.0,0.032815076410770416
286.0,324.0,6.125,-0.2913,6.7825,-0.0344,0.0241,-0.1112,-1.5557279151729126,0.0,2.0848803520202637,-1.3138808012008667,-1.3574167496699374e-06,2.0912086963653564,-2.551973959008688,-0.0,0.2654725909233093,-1.2483132521258753,-0.0,-0.03513118624687195,0.44502073526382446,0.0,-0.013451498001813889,1.321248173713684,0.0,0.04314011335372925
286.0,324.0,6.125,-0.2913,6.7825,-0.0344,0.0241,-0.1112,-1.555763804619648,0.0,2.0614306926727295,-1.3139053583145142,-4.397857742582424e-14,2.1023504734039307,-2.552021642724508,-0.0,0.26513946056365967,-1.2483099142657679,-0.0,-0.04711363464593887,0.44508543610572815,0.0,0.0009887029882520437,1.321284532546997,0.0,-0.005151929799467325
286.0,324.0,6.125,-0.2913,6.7825,-0.0344,0.0241,-0.1112,-1.5557199681973835,0.0,2.035095453262329,-1.3138372898101807,-1.0620310178826984e-19,2.078441619873047,-2.5520178280272425,-0.0,0.2505645453929901,-1.2482612768756312,-0.0,-0.03517002984881401,0.44507312774658203,0.0,-0.011312421411275864,1.3212851285934448,0.0,-0.0572933703660965
286.0,324.0,6.125,-0.2913,6.7825,-0.0344,0.0241,-0.1112,-1.5557398361018677,0.0,2.034893274307251,-1.3138412237167358,-3.440845638598836e-27,2.0996551513671875,-2.55199732402944,-0.0,0.25904032588005066,-1.248333756123678,-0.0,-0.042563408613204956,0.4450448453426361,0.0,-0.005675231572240591,1.3212887048721313,0.0,0.008983254432678223
286.0,324.0,6.125,-0.2913,6.7825,-0.0344,0.0241,-0.1112,-1.555719975647964,0.0,1.9938228130340576,-1.313913345336914,-8.309238223492612e-33,2.1326982975006104,-2.551969667474264,-0.0,0.2533274292945862,-1.2483018080340784,-0.0,-0.052481889724731445,0.44510552287101746,0.0,-0.004164193291217089,1.3212199211120605,0.0,-0.002357032150030136
286.0,324.0,6.125,-0.2913,6.7825,-0.0344,0.0241,-0.1112,-1.555739820269384,0.0,2.030413866043091,-1.3139010667800903,-2.692090531752979e-40,2.138423442840576,-2.551993509332174,-0.0,0.2624931037425995,-1.248333756123678,-0.0,-0.023984231054782867,0.4451054334640503,0.0,-0.003465828485786915,1.321236252784729,5.349599086912349e-05,0.011907584965229034
313.0,324.0,6.2961,-0.5414,6.5599,-0.0467,0.0209,-0.1116,-1.5557239654338737,0.0,2.0220441818237305,-1.3139094114303589,-0.0,2.1296021938323975,-2.5519777737059535,-0.0,0.25668179988861084,-1.2483060995685022,-0.0,-0.04189160466194153,0.445125550031662,0.0,-0.0107565987855196,1.3212522268295288,4.5508968469221145e-05,-0.023653212934732437
313.0,324.0,6.2961,-0.5414,6.5599,-0.0467,0.0209,-0.1116,-1.5556999969160934,-2.6365572921349667e-05,2.023689031600952,-1.313916802406311,-0.0,2.1106700897216797,-2.552014013329977,-0.0,0.2516103982925415,-1.2483018080340784,-0.0,-0.04229360818862915,0.44504082202911377,0.0,-0.0020299579482525587,1.3212727308273315,3.785231456276961e-05,0.029598478227853775
313.0,324.0,6.2961,-0.5414,6.5599,-0.0467,0.0209,-0.1116,-1.5557677664658804,-2.4235667297034524e-05,2.085092067718506,-1.3139053583145142,-0.0,2.1194350719451904,-2.551929613152975,-0.0,0.2643367052078247,-1.2482736746417444,-0.0,-0.03826232999563217,0.4450891613960266,0.0,0.0009707657154649496,1.321236252784729,3.361119524925016e-05,-0.0032750708051025867
313.0,324.0,6.2961,-0.5414,6.5599,-0.0467,0.0209,-0.1116,-1.5557477756268163,-2.187895734095946e-05,2.0313639640808105,-1.3139053583145142,-0.0,2.0759456157684326,-2.552021642724508,-0.0,0.2688899040222168,-1.2483418623553675,-0.0,-0.03799667954444885,0.4450891315937042,0.0,-0.0012909218203276396,1.3212767839431763,2.924269028881099e-05,0.007135285530239344
313.0,324.0,6.2961,-0.5414,6.5599,-0.0467,0.0209,-0.1116,-1.555735826758184,-2.0391800717334263e-05,2.0690784454345703,-1.313924789428711,-0.0,2.0745272636413574,-2.5519896946349085,-0.0,0.2633199393749237,-1.248333756123678,-0.0,-0.03525662422180176,0.4450814127922058,0.0,-0.010999005287885666,1.3212727308273315,2.664536987140309e-05,0.012979838065803051
313.0,324.0,6.2961,-0.5414,6.5599,-0.0467,0.0209,-0.1116,-1.5557279151729126,-3.7394511309685186e-05,2.025697708129883,-1.313924789428711,-0.0,2.1365694999694824,-2.5520297489561976,-0.0,0.2636977434158325,-1.2482894102679651,-0.0,-0.023261597380042076,0.44507312774658203,0.0,0.00171851203776896,1.3212199211120605,2.3824048184906133e-05,0.018808627501130104
313.0,324.0,6.2961,-0.5414,6.5599,-0.0467,0.0209,-0.1116,-1.5557199598154803,-3.520068639772944e-05,2.0680549144744873,-1.3138731718063354,-0.0,2.1207022666931152,-2.5519854031004847,-0.0,0.26350241899490356,-1.2483132521258753,-0.0,-0.04363522678613663,0.44507312774658203,0.0,-0.011478099972009659,1.321252703666687,2.2071242710808292e-05,-0.0008326331153512001
313.0,324.0,6.2961,-0.5414,6.5599,-0.0467,0.0209,-0.1116,-1.555731857461371,-3.264695988036692e-05,2.0473427772521973,-1.3139294385910034,-0.0,2.1269478797912598,-2.552054067651266,-0.0,0.2537970244884491,-1.2482975164996546,-0.0,-0.03624911606311798,0.4450325667858124,0.0,0.008487535640597343,1.3212685585021973,2.0099565517739393e-05,-0.015988267958164215
313.0,324.0,6.2961,-0.5414,6.5599,-0.0467,0.0209,-0.1116,-1.5557517486489196,-3.09622882923577e-05,2.064124584197998,-1.3138729333877563,-0.0,2.0867390632629395,-2.5519854031004847,-0.0,0.2514924108982086,-1.2483213583575647,-0.0,-0.031174957752227783,0.44503673911094666,0.0,-0.011801974847912788,1.321284532546997,1.8837497918866575e-05,0.008138285018503666
313.0,324.0,6.2961,-0.5414,6.5599,-0.0467,0.0209,-0.1116,-1.5557318732938548,-1.4484550774795935e-05,2.026700019836426,-1.3138493299484253,-0.0,2.141829252243042,-2.5519496403136195,-0.0,0.2581540644168854,-1.2482779661761683,-0.0,-0.040282513946294785,0.44504082202911377,0.0,-0.016138773411512375,1.3212404251098633,1.7382220903527923e-05,-0.003799223341047764
313.0,324.0,6.2961,-0.5414,6.5599,-0.0467,0.0209,-0.1116,-1.5557118414765974,-1.3817420949635562e-05,2.0571517944335938,-1.3138736486434937,-0.0,2.113187074661255,-2.5519658527769984,-0.0,0.2653564512729645,-1.248293701802389,-0.0,-0.034447476267814636,0.44506537914276123,0.0,0.0018866166938096285,1.321248173713684,1.6430265532108024e-05,-0.008822508156299591
313.0,324.0,6.2961,-0.5414,6.5599,-0.0467,0.0209,-0.1116,-1.5557437942228098,-1.3017984201724175e-05,2.0552122592926025,-1.3139288425445557,-0.0,2.128412961959839,-2.551969667474264,-0.0,0.2706470489501953,-1.2483256498919886,-0.0,-0.050921157002449036,0.4450211226940155,0.0,0.002890746109187603,1.321236252784729,1.531212546979077e-05,0.016240106895565987
313.0,324.0,6.2961,-0.5414,6.5599,-0.0467,0.0209,-0.1116,-1.5557557943141838,-1.2476596566557419e-05,2.045046806335449,-1.3138611316680908,-0.0,2.1086673736572266,-2.5520178280272425,-0.0,0.2649216949939728,-1.2482851187335413,-0.0,-0.04436163976788521,0.44507724046707153,0.0,-0.0038598128594458103,1.321264624595642,1.4568554433935788e-05,-0.006542103365063667
296.0,337.0,6.0999,-0.3494,6.6592,-0.0363,0.0319,-0.1135,-1.5557398277199646,-1.1821111911558546e-05,2.0473155975341797,-1.3138736486434937,-0.0,2.090034008026123,-2.552014013329977,-0.0,0.26590707898139954,-1.248293701802389,-0.0,-0.031777556985616684,0.4450731575489044,0.0,-0.0030359779484570026,1.3212404251098633,1.3682633834832814e-05,-0.009426587261259556
296.0,337.0,6.0999,-0.3494,6.6592,-0.0363,0.0319,-0.1135,-1.5557159746861835,-2.2727959731128067e-05,2.0674915313720703,-1.3138532638549805,-0.0,2.114734411239624,-2.552014013329977,-0.0,0.25111690163612366,-1.2483018080340784,-0.0,-0.039038050919771194,0.4451054334640503,0.0,-0.007664330303668976,1.321256399154663,1.3085805221635383e-05,0.003175277030095458
296.0,337.0,6.0999,-0.3494,6.6592,-0.0363,0.0319,-0.1135,-1.5557841288721939,-2.1651576389558613e-05,2.024031162261963,-1.3138970136642456,-0.0,2.1318984031677246,-2.551970144311422,-0.0,0.26199841499328613,-1.248293701802389,-0.0,-0.025583025068044662,0.4450851082801819,0.0,0.0015905979089438915,1.3212887048721313,1.2366584087430965e-05,0.015982622280716896
296.0,337.0,6.0999,-0.3494,6.6592,-0.0363,0.0319,-0.1135,-1.5557638809880991,-2.089748886646703e-05,2.0508627891540527,-1.313901424407959,-0.0,2.103909969329834,-2.552021642724508,-0.0,0.27176234126091003,-1.248293701802389,-0.0,-0.05298584699630737,0.4450366497039795,0.0,-0.014304237440228462,1.321288824081421,1.1877000360982493e-05,-0.006913349963724613
296.0,337.0,6.0999,-0.3494,6.6592,-0.0363,0.0319,-0.1135,-1.5557757702520867,-1.997012623178307e-05,2.031804084777832,-1.3138175010681152,-0.0,2.120676040649414,-2.551973959008688,-0.0,0.2590305209159851,-1.2482975164996546,-0.0,-0.054064519703388214,0.4450891315937042,0.0,-0.018361788243055344,1.3212486505508423,1.1281511433480773e-05,-0.03003716841340065
296.0,337.0,6.0999,-0.3494,6.6592,-0.0363,0.0319,-0.1135,-1.5557358146509905,-4.140550957654199e-10,2.0252292156219482,-1.3139053583145142,-0.0,2.07887601852417,-2.551997800866598,-0.0,0.2566896080970764,-1.2483213583575647,-0.0,-0.03795496001839638,0.4450252056121826,0.0,-0.0023119905963540077,1.3212486505508423,1.0872639904846437e-05,0.00497741624712944
296.0,337.0,6.0999,-0.3494,6.6592,-0.0363,0.0319,-0.1135,-1.5557598474300285,-1.341485783236038e-17,2.0512866973876953,-1.313869595527649,-0.0,2.108309745788574,-2.551993509332174,-0.0,0.2676289677619934,-1.248305622731344,-0.0,-0.038354091346263885,0.4450004994869232,1.0675531569859231e-07,-0.00911181140691042,1.3212685585021973,1.037147558236029e-05,0.0316036120057106
296.0,337.0,6.0999,-0.3494,6.6592,-0.0363,0.0319,-0.1135,-1.5557079196772357,-3.2395301980377274e-23,2.041149139404297,-1.3138452768325806,-0.0,2.088330030441284,-2.551997800866598,-0.0,0.26554521918296814,-1.2483494917498987,-0.0,-0.024784300476312637,0.44506120681762695,2.971573334620281e-11,-0.012230218388140202,1.3212687969207764,1.0024902621807996e-05,0.038930539041757584
296.0,337.0,6.0999,-0.3494,6.6592,-0.0363,0.0319,-0.1135,-1.5557357988185068,-1.0495665562446859e-30,2.0493807792663574,-1.3138413429260254,-0.0,2.0978808403015137,-2.5520059070982875,-0.0,0.2531970739364624,-1.2483142058001917,-0.0,-0.03353413566946983,0.44507721066474915,5.400688953836115e-16,-0.00080534303560853,1.3212522268295288,8.170876301949459e-12,0.034498609602451324
296.0,337.0,6.0999,-0.3494,6.6592,-0.0363,0.0319,-0.1135,-1.555731920791306,-2.534579696633826e-36,2.0464608669281006,-1.3139053583145142,-0.0,2.1197469234466553,-2.551981588403219,-0.0,0.26033851504325867,-1.248249355946676,-0.0,-0.046513259410858154,0.445109486579895,1.5033018893825336e-19,-0.03685289993882179,1.3212522268295288,1.9731703643821606e-17,0.0022574220784008503
296.0,337.0,6.0999,-0.3494,6.6592,-0.0363,0.0319,-0.1135,-1.5557279151729126,-8.267660939516421e-44,2.029423236846924,-1.3138929605484009,-0.0,2.08328914642334,-2.55194153408193,-0.0,0.26671284437179565,-1.2483018080340784,-0.0,-0.03623709827661514,0.4450768232345581,2.73217675231364e-24,-0.0016237366944551468,1.3212440013885498,6.392821786650809e-25,0.042105112224817276
296.0,337.0,6.0999,-0.3494,6.6592,-0.0363,0.0319,-0.1135,-1.5556880601546546,0.0,2.033567428588867,-1.3138656616210938,-0.0,2.1252548694610596,-2.551953455010885,-0.0,0.27199891209602356,-1.2482336203204554,-0.0,-0.026102401316165924,0.44509321451187134,7.6051150532912335e-28,-0.00042454060167074203,1.3212969303131104,1.5437914011044084e-30,-0.048625435680150986
296.0,337.0,6.0999,-0.3494,6.6592,-0.0363,0.0319,-0.1135,-1.5557358388653775,0.0,2.059701681137085,-1.3138930797576904,-0.0,2.074732542037964,-2.551953455010885,-0.0,0.27734577655792236,-1.2483175436602991,-0.0,-0.04391168802976608,0.4450973570346832,1.3821923958501154e-32,-0.00417699757963419,1.3212685585021973,5.001687118838942e-38,-0.02343270368874073
303.0,331.0,6.0323,-0.3733,6.7466,-0.0374,0.0357,-0.1167,-1.5557358388653775,0.0,2.036184072494507,-1.3138970136642456,-0.0,2.1409358978271484,-2.551973959008688,-0.0,0.2750292122364044,-1.2483132521258753,-0.0,-0.04216610640287399,0.44508543610572815,3.847383180973399e-36,-0.01155923679471016,1.3212887048721313,1.2051166793193427e-43,0.06135239079594612
303.0,331.0,6.0323,-0.3733,6.7466,-0.0374,0.0357,-0.1167,-1.5557279310053964,0.0,2.049858808517456,-1.3139094114303589,-0.0,2.1065754890441895,-2.551933904687399,-0.0,0.27196845412254333,-1.248293701802389,-0.0,-0.02566840872168541,0.4450809359550476,1.0709325422709912e-39,-0.012217405252158642,1.3212809562683105,0.0,-0.006614649668335915
303.0,331.0,6.0323,-0.3733,6.7466,-0.0374,0.0357,-0.1167,-1.555771712479629,0.0,2.062610387802124,-1.3139094114303589,-0.0,2.1363110542297363,-2.5519496403136195,-0.0,0.25917211174964905,-1.2483060995685022,-0.0,-0.040964461863040924,0.4451218545436859,1.961817850054744e-44,-0.015619292855262756,1.3212887048721313,0.0,0.00021999026648700237
303.0,331.0,6.0323,-0.3733,6.7466,-0.0374,0.0357,-0.1167,-1.5557398361018677,0.0,2.0622031688690186,-1.3138974905014038,-0.0,2.1329939365386963,-2.5520016155638636,-0.0,0.2644701600074768,-1.2483175436602991,-0.0,-0.035259295254945755,0.4451095461845398,0.0,-0.002930224407464266,1.3213008642196655,0.0,-0.016595754772424698
303.0,331.0,6.0323,-0.3733,6.7466,-0.0374,0.0357,-0.1167,-1.5557160026258607,0.0,2.0718517303466797,-1.313901424407959,-0.0,2.1390953063964844,-2.552021642724508,-0.0,0.271573007106781,-1.2482975164996546,-0.0,-0.03760841488838196,0.4451296627521515,0.0,-0.011143073439598083,1.3212440013885498,0.0,-0.0177936889231205
303.0,331.0,6.0323,-0.3733,6.7466,-0.0374,0.0357,-0.1167,-1.5557478948361059,0.0,2.0523641109466553,-1.313924789428711,-0.0,2.0963149070739746,-2.551985879937643,-0.0,0.2884107828140259,-1.2482612768756312,-0.0,-0.03110911324620247,0.4450324773788452,0.0,-0.007769565563648939,1.3212887048721313,0.0,0.017315899953246117
303.0,331.0,6.0323,-0.3733,6.7466,-0.0374,0.0357,-0.1167,-1.5557398361018677,0.0,2.0678789615631104,-1.3139288425445557,-0.0,2.1248106956481934,-2.55196537593984,-0.0,0.2729964852333069,-1.248265568410055,-0.0,-0.036287546157836914,0.44510143995285034,0.0,-0.002362973289564252,1.3212323188781738,0.0,0.014215728268027306
303.0,331.0,6.0323,-0.3733,6.7466,-0.0374,0.0357,-0.1167,-1.5557199681973835,0.0,2.028722047805786,-1.3138856887817383,-0.0,2.1163032054901123,-2.5520340404906214,-0.0,0.2678089141845703,-1.2482894102679651,-0.0,-0.02605566754937172,0.44509315490722656,0.0,-0.018432902172207832,1.3212522268295288,0.0,-0.03749234229326248
303.0,331.0,6.0323,-0.3733,6.7466,-0.0374,0.0357,-0.1167,-1.5557279310053964,0.0,2.034036636352539,-1.3139010667800903,-0.0,2.1515822410583496,-2.551953455010885,-0.0,0.27680081129074097,-1.2482894102679651,-0.0,-0.04092351347208023,0.4451054334640503,0.0,-0.014937913045287132,1.3212404251098633,0.0,-0.020180553197860718
303.0,331.0,6.0323,-0.3733,6.7466,-0.0374,0.0357,-0.1167,-1.5557358304834743,0.0,2.0500168800354004,-1.3138929605484009,-0.0,2.173088550567627,-2.551929613152975,-0.0,0.2690986394882202,-1.2483256498919886,-0.0,-0.023193063214421272,0.44508546590805054,0.0,-0.005859008990228176,1.3212604522705078,0.0,0.009852376766502857
303.0,331.0,6.0323,-0.3733,6.7466,-0.0374,0.0357,-0.1167,-1.555731912409403,0.0,2.0807502269744873,-1.3138890266418457,-0.0,2.069416046142578,-2.5519820652403773,-0.0,0.2713671624660492,-1.248333756123678,-0.0,-0.04240183159708977,0.44505712389945984,0.0,-0.01636386476457119,1.3212404251098633,0.0,0.035059746354818344
303.0,331.0,6.0323,-0.3733,6.7466,-0.0374,0.0357,-0.1167,-1.5557398277199646,0.0,2.0350453853607178,-1.3139092922210693,-0.0,2.132866621017456,-2.5520297489561976,-0.0,0.2689296007156372,-1.248305622731344,-0.0,-0.03373558819293976,0.44508543610572815,0.0,-0.011143569834530354,1.3212522268295288,0.0,-0.005538120865821838
303.0,331.0,6.0323,-0.3733,6.7466,-0.0374,0.0357,-0.1167,-1.5557638688809057,0.0,2.0373096466064453,-1.3138890266418457,-0.0,2.136060953140259,-2.551993509332174,-0.0,0.26481759548187256,-1.2482894102679651,-0.0,-0.046346280723810196,0.44508087635040283,0.0,-0.0010341604938730597,1.3212240934371948,0.0,0.0035087827127426863
304.0,316.0,6.0538,-0.3494,6.7173,-0.0383,0.0307,-0.1168,-1.5557437942228098,0.0,2.030524730682373,-1.3138929605484009,-0.0,2.133316993713379,-2.551981588403219,-0.0,0.26955869793891907,-1.2483060995685022,-0.0,-0.023513764142990112,0.4450608193874359,0.0,-0.012600703164935112,1.321256399154663,0.0,-0.004866935312747955
304.0,316.0,6.0538,-0.3494,6.7173,-0.0383,0.0307,-0.1168,-1.5557398519343515,0.0,2.0078492164611816,-1.3139094114303589,-0.0,2.1124446392059326,-2.55199732402944,-0.0,0.27385878562927246,-1.2482975164996546,-0.0,-0.03904009237885475,0.4450690746307373,0.0,-0.02011270821094513,1.321256399154663,0.0,-0.004020782187581062
304.0,316.0,6.0538,-0.3494,6.7173,-0.0383,0.0307,-0.1168,-1.555731912409403,0.0,2.0211477279663086,-1.3139053583145142,-0.0,2.0966172218322754,-2.551997800866598,-0.0,0.26621824502944946,-1.248265568410055,-0.0,-0.032528311014175415,0.4450608491897583,0.0,-0.011429941281676292,1.3212240934371948,0.0,0.027977388352155685
304.0,316.0,6.0538,-0.3494,6.7173,-0.0383,0.0307,-0.1168,-1.5557798345438023,0.0,2.0312328338623047,-1.3139128684997559,-0.0,2.0987796783447266,-2.5519854031004847,-0.0,0.2763386368751526,-1.2482770125018519,-0.0,-0.0413062758743763,0.4450448453426361,0.0,-0.015991654247045517,1.3212850093841553,0.0,-0.011315890587866306
304.0,316.0,6.0538,-0.3494,6.7173,-0.0383,0.0307,-0.1168,-1.5557558939656992,0.0,2.0800304412841797,-1.3139207363128662,-0.0,2.1503171920776367,-2.5520059070982875,-0.0,0.26818081736564636,-1.2482612768756312,-0.0,-0.03292796388268471,0.44514161348342896,0.0,0.001416918938048184,1.3212404251098633,0.0,0.004309795796871185
304.0,316.0,6.0538,-0.3494,6.7173,-0.0383,0.0307,-0.1168,-1.5557840795120974,0.0,2.0138583183288574,-1.3139652013778687,-0.0,2.114213228225708,-2.5520059070982875,-0.0,0.2690059244632721,-1.2482813040362757,-0.0,-0.02362862043082714,0.44508087635040283,0.0,-0.00972077902406454,1.3212363719940186,0.0,-0.005765268579125404
304.0,316.0,6.0538,-0.3494,6.7173,-0.0383,0.0307,-0.1168,-1.5557160026258607,0.0,2.046480894088745,-1.3139294385910034,-0.0,2.1084067821502686,-2.552025934258932,-0.0,0.28137990832328796,-1.2482975164996546,-0.0,-0.0309107918292284,0.4450726807117462,0.0,-0.0037459663581103086,1.3212404251098633,0.0,0.0389215424656868
304.0,316.0,6.0538,-0.3494,6.7173,-0.0383,0.0307,-0.1168,-1.5557315938970824,-1.2428456102497876e-05,2.038205623626709,-1.3138729333877563,-0.0,2.1253790855407715,-2.5520178280272425,-0.0,0.28231754899024963,-1.2482975164996546,-0.0,-0.04410697519779205,0.44509726762771606,0.0,-0.002892122371122241,1.3212767839431763,0.0,0.007485772483050823
304.0,316.0,6.0538,-0.3494,6.7173,-0.0383,0.0307,-0.1168,-1.5557837926647444,-3.0013259239014545e-11,2.0426061153411865,-1.3139053583145142,-0.0,2.0751521587371826,-2.5519896946349085,-0.0,0.27039390802383423,-1.2482851187335413,-0.0,-0.039993107318878174,0.4450608193874359,0.0,-0.014114964753389359,1.321236252784729,0.0,0.01776399090886116
304.0,316.0,6.0538,-0.3494,6.7173,-0.0383,0.0307,-0.1168,-1.555791874682047,-0.0005622031167149544,2.038379192352295,-1.3138850927352905,-0.0,2.0985376834869385,-2.552077909509176,-0.0,0.2770931124687195,-1.2483213583575647,-0.0,-0.054785244166851044,0.4450972080230713,0.0,0.004051743075251579,1.321244478225708,0.0,0.02219609171152115
304.0,316.0,6.0538,-0.3494,6.7173,-0.0383,0.0307,-0.1168,-1.5557840795120974,-0.0006846717442385852,2.0691287517547607,-1.3139086961746216,-0.0,2.114492177963257,-2.5520340404906214,-0.0,0.2738441526889801,-1.2483142058001917,-0.0,-0.05105415731668472,0.4451296627521515,0.0,-0.012477301061153412,1.3212686777114868,0.0,0.01732999086380005
304.0,316.0,6.0538,-0.3494,6.7173,-0.0383,0.0307,-0.1168,-1.5557958719185372,-0.0009355776128359139,2.043532371520996,-1.3139252662658691,-0.0,2.1458024978637695,-2.55199732402944,-0.0,0.2670421302318573,-1.2482779661761683,-0.0,-0.0323539674282074,0.44510138034820557,0.0,-0.025961551815271378,1.32119619846344,0.0,0.026020370423793793
304.0,316.0,6.0538,-0.3494,6.7173,-0.0383,0.0307,-0.1168,-1.5558522849208494,-0.0012275680201128125,2.035940170288086,-1.3139208555221558,-0.0,2.0950937271118164,-2.552025457421774,-0.0,0.27832433581352234,-1.248282257710592,-0.0,-0.027487214654684067,0.4450931251049042,0.0,-0.014755602926015854,1.321216344833374,0.0,-0.01331167109310627
285.0,324.0,6.006,-0.3111,6.6604,-0.0386,0.0185,-0.1168,-1.5558037564954539,-0.001753350137732923,2.0215001106262207,-1.3139569759368896,-0.0,2.156994342803955,-2.5520531139769496,-0.0,0.27708011865615845,-1.2482975164996546,-0.0,-0.038932353258132935,0.4451054334640503,0.0,-0.013216793537139893,1.3212281465530396,0.0,0.06098528951406479
285.0,324.0,6.006,-0.3111,6.6604,-0.0386,0.0185,-0.1168,-1.5557755336961527,-0.0023869704455137253,2.0382065773010254,-1.3139415979385376,-0.0,2.1089401245117188,-2.5520459614195765,-0.0,0.2962033450603485,-1.248237435017721,-0.0,-0.04895581305027008,0.445064902305603,0.0,-0.0048781526274979115,1.3212203979492188,0.0,0.01757798157632351
285.0,324.0,6.006,-0.3111,6.6604,-0.0386,0.0185,-0.1168,-1.55583169896666,-0.0028750631026923656,2.044848918914795,-1.3139413595199585,-0.0,2.098191261291504,-2.5520297489561976,-0.0,0.28049635887145996,-1.2482698599444788,-0.0,-0.049307338893413544,0.44512879848480225,0.0,-0.009679719805717468,1.321236491203308,-1.536980562377721e-05,0.017267439514398575
285.0,324.0,6.006,-0.3111,6.6604,-0.0386,0.0185,-0.1168,-1.5558799237808962,-0.002996161812916398,2.0473318099975586,-1.3139612674713135,-0.0,2.1085047721862793,-2.5520335636534632,-0.0,0.2741255760192871,-1.2482574621783655,-0.0,-0.0470186248421669,0.44509726762771606,0.0,0.005337664857506752,1.3211761713027954,-0.0002422629331704229,0.050526365637779236
285.0,324.0,6.006,-0.3111,6.6604,-0.0386,0.0185,-0.1168,-1.5559280061027785,-0.0034768208861351013,2.0450735092163086,-1.3139570951461792,-0.0,2.1236681938171387,-2.552025457421774,-0.0,0.28733888268470764,-1.2483099142657679,-0.0,-0.04903719574213028,0.4450530409812927,0.0,-0.011195125989615917,1.321204423904419,-0.00025139295030385256,0.04744752123951912
285.0,324.0,6.006,-0.3111,6.6604,-0.0386,0.0185,-0.1168,-1.5559359046495338,-0.0036951780784875154,2.0575039386749268,-1.3139092922210693,-0.00012217913172207773,2.1167354583740234,-2.5519615612425746,-0.0,0.2809103727340698,-1.2482612768756312,-0.0,-0.06595174223184586,0.44510141015052795,0.0,0.004819420166313648,1.3211963176727295,-0.00022491600248031318,0.0009143674978986382
285.0,324.0,6.006,-0.3111,6.6604,-0.0386,0.0185,-0.1168,-1.5559557241252442,-0.0035070558078587055,2.0321993827819824,-1.3139376640319824,-0.0001102104943129234,2.1047682762145996,-2.552037855187887,-0.0,0.28771424293518066,-1.2482417265521448,-0.0,-0.036655738949775696,0.4450690448284149,0.0,-0.01086488552391529,1.3211684226989746,-0.0002249260141979903,-0.01573619805276394
285.0,324.0,6.006,-0.3111,6.6604,-0.0386,0.0185,-0.1168,-1.5559838267839332,-0.0033584299962967634,2.02911376953125,-1.3138689994812012,-0.00010266716708429158,2.1485228538513184,-2.5520173511900843,-0.0,0.2746616005897522,-1.248282257710592,-0.0,-0.052317798137664795,0.4450809061527252,0.0,-0.021690066903829575,1.3211839199066162,-0.0002639307640492916,-0.004470329266041517
285.0,324.0,6.006,-0.3111,6.6604,-0.0386,0.0185,-0.1168,-1.5559994962862511,-0.0032542559783905745,2.056790351867676,-1.3139415979385376,-9.408128244103864e-05,2.095470905303955,-2.5520173511900843,-0.0,0.28639522194862366,-1.2482693831073206,-0.0,-0.06420613080263138,0.4450448155403137,0.0,-0.010075227357447147,1.3212125301361084,-0.00025655931676737964,0.014580939896404743
285.0,324.0,6.006,-0.3111,6.6604,-0.0386,0.0185,-0.1168,-1.556055669007339,-0.003954465501010418,2.036029815673828,-1.3139655590057373,-0.00010623452544678003,2.1289618015289307,-2.552073141137594,-0.0,0.2821122705936432,-1.2482698599444788,-5.435353523353115e-05,-0.0458662174642086,0.4451451897621155,0.0,-0.005357016809284687,1.321204423904419,-0.00026191447977907956,-0.022041654214262962
285.0,324.0,6.006,-0.3111,6.6604,-0.0386,0.0185,-0.1168,-1.556091248323657,-0.0044192965142428875,2.025653123855591,-1.3139774799346924,-9.848471381701529e-05,2.092653274536133,-2.552042146722311,-0.0,0.28422489762306213,-1.2482574621783655,-4.379884558147751e-05,-0.06858272850513458,0.44506484270095825,0.0,-0.016859250143170357,1.3211442232131958,-0.00032001145882532,0.02548176422715187
285.0,324.0,6.006,-0.3111,6.6604,-0.0386,0.0185,-0.1168,-1.5561035911417385,-0.004899322520941496,2.1017465591430664,-1.3139570951461792,-9.337576921097934e-05,2.105311155319214,-2.5520297489561976,-0.0,0.2850201427936554,-1.248282257710592,-3.8217716792132705e-05,-0.057824984192848206,0.445064902305603,0.0,-0.008113104850053787,1.3212085962295532,-0.0003375370870344341,0.01686265878379345
290.0,317.0,6.2136,-0.5462,6.5282,-0.0536,0.0307,-0.1228,-1.5561556548676272,-0.004784957971423864,2.096454620361328,-1.3139256238937378,-0.0001035579334711656,2.085308074951172,-2.552009244958395,-0.0,0.28239524364471436,-1.2483018080340784,-3.389846460777335e-05,-0.06475627422332764,0.44511738419532776,0.0,-0.007822772487998009,1.321176528930664,-0.00033723629894666374,0.04388707876205444
290.0,317.0,6.2136,-0.5462,6.5282,-0.0536,0.0307,-0.1228,-1.556215777327754,-0.0062042237259447575,2.010826587677002,-1.3139333724975586,-9.71761328401044e-05,2.1508352756500244,-2.55204500774526,-0.0,0.2756154537200928,-1.2483018080340784,-2.9459461075020954e-05,-0.068349190056324,0.4450891315937042,0.0,-0.012053029611706734,1.3211729526519775,-0.0005870453896932304,0.024177860468626022
290.0,317.0,6.2136,-0.5462,6.5282,-0.0536,0.0307,-0.1228,-1.556215433669724,-0.006947468966245651,2.016998291015625,-1.3139450550079346,-9.287831198889762e-05,2.131803512573242,-2.552009244958395,-0.0,0.28387609124183655,-1.248293701802389,-2.6825002350960858e-05,-0.07003326714038849,0.445064902305603,0.0,-0.011588744819164276,1.3211445808410645,-0.0011589485220611095,0.0025961941573768854
290.0,317.0,6.2136,-0.5462,6.5282,-0.0536,0.0307,-0.1228,-1.5562955590761085,-0.007566278334707022,2.071847438812256,-1.3139415979385376,-0.00010021594061981887,2.1397879123687744,-2.5520011387267054,-0.0,0.28993353247642517,-1.2482612768756312,-2.3967328161234036e-05,-0.06754184514284134,0.4451136887073517,0.0,-0.009455462917685509,1.3211240768432617,-0.002343730768188834,0.008268322795629501
290.0,317.0,6.2136,-0.5462,6.5282,-0.0536,0.0307,-0.1228,-1.5564240704155345,-0.008005863055586815,2.039809465408325,-1.3140013217926025,-9.621739445719868e-05,2.1024746894836426,-2.5520016155638636,-0.0,0.2872484028339386,-1.2482894102679651,-2.2194126358954236e-05,-0.07599102705717087,0.4451292157173157,0.0,-0.010075820609927177,1.3210922479629517,-0.004185328260064125,0.03573355823755264
290.0,317.0,6.2136,-0.5462,6.5282,-0.0536,0.0307,-0.1228,-1.5564070812291284,-0.008682182058691978,2.0613856315612793,-1.3139088153839111,-9.133528510574251e-05,2.1390881538391113,-2.5520335636534632,-0.0,0.29530301690101624,-1.2482460180865687,-2.0201363440719433e-05,-0.05776394158601761,0.4450971782207489,0.0,-0.014669578522443771,1.321060299873352,-0.005910845473408699,0.007862407714128494
290.0,317.0,6.2136,-0.5462,6.5282,-0.0536,0.0307,-0.1228,-1.5565154285034914,-0.008935866877436638,2.0264065265655518,-1.3139774799346924,-8.798688213573769e-05,2.1328067779541016,-2.5520297489561976,-0.0,0.2971135973930359,-1.2482736746417444,-1.8926810298580676e-05,-0.0648859441280365,0.4450768530368805,0.0,0.0004924382083117962,1.3210121393203735,-0.003983171656727791,-0.01434301771223545
290.0,317.0,6.2136,-0.5462,6.5282,-0.0536,0.0307,-0.1228,-1.5565671485713501,-0.009150901809334755,2.055293560028076,-1.3139498233795166,-8.67784910951741e-05,2.157137870788574,-2.5520054302611292,-0.0,0.28447622060775757,-1.2482612768756312,-1.745820918586105e-05,-0.06931857764720917,0.4451214671134949,0.0,-0.008021319285035133,1.3210444450378418,-0.0018941808957606554,0.004772157408297062
290.0,317.0,6.2136,-0.5462,6.5282,-0.0536,0.0307,-0.1228,-1.5565828674337645,-0.010431235656142235,2.083505392074585,-1.3139973878860474,-8.203269680961967e-05,2.1221024990081787,-2.5520135364928187,-0.0,0.2793477773666382,-1.248282257710592,-1.6498084733029827e-05,-0.05797571688890457,0.44511735439300537,0.0,-0.005223497748374939,1.3209805488586426,-0.001240299898199737,0.003394202794879675
290.0,317.0,6.2136,-0.5462,6.5282,-0.0536,0.0307,-0.1228,-1.5567270967042823,-0.01102693472057581,2.049924612045288,-1.3139256238937378,-9.174906153930351e-05,2.135108470916748,-2.5520531139769496,-0.0,0.29268020391464233,-1.2482612768756312,-1.5371002518804744e-05,-0.07429588586091995,0.44509315490722656,0.0,0.002778633963316679,1.3210043907165527,-0.0006663042586296797,0.04033543914556503
290.0,317.0,6.2136,-0.5462,6.5282,-0.0536,0.0307,-0.1228,-1.556803199728467,-0.011464127339422703,2.0521633625030518,-1.3139694929122925,-8.729944966034964e-05,2.105008840560913,-2.5519615612425746,-0.0,0.28565075993537903,-1.2482779661761683,-1.462182444811333e-05,-0.08658435940742493,0.44510138034820557,0.0,-0.0012928855139762163,1.3209924697875977,-0.0006293719634413719,0.05775311589241028
290.0,317.0,6.2136,-0.5462,6.5282,-0.0536,0.0307,-0.1228,-1.5569312482005735,-0.01308984961360693,2.0508015155792236,-1.3139933347702026,-9.56632211455144e-05,2.1369502544403076,-2.5519892177977503,-0.0,0.29430294036865234,-1.248197380696432,-1.3729587408306543e-05,-0.07155749201774597,0.44513335824012756,0.0,-0.01216229610145092,1.3209924697875977,-0.000566186907235533,0.010087638162076473
290.0,317.0,6.2136,-0.5462,6.5282,-0.0536,0.0307,-0.1228,-1.556986765270569,-0.012189475819468498,2.022845506668091,-1.313997745513916,-9.1495385277085e-05,2.1064236164093018,-2.5520335636534632,-0.0,0.2976430058479309,-1.2482293287860315,-1.3128737919032574e-05,-0.08499588072299957,0.4450768232345581,0.0,-0.01738678850233555,1.3210285902023315,-0.00043148535769432783,0.01781139336526394
274.0,330.0,6.0335,-0.4457,6.6443,-0.0475,0.013,-0.1234,-1.5570987502909084,-0.012839463539421558,2.073499917984009,-1.313981294631958,-8.647210052004084e-05,2.0946855545043945,-2.551981111566061,-0.0,0.30120041966438293,-1.248282257710592,-1.2404909284668975e-05,-0.0712895616889,0.4450768530368805,0.0,-0.008152611553668976,1.3209761381149292,-0.00038144763675518334,0.02528299391269684
274.0,330.0,6.0335,-0.4457,6.6443,-0.0475,0.013,-0.1234,-1.5571628541550417,-0.012366559356451035,2.0303754806518555,-1.3139575719833374,-8.305231312988326e-05,2.1659135818481445,-2.5520135364928187,-0.0,0.2886792719364166,-1.2482379118548792,-1.1912339687114581e-05,-0.072464719414711,0.445072740316391,0.0,-0.009821722283959389,1.3209682703018188,-0.0003228085988666862,0.011602667160332203
274.0,330.0,6.0335,-0.4457,6.6443,-0.0475,0.013,-0.1234,-1.5573430855623265,-0.013004355132579803,2.078530788421631,-1.313981294631958,-9.000948921311647e-05,2.156693458557129,-2.5520178280272425,-0.0,0.30432894825935364,-1.2483099142657679,-2.2626323698204942e-05,-0.08121976256370544,0.44508081674575806,0.0,-0.004043851979076862,1.3209924697875977,-0.00011047042062273249,0.0007301196455955505
274.0,330.0,6.0335,-0.4457,6.6443,-0.0475,0.013,-0.1234,-1.557382420902588,-0.013298608362674713,2.0795836448669434,-1.3139772415161133,-8.68980641826056e-05,2.1568620204925537,-2.5520016155638636,-0.0,0.28210967779159546,-1.2482612768756312,-2.1804484276799485e-05,-0.0905672162771225,0.44513335824012756,0.0,-0.002550021279603243,1.321028470993042,-0.0001399012398906052,-0.0046730078756809235
274.0,330.0,6.0335,-0.4457,6.6443,-0.0475,0.013,-0.1234,-1.5574862046963354,-0.013940395787358284,2.072582244873047,-1.3139853477478027,-8.289618563139811e-05,2.1670620441436768,-2.5519896946349085,-0.0,0.3083656430244446,-1.2482698599444788,-2.0796793251065537e-05,-0.07153105735778809,0.44508087635040283,0.0,0.0003291415050625801,1.3210043907165527,-0.00011588366760406643,-0.00925084762275219
274.0,330.0,6.0335,-0.4457,6.6443,-0.0475,0.013,-0.1234,-1.5575945109925051,-0.015169273130595684,2.1004257202148438,-1.3139612674713135,-0.0001083379247575067,2.1270275115966797,-2.5520016155638636,-0.0,0.2977686822414398,-1.2482698599444788,-2.0100096662645228e-05,-0.08203238993883133,0.44508907198905945,0.0,0.00405085040256381,1.320980191230774,-0.00010266395111102611,0.02114207297563553
274.0,330.0,6.0335,-0.4457,6.6443,-0.0475,0.013,-0.1234,-1.5577143247104068,-0.016370737925171852,2.064832925796509,-1.3140255212783813,-9.915947157423943e-05,2.123964548110962,-2.552009721795553,-0.0,0.3064829707145691,-1.248254124318258,-5.5331490500520886e-09,-0.09005197882652283,0.4450768232345581,0.0,0.001447012647986412,1.3209842443466187,-8.911026088753715e-05,0.01122092455625534
274.0,330.0,6.0335,-0.4457,6.6443,-0.0475,0.013,-0.1234,-1.557810279806592,-0.01760895736515522,2.083759307861328,-1.313997745513916,-9.301088721258566e-05,2.1164636611938477,-2.552009721795553,-0.0,0.30027034878730774,-1.2482903639422815,-1.5401722865820977e-12,-0.08578472584486008,0.44511696696281433,0.0,0.006986911874264479,1.3210084438323975,-0.00010810764069901779,0.04135005176067352
274.0,330.0,6.0335,-0.4457,6.6443,-0.0475,0.013,-0.1234,-1.557994309147336,-0.01870032772421837,2.074354648590088,-1.3140217065811157,-8.590842480771244e-05,2.115010976791382,-2.5519777737059535,-0.0,0.29367512464523315,-1.2482417265521448,-2.799187133813326e-17,-0.069583959877491,0.4451451897621155,0.0,0.005344834178686142,1.3209764957427979,-8.01405476522632e-05,0.007700388785451651
274.0,330.0,6.0335,-0.4457,6.6443,-0.0475,0.013,-0.1234,-1.558086010893323,-0.021167976781725883,2.0378522872924805,-1.3140177726745605,-8.125474414555356e-05,2.1173622608184814,-2.552021642724508,-0.0,0.30418241024017334,-1.2482855955706995,-7.791639089053181e-21,-0.10342933982610703,0.44514524936676025,0.0,0.0021767953876405954,1.3209400177001953,-9.949280502041802e-05,0.0042864661663770676
274.0,330.0,6.0335,-0.4457,6.6443,-0.0475,0.013,-0.1234,-1.5582736574909468,-0.025693077594041824,2.0551400184631348,-1.3140137195587158,-9.091357060242444e-05,2.181314468383789,-2.551945825616354,-0.0,0.30134904384613037,-1.248282257710592,-1.0620839674402305e-07,-0.08168238401412964,0.4451451897621155,0.0,0.008073033764958382,1.321000337600708,-0.00010945040412480012,0.0193720031529665
274.0,330.0,6.0335,-0.4457,6.6443,-0.0475,0.013,-0.1234,-1.5584296027994533,-0.02914118953049183,2.061293125152588,-1.3140137195587158,-8.656446152599528e-05,2.168410301208496,-2.551973959008688,-0.0,0.32210493087768555,-1.248282257710592,0.00016727088950574398,-0.09048061072826385,0.4450567364692688,0.0,0.011759565211832523,1.3209805488586426,-0.00013606173160951585,0.03826601803302765
274.0,330.0,6.0335,-0.4457,6.6443,-0.0475,0.013,-0.1234,-1.5586656539565702,-0.03313596546649933,2.0539305210113525,-1.3139936923980713,-8.134829840855673e-05,2.1523914337158203,-2.551985879937643,0.00012738055374938995,0.3265678882598877,-1.2482298056231897,2.3510230207079985e-08,-0.0838349461555481,0.44508904218673706,0.0,0.025086354464292526,1.3209564685821533,-0.00043274188647046685,0.06073411554098129
288.0,318.0,6.1502,-0.4762,6.658,-0.0527,0.0234,-0.1197,-1.5589012264138837,-0.03691696375608444,2.046962022781372,-1.3139216899871826,-7.783097680658102e-05,2.136434316635132,-2.551993509332174,0.00018720468506217003,0.3179415166378021,-1.2482779661761683,6.544159745353051e-12,-0.0906410664319992,0.44509267807006836,0.0,-0.003283240832388401,1.3210089206695557,-0.0006688300636596978,-0.001249765045940876
288.0,318.0,6.1502,-0.4762,6.658,-0.0527,0.0234,-0.1197,-1.55918495011095,-0.04395561292767525,2.0665736198425293,-1.3140137195587158,-7.358845323324203e-05,2.144646406173706,-2.5520101986327113,0.00019261047418694943,0.31725579500198364,-1.2483142058001917,1.1893685920765163e-16,-0.07974879443645477,0.4450971782207489,0.0,0.02214604988694191,1.3209445476531982,-0.0006726743304170668,0.037886179983615875
288.0,318.0,6.1502,-0.4762,6.658,-0.0527,0.0234,-0.1197,-1.5594648023000737,-0.05022239685058594,2.0167906284332275,-1.3140060901641846,-6.29384012427181e-05,2.166288375854492,-2.552002092401022,0.00020248240616638213,0.319254994392395,-1.248258415852682,3.310651138132552e-20,-0.0906769260764122,0.4451574385166168,0.0,0.013362491503357887,1.320932149887085,-0.0007819067686796188,0.05354495346546173
288.0,318.0,6.1502,-0.4762,6.658,-0.0527,0.0234,-0.1197,-1.559880437595286,-0.057716287672519684,1.9989371299743652,-1.3139772415161133,-5.598340430879034e-05,2.131951332092285,-2.5519219837584437,0.00020505423890426755,0.3220057785511017,-1.2482736746417444,6.016945342531101e-25,-0.09135308861732483,0.4451329708099365,0.0,0.008693504147231579,1.3209364414215088,-0.001081046531908214,-0.02693953737616539
288.0,318.0,6.1502,-0.4762,6.658,-0.0527,0.0234,-0.1197,-1.5603086960366745,-0.06271062791347504,1.9609193801879883,-1.314029574394226,-5.3969211876392365e-05,2.1593432426452637,-2.5518928966917933,0.0002604252949822694,0.32713139057159424,-1.248258415852682,1.6748385130764513e-28,-0.09156951308250427,0.44512104988098145,0.0,0.0036533987149596214,1.320908546447754,-0.0019868577364832163,0.013303854502737522
288.0,318.0,6.1502,-0.4762,6.658,-0.0527,0.0234,-0.1197,-1.560876691048481,-0.07107259333133698,1.9906779527664185,-1.3139973878860474,-5.149874050403014e-05,2.0974040031433105,-2.5519777737059535,0.00025145718245767057,0.3141944706439972,-1.2482336203204554,3.0439361929695824e-33,-0.0892869234085083,0.44512104988098145,0.0,0.005236294120550156,1.320920467376709,-0.002632108284160495,0.005339088384062052
288.0,318.0,6.1502,-0.4762,6.658,-0.0527,0.0234,-0.1197,-1.5612516517615695,-0.07410575449466705,2.0174496173858643,-1.313969373703003,-4.978938159183599e-05,2.137362241744995,-2.5519257984557093,0.00022286068997345865,0.3127366304397583,-1.248214069996969,8.472907892443428e-37,-0.07819317281246185,0.44515347480773926,0.0,0.018869411200284958,1.3209127187728882,-0.0027019635308533907,0.008855244144797325
288.0,318.0,6.1502,-0.4762,6.658,-0.0527,0.0234,-0.1197,-1.5619112488678475,-0.07743039727210999,2.008455753326416,-1.3140137195587158,-4.7266587345495825e-12,2.108170986175537,-2.551930089990133,0.0002230841782875359,0.31837746500968933,-1.2482932249652308,1.5398868824465415e-41,-0.07950358092784882,0.4451132118701935,0.0,0.005786257795989513,1.3208723068237305,-0.0030725908000022173,-0.003055176232010126
288.0,318.0,6.1502,-0.4762,6.658,-0.0527,0.0234,-0.1197,-1.5623906453004857,-0.07712329924106598,2.0141680240631104,-1.313997745513916,-1.1414325656803945e-17,2.114384651184082,-2.5519939861693324,0.0002017207007156685,0.3270588517189026,-1.2482698599444788,4.203895392974451e-45,-0.09051291644573212,0.445072740316391,0.0,0.029384959489107132,1.3208363056182861,-0.0033867848105728626,-0.02290625125169754
288.0,318.0,6.1502,-0.4762,6.658,-0.0527,0.0234,-0.1197,-1.5629027469879766,-0.0751895159482956,2.0416572093963623,-1.3140138387680054,-2.756425468793138e-23,2.1608312129974365,-2.552002092401022,0.00018404029833618551,0.3360963463783264,-1.2482336203204554,0.0,-0.09178510308265686,0.44513702392578125,0.0,0.021076342090964317,1.3208526372909546,-0.0038540370296686888,0.017929285764694214
288.0,318.0,6.1502,-0.4762,6.658,-0.0527,0.0234,-0.1197,-1.5635581293939431,-0.07446034252643585,2.01112961769104,-1.3139972686767578,-0.00010742154699983075,2.153217315673828,-2.551933904687399,9.051187225850299e-05,0.3284125328063965,-1.248237435017721,0.0,-0.08784078061580658,0.44508084654808044,0.0,-0.0017827493138611317,1.3207964897155762,-0.004597557708621025,-0.04381515085697174
288.0,318.0,6.1502,-0.4762,6.658,-0.0527,0.0234,-0.1197,-1.5639935999973495,-0.07966771721839905,2.048851490020752,-1.314029574394226,-0.0020511841867119074,2.140730142593384,-2.551953455010885,7.011032721493393e-05,0.32208070158958435,-1.2482417265521448,0.0,-0.08422565460205078,0.44507312774658203,0.0,0.00988517701625824,1.3207526206970215,-0.004929427057504654,-0.001161281019449234
288.0,318.0,6.1502,-0.4762,6.658,-0.0527,0.0234,-0.1197,-1.564672780023404,-0.09165575355291367,2.0028035640716553,-1.314110279083252,-0.0046366117894649506,2.1299667358398438,-2.551933904687399,6.06559551670216e-05,0.32515639066696167,-1.2482903639422815,0.0,-0.07224415242671967,0.4451211094856262,0.0,0.009491578675806522,1.3207526206970215,-0.005167147144675255,-0.06411568820476532
294.0,316.0,5.1159,-0.6203,6.7173,-0.0102,-0.0333,-0.1471,-1.565216399529465,-0.0969659760594368,1.9865179061889648,-1.3141303062438965,-0.011782531626522541,2.0992579460144043,-2.5519377193846644,6.860036955913529e-05,0.3189477324485779,-1.248254124318258,0.0,-0.07239686697721481,0.4450649619102478,0.0,0.013712842017412186,1.3207166194915771,-0.006696042604744434,-0.0698615312576294
294.0,316.0,5.1159,-0.6203,6.7173,-0.0102,-0.0333,-0.1471,-1.5659674632227798,-0.10139107704162598,1.9971516132354736,-1.314157247543335,-0.008239569142460823,2.1074113845825195,-2.5518938503661097,0.0001805492938729003,0.30503082275390625,-1.2482779661761683,0.0,-0.07887361943721771,0.44508498907089233,0.0,0.010860223323106766,1.3206403255462646,-0.00808674842119217,-0.048142872750759125
294.0,316.0,5.1159,-0.6203,6.7173,-0.0102,-0.0333,-0.1471,-1.566647454896458,-0.10358032584190369,1.9855191707611084,-1.3142179250717163,-0.0033494033850729465,2.138533592224121,-2.551933904687399,0.0002050190669251606,0.3213655352592468,-1.2482693831073206,0.0,-0.09002979099750519,0.4451734125614166,0.0,0.00483959773555398,1.3206205368041992,-0.008423596620559692,-0.09474741667509079
294.0,316.0,5.1159,-0.6203,6.7173,-0.0102,-0.0333,-0.1471,-1.5674303539893408,-0.103218212723732,1.9856497049331665,-1.3141977787017822,-0.0011390758445486426,2.1235339641571045,-2.5519381962218226,0.00020314236462581903,0.3214665651321411,-1.2482417265521448,0.0,-0.08450530469417572,0.44512513279914856,0.0,0.0001703766465652734,1.3205325603485107,-0.0076824272982776165,-0.11203904449939728
294.0,316.0,5.1159,-0.6203,6.7173,-0.0102,-0.0333,-0.1471,-1.5680736499237646,-0.09849672764539719,1.9588234424591064,-1.3142380714416504,-0.0006954512209631503,2.164356231689453,-2.551878114739889,0.0005087068420834839,0.32510316371917725,-1.2482259909259241,0.0,-0.08311744779348373,0.44515761733055115,0.0,-0.0022840085439383984,1.3205080032348633,-0.006383887492120266,-0.04565337300300598
294.0,316.0,5.1159,-0.6203,6.7173,-0.0102,-0.0333,-0.1471,-1.5689091129791741,-0.10111461579799652,2.0073344707489014,-1.3142738342285156,-0.003855033777654171,2.1224775314331055,-2.5518981419005335,0.0009174495935440063,0.33053058385849,-1.248237435017721,0.0,-0.08353765308856964,0.44510141015052795,0.0,0.006742139346897602,1.3204843997955322,-0.005198500119149685,-0.055201269686222076
294.0,316.0,5.1159,-0.6203,6.7173,-0.0102,-0.0333,-0.1471,-1.5695204207771276,-0.1066407859325409,2.0284838676452637,-1.3143219947814941,-0.006713123060762882,2.125004529953003,-2.5519501171507777,0.0008136458927765489,0.32876986265182495,-1.2482736746417444,0.0,-0.08034712076187134,0.44510504603385925,0.0,0.01803487353026867,1.3204283714294434,-0.005936099216341972,-0.0070100994780659676
294.0,316.0,5.1159,-0.6203,6.7173,-0.0102,-0.0333,-0.1471,-1.5704240268426766,-0.1153796836733818,2.016037940979004,-1.3143540620803833,-0.006575574167072773,2.1196165084838867,-2.5519215069212855,0.0006093065021559596,0.3305221199989319,-1.2482293287860315,0.0,-0.08662714064121246,0.4450972080230713,0.0,0.01271389052271843,1.3203762769699097,-0.007411853410303593,-0.06611905992031097
294.0,316.0,5.1159,-0.6203,6.7173,-0.0102,-0.0333,-0.1471,-1.571071287194723,-0.12193819880485535,2.0037283897399902,-1.3144469261169434,-0.004828834906220436,2.08726167678833,-2.5519257984557093,0.0007581138634122908,0.32578045129776,-1.2482498327838343,0.0,-0.07982659339904785,0.4450971782207489,0.0,-0.00048727763351053,1.3203530311584473,-0.008402436040341854,-0.036402542144060135
294.0,316.0,5.1159,-0.6203,6.7173,-0.0102,-0.0333,-0.1471,-1.5720507107176722,-0.1241450384259224,2.070831775665283,-1.3144266605377197,-0.001523486920632422,2.1145806312561035,-2.5518576107420863,0.010798185132443905,0.3302164673805237,-1.2482860724078577,0.0,-0.09032469987869263,0.44510912895202637,0.0,0.005851982161402702,1.3202966451644897,-0.008354932069778442,-0.06218297779560089
294.0,316.0,5.1159,-0.6203,6.7173,-0.0102,-0.0333,-0.1471,-1.5727817020811976,-0.12575878202915192,2.041120767593384,-1.314394474029541,-3.277307030202792e-07,2.14367938041687,-2.5517388782896937,0.03500683978199959,0.3412725329399109,-1.248258415852682,0.0,-0.08806303143501282,0.44512513279914856,0.0,0.00018093339167535305,1.320204496383667,-0.008342238143086433,-0.03667864948511124
294.0,316.0,5.1159,-0.6203,6.7173,-0.0102,-0.0333,-0.1471,-1.5737492046751917,-0.12151546031236649,2.0671091079711914,-1.3143662214279175,-1.0618058590304482e-14,2.123448371887207,-2.5514804325499476,0.041078537702560425,0.3477071523666382,-1.248254124318258,0.0,-0.07735271006822586,0.4451132118701935,0.0,0.007737820502370596,1.3201725482940674,-0.006545321550220251,0.010432165116071701
294.0,316.0,5.1159,-0.6203,6.7173,-0.0102,-0.0333,-0.1471,-1.5744720898070277,-0.11758798360824585,2.1091489791870117,-1.3143985271453857,-2.5641367911747832e-20,2.144854784011841,-2.5511933765807093,0.037735532969236374,0.34520453214645386,-1.2482460180865687,0.0,-0.089253731071949,0.4450972080230713,0.0,-0.0032126475125551224,1.3201124668121338,-0.006024084519594908,-0.036404501646757126
296.0,294.0,7.3627,0.3266,5.8792,-0.0162,-0.1529,-0.1605,-1.575451513329977,-0.11654902249574661,2.108973503112793,-1.3143582344055176,-8.307477629884954e-28,2.1879587173461914,-2.5509664020934046,0.0234303530305624,0.33773523569107056,-1.248282257710592,0.0,-0.09629324078559875,0.44510096311569214,0.0,-0.002419952070340514,1.320060133934021,-0.0063530029729008675,-0.0021552727557718754
296.0,294.0,7.3627,0.3266,5.8792,-0.0162,-0.1529,-0.1605,-1.5761391125121058,-0.11901481449604034,2.0618648529052734,-1.3143985271453857,-2.0061581685148262e-33,2.158111095428467,-2.550894876519674,0.012583455070853233,0.3563339114189148,-1.2482612768756312,0.0,-0.09415248781442642,0.4450325667858124,0.0,0.002315772231668234,1.320084810256958,-0.006242062896490097,-0.01723375916481018
296.0,294.0,7.3627,0.3266,5.8792,-0.0162,-0.1529,-0.1605,-1.5771342716612757,-0.12597782909870148,2.0732269287109375,-1.314386010169983,-6.499642667077799e-41,2.143083333969116,-2.550807138482565,0.0024985664058476686,0.34030625224113464,-1.2482417265521448,0.0,-0.08889442682266235,0.44511663913726807,0.0,0.010963576845824718,1.319968342781067,-0.005991667043417692,0.05487728491425514
296.0,294.0,7.3627,0.3266,5.8792,-0.0162,-0.1529,-0.1605,-1.5778175793089808,-0.12631924450397491,2.09529185295105,-1.3143820762634277,-0.0,2.1794538497924805,-2.550803323785299,0.0007151900790631771,0.3380835950374603,-1.2482574621783655,0.0,-0.0897122323513031,0.44513699412345886,0.0,0.014211914502084255,1.319932460784912,-0.005307045299559832,-0.047547198832035065
296.0,294.0,7.3627,0.3266,5.8792,-0.0162,-0.1529,-0.1605,-1.5787726841368617,-0.11660424619913101,2.0941739082336426,-1.3143374919891357,0.0001706083567114547,2.17195725440979,-2.5508157215514125,0.000757455185521394,0.34869158267974854,-1.2482894102679651,0.0,-0.10017761588096619,0.44511738419532776,0.0,0.0019507028628140688,1.3199365139007568,-0.0037486141081899405,0.04432859271764755
296.0,294.0,7.3627,0.3266,5.8792,-0.0162,-0.1529,-0.1605,-1.5794359646239222,-0.11591196805238724,2.0769474506378174,-1.3143903017044067,0.0006123565253801644,2.165581703186035,-2.5507394276061,0.0018403470749035478,0.3423313498497009,-1.2482975164996546,0.0,-0.10670913755893707,0.44508087635040283,0.0,-0.004410633817315102,1.3199201822280884,-0.0032123946584761143,0.006493626162409782
296.0,294.0,7.3627,0.3266,5.8792,-0.0162,-0.1529,-0.1605,-1.5803667507567347,-0.11721571534872055,2.1296911239624023,-1.3143541812896729,0.00039643404306843877,2.1687276363372803,-2.550727983514303,0.003307004924863577,0.34538906812667847,-1.2482851187335413,-0.00030384762794710696,-0.10009859502315521,0.44508907198905945,0.0,0.0036845470312982798,1.3199045658111572,-0.0026334263384342194,-0.0024188843090087175
296.0,294.0,7.3627,0.3266,5.8792,-0.0162,-0.1529,-0.1605,-1.5810705624022425,-0.11796584725379944,2.074260711669922,-1.3143941164016724,0.0003135432198178023,2.1611924171447754,-2.5507880649962367,0.0032088158186525106,0.35216572880744934,-1.2483418623553675,-0.0003117877640761435,-0.11229464411735535,0.4450972080230713,0.0,0.005259288940578699,1.319868564605713,-0.003521558130159974,-0.01352432370185852
296.0,294.0,7.3627,0.3266,5.8792,-0.0162,-0.1529,-0.1605,-1.582022329370016,-0.11564335972070694,2.1015424728393555,-1.3143701553344727,0.00024519473663531244,2.1958088874816895,-2.5507403812804164,0.0026151856873184443,0.34204408526420593,-1.2483018080340784,-0.00025328563060611486,-0.08925434947013855,0.4451054334640503,0.0,-0.0005371365696191788,1.319869041442871,-0.004974395968019962,0.0509624183177948
296.0,294.0,7.3627,0.3266,5.8792,-0.0162,-0.1529,-0.1605,-1.5826770267882289,-0.11380571126937866,2.1496219635009766,-1.3144105672836304,0.00021074288815725595,2.195704936981201,-2.550688406030172,0.002522488124668598,0.3489457964897156,-1.248293701802389,-0.0002590292424429208,-0.1118355393409729,0.4450850188732147,0.0,0.0006274343468248844,1.319776177406311,-0.005644586868584156,0.01082046888768673
296.0,294.0,7.3627,0.3266,5.8792,-0.0162,-0.1529,-0.1605,-1.5835844479002894,-0.10906797647476196,2.139918327331543,-1.3143621683120728,0.0001774916163412854,2.210132598876953,-2.550668855706686,0.003133591264486313,0.35383033752441406,-1.2482894102679651,-0.0002224483760073781,-0.10448374599218369,0.44511696696281433,0.0,-0.0005299985641613603,1.3197283744812012,-0.006682425271719694,0.018869271501898766
296.0,294.0,7.3627,0.3266,5.8792,-0.0162,-0.1529,-0.1605,-1.5842200718321742,-0.1057611033320427,2.156315803527832,-1.3143417835235596,0.00019045245426241308,2.205936908721924,-2.5506450138487757,0.005035898648202419,0.36487555503845215,-1.2483256498919886,-0.0002011391188716516,-0.10149417817592621,0.4450890123844147,0.0,0.003392044687643647,1.3197245597839355,-0.006225820630788803,-0.006522702053189278
296.0,294.0,7.3627,0.3266,5.8792,-0.0162,-0.1529,-0.1605,-1.5850311718382777,-0.1048077717423439,2.152374744415283,-1.3143662214279175,0.00019472181156743318,2.191643714904785,-2.5505806408324183,0.0077738952822983265,0.353321373462677,-1.2483380476581019,-0.00020372384460642934,-0.11319888383150101,0.4451013505458832,0.0,-0.002410718472674489,1.3196762800216675,-0.005594661924988031,-0.02755386382341385
273.0,287.0,6.4594,0.4199,6.588,0.0308,-0.0948,-0.1604,-1.5856906376280726,-0.10867737978696823,2.118851661682129,-1.3143742084503174,0.0001781997416401282,2.2147164344787598,-2.5505129299559535,0.00823251623660326,0.36093759536743164,-1.2483142058001917,-0.0001878787879832089,-0.11096170544624329,0.4450768232345581,0.0,-0.003195669502019882,1.319636583328247,-0.005039828829467297,0.040465258061885834
273.0,287.0,6.4594,0.4199,6.588,0.0308,-0.0948,-0.1604,-1.5865537128844203,-0.11091453582048416,2.1246531009674072,-1.3143301010131836,0.00017665863560978323,2.219359874725342,-2.550412794152731,0.009123876690864563,0.359311580657959,-1.2483051458941858,-0.00017012249736580998,-0.1005006730556488,0.44510504603385925,0.0,0.0006104428321123123,1.3196125030517578,-0.004973195493221283,0.006782960146665573
273.0,287.0,6.4594,0.4199,6.588,0.0308,-0.0948,-0.1604,-1.587228914300436,-0.11122133582830429,2.1775879859924316,-1.3143749237060547,0.0001898924820125103,2.1777234077453613,-2.5503817997374476,0.009406599216163158,0.36796218156814575,-1.2483099142657679,-0.00014003193064127117,-0.11428934335708618,0.4451054334640503,0.0,-0.010179342702031136,1.3195360898971558,-0.005407514050602913,0.01593204215168953
273.0,287.0,6.4594,0.4199,6.588,0.0308,-0.0948,-0.1604,-1.5881320438780726,-0.10337048768997192,2.1299571990966797,-1.314386248588562,0.00048224953934550285,2.200430154800415,-2.550310274163717,0.007207897491753101,0.3748352527618408,-1.2483256498919886,-0.00012452001101337373,-0.10654431581497192,0.4450972080230713,0.0,-0.004678105935454369,1.3195085525512695,-0.005595387890934944,0.020818933844566345
273.0,287.0,6.4594,0.4199,6.588,0.0308,-0.0948,-0.1604,-1.58878817180776,-0.09305836260318756,2.178056001663208,-1.3144022226333618,0.00029203802114352584,2.214195728302002,-2.5503183803954066,0.004043025430291891,0.3522716164588928,-1.2482851187335413,-0.00011498027015477419,-0.11588887125253677,0.4451292157173157,0.0,0.008525772020220757,1.319496750831604,-0.005882865283638239,-0.0439113974571228
273.0,287.0,6.4594,0.4199,6.588,0.0308,-0.0948,-0.1604,-1.5893188915648402,-0.0900924950838089,2.1774210929870605,-1.3143904209136963,-0.00023151791538111866,2.172530174255371,-2.5503059826292933,0.0015267974231392145,0.3672270178794861,-1.2483256498919886,-0.00010679337719921023,-0.10827066004276276,0.4450931251049042,0.0,-0.00296174269169569,1.3194242715835571,-0.007692606188356876,0.03363592177629471
273.0,287.0,6.4594,0.4199,6.588,0.0308,-0.0948,-0.1604,-1.590090890923971,-0.09399282187223434,2.1971511840820312,-1.3143820762634277,-0.0008864772971719503,2.1902012825012207,-2.5503579578795375,0.0003894752007909119,0.36570116877555847,-1.2482736746417444,-7.836074655642733e-05,-0.12242716550827026,0.4450972080230713,0.0,-0.006350724492222071,1.3193883895874023,-0.007876809686422348,-0.005298853386193514
273.0,287.0,6.4594,0.4199,6.588,0.0308,-0.0948,-0.1604,-1.5907064876952113,-0.1027909368276596,2.1964800357818604,-1.31441068649292,-0.0005609776126220822,2.1700055599212646,-2.550310274163717,0.00027029894408769906,0.35290974378585815,-1.2482531706439417,-7.32608386897482e-05,-0.09882532060146332,0.4451132118701935,0.0,0.0018187578534707427,1.319312572479248,-0.009901223704218864,-0.019414372742176056
273.0,287.0,6.4594,0.4199,6.588,0.0308,-0.0948,-0.1604,-1.591529985467428,-0.10986021161079407,2.1493616104125977,-1.3143500089645386,0.0004092796880286187,2.241555690765381,-2.5502778492369593,0.00025664857821539044,0.35560423135757446,-1.2483099142657679,-6.774840585421771e-05,-0.09796808660030365,0.44510912895202637,0.0,-0.0015766803408041596,1.3192319869995117,-0.01141238585114479,0.005510751157999039
273.0,287.0,6.4594,0.4199,6.588,0.0308,-0.0948,-0.1604,-1.5921417675414027,-0.11183817684650421,2.1231226921081543,-1.3143424987792969,0.0011136737884953618,2.1792428493499756,-2.550258298913473,6.148722604848444e-05,0.36430060863494873,-1.2483099142657679,-6.412577931769192e-05,-0.11417794227600098,0.4450850486755371,0.0,-0.009235263802111149,1.3191604614257812,-0.012403896078467369,0.011622264981269836
273.0,287.0,6.4594,0.4199,6.588,0.0308,-0.0948,-0.1604,-1.5930730305113734,-0.10343624651432037,2.189417839050293,-1.3143054246902466,0.0008748857653699815,2.1968536376953125,-2.5502940617003382,0.0008633080869913101,0.364702969789505,-1.248265568410055,-5.986060205032118e-05,-0.10747706890106201,0.44508495926856995,0.0,-0.02008935809135437,1.319076418876648,-0.01239466667175293,-0.01897902600467205
273.0,287.0,6.4594,0.4199,6.588,0.0308,-0.0948,-0.1604,-1.5936957798399867,-0.09419887512922287,2.1868739128112793,-1.3143219947814941,0.0005526987370103598,2.1974334716796875,-2.5502220592894496,0.0021321044769138098,0.3676722049713135,-1.2482698599444788,-5.701768532162532e-05,-0.10236388444900513,0.4450768232345581,0.0,-0.003037208691239357,1.318984031677246,-0.012349795550107956,-0.03840761259198189
269.0,288.0,7.3496,0.2925,6.2411,-0.0079,-0.1286,-0.1544,-1.5944959125914515,-0.0843682587146759,2.2121996879577637,-1.3143662214279175,-0.00041635683737695217,2.1796746253967285,-2.5503064594664515,0.0026379732880741358,0.3670136630535126,-1.2483294645892542,-5.3619485697709024e-05,-0.1145704835653305,0.4450366795063019,0.0,-0.00834677740931511,1.318892240524292,-0.011445748619735241,-0.016290973871946335
269.0,288.0,7.3496,0.2925,6.2411,-0.0079,-0.1286,-0.1544,-1.5950352154173792,-0.08316600322723389,2.227325201034546,-1.3143779039382935,-0.0014809161657467484,2.2229888439178467,-2.55033077816152,0.0027336732018738985,0.3840619623661041,-1.2482779661761683,-3.690949233714491e-05,-0.10683326423168182,0.44504061341285706,0.0,-0.012984597124159336,1.3187839984893799,-0.012173176743090153,0.006406902801245451
269.0,288.0,7.3496,0.2925,6.2411,-0.0079,-0.1286,-0.1544,-1.5957347355284632,-0.0942373275756836,2.159062385559082,-1.3143541812896729,-0.0012100106105208397,2.2011828422546387,-2.5503345928587855,0.002324456349015236,0.3749428987503052,-1.248265568410055,-3.320985486610084e-09,-0.12442801892757416,0.4450768232345581,0.0,-0.013638586737215519,1.3187566995620728,-0.013764239847660065,-0.055480245500802994
269.0,288.0,7.3496,0.2925,6.2411,-0.0079,-0.1286,-0.1544,-1.5963179073729457,-0.10251186788082123,2.209745407104492,-1.3143904209136963,-0.000706816790625453,2.2034687995910645,-2.5502506695189417,0.002518983092159033,0.3645063638687134,-1.2482736746417444,-9.244085531767698e-13,-0.11878909170627594,0.44508904218673706,0.0,-0.0021431553177535534,1.3186404705047607,-0.015958664938807487,0.02283208630979061
269.0,288.0,7.3496,0.2925,6.2411,-0.0079,-0.1286,-0.1544,-1.597093244592184,-0.10788529366254807,2.2236180305480957,-1.3143662214279175,-3.458139330447807e-10,2.2188563346862793,-2.5502225361266078,0.00466857198625803,0.36830997467041016,-1.2482779661761683,-1.6800666898217532e-17,-0.11520267277956009,0.4450850486755371,0.0,-0.005454805213958025,1.3185127973556519,-0.01722756400704384,0.027814218774437904
269.0,288.0,7.3496,0.2925,6.2411,-0.0079,-0.1286,-0.1544,-1.5977207622923792,-0.10707703977823257,2.2358314990997314,-1.3143301010131836,0.0013975295005366206,2.218352794647217,-2.550138135949606,0.005193343851715326,0.3728070855140686,-1.2482779661761683,-4.67652819706998e-21,-0.1326141655445099,0.4451415240764618,0.0,3.200641367584467e-05,1.3183560371398926,-0.01683918572962284,-0.015281152911484241
269.0,288.0,7.3496,0.2925,6.2411,-0.0079,-0.1286,-0.1544,-1.5985762081541957,-0.09860388934612274,2.2203946113586426,-1.3143545389175415,0.0007403376512229443,2.2252328395843506,-2.5500904522337855,0.007285156287252903,0.3741455674171448,-1.2483380476581019,-8.49935749098387e-26,-0.11510860919952393,0.44510915875434875,0.0,-0.008142358623445034,1.3183410167694092,-0.014227333478629589,0.013543747365474701
269.0,288.0,7.3496,0.2925,6.2411,-0.0079,-0.1286,-0.1544,-1.599175592462057,-0.08702889084815979,2.207587242126465,-1.3143538236618042,0.0005472929333336651,2.2250289916992188,-2.5500832996764125,0.008109294809401035,0.3829059600830078,-1.2483099142657679,-2.365827390012971e-29,-0.10227780044078827,0.44505712389945984,0.0,-0.0004480755887925625,1.3181805610656738,-0.011745299212634563,0.008606497198343277
269.0,288.0,7.3496,0.2925,6.2411,-0.0079,-0.1286,-0.1544,-1.5998951397337855,-0.07715846598148346,2.2868292331695557,-1.3143541812896729,5.210314846237907e-09,2.2388641834259033,-2.5500313244261683,0.006694467272609472,0.38958102464675903,-1.2482779661761683,-4.29977374596065e-34,-0.09509240090847015,0.4450608193874359,0.0,-0.0035705447662621737,1.318108320236206,-0.010603812523186207,0.04549821466207504
269.0,288.0,7.3496,0.2925,6.2411,-0.0079,-0.1286,-0.1544,-1.6003910503783167,-0.08006555587053299,2.245319128036499,-1.3144017457962036,-0.0030730038415640593,2.193984031677246,-2.5500480137267054,0.00257606222294271,0.379745751619339,-1.2482736746417444,-1.1968578745861208e-37,-0.10461047291755676,0.445064902305603,0.0,-0.0011496321531012654,1.3180484771728516,-0.01091847475618124,0.013074109330773354
269.0,288.0,7.3496,0.2925,6.2411,-0.0079,-0.1286,-0.1544,-1.6010099850096644,-0.08980001509189606,2.2247722148895264,-1.3144748210906982,-0.0033286134712398052,2.2478294372558594,-2.550047060052389,0.000590845535043627,0.3800284266471863,-1.2482460180865687,-2.174815216632116e-42,-0.11241085082292557,0.44504886865615845,0.0,-0.010642966255545616,1.3179727792739868,-0.014650387689471245,0.00356964860111475
269.0,288.0,7.3496,0.2925,6.2411,-0.0079,-0.1286,-0.1544,-1.6015588245787562,-0.0936172679066658,2.2109453678131104,-1.3143659830093384,-0.0013322274899110198,2.1975340843200684,-2.549983640710348,0.00039710960118100047,0.373251348733902,-1.2482460180865687,-0.0,-0.11924958229064941,0.4451095163822174,0.0,-0.020476797595620155,1.317840576171875,-0.018585707992315292,-0.041515327990055084
269.0,288.0,7.3496,0.2925,6.2411,-0.0079,-0.1286,-0.1544,-1.6022411785521449,-0.09707044810056686,2.247262716293335,-1.314386248588562,0.002130903536453843,2.200368881225586,-2.5500713787474574,0.00021241989452391863,0.3780287504196167,-1.2482860724078577,-0.0,-0.114349864423275,0.44517752528190613,0.0,-0.01433547493070364,1.3176684379577637,-0.022670861333608627,-0.01806233450770378
266.0,300.0,4.9896,-0.1226,7.3729,0.0359,-0.0002,-0.1741,-1.6028415165343226,-0.09295190870761871,2.2148263454437256,-1.314394474029541,0.0022091008722782135,2.21989107131958,-2.5499760113158167,0.002753237495198846,0.3765799403190613,-1.248333756123678,-0.0,-0.12307038903236389,0.4451574385166168,0.0,-0.009390048682689667,1.3175203800201416,-0.02511032111942768,-0.04773548245429993
266.0,300.0,4.9896,-0.1226,7.3729,0.0359,-0.0002,-0.1741,-1.603560586968893,-0.08883996307849884,2.2525272369384766,-1.314386248588562,0.0012103402987122536,2.191807985305786,-2.549892087975973,0.009716350585222244,0.37690114974975586,-1.2483461538897913,-0.0,-0.10193853825330734,0.445109486579895,0.0,-0.009644105099141598,1.3173439502716064,-0.025571614503860474,-0.07839512079954147
266.0,300.0,4.9896,-0.1226,7.3729,0.0359,-0.0002,-0.1741,-1.6040522060790003,-0.08423813432455063,2.308774948120117,-1.3143821954727173,0.0008043067646212876,2.2352397441864014,-2.5498210392394007,0.015620805323123932,0.3979550004005432,-1.2482736746417444,-0.0,-0.10401083528995514,0.4450489282608032,0.0,-0.0023623411543667316,1.3172687292099,-0.02659146673977375,-0.12327943742275238
266.0,300.0,4.9896,-0.1226,7.3729,0.0359,-0.0002,-0.1741,-1.6047235927977503,-0.07928444445133209,2.281825065612793,-1.3143620491027832,0.00017325069347862154,2.2364273071289062,-2.5496250591673792,0.021989937871694565,0.40004056692123413,-1.2483256498919886,-0.0,-0.11412123590707779,0.44506484270095825,0.0,-0.01181349903345108,1.3169636726379395,-0.029506603255867958,-0.0798441469669342
266.0,300.0,4.9896,-0.1226,7.3729,0.0359,-0.0002,-0.1741,-1.6051908932127894,-0.07884979993104935,2.321428060531616,-1.314414143562317,1.3401211695907023e-08,2.1976335048675537,-2.5495454273619593,0.026461532339453697,0.4122365713119507,-1.2483142058001917,-0.0,-0.11158375442028046,0.44507312774658203,0.0,-0.008803515695035458,1.3168002367019653,-0.0323704369366169,-0.05249802768230438
266.0,300.0,4.9896,-0.1226,7.3729,0.0359,-0.0002,-0.1741,-1.6059266529478968,-0.08385629206895828,2.3449208736419678,-1.3144302368164062,-0.001339694601483643,2.2716214656829834,-2.5493461094298304,0.029344946146011353,0.40556561946868896,-1.2482698599444788,-0.0,-0.1216876357793808,0.44510549306869507,0.0,-0.012596114538609982,1.3164842128753662,-0.03891372308135033,-0.08553878217935562
266.0,300.0,4.9896,-0.1226,7.3729,0.0359,-0.0002,-0.1741,-1.6063863239684046,-0.08490219712257385,2.327956199645996,-1.3144183158874512,-0.0011299323523417115,2.242870807647705,-2.549183507958883,0.035477180033922195,0.4219818115234375,-1.2482698599444788,-0.0,-0.09291372448205948,0.4450690448284149,0.0,0.007565794512629509,1.3162205219268799,-0.046361908316612244,-0.10643994063138962
266.0,300.0,4.9896,-0.1226,7.3729,0.0359,-0.0002,-0.1741,-1.60703768352651,-0.08568780869245529,2.3395631313323975,-1.3143863677978516,-0.0003457863931544125,2.2215471267700195,-2.548861166039938,0.05395800620317459,0.41743433475494385,-1.248265568410055,-0.0,-0.10276049375534058,0.44503673911094666,0.0,-0.007957548834383488,1.3158321380615234,-0.05224745720624924,-0.0774664580821991
266.0,300.0,4.9896,-0.1226,7.3729,0.0359,-0.0002,-0.1741,-1.6075855694212855,-0.08442215621471405,2.319615602493286,-1.3143216371536255,0.00023683629115112126,2.246295690536499,-2.5483786068358363,0.0774918720126152,0.43328893184661865,-1.2482975164996546,-0.0,-0.10396566987037659,0.44510138034820557,0.0,-0.011909328401088715,1.315491795539856,-0.05553332716226578,-0.1247766762971878
266.0,300.0,4.9896,-0.1226,7.3729,0.0359,-0.0002,-0.1741,-1.6081730328001917,-0.08408115804195404,2.3555309772491455,-1.314422369003296,0.0003101524489466101,2.2566843032836914,-2.547570367852682,0.11130093038082123,0.4323405623435974,-1.2483256498919886,-0.0,-0.09108036011457443,0.4450768232345581,0.0,-0.003811442758888006,1.3150761127471924,-0.06103077903389931,-0.1828068196773529
266.0,300.0,4.9896,-0.1226,7.3729,0.0359,-0.0002,-0.1741,-1.6086803875365199,-0.08335015922784805,2.3916501998901367,-1.3144304752349854,0.0004437384777702391,2.2796273231506348,-2.5468341312804164,0.12792973220348358,0.4507288336753845,-1.2483018080340784,-0.0,-0.09811001271009445,0.4450526535511017,0.0,-0.0026861687656491995,1.3147202730178833,-0.06459742039442062,-0.1631595492362976
266.0,300.0,4.9896,-0.1226,7.3729,0.0359,-0.0002,-0.1741,-1.6093117199339808,-0.07646891474723816,2.37642502784729,-1.3143904209136963,0.0004254547820892185,2.2695980072021484,-2.545790811578268,0.1288457065820694,0.46104884147644043,-1.248293701802389,-0.0,-0.11055462062358856,0.445064902305603,0.0,-0.01291964016854763,1.3141565322875977,-0.06894511729478836,-0.09114830195903778
266.0,300.0,4.9896,-0.1226,7.3729,0.0359,-0.0002,-0.1741,-1.6097995243468226,-0.07079143077135086,2.4421887397766113,-1.3144066333770752,0.00029361361521296203,2.2909460067749023,-2.545107503930563,0.14483323693275452,0.4736383557319641,-1.2483018080340784,-0.0,-0.10312169790267944,0.4450526535511017,0.0,-0.011031396687030792,1.3137563467025757,-0.07010353356599808,-0.19887253642082214
250.0,286.0,7.9173,0.0969,5.8331,-0.1384,-0.0005,-0.1342,-1.6103631458678187,-0.07065727561712265,2.4994688034057617,-1.3143975734710693,-0.0002897194353863597,2.2593774795532227,-2.5437284908690394,0.17180830240249634,0.4938524067401886,-1.2482851187335413,-0.0,-0.0929570272564888,0.445089191198349,0.0,-0.0009002083097584546,1.3131517171859741,-0.06981876492500305,-0.1321289837360382
250.0,286.0,7.9173,0.0969,5.8331,-0.1384,-0.0005,-0.1342,-1.610774656335348,-0.07365843653678894,2.403317451477051,-1.3144460916519165,-0.0010665163863450289,2.295356035232544,-2.5427142582335414,0.1695387065410614,0.48518192768096924,-1.2482736746417444,-0.0,-0.10864458978176117,0.4451132118701935,0.0,-0.01561669446527958,1.3127720355987549,-0.06947804242372513,-0.17333541810512543
250.0,286.0,7.9173,0.0969,5.8331,-0.1384,-0.0005,-0.1342,-1.6113020382323207,-0.0763130784034729,2.448590040206909,-1.3143824338912964,0.0006064507178962231,2.27817964553833,-2.541288991967672,0.1823296695947647,0.4929782748222351,-1.2482975164996546,-0.0,-0.11989311873912811,0.44512149691581726,0.0,-0.017018364742398262,1.3121635913848877,-0.07565650343894958,-0.22220024466514587
250.0,286.0,7.9173,0.0969,5.8331,-0.1384,-0.0005,-0.1342,-1.6117664776244105,-0.0751553475856781,2.427277088165283,-1.3143863677978516,0.0005149791832081974,2.310638666152954,-2.540098806420797,0.19085879623889923,0.4974762499332428,-1.2482460180865687,-0.0,-0.09644153714179993,0.44506487250328064,0.0,-0.012572957202792168,1.311744213104248,-0.07711513340473175,-0.1620221734046936
250.0,286.0,7.9173,0.0969,5.8331,-0.1384,-0.0005,-0.1342,-1.6121818027892054,-0.0731445699930191,2.422349452972412,-1.314422369003296,0.0005626587080769241,2.3491735458374023,-2.5389844379820765,0.18233637511730194,0.497749388217926,-1.2482903639422815,-0.0,-0.0937993973493576,0.44510915875434875,0.0,-0.006101134233176708,1.3112801313400269,-0.08023160696029663,-0.21809455752372742
250.0,286.0,7.9173,0.0969,5.8331,-0.1384,-0.0005,-0.1342,-1.6127611599364222,-0.06821223348379135,2.494969367980957,-1.3143662214279175,0.0005408739671111107,2.292728900909424,-2.5374041996397914,0.20718160271644592,0.5096073150634766,-1.248249355946676,-0.0,-0.10287398099899292,0.44510141015052795,0.0,0.0016368180513381958,1.3106276988983154,-0.0796169638633728,-0.17672841250896454
250.0,286.0,7.9173,0.0969,5.8331,-0.1384,-0.0005,-0.1342,-1.6131769619383753,-0.06391448527574539,2.5246388912200928,-1.3143905401229858,0.00011902646656380966,2.2754969596862793,-2.5361539326109828,0.2210974544286728,0.507425844669342,-1.2483018080340784,-0.0,-0.1011548787355423,0.44504889845848083,0.0,0.0018117211293429136,1.3101353645324707,-0.0812850221991539,-0.15133051574230194
250.0,286.0,7.9173,0.0969,5.8331,-0.1384,-0.0005,-0.1342,-1.6136566601195277,-0.06352059543132782,2.5290677547454834,-1.3144422769546509,1.09298290904003e-11,2.33463454246521,-2.534323831597799,0.23816680908203125,0.508834958076477,-1.2482860724078577,-0.0,-0.09912895411252975,0.44508087635040283,0.0,-0.018559381365776062,1.3094916343688965,-0.09015718102455139,-0.15600553154945374
250.0,286.0,7.9173,0.0969,5.8331,-0.1384,-0.0005,-0.1342,-1.6140924892821253,-0.06578727811574936,2.496581792831421,-1.3144501447677612,2.639424973996467e-17,2.290590763092041,-2.532854219476217,0.2466515302658081,0.5241790413856506,-1.2482460180865687,-0.0,-0.08314210176467896,0.44510096311569214,0.0,-0.012903210707008839,1.308939814567566,-0.09905386716127396,-0.2430877387523651
250.0,286.0,7.9173,0.0969,5.8331,-0.1384,-0.0005,-0.1342,-1.614568372766012,-0.06481961905956268,2.4612483978271484,-1.3144224882125854,8.551400124015497e-25,2.237468719482422,-2.530952116052145,0.2376812845468521,0.5189852714538574,-1.248293701802389,-0.0,-0.10480926930904388,0.44510915875434875,0.0,-0.013184042647480965,1.3081157207489014,-0.10458486527204514,-0.18943820893764496
250.0,286.0,7.9173,0.0969,5.8331,-0.1384,-0.0005,-0.1342,-1.6149598560728968,-0.06378303468227386,2.5126943588256836,-1.314358115196228,0.00024873114307411015,2.3089661598205566,-2.5294186077513636,0.24879562854766846,0.511777937412262,-1.2482736746417444,-0.0,-0.09825814515352249,0.44514116644859314,0.0,-0.006302995607256889,1.3075358867645264,-0.1002049520611763,-0.19055968523025513
250.0,286.0,7.9173,0.0969,5.8331,-0.1384,-0.0005,-0.1342,-1.6154676876463832,-0.06180617958307266,2.4149117469787598,-1.3144623041152954,5.271993330779878e-08,2.266542911529541,-2.527492662469381,0.2527507245540619,0.5171205997467041,-1.2483256498919886,-0.0,-0.0798259824514389,0.44502443075180054,0.0,-0.013628891669213772,1.306707501411438,-0.09445588290691376,-0.23093409836292267
250.0,286.0,7.9173,0.0969,5.8331,-0.1384,-0.0005,-0.1342,-1.6157828770079554,-0.061589259654283524,2.437173843383789,-1.314374327659607,1.2731244010411036e-13,2.299365520477295,-2.5259720287718714,0.2622769773006439,0.5304202437400818,-1.2482698599444788,-0.0,-0.09347366541624069,0.4450608193874359,0.0,-0.012848040089011192,1.3062039613723755,-0.0900903046131134,-0.18839110434055328
263.0,278.0,7.209,0.679,6.6652,-0.0831,0.1426,-0.1341,-1.6162506542601527,-0.06525468081235886,2.41831374168396,-1.314394474029541,4.124761166096248e-21,2.2690768241882324,-2.523952146569723,0.25505608320236206,0.5075364112854004,-1.2483099142657679,-0.0,-0.10162490606307983,0.44510912895202637,0.0,-0.011922242119908333,1.3054838180541992,-0.0855572372674942,-0.19359299540519714
263.0,278.0,7.209,0.679,6.6652,-0.0831,0.1426,-0.1341,-1.6166826687254847,-0.0688432827591896,2.395080089569092,-1.3143699169158936,9.960812605501587e-27,2.277975082397461,-2.522391458550924,0.2558743953704834,0.5134355425834656,-1.2482612768756312,-0.0,-0.09029015898704529,0.445117324590683,0.0,-0.012974526733160019,1.3049637079238892,-0.08524491637945175,-0.09867797791957855
263.0,278.0,7.209,0.679,6.6652,-0.0831,0.1426,-0.1341,-1.61723055462026,-0.07026604562997818,2.4001104831695557,-1.3144025802612305,3.2271762472198435e-34,2.2665278911590576,-2.5204502544798792,0.2468029409646988,0.503422737121582,-1.248282257710592,-0.0,-0.09304465353488922,0.44508087635040283,0.0,-0.012142851948738098,1.3042957782745361,-0.09097915887832642,-0.13127920031547546
263.0,278.0,7.209,0.679,6.6652,-0.0831,0.1426,-0.1341,-1.6176701984801234,-0.07339155673980713,2.3712759017944336,-1.3143699169158936,7.793251344419254e-40,2.211756467819214,-2.5190049610533656,0.2392837405204773,0.5087478756904602,-1.2482975164996546,-0.0,-0.10844071209430695,0.44510912895202637,0.0,-0.0158532802015543,1.3037437200546265,-0.09902884811162949,-0.17184878885746002
263.0,278.0,7.209,0.679,6.6652,-0.0831,0.1426,-0.1341,-1.618209024468893,-0.07458335161209106,2.3754775524139404,-1.314394474029541,0.0,2.2525076866149902,-2.5173121891417445,0.2137269824743271,0.4858770966529846,-1.2482894102679651,-0.0,-0.09990940243005753,0.44514110684394836,0.0,0.00017395708709955215,1.3029882907867432,-0.10628150403499603,-0.13970918953418732
263.0,278.0,7.209,0.679,6.6652,-0.0831,0.1426,-0.1341,-1.6186920605101527,-0.07699310034513474,2.414216995239258,-1.314378023147583,-0.0,2.2820823192596436,-2.51603426555776,0.21554739773273468,0.47897300124168396,-1.2483060995685022,-0.0,-0.09152306616306305,0.4451292157173157,0.0,-0.0033984275069087744,1.3022993803024292,-0.10222294926643372,-0.11051693558692932
263.0,278.0,7.209,0.679,6.6652,-0.0831,0.1426,-0.1341,-1.6193248234190882,-0.07146821171045303,2.4133148193359375,-1.3143620491027832,-0.0,2.2581043243408203,-2.5144087276854457,0.19349005818367004,0.4666553735733032,-1.2483132521258753,-0.0,-0.09731518477201462,0.4450809061527252,0.0,0.010114675387740135,1.3015162944793701,-0.09771937876939774,-0.15734006464481354
263.0,278.0,7.209,0.679,6.6652,-0.0831,0.1426,-0.1341,-1.6197840176024378,-0.06717813014984131,2.364536762237549,-1.3143985271453857,-0.0,2.242386817932129,-2.513334890405172,0.18475127220153809,0.4718453288078308,-1.2482851187335413,-0.0,-0.09770051389932632,0.44507676362991333,0.0,-0.0045928009785711765,1.300920009613037,-0.09031496196985245,-0.11173620820045471
263.0,278.0,7.209,0.679,6.6652,-0.0831,0.1426,-0.1341,-1.6203681431212367,-0.06702704727649689,2.395609140396118,-1.3143978118896484,-0.0,2.176793336868286,-2.5120331249632777,0.145034059882164,0.45052653551101685,-1.248265568410055,-0.0,-0.0926283746957779,0.44513705372810364,0.0,-0.004944490734487772,1.3002480268478394,-0.08150650560855865,-0.06445258110761642
263.0,278.0,7.209,0.679,6.6652,-0.0831,0.1426,-0.1341,-1.6207429371275843,-0.07143789529800415,2.3385486602783203,-1.3143620491027832,-0.0,2.197985887527466,-2.5113312206664027,0.0939355418086052,0.4169294238090515,-1.248293701802389,-0.0,-0.09578828513622284,0.44506484270095825,0.0,-0.014715547673404217,1.2997318506240845,-0.07917635142803192,-0.09221071749925613
263.0,278.0,7.209,0.679,6.6652,-0.0831,0.1426,-0.1341,-1.6213270626463832,-0.07726337760686874,2.368333101272583,-1.3143739700317383,-0.0,2.233875274658203,-2.5108005009093226,0.052386123687028885,0.389547199010849,-1.2482698599444788,-0.0,-0.09515641629695892,0.44508087635040283,0.0,-0.013632362708449364,1.2991118431091309,-0.0829114317893982,-0.08059743046760559
263.0,278.0,7.209,0.679,6.6652,-0.0831,0.1426,-0.1341,-1.6217943630614222,-0.08158395439386368,2.3603179454803467,-1.3143460750579834,-0.0,2.2327163219451904,-2.5105887852110804,0.03381853923201561,0.3789329528808594,-1.248282257710592,-0.0,-0.09668626636266708,0.4450850486755371,0.0,-0.022358950227499008,1.2986443042755127,-0.08736614137887955,-0.15586817264556885
263.0,278.0,7.209,0.679,6.6652,-0.0831,0.1426,-0.1341,-1.622441907922262,-0.08210115134716034,2.310879707336426,-1.3143659830093384,-0.0,2.2202091217041016,-2.5104133091368617,0.015836574137210846,0.3688811659812927,-1.2482612768756312,-0.0,-0.0819060355424881,0.44510138034820557,0.0,-0.011262387037277222,1.2978957891464233,-0.09329584985971451,-0.12236161530017853
257.0,260.0,5.3049,-0.1968,6.6221,-0.1466,0.1164,-0.1327,-1.622946401635641,-0.08476028591394424,2.363487482070923,-1.3143901824951172,-0.0,2.242861747741699,-2.5102974377074183,0.004707469139248133,0.34963545203208923,-1.2482894102679651,-0.0,-0.10037977993488312,0.44504889845848083,0.0,-0.017036177217960358,1.2973277568817139,-0.09374862164258957,-0.07939232140779495
257.0,260.0,5.3049,-0.1968,6.6221,-0.1466,0.1164,-0.1327,-1.6236053905882777,-0.08286672830581665,2.333482265472412,-1.3143460750579834,0.0003866272163577378,2.1623878479003906,-2.5102817020811976,0.0007313057431019843,0.3532223105430603,-1.2482612768756312,-0.0,-0.09311755746603012,0.4450567662715912,0.0,-0.015988485887646675,1.2965919971466064,-0.09158296138048172,-0.10364671051502228
257.0,260.0,5.3049,-0.1968,6.6221,-0.1466,0.1164,-0.1327,-1.6241408787169398,-0.08096810430288315,2.362520933151245,-1.3144220113754272,0.00026104706921614707,2.185276508331299,-2.5102740726866664,0.0004532963503152132,0.3471946120262146,-1.2482851187335413,-0.0,-0.08120352029800415,0.44510096311569214,0.0,-0.005993966478854418,1.296023964881897,-0.08874571323394775,-0.07019677758216858
257.0,260.0,5.3049,-0.1968,6.6221,-0.1466,0.1164,-0.1327,-1.6247998676695765,-0.07790426909923553,2.3243465423583984,-1.3143863677978516,-0.00018279855430591851,2.228120803833008,-2.510261674920553,0.0003012994129676372,0.3543999195098877,-1.2482779661761683,-0.0,-0.08441899716854095,0.4450972080230713,0.0,-0.005095981992781162,1.2953159809112549,-0.08133159577846527,-0.07613218575716019
257.0,260.0,5.3049,-0.1968,6.6221,-0.1466,0.1164,-0.1327,-1.6253358326353968,-0.07702940702438354,2.378695487976074,-1.3144463300704956,-0.00033009331673383713,2.2372350692749023,-2.5102855167784632,0.00018878030823543668,0.3595033288002014,-1.2483142058001917,-0.0,-0.08730623126029968,0.4451214373111725,0.0,-0.007800746709108353,1.2948484420776367,-0.07468041032552719,-0.06999582052230835
257.0,260.0,5.3049,-0.1968,6.6221,-0.1466,0.1164,-0.1327,-1.6259914837279261,-0.0830380767583847,2.358912467956543,-1.314434289932251,-0.0013069045962765813,2.206638813018799,-2.510329862634176,0.00014246130012907088,0.3431188762187958,-1.2483060995685022,-0.0,-0.07761511206626892,0.4451329708099365,0.0,-0.011665407568216324,1.2942802906036377,-0.07171697169542313,-0.08165352046489716
257.0,260.0,5.3049,-0.1968,6.6221,-0.1466,0.1164,-0.1327,-1.6264387569823207,-0.090005062520504,2.307487964630127,-1.3144142627716064,-0.0010646727168932557,2.209618091583252,-2.5102693043150843,-8.535250526620075e-05,0.3391595482826233,-1.2482894102679651,-0.0,-0.07865433394908905,0.4450767934322357,0.0,0.004354535602033138,1.2938281297683716,-0.07401230931282043,-0.07658227533102036
257.0,260.0,5.3049,-0.1968,6.6221,-0.1466,0.1164,-0.1327,-1.62725891689443,-0.09712758660316467,2.381420612335205,-1.3144261837005615,-0.00013206055155023932,2.1911587715148926,-2.5102693043150843,-7.192387420218438e-05,0.3527873158454895,-1.2482731978045862,-0.0,-0.07924387603998184,0.44508904218673706,0.0,0.002831309102475643,1.293163776397705,-0.07677877694368362,-0.08909261226654053
257.0,260.0,5.3049,-0.1968,6.6221,-0.1466,0.1164,-0.1327,-1.6277743778624476,-0.09864530712366104,2.3565597534179688,-1.3144066333770752,-8.776637194785053e-10,2.213294744491577,-2.5102573833861292,-6.422385922633111e-05,0.34359270334243774,-1.2482894102679651,-0.0,-0.10719864815473557,0.44515740871429443,0.0,0.022329702973365784,1.2927321195602417,-0.07775480300188065,-0.0409620925784111
257.0,260.0,5.3049,-0.1968,6.6221,-0.1466,0.1164,-0.1327,-1.6285821400084437,-0.09971752017736435,2.3185930252075195,-1.3143303394317627,0.001343735959380865,2.2061767578125,-2.510294099847311,-2.8109529011999257e-05,0.339710533618927,-1.2483213583575647,-0.0,-0.08781487494707108,0.4451132118701935,0.0,-0.004567351192235947,1.292055606842041,-0.07654290646314621,-0.03391725569963455
257.0,260.0,5.3049,-0.1968,6.6221,-0.1466,0.1164,-0.1327,-1.6290885410704554,-0.09922150522470474,2.3736705780029297,-1.3143941164016724,0.0007092740852385759,2.2009310722351074,-2.5102573833861292,-2.2807721222761757e-07,0.3445311188697815,-1.2483132521258753,-0.0,-0.08249311149120331,0.44512516260147095,0.0,-0.01226651482284069,1.2916401624679565,-0.07579763978719711,-0.08446985483169556
257.0,260.0,5.3049,-0.1968,6.6221,-0.1466,0.1164,-0.1327,-1.6299520931639613,-0.09126872569322586,2.3253912925720215,-1.314318299293518,0.00035159458639100194,2.178347110748291,-2.510261674920553,-4.145189833743013e-12,0.3379492163658142,-1.2483132521258753,-0.0,-0.09038450568914413,0.44510096311569214,0.0,0.0030843408312648535,1.2910645008087158,-0.07767872512340546,-0.044803984463214874
257.0,260.0,5.3049,-0.1968,6.6221,-0.1466,0.1164,-0.1327,-1.630484243432516,-0.08534061163663864,2.348867416381836,-1.3143861293792725,-3.852339796139859e-05,2.2228341102600098,-2.5102740726866664,-1.1538290219036368e-15,0.3393397331237793,-1.2482975164996546,-0.0,-0.09241606295108795,0.445149302482605,0.0,0.014839856885373592,1.2905482053756714,-0.07575035840272903,-0.07899871468544006
234.0,243.0,7.8598,-1.4064,5.5669,-0.1087,-0.0776,-0.1846,-1.6310035190977992,-0.08032483607530594,2.3738741874694824,-1.3144099712371826,-0.000987677602097392,2.2352516651153564,-2.510221143762106,-3.2117254421265527e-19,0.33388587832450867,-1.2482698599444788,-0.0,-0.08293545991182327,0.4451451897621155,0.0,0.018888814374804497,1.290152668952942,-0.07045239210128784,-0.04350000619888306
234.0,243.0,7.8598,-1.4064,5.5669,-0.1087,-0.0776,-0.1846,-1.6316906414427699,-0.08756335079669952,2.3791279792785645,-1.3144099712371826,-0.002528466982766986,2.1750357151031494,-2.510277887383932,-5.837152996786173e-24,0.3466423749923706,-1.248345200215475,-0.0,-0.103148452937603,0.445173442363739,0.0,-0.0038993293419480324,1.2895725965499878,-0.06260354816913605,-0.028812121599912643
234.0,243.0,7.8598,-1.4064,5.5669,-0.1087,-0.0776,-0.1846,-1.6322514019408167,-0.09523282200098038,2.3965489864349365,-1.3144499063491821,-0.001699139247648418,2.2092056274414062,-2.5102459392943324,-1.6247926938408143e-27,0.341189444065094,-1.2482894102679651,-0.0,-0.09588860720396042,0.4451329708099365,1.1176346248475966e-07,0.0010298923589289188,1.2891643047332764,-0.05743095278739929,-0.04350696876645088
234.0,243.0,7.8598,-1.4064,5.5669,-0.1087,-0.0776,-0.1846,-1.6329380474486292,-0.10383619368076324,2.2940311431884766,-1.3143779039382935,-3.6225998201189213e-07,2.2144687175750732,-2.5101729832091273,0.0003023518656846136,0.3465096056461334,-1.2483018080340784,-0.0,-0.08572618663311005,0.44508498907089233,2.031245614417254e-12,0.012628761120140553,1.288712501525879,-0.054860930889844894,-0.042699187994003296
234.0,243.0,7.8598,-1.4064,5.5669,-0.1087,-0.0776,-0.1846,-1.6335536442198695,-0.10536316782236099,2.33250093460083,-1.3144385814666748,0.002652058145031333,2.2360904216766357,-2.510101457635397,0.008234865963459015,0.346817284822464,-1.2483089605914515,-0.0,-0.10307992994785309,0.44510912895202637,5.654047096271717e-16,0.02189139649271965,1.2883719205856323,-0.05441432446241379,-0.035920649766922
234.0,243.0,7.8598,-1.4064,5.5669,-0.1087,-0.0776,-0.1846,-1.6344014606871546,-0.10021800547838211,2.3959169387817383,-1.3143501281738281,0.001247278181836009,2.2346630096435547,-2.5099412403502406,0.01974414475262165,0.3484824299812317,-1.248345200215475,-0.0,-0.0962550938129425,0.44512513279914856,1.0275952466440457e-20,0.023620672523975372,1.2879564762115479,-0.052652034908533096,-0.04360848665237427
234.0,243.0,7.8598,-1.4064,5.5669,-0.1087,-0.0776,-0.1846,-1.6349965534605921,-0.09742040187120438,2.355523109436035,-1.3143904209136963,0.0006135726580396295,2.2165350914001465,-2.509801527062887,0.027151234447956085,0.3607536256313324,-1.2483494917498987,-0.0,-0.10031946003437042,0.445088654756546,2.8603492944721394e-24,0.015550116077065468,1.287648320198059,-0.051915574818849564,-0.01041056215763092
234.0,243.0,7.8598,-1.4064,5.5669,-0.1087,-0.0776,-0.1846,-1.6357799969115199,-0.09283150732517242,2.4258337020874023,-1.314394474029541,0.0003175617312081158,2.1968584060668945,-2.509562154809469,0.0250783059746027,0.3654058575630188,-1.2483733336078089,-0.0,-0.1046229749917984,0.4451693594455719,5.198543531969157e-29,0.016327861696481705,1.2872966527938843,-0.04474828392267227,0.0029413884039968252
234.0,243.0,7.8598,-1.4064,5.5669,-0.1087,-0.0776,-0.1846,-1.6362673244872035,-0.09027757495641708,2.4082412719726562,-1.3144224882125854,-0.00019038360915146768,2.2492759227752686,-2.5094906292357386,0.02066921442747116,0.36518412828445435,-1.2483370939837855,-0.0,-0.1002005860209465,0.445149302482605,1.4470336927990298e-32,0.02992970496416092,1.2870327234268188,-0.041370514780282974,0.04604849964380264
234.0,243.0,7.8598,-1.4064,5.5669,-0.1087,-0.0776,-0.1846,-1.6370507679381312,-0.09375137090682983,2.3760790824890137,-1.3144142627716064,-0.00021813657076563686,2.240722894668579,-2.509322782556051,0.011768333613872528,0.3616693615913391,-1.2483494917498987,-0.0,-0.11144497990608215,0.44509679079055786,2.6299123405017126e-37,0.023147515952587128,1.286712884902954,-0.03868737071752548,0.011917836032807827
234.0,243.0,7.8598,-1.4064,5.5669,-0.1087,-0.0776,-0.1846,-1.6376387081541957,-0.09657615423202515,2.361121654510498,-1.3144099712371826,-0.00018458717386238277,2.2237768173217773,-2.5093475780882777,0.005106819327920675,0.3612685203552246,-1.2483051458941858,-0.0,-0.09725931286811829,0.4451410472393036,7.320523307479277e-41,0.006566464900970459,1.286468505859375,-0.03855974227190018,0.005794751923531294
234.0,243.0,7.8598,-1.4064,5.5669,-0.1087,-0.0776,-0.1846,-1.6384264431395472,-0.09926947206258774,2.4214227199554443,-1.3144304752349854,-0.00015316980716306716,2.190704822540283,-2.509298940698141,0.0008838431676849723,0.34415513277053833,-1.248300854359762,-0.0,-0.10527286678552628,0.44512879848480225,1.401298464324817e-45,0.025365058332681656,1.286136269569397,-0.03934734687209129,0.02611587569117546
222.0,241.0,5.053,-0.4564,6.9027,0.027,0.0512,-0.1959,-1.6389576397337855,-0.10196559876203537,2.404750347137451,-1.3143540620803833,-0.00011576191172935069,2.212783098220825,-2.5092069111266078,0.0005063912249170244,0.3708375096321106,-1.2483213583575647,-0.0,-0.10337153822183609,0.44514888525009155,0.0,0.012696762569248676,1.2859166860580444,-0.03910623863339424,0.027658652514219284
222.0,241.0,5.053,-0.4564,6.9027,0.027,0.0512,-0.1959,-1.6397329769530238,-0.10196708142757416,2.3681609630584717,-1.3143701553344727,-2.675496091342211e-08,2.2192306518554688,-2.509271284142965,0.00032354480936191976,0.3571041226387024,-1.2483652273761194,-0.0,-0.10666637122631073,0.445181280374527,0.0,0.0213509202003479,1.2856125831604004,-0.03802073746919632,-0.0031610168516635895
