ramyac6/ROB537/final_project/csv/good/good_229.csv
tof_0,tof_1,accelx,accely,accelz,gyrox,gyroy,gyroz,shoulder_lift_joint_position,shoulder_lift_joint_velocity,shoulder_lift_joint_effort,elbow_joint_position,elbow_joint_velocity,elbow_joint_effort,wrist_1_joint_position,wrist_1_joint_velocity,wrist_1_joint_effort,wrist_2_joint_position,wrist_2_joint_velocity,wrist_2_joint_effort,wrist_3_joint_position,wrist_3_joint_velocity,wrist_3_joint_effort,shoulder_pan_joint_position,shoulder_pan_joint_velocity,shoulder_pan_joint_effort
287.0,257.0,-0.2913,-3.6503,8.9198,-0.0289,0.0205,-0.1046,-1.873751779595846,0.0,3.2616162300109863,-1.698472499847412,-0.0,1.9979692697525024,5.193515288620748,0.0,0.2689661979675293,-1.1890009085284632,0.0,-0.05074852705001831,0.4085812568664551,0.0,0.0029426643159240484,1.1832075119018555,0.0,0.027407465502619743
287.0,257.0,-0.2913,-3.6503,8.9198,-0.0289,0.0205,-0.1046,-1.873767992059225,0.0,3.287026882171631,-1.6984570026397705,-0.0,2.015559673309326,5.193523156433859,0.0,0.2552364766597748,-1.1890047232257288,0.0,-0.057181503623723984,0.4085012376308441,0.0,-0.0010035787709057331,1.1832438707351685,0.0,-0.02293505147099495
287.0,257.0,-0.2913,-3.6503,8.9198,-0.0289,0.0205,-0.1046,-1.873852869073385,0.0,3.2226829528808594,-1.6984691619873047,-0.0,1.9932090044021606,5.1935311434562585,0.0,0.2669551372528076,-1.1890290419207972,0.0,-0.03904789686203003,0.4085853397846222,0.0,0.008653467521071434,1.1832475662231445,0.0,-0.013579419814050198
287.0,257.0,-0.2913,-3.6503,8.9198,-0.0289,0.0205,-0.1046,-1.8738123379149378,0.0,3.326484203338623,-1.6984848976135254,-0.0,1.9991010427474976,5.193515318423071,0.0,0.2550917863845825,-1.1889804045306605,0.0,-0.047902144491672516,0.4085412323474884,0.0,0.009385038167238235,1.1832475662231445,0.0,-0.03241310641169548
287.0,257.0,-0.2913,-3.6503,8.9198,-0.0289,0.0205,-0.1046,-1.8737927875914515,0.0,3.32733154296875,-1.6984570026397705,-0.0,1.988339900970459,5.193503367691793,0.0,0.25526174902915955,-1.1890128294574183,0.0,-0.05810821056365967,0.4085812270641327,0.0,0.01866621896624565,1.1832315921783447,0.0,-0.007807031273841858
277.0,268.0,-0.2692,-3.5934,8.8181,-0.0295,0.0287,-0.1148,-1.8738166294493617,0.0,3.233926296234131,-1.6984847784042358,-0.0,2.002403974533081,5.1935311434562585,0.0,0.25956374406814575,-1.1890047232257288,0.0,-0.041147977113723755,0.40856119990348816,0.0,-0.0010996467899531126,1.1831915378570557,0.0,-0.009026947431266308
277.0,268.0,-0.2692,-3.5934,8.8181,-0.0295,0.0287,-0.1148,-1.8738085232176722,0.0,3.291262149810791,-1.6984610557556152,-0.0,2.0289664268493652,5.193535107165136,0.0,0.27155598998069763,-1.1890009085284632,0.0,-0.041842132806777954,0.4085533022880554,0.0,0.007698345463722944,1.1832435131072998,0.0,0.001037389156408608
277.0,268.0,-0.2692,-3.5934,8.8181,-0.0295,0.0287,-0.1148,-1.8738004169859828,0.0,3.2730839252471924,-1.6984487771987915,-0.0,1.991616129875183,5.193563210755148,0.0,0.26238828897476196,-1.189045254384176,0.0,-0.052878353744745255,0.4085812568664551,0.0,0.005071112886071205,1.1832034587860107,0.0,-0.039824824780225754
277.0,268.0,-0.2692,-3.5934,8.8181,-0.0295,0.0287,-0.1148,-1.8737842045226039,0.0,3.290576457977295,-1.6984487771987915,-0.0,1.9672377109527588,5.193571167975225,0.0,0.2676195204257965,-1.189045254384176,0.0,-0.041445985436439514,0.40859338641166687,0.0,0.006121846381574869,1.1831591129302979,0.0,0.02046290785074234
277.0,268.0,-0.2692,-3.5934,8.8181,-0.0295,0.0287,-0.1148,-1.8737474880614222,0.0,3.2850918769836426,-1.698448657989502,-0.0,1.981519103050232,5.193511354714193,0.0,0.27251607179641724,-1.1890490690814417,0.0,-0.0538487508893013,0.40852901339530945,0.0,0.010872938670217991,1.1832234859466553,0.0,-0.03967004641890526
277.0,268.0,-0.2692,-3.5934,8.8181,-0.0295,0.0287,-0.1148,-1.8738047085204066,0.0,3.2831268310546875,-1.6985054016113281,-0.0,2.027451276779175,5.193567144661703,0.0,0.2705745995044708,-1.1890371481524866,0.0,-0.05633333697915077,0.4085571765899658,0.0,0.00560929998755455,1.1832475662231445,0.0,-0.00844540260732174
277.0,268.0,-0.2692,-3.5934,8.8181,-0.0295,0.0287,-0.1148,-1.8737684688963832,0.0,3.265645980834961,-1.6984405517578125,-0.0,2.0266897678375244,5.193499403982916,0.0,0.2521342635154724,-1.1890209356891077,0.0,-0.05457215756177902,0.40852096676826477,0.0,-7.651257328689098e-05,1.1832194328308105,0.0,0.011712982319295406
277.0,268.0,-0.2692,-3.5934,8.8181,-0.0295,0.0287,-0.1148,-1.873812814752096,0.0,3.24285626411438,-1.6984848976135254,-0.0,2.0157980918884277,5.193547028094091,0.0,0.25438863039016724,-1.1890252272235315,0.0,-0.05389872193336487,0.40854933857917786,0.0,0.013607805594801903,1.1832034587860107,0.0,0.061443693935871124
277.0,268.0,-0.2692,-3.5934,8.8181,-0.0295,0.0287,-0.1148,-1.8738204441466273,0.0,3.2907814979553223,-1.6984165906906128,-0.0,2.001621961593628,5.193519252329626,0.0,0.26412492990493774,-1.189017120991842,0.0,-0.033905088901519775,0.4085811972618103,0.0,0.0019686592277139425,1.1831992864608765,0.0,0.042148176580667496
277.0,268.0,-0.2692,-3.5934,8.8181,-0.0295,0.0287,-0.1148,-1.8737474880614222,0.0,3.2739462852478027,-1.6984806060791016,-0.0,1.9652869701385498,5.1935311434562585,0.0,0.26747608184814453,-1.1890090147601526,0.0,-0.057965587824583054,0.40853720903396606,0.0,0.0024042369332164526,1.1832194328308105,0.0,-0.05039969086647034
293.0,261.0,-0.2524,-3.6215,8.8193,-0.0308,0.029,-0.1167,-1.8738247356810511,0.0,3.2787060737609863,-1.6984487771987915,-0.0,1.991245985031128,5.193547057896414,0.0,0.2607095241546631,-1.1890133062945765,0.0,-0.047905825078487396,0.4085771441459656,0.0,0.007463952526450157,1.183235764503479,0.0,-0.005055855959653854
293.0,261.0,-0.2524,-3.6215,8.8193,-0.0308,0.029,-0.1167,-1.8738171062865199,0.0,3.2873330116271973,-1.6984291076660156,-0.0,1.9844694137573242,5.193511354714193,0.0,0.27558058500289917,-1.1890047232257288,0.0,-0.05616726726293564,0.40856119990348816,0.0,0.007116813212633133,1.1832194328308105,0.0,-0.025324787944555283
293.0,261.0,-0.2524,-3.6215,8.8193,-0.0308,0.029,-0.1167,-1.8737884960570277,0.0,3.298835277557373,-1.6984405517578125,-0.0,1.977648377418518,5.1934673366840265,0.0,0.2746317684650421,-1.1890528837787073,0.0,-0.045613843947649,0.40856918692588806,0.0,0.0011244602501392365,1.1832557916641235,0.0,-0.02874813973903656
293.0,261.0,-0.2524,-3.6215,8.8193,-0.0308,0.029,-0.1167,-1.8737760982909144,0.0,3.2902262210845947,-1.6984610557556152,-0.0,2.0044384002685547,5.19357510188178,0.0,0.26687920093536377,-1.1889966169940394,0.0,-0.05503350496292114,0.4085252285003662,0.0,0.0069626737385988235,1.1832034587860107,0.0,-0.031372059136629105
293.0,261.0,-0.2524,-3.6215,8.8193,-0.0308,0.029,-0.1167,-1.8737760982909144,0.0,3.2694499492645264,-1.6984570026397705,-0.0,2.0170745849609375,5.193515288620748,0.0,0.26450738310813904,-1.1890133062945765,0.0,-0.05130869895219803,0.4085250198841095,0.0,0.0009690100559964776,1.1832152605056763,0.0,0.00010162033140659332
293.0,261.0,-0.2524,-3.6215,8.8193,-0.0308,0.029,-0.1167,-1.8738285503783167,0.0,3.2526931762695312,-1.6983882188796997,-0.0,2.031278610229492,5.193546998291769,0.0,0.26507580280303955,-1.1889928022967737,0.0,-0.0629713237285614,0.40856117010116577,0.0,0.0009214419405907393,1.183235764503479,0.0,0.0009211162105202675
293.0,261.0,-0.2524,-3.6215,8.8193,-0.0308,0.029,-0.1167,-1.8737803898253382,0.0,3.2861218452453613,-1.6984971761703491,-0.0,2.0035574436187744,5.193575131684103,0.0,0.24418070912361145,-1.188984219227926,0.0,-0.04881913214921951,0.4085571765899658,0.0,0.007618295028805733,1.183215618133545,0.0,-0.0032023966778069735
293.0,261.0,-0.2524,-3.6215,8.8193,-0.0308,0.029,-0.1167,-1.8737927875914515,0.0,3.302858352661133,-1.6984527111053467,-0.0,1.9916741847991943,5.193531173258581,0.0,0.2698982357978821,-1.1890209356891077,0.0,-0.049390848726034164,0.40854910016059875,0.0,0.0027169145178049803,1.1832398176193237,0.0,-0.02095871791243553
293.0,261.0,-0.2524,-3.6215,8.8193,-0.0308,0.029,-0.1167,-1.8737927875914515,0.0,3.3107361793518066,-1.6984649896621704,-0.0,2.0221548080444336,5.193531203060903,0.0,0.2604312002658844,-1.188984219227926,0.0,-0.03719177842140198,0.4085933566093445,0.0,0.010386045090854168,1.183187484741211,0.0,-0.013660330325365067
293.0,261.0,-0.2524,-3.6215,8.8193,-0.0308,0.029,-0.1167,-1.8738004169859828,0.0,3.266599178314209,-1.6984889507293701,-0.0,1.9929108619689941,5.193495440274038,0.0,0.2811232805252075,-1.1890047232257288,0.0,-0.05068045109510422,0.4085853397846222,0.0,-0.001947377691976726,1.1832034587860107,0.0,-0.011407984420657158
292.0,263.0,-0.3147,-3.6251,8.7894,-0.042,0.0148,-0.1103,-1.8737923107542933,0.0,3.2710936069488525,-1.69846510887146,-0.0,2.007075548171997,5.193567144661703,0.0,0.258545845746994,-1.1890528837787073,0.0,-0.05359283834695816,0.40857309103012085,0.0,0.005583988502621651,1.1831910610198975,0.0,-0.008581472560763359
292.0,263.0,-0.3147,-3.6251,8.7894,-0.042,0.0148,-0.1103,-1.8738171062865199,0.0,3.2796711921691895,-1.6984610557556152,-0.0,1.9974474906921387,5.193515288620748,0.0,0.26294925808906555,-1.1890209356891077,0.0,-0.044315896928310394,0.4085412323474884,0.0,0.006371353752911091,1.1832438707351685,0.0,0.012282106094062328
292.0,263.0,-0.3147,-3.6251,8.7894,-0.042,0.0148,-0.1103,-1.8737923107542933,0.0,3.2483713626861572,-1.6983965635299683,-0.0,1.9355427026748657,5.1935311434562585,0.0,0.2715567350387573,-1.1890252272235315,0.0,-0.05217784270644188,0.40848156809806824,0.0,0.010437561199069023,1.183235764503479,0.0,-0.026674898341298103
292.0,263.0,-0.3147,-3.6251,8.7894,-0.042,0.0148,-0.1103,-1.8737923107542933,0.0,3.2789039611816406,-1.6984806060791016,-0.0,2.0355968475341797,5.193555342942037,0.0,0.2580474019050598,-1.1890252272235315,0.0,-0.05391538143157959,0.40853726863861084,0.0,-0.0050801606848835945,1.1832112073898315,0.0,-0.0033399946987628937
292.0,263.0,-0.3147,-3.6251,8.7894,-0.042,0.0148,-0.1103,-1.8737598858275355,0.0,3.3606176376342773,-1.6984683275222778,-0.0,2.0211737155914307,5.193527179747381,0.0,0.26218658685684204,-1.1890209356891077,0.0,-0.05688387155532837,0.40858936309814453,0.0,-0.0035162046551704407,1.1832034587860107,0.0,-0.011932853609323502
292.0,263.0,-0.3147,-3.6251,8.7894,-0.042,0.0148,-0.1103,-1.8737842045226039,0.0,3.272127151489258,-1.6984765529632568,-0.0,2.0115673542022705,5.193519252329626,0.0,0.27583032846450806,-1.1890490690814417,0.0,-0.04640930891036987,0.4085412621498108,0.0,-0.0033084838651120663,1.1832152605056763,0.0,-0.020180223509669304
292.0,263.0,-0.3147,-3.6251,8.7894,-0.042,0.0148,-0.1103,-1.8737441502013148,0.0,3.2868154048919678,-1.6985050439834595,-0.0,1.9974656105041504,5.193543034582891,0.0,0.26388442516326904,-1.1890128294574183,0.0,-0.05341937765479088,0.4085412621498108,0.0,-0.003500963095575571,1.183187484741211,0.0,0.03438588231801987
292.0,263.0,-0.3147,-3.6251,8.7894,-0.042,0.0148,-0.1103,-1.8737884960570277,0.0,3.3348824977874756,-1.6984487771987915,-0.0,1.9611611366271973,5.193483221321859,0.0,0.25418728590011597,-1.1890209356891077,0.0,-0.05492974817752838,0.40855318307876587,0.0,-0.016585223376750946,1.1831673383712769,0.0,-0.042775318026542664
292.0,263.0,-0.3147,-3.6251,8.7894,-0.042,0.0148,-0.1103,-1.8738204441466273,0.0,3.27744722366333,-1.6984527111053467,-0.0,2.0195119380950928,5.193527209549703,0.0,0.2608839273452759,-1.1890252272235315,0.0,-0.028913123533129692,0.40854525566101074,0.0,0.005902525503188372,1.1832034587860107,0.0,-0.03406962379813194
282.0,258.0,-0.2506,-3.5713,8.8313,-0.031,0.0269,-0.1161,-1.873751779595846,0.0,3.3016958236694336,-1.6984610557556152,-0.0,1.9635968208312988,5.1935073910053156,0.0,0.26874643564224243,-1.1889966169940394,0.0,-0.036417290568351746,0.40854910016059875,0.0,-0.010729631409049034,1.1832034587860107,0.0,-0.054423026740550995
282.0,258.0,-0.2506,-3.5713,8.8313,-0.031,0.0269,-0.1161,-1.8738004169859828,0.0,3.267178773880005,-1.6984446048736572,-0.0,1.9969394207000732,5.193543064385214,0.0,0.26385796070098877,-1.1890328566180628,0.0,-0.057563260197639465,0.40855324268341064,0.0,0.001515567535534501,1.1831952333450317,0.0,0.029074054211378098
282.0,258.0,-0.2506,-3.5713,8.8313,-0.031,0.0269,-0.1161,-1.873796125451559,0.0,3.303678035736084,-1.6984971761703491,-0.0,2.0077433586120605,5.193527209549703,0.0,0.26891839504241943,-1.1890290419207972,0.0,-0.04751243814826012,0.4085652530193329,0.0,-0.004745082464069128,1.1832438707351685,0.0,0.017131324857473373
282.0,258.0,-0.2506,-3.5713,8.8313,-0.031,0.0269,-0.1161,-1.8737884960570277,0.0,3.3419790267944336,-1.6984931230545044,-0.0,2.0176825523376465,5.193543064385214,0.0,0.2535489797592163,-1.1890328566180628,0.0,-0.056218717247247696,0.4086092412471771,0.0,-0.003120815847069025,1.1832275390625,0.0,0.024920150637626648
282.0,258.0,-0.2506,-3.5713,8.8313,-0.031,0.0269,-0.1161,-1.8737760982909144,0.0,3.319719076156616,-1.6984971761703491,-0.0,2.057826042175293,5.193563210755148,0.0,0.28048473596572876,-1.188984219227926,0.0,-0.05629339441657066,0.40854519605636597,0.0,-0.005195201374590397,1.1832194328308105,0.0,-0.014332696795463562
282.0,258.0,-0.2506,-3.5713,8.8313,-0.031,0.0269,-0.1161,-1.8737560711302699,0.0,3.314931869506836,-1.698392391204834,-0.0,2.0077626705169678,5.1935391304786584,0.0,0.26540321111679077,-1.1890090147601526,0.0,-0.06028207764029503,0.4086132347583771,0.0,0.008375833742320538,1.1831673383712769,0.0,0.025077464058995247
282.0,258.0,-0.2506,-3.5713,8.8313,-0.031,0.0269,-0.1161,-1.8737842045226039,0.0,3.2950966358184814,-1.6984405517578125,-0.0,1.9946049451828003,5.193575131684103,0.0,0.2663653492927551,-1.1889765898333948,0.0,-0.04698888957500458,0.4085412621498108,0.0,0.0023416257463395596,1.1832315921783447,0.0,0.035751089453697205
282.0,258.0,-0.2506,-3.5713,8.8313,-0.031,0.0269,-0.1161,-1.8737884960570277,0.0,3.311697483062744,-1.6984528303146362,-0.0,2.019913673400879,5.193515288620748,0.0,0.2676670253276825,-1.1890252272235315,0.0,-0.06174297258257866,0.40855318307876587,0.0,-0.0009138671448454261,1.1831992864608765,0.0,0.006017042323946953
282.0,258.0,-0.2506,-3.5713,8.8313,-0.031,0.0269,-0.1161,-1.8737560711302699,0.0,3.2967352867126465,-1.698425054550171,-0.0,1.995482087135315,5.1935391304786584,0.0,0.2703425884246826,-1.1890166441546839,0.0,-0.049905408173799515,0.4085412621498108,0.0,0.009856089949607849,1.1832315921783447,0.0,0.01590138114988804
282.0,258.0,-0.2506,-3.5713,8.8313,-0.031,0.0269,-0.1161,-1.8737198315062464,0.0,3.2860894203186035,-1.6984765529632568,-0.0,2.011449098587036,5.193519252329626,0.0,0.26602405309677124,-1.1890090147601526,0.0,-0.050154250115156174,0.4085770547389984,0.0,-0.006615661084651947,1.1832234859466553,0.0,-0.011612826958298683
286.0,265.0,-0.2572,-3.6209,8.9115,-0.0229,0.0272,-0.1089,-1.8737842045226039,0.0,3.2802796363830566,-1.6984773874282837,-0.0,1.9888769388198853,5.193535107165136,0.0,0.26544320583343506,-1.1889846960650843,0.0,-0.050039395689964294,0.40854525566101074,0.0,-0.0069200131110847,1.1832398176193237,0.0,0.03409777954220772
286.0,265.0,-0.2572,-3.6209,8.9115,-0.0229,0.0272,-0.1089,-1.8737718067564906,0.0,3.2859649658203125,-1.6984528303146362,-0.0,2.00288724899292,5.193515288620748,0.0,0.2574317455291748,-1.1890571753131312,0.0,-0.04897609353065491,0.4085571765899658,0.0,0.00358405988663435,1.1832034587860107,0.0,0.00584825687110424
286.0,265.0,-0.2572,-3.6209,8.9115,-0.0229,0.0272,-0.1089,-1.873829027215475,0.0,3.2948827743530273,-1.698437213897705,-0.0,1.97926926612854,5.193567144661703,0.0,0.26478761434555054,-1.189033333455221,0.0,-0.06006819009780884,0.4085094630718231,0.0,0.005432802252471447,1.1832438707351685,0.0,0.016289904713630676
286.0,265.0,-0.2572,-3.6209,8.9115,-0.0229,0.0272,-0.1089,-1.8738047085204066,0.0,3.289477586746216,-1.6984165906906128,-0.0,1.9610241651535034,5.1935391304786584,0.0,0.27468234300613403,-1.1890166441546839,0.0,-0.044561322778463364,0.4085451662540436,0.0,-0.002659587422385812,1.1832194328308105,0.0,-0.032677654176950455
286.0,265.0,-0.2572,-3.6209,8.9115,-0.0229,0.0272,-0.1089,-1.873800893823141,0.0,3.2943453788757324,-1.698412537574768,-0.0,2.0061488151550293,5.193511354714193,0.0,0.2595953047275543,-1.1890090147601526,0.0,-0.045042719691991806,0.40853700041770935,0.0,-0.0020514782518148422,1.1831510066986084,0.0,-0.004693002440035343
286.0,265.0,-0.2572,-3.6209,8.9115,-0.0229,0.0272,-0.1089,-1.8737842045226039,0.0,3.280223846435547,-1.6984446048736572,-0.0,1.969668984413147,5.193515258818426,0.0,0.2692302465438843,-1.1890209356891077,0.0,-0.04533938318490982,0.4086051881313324,0.0,-0.00816633552312851,1.1832275390625,0.0,0.023045629262924194
286.0,265.0,-0.2572,-3.6209,8.9115,-0.0229,0.0272,-0.1089,-1.8737718067564906,0.0,3.2785589694976807,-1.6985013484954834,-0.0,1.9616310596466064,5.193527179747381,0.0,0.26470252871513367,-1.188972298298971,0.0,-0.04305705428123474,0.4085971713066101,0.0,-0.0030703579541295767,1.1832438707351685,0.0,-0.0067434669472277164
286.0,265.0,-0.2572,-3.6209,8.9115,-0.0229,0.0272,-0.1089,-1.873767992059225,0.0,3.284339427947998,-1.6984848976135254,-0.0,1.9898384809494019,5.193515288620748,0.0,0.2654796242713928,-1.1890166441546839,0.0,-0.05970664694905281,0.4085055887699127,0.0,0.0011872253380715847,1.183235764503479,0.0,-0.010526712983846664
286.0,265.0,-0.2572,-3.6209,8.9115,-0.0229,0.0272,-0.1089,-1.87384094814443,0.0,3.2777371406555176,-1.6984046697616577,-0.0,2.013293504714966,5.193563210755148,0.0,0.25887060165405273,-1.1890209356891077,0.0,-0.053876254707574844,0.4085250496864319,0.0,0.0009234858443960547,1.1832115650177002,0.0,0.021555142477154732
294.0,264.0,-0.2668,-3.673,8.7506,-0.0425,0.0182,-0.1127,-1.8738047085204066,0.0,3.268005847930908,-1.6984848976135254,-0.0,1.9761797189712524,5.193571257382192,0.0,0.2654890716075897,-1.18898851076235,0.0,-0.042206600308418274,0.4086208939552307,0.0,-0.008243205025792122,1.1832438707351685,0.0,6.0712918639183044e-05
294.0,264.0,-0.2668,-3.673,8.7506,-0.0425,0.0182,-0.1127,-1.8737436733641566,0.0,3.2827959060668945,-1.6984446048736572,-0.0,1.9699780941009521,5.193535107165136,0.0,0.26517871022224426,-1.1890252272235315,0.0,-0.056113436818122864,0.4085651934146881,0.0,-0.01656872034072876,1.1831915378570557,0.0,0.04163555055856705
294.0,264.0,-0.2668,-3.673,8.7506,-0.0425,0.0182,-0.1127,-1.8737842045226039,0.0,3.293696165084839,-1.6984610557556152,-0.0,1.948216199874878,5.193503337889471,0.0,0.2638785243034363,-1.1890328566180628,0.0,-0.04740319401025772,0.4085611402988434,0.0,-0.006535005290061235,1.1832315921783447,0.0,-0.008444059640169144
294.0,264.0,-0.2668,-3.673,8.7506,-0.0425,0.0182,-0.1127,-1.8737842045226039,0.0,3.3031973838806152,-1.698472499847412,-0.0,1.9585522413253784,5.193539100676336,0.0,0.2605753242969513,-1.1890528837787073,0.0,-0.05974165350198746,0.4085211157798767,0.0,0.0005070706829428673,1.183179259300232,0.0,-0.01836065575480461
294.0,264.0,-0.2668,-3.673,8.7506,-0.0425,0.0182,-0.1127,-1.8737560711302699,0.0,3.307187557220459,-1.6984291076660156,-0.0,2.0189781188964844,5.193539160280981,0.0,0.26237207651138306,-1.1890252272235315,0.0,-0.055192675441503525,0.4085571765899658,0.0,-0.004362363368272781,1.1832115650177002,0.0,0.006297422107309103
294.0,264.0,-0.2668,-3.673,8.7506,-0.0425,0.0182,-0.1127,-1.8738171062865199,0.0,3.3260979652404785,-1.698412537574768,-0.0,2.0302793979644775,5.193535107165136,0.0,0.2582104802131653,-1.1889761129962366,0.0,-0.04273263365030289,0.40860486030578613,0.0,0.001260048127733171,1.1832398176193237,0.0,-0.0011212676763534546
294.0,264.0,-0.2668,-3.673,8.7506,-0.0425,0.0182,-0.1127,-1.8738085232176722,0.0,3.283541679382324,-1.698448657989502,-0.0,2.0304641723632812,5.193579035788336,0.0,0.2680565416812897,-1.1889966169940394,0.0,-0.041351817548274994,0.4085610806941986,0.0,0.0008557644905522466,1.1832034587860107,0.0,0.021169640123844147
294.0,264.0,-0.2668,-3.673,8.7506,-0.0425,0.0182,-0.1127,-1.8737760982909144,0.0,3.2835898399353027,-1.6984765529632568,-0.0,2.004781723022461,5.193475323706426,0.0,0.26558512449264526,-1.1890571753131312,0.0,-0.052189573645591736,0.4086127281188965,0.0,0.0002645052154548466,1.1832234859466553,0.0,-0.003467065980657935
294.0,264.0,-0.2668,-3.673,8.7506,-0.0425,0.0182,-0.1127,-1.8737884960570277,0.0,3.268907070159912,-1.6984846591949463,-0.0,2.0253396034240723,5.193491238146581,0.0,0.2684240937232971,-1.189028565083639,0.0,-0.06677410006523132,0.4085651934146881,0.0,-0.0064574494026601315,1.1832475662231445,0.0,0.038427919149398804
294.0,264.0,-0.2668,-3.673,8.7506,-0.0425,0.0182,-0.1127,-1.8738323650755824,0.0,3.304135799407959,-1.69846510887146,-0.0,2.001925468444824,5.193499374180593,0.0,0.2628098130226135,-1.1890409628497522,0.0,-0.05634555593132973,0.40857306122779846,0.0,-0.0009585637599229813,1.1831755638122559,0.0,0.03145723417401314
293.0,266.0,-0.1777,-3.6197,8.8816,-0.0293,0.0157,-0.1127,-1.8737842045226039,0.0,3.3337562084198,-1.698448657989502,-0.0,2.0016772747039795,5.193523245840826,0.0,0.269317626953125,-1.1890409628497522,0.0,-0.042293161153793335,0.408561110496521,0.0,0.0016004993813112378,1.1832112073898315,0.0,0.007543748244643211
293.0,266.0,-0.1777,-3.6197,8.8816,-0.0293,0.0157,-0.1127,-1.8737598858275355,0.0,3.2637948989868164,-1.698472499847412,-0.0,1.9817774295806885,5.193515288620748,0.0,0.2632908821105957,-1.1890090147601526,0.0,-0.03782147914171219,0.4085651934146881,0.0,0.004721099976450205,1.1832034587860107,0.0,-0.0049366154707968235
293.0,266.0,-0.1777,-3.6197,8.8816,-0.0293,0.0157,-0.1127,-1.8737966022887171,0.0,3.2801945209503174,-1.6985008716583252,-0.0,1.9937810897827148,5.193527209549703,0.0,0.2695855498313904,-1.1890090147601526,0.0,-0.059404321014881134,0.408577024936676,0.0,0.01319538801908493,1.1831910610198975,0.0,0.012743689119815826
293.0,266.0,-0.1777,-3.6197,8.8816,-0.0293,0.0157,-0.1127,-1.8737641773619593,0.0,3.2502126693725586,-1.6984683275222778,-0.0,2.016998529434204,5.193463462382116,0.0,0.26699143648147583,-1.1890090147601526,0.0,-0.05297515541315079,0.40864044427871704,0.0,-0.006351836957037449,1.183235764503479,0.0,-0.033676255494356155
293.0,266.0,-0.1777,-3.6197,8.8816,-0.0293,0.0157,-0.1127,-1.8737241230406703,0.0,3.2418041229248047,-1.6984528303146362,-0.0,2.040839195251465,5.193543094187536,0.0,0.26466262340545654,-1.1890090147601526,0.0,-0.03865525871515274,0.408589243888855,0.0,-0.002074835356324911,1.1831673383712769,0.0,-0.011139070615172386
293.0,266.0,-0.1777,-3.6197,8.8816,-0.0293,0.0157,-0.1127,-1.8737641773619593,0.0,3.331267833709717,-1.6984405517578125,-0.0,1.9893834590911865,5.193499403982916,0.0,0.26023024320602417,-1.1890133062945765,0.0,-0.06196516007184982,0.40858927369117737,0.0,0.009687886573374271,1.1831918954849243,0.0,0.02798725850880146
293.0,266.0,-0.1777,-3.6197,8.8816,-0.0293,0.0157,-0.1127,-1.8738204441466273,0.0,3.3066868782043457,-1.698437213897705,-0.0,2.028005838394165,5.193539190083303,0.0,0.26361310482025146,-1.1890209356891077,0.0,-0.051214106380939484,0.4085571765899658,0.0,-0.002119345124810934,1.1832398176193237,0.0,0.0006346506997942924
293.0,266.0,-0.1777,-3.6197,8.8816,-0.0293,0.0157,-0.1127,-1.8738166294493617,0.0,3.2871570587158203,-1.6984931230545044,-0.0,2.0105366706848145,5.19356324055747,0.0,0.26456984877586365,-1.1890447775470179,0.0,-0.05194186419248581,0.408577024936676,0.0,0.0010193061316385865,1.1832075119018555,0.0,-0.022168084979057312
293.0,266.0,-0.1777,-3.6197,8.8816,-0.0293,0.0157,-0.1127,-1.8737474880614222,0.0,3.293534278869629,-1.6984683275222778,-0.0,1.9867329597473145,5.193523245840826,0.0,0.25411438941955566,-1.1890209356891077,0.0,-0.052136633545160294,0.40853309631347656,0.0,0.017394687980413437,1.1832194328308105,0.0,0.01822661980986595
293.0,266.0,-0.1777,-3.6197,8.8816,-0.0293,0.0157,-0.1127,-1.8738085232176722,0.0,3.2739548683166504,-1.6984610557556152,-0.0,2.01348876953125,5.193503337889471,0.0,0.26642677187919617,-1.1890290419207972,0.0,-0.04621065407991409,0.4085095524787903,0.0,-0.005686174146831036,1.1832234859466553,0.0,-0.004328226670622826
289.0,272.0,-0.2536,-3.6173,8.7368,-0.0367,0.0237,-0.1158,-1.8737560711302699,0.0,3.25541353225708,-1.6984848976135254,-0.0,1.9882639646530151,5.193479287415304,0.0,0.25967079401016235,-1.1890209356891077,0.0,-0.045554060488939285,0.4085409343242645,0.0,0.0006846368778496981,1.1831873655319214,0.0,-0.013522605411708355
289.0,272.0,-0.2536,-3.6173,8.7368,-0.0367,0.0237,-0.1158,-1.8738366566100062,0.0,3.2491226196289062,-1.69846510887146,-0.0,2.0153610706329346,5.193487453251638,0.0,0.2781297564506531,-1.1890328566180628,0.0,-0.05196533352136612,0.4085812568664551,0.0,0.0016459696926176548,1.183235764503479,0.0,-0.0009116106666624546
289.0,272.0,-0.2536,-3.6173,8.7368,-0.0367,0.0237,-0.1158,-1.8738004169859828,0.0,3.2723441123962402,-1.698472499847412,-0.0,1.988450527191162,5.193535107165136,0.0,0.2662922739982605,-1.1890409628497522,0.0,-0.05125744640827179,0.40858492255210876,0.0,0.008532173000276089,1.1832075119018555,0.0,-0.011686719954013824
289.0,272.0,-0.2536,-3.6173,8.7368,-0.0367,0.0237,-0.1158,-1.8737718067564906,0.0,3.295398235321045,-1.6984931230545044,-0.0,1.9959990978240967,5.193527239352026,0.0,0.266600638628006,-1.1890090147601526,0.0,-0.04577602446079254,0.4085770547389984,0.0,-6.81714154779911e-05,1.1832034587860107,0.0,-0.03825527802109718
289.0,272.0,-0.2536,-3.6173,8.7368,-0.0367,0.0237,-0.1158,-1.8737842045226039,0.0,3.3144607543945312,-1.6984765529632568,-0.0,2.0157485008239746,5.193483221321859,0.0,0.24495574831962585,-1.1890810171710413,0.0,-0.04730355367064476,0.40853309631347656,0.0,0.005367037374526262,1.1832398176193237,0.0,-0.011120262555778027
289.0,272.0,-0.2536,-3.6173,8.7368,-0.0367,0.0237,-0.1158,-1.8738004169859828,0.0,3.322916030883789,-1.698472499847412,-0.0,1.983260154724121,5.193527209549703,0.0,0.26889339089393616,-1.1890371481524866,0.0,-0.052186269313097,0.4085254967212677,0.0,0.010834499262273312,1.1832398176193237,0.0,0.029128944501280785
289.0,272.0,-0.2536,-3.6173,8.7368,-0.0367,0.0237,-0.1158,-1.8737842045226039,0.0,3.2742133140563965,-1.6984084844589233,-0.0,1.9860179424285889,5.193507361202993,0.0,0.2718935012817383,-1.1890209356891077,0.0,-0.06630118191242218,0.40854132175445557,0.0,-0.008077539503574371,1.1832640171051025,0.0,-0.01004383061081171
289.0,272.0,-0.2536,-3.6173,8.7368,-0.0367,0.0237,-0.1158,-1.873767992059225,0.0,3.302311897277832,-1.6984570026397705,-0.0,1.9990818500518799,5.193595009833135,0.0,0.2835024893283844,-1.1890090147601526,0.0,-0.05431858450174332,0.4085852801799774,0.0,0.0024656937457621098,1.1832075119018555,0.0,-0.05332085117697716
289.0,272.0,-0.2536,-3.6173,8.7368,-0.0367,0.0237,-0.1158,-1.8737718067564906,0.0,3.292236804962158,-1.6984889507293701,-0.0,1.9672385454177856,5.193515318423071,0.0,0.27073127031326294,-1.1890409628497522,0.0,-0.05413385108113289,0.40857699513435364,0.0,-0.011003046296536922,1.1832194328308105,0.0,0.02331121265888214
294.0,263.0,-0.2596,-3.6209,8.8241,-0.0298,0.0202,-0.1098,-1.8738004169859828,0.0,3.2997961044311523,-1.6984971761703491,-0.0,1.9736307859420776,5.1935351369674585,0.0,0.25816789269447327,-1.1890290419207972,0.0,-0.04635050147771835,0.40857696533203125,0.0,0.002695795614272356,1.1831955909729004,0.0,-0.014948034659028053
294.0,263.0,-0.2596,-3.6209,8.8241,-0.0298,0.0202,-0.1098,-1.8737966022887171,0.0,3.3122291564941406,-1.6984446048736572,-0.0,2.0408849716186523,5.193543094187536,0.0,0.2693634033203125,-1.1890128294574183,0.0,-0.05516605079174042,0.4085812568664551,0.0,-0.0006412027287296951,1.1831833124160767,0.0,0.002431214787065983
294.0,263.0,-0.2596,-3.6209,8.8241,-0.0298,0.0202,-0.1098,-1.8738047085204066,0.0,3.2698755264282227,-1.6984683275222778,-0.0,2.0260822772979736,5.193535077362814,0.0,0.25906631350517273,-1.1890409628497522,0.0,-0.03752249479293823,0.4085690975189209,0.0,-0.0045173498801887035,1.1832517385482788,0.0,-0.006462431512773037
294.0,263.0,-0.2596,-3.6209,8.8241,-0.0298,0.0202,-0.1098,-1.8737884960570277,0.0,3.284533977508545,-1.698533296585083,-0.0,2.0190744400024414,5.193507331400671,0.0,0.26151326298713684,-1.1890571753131312,0.0,-0.039853647351264954,0.4085812568664551,0.0,-0.004538797773420811,1.1832075119018555,0.0,-0.019407272338867188
294.0,263.0,-0.2596,-3.6209,8.8241,-0.0298,0.0202,-0.1098,-1.8738366566100062,0.0,3.2848832607269287,-1.6985013484954834,-0.0,1.9988819360733032,5.1935510514076135,0.0,0.2707967758178711,-1.1890252272235315,0.0,-0.04009310156106949,0.40856507420539856,0.0,-0.008385448716580868,1.1832194328308105,0.0,0.024920988827943802
294.0,263.0,-0.2596,-3.6209,8.8241,-0.0298,0.0202,-0.1098,-1.8737927875914515,0.0,3.3030104637145996,-1.698472499847412,-0.0,2.01985239982605,5.193479227810659,0.0,0.27230751514434814,-1.1890252272235315,0.0,-0.050820209085941315,0.4085211753845215,0.0,-0.005348705220967531,1.1832152605056763,0.0,0.0184565931558609
294.0,263.0,-0.2596,-3.6209,8.8241,-0.0298,0.0202,-0.1098,-1.8738123379149378,0.0,3.2867698669433594,-1.6984610557556152,-0.0,2.0406298637390137,5.193523245840826,0.0,0.26805049180984497,-1.18898851076235,0.0,-0.05771690607070923,0.4084976613521576,0.0,0.006999235600233078,1.1832275390625,0.0,0.008603704161942005
294.0,263.0,-0.2596,-3.6209,8.8241,-0.0298,0.0202,-0.1098,-1.8737637005248011,0.0,3.250779867172241,-1.69846510887146,-0.0,2.031184434890747,5.193547057896414,0.0,0.26025402545928955,-1.1890409628497522,0.0,-0.0508376844227314,0.40859317779541016,0.0,-0.001856375951319933,1.1831592321395874,0.0,0.018028516322374344
294.0,263.0,-0.2596,-3.6209,8.8241,-0.0298,0.0202,-0.1098,-1.8737884960570277,0.0,3.2790489196777344,-1.6984570026397705,-0.0,1.9948498010635376,5.193515288620748,0.0,0.2673381567001343,-1.1890490690814417,0.0,-0.06108421832323074,0.4084976613521576,0.0,0.012200606055557728,1.1832234859466553,0.0,0.03006264753639698
294.0,263.0,-0.2596,-3.6209,8.8241,-0.0298,0.0202,-0.1098,-1.8738004169859828,0.0,3.314037799835205,-1.6984806060791016,-0.0,2.021592378616333,5.193531173258581,0.0,0.2830459773540497,-1.1890133062945765,0.0,-0.04851923882961273,0.40854132175445557,0.0,-0.006823007017374039,1.1832075119018555,0.0,0.009312890470027924
295.0,266.0,-0.1454,-3.6634,8.8516,-0.0389,0.0261,-0.113,-1.873812814752096,0.0,3.3002405166625977,-1.698448657989502,-0.0,1.9921258687973022,5.193527209549703,0.0,0.2728791832923889,-1.1889923254596155,0.0,-0.06199456751346588,0.40860113501548767,0.0,0.009017101489007473,1.1831915378570557,0.0,-0.01116101536899805
295.0,266.0,-0.1454,-3.6634,8.8516,-0.0389,0.0261,-0.113,-1.8737355671324671,0.0,3.2922558784484863,-1.6984807252883911,-0.0,2.0506021976470947,5.1935510514076135,0.0,0.2714543640613556,-1.1890571753131312,0.0,-0.059446487575769424,0.40854132175445557,0.0,-0.002509990707039833,1.1832317113876343,0.0,-0.0009134025312960148
295.0,266.0,-0.1454,-3.6634,8.8516,-0.0389,0.0261,-0.113,-1.87384094814443,0.0,3.318305015563965,-1.6984528303146362,-0.0,2.0221798419952393,5.193511324911871,0.0,0.261931836605072,-1.1889923254596155,0.0,-0.054738640785217285,0.4085373282432556,0.0,-0.002880268497392535,1.183183193206787,0.0,-0.015186657197773457
295.0,266.0,-0.1454,-3.6634,8.8516,-0.0389,0.0261,-0.113,-1.873767992059225,0.0,3.2899398803710938,-1.6984931230545044,-0.0,1.9746220111846924,5.193511324911871,0.0,0.24919581413269043,-1.1890047232257288,0.0,-0.04512687399983406,0.4085571765899658,0.0,0.008244774304330349,1.1832112073898315,0.0,-0.013860944658517838
295.0,266.0,-0.1454,-3.6634,8.8516,-0.0389,0.0261,-0.113,-1.8737441502013148,0.0,3.2512693405151367,-1.6984931230545044,-0.0,2.0570685863494873,5.193523245840826,0.0,0.26127830147743225,-1.1890371481524866,0.0,-0.05090290307998657,0.4085531532764435,0.0,0.011486031115055084,1.1832315921783447,0.0,0.04522542655467987
295.0,266.0,-0.1454,-3.6634,8.8516,-0.0389,0.0261,-0.113,-1.8737641773619593,0.0,3.316051959991455,-1.6984610557556152,-0.0,2.004733085632324,5.193515288620748,0.0,0.2673240900039673,-1.1890209356891077,0.0,-0.04041024297475815,0.40850570797920227,0.0,0.00397862121462822,1.1832315921783447,0.0,-0.010610039345920086
295.0,266.0,-0.1454,-3.6634,8.8516,-0.0389,0.0261,-0.113,-1.8738328419127406,0.0,3.272021532058716,-1.6984528303146362,-0.0,1.9913222789764404,5.193519192724981,0.0,0.2557639479637146,-1.1889966169940394,0.0,-0.044803183525800705,0.40854525566101074,0.0,-0.007097587455064058,1.183235764503479,0.0,0.030439412221312523
295.0,266.0,-0.1454,-3.6634,8.8516,-0.0389,0.0261,-0.113,-1.8737884960570277,0.0,3.2803142070770264,-1.6984806060791016,-0.0,2.008297920227051,5.193491446762838,0.0,0.25779449939727783,-1.189033333455221,0.0,-0.04509330540895462,0.4085611402988434,0.0,-0.0026350286789238453,1.1832398176193237,0.0,-0.021415045484900475
295.0,266.0,-0.1454,-3.6634,8.8516,-0.0389,0.0261,-0.113,-1.8737884960570277,0.0,3.324239492416382,-1.6984971761703491,-0.0,2.0019192695617676,5.193559306650915,0.0,0.25991448760032654,-1.1890090147601526,0.0,-0.05410928279161453,0.4085248112678528,0.0,0.007970697246491909,1.1832115650177002,0.0,0.00415931548923254
289.0,259.0,-0.3033,-3.8716,8.8253,-0.0608,0.013,-0.1148,-1.8738047085204066,0.0,3.279273271560669,-1.6984970569610596,-0.0,2.0491435527801514,5.193531173258581,0.0,0.2584559917449951,-1.1890009085284632,0.0,-0.04692617431282997,0.40849369764328003,0.0,0.004507424309849739,1.1831915378570557,0.0,-0.03445303067564964
289.0,259.0,-0.3033,-3.8716,8.8253,-0.0608,0.013,-0.1148,-1.8737760982909144,1.3896662987011865e-10,3.309720516204834,-1.698400616645813,-0.0,2.018062114715576,5.1935391304786584,9.065656740858685e-07,0.2603180408477783,-1.189033333455221,0.0,-0.049719974398612976,0.408561110496521,0.0,-0.016203027218580246,1.1832435131072998,0.0,-0.00637397076934576
289.0,259.0,-0.3033,-3.8716,8.8253,-0.0608,0.013,-0.1148,-1.8737884960570277,4.502341592584292e-18,3.3006410598754883,-1.698380470275879,-0.0,2.018005609512329,5.193527209549703,1.6476382758146002e-11,0.27292129397392273,-1.1890409628497522,0.0,-0.05481783300638199,0.4085691273212433,0.0,0.005700436886399984,1.1831992864608765,0.0,-0.08286818116903305
289.0,259.0,-0.3033,-3.8716,8.8253,-0.0608,0.013,-0.1148,-1.8737479648985804,1.957033905582084e-27,3.2771520614624023,-1.6984610557556152,-0.0,1.9863520860671997,5.193547326117315,1.9551952333630158e-17,0.2620047926902771,-1.1890047232257288,0.0,-0.0652015432715416,0.4085935652256012,0.0,-0.00045737484470009804,1.1831992864608765,0.0,0.018703844398260117
289.0,259.0,-0.3033,-3.8716,8.8253,-0.0608,0.013,-0.1148,-1.8737203083434046,0.0003337457310408354,3.23307466506958,-1.698456883430481,-0.0,2.0334975719451904,5.193523245840826,2.320162037923124e-23,0.2724915146827698,-1.1890090147601526,0.0,-0.052663274109363556,0.40851321816444397,0.0,-0.005839423276484013,1.1832233667373657,0.0,0.005807248875498772
289.0,259.0,-0.3033,-3.8716,8.8253,-0.0608,0.013,-0.1148,-1.8736840687193812,0.0003395502862986177,3.2900943756103516,-1.6984610557556152,7.594963449264469e-07,2.0204882621765137,5.1935391304786584,2.7532552817163065e-29,0.26614367961883545,-1.1890690962420862,-1.6796573731880926e-07,-0.05317183956503868,0.40858951210975647,0.0,-0.018754595890641212,1.1831992864608765,0.0,-0.039723485708236694
289.0,259.0,-0.3033,-3.8716,8.8253,-0.0608,0.013,-0.1148,-1.8737160168089808,0.00037651960155926645,3.2899329662323,-1.6984570026397705,2.4606715387618e-14,2.021467685699463,5.1935632703597925,5.0039054231852585e-34,0.25358811020851135,-1.1890571753131312,-3.052694815680601e-12,-0.0605759471654892,0.40854528546333313,0.0,0.016030775383114815,1.1832275390625,0.0,0.007949596270918846
289.0,259.0,-0.3033,-3.8716,8.8253,-0.0608,0.013,-0.1148,-1.8737722835936488,0.00031857399153523147,3.289032459259033,-1.698437213897705,1.0695807659901634e-23,1.9480950832366943,5.1935510514076135,5.937960203622483e-40,0.2684839367866516,-1.1890447775470179,-3.622527064064209e-18,-0.06119142845273018,0.40856942534446716,0.0,0.0037089427933096886,1.183267593383789,0.0,0.027391038835048676
289.0,259.0,-0.3033,-3.8716,8.8253,-0.0608,0.013,-0.1148,-1.8737803898253382,0.0002460017567500472,3.27104115486145,-1.6984331607818604,4.6491495851372425e-33,2.016810894012451,5.193515288620748,1.401298464324817e-45,0.2732502222061157,-1.1890133062945765,-4.298727109046376e-24,-0.05144067853689194,0.4085812568664551,0.0,-0.001651952974498272,1.1832435131072998,0.0,-0.011624220758676529
289.0,259.0,-0.3033,-3.8716,8.8253,-0.0608,0.013,-0.1148,-1.8737803898253382,0.00020036105706822127,3.2968826293945312,-1.6984930038452148,2.0206723855563862e-42,1.9977266788482666,5.193551319628515,0.0,0.24710169434547424,-1.1890328566180628,-5.1011504583877095e-30,-0.0624123215675354,0.40854477882385254,0.0,0.0006851442158222198,1.1832275390625,0.0,-0.01298954151570797
285.0,266.0,-0.3751,-3.7113,8.8654,-0.0516,0.0121,-0.1179,-1.8737522564330042,0.00017446700076106936,3.2626280784606934,-1.6984773874282837,-0.0,1.9767791032791138,5.193491446762838,4.24309037043713e-05,0.2622373700141907,-1.1889966169940394,-9.271089506624322e-35,-0.0719446986913681,0.4085894823074341,0.0,0.0029168834444135427,1.1832315921783447,0.0,-0.022553447633981705
285.0,266.0,-0.3751,-3.7113,8.8654,-0.0516,0.0121,-0.1179,-1.873723646203512,0.00012517014693003148,3.2918667793273926,-1.6984931230545044,-0.0,1.981447696685791,5.193491416960516,3.810354246525094e-05,0.26523539423942566,-1.1889923254596155,-1.1001734373260571e-40,-0.05301237851381302,0.4085448086261749,0.0,-0.01161082461476326,1.183235764503479,0.0,-0.024844052270054817
285.0,266.0,-0.3751,-3.7113,8.8654,-0.0516,0.0121,-0.1179,-1.8737560711302699,0.0001098860302590765,3.2800240516662598,-1.6984291076660156,-0.0,2.057302951812744,5.193555342942037,3.4456472349120304e-05,0.270275354385376,-1.1890371481524866,-0.0,-0.05448434501886368,0.4085693955421448,0.0,0.001733296550810337,1.183235764503479,4.7415014705620706e-05,0.0023306291550397873
285.0,266.0,-0.3751,-3.7113,8.8654,-0.0516,0.0121,-0.1179,-1.8737884960570277,0.00010010769619839266,3.2681503295898438,-1.6984691619873047,-0.0,1.972743272781372,5.193563300162115,3.20057624776382e-05,0.26048335433006287,-1.1890085379229944,-0.0,-0.055993687361478806,0.4084891080856323,0.0,0.004249329213052988,1.1832234859466553,4.289526987122372e-05,-0.03466961160302162
285.0,266.0,-0.3751,-3.7113,8.8654,-0.0516,0.0121,-0.1179,-1.8737966022887171,9.008734195958823e-05,3.2886791229248047,-1.6984570026397705,-0.0,1.9986677169799805,5.193547117501058,2.9392558644758537e-05,0.2700956165790558,-1.1890252272235315,-0.0,-0.05101994052529335,0.4085693955421448,0.0,-0.010440577752888203,1.1832398176193237,3.832835136563517e-05,0.023370375856757164
285.0,266.0,-0.3751,-3.7113,8.8654,-0.0516,0.0121,-0.1179,-1.8737598858275355,6.553857383551076e-05,3.272643566131592,-1.6984570026397705,-0.0,2.0147180557250977,5.193563300162115,2.7173922717338428e-05,0.2612612843513489,-1.1890166441546839,-0.0,-0.053451962769031525,0.40852487087249756,0.0,0.008955804631114006,1.1832194328308105,1.755706762196496e-05,0.005774074234068394
285.0,266.0,-0.3751,-3.7113,8.8654,-0.0516,0.0121,-0.1179,-1.873796125451559,-2.6604589947964996e-05,3.307619094848633,-1.6984848976135254,-0.0,2.023969888687134,5.19356324055747,2.526671960367821e-05,0.26128891110420227,-1.1890528837787073,-0.0,-0.05021335929632187,0.4085571765899658,0.0,0.021979326382279396,1.1832275390625,3.15967554342933e-05,-0.01035518292337656
285.0,266.0,-0.3751,-3.7113,8.8654,-0.0516,0.0121,-0.1179,-1.873824258843893,-6.617385224672034e-05,3.277299165725708,-1.6984931230545044,-0.0,2.029973030090332,5.193511295109548,2.392345413682051e-05,0.26926594972610474,-1.1890047232257288,-0.0,-0.04950824752449989,0.40858954191207886,0.0,-0.0005958419060334563,1.1832635402679443,2.9526341677410528e-05,-0.023629676550626755
285.0,266.0,-0.3751,-3.7113,8.8654,-0.0516,0.0121,-0.1179,-1.8738042316832484,-7.645504229003564e-05,3.298283815383911,-1.6984206438064575,-0.0,2.000710964202881,5.193495440274038,2.2432721380027942e-05,0.25955936312675476,-1.1889761129962366,-0.0,-0.030665922909975052,0.40854892134666443,0.0,0.00730704003944993,1.1831992864608765,2.7288249839330092e-05,-0.020808136090636253
285.0,266.0,-0.3751,-3.7113,8.8654,-0.0516,0.0121,-0.1179,-1.8738285503783167,-7.046880637062714e-05,3.25961971282959,-1.6984570026397705,2.661763755895663e-05,2.0145645141601562,5.193515288620748,1.0558464964560699e-05,0.26270413398742676,-1.1890490690814417,-0.0,-0.06719683855772018,0.4084812104701996,0.0,-0.005887533072382212,1.183179259300232,2.5365565306856297e-05,-0.007570554502308369
280.0,269.0,-0.3362,-3.5629,8.4634,-0.0176,0.0235,-0.1031,-1.8737880192198695,-5.228395093581639e-05,3.249889612197876,-1.6983528137207031,0.0051374277099967,1.9802830219268799,5.193507331400671,9.973421583708841e-06,0.24994468688964844,-1.1890247503863733,-0.0,-0.04299844801425934,0.4085690975189209,0.0,-0.01847946271300316,1.183235764503479,2.369598405493889e-05,-0.009166850708425045
280.0,269.0,-0.3362,-3.5629,8.4634,-0.0176,0.0235,-0.1031,-1.8737884960570277,-3.969178214902058e-05,3.271494150161743,-1.6983128786087036,0.01206046063452959,1.982588529586792,5.193511324911871,3.5759153971248736e-10,0.26109451055526733,-1.1890447775470179,-0.0,-0.05965166538953781,0.40848132967948914,0.0,0.008267000317573547,1.1832233667373657,2.251064324809704e-05,-0.038442377001047134
280.0,269.0,-0.3362,-3.5629,8.4634,-0.0176,0.0235,-0.1031,-1.8737441502013148,-3.147079041809775e-05,3.29117488861084,-1.698120355606079,0.0123366117477417,1.9806891679763794,5.193515258818426,4.2434151018755546e-16,0.26230186223983765,-1.1890929380999964,-0.0,-0.04365751892328262,0.4085771441459656,0.0,-0.003195148427039385,1.1832554340362549,4.11376022384502e-05,-0.0007546944543719292
280.0,269.0,-0.3362,-3.5629,8.4634,-0.0176,0.0235,-0.1031,-1.8737760982909144,-4.357244520747372e-08,3.2880029678344727,-1.6979964971542358,0.011205047369003296,2.0029501914978027,5.193527209549703,5.035513475756449e-22,0.26652830839157104,-1.1890886465655726,-0.0,-0.05726175755262375,0.40859362483024597,0.0,0.0018702122615650296,1.1832112073898315,4.001693378086202e-05,0.004358734004199505
280.0,269.0,-0.3362,-3.5629,8.4634,-0.0176,0.0235,-0.1031,-1.8738404713072718,-1.4116920031900923e-15,3.284698009490967,-1.697936773300171,0.008613137528300285,2.029541015625,5.19356723406867,9.151795687854596e-27,0.2622910141944885,-1.1891048590289515,-4.947858542436734e-05,-0.052906401455402374,0.40862178802490234,0.0,0.011435026302933693,1.1832075119018555,3.2616673251162354e-11,0.009580330923199654
280.0,269.0,-0.3362,-3.5629,8.4634,-0.0176,0.0235,-0.1031,-1.873812814752096,-6.13620582722048e-25,3.2813267707824707,-1.6978322267532349,0.005251287017017603,2.010913610458374,5.193499374180593,1.0860119004810548e-32,0.261003315448761,-1.189068619404928,-9.03204622204612e-10,-0.0459870919585228,0.4086211621761322,0.0,0.0003817061660811305,1.183235764503479,1.417750088294383e-20,0.0026618754491209984
280.0,269.0,-0.3362,-3.5629,8.4634,-0.0176,0.0235,-0.1031,-1.8737803898253382,-2.667226069374541e-34,3.309356689453125,-1.6978281736373901,0.0025230380706489086,1.9913941621780396,5.193471240788259,1.2887327192049902e-38,0.25545257329940796,-1.1890443007098597,-1.0718016101377015e-15,-0.04833370819687843,0.4085329473018646,0.0,0.0013750605285167694,1.1832475662231445,6.162538350061553e-30,0.008049190044403076
280.0,269.0,-0.3362,-3.5629,8.4634,-0.0176,0.0235,-0.1031,-1.8738366566100062,-1.1630777253895982e-43,3.2829749584198,-1.6978890895843506,0.000976700452156365,1.9931262731552124,5.193511414318838,1.5414283107572988e-44,0.2642997205257416,-1.1890524069415491,-1.271869961415016e-21,-0.048905666917562485,0.40854117274284363,0.0,0.002836578758433461,1.1832356452941895,2.678673098957069e-39,0.00622753519564867
280.0,269.0,-0.3362,-3.5629,8.4634,-0.0176,0.0235,-0.1031,-1.87384094814443,0.0,3.292980432510376,-1.6978611946105957,0.0006026668706908822,2.033797264099121,5.193487274437704,-0.0005261492333374918,0.26220831274986267,-1.1890886465655726,-2.3115609001190343e-26,-0.045233093202114105,0.40854090452194214,0.0,-0.004775166045874357,1.1832398176193237,1.5772971892147325e-05,0.013778261840343475
287.0,255.0,-0.3027,-3.7358,8.921,-0.0496,-0.0008,-0.1219,-1.873796125451559,0.0,3.2330288887023926,-1.6978809833526611,0.00040763503056950867,1.9483106136322021,5.193435209780493,-0.0004699294513557106,0.2666420340538025,-1.1890643278705042,-2.7430495692328063e-32,-0.05481426417827606,0.40858542919158936,0.0,0.0036376125644892454,1.1831871271133423,-4.25249854743015e-05,0.018468644469976425
287.0,255.0,-0.3027,-3.7358,8.921,-0.0496,-0.0008,-0.1219,-1.8738042316832484,0.0,3.307579278945923,-1.6978570222854614,0.00030798427178524435,2.0188562870025635,5.193435269385137,-0.0005846754647791386,0.2537725269794464,-1.1890247503863733,-5.474252247950062e-05,-0.056513573974370956,0.40858542919158936,0.0,0.008333567529916763,1.1831673383712769,-0.0012058151187375188,0.05435752868652344
287.0,255.0,-0.3027,-3.7358,8.921,-0.0496,-0.0008,-0.1219,-1.8738404713072718,0.0,3.3190407752990723,-1.6978404521942139,0.00024748663417994976,1.9959264993667603,5.1933836219604395,-0.0010563249234110117,0.25636422634124756,-1.1890605131732386,-5.081135532236658e-05,-0.04537313058972359,0.4085448384284973,0.0,0.0015051835216581821,1.1831276416778564,-0.0018649172270670533,-0.013270537368953228
287.0,255.0,-0.3027,-3.7358,8.921,-0.0496,-0.0008,-0.1219,-1.8738681278624476,0.0,3.2759854793548584,-1.6978768110275269,6.538491288665682e-05,1.9920365810394287,5.193423765688696,-0.0008959245169535279,0.266889750957489,-1.189028565083639,-2.283141657244414e-05,-0.06707775592803955,0.40860143303871155,0.0,-0.0036088950000703335,1.1831676959991455,-0.0027248801197856665,-0.008060270920395851
287.0,255.0,-0.3027,-3.7358,8.921,-0.0496,-0.0008,-0.1219,-1.8739048443236292,-0.0004907165421172976,3.2983694076538086,-1.6977888345718384,2.7652693461277522e-05,2.0115137100219727,5.193347531348028,-0.0006632228032685816,0.25790104269981384,-1.1890090147601526,-1.7785021100280574e-07,-0.05543885752558708,0.4085530638694763,0.0,0.01499037817120552,1.1831039190292358,-0.0023822763469070196,-0.01654951274394989
287.0,255.0,-0.3027,-3.7358,8.921,-0.0496,-0.0008,-0.1219,-1.8738600216307582,-0.0006301176617853343,3.2595605850219727,-1.6978083848953247,2.395856790826656e-05,2.039609432220459,5.19334368684844,-0.0005768919363617897,0.26451027393341064,-1.1890090147601526,-2.110486671492648e-13,-0.054968804121017456,0.4085977375507355,0.0,0.007832184433937073,1.1830514669418335,-0.002465704455971718,0.010486830025911331
287.0,255.0,-0.3027,-3.7358,8.921,-0.0496,-0.0008,-0.1219,-1.873819490472311,-0.00044399514445103705,3.310012102127075,-1.6978487968444824,4.228847683407366e-05,2.0375113487243652,5.193335759430685,-0.0005029770545661449,0.27078497409820557,-1.1890371481524866,-2.5044418159297308e-19,-0.044128600507974625,0.408573180437088,0.0,0.007007843814790249,1.183014988899231,-0.0019411314278841019,0.04168371111154556
287.0,255.0,-0.3027,-3.7358,8.921,-0.0496,-0.0008,-0.1219,-1.8739086590208949,-0.0003183230583090335,3.3028109073638916,-1.6978249549865723,5.7982477301266044e-05,2.0292491912841797,5.19334768035964,-0.0004570152086671442,0.2515403926372528,-1.1889289061175745,-4.551699418563103e-24,-0.04348263889551163,0.40858128666877747,0.0,0.004780096467584372,1.1830719709396362,-0.0010772194946184754,0.01509646512567997
287.0,255.0,-0.3027,-3.7358,8.921,-0.0496,-0.0008,-0.1219,-1.8738681278624476,-0.0002802409289870411,3.2846131324768066,-1.6977970600128174,0.00010055938764708117,1.9587323665618896,5.193335759430685,-0.0004297535924706608,0.2723269462585449,-1.18898851076235,-5.401343503723302e-30,-0.04265855997800827,0.408532977104187,0.0,0.020808929577469826,1.1830354928970337,-0.0005805338732898235,-0.026589110493659973
287.0,255.0,-0.3027,-3.7358,8.921,-0.0496,-0.0008,-0.1219,-1.8739282093443812,-0.0002594844554550946,3.2304654121398926,-1.6977887153625488,0.0009974122513085604,1.9926526546478271,5.193307626038351,-0.0005332742002792656,0.2536596655845642,-1.1889727751361292,-6.40958814279525e-36,-0.041934408247470856,0.40857717394828796,0.0,-0.0029612635262310505,1.183031439781189,-0.0001346108183497563,-0.02804124727845192
287.0,269.0,-0.2644,-3.7998,8.8762,-0.0596,0.0086,-0.1023,-1.873904367486471,-0.00028802079032175243,3.220069408416748,-1.697772741317749,0.0015276416670531034,1.9860641956329346,5.193283724575796,-0.0012904597679153085,0.25500041246414185,-1.188948933278219,0.0002299186453456059,-0.03870021551847458,0.4085448384284973,0.0,0.014921538531780243,1.1830756664276123,-0.00010357920837122947,-0.009299050085246563
287.0,269.0,-0.2644,-3.7998,8.8762,-0.0596,0.0086,-0.1023,-1.8739000759520472,-0.0027718429919332266,3.192823886871338,-1.6977648735046387,0.0011106488527730107,2.00831937789917,5.193275946169653,-0.0018602261552587152,0.25069504976272583,-1.1889532248126429,0.000220030706259422,-0.036369938403367996,0.4085448682308197,0.0,0.010935190133750439,1.1830395460128784,-0.00012065149348927662,-0.08350224792957306
287.0,269.0,-0.2644,-3.7998,8.8762,-0.0596,0.0086,-0.1023,-1.8739968738951625,-0.004473942331969738,3.2314209938049316,-1.6977927684783936,0.0009319038945250213,1.991139531135559,5.193259674101629,-0.0027701465878635645,0.25505441427230835,-1.188948933278219,0.00021324607951100916,-0.024719370529055595,0.40857717394828796,0.0,0.01633622497320175,1.1830596923828125,-9.861647413345054e-05,-0.020007379353046417
287.0,269.0,-0.2644,-3.7998,8.8762,-0.0596,0.0086,-0.1023,-1.8739963970580042,-0.004178448114544153,3.2202343940734863,-1.697801113128662,0.0010219672694802284,1.971475601196289,5.193200129061498,-0.005955078639090061,0.23944014310836792,-1.1889689604388636,0.0002084344596369192,-0.03364239260554314,0.4085690677165985,0.0,0.011435151100158691,1.1830719709396362,-8.338750922121108e-05,-0.09067294746637344
287.0,269.0,-0.2644,-3.7998,8.8762,-0.0596,0.0086,-0.1023,-1.8740445576109828,-0.0027887364849448204,3.191214084625244,-1.6977369785308838,0.0011461499379947782,1.9791576862335205,5.1931800720985315,-0.006181254051625729,0.22907745838165283,-1.188965145741598,0.00021283938258420676,-0.02681889943778515,0.40854892134666443,0.0,0.008867708966135979,1.183067798614502,-7.421865302603692e-05,-0.055446967482566833
287.0,269.0,-0.2644,-3.7998,8.8762,-0.0596,0.0086,-0.1023,-1.8740679226317347,-0.0016306358156725764,3.181340456008911,-1.6977171897888184,0.0012049804208800197,2.0404775142669678,5.193164336472311,-0.0026411095168441534,0.24168328940868378,-1.1889327208148401,0.0001721331209409982,-0.016490954905748367,0.40859317779541016,0.0,0.02382032945752144,1.1830518245697021,2.6135532607440837e-05,-0.08577138185501099
287.0,269.0,-0.2644,-3.7998,8.8762,-0.0596,0.0086,-0.1023,-1.8741079769530238,-0.0014926885487511754,3.115518569946289,-1.6977295875549316,0.00206322455778718,2.011012554168701,5.19308819153861,-0.0010049851844087243,0.2338690161705017,-1.1889126936541956,0.00017339141049887985,-0.024260887876152992,0.40855711698532104,0.0,0.021570511162281036,1.1830273866653442,5.769384414655576e-10,-0.13432517647743225
287.0,269.0,-0.2644,-3.7998,8.8762,-0.0596,0.0086,-0.1023,-1.8740679226317347,-0.0010553657775744796,3.175154209136963,-1.697684645652771,0.0028504575602710247,1.9640223979949951,5.193140285998144,-0.0005914664943702519,0.23096820712089539,-1.188948933278219,0.0001494033058406785,-0.02312093786895275,0.4085935950279236,0.0,0.015409690327942371,1.1830674409866333,2.507780006689265e-19,-0.04752935841679573
287.0,269.0,-0.2644,-3.7998,8.8762,-0.0596,0.0086,-0.1023,-1.874068399468893,-0.0007890959968790412,3.162210702896118,-1.697689175605774,0.003633280750364065,1.9999583959579468,5.193124103337087,-0.00038953745388425887,0.2315201461315155,-1.188965145741598,0.00013451572158373892,-0.035506293177604675,0.40859663486480713,0.0,0.02311389148235321,1.183127999305725,8.124889841507322e-27,-0.033861950039863586
287.0,269.0,-0.2644,-3.7998,8.8762,-0.0596,0.0086,-0.1023,-1.8740798435606898,-0.0004964338731952012,3.1803321838378906,-1.6976042985916138,0.004366953391581774,1.9929975271224976,5.193140315800466,-0.0002974794479086995,0.23927929997444153,-1.188965145741598,0.00011961679410887882,-0.024946101009845734,0.4086209237575531,0.0,0.028430290520191193,1.183079719543457,3.5316487991257495e-36,-0.07259371131658554
289.0,264.0,-0.1579,-3.6975,8.936,-0.0556,0.0257,-0.1156,-1.8741198978819789,-0.0007413688581436872,3.143592596054077,-1.6975767612457275,0.004996484611183405,2.0054898262023926,5.193176197796621,-0.0002406502899248153,0.24334560334682465,-1.1889727751361292,0.00010768904030555859,-0.029805976897478104,0.40863314270973206,0.0,0.02017837017774582,1.183135747909546,0.00013674658839590847,-0.04633486270904541
289.0,264.0,-0.1579,-3.6975,8.936,-0.0556,0.0257,-0.1156,-1.8740917644896449,-0.0008705784566700459,3.1769285202026367,-1.6975369453430176,0.005464068613946438,1.9810540676116943,5.193172174483099,-0.00020874988695140928,0.22848033905029297,-1.1889408270465296,9.973321721190587e-05,-0.024058274924755096,0.40860486030578613,0.0,0.029565908014774323,1.1831239461898804,0.00010659298277460039,-0.026496589183807373
289.0,264.0,-0.1579,-3.6975,8.936,-0.0556,0.0257,-0.1156,-1.8741284809508265,-0.0006428197957575321,3.187617778778076,-1.697460412979126,0.005542921368032694,1.9700005054473877,5.193140315800466,-5.42826164746657e-05,0.2430797964334488,-1.18898851076235,9.130169928539544e-05,-0.027762431651353836,0.4085891544818878,0.0,0.03137435019016266,1.1830919981002808,8.22397050797008e-05,-0.04086041823029518
289.0,264.0,-0.1579,-3.6975,8.936,-0.0556,0.0257,-0.1156,-1.8740798435606898,-0.00044439503108151257,3.1608431339263916,-1.6974451541900635,0.007197888568043709,2.064234495162964,5.193148273020544,-2.395006231381558e-05,0.2405225783586502,-1.1889246145831507,8.418478682870045e-05,-0.0409226268529892,0.4086008071899414,0.0,0.04276785999536514,1.1830559968948364,3.3473061193944886e-05,-0.04960150271654129
289.0,264.0,-0.1579,-3.6975,8.936,-0.0556,0.0257,-0.1156,-1.8740560017027796,-0.00033958369749598205,3.214657783508301,-1.6973038911819458,0.008804976008832455,2.0081238746643066,5.193120080023565,-2.096821050123765e-10,0.2468516230583191,-1.1889928022967737,7.809724047547206e-05,-0.03231743723154068,0.4086289703845978,0.0,0.021540101617574692,1.1830596923828125,2.8224047127878293e-05,-0.02173285186290741
289.0,264.0,-0.1579,-3.6975,8.936,-0.0556,0.0257,-0.1156,-1.8741079769530238,-0.0002856838400475681,3.2124085426330566,-1.6972568035125732,0.009345815517008305,1.983978033065796,5.193188088923254,-3.810868568816404e-15,0.23944096267223358,-1.1890295187579554,7.382638432318345e-05,-0.03534173592925072,0.4085894823074341,0.0,0.03631238639354706,1.183071494102478,2.5078214093809947e-05,-0.04980674386024475
289.0,264.0,-0.1579,-3.6975,8.936,-0.0556,0.0257,-0.1156,-1.8740836582579554,-0.00023838813649490476,3.1788268089294434,-1.6972250938415527,0.009759786538779736,2.0196900367736816,5.193212377816,-4.522226297189379e-21,0.24828627705574036,-1.1890128294574183,6.910272350069135e-05,-0.05000121518969536,0.40862900018692017,0.0,0.04462851211428642,1.1830477714538574,2.2011474356986582e-05,-0.06861711293458939
289.0,264.0,-0.1579,-3.6975,8.936,-0.0556,0.0257,-0.1156,-1.874092241326803,-0.0002045281435130164,3.2310218811035156,-1.6970727443695068,0.01113759446889162,2.0298585891723633,5.193144160300054,-5.3663684413958286e-27,0.2646649181842804,-1.1889727751361292,5.412266909843311e-05,-0.04071585088968277,0.40864115953445435,0.0,0.01871674135327339,1.183031439781189,6.961186726876789e-13,-0.02075823023915291
289.0,264.0,-0.1579,-3.6975,8.936,-0.0556,0.0257,-0.1156,-1.8741041622557582,-0.00017909114831127226,3.2209367752075195,-1.6969609260559082,0.012853124178946018,2.0345652103424072,5.193152236729421,-6.36808342321032e-33,0.25033968687057495,-1.189021412526266,5.105255695525557e-05,-0.044380396604537964,0.40852078795433044,0.0,0.02805863693356514,1.1831239461898804,3.0258210261640066e-22,-0.006270693149417639
278.0,253.0,-0.2166,-3.5258,9.0174,-0.0421,0.0478,-0.1202,-1.8741036854186,-0.00016288482584059238,3.210252046585083,-1.6968128681182861,0.015525142662227154,2.007054567337036,5.193168151169576,-1.1573676023032903e-37,0.2647145986557007,-1.189021412526266,8.282655699076713e-07,-0.043562568724155426,0.408573180437088,0.0,0.016717439517378807,1.1830477714538574,9.803276068004611e-30,-0.014080596156418324
278.0,253.0,-0.2166,-3.5258,9.0174,-0.0421,0.0478,-0.1202,-1.8740998707213343,-0.0001463325461372733,3.1936094760894775,-1.696628451347351,0.021006779745221138,2.0626630783081055,5.193160223751821,-1.3732724950383207e-43,0.25115662813186646,-1.18898851076235,9.828741553280507e-13,-0.04936720430850983,0.40863314270973206,0.0,0.02174389734864235,1.1831037998199463,4.2611930858822287e-39,-0.03131256252527237
278.0,253.0,-0.2166,-3.5258,9.0174,-0.0421,0.0478,-0.1202,-1.8741198978819789,-0.0001044782911776565,3.210111618041992,-1.6964082717895508,0.026593750342726707,2.1076951026916504,5.193168300181188,-0.0,0.2601957321166992,-1.1889727751361292,1.1663427582756686e-18,-0.05085092410445213,0.4086088538169861,0.0,0.012419238686561584,1.1831239461898804,0.0,0.0021778345108032227
278.0,253.0,-0.2166,-3.5258,9.0174,-0.0421,0.0478,-0.1202,-1.8741480312743128,-0.0001323104224866256,3.223827838897705,-1.6961767673492432,0.030711285769939423,2.0312464237213135,5.193148392229833,-6.610548007301986e-05,0.25195178389549255,-1.1889608542071741,2.11977069984127e-23,-0.049966663122177124,0.408637136220932,2.5624640329624526e-05,0.03023049235343933,1.1830596923828125,0.0,-1.6160309314727783e-05
278.0,253.0,-0.2166,-3.5258,9.0174,-0.0421,0.0478,-0.1202,-1.8741642437376917,-0.0031322294380515814,3.2309131622314453,-1.6957842111587524,0.037713196128606796,2.1145806312561035,5.193156230240621,-0.00011227427603444085,0.23909610509872437,-1.188977066670553,2.5154580031438302e-29,-0.057928189635276794,0.40862125158309937,2.4296694391523488e-05,0.033226512372493744,1.183071494102478,0.0,-0.028604451566934586
278.0,253.0,-0.2166,-3.5258,9.0174,-0.0421,0.0478,-0.1202,-1.874183794061178,-0.003451573895290494,3.1692605018615723,-1.6954318284988403,0.04405283182859421,2.0428061485290527,5.193184274225988,-9.715204214444384e-05,0.2432960718870163,-1.1889570395099085,2.985006904808997e-35,-0.03278522565960884,0.408573180437088,2.2760563297197223e-05,0.02905202843248844,1.1830191612243652,0.0,-0.045135267078876495
278.0,253.0,-0.2166,-3.5258,9.0174,-0.0421,0.0478,-0.1202,-1.874240060845846,-0.0027337144128978252,3.1735172271728516,-1.6948964595794678,0.05377965047955513,2.042753219604492,5.19311215260581,-8.560105925425887e-05,0.24142783880233765,-1.188948933278219,3.5422022581202726e-41,-0.03647304326295853,0.4085812270641327,3.2098687370307744e-05,0.027647007256746292,1.1830437183380127,0.0,-0.03096984140574932
278.0,253.0,-0.2166,-3.5258,9.0174,-0.0421,0.0478,-0.1202,-1.8742605648436488,-0.0023877443745732307,3.200080394744873,-1.694472312927246,0.06294368207454681,2.0660386085510254,5.193160223751821,-7.816624565748498e-05,0.24537025392055511,-1.1889565626727503,0.0,-0.02951214089989662,0.40855687856674194,3.0652518034912646e-05,0.027730999514460564,1.183067798614502,0.0,-0.06917902827262878
278.0,253.0,-0.2166,-3.5258,9.0174,-0.0421,0.0478,-0.1202,-1.8742758236327113,-0.00348948803730309,3.1776371002197266,-1.6938127279281616,0.07843029499053955,2.0918633937835693,5.193120080023565,-8.813609019853175e-05,0.2471667379140854,-1.1889727751361292,0.0,-0.030236370861530304,0.4086248576641083,3.2469529287482146e-08,0.04130588099360466,1.183067798614502,0.0,-0.11780299246311188
278.0,253.0,-0.2166,-3.5258,9.0174,-0.0421,0.0478,-0.1202,-1.874319692651266,-0.00513062160462141,3.159238338470459,-1.6929279565811157,0.0904955118894577,2.123112201690674,5.193160193949499,-0.00015986349899321795,0.24581386148929596,-1.1889894644366663,0.0,-0.016543064266443253,0.4086330831050873,3.853046150908458e-14,0.025480646640062332,1.183031439781189,-0.0006027338095009327,-0.10487827658653259
274.0,247.0,-0.2961,-3.673,8.9438,-0.0777,0.0938,-0.0977,-1.8743921718993128,-0.005872300826013088,3.1243209838867188,-1.6920006275177002,0.09237302839756012,2.0783939361572266,5.1930763302143,-0.0007662384305149317,0.23792403936386108,-1.1889570395099085,0.0,-0.010556735098361969,0.4086167812347412,4.572276378803806e-20,0.03273091837763786,1.182995319366455,-0.0017045763088390231,-0.191975399851799
274.0,247.0,-0.2961,-3.673,8.9438,-0.0777,0.0938,-0.0977,-1.8744236431517542,-0.004550499841570854,3.1299726963043213,-1.6911674737930298,0.0915730819106102,2.0677924156188965,5.193116384535589,-0.0010021376656368375,0.23986178636550903,-1.1889289061175745,6.326231414277572e-06,-0.019413679838180542,0.40860480070114136,8.30988739965369e-25,0.041572749614715576,1.183027744293213,-0.0017919865204021335,-0.18879462778568268
274.0,247.0,-0.2961,-3.673,8.9438,-0.0777,0.0938,-0.0977,-1.8744036159911097,-0.001970794051885605,3.133791923522949,-1.690239667892456,0.09477327018976212,2.0774660110473633,5.193064528494634,-0.0031782728619873524,0.2259383350610733,-1.188937012349264,7.50712079305993e-12,-0.009034356102347374,0.40857717394828796,9.861053778257132e-31,0.03053557313978672,1.1829798221588135,-0.002665599575266242,-0.21234989166259766
274.0,247.0,-0.2961,-3.673,8.9438,-0.0777,0.0938,-0.0977,-1.8744522533812464,-0.0012878782581537962,3.146012306213379,-1.6892554759979248,0.10177965462207794,2.0838539600372314,5.193020391255178,-0.005669623147696257,0.22819682955741882,-1.1889126936541956,8.908441548078652e-18,-0.0027943477034568787,0.40859660506248474,1.1701769500383974e-36,0.03231588006019592,1.1829838752746582,-0.0023852898739278316,-0.16988027095794678
274.0,247.0,-0.2961,-3.673,8.9438,-0.0777,0.0938,-0.0977,-1.8744555912413539,-0.0024685838725417852,3.080252170562744,-1.6884198188781738,0.10678721219301224,2.051255941390991,5.192996668606558,-0.005568893626332283,0.21714048087596893,-1.1889169851886194,1.6190653162870602e-22,0.013539120554924011,0.4086289703845978,2.1267506793057749e-41,0.03896560147404671,1.1829640865325928,-0.002044536406174302,-0.19542589783668518
274.0,247.0,-0.2961,-3.673,8.9438,-0.0777,0.0938,-0.0977,-1.8745280704894007,-0.005671089049428701,3.124337911605835,-1.6872717142105103,0.11303193867206573,2.115875720977783,5.192924755602636,-0.0045981863513588905,0.23212087154388428,-1.1889327208148401,1.9212889347037487e-28,-0.014733169227838516,0.40859732031822205,0.0,0.040594667196273804,1.1829562187194824,-0.0018649460980668664,-0.18905940651893616
274.0,247.0,-0.2961,-3.673,8.9438,-0.0777,0.0938,-0.0977,-1.8745719395079554,-0.007528277114033699,3.0872504711151123,-1.686195969581604,0.10984135419130325,2.0897412300109863,5.19285677650527,-0.0034834551624953747,0.22124241292476654,-1.1889451185809534,2.279927313072483e-34,-0.0058802529238164425,0.40862488746643066,0.0,0.040569908916950226,1.1829644441604614,-0.0018648406257852912,-0.2125309407711029
274.0,247.0,-0.2961,-3.673,8.9438,-0.0777,0.0938,-0.0977,-1.8746515713133753,-0.006607897114008665,3.0707855224609375,-1.6850156784057617,0.11090463399887085,2.124037027359009,5.192853230028906,-0.003010603366419673,0.23184287548065186,-1.1889413038836878,2.705514971041211e-40,-0.007923442870378494,0.40859726071357727,0.0,0.02404787763953209,1.182880163192749,-0.0018690774450078607,-0.19656407833099365
274.0,247.0,-0.2961,-3.673,8.9438,-0.0777,0.0938,-0.0977,-1.8746472797789515,-0.0056577459909021854,3.0935561656951904,-1.6841633319854736,0.10925348848104477,2.072418212890625,5.192820805102148,-0.004345526918768883,0.21706923842430115,-1.1889131704913538,5.605193857299268e-45,-0.005550255998969078,0.4086167812347412,0.0,0.03325367718935013,1.1829617023468018,-0.0015942018944770098,-0.20532655715942383
245.0,255.0,-0.9589,-3.9033,8.3366,-0.0522,0.0757,-0.1028,-1.8747722111144007,-0.007038759533315897,3.090259552001953,-1.6830509901046753,0.11231891065835953,2.1224875450134277,5.19273333528594,-0.008515248075127602,0.22462819516658783,-1.1889327208148401,9.506304922979325e-05,0.015226142480969429,0.4086088240146637,0.0,0.034025829285383224,1.1828961372375488,-0.0008689965470694005,-0.15601514279842377
245.0,255.0,-0.9589,-3.9033,8.3366,-0.0522,0.0757,-0.1028,-1.8748837910094203,-0.012068206444382668,3.0943946838378906,-1.681968092918396,0.1090334802865982,2.129103422164917,5.192653941899099,-0.017100520431995392,0.1963692307472229,-1.188896958027975,8.308433461934328e-05,-0.0011903829872608185,0.4086289703845978,0.0,0.0381675660610199,1.1829124689102173,-0.0005861353129148483,-0.19814719259738922
245.0,255.0,-0.9589,-3.9033,8.3366,-0.0522,0.0757,-0.1028,-1.8749877415099085,-0.01716271974146366,3.0784478187561035,-1.6807914972305298,0.10475493222475052,2.1311464309692383,5.192425983935156,-0.030298853293061256,0.20190858840942383,-1.188965145741598,7.56604058551602e-05,-0.005965584423393011,0.4086013734340668,0.0,0.023500952869653702,1.182880163192749,-0.0005681211478076875,-0.18289580941200256
245.0,255.0,-0.9589,-3.9033,8.3366,-0.0522,0.0757,-0.1028,-1.8751355610289515,-0.015501678921282291,3.0641427040100098,-1.68004310131073,0.10497181862592697,2.1048049926757812,5.192126142769613,-0.04557676985859871,0.19891667366027832,-1.1889608542071741,5.66099479328841e-05,-0.014487015083432198,0.4086289405822754,0.0,0.03891465440392494,1.1828281879425049,-0.0006053770193830132,-0.18918970227241516
245.0,255.0,-0.9589,-3.9033,8.3366,-0.0522,0.0757,-0.1028,-1.8753401241698207,-0.015293045900762081,3.0520660877227783,-1.678934931755066,0.10292273014783859,2.114142656326294,5.191466617375173,-0.08044838905334473,0.17882388830184937,-1.1889327208148401,4.306182381696999e-05,-0.009661556221544743,0.4086490869522095,0.0,0.030505254864692688,1.1828882694244385,-0.0009035860421136022,-0.21393713355064392
245.0,255.0,-0.9589,-3.9033,8.3366,-0.0522,0.0757,-0.1028,-1.8754669628539027,-0.019643515348434448,3.0622668266296387,-1.6779152154922485,0.10382155328989029,2.0753731727600098,5.19054530838088,-0.10441364347934723,0.1767527461051941,-1.1889613310443323,3.474722689134069e-05,-0.0066911582835018635,0.4086168110370636,0.0,0.02778846025466919,1.1828842163085938,-0.0007309482898563147,-0.2130722999572754
245.0,255.0,-0.9589,-3.9033,8.3366,-0.0522,0.0757,-0.1028,-1.8756634197630824,-0.024537518620491028,3.0316781997680664,-1.677123785018921,0.10265056043863297,2.120706796646118,5.1897164461906335,-0.09677743166685104,0.16997705399990082,-1.1889413038836878,3.009837746503763e-05,-0.0016629372257739305,0.40857717394828796,0.0,0.023341231048107147,1.182803988456726,-0.0011044525308534503,-0.24330788850784302
245.0,255.0,-0.9589,-3.9033,8.3366,-0.0522,0.0757,-0.1028,-1.8759590588011683,-0.03337319567799568,3.0722579956054688,-1.6761394739151,0.0950087159872055,2.073166608810425,5.188845830946722,-0.09692154079675674,0.18142980337142944,-1.18890887895693,2.5786124751903117e-05,-0.011610149405896664,0.4085891842842102,0.0,0.012727179564535618,1.182812213897705,-0.0022017203737050295,-0.21518652141094208
245.0,255.0,-0.9589,-3.9033,8.3366,-0.0522,0.0757,-0.1028,-1.8762875996031703,-0.03906819224357605,3.0327329635620117,-1.6751551628112793,0.09690424799919128,2.093445301055908,5.1876882193382166,-0.13327334821224213,0.16399666666984558,-1.1889413038836878,2.2554802853846923e-05,-0.009957235306501389,0.4086654782295227,0.0,0.038644060492515564,1.18280029296875,-0.0026848032139241695,-0.27617159485816956
245.0,255.0,-0.9589,-3.9033,8.3366,-0.0522,0.0757,-0.1028,-1.8766666851439417,-0.04589642584323883,3.07059907913208,-1.6742197275161743,0.10095713287591934,2.1002233028411865,5.186280596047201,-0.12987300753593445,0.16380879282951355,-1.188948933278219,2.0043184122187085e-05,-0.009464945644140244,0.4085690975189209,0.0,0.019744817167520523,1.1828203201293945,-0.0031791934743523598,-0.2162190079689026
245.0,236.0,-1.544,-3.8189,8.013,0.0292,-0.0971,-0.1814,-1.8771187267699183,-0.05568591132760048,3.0273373126983643,-1.673343300819397,0.10472286492586136,2.097792387008667,5.185291427164831,-0.12425420433282852,0.16261151432991028,-1.1888850370990198,1.8403712601866573e-05,-0.013246039859950542,0.40857717394828796,0.0,0.019408760592341423,1.1827365159988403,-0.0023927909787744284,-0.21565449237823486
245.0,236.0,-1.544,-3.8189,8.013,0.0292,-0.0971,-0.1814,-1.877697607079977,-0.06804756075143814,2.9992220401763916,-1.6722391843795776,0.10904548317193985,2.1138293743133545,5.1837830124195,-0.15611422061920166,0.14619509875774384,-1.1889126936541956,1.6696580132702366e-05,0.0018056943081319332,0.4085891842842102,0.0,0.021926816552877426,1.1827164888381958,-0.003575422102585435,-0.21279004216194153
245.0,236.0,-1.544,-3.8189,8.013,0.0292,-0.0971,-0.1814,-1.878458162347311,-0.07586028426885605,2.9996023178100586,-1.6712393760681152,0.10408095270395279,2.068047285079956,5.182189094811239,-0.16307079792022705,0.1563548743724823,-1.1889613310443323,1.5279259969247505e-05,-0.01136594545096159,0.4085935652256012,0.0,0.02820573002099991,1.18269681930542,-0.005659610498696566,-0.24714648723602295
245.0,236.0,-1.544,-3.8189,8.013,0.0292,-0.0971,-0.1814,-1.8792253933348597,-0.06854528188705444,3.0465762615203857,-1.6701672077178955,0.0998934656381607,2.1000828742980957,5.180340695172109,-0.20444954931735992,0.14341984689235687,-1.1889570395099085,1.4083761925576255e-05,0.0031206298153847456,0.40860140323638916,0.0,0.002794770523905754,1.1825884580612183,-0.006111770402640104,-0.2398880422115326
245.0,236.0,-1.544,-3.8189,8.013,0.0292,-0.0971,-0.1814,-1.8797852001585902,-0.06449015438556671,3.0162386894226074,-1.6694873571395874,0.09921271353960037,2.081049919128418,5.178664523154058,-0.20632779598236084,0.1360851526260376,-1.1889169851886194,1.3254112673166674e-05,-0.014835765585303307,0.4085608422756195,0.0,0.03450482338666916,1.1825363636016846,-0.006188021507114172,-0.253604531288147
245.0,236.0,-1.544,-3.8189,8.013,0.0292,-0.0971,-0.1814,-1.880568643609518,-0.07266592979431152,3.0203962326049805,-1.6684587001800537,0.0934373289346695,2.1008670330047607,5.176393198757925,-0.2332196682691574,0.12257436662912369,-1.1889570395099085,1.234510273206979e-05,-0.01700320839881897,0.40858542919158936,0.0,0.031740136444568634,1.1825166940689087,-0.004801417700946331,-0.2012753188610077
245.0,236.0,-1.544,-3.8189,8.013,0.0292,-0.0971,-0.1814,-1.8812605343260707,-0.07823800295591354,3.044379711151123,-1.6675230264663696,0.09408554434776306,2.0589537620544434,5.174139010697164,-0.2518633008003235,0.10416127741336823,-1.1889050642596644,1.1552775504242163e-05,-0.01827678456902504,0.4086170792579651,0.0,0.0145674217492342,1.1824846267700195,-0.005321471951901913,-0.2260107696056366
245.0,236.0,-1.544,-3.8189,8.013,0.0292,-0.0971,-0.1814,-1.881847997704977,-0.0769268348813057,3.0353527069091797,-1.6667511463165283,0.09361910820007324,2.0900726318359375,5.171942996769705,-0.2654523551464081,0.11289136111736298,-1.18890887895693,1.0988555004587397e-05,-0.005318238399922848,0.4086412489414215,0.0,0.019571851938962936,1.1824215650558472,-0.007253086194396019,-0.26176658272743225
245.0,236.0,-1.544,-3.8189,8.013,0.0292,-0.0971,-0.1814,-1.8825918636717738,-0.07542257010936737,3.024102210998535,-1.6658354997634888,0.09035512804985046,2.0572776794433594,5.169282126217642,-0.275407075881958,0.10089580714702606,-1.1889413038836878,1.035633249557577e-05,-0.018754631280899048,0.4086247980594635,0.0,0.025826245546340942,1.1823973655700684,-0.007363555487245321,-0.21081887185573578
245.0,236.0,-1.544,-3.8189,8.013,0.0292,-0.0971,-0.1814,-1.8833395443358363,-0.07821982353925705,3.073694944381714,-1.66487455368042,0.08748768270015717,2.0652003288269043,5.166556286602773,-0.2777557373046875,0.11339624226093292,-1.188937012349264,1.660951340909378e-07,-0.01274639368057251,0.4085732102394104,0.0,0.0059557221829891205,1.1823257207870483,-0.006282560992985964,-0.21924804151058197
243.0,241.0,-0.1759,-3.6975,9.4493,0.0406,-0.2059,-0.2286,-1.8841625652708949,-0.08624056726694107,3.061448097229004,-1.664151906967163,0.08758046478033066,2.089437484741211,5.1638232348258875,-0.2690589725971222,0.11145950853824615,-1.1889250914203089,1.970993219980663e-13,-0.012889721430838108,0.40858542919158936,0.0,0.040528710931539536,1.1821722984313965,-0.006374048069119453,-0.23208698630332947
243.0,241.0,-0.1759,-3.6975,9.4493,0.0406,-0.2059,-0.2286,-1.884918829003805,-0.08558690547943115,3.012373447418213,-1.663443684577942,0.09046248346567154,2.0495169162750244,5.1616684077079675,-0.2646472156047821,0.11273439228534698,-1.1889331976519983,3.5821821568675475e-18,-0.024375801905989647,0.4085288941860199,0.0,0.011245425790548325,1.1821857690811157,-0.006265650968998671,-0.23762176930904388
243.0,241.0,-0.1759,-3.6975,9.4493,0.0406,-0.2059,-0.2286,-1.8856736622252406,-0.08177478611469269,3.0659196376800537,-1.6625316143035889,0.09674504399299622,2.0921032428741455,5.158970820694723,-0.2775401175022125,0.10162616521120071,-1.1889293829547327,4.2508515351389655e-24,-0.028686415404081345,0.40859317779541016,0.0,0.01031545177102089,1.1820768117904663,-0.007176549173891544,-0.2194192111492157
243.0,241.0,-0.1759,-3.6975,9.4493,0.0406,-0.2059,-0.2286,-1.8865767918028773,-0.0862288624048233,3.061392307281494,-1.6614986658096313,0.09741980582475662,2.1087543964385986,5.1563011584575555,-0.2666727602481842,0.10935617983341217,-1.1889050642596644,5.044338158135632e-30,-0.034583985805511475,0.40857720375061035,0.0,5.522952415049076e-05,1.182054042816162,-0.008209382183849812,-0.19585035741329193
243.0,241.0,-0.1759,-3.6975,9.4493,0.0406,-0.2059,-0.2286,-1.8874174557127894,-0.08982344716787338,3.1018996238708496,-1.660588026046753,0.09011444449424744,2.075514316558838,5.153767990856924,-0.25381141901016235,0.1329607218503952,-1.1889250914203089,5.9859420307082655e-36,-0.02918379195034504,0.4086088538169861,0.0,0.02316778153181076,1.1819660663604736,-0.008514601737260818,-0.22234338521957397
243.0,241.0,-0.1759,-3.6975,9.4493,0.0406,-0.2059,-0.2286,-1.8880683384337367,-0.08859790861606598,3.1000871658325195,-1.659855604171753,0.08424592763185501,2.1015453338623047,5.151716786413946,-0.24591417610645294,0.12109372019767761,-1.1889532248126429,1.087912075763215e-40,-0.028567757457494736,0.4086171090602875,0.0,0.01768808253109455,1.1818864345550537,-0.010229869745671749,-0.22791904211044312
243.0,241.0,-0.1759,-3.6975,9.4493,0.0406,-0.2059,-0.2286,-1.8889199695982875,-0.08072518557310104,3.077943801879883,-1.659023642539978,0.08484543114900589,2.12752366065979,5.149450588017263,-0.22613318264484406,0.12217588722705841,-1.188948933278219,0.0,-0.01883065328001976,0.40857717394828796,0.0,0.02092742547392845,1.1818103790283203,-0.009368684142827988,-0.22655069828033447
243.0,241.0,-0.1759,-3.6975,9.4493,0.0406,-0.2059,-0.2286,-1.8897434673705042,-0.07391096651554108,3.0936546325683594,-1.6582077741622925,0.0888591930270195,2.126016139984131,5.147403615504064,-0.18778587877750397,0.16652023792266846,-1.1889169851886194,0.0,-0.03926567733287811,0.4085690975189209,0.0,0.013414272107183933,1.1817545890808105,-0.006529805716127157,-0.24310484528541565
243.0,241.0,-0.1759,-3.6975,9.4493,0.0406,-0.2059,-0.2286,-1.8902861080565394,-0.07731273025274277,3.1080973148345947,-1.6575078964233398,0.08528708666563034,2.0729362964630127,5.145956176310339,-0.18779690563678741,0.16017965972423553,-1.1889494101153772,0.0,-0.026500679552555084,0.40854087471961975,0.0,0.01193178165704012,1.1817189455032349,-0.004738733638077974,-0.19837021827697754
265.0,236.0,0.5928,-3.5803,9.1711,0.0307,-0.056,-0.1652,-1.8911587200560511,-0.08861847966909409,3.0920252799987793,-1.656616449356079,0.08209554105997086,2.100102663040161,5.14432122090415,-0.14276687800884247,0.17771804332733154,-1.1888812224017542,0.0,-0.04124928265810013,0.4086289405822754,0.0,0.010427561588585377,1.1816987991333008,-0.003028047503903508,-0.15672308206558228
265.0,236.0,0.5928,-3.5803,9.1711,0.0307,-0.056,-0.1652,-1.8919297657408656,-0.08357568085193634,3.1414504051208496,-1.6557601690292358,0.07966522872447968,2.0836970806121826,5.143035965948858,-0.12654685974121094,0.17992259562015533,-1.1889327208148401,0.0,-0.024931058287620544,0.4085448682308197,0.0,0.0204508937895298,1.181643009185791,-0.00338173471391201,-0.22666588425636292
265.0,236.0,0.5928,-3.5803,9.1711,0.0307,-0.056,-0.1652,-1.892688890496725,-0.07218678295612335,3.1225757598876953,-1.6549488306045532,0.07745693624019623,2.0792605876922607,5.1418522773082636,-0.10713169723749161,0.20141197741031647,-1.1889050642596644,0.0,-0.027672704309225082,0.40859317779541016,0.0,0.016538815572857857,1.1815950870513916,-0.00451955571770668,-0.21443843841552734
265.0,236.0,0.5928,-3.5803,9.1711,0.0307,-0.056,-0.1652,-1.893301626245016,-0.06767429411411285,3.087207078933716,-1.6543490886688232,0.0758734717965126,2.08242130279541,5.141110288887777,-0.07157920300960541,0.2057456225156784,-1.1889532248126429,0.0,-0.022019024938344955,0.4085809886455536,0.0,0.011541050858795643,1.181522011756897,-0.003913821652531624,-0.19164854288101196
265.0,236.0,0.5928,-3.5803,9.1711,0.0307,-0.056,-0.1652,-1.893968244592184,-0.07155995815992355,3.1494431495666504,-1.6536407470703125,0.0665445327758789,2.0423567295074463,5.140579718142309,-0.051834531128406525,0.2267453670501709,-1.1889050642596644,0.0,-0.02657865732908249,0.4085891842842102,0.0,0.01568716950714588,1.181502342224121,-0.003469163551926613,-0.2058132439851761
265.0,236.0,0.5928,-3.5803,9.1711,0.0307,-0.056,-0.1652,-1.8946806393065394,-0.07216329127550125,3.1249189376831055,-1.6529203653335571,0.06497570127248764,2.0743749141693115,5.140013056784429,-0.0622592568397522,0.21552550792694092,-1.188920799885885,0.0,-0.026259593665599823,0.4085608422756195,0.0,0.02778509631752968,1.181495189666748,-0.004761174321174622,-0.24907833337783813
265.0,236.0,0.5928,-3.5803,9.1711,0.0307,-0.056,-0.1652,-1.895287653008932,-0.05945887416601181,3.1531057357788086,-1.6523171663284302,0.06658565253019333,2.0636534690856934,5.139406221895971,-0.06390821933746338,0.21057599782943726,-1.1889532248126429,0.0,-0.031208781525492668,0.4085691571235657,0.0,0.007027072831988335,1.1813911199569702,-0.006101211532950401,-0.1871037483215332
265.0,236.0,0.5928,-3.5803,9.1711,0.0307,-0.056,-0.1652,-1.8957835636534632,-0.05602319538593292,3.163447380065918,-1.6517853736877441,0.06918779760599136,2.0702030658721924,5.138943809061804,-0.044159214943647385,0.22422710061073303,-1.188920799885885,0.0,-0.0364934578537941,0.4086330533027649,0.0,0.015000020153820515,1.1813911199569702,-0.005862072110176086,-0.17997023463249207
265.0,236.0,0.5928,-3.5803,9.1711,0.0307,-0.056,-0.1652,-1.8964234791197718,-0.06524533033370972,3.12666654586792,-1.6510891914367676,0.06467133015394211,2.0745046138763428,5.138624655991354,-0.0158486720174551,0.2360287308692932,-1.1889613310443323,0.0,-0.033779170364141464,0.40860140323638916,0.0,0.015681905671954155,1.1813397407531738,-0.0056382035836577415,-0.20393343269824982
265.0,236.0,0.5928,-3.5803,9.1711,0.0307,-0.056,-0.1652,-1.8970667324461878,-0.07553680986166,3.124424934387207,-1.6504215002059937,0.06044401973485947,2.0992724895477295,5.138616549759664,0.0013174249324947596,0.25413256883621216,-1.188920799885885,0.0,-0.022602614015340805,0.4085731506347656,0.0,0.00865201186388731,1.1812753677368164,-0.008239060640335083,-0.19567708671092987
275.0,243.0,-0.1735,-3.4839,9.3254,0.0009,0.0638,-0.1416,-1.897670408288473,-0.07738417387008667,3.1198925971984863,-1.6499136686325073,0.059436459094285965,1.9987213611602783,5.138596790819921,0.0012071264209225774,0.24240490794181824,-1.1889327208148401,0.0,-0.03745213896036148,0.4085732102394104,0.0,0.014603239484131336,1.1811434030532837,-0.011168952099978924,-0.1977304071187973
275.0,243.0,-0.1735,-3.4839,9.3254,0.0009,0.0638,-0.1416,-1.8983737430968226,-0.06836580485105515,3.0864930152893066,-1.649345874786377,0.06258059293031693,2.0606560707092285,5.138569044857778,0.0005139501881785691,0.2463478446006775,-1.1889050642596644,0.0,-0.03167124092578888,0.4085812568664551,0.0,0.02336249314248562,1.1810721158981323,-0.013876622542738914,-0.2202417552471161
275.0,243.0,-0.1735,-3.4839,9.3254,0.0009,0.0638,-0.1416,-1.8991419277586878,-0.06767544150352478,3.1373770236968994,-1.6487016677856445,0.0638512596487999,2.0782992839813232,5.138596969633856,0.00020512985065579414,0.23974382877349854,-1.1889608542071741,0.0,-0.012177828699350357,0.4085851311683655,0.0,0.02175777591764927,1.1809567213058472,-0.016468044370412827,-0.19696317613124847
275.0,243.0,-0.1735,-3.4839,9.3254,0.0009,0.0638,-0.1416,-1.8998047314085902,-0.06970281153917313,3.1512560844421387,-1.6480861902236938,0.06057988479733467,2.017423391342163,5.138580906182089,-0.0002095500094583258,0.24115249514579773,-1.1889413038836878,0.0,-0.020648015663027763,0.4085891842842102,0.0,0.02427152916789055,1.1807047128677368,-0.021125389263033867,-0.2645956873893738
275.0,243.0,-0.1735,-3.4839,9.3254,0.0009,0.0638,-0.1416,-1.900315900842184,-0.06933262944221497,3.1313228607177734,-1.6475940942764282,0.057376351207494736,2.0111310482025146,5.138520914107122,-0.00040844353497959673,0.24027124047279358,-1.1888888517962855,0.0,-0.0187804214656353,0.4086008071899414,0.0,0.00651118578389287,1.1804803609848022,-0.028425324708223343,-0.2620888650417328
275.0,243.0,-0.1735,-3.4839,9.3254,0.0009,0.0638,-0.1416,-1.9010998211302699,-0.07447832822799683,3.1129326820373535,-1.6469818353652954,0.05654650554060936,2.058549404144287,5.138552951603689,-0.00036749301943928003,0.24572819471359253,-1.18890887895693,0.0,-0.013308631256222725,0.40864118933677673,0.0,0.009447799995541573,1.180153727531433,-0.03880099207162857,-0.2797195315361023
275.0,243.0,-0.1735,-3.4839,9.3254,0.0009,0.0638,-0.1416,-1.901823183099264,-0.08174003660678864,3.111863136291504,-1.646370530128479,0.06184515729546547,2.0531158447265625,5.138564991741934,-0.00026089383754879236,0.2426902949810028,-1.1889293829547327,0.0,-0.013025588355958462,0.4086248278617859,0.0,0.010965867899358273,1.1797661781311035,-0.05034680292010307,-0.2756160497665405
275.0,243.0,-0.1735,-3.4839,9.3254,0.0009,0.0638,-0.1416,-1.9026547871031703,-0.08636019378900528,3.1131677627563477,-1.645706295967102,0.0704517513513565,2.03065824508667,5.138556945114889,-0.0002022465196205303,0.2339819371700287,-1.188948933278219,0.0,-0.015107699669897556,0.4085812568664551,0.0,0.014162952080368996,1.1791921854019165,-0.062072884291410446,-0.3327375650405884
275.0,243.0,-0.1735,-3.4839,9.3254,0.0009,0.0638,-0.1416,-1.9034143886961878,-0.09408038854598999,3.1851565837860107,-1.64513099193573,0.07486474514007568,2.077040195465088,5.138572889357366,-0.00017142253636848181,0.24383050203323364,-1.1889327208148401,0.0,-0.031440213322639465,0.40863701701164246,0.0,0.03310069814324379,1.1786810159683228,-0.06625946611166,-0.3033788800239563
278.0,242.0,0.1801,-3.7543,8.1362,-0.0861,-0.0108,-0.1686,-1.9044743976988734,-0.10182131081819534,3.112351417541504,-1.644350528717041,0.07927107065916061,2.047248363494873,5.1385569153125665,-0.00014399249630514532,0.23076221346855164,-1.1889250914203089,0.0,-0.04112066701054573,0.40859726071357727,0.0,0.02424709126353264,1.1780221462249756,-0.0697333961725235,-0.2245579957962036
278.0,242.0,0.1801,-3.7543,8.1362,-0.0861,-0.0108,-0.1686,-1.9055210552611292,-0.09755897521972656,3.1322290897369385,-1.6435505151748657,0.08792364597320557,2.125617265701294,5.138601082354345,-0.00012413090735208243,0.23776425421237946,-1.1889451185809534,0.0,-0.011522501707077026,0.4085732400417328,0.0,0.02532283402979374,1.1772881746292114,-0.0714191198348999,-0.2083728313446045
278.0,242.0,0.1801,-3.7543,8.1362,-0.0861,-0.0108,-0.1686,-1.9063965282835902,-0.10113489627838135,3.1292061805725098,-1.6428028345108032,0.09147481620311737,2.1048452854156494,5.138488787203588,-0.00011179478315170854,0.2393174171447754,-1.188920799885885,0.0,-0.04560966044664383,0.4085609018802643,0.0,0.003936299588531256,1.1766854524612427,-0.07141298800706863,-0.2867453992366791
278.0,242.0,0.1801,-3.7543,8.1362,-0.0861,-0.0108,-0.1686,-1.9074880085387171,-0.11852873116731644,3.108156681060791,-1.6419435739517212,0.0937698557972908,2.1102328300476074,5.138576912670889,-9.94419606286101e-05,0.2470892369747162,-1.1889413038836878,0.0,-0.03995655104517937,0.4086170196533203,0.0,0.007560075726360083,1.1759392023086548,-0.07288406789302826,-0.2648448944091797
278.0,242.0,0.1801,-3.7543,8.1362,-0.0861,-0.0108,-0.1686,-1.908703943292135,-0.1282387673854828,3.1324386596679688,-1.6408792734146118,0.10291598737239838,2.0916926860809326,5.138577002077856,-7.179442036431283e-05,0.24065059423446655,-1.1889169851886194,0.0,-0.032919712364673615,0.40857720375061035,0.0,0.01314915157854557,1.1752368211746216,-0.07700170576572418,-0.3046799898147583
278.0,242.0,0.1801,-3.7543,8.1362,-0.0861,-0.0108,-0.1686,-1.9099542103209437,-0.12095674127340317,3.1053411960601807,-1.6397918462753296,0.11171146482229233,2.100506544113159,5.138577002077856,-4.88848818349652e-05,0.2418641746044159,-1.1889451185809534,0.0,-0.01923772506415844,0.4086088538169861,0.0,0.02712106890976429,1.1744457483291626,-0.08865183591842651,-0.28950387239456177
278.0,242.0,0.1801,-3.7543,8.1362,-0.0861,-0.0108,-0.1686,-1.9109255276122035,-0.11013776808977127,3.1379575729370117,-1.6388792991638184,0.11523120850324631,2.1255242824554443,5.138577002077856,-4.55674271506723e-05,0.24642300605773926,-1.188948933278219,0.0,-0.03101940080523491,0.4086248278617859,0.0,0.03346796706318855,1.173684000968933,-0.0968727171421051,-0.26653093099594116
278.0,242.0,0.1801,-3.7543,8.1362,-0.0861,-0.0108,-0.1686,-1.9121290645995082,-0.11526592075824738,3.1599087715148926,-1.6377428770065308,0.12000419944524765,2.141934633255005,5.1385410008724115,-5.602052988251671e-05,0.2382238805294037,-1.188948933278219,0.0,-0.043894119560718536,0.40864914655685425,0.0,0.026802577078342438,1.172726035118103,-0.09802942723035812,-0.2743035554885864
278.0,242.0,0.1801,-3.7543,8.1362,-0.0861,-0.0108,-0.1686,-1.9134122333922328,-0.13184794783592224,3.1728134155273438,-1.6365314722061157,0.12313521653413773,2.158996105194092,5.138597237854757,-1.449180763302138e-05,0.2421601414680481,-1.1889894644366663,0.0,-0.03430025652050972,0.40857720375061035,0.0,0.013546742498874664,1.1717143058776855,-0.09866677969694138,-0.23673094809055328
278.0,242.0,0.1801,-3.7543,8.1362,-0.0861,-0.0108,-0.1686,-1.9146472416319789,-0.1370113343000412,3.1450819969177246,-1.6351795196533203,0.1328650414943695,2.1120314598083496,5.138553160219946,-1.341184542980045e-05,0.23556415736675262,-1.188937012349264,0.0,-0.03819633647799492,0.4085850715637207,0.0,0.008021760731935501,1.1707147359848022,-0.09605450928211212,-0.2791835367679596
298.0,238.0,1.0881,-3.5007,9.0754,-0.0186,0.0606,-0.2184,-1.9156819782652796,-0.13001500070095062,3.1195263862609863,-1.634187936782837,0.13209354877471924,2.148374080657959,5.138612913876333,-1.866261811755976e-09,0.2411084622144699,-1.1889050642596644,0.0,-0.028402790427207947,0.40861284732818604,0.0,0.01869393326342106,1.1699473857879639,-0.09473609924316406,-0.24512168765068054
298.0,238.0,1.0881,-3.5007,9.0754,-0.0186,0.0606,-0.2184,-1.9168888531126917,-0.11106707900762558,3.223238945007324,-1.6327885389328003,0.14419662952423096,2.159275770187378,5.138576912670889,-2.214628203452097e-15,0.2497355341911316,-1.1889050642596644,0.0,-0.037826500833034515,0.40859317779541016,0.0,0.02402741089463234,1.1690102815628052,-0.10147776454687119,-0.2563644051551819
298.0,238.0,1.0881,-3.5007,9.0754,-0.0186,0.0606,-0.2184,-1.9181691608824671,-0.11707501113414764,3.2222108840942383,-1.6313483715057373,0.15285812318325043,2.173123836517334,5.1385128674800775,-2.628023286069685e-21,0.23883426189422607,-1.1889050642596644,0.0,-0.037110231816768646,0.40864530205726624,0.0,0.00976539496332407,1.1679999828338623,-0.10111519694328308,-0.25762659311294556
298.0,238.0,1.0881,-3.5007,9.0754,-0.0186,0.0606,-0.2184,-1.9190875492491664,-0.1324266642332077,3.208817958831787,-1.6301331520080566,0.15525631606578827,2.18365740776062,5.138537186175146,-4.776302872443643e-26,0.24400219321250916,-1.1889050642596644,0.0,-0.02453048899769783,0.40864115953445435,0.0,0.043099306523799896,1.167141318321228,-0.10214811563491821,-0.2562735080718994
298.0,238.0,1.0881,-3.5007,9.0754,-0.0186,0.0606,-0.2184,-1.9203869305052699,-0.13910017907619476,3.189046859741211,-1.6285170316696167,0.15469127893447876,2.1861870288848877,5.138552921801367,-5.667874058393719e-32,0.25201624631881714,-1.1889532248126429,0.0,-0.04146813601255417,0.4085935652256012,0.0,0.020912382751703262,1.1660230159759521,-0.10637462884187698,-0.22849738597869873
298.0,238.0,1.0881,-3.5007,9.0754,-0.0186,0.0606,-0.2184,-1.9215613804259242,-0.11356960237026215,3.227400779724121,-1.626845121383667,0.1708277314901352,2.202328681945801,5.138588923006811,-6.725868851677783e-38,0.24025046825408936,-1.1889727751361292,0.0,-0.04622889682650566,0.4086248576641083,0.0,0.00835489109158516,1.1649714708328247,-0.10256631672382355,-0.23183083534240723
298.0,238.0,1.0881,-3.5007,9.0754,-0.0186,0.0606,-0.2184,-1.9227773151793421,-0.10791599005460739,3.244579553604126,-1.6250933408737183,0.18105576932430267,2.3063173294067383,5.138596969633856,-7.987401246651457e-44,0.2517607808113098,-1.188937012349264,0.0,-0.04310317710042,0.4086170792579651,0.0,0.01796008087694645,1.1640286445617676,-0.09810570627450943,-0.17877759039402008
298.0,238.0,1.0881,-3.5007,9.0754,-0.0186,0.0606,-0.2184,-1.9237243137755335,-0.12060575932264328,3.1547908782958984,-1.6237096786499023,0.17490790784358978,2.2354819774627686,5.138572889357366,-0.0,0.24536746740341187,-1.1889532248126429,0.0,-0.0520801842212677,0.4086088538169861,0.0,0.011644088663160801,1.163201928138733,-0.09641007333993912,-0.17458605766296387
298.0,238.0,1.0881,-3.5007,9.0754,-0.0186,0.0606,-0.2184,-1.9248916111388148,-0.1284988522529602,3.2292051315307617,-1.6219621896743774,0.17153260111808777,2.247455358505249,5.138633268862524,-0.0,0.26028239727020264,-1.18890887895693,0.0,-0.04603917896747589,0.4086054861545563,0.0,0.027160540223121643,1.1622602939605713,-0.0905751883983612,-0.15678155422210693
298.0,238.0,1.0881,-3.5007,9.0754,-0.0186,0.0606,-0.2184,-1.9260388813414515,-0.11351896822452545,3.209321975708008,-1.6201708316802979,0.18175716698169708,2.1777992248535156,5.138576912670889,-0.0,0.24204379320144653,-1.1889050642596644,0.0,-0.03808867186307907,0.4085329473018646,0.0,0.026348339393734932,1.161350965499878,-0.09383691847324371,-0.18138054013252258
283.0,219.0,0.2076,-3.4666,8.5585,-0.029,0.1512,-0.1797,-1.9271017513670863,-0.09979493916034698,3.257364273071289,-1.6182622909545898,0.185907244682312,2.2813775539398193,5.138560968428411,-0.0,0.2373630255460739,-1.188937012349264,0.0,-0.04577992856502533,0.4086208939552307,0.0,0.03172638267278671,1.1604816913604736,-0.09190502762794495,-0.1794605553150177
283.0,219.0,0.2076,-3.4666,8.5585,-0.029,0.1512,-0.1797,-1.9280053577818812,-0.10580567270517349,3.2347354888916016,-1.6167871952056885,0.19240055978298187,2.2394819259643555,5.138496863632955,-0.0,0.23459705710411072,-1.188977066670553,0.0,-0.0421152263879776,0.4086289405822754,0.0,0.01757141761481762,1.159774899482727,-0.0857648029923439,-0.19175800681114197
283.0,219.0,0.2076,-3.4666,8.5585,-0.029,0.1512,-0.1797,-1.929072996179098,-0.11933491379022598,3.25510311126709,-1.6148234605789185,0.19524085521697998,2.310734748840332,5.138593214541235,-0.0,0.2356172502040863,-1.188868824635641,0.0,-0.03931957483291626,0.4085690379142761,0.0,0.022484127432107925,1.1589572429656982,-0.08203708380460739,-0.1901979297399521
283.0,219.0,0.2076,-3.4666,8.5585,-0.029,0.1512,-0.1797,-1.9302121601500453,-0.11721212416887283,3.252835512161255,-1.6128721237182617,0.20244421064853668,2.3042306900024414,5.138548779278555,-0.0,0.2359774112701416,-1.188937012349264,0.0,-0.05160802602767944,0.4085407853126526,0.0,0.02812623232603073,1.1581107378005981,-0.07968910783529282,-0.14664170145988464
283.0,219.0,0.2076,-3.4666,8.5585,-0.029,0.1512,-0.1797,-1.9310552082457484,-0.10334102064371109,3.217278480529785,-1.611228108406067,0.2139992117881775,2.2973246574401855,5.138576942473211,-0.0,0.23145636916160583,-1.188937012349264,0.0,-0.04774184897542,0.408573180437088,0.0,0.02077053114771843,1.1574597358703613,-0.0723038911819458,-0.2191859781742096
283.0,219.0,0.2076,-3.4666,8.5585,-0.029,0.1512,-0.1797,-1.9321381054320277,-0.10324089974164963,3.225092887878418,-1.6090916395187378,0.21993222832679749,2.2797138690948486,5.13851277807311,-0.0,0.23778489232063293,-1.1889327208148401,0.0,-0.06253235042095184,0.4086088538169861,0.0,0.0070546213537454605,1.1568772792816162,-0.06154648959636688,-0.1381320059299469
283.0,219.0,0.2076,-3.4666,8.5585,-0.029,0.1512,-0.1797,-1.9332896671690882,-0.12106382101774216,3.2456419467926025,-1.6069366931915283,0.22022481262683868,2.2684478759765625,5.138593214541235,-0.0,0.23058763146400452,-1.1889050642596644,0.0,-0.05189290642738342,0.40859317779541016,0.0,0.014313332736492157,1.1562303304672241,-0.05978616327047348,-0.12733067572116852
283.0,219.0,0.2076,-3.4666,8.5585,-0.029,0.1512,-0.1797,-1.934484144250387,-0.13360600173473358,3.228851795196533,-1.6046767234802246,0.2333116978406906,2.2621331214904785,5.1385569153125665,-0.0,0.244695782661438,-1.1889413038836878,0.0,-0.03470785543322563,0.4085489511489868,0.0,0.006666988600045443,1.1556483507156372,-0.061856627464294434,-0.1571846604347229
283.0,219.0,0.2076,-3.4666,8.5585,-0.029,0.1512,-0.1797,-1.935568471948141,-0.12870074808597565,3.2583694458007812,-1.602709174156189,0.2375963181257248,2.339959144592285,5.138528901129522,-0.0,0.23490439355373383,-1.188977066670553,0.0,-0.04148326814174652,0.40862077474594116,0.0,0.013796431012451649,1.1551975011825562,-0.0598083920776844,-0.19310599565505981
249.0,205.0,-0.7214,-3.9218,7.8144,-0.0948,0.1187,-0.0932,-1.9368921718993128,-0.11201123148202896,3.299656629562378,-1.600413203239441,0.256520539522171,2.3195066452026367,5.138476925879278,-0.0,0.23422160744667053,-1.1889084021197718,0.0,-0.04594668000936508,0.408573180437088,0.0,0.012510662898421288,1.1545937061309814,-0.05601801723241806,-0.18693608045578003
249.0,205.0,-0.7214,-3.9218,7.8144,-0.0948,0.1187,-0.0932,-1.9381667576231898,-0.12553970515727997,3.250338077545166,-1.5979106426239014,0.2525579333305359,2.332796573638916,5.138400542526998,-0.007943470031023026,0.2306981384754181,-1.1889250914203089,0.0,-0.03847573325037956,0.4085768759250641,0.0,0.03429282456636429,1.1540549993515015,-0.057712309062480927,-0.12766578793525696
249.0,205.0,-0.7214,-3.9218,7.8144,-0.0948,0.1187,-0.0932,-1.9394976101317347,-0.15686404705047607,3.1853437423706055,-1.5952986478805542,0.2512337267398834,2.3101754188537598,5.138317572861471,-0.012307073920965195,0.22609549760818481,-1.1889050642596644,0.0,-0.024420183151960373,0.40865716338157654,0.0,0.005501274019479752,1.1533973217010498,-0.06352002173662186,-0.12036976218223572
249.0,205.0,-0.7214,-3.9218,7.8144,-0.0948,0.1187,-0.0932,-1.9406968555846156,-0.16003966331481934,3.2624354362487793,-1.593161702156067,0.2585238218307495,2.3052761554718018,5.138285773783483,-0.008155958727002144,0.22849544882774353,-1.1889250914203089,0.0,-0.03576873242855072,0.4086167812347412,0.0,0.007653478998690844,1.1529014110565186,-0.06624877452850342,-0.13910029828548431
249.0,205.0,-0.7214,-3.9218,7.8144,-0.0948,0.1187,-0.0932,-1.9421597919859828,-0.132972851395607,3.2782461643218994,-1.5905189514160156,0.2702331244945526,2.3622992038726807,5.13820959904746,-0.0014675575075671077,0.2421691119670868,-1.1889851729022425,0.0,-0.05163731053471565,0.408564954996109,0.0,0.014526864513754845,1.1522712707519531,-0.05779670551419258,-0.144241601228714
249.0,205.0,-0.7214,-3.9218,7.8144,-0.0948,0.1187,-0.0932,-1.9436665974059046,-0.13258370757102966,3.2601866722106934,-1.5878305435180664,0.27427005767822266,2.3572044372558594,5.13814594128684,-0.00230984459631145,0.23202961683273315,-1.188937012349264,0.0,-0.039241477847099304,0.40862900018692017,0.0,0.013219347223639488,1.1517032384872437,-0.047767724841833115,-0.15317076444625854
249.0,205.0,-0.7214,-3.9218,7.8144,-0.0948,0.1187,-0.0932,-1.9451095066466273,-0.16200967133045197,3.2655844688415527,-1.5851165056228638,0.26098528504371643,2.305347442626953,5.1380492625530145,-0.014695684425532818,0.21937218308448792,-1.18890887895693,0.0,-0.04779497906565666,0.40862900018692017,0.0,0.012482980266213417,1.151322364807129,-0.04311598092317581,-0.08943314850330353
249.0,205.0,-0.7214,-3.9218,7.8144,-0.0948,0.1187,-0.0932,-1.9463125667967738,-0.16935770213603973,3.2126240730285645,-1.5830321311950684,0.26001349091529846,2.339420795440674,5.137950259238043,-0.012530062347650528,0.23108194768428802,-1.1889131704913538,0.0,-0.041509971022605896,0.408600777387619,0.0,0.0126030333340168,1.1509311199188232,-0.04373839497566223,-0.16143298149108887
249.0,205.0,-0.7214,-3.9218,7.8144,-0.0948,0.1187,-0.0932,-1.9478761158385218,-0.14590740203857422,3.2613234519958496,-1.5804256200790405,0.26775574684143066,2.3000755310058594,5.137918460160055,-0.004030459560453892,0.21216824650764465,-1.1889250914203089,0.0,-0.03725999966263771,0.408600777387619,0.0,0.015294780023396015,1.1504920721054077,-0.04756122827529907,-0.1635042428970337
249.0,205.0,-0.7214,-3.9218,7.8144,-0.0948,0.1187,-0.0932,-1.9492789707579554,-0.13093453645706177,3.303900957107544,-1.5777575969696045,0.27280497550964355,2.3328099250793457,5.1379105327423,-0.001639167545363307,0.22405201196670532,-1.1889613310443323,0.0,-0.0354439839720726,0.40857717394828796,0.0,0.018121303990483284,1.1500849723815918,-0.04046604037284851,-0.15130463242530823
225.0,190.0,-0.2524,-3.8584,8.8044,-0.0976,0.1568,-0.0904,-1.950425764123434,-0.1406068205833435,3.267521381378174,-1.575556993484497,0.26952865719795227,2.381648540496826,5.137818890600958,-0.004262829199433327,0.23220549523830414,-1.188920799885885,0.0,-0.0399002879858017,0.40859726071357727,0.0,0.014022881165146828,1.1497693061828613,-0.034722331911325455,-0.14890922605991364
225.0,190.0,-0.2524,-3.8584,8.8044,-0.0976,0.1568,-0.0904,-1.9519254169859828,-0.1606956124305725,3.291585922241211,-1.5728421211242676,0.26411640644073486,2.32133150100708,5.137714880495825,-0.008958494290709496,0.23080094158649445,-1.1889050642596644,0.0,-0.04230675846338272,0.40856504440307617,0.0,0.01428169198334217,1.1493573188781738,-0.03965918347239494,-0.13514667749404907
225.0,190.0,-0.2524,-3.8584,8.8044,-0.0976,0.1568,-0.0904,-1.953339239160055,-0.151193767786026,3.307554244995117,-1.5701791048049927,0.2668752670288086,2.300589084625244,5.137661504536428,-0.004637629259377718,0.218632772564888,-1.1889131704913538,0.0,-0.02736702747642994,0.40857717394828796,0.0,0.023421086370944977,1.148975133895874,-0.05066053569316864,-0.19575893878936768
225.0,190.0,-0.2524,-3.8584,8.8044,-0.0976,0.1568,-0.0904,-1.954794546166891,-0.13379402458667755,3.3090481758117676,-1.5675560235977173,0.2794804573059082,2.3398027420043945,5.137702929764547,-0.0009084631456062198,0.234291210770607,-1.1889050642596644,0.0,-0.029418107122182846,0.4086088538169861,0.0,0.013154268264770508,1.1484363079071045,-0.06144074350595474,-0.19825613498687744
225.0,190.0,-0.2524,-3.8584,8.8044,-0.0976,0.1568,-0.0904,-1.9558941326537074,-0.12989076972007751,3.355799913406372,-1.5653003454208374,0.2716776132583618,2.3240413665771484,5.1376709816749475,-0.0006763288984075189,0.23618292808532715,-1.1888850370990198,0.0,-0.029617536813020706,0.4086048901081085,0.0,0.025575019419193268,1.1479690074920654,-0.06194842979311943,-0.1798078417778015
225.0,190.0,-0.2524,-3.8584,8.8044,-0.0976,0.1568,-0.0904,-1.9572326145567835,-0.14026206731796265,3.2992324829101562,-1.5625606775283813,0.27144888043403625,2.3972651958465576,5.1376709816749475,-0.0004891642020083964,0.23889599740505219,-1.1889451185809534,0.0,-0.042847298085689545,0.40854862332344055,0.0,0.01041568536311388,1.1472909450531006,-0.05771273747086525,-0.148530051112175
225.0,190.0,-0.2524,-3.8584,8.8044,-0.0976,0.1568,-0.0904,-1.9586125812926234,-0.14099691808223724,3.337651252746582,-1.5598617792129517,0.256788045167923,2.343663215637207,5.137675154000082,-0.00331134139560163,0.23027366399765015,-1.18890887895693,0.0,-0.0501212552189827,0.4086535573005676,0.0,0.025114839896559715,1.1467357873916626,-0.05802380293607712,-0.13235972821712494
