ramyac6/ROB537/final_project/csv/good/good_78.csv
tof_0,tof_1,accelx,accely,accelz,gyrox,gyroy,gyroz,shoulder_lift_joint_position,shoulder_lift_joint_velocity,shoulder_lift_joint_effort,elbow_joint_position,elbow_joint_velocity,elbow_joint_effort,wrist_1_joint_position,wrist_1_joint_velocity,wrist_1_joint_effort,wrist_2_joint_position,wrist_2_joint_velocity,wrist_2_joint_effort,wrist_3_joint_position,wrist_3_joint_velocity,wrist_3_joint_effort,shoulder_pan_joint_position,shoulder_pan_joint_velocity,shoulder_pan_joint_effort
138.0,176.0,3.4905,-1.7061,8.598,-0.0394,0.0234,-0.1219,-1.7564951382079066,0.0,2.9961490631103516,-1.5084865093231201,-0.0,2.191286087036133,4.367915316218994,0.0,0.2965008616447449,-1.5796502272235315,0.0,-0.014453032054007053,1.1707382202148438,-0.0,0.0036657447926700115,1.1030923128128052,0.0,0.01618998497724533
138.0,176.0,3.4905,-1.7061,8.598,-0.0394,0.0234,-0.1219,-1.7564307651915492,0.0,3.0053062438964844,-1.5085270404815674,-0.0,2.214263916015625,4.367903872127197,0.0,0.29296067357063293,-1.5796263853656214,0.0,-0.007601100020110607,1.1707382202148438,-0.0,0.014400847256183624,1.1030882596969604,0.0,0.016686128452420235
138.0,176.0,3.4905,-1.7061,8.598,-0.0394,0.0234,-0.1219,-1.7564870319762171,0.0,2.987168073654175,-1.5085512399673462,-0.0,2.195314884185791,4.367891474361084,0.0,0.29066866636276245,-1.5796220938311976,0.0,0.00019419868476688862,1.1706902980804443,-0.0,-0.004934396129101515,1.1030763387680054,0.0,0.041469257324934006
138.0,176.0,3.4905,-1.7061,8.598,-0.0394,0.0234,-0.1219,-1.7564712963499964,0.0,2.9795777797698975,-1.5085031986236572,-0.0,2.179702043533325,4.3679234224506835,0.0,0.29257339239120483,-1.5796096960650843,0.0,-0.020544830709695816,1.1707301139831543,-0.0,-0.009707469493150711,1.1031209230422974,0.0,-0.04182906448841095
138.0,176.0,3.4905,-1.7061,8.598,-0.0394,0.0234,-0.1219,-1.756435056725973,0.0,2.9999747276306152,-1.508567214012146,-0.0,2.1874258518218994,4.367955847377441,0.0,0.2926104962825775,-1.579613987599508,0.0,-0.0089512774720788,1.1707062721252441,-0.0,-0.013923906721174717,1.1030964851379395,0.0,-0.01413080282509327
138.0,176.0,3.4905,-1.7061,8.598,-0.0394,0.0234,-0.1219,-1.7564712963499964,0.0,2.9972147941589355,-1.5085471868515015,-0.0,2.1842732429504395,4.367940111751221,0.0,0.3015209138393402,-1.5796220938311976,0.0,-0.007482324726879597,1.1707422733306885,-0.0,-0.004527764394879341,1.1030845642089844,0.0,-0.015095612965524197
138.0,176.0,3.4905,-1.7061,8.598,-0.0394,0.0234,-0.1219,-1.756463190118307,0.0,2.9910621643066406,-1.5085315704345703,-0.0,2.2102439403533936,4.367952032680176,0.0,0.28436607122421265,-1.5796263853656214,0.0,-0.013271957635879517,1.1706902980804443,-0.0,-0.011869067326188087,1.103104591369629,0.0,0.01408170536160469
135.0,176.0,3.4229,-1.7234,8.5472,-0.0353,0.0229,-0.1133,-1.7564307651915492,0.0,2.98384428024292,-1.5085352659225464,-0.0,2.1934187412261963,4.367987795467041,0.0,0.28756463527679443,-1.579613987599508,0.0,-0.014835509471595287,1.1707422733306885,-0.0,-0.0011637986171990633,1.1030603647232056,0.0,0.01374644786119461
135.0,176.0,3.4229,-1.7234,8.5472,-0.0353,0.0229,-0.1133,-1.7564388714232386,0.0,3.0157217979431152,-1.5085031986236572,-0.0,2.1707050800323486,4.367911978358887,0.0,0.29665234684944153,-1.5796306769000452,0.0,-0.007417344953864813,1.1707181930541992,-0.0,0.0034621553495526314,1.1030964851379395,0.0,0.015520461834967136
135.0,176.0,3.4229,-1.7234,8.5472,-0.0353,0.0229,-0.1133,-1.756475111047262,0.0,3.0275747776031494,-1.5085512399673462,-0.0,2.203848123550415,4.367947741145752,0.0,0.2968466579914093,-1.5796178022967737,0.0,-0.006506070494651794,1.170694351196289,-0.0,0.0007932821754366159,1.1031368970870972,0.0,0.018354671075940132
135.0,176.0,3.4229,-1.7234,8.5472,-0.0353,0.0229,-0.1133,-1.7564789257445277,0.0,2.9573967456817627,-1.508547067642212,-0.0,2.237335205078125,4.36797205984082,0.0,0.2896842956542969,-1.5795858542071741,0.0,-0.008065893314778805,1.1707022190093994,-0.0,-0.0071332743391394615,1.103104591369629,0.0,-0.01953037828207016
135.0,176.0,3.4229,-1.7234,8.5472,-0.0353,0.0229,-0.1133,-1.7564588985838832,0.0,2.998774528503418,-1.5085389614105225,-0.0,2.2241411209106445,4.367943926448486,0.0,0.29302287101745605,-1.579613987599508,0.0,-0.0022621501702815294,1.1707262992858887,-0.0,-0.0008551673963665962,1.103104591369629,0.0,-0.01957472786307335
135.0,176.0,3.4229,-1.7234,8.5472,-0.0353,0.0229,-0.1133,-1.7564388714232386,0.0,2.9769880771636963,-1.5084991455078125,-0.0,2.2399742603302,4.36797205984082,0.0,0.28727853298187256,-1.579642120991842,0.0,-0.004090126138180494,1.1706981658935547,-0.0,-0.0003484911285340786,1.103104591369629,0.0,0.006622284650802612
135.0,176.0,3.4229,-1.7234,8.5472,-0.0353,0.0229,-0.1133,-1.7564426861205042,0.0,2.9937915802001953,-1.508531093597412,-0.0,2.17551589012146,4.367935820216797,0.0,0.29581600427627563,-1.5796344915973108,0.0,-0.0067862714640796185,1.1706902980804443,-0.0,-0.011198973283171654,1.1030763387680054,0.0,-0.018258284777402878
135.0,176.0,3.4229,-1.7234,8.5472,-0.0353,0.0229,-0.1133,-1.7564426861205042,0.0,2.94758939743042,-1.5084784030914307,-0.0,2.1728103160858154,4.3679234224506835,0.0,0.2927972376346588,-1.5796096960650843,0.0,0.0015889301430433989,1.170786738395691,-0.0,-0.010437121614813805,1.1031087636947632,0.0,-0.016969803720712662
135.0,176.0,3.4229,-1.7234,8.5472,-0.0353,0.0229,-0.1133,-1.7564832172789515,0.0,2.978050708770752,-1.5084909200668335,-0.0,2.228464126586914,4.36791913091626,0.0,0.29804712533950806,-1.5795939604388636,0.0,-0.0042198337614536285,1.1707062721252441,-0.0,-0.002808633726090193,1.1031005382537842,0.0,0.01900523528456688
135.0,176.0,3.4229,-1.7234,8.5472,-0.0353,0.0229,-0.1133,-1.756463190118307,0.0,2.9873805046081543,-1.5085430145263672,-0.0,2.1911840438842773,4.367947741145752,0.0,0.29872262477874756,-1.579613987599508,0.0,-0.0073603298515081406,1.1707143783569336,-0.0,-0.0007348197977989912,1.1031086444854736,0.0,0.01565309800207615
135.0,176.0,3.4229,-1.7234,8.5472,-0.0353,0.0229,-0.1133,-1.7564431629576625,0.0,2.964669704437256,-1.5085549354553223,-0.0,2.1794378757476807,4.367915316218994,0.0,0.30158835649490356,-1.5796306769000452,0.0,-0.01048644445836544,1.1707184314727783,-0.0,0.006027225870639086,1.1031086444854736,0.0,-0.0009492011740803719
135.0,176.0,3.4229,-1.7234,8.5472,-0.0353,0.0229,-0.1133,-1.756451269189352,0.0,3.009489059448242,-1.508522868156433,-0.0,2.203704833984375,4.367947741145752,0.0,0.2998843193054199,-1.579613987599508,0.0,-0.003286238294094801,1.1706902980804443,-0.0,0.0028401839081197977,1.1030923128128052,0.0,0.013312214985489845
135.0,176.0,3.4229,-1.7234,8.5472,-0.0353,0.0229,-0.1133,-1.7564393482603968,0.0,2.942948818206787,-1.50856351852417,-0.0,2.207470178604126,4.36797205984082,0.0,0.29661449790000916,-1.5795777479754847,0.0,-0.007357495836913586,1.1707103252410889,-0.0,-0.00308647146448493,1.103112816810608,0.0,-0.004423585720360279
137.0,174.0,3.4971,-1.6798,8.5071,-0.0429,0.0209,-0.1196,-1.756463190118307,0.0,2.9787099361419678,-1.508547067642212,-0.0,2.204447031021118,4.36788718282666,0.0,0.30213138461112976,-1.5795939604388636,0.0,0.0013538389466702938,1.1706899404525757,-0.0,-0.0037009320221841335,1.1031005382537842,0.0,-0.020334625616669655
137.0,174.0,3.4971,-1.6798,8.5071,-0.0429,0.0209,-0.1196,-1.7564712963499964,0.0,3.0257928371429443,-1.508583664894104,-0.0,2.172916889190674,4.367952032680176,0.0,0.29242807626724243,-1.5796058813678187,0.0,-0.01628062129020691,1.1707024574279785,-0.0,0.0010863870847970247,1.1030805110931396,0.0,0.005621836520731449
137.0,174.0,3.4971,-1.6798,8.5071,-0.0429,0.0209,-0.1196,-1.7564550838866175,0.0,2.9374656677246094,-1.5085110664367676,-0.0,2.1471877098083496,4.367947741145752,0.0,0.30037084221839905,-1.5796263853656214,0.0,-0.01568121649324894,1.170674443244934,-0.0,-0.007931060157716274,1.1030726432800293,0.0,-0.05543772131204605
137.0,174.0,3.4971,-1.6798,8.5071,-0.0429,0.0209,-0.1196,-1.7564307651915492,0.0,2.984832286834717,-1.5085270404815674,-0.0,2.199276924133301,4.36791102468457,0.0,0.30956903100013733,-1.5796096960650843,0.0,-0.015478496439754963,1.1707303524017334,-0.0,-0.009164663031697273,1.103104591369629,0.0,0.001412650104612112
137.0,174.0,3.4971,-1.6798,8.5071,-0.0429,0.0209,-0.1196,-1.7564269504942835,0.0,2.9763097763061523,-1.5085591077804565,-0.0,2.2030889987945557,4.367931528682373,0.0,0.2881813943386078,-1.5796344915973108,0.0,-0.011228375136852264,1.1707141399383545,-0.0,-0.013102621771395206,1.1030926704406738,0.0,-0.0316222682595253
137.0,174.0,3.4971,-1.6798,8.5071,-0.0429,0.0209,-0.1196,-1.756475111047262,0.0,2.9670886993408203,-1.5085430145263672,-0.0,2.1978373527526855,4.367943449611328,0.0,0.2943599820137024,-1.5796306769000452,0.0,-0.002900451421737671,1.1707022190093994,-0.0,-0.0070866784080863,1.1030722856521606,0.0,-0.005672627594321966
137.0,174.0,3.4971,-1.6798,8.5071,-0.0429,0.0209,-0.1196,-1.7564832172789515,0.0,3.033663749694824,-1.5085512399673462,-0.0,2.157707691192627,4.367895765895508,0.0,0.2945096492767334,-1.5796344915973108,0.0,0.002796637825667858,1.1707462072372437,-0.0,0.0024907311890274286,1.1030845642089844,0.0,-0.01812594383955002
137.0,174.0,3.4971,-1.6798,8.5071,-0.0429,0.0209,-0.1196,-1.756463190118307,0.0,2.996253490447998,-1.5085151195526123,-0.0,2.150872230529785,4.36791102468457,0.0,0.30199921131134033,-1.5796263853656214,0.0,-0.00021116924472153187,1.1707382202148438,-0.0,-0.007170367520302534,1.103080153465271,0.0,0.006658798083662987
137.0,174.0,3.4971,-1.6798,8.5071,-0.0429,0.0209,-0.1196,-1.7564102611937464,0.0,2.977820634841919,-1.508515477180481,-0.0,2.198634147644043,4.367911978358887,0.0,0.29538363218307495,-1.5796096960650843,0.0,-0.011180397123098373,1.1706823110580444,-0.0,-0.004172881133854389,1.1030763387680054,0.0,0.023696575313806534
137.0,174.0,3.4971,-1.6798,8.5071,-0.0429,0.0209,-0.1196,-1.7564226589598597,0.0,3.029829978942871,-1.508535623550415,-0.0,2.1901612281799316,4.367943449611328,0.0,0.28773796558380127,-1.5796545187579554,0.0,0.0018055298132821918,1.1707781553268433,-0.0,-0.0025185532867908478,1.1031205654144287,0.0,-0.005169847048819065
137.0,174.0,3.4971,-1.6798,8.5071,-0.0429,0.0209,-0.1196,-1.7564593754210414,0.0,3.029153823852539,-1.5085068941116333,-0.0,2.1565959453582764,4.367935820216797,0.0,0.3044438064098358,-1.579613987599508,0.0,-0.004486963618546724,1.170790672302246,-0.0,-0.00025894190184772015,1.103116512298584,0.0,0.021438324823975563
137.0,174.0,3.4971,-1.6798,8.5071,-0.0429,0.0209,-0.1196,-1.7564593754210414,0.0,2.976655960083008,-1.5085151195526123,-0.0,2.2240216732025146,4.367927713985107,0.0,0.29516756534576416,-1.5796545187579554,0.0,-0.0050677466206252575,1.1707462072372437,-0.0,-0.006207664497196674,1.1031086444854736,0.0,0.015887103974819183
137.0,174.0,3.4971,-1.6798,8.5071,-0.0429,0.0209,-0.1196,-1.7564665279784144,0.0,3.0250678062438965,-1.5085110664367676,-0.0,2.1912262439727783,4.367940111751221,0.0,0.3032604455947876,-1.579613987599508,0.0,-0.005117827095091343,1.170734167098999,-0.0,-0.012455030344426632,1.1031328439712524,0.0,0.012834126129746437
137.0,171.0,3.4271,-1.7055,8.5537,-0.0412,0.0318,-0.1258,-1.756475111047262,0.0,2.995030403137207,-1.5085796117782593,-0.0,2.1917288303375244,4.367940111751221,0.0,0.2987804710865021,-1.5796306769000452,0.0,-0.001716636586934328,1.1707141399383545,-0.0,-0.003496351419016719,1.1030603647232056,0.0,-0.018761046230793
137.0,171.0,3.4271,-1.7055,8.5537,-0.0412,0.0318,-0.1258,-1.756418367425436,0.0,2.968017101287842,-1.508499026298523,-0.0,2.2012686729431152,4.367931528682373,0.0,0.29100218415260315,-1.5796306769000452,0.0,-0.001130381366237998,1.1706743240356445,-0.0,0.0006622753571718931,1.103104591369629,0.0,0.05090627446770668
137.0,171.0,3.4271,-1.7055,8.5537,-0.0412,0.0318,-0.1258,-1.756463190118307,0.0,3.0137834548950195,-1.508531093597412,-0.0,2.1954329013824463,4.36797205984082,0.0,0.30288606882095337,-1.5796378294574183,0.0,0.007116180844604969,1.1707302331924438,-0.0,0.004278763197362423,1.1031246185302734,0.0,0.0166457686573267
137.0,171.0,3.4271,-1.7055,8.5537,-0.0412,0.0318,-0.1258,-1.7564269504942835,0.0,2.9883546829223633,-1.5085114240646362,-0.0,2.2359461784362793,4.367952032680176,0.0,0.29604053497314453,-1.5795896689044397,0.0,-0.005309277214109898,1.1707024574279785,-0.0,-0.006846670527011156,1.1030805110931396,0.0,0.01470047514885664
137.0,171.0,3.4271,-1.7055,8.5537,-0.0412,0.0318,-0.1258,-1.7564670048155726,0.0,3.0019478797912598,-1.5084991455078125,-0.0,2.2052719593048096,4.367960138911865,0.0,0.3080064654350281,-1.5796263853656214,0.0,-0.010352418757975101,1.1707462072372437,-0.0,-0.001133120502345264,1.1031005382537842,0.0,-0.009272202849388123
137.0,171.0,3.4271,-1.7055,8.5537,-0.0412,0.0318,-0.1258,-1.7564670048155726,0.0,2.9789295196533203,-1.50845468044281,-0.0,2.1822075843811035,4.367975874538086,0.0,0.2877289950847626,-1.5796096960650843,0.0,-0.005949106998741627,1.1707103252410889,-0.0,0.0064172097481787205,1.1031488180160522,0.0,0.007204081863164902
137.0,171.0,3.4271,-1.7055,8.5537,-0.0412,0.0318,-0.1258,-1.7564670048155726,0.0,2.975733757019043,-1.5085232257843018,-0.0,2.203678846359253,4.367943449611328,0.0,0.2997898459434509,-1.5796178022967737,0.0,-0.0052442410960793495,1.1707502603530884,-0.0,-0.0065758624114096165,1.1030964851379395,0.0,0.02054130844771862
137.0,171.0,3.4271,-1.7055,8.5537,-0.0412,0.0318,-0.1258,-1.7564426861205042,0.0,2.9880659580230713,-1.5085351467132568,-0.0,2.1924362182617188,4.367963953609131,0.0,0.29612818360328674,-1.579613987599508,0.0,-0.013024132698774338,1.1707062721252441,-0.0,-0.00489684147760272,1.1030645370483398,0.0,-0.001013629138469696
137.0,171.0,3.4271,-1.7055,8.5537,-0.0412,0.0318,-0.1258,-1.7564426861205042,0.0,2.9902424812316895,-1.5084824562072754,-0.0,2.232454299926758,4.367899580592773,0.0,0.29420334100723267,-1.5796344915973108,0.0,-0.01960696280002594,1.1707384586334229,-0.0,-0.013305636122822762,1.1031287908554077,0.0,-0.027167700231075287
137.0,171.0,3.4271,-1.7055,8.5537,-0.0412,0.0318,-0.1258,-1.7564226589598597,0.0,2.9860434532165527,-1.508522868156433,-0.0,2.1955106258392334,4.367983980769775,0.0,0.3009736239910126,-1.5796306769000452,0.0,-0.007987468503415585,1.1707303524017334,-0.0,0.0034679374657571316,1.1030882596969604,0.0,0.01024520955979824
137.0,171.0,3.4271,-1.7055,8.5537,-0.0412,0.0318,-0.1258,-1.756451269189352,0.0,3.027371406555176,-1.5085593461990356,-0.0,2.172820568084717,4.36791913091626,0.0,0.3021957576274872,-1.5795939604388636,0.0,-0.0006906063063070178,1.1707780361175537,-0.0,-0.0028171492740511894,1.1031087636947632,0.0,-0.008041496388614178
137.0,171.0,3.4271,-1.7055,8.5537,-0.0412,0.0318,-0.1258,-1.756435056725973,0.0,2.9553704261779785,-1.508474349975586,-0.0,2.182373046875,4.367963953609131,0.0,0.28839385509490967,-1.5796387831317347,0.0,-0.0037286782171577215,1.1706863641738892,-0.0,-0.0017723831115290523,1.1030526161193848,0.0,-0.010810455307364464
137.0,171.0,3.4271,-1.7055,8.5537,-0.0412,0.0318,-0.1258,-1.7564064464964808,0.0,2.931175708770752,-1.508482575416565,-0.0,2.2087435722351074,4.36797205984082,0.0,0.2884168028831482,-1.579642120991842,0.0,-0.0016975263133645058,1.1706539392471313,-0.0,0.00021067948546260595,1.1031005382537842,0.0,0.01684676483273506
135.0,180.0,3.4367,-1.6899,8.6375,-0.0396,0.025,-0.1206,-1.7564875088133753,0.0,2.9929921627044678,-1.5085151195526123,-0.0,2.171128511428833,4.3679234224506835,0.0,0.3089301884174347,-1.5796220938311976,0.0,0.0036443648859858513,1.1707146167755127,-0.0,0.006839718669652939,1.1030845642089844,0.0,0.009306849911808968
135.0,180.0,3.4367,-1.6899,8.6375,-0.0396,0.025,-0.1206,-1.756446977654928,0.0,3.0204269886016846,-1.5085351467132568,-0.0,2.131391763687134,4.367935343379639,0.0,0.2938683032989502,-1.579585377370016,0.0,-0.009589910507202148,1.1706904172897339,-0.0,-0.0039742812514305115,1.1030685901641846,0.0,0.03306007385253906
135.0,180.0,3.4367,-1.6899,8.6375,-0.0396,0.025,-0.1206,-1.7564546070494593,0.0,2.9753780364990234,-1.5085110664367676,-0.0,2.1782917976379395,4.367931528682373,0.0,0.2887887954711914,-1.5796096960650843,0.0,-0.005311833694577217,1.170682430267334,-0.0,-0.009075782261788845,1.1031005382537842,0.0,-0.016709858551621437
135.0,180.0,3.4367,-1.6899,8.6375,-0.0396,0.025,-0.1206,-1.7564665279784144,0.0,3.031687021255493,-1.508482575416565,-0.0,2.179250955581665,4.367947741145752,0.0,0.29179850220680237,-1.5796306769000452,0.0,0.008405584841966629,1.1707181930541992,-0.0,-0.007920105941593647,1.103104591369629,0.0,0.01579078659415245
135.0,180.0,3.4367,-1.6899,8.6375,-0.0396,0.025,-0.1206,-1.756475111047262,0.0,3.005614995956421,-1.5085110664367676,-0.0,2.1598119735717773,4.367915316218994,0.0,0.2943299412727356,-1.5796096960650843,0.0,0.003892802633345127,1.1707062721252441,-0.0,0.00652759475633502,1.1030964851379395,0.0,-0.0480232834815979
135.0,180.0,3.4367,-1.6899,8.6375,-0.0396,0.025,-0.1206,-1.756446977654928,0.0,3.009660243988037,-1.5085151195526123,-0.0,2.1738080978393555,4.3679515558430175,0.0,0.2970677614212036,-1.579613987599508,0.0,-0.01067248173058033,1.1707183122634888,-0.0,-0.0022405285853892565,1.103068232536316,0.0,0.005687538534402847
135.0,180.0,3.4367,-1.6899,8.6375,-0.0396,0.025,-0.1206,-1.756446977654928,0.0,3.0114176273345947,-1.508531093597412,-0.0,2.19693660736084,4.36791913091626,0.0,0.28795570135116577,-1.5796344915973108,0.0,-0.003944196738302708,1.1706904172897339,-0.0,0.0007401141338050365,1.1030722856521606,0.0,0.0020605656318366528
135.0,180.0,3.4367,-1.6899,8.6375,-0.0396,0.025,-0.1206,-1.7564994297423304,0.0,3.043294668197632,-1.5084742307662964,-0.0,2.156522274017334,4.3679234224506835,0.0,0.29362162947654724,-1.5796707312213343,0.0,-0.019170323386788368,1.1706825494766235,-0.0,-0.002945148851722479,1.103124976158142,0.0,0.005472707562148571
135.0,180.0,3.4367,-1.6899,8.6375,-0.0396,0.025,-0.1206,-1.7564269504942835,0.0,2.975490093231201,-1.5085031986236572,-0.0,2.155334234237671,4.36797205984082,0.0,0.29169392585754395,-1.5796306769000452,0.0,-0.008688573725521564,1.1707103252410889,-0.0,-0.0027475617825984955,1.1030603647232056,0.0,0.050529561936855316
135.0,180.0,3.4367,-1.6899,8.6375,-0.0396,0.025,-0.1206,-1.7564670048155726,0.0,2.9602043628692627,-1.508507251739502,-0.0,2.207592487335205,4.367960138911865,0.0,0.29896068572998047,-1.5796378294574183,0.0,0.004961575847119093,1.170734167098999,-0.0,-0.009743458591401577,1.1031209230422974,0.0,0.018252957612276077
135.0,180.0,3.4367,-1.6899,8.6375,-0.0396,0.025,-0.1206,-1.756451269189352,0.0,2.9747467041015625,-1.508538842201233,-0.0,2.165464162826538,4.367968245143555,0.0,0.3056159019470215,-1.5796220938311976,0.0,-0.010464638471603394,1.170714259147644,-0.0,-0.0014378230553120375,1.1031405925750732,0.0,0.040084172040224075
135.0,180.0,3.4367,-1.6899,8.6375,-0.0396,0.025,-0.1206,-1.7564145527281703,0.0,2.9841742515563965,-1.508510947227478,-0.0,2.179426670074463,4.367903872127197,0.0,0.28238844871520996,-1.5796263853656214,0.0,-0.0012674364261329174,1.1707181930541992,-0.0,-0.006277444772422314,1.1031005382537842,0.0,0.010892102494835854
135.0,180.0,3.4367,-1.6899,8.6375,-0.0396,0.025,-0.1206,-1.7564388714232386,0.0,2.9743685722351074,-1.5085314512252808,-0.0,2.1969919204711914,4.3679515558430175,0.0,0.29125434160232544,-1.5796263853656214,0.0,-0.017096417024731636,1.1707183122634888,-0.0,-0.0019702045246958733,1.1031005382537842,0.0,-0.04919400438666344
140.0,179.0,3.4756,-1.6869,8.5113,-0.0321,0.0249,-0.1217,-1.756503244439596,0.0,3.023904800415039,-1.5084949731826782,-0.0,2.1862740516662598,4.36791102468457,0.0,0.3041016161441803,-1.579618279133932,0.0,-0.010718713514506817,1.170742154121399,-0.0,-0.006455237045884132,1.1031365394592285,0.0,-0.007327414583414793
140.0,179.0,3.4756,-1.6869,8.5113,-0.0321,0.0249,-0.1217,-1.7564426861205042,0.0,2.9718258380889893,-1.5085433721542358,-0.0,2.176074504852295,4.367955847377441,0.0,0.2843419313430786,-1.5796263853656214,0.0,-0.0006157318130135536,1.1707501411437988,-0.0,-0.001519515411928296,1.1031410694122314,0.0,0.008115789853036404
140.0,179.0,3.4756,-1.6869,8.5113,-0.0321,0.0249,-0.1217,-1.7564784489073695,0.0,2.950826644897461,-1.5085110664367676,-0.0,2.1871988773345947,4.367947741145752,0.0,0.2985171973705292,-1.579602066670553,0.0,0.004744182340800762,1.1707102060317993,-0.0,0.00656666187569499,1.1031087636947632,0.0,-0.03934187442064285
140.0,179.0,3.4756,-1.6869,8.5113,-0.0321,0.0249,-0.1217,-1.7564832172789515,0.0,2.9867169857025146,-1.5085232257843018,-0.0,2.1692183017730713,4.367943449611328,0.0,0.3032877743244171,-1.579613987599508,0.0,-0.002395368181169033,1.1707302331924438,-0.0,-0.004980321973562241,1.1030563116073608,0.0,-0.008678941056132317
140.0,179.0,3.4756,-1.6869,8.5113,-0.0321,0.0249,-0.1217,-1.7564712963499964,0.0,2.9973855018615723,-1.508527398109436,-0.0,2.2283542156219482,4.367943449611328,0.0,0.2973562479019165,-1.579613987599508,0.0,0.0001301444717682898,1.170722246170044,-0.0,-0.00793050043284893,1.1030964851379395,0.0,0.02318420261144638
140.0,179.0,3.4756,-1.6869,8.5113,-0.0321,0.0249,-0.1217,-1.7564269504942835,0.0,2.977661609649658,-1.5085511207580566,-0.0,2.202543258666992,4.3679796892353515,0.0,0.28849443793296814,-1.5796344915973108,0.0,0.0028369352221488953,1.170722246170044,-0.0,0.0013513044686987996,1.1031005382537842,0.0,0.018870985135436058
140.0,179.0,3.4756,-1.6869,8.5113,-0.0321,0.0249,-0.1217,-1.7564670048155726,0.0,3.0035243034362793,-1.508531093597412,-0.0,2.199110507965088,4.367940111751221,0.0,0.2900542616844177,-1.5796063582049769,0.0,-0.016332583501935005,1.1706658601760864,-0.0,-0.013002445921301842,1.1031005382537842,0.0,-0.021778114140033722
140.0,179.0,3.4756,-1.6869,8.5113,-0.0321,0.0249,-0.1217,-1.756475111047262,0.0,3.026721477508545,-1.5085511207580566,-0.0,2.1709277629852295,4.367952032680176,0.0,0.2998496890068054,-1.5796626249896448,0.0,-0.007413838990032673,1.170734167098999,-0.0,0.006923013366758823,1.1030964851379395,0.0,-0.003346524201333523
140.0,179.0,3.4756,-1.6869,8.5113,-0.0321,0.0249,-0.1217,-1.7564226589598597,0.0,2.9511280059814453,-1.5084906816482544,-0.0,2.2056350708007812,4.367952032680176,0.0,0.300087571144104,-1.579618279133932,0.0,-0.011072072200477123,1.1707302331924438,-0.0,-0.007984815165400505,1.1031005382537842,0.0,0.004548340570181608
140.0,179.0,3.4756,-1.6869,8.5113,-0.0321,0.0249,-0.1217,-1.7564307651915492,0.0,2.9306392669677734,-1.508474349975586,-0.0,2.1636204719543457,4.3679515558430175,0.0,0.2973635196685791,-1.579613987599508,0.0,-0.013987169601023197,1.1707103252410889,-0.0,-0.003970291465520859,1.1030842065811157,0.0,-0.008478108793497086
140.0,179.0,3.4756,-1.6869,8.5113,-0.0321,0.0249,-0.1217,-1.756475111047262,0.0,2.9598913192749023,-1.508567214012146,-0.0,2.1965718269348145,4.367927713985107,0.0,0.31106677651405334,-1.5796306769000452,0.0,-0.01176394522190094,1.1707183122634888,-0.0,0.00013855154975317419,1.1031086444854736,0.0,0.005749812815338373
140.0,179.0,3.4756,-1.6869,8.5113,-0.0321,0.0249,-0.1217,-1.7564789257445277,0.0,2.985541343688965,-1.5085468292236328,-0.0,2.1930694580078125,4.367967768306396,0.0,0.3025181293487549,-1.5796263853656214,0.0,0.003858319018036127,1.1706664562225342,-0.0,-0.0019821575842797756,1.1030845642089844,0.0,0.01076297927647829
140.0,179.0,3.4756,-1.6869,8.5113,-0.0321,0.0249,-0.1217,-1.756390234033102,0.0,2.9968223571777344,-1.5085351467132568,-0.0,2.158690929412842,4.3679234224506835,0.0,0.30432409048080444,-1.5796344915973108,0.0,-0.008874758146703243,1.1707501411437988,-0.0,-0.010713414289057255,1.103121042251587,0.0,-0.00397622911259532
137.0,176.0,3.4319,-1.7462,8.6243,-0.0455,0.0234,-0.1249,-1.7564269504942835,0.0,2.94160795211792,-1.508522868156433,-0.0,2.199397087097168,4.367943926448486,0.0,0.293903112411499,-1.5796096960650843,0.0,-0.009755206294357777,1.1707462072372437,-0.0,-0.0027770863380283117,1.103088617324829,0.0,0.009463011287152767
137.0,176.0,3.4319,-1.7462,8.6243,-0.0455,0.0234,-0.1249,-1.756475111047262,0.0,2.9937963485717773,-1.5085314512252808,-0.0,2.2171950340270996,4.367955847377441,0.0,0.2942214012145996,-1.5796387831317347,0.0,0.003967643715441227,1.170722246170044,-0.0,0.0021438049152493477,1.103124976158142,0.0,0.025107305496931076
137.0,176.0,3.4319,-1.7462,8.6243,-0.0455,0.0234,-0.1249,-1.756451269189352,0.0,2.940934896469116,-1.5085151195526123,-0.0,2.18137788772583,4.367943449611328,0.0,0.2967180609703064,-1.5796096960650843,0.0,-2.2303196601569653e-05,1.1707103252410889,-0.0,-0.007729177828878164,1.1031328439712524,0.0,-0.0021995813585817814
137.0,176.0,3.4319,-1.7462,8.6243,-0.0455,0.0234,-0.1249,-1.756451269189352,0.0,3.0121355056762695,-1.508555293083191,-0.0,2.255945920944214,4.367935820216797,0.0,0.3064118027687073,-1.579658333455221,0.0,-0.009377045556902885,1.170702338218689,-0.0,0.004984303377568722,1.1030563116073608,0.0,0.04056777060031891
137.0,176.0,3.4319,-1.7462,8.6243,-0.0455,0.0234,-0.1249,-1.7564708195128382,0.0,3.0407142639160156,-1.5085270404815674,-0.0,2.176736354827881,4.367931528682373,0.0,0.29649338126182556,-1.5796378294574183,0.0,-0.013557893224060535,1.1706665754318237,-0.0,0.0018944586627185345,1.1030524969100952,0.0,0.0028691005427390337
137.0,176.0,3.4319,-1.7462,8.6243,-0.0455,0.0234,-0.1249,-1.7564426861205042,0.0,2.97979736328125,-1.5085471868515015,-0.0,2.225541830062866,4.3679234224506835,0.0,0.286660373210907,-1.579670254384176,0.0,-0.005627153906971216,1.170670509338379,-0.0,-0.005093305371701717,1.1031566858291626,0.0,0.011744989082217216
137.0,176.0,3.4319,-1.7462,8.6243,-0.0455,0.0234,-0.1249,-1.7564832172789515,0.0,2.9940927028656006,-1.5084751844406128,-0.0,2.1574742794036865,4.3679162698933105,0.0,0.29127928614616394,-1.579642120991842,0.0,-0.001576575101353228,1.170742154121399,-0.0,0.009378673508763313,1.1031005382537842,0.0,-0.022820131853222847
137.0,176.0,3.4319,-1.7462,8.6243,-0.0455,0.0234,-0.1249,-1.7564388714232386,0.0,3.0488500595092773,-1.5085430145263672,-0.0,2.2146365642547607,4.3679234224506835,0.0,0.3013002574443817,-1.5795939604388636,0.0,-0.0031113852746784687,1.1707500219345093,-0.0,-0.009042391553521156,1.1031287908554077,0.0,0.006846556905657053
137.0,176.0,3.4319,-1.7462,8.6243,-0.0455,0.0234,-0.1249,-1.7564908466734828,0.0,3.0103063583374023,-1.5084630250930786,-0.0,2.2106523513793945,4.367935820216797,0.0,0.29432356357574463,-1.5796263853656214,0.0,-0.004827023483812809,1.1707103252410889,-0.0,0.010400568135082722,1.1030644178390503,0.0,-0.05929245054721832
137.0,176.0,3.4319,-1.7462,8.6243,-0.0455,0.0234,-0.1249,-1.756435056725973,0.0,2.976792097091675,-1.508507251739502,-0.0,2.1860740184783936,4.367903872127197,0.0,0.2985284924507141,-1.5796378294574183,0.0,-0.008421256206929684,1.1707301139831543,-0.0,-0.008160966448485851,1.1030644178390503,0.0,0.020668266341090202
137.0,176.0,3.4319,-1.7462,8.6243,-0.0455,0.0234,-0.1249,-1.756463190118307,0.0,2.9831066131591797,-1.508519172668457,-0.0,2.239553928375244,4.367940111751221,0.0,0.30276599526405334,-1.579602066670553,0.0,-0.009255444630980492,1.1707063913345337,-0.0,0.004109148867428303,1.1030923128128052,0.0,0.03183791786432266
137.0,176.0,3.4319,-1.7462,8.6243,-0.0455,0.0234,-0.1249,-1.756446977654928,0.0,2.9480996131896973,-1.5085068941116333,-0.0,2.168856143951416,4.367931528682373,0.0,0.2910534143447876,-1.579642120991842,0.0,-0.006493370980024338,1.1707381010055542,-0.0,-0.00504639558494091,1.1030607223510742,0.0,-0.02065177448093891
137.0,176.0,3.4319,-1.7462,8.6243,-0.0455,0.0234,-0.1249,-1.7564426861205042,0.0,2.960270404815674,-1.5085030794143677,-0.0,2.1982016563415527,4.367915316218994,0.0,0.3030594289302826,-1.5796378294574183,0.0,-0.013311102986335754,1.170657992362976,-0.0,-0.004929571878165007,1.103132963180542,0.0,0.001762236701324582
135.0,175.0,3.4923,-1.6433,8.4532,-0.033,0.0212,-0.0794,-1.7564426861205042,0.0,2.973708152770996,-1.5085232257843018,-0.0,2.2175867557525635,4.367927713985107,0.0,0.29904574155807495,-1.5795858542071741,0.0,-0.006002951413393021,1.1706984043121338,-0.0,-0.007997308857738972,1.1031328439712524,0.0,-0.004266747739166021
135.0,175.0,3.4923,-1.6433,8.4532,-0.033,0.0212,-0.0794,-1.7564269504942835,0.0,3.053256034851074,-1.5085031986236572,-0.0,2.1683690547943115,4.3679234224506835,0.0,0.3033621311187744,-1.5796096960650843,0.0,-0.0018705709371715784,1.170670509338379,-0.0,-0.009629186242818832,1.1030763387680054,0.0,0.02170531265437603
135.0,175.0,3.4923,-1.6433,8.4532,-0.033,0.0212,-0.0794,-1.7564870319762171,0.0,2.9625062942504883,-1.5085229873657227,-0.0,2.1364591121673584,4.36794821798291,0.0,0.2939836382865906,-1.5796459356891077,0.0,-0.009069390594959259,1.1706864833831787,-0.0,0.0012726017739623785,1.1030763387680054,0.0,0.005897078663110733
135.0,175.0,3.4923,-1.6433,8.4532,-0.033,0.0212,-0.0794,-1.7564102611937464,0.0,2.935375690460205,-1.5084906816482544,-0.0,2.203995704650879,4.367931528682373,0.0,0.28945523500442505,-1.5796220938311976,0.0,-0.002463473007082939,1.1707580089569092,-0.0,-0.003583496203646064,1.1031287908554077,0.0,0.05614449828863144
135.0,175.0,3.4923,-1.6433,8.4532,-0.033,0.0212,-0.0794,-1.7564426861205042,0.0,2.985264301300049,-1.508531093597412,-0.0,2.151299238204956,4.36789528905835,0.0,0.3070741295814514,-1.5796545187579554,0.0,-0.003834791947156191,1.1707062721252441,-0.0,-0.015823332592844963,1.10308039188385,0.0,-0.02261105552315712
135.0,175.0,3.4923,-1.6433,8.4532,-0.033,0.0212,-0.0794,-1.7564588985838832,0.0,2.977571487426758,-1.5085151195526123,-0.0,2.203688144683838,4.367903872127197,0.0,0.29167044162750244,-1.5796459356891077,0.0,-0.011104393750429153,1.1706578731536865,-0.0,-0.015541022643446922,1.1030964851379395,0.0,0.01860017329454422
135.0,175.0,3.4923,-1.6433,8.4532,-0.033,0.0212,-0.0794,-1.7564832172789515,0.0,2.974776268005371,-1.5085110664367676,-0.0,2.2223238945007324,4.367963953609131,0.0,0.30169031023979187,-1.5795977751361292,0.0,-0.023422222584486008,1.1706984043121338,-0.0,-0.017286375164985657,1.1030882596969604,0.0,0.038441553711891174
135.0,175.0,3.4923,-1.6433,8.4532,-0.033,0.0212,-0.0794,-1.7564269504942835,0.0,3.0141067504882812,-1.5085151195526123,-0.0,2.1894187927246094,4.3678833681293945,0.0,0.2978869676589966,-1.579642120991842,0.0,-0.014830902218818665,1.170722246170044,-0.0,-0.015021631494164467,1.1030685901641846,0.0,-0.019578300416469574
135.0,175.0,3.4923,-1.6433,8.4532,-0.033,0.0212,-0.0794,-1.7564145527281703,0.0,2.9925951957702637,-1.5084989070892334,-0.0,2.227973699569702,4.367927713985107,0.0,0.3049330413341522,-1.579602066670553,0.0,-0.010836949571967125,1.170746088027954,-0.0,-0.012686225585639477,1.1031086444854736,0.0,0.018107421696186066
135.0,175.0,3.4923,-1.6433,8.4532,-0.033,0.0212,-0.0794,-1.7564550838866175,0.0,3.0034775733947754,-1.5085430145263672,-0.0,2.1750195026397705,4.367903872127197,0.0,0.31051474809646606,-1.5796459356891077,0.0,0.002047681249678135,1.1707699298858643,-0.0,-0.008872287347912788,1.1031005382537842,0.0,0.01718795858323574
135.0,175.0,3.4923,-1.6433,8.4532,-0.033,0.0212,-0.0794,-1.7564789257445277,0.0,2.97879958152771,-1.5085433721542358,-0.0,2.1384694576263428,4.367911978358887,0.0,0.2956927716732025,-1.579642120991842,0.0,-0.01184883899986744,1.170765995979309,-0.0,-0.0025186948478221893,1.1031086444854736,0.0,-0.032968055456876755
135.0,175.0,3.4923,-1.6433,8.4532,-0.033,0.0212,-0.0794,-1.7564307651915492,0.0,2.9925484657287598,-1.5085515975952148,-0.0,2.2232542037963867,4.36797205984082,1.357271571578167e-06,0.3007988929748535,-1.5796387831317347,0.0,-0.015049092471599579,1.1707501411437988,-0.0,-0.008622969500720501,1.1030964851379395,0.0,0.00834821816533804
135.0,175.0,3.4923,-1.6433,8.4532,-0.033,0.0212,-0.0794,-1.7564102611937464,0.0,3.001321315765381,-1.5084991455078125,6.43270972513349e-13,2.2126452922821045,4.36794821798291,0.00010807280341396108,0.2859477698802948,-1.579602066670553,0.0,-0.010808480903506279,1.170714259147644,-0.0,0.0038264074828475714,1.1030442714691162,0.0,0.020159414038062096
136.0,173.0,3.5426,-1.8173,8.3498,-0.0379,0.0275,-0.1119,-1.7563826046385707,0.0,2.9897122383117676,-1.5084906816482544,0.0008538611582480371,2.1864194869995117,4.367955847377441,0.00013114468310959637,0.2923722565174103,-1.5796220938311976,0.0,-0.00370098277926445,1.1707580089569092,-0.0,0.00529875885695219,1.1030964851379395,0.0,-0.02091907523572445
136.0,173.0,3.5426,-1.8173,8.3498,-0.0379,0.0275,-0.1119,-1.756435056725973,0.0,2.959994316101074,-1.508519172668457,0.0005791248404420912,2.1285552978515625,4.3679234224506835,9.120445611188188e-05,0.2953178286552429,-1.579618279133932,0.0,0.0021693238522857428,1.1707061529159546,-0.0,-0.004534991458058357,1.1031005382537842,0.0,0.02788357064127922
136.0,173.0,3.5426,-1.8173,8.3498,-0.0379,0.0275,-0.1119,-1.7564269504942835,0.0,2.962869644165039,-1.5085196495056152,0.0005167479976080358,2.169949531555176,4.36797205984082,0.00012974475976079702,0.29534482955932617,-1.5796378294574183,0.0,-0.007231456693261862,1.1707825660705566,-0.0,-0.008833112195134163,1.103116512298584,0.0,-0.002557101659476757
136.0,173.0,3.5426,-1.8173,8.3498,-0.0379,0.0275,-0.1119,-1.7563826046385707,0.0,2.9567317962646484,-1.5084710121154785,0.0005061810952611268,2.2258901596069336,4.367952032680176,0.00015950904344208539,0.29907476902008057,-1.5795934836017054,0.0,-0.017006156966090202,1.1707699298858643,-0.0,-0.007971645332872868,1.103116512298584,0.0,-0.014691232703626156
136.0,173.0,3.5426,-1.8173,8.3498,-0.0379,0.0275,-0.1119,-1.7564031086363734,0.0,2.96897029876709,-1.5084834098815918,0.0004436401359271258,2.210160493850708,4.367952032680176,0.00017244505579583347,0.3022456169128418,-1.579642120991842,0.0,-0.008305766619741917,1.1706784963607788,-0.0,0.004590513650327921,1.1031205654144287,0.0,-0.04195532575249672
136.0,173.0,3.5426,-1.8173,8.3498,-0.0379,0.0275,-0.1119,-1.7564269504942835,0.0,2.9753217697143555,-1.5084989070892334,0.0003276438219472766,2.1877362728118896,4.36797205984082,0.00015077865100465715,0.300342321395874,-1.5796220938311976,0.0,0.0011748112738132477,1.170778512954712,-0.0,-0.0024258121848106384,1.1031405925750732,1.6687428106010316e-09,0.03059830144047737
136.0,173.0,3.5426,-1.8173,8.3498,-0.0379,0.0275,-0.1119,-1.7564064464964808,0.0,2.9977831840515137,-1.5084948539733887,0.0002711997658479959,2.195058822631836,4.367935343379639,0.0001291397784370929,0.29487892985343933,-1.579618279133932,0.0,-0.0076011731289327145,1.1707745790481567,-0.0,-0.0010727441404014826,1.1031086444854736,5.406515018500898e-17,0.001770353177562356
136.0,173.0,3.5426,-1.8173,8.3498,-0.0379,0.0275,-0.1119,-1.7564226589598597,0.0,3.011958122253418,-1.508479356765747,0.00024018016119953245,2.196615695953369,4.367943449611328,0.00011659127630991861,0.29638218879699707,-1.5796263853656214,0.0,-0.0055246008560061455,1.170778512954712,-0.0,0.008666559122502804,1.1031246185302734,1.3056098578756808e-22,0.01908070221543312
136.0,173.0,3.5426,-1.8173,8.3498,-0.0379,0.0275,-0.1119,-1.7564226589598597,0.0,2.9998040199279785,-1.50845468044281,0.0002083990111714229,2.1985809803009033,4.367963953609131,0.00010321820445824414,0.2963719367980957,-1.579613987599508,0.0,-0.00952698290348053,1.170765995979309,-0.0,-0.00327654043212533,1.1031005382537842,4.2300105909820215e-30,-0.006595388520509005
136.0,173.0,3.5426,-1.8173,8.3498,-0.0379,0.0275,-0.1119,-1.7563826046385707,0.0,3.007880926132202,-1.5084989070892334,0.0001895850436994806,2.1856040954589844,4.3679796892353515,0.00013079795462545007,0.29754871129989624,-1.5796220938311976,0.0,0.0035581367556005716,1.1707302331924438,-0.0,-0.015404305420815945,1.103104591369629,0.0002853588084690273,0.034892432391643524
136.0,173.0,3.5426,-1.8173,8.3498,-0.0379,0.0275,-0.1119,-1.7563744984068812,0.0,2.9972620010375977,-1.5085355043411255,0.00016921592759899795,2.1601860523223877,4.367955370540283,0.00014102630666457117,0.29856693744659424,-1.5796459356891077,0.0,-0.00910541508346796,1.1707580089569092,-0.0,-0.008835517801344395,1.1031444072723389,0.00027318872162140906,0.008548364974558353
136.0,173.0,3.5426,-1.8173,8.3498,-0.0379,0.0275,-0.1119,-1.7564064464964808,0.0,2.969557046890259,-1.5084751844406128,0.0001565974234836176,2.2178525924682617,4.367967291469238,0.00015328657173085958,0.30431827902793884,-1.5796263853656214,0.0,-0.00019496073946356773,1.170765995979309,-0.0,-0.00596229825168848,1.1031447649002075,0.00023724530183244497,0.0014517572708427906
136.0,173.0,3.5426,-1.8173,8.3498,-0.0379,0.0275,-0.1119,-1.7564107380309046,0.0,2.9414010047912598,-1.5084750652313232,5.40311993972864e-05,2.2100777626037598,4.368015452022217,0.0001397724263370037,0.2892574667930603,-1.5795977751361292,0.0,-0.015919987112283707,1.170746088027954,-0.0,-0.009578222408890724,1.1031205654144287,0.0001681520079728216,-0.011087102815508842
134.0,169.0,3.1998,-1.5685,8.5783,-0.044,0.0212,-0.1208,-1.7564431629576625,0.0,2.979224681854248,-1.5084751844406128,2.430417407595087e-05,2.1931803226470947,4.36799590169873,0.00013104977551847696,0.31241893768310547,-1.5796263853656214,0.0,0.00896979309618473,1.1706904172897339,-0.0,-0.01603338122367859,1.1031205654144287,0.00015120154421310872,0.018042078241705894
134.0,169.0,3.1998,-1.5685,8.5783,-0.044,0.0212,-0.1208,-1.7564269504942835,0.0,2.995217800140381,-1.5085351467132568,4.253021046451977e-09,2.2187836170196533,4.367931528682373,0.0001233519724337384,0.30207812786102295,-1.5796306769000452,0.0,0.005948913283646107,1.170765995979309,-0.0,-0.007141887675970793,1.103112816810608,0.00013735580432694405,0.001969732576981187
134.0,169.0,3.1998,-1.5685,8.5783,-0.044,0.0212,-0.1208,-1.7563983402647914,3.7893383705522865e-05,3.0074281692504883,-1.5085151195526123,1.377924875929122e-16,2.1906588077545166,4.367947741145752,0.00011439266381785274,0.30390608310699463,-1.579642120991842,0.0,-0.0019818441942334175,1.170746088027954,-0.0,-0.0029857733752578497,1.1030603647232056,0.00012241005606483668,0.04589984565973282
134.0,169.0,3.1998,-1.5685,8.5783,-0.044,0.0212,-0.1208,-1.7564269504942835,1.7849863070296124e-05,2.9526562690734863,-1.5085549354553223,3.3275258649667036e-22,2.1808431148529053,4.367907209987305,0.00010848314559552819,0.3152996897697449,-1.5796297232257288,0.0,-0.015108228661119938,1.1706825494766235,-0.0,-0.0029323750641196966,1.1031328439712524,0.00011317414464429021,0.012767544016242027
134.0,169.0,3.1998,-1.5685,8.5783,-0.044,0.0212,-0.1208,-1.7564393482603968,1.6513380614924245e-05,2.9687724113464355,-1.5085433721542358,1.0780760746419586e-29,2.210495948791504,4.367899580592773,6.17097903159447e-05,0.2827126383781433,-1.5796015898333948,0.0,0.010996993631124496,1.1706863641738892,-0.0,-0.005918744020164013,1.1031525135040283,0.00010282956645824015,-0.01265846099704504
134.0,169.0,3.1998,-1.5685,8.5783,-0.044,0.0212,-0.1208,-1.7564269504942835,1.5651839930796996e-05,2.9814252853393555,-1.5084785223007202,2.603426974441438e-35,2.2406978607177734,4.367935820216797,5.594558024313301e-05,0.29030314087867737,-1.5796378294574183,0.0,-0.00539699662476778,1.1707864999771118,-0.0,-0.0019206743454560637,1.1031287908554077,9.623255027690902e-05,-0.01385258324444294
134.0,169.0,3.1998,-1.5685,8.5783,-0.044,0.0212,-0.1208,-1.7564145527281703,2.9267706850077957e-05,2.991241455078125,-1.5084751844406128,8.435816755235399e-43,2.2635698318481445,4.367943449611328,7.463451765943319e-05,0.3008631467819214,-1.5796306769000452,0.0,0.007953678257763386,1.1706984043121338,-0.0,0.001834345981478691,1.1031246185302734,8.864959090715274e-05,0.0030757214408367872
134.0,169.0,3.1998,-1.5685,8.5783,-0.044,0.0212,-0.1208,-1.7564870319762171,2.790646794892382e-05,2.9820194244384766,-1.5085351467132568,-0.0,2.1741764545440674,4.367943926448486,6.8922177888453e-05,0.2912660837173462,-1.5796263853656214,0.0,-0.011029785498976707,1.1707381010055542,-0.0,-0.006485892925411463,1.1030842065811157,8.370277646463364e-05,0.023257186636328697
134.0,169.0,3.1998,-1.5685,8.5783,-0.044,0.0212,-0.1208,-1.7564426861205042,1.3317366210685577e-05,3.0126571655273438,-1.508519172668457,-0.0,2.1549339294433594,4.367959662074707,5.8047539823746774e-06,0.29711925983428955,-1.5796335379229944,0.0,-0.010503229685127735,1.1707381010055542,-0.0,-0.007714473642408848,1.1030882596969604,6.414558447431773e-05,-0.015058757737278938
134.0,169.0,3.1998,-1.5685,8.5783,-0.044,0.0212,-0.1208,-1.7564951382079066,1.2587225683091674e-05,3.018643856048584,-1.508531093597412,-6.797951937187463e-05,2.1287014484405518,4.367959662074707,-4.5313678128877655e-05,0.3064967095851898,-1.5796058813678187,0.0,-0.014155452139675617,1.170742154121399,-0.0,0.00525181507691741,1.1030964851379395,5.938565664109774e-05,-0.03568252921104431
134.0,169.0,3.1998,-1.5685,8.5783,-0.044,0.0212,-0.1208,-1.7564388714232386,3.496358801438615e-12,2.936638355255127,-1.5085151195526123,-3.3522625017212704e-05,2.177731513977051,4.36800400793042,-3.772723357542418e-05,0.29396775364875793,-1.5796378294574183,0.0,-0.005239714868366718,1.1706745624542236,-0.0,-0.0028210619930177927,1.1030964851379395,1.7767242752597667e-05,-0.013526184484362602
134.0,169.0,3.1998,-1.5685,8.5783,-0.044,0.0212,-0.1208,-1.756475111047262,8.443295555763545e-18,2.981668472290039,-1.5084588527679443,-3.0153079933370464e-05,2.219101905822754,4.367968245143555,-3.3512078516650945e-05,0.2946394085884094,-1.579658333455221,0.0,0.0036611175164580345,1.1706944704055786,-0.0,-0.007884535007178783,1.1031405925750732,1.677383806963917e-05,0.004125348292291164
134.0,169.0,3.1998,-1.5685,8.5783,-0.044,0.0212,-0.1208,-1.7564870319762171,2.7355208816022914e-25,3.0329504013061523,-1.5084906816482544,-2.9715034543187357e-05,2.1833386421203613,4.367940111751221,-2.916731682489626e-05,0.29025861620903015,-1.5796664396869105,0.0,-0.0012304042465984821,1.1707183122634888,-0.0,0.0010855485452339053,1.103104591369629,1.5610126865794882e-05,0.0463385172188282
138.0,176.0,3.8315,-1.5793,8.6411,-0.0353,0.0148,-0.1197,-1.7564507923521937,6.605961338344274e-31,2.9678664207458496,-1.5084670782089233,-1.1544681655095701e-07,2.1822926998138428,4.3679234224506835,-2.6582556529319845e-05,0.29708194732666016,-1.5796502272235315,0.0,-0.0018158693565055728,1.170734167098999,-0.0,0.008517034351825714,1.1031488180160522,1.4838059541943949e-05,0.023790158331394196
138.0,176.0,3.8315,-1.5793,8.6411,-0.0353,0.0148,-0.1197,-1.7564388714232386,1.595261848126225e-36,3.0263586044311523,-1.508462905883789,-2.7879047269536994e-13,2.2447023391723633,4.36797205984082,-2.441872493363917e-05,0.3003903329372406,-1.579658333455221,0.0,0.004855746403336525,1.1707777976989746,-0.0,0.003352248575538397,1.1030763387680054,1.4138752703729551e-05,-0.01691538840532303
138.0,176.0,3.8315,-1.5793,8.6411,-0.0353,0.0148,-0.1197,-1.756446977654928,5.184804318001823e-44,3.014779567718506,-1.5084669589996338,0.0007977602072060108,2.217263698577881,4.367919607753418,-2.2027936211088672e-05,0.2977144122123718,-1.5796502272235315,0.0,-0.010277409106492996,1.1707024574279785,-0.0,-0.009283569641411304,1.1031328439712524,1.330283976130886e-05,-0.039723943918943405
138.0,176.0,3.8315,-1.5793,8.6411,-0.0353,0.0148,-0.1197,-1.7564145527281703,0.00013344512262847275,2.996988296508789,-1.5084389448165894,0.0005212008836679161,2.1815128326416016,4.367935820216797,-2.0521065380307846e-05,0.3035895824432373,-1.5796096960650843,0.0,-0.008549959398806095,1.1706825494766235,-0.0,-0.02240370213985443,1.1031447649002075,1.2738005352730397e-05,-0.037568166851997375
138.0,176.0,3.8315,-1.5793,8.6411,-0.0353,0.0148,-0.1197,-1.756463190118307,0.00010293999366695061,3.0092294216156006,-1.5084750652313232,0.00035613117506727576,2.2050318717956543,4.36791102468457,-3.729601905089197e-10,0.30477142333984375,-1.5796220938311976,0.0,-0.012435265816748142,1.1707103252410889,-0.0,0.00046967784874141216,1.1031324863433838,1.2055515071551781e-05,-0.0267067588865757
138.0,176.0,3.8315,-1.5793,8.6411,-0.0353,0.0148,-0.1197,-1.7564064464964808,8.786351099843159e-05,2.9755351543426514,-1.5084308385849,0.00034534401493147016,2.1924662590026855,4.367979212398193,-1.0381483812795661e-13,0.3125806152820587,-1.5796578566180628,0.0,-0.004169465973973274,1.1706706285476685,-0.0,0.003877872135490179,1.1031242609024048,3.3418185921618715e-05,-0.02691357582807541
138.0,176.0,3.8315,-1.5793,8.6411,-0.0353,0.0148,-0.1197,-1.7563945255675257,7.350966188823804e-05,2.9806456565856934,-1.5084710121154785,0.00036664490471594036,2.196450710296631,4.368023558253906,-1.8867832608018176e-18,0.30726248025894165,-1.5796979109393519,-5.419063313638617e-07,-0.001958416076377034,1.170662760734558,-0.0,-0.003306012600660324,1.1032052040100098,0.0002018300729105249,-0.10660138726234436
138.0,176.0,3.8315,-1.5793,8.6411,-0.0353,0.0148,-0.1197,-1.7564064464964808,6.548604142153636e-05,2.9805469512939453,-1.5084677934646606,0.00028772151563316584,2.2008743286132812,4.368000193233154,0.0009045140468515456,0.2937871813774109,-1.579686466847555,-1.5084164473044837e-10,0.0035974401980638504,1.1707738637924194,-0.0,0.0069890860468149185,1.103232741355896,0.0038557779043912888,0.006227574311196804
138.0,176.0,3.8315,-1.5793,8.6411,-0.0353,0.0148,-0.1197,-1.7564031086363734,0.00014175724936649203,2.997760057449341,-1.5084750652313232,0.0008269654354080558,2.172647476196289,4.36802784978833,0.000750778941437602,0.30698415637016296,-1.5796940962420862,-2.7414725322489047e-15,-0.0032787658274173737,1.1707261800765991,-0.0,0.008813727647066116,1.1032449007034302,0.006937574595212936,0.0015165749937295914
138.0,176.0,3.8315,-1.5793,8.6411,-0.0353,0.0148,-0.1197,-1.7563826046385707,0.00023378974583465606,2.9834070205688477,-1.5084476470947266,0.0016889212420210242,2.2077159881591797,4.36799590169873,0.0005494441138580441,0.29022708535194397,-1.5796578566180628,-7.630987754021798e-19,0.0009827171452343464,1.170722246170044,-0.0,-0.0011192660313099623,1.1033248901367188,0.008545235730707645,-0.021364904940128326
138.0,176.0,3.8315,-1.5793,8.6411,-0.0353,0.0148,-0.1197,-1.7564064464964808,0.0007122877286747098,2.968064308166504,-1.5084677934646606,0.0015411460772156715,2.2226290702819824,4.368011637324951,0.0004159810778219253,0.3071397542953491,-1.5796621481524866,-1.3868943064307073e-23,-0.009492794051766396,1.1707261800765991,-0.0,-0.014325515367090702,1.1033244132995605,0.00844285823404789,0.004766158293932676
138.0,176.0,3.8315,-1.5793,8.6411,-0.0353,0.0148,-0.1197,-1.756435056725973,0.00048636976862326264,2.996089220046997,-1.508391261100769,0.001119882334023714,2.2074334621429443,4.36799590169873,0.0003378511464688927,0.312723845243454,-1.5796940962420862,-3.860471106741816e-27,-0.010563541203737259,1.1707777976989746,-0.0,0.007711945101618767,1.1034048795700073,0.0068283905275166035,-0.029552597552537918
138.0,176.0,3.8315,-1.5793,8.6411,-0.0353,0.0148,-0.1197,-1.7564226589598597,0.0002716193557716906,2.9865317344665527,-1.5083867311477661,0.0006045956397429109,2.1690428256988525,4.36799590169873,0.000270201766397804,0.2959465980529785,-1.5796659628497522,-7.016216037296792e-32,-0.020706981420516968,1.1707619428634644,-0.0,-0.009854298084974289,1.1034646034240723,0.004001203924417496,0.06476873904466629
136.0,171.0,3.3769,-2.144,8.7649,-0.0715,0.0307,-0.109,-1.7564307651915492,0.00016611168393865228,3.009031295776367,-1.5083825588226318,8.280793554149568e-05,2.206449031829834,4.367991610164307,0.00023492709442507476,0.298442006111145,-1.5796578566180628,-1.9529891585358178e-35,-0.007707966025918722,1.1706786155700684,-0.0,-0.008434588089585304,1.103476881980896,0.0022707171738147736,0.029109006747603416
136.0,171.0,3.3769,-2.144,8.7649,-0.0715,0.0307,-0.109,-1.7564269504942835,0.00013330025831237435,2.9816529750823975,-1.5083825588226318,2.6828717199223195e-12,2.186025619506836,4.36800400793042,0.0002000991953536868,0.2934156060218811,-1.5796459356891077,-3.549460984165475e-40,0.0074808853678405285,1.1707103252410889,-0.0,-0.004575558938086033,1.103448748588562,0.001877178205177188,0.02508753538131714
136.0,171.0,3.3769,-2.144,8.7649,-0.0715,0.0307,-0.109,-1.7563945255675257,0.00011610250658122823,3.0031211376190186,-1.5084189176559448,6.4788193559276846e-18,2.185147762298584,4.367999239558838,0.00018007791368290782,0.2924985885620117,-1.5796664396869105,-9.949219096706201e-44,-0.003438984276726842,1.1706905364990234,-0.0,0.00823988113552332,1.1034523248672485,0.001489149872213602,0.01863805577158928
136.0,171.0,3.3769,-2.144,8.7649,-0.0715,0.0307,-0.109,-1.756395002404684,0.0001369499950669706,3.0018725395202637,-1.5084151029586792,1.5645585618331437e-23,2.2105462551116943,4.36802784978833,0.0001636991073610261,0.29837262630462646,-1.5797060171710413,-0.0,0.009703656658530235,1.170742154121399,-0.0,-0.0021970560774207115,1.1034563779830933,0.0010972133604809642,0.0008507817983627319
136.0,171.0,3.3769,-2.144,8.7649,-0.0715,0.0307,-0.109,-1.7563868961729945,7.166043360484764e-05,2.993009328842163,-1.5084151029586792,5.0689700310000505e-31,2.2100188732147217,4.36799590169873,0.00017032629693858325,0.2874240279197693,-1.5796740690814417,-0.0,0.003699621884152293,1.170782446861267,-0.0,-0.003535326337441802,1.1034163236618042,0.0006823243456892669,-0.0007110877195373178
136.0,171.0,3.3769,-2.144,8.7649,-0.0715,0.0307,-0.109,-1.756418844262594,0.00012785647413693368,2.934171676635742,-1.5083907842636108,0.0011271982220932841,2.1675102710723877,4.368019743556641,0.0001575478963786736,0.29831668734550476,-1.5796902815448206,-0.0,-0.012095565907657146,1.170734167098999,-0.0,-0.010643570683896542,1.1034609079360962,0.00046483552432619035,0.026452194899320602
136.0,171.0,3.3769,-2.144,8.7649,-0.0715,0.0307,-0.109,-1.7563911877074183,0.0006438457639887929,3.029633045196533,-1.5084396600723267,0.0022438745945692062,2.1812028884887695,4.367959185237549,0.00014322092465590686,0.3021068871021271,-1.5796821753131312,-0.0,-0.01031524408608675,1.1707262992858887,-0.0,-0.0029986375011503696,1.103428602218628,0.0003588933905120939,0.008228668943047523
136.0,171.0,3.3769,-2.144,8.7649,-0.0715,0.0307,-0.109,-1.756418844262594,0.00028473694692365825,2.971230983734131,-1.508379340171814,0.0036023620050400496,2.2081360816955566,4.367971106166504,8.92273019417189e-05,0.29756027460098267,-1.5796940962420862,-0.0,0.007640916854143143,1.1707062721252441,-0.0,-0.0015402210410684347,1.1034084558486938,0.00017059202946256846,0.014137123711407185
136.0,171.0,3.3769,-2.144,8.7649,-0.0715,0.0307,-0.109,-1.756435056725973,8.663046173751354e-05,2.9738082885742188,-1.5083590745925903,0.003998639527708292,2.210696220397949,4.367983503932617,3.891781307174824e-05,0.29828622937202454,-1.5796783606158655,-0.0,-0.01121656782925129,1.1706944704055786,-0.0,-0.011679884046316147,1.1034245491027832,8.125943713821471e-05,-0.026546189561486244
136.0,171.0,3.3769,-2.144,8.7649,-0.0715,0.0307,-0.109,-1.7563945255675257,4.087999982971269e-08,2.9481992721557617,-1.5083476305007935,0.0035058532375842333,2.211419105529785,4.367955370540283,1.8432980141369626e-05,0.2967526912689209,-1.5796697775470179,-0.0,8.408376015722752e-05,1.1707500219345093,-0.0,-0.01166013814508915,1.103428602218628,7.156640640459955e-05,-0.004342359025031328
136.0,171.0,3.3769,-2.144,8.7649,-0.0715,0.0307,-0.109,-1.7564474544920863,1.324459997479753e-15,2.982494592666626,-1.5083270072937012,0.0028925274964421988,2.192110061645508,4.367959185237549,1.6900610717129894e-05,0.29587048292160034,-1.5796740690814417,-0.0,-0.008513068780303001,1.1707420349121094,-0.0,-0.00033197819720953703,1.103440523147583,6.174617010401562e-05,0.013384736143052578
136.0,171.0,3.3769,-2.144,8.7649,-0.0715,0.0307,-0.109,-1.7564026317992152,3.1984148055229317e-21,2.9835739135742188,-1.5083191394805908,0.0025017238222062588,2.2268896102905273,4.367927713985107,1.5999283277778886e-05,0.3057975471019745,-1.5796979109393519,-0.0,-0.013799694366753101,1.1707261800765991,-0.0,-5.642441101372242e-05,1.1034770011901855,8.384386455873027e-05,-0.07100070267915726
136.0,171.0,3.3769,-2.144,8.7649,-0.0715,0.0307,-0.109,-1.7563864193358363,1.0362457639832016e-28,2.960866928100586,-1.5082871913909912,0.0019196737557649612,2.1886239051818848,4.367983503932617,1.4937120795366354e-05,0.29328396916389465,-1.5796902815448206,-0.0,0.001802245620638132,1.1707459688186646,-0.0,-0.011151863262057304,1.1034846305847168,9.922244498739019e-05,0.010265976190567017
140.0,174.0,3.2261,-2.0955,8.528,-0.0486,0.0264,-0.1232,-1.756435056725973,2.5024118890734192e-34,2.958611011505127,-1.5082871913909912,0.0019839380402117968,2.1591591835021973,4.367983503932617,1.422865898348391e-05,0.30079352855682373,-1.5796902815448206,-0.0,-0.0027776751667261124,1.1706866025924683,-0.0,-0.00047176412772387266,1.1035125255584717,0.0012195088202133775,-0.008213122375309467
140.0,174.0,3.2261,-2.0955,8.528,-0.0486,0.0264,-0.1232,-1.7564388714232386,8.107912914583392e-42,2.9752800464630127,-1.5082709789276123,0.002025844994932413,2.179819107055664,4.36800400793042,1.3382390534388833e-05,0.2972339391708374,-1.5796979109393519,-6.0624828620348126e-05,-0.006148870103061199,1.1707459688186646,-0.0,-0.0004830973339267075,1.1034801006317139,0.003607708029448986,0.027218161150813103
140.0,174.0,3.2261,-2.0955,8.528,-0.0486,0.0264,-0.1232,-1.756435056725973,0.0,3.0150671005249023,-1.5082792043685913,0.0018451046198606491,2.196620225906372,4.3679515558430175,6.498788479802897e-06,0.2876090407371521,-1.5797465483294886,-6.41066872049123e-05,0.005881942342966795,1.1707261800765991,-0.0,-0.011821316555142403,1.1035244464874268,0.00423043267801404,-0.01392299309372902
140.0,174.0,3.2261,-2.0955,8.528,-0.0486,0.0264,-0.1232,-1.7564059696593226,-0.00030046948813833296,2.9798760414123535,-1.5082472562789917,0.0013376016868278384,2.1801598072052,4.367991610164307,1.8089617581651396e-09,0.30157819390296936,-1.5797184149371546,-6.740163371432573e-05,-0.0052912672981619835,1.1707024574279785,-0.0,-0.006794735323637724,1.103613257408142,0.004549289587885141,-0.02018793486058712
140.0,174.0,3.2261,-2.0955,8.528,-0.0486,0.0264,-0.1232,-1.7564951382079066,-0.00033257255563512444,2.990609645843506,-1.5082029104232788,0.0010027550160884857,2.194246292114258,4.368000193233154,3.28769875364808e-14,0.2885220944881439,-1.5796697775470179,-7.489688869100064e-05,-0.006427128799259663,1.1707181930541992,-0.0,-0.0052292984910309315,1.1036090850830078,0.004259332083165646,-0.03334319591522217
140.0,174.0,3.2261,-2.0955,8.528,-0.0486,0.0264,-0.1232,-1.756519456902975,-0.000612870731856674,2.978687047958374,-1.5082073211669922,0.0011588295456022024,2.2160186767578125,4.367975874538086,9.151430816099779e-18,0.29896247386932373,-1.5797184149371546,-7.231844210764393e-05,-0.003547783475369215,1.1707262992858887,-0.0,0.0029170759953558445,1.1035841703414917,0.0035048588179051876,-0.007619014009833336
140.0,174.0,3.2261,-2.0955,8.528,-0.0486,0.0264,-0.1232,-1.7564665279784144,-0.0004920009523630142,2.9621214866638184,-1.5081707239151,0.0026735947467386723,2.206958293914795,4.36799590169873,1.6632272643742705e-22,0.3106704652309418,-1.5797346274005335,-1.997275830945e-05,-0.0010634047212079167,1.1706700325012207,-0.0,-0.0008474914357066154,1.103672981262207,0.0021657943725585938,-0.009628009051084518
140.0,174.0,3.2261,-2.0955,8.528,-0.0486,0.0264,-0.1232,-1.756519456902975,-0.00039859418757259846,2.9932594299316406,-1.508195400238037,0.00431626383215189,2.1942145824432373,4.3680030542561035,4.629654246460639e-26,0.2939571738243103,-1.5797060171710413,-5.559490645623555e-09,-0.006587838754057884,1.1706905364990234,-0.0,-0.0030190320685505867,1.1036649942398071,0.0011617388809099793,-0.00017512449994683266
140.0,174.0,3.2261,-2.0955,8.528,-0.0486,0.0264,-0.1232,-1.756519456902975,-0.00031808417406864464,3.0039560794830322,-1.5081353187561035,0.007016828283667564,2.2397103309631348,4.36800400793042,8.41416787448536e-31,0.29570797085762024,-1.5797103087054651,-1.010410152898697e-13,-0.012087758630514145,1.1707618236541748,-0.0,-0.005628804210573435,1.103621006011963,0.0006240377551876009,-0.00439244881272316
140.0,174.0,3.2261,-2.0955,8.528,-0.0486,0.0264,-0.1232,-1.7565075359740199,-0.0002762391231954098,2.9971261024475098,-1.5080509185791016,0.009145872667431831,2.2043819427490234,4.367983503932617,2.3421146376508283e-34,0.286404013633728,-1.5797346274005335,-2.8125136752260455e-17,-0.01162075437605381,1.1707262992858887,-0.0,0.005470220930874348,1.1036487817764282,0.00046332686906680465,-0.0017537251114845276
140.0,174.0,3.2261,-2.0955,8.528,-0.0486,0.0264,-0.1232,-1.7565027676024378,-0.0002672292466741055,2.9302687644958496,-1.5079950094223022,0.01174876932054758,2.208070755004883,4.368007345790527,4.25667670093171e-39,0.29173189401626587,-1.5796778837787073,-5.111604600536916e-22,-0.011016168631613255,1.1706501245498657,-0.0,-0.0014511772897094488,1.1036568880081177,0.00034491962287575006,0.006863300688564777
140.0,174.0,3.2261,-2.0955,8.528,-0.0486,0.0264,-0.1232,-1.7564908466734828,-0.0002262121270177886,3.002054214477539,-1.5079476833343506,0.012370624579489231,2.2268879413604736,4.367994948024414,1.1854985008187952e-42,0.3173132836818695,-1.579714600239889,-1.4228341486015685e-25,-0.01323299016803503,1.1706864833831787,-0.0,-0.004863743204623461,1.1036003828048706,0.000289446470560506,0.020912397652864456
140.0,174.0,3.2261,-2.0955,8.528,-0.0486,0.0264,-0.1232,-1.756514688531393,-0.0009407170000486076,2.996870517730713,-1.507786750793457,0.011950348503887653,2.1941754817962646,4.367955370540283,0.0,0.3017597198486328,-1.5797346274005335,-0.00011131680366815999,-0.005410677287727594,1.170746088027954,-0.0,0.009486649185419083,1.1036688089370728,0.00023834039166104048,0.015643831342458725
135.0,174.0,3.5043,-1.6738,8.549,-0.0218,0.0212,-0.1261,-1.756559511224264,-0.0010448850225657225,2.9851675033569336,-1.507807970046997,0.011139869689941406,2.1662399768829346,4.36800400793042,0.0,0.29088813066482544,-1.5797022024737757,-0.00010424632637295872,-0.007026053965091705,1.1706825494766235,-0.0,-0.005554100498557091,1.1036323308944702,0.00021047041809652,-0.0006415080279111862
135.0,174.0,3.5043,-1.6738,8.549,-0.0218,0.0212,-0.1261,-1.756542821923727,-0.0008921801927499473,2.923124313354492,-1.5077189207077026,0.008874134160578251,2.2076754570007324,4.368003531093262,0.0,0.28930461406707764,-1.579714600239889,-9.540560859022662e-05,-0.015376884490251541,1.1706541776657104,-0.0,-0.009425257332623005,1.1036205291748047,0.00018208217807114124,-0.0018711942248046398
135.0,174.0,3.5043,-1.6738,8.549,-0.0218,0.0212,-0.1261,-1.7565633259215296,-0.0007280764984898269,2.966496467590332,-1.5076349973678589,0.007629130035638809,2.218550682067871,4.36799590169873,0.0,0.29491716623306274,-1.5797303358661097,-0.00010644493158906698,-0.0223886426538229,1.1706984043121338,-0.0,-0.009969494305551052,1.1035398244857788,0.00013781113375443965,0.03427552431821823
135.0,174.0,3.5043,-1.6738,8.549,-0.0218,0.0212,-0.1261,-1.756514688531393,-0.0005517409299500287,2.9800777435302734,-1.5076079368591309,0.007246695924550295,2.181246280670166,4.368019743556641,0.0,0.2967410385608673,-1.5797541777240198,-9.969122766051441e-05,-0.006942869164049625,1.1707065105438232,-0.0,-0.006548423320055008,1.1036245822906494,0.00012275921471882612,0.04969363659620285
135.0,174.0,3.5043,-1.6738,8.549,-0.0218,0.0212,-0.1261,-1.7565471134581507,-0.00043691362952813506,3.003394603729248,-1.5075557231903076,0.0077031017281115055,2.210447311401367,4.368087931270264,0.0,0.2835063636302948,-1.579726521168844,-9.445961040910333e-05,-0.009017759002745152,1.1706740856170654,-0.0,-0.018525825813412666,1.1036126613616943,0.00011347258259775117,0.029741592705249786
135.0,174.0,3.5043,-1.6738,8.549,-0.0218,0.0212,-0.1261,-1.7565390072264613,-0.0003954853455070406,2.9650630950927734,-1.507483720779419,0.008526962250471115,2.2027220726013184,4.367999239558838,0.0,0.2945002019405365,-1.5796979109393519,-8.974975207820535e-05,-0.009424777701497078,1.1706700325012207,-0.0,-0.020412471145391464,1.1036286354064941,0.00010549217404332012,-0.00938148982822895
135.0,174.0,3.5043,-1.6738,8.549,-0.0218,0.0212,-0.1261,-1.7565795383849085,-0.00033613014966249466,3.016775131225586,-1.507386565208435,0.009329935535788536,2.2072174549102783,4.367971583003662,0.0,0.3042716383934021,-1.5796740690814417,-8.415498450631276e-05,-0.005020765122026205,1.1706582307815552,-0.0,-0.028362620621919632,1.1035966873168945,9.644822421250865e-05,0.050015535205602646
135.0,174.0,3.5043,-1.6738,8.549,-0.0218,0.0212,-0.1261,-1.756526609460348,-0.0002249449462397024,2.9578287601470947,-1.5073955059051514,0.009476839564740658,2.2126169204711914,4.368008299464844,0.0,0.2942618131637573,-1.5796979109393519,-8.039626118261367e-05,-0.025314748287200928,1.1706944704055786,-0.0,-0.021013112738728523,1.103616714477539,9.062144818017259e-05,0.0585067942738533
135.0,174.0,3.5043,-1.6738,8.549,-0.0218,0.0212,-0.1261,-1.7565509281554164,-0.0002609047223813832,2.990429162979126,-1.5073115825653076,0.009985902346670628,2.185892343521118,4.368040247554443,0.0,0.29718396067619324,-1.5796859900103968,-7.58774986024946e-05,0.003757364582270384,1.1706582307815552,-0.0,-0.017973370850086212,1.1036486625671387,8.386593253817409e-05,-0.04345281794667244
135.0,174.0,3.5043,-1.6738,8.549,-0.0218,0.0212,-0.1261,-1.7565185032286585,-0.0002664425119291991,2.97265625,-1.5072680711746216,0.010633180849254131,2.217182159423828,4.367967291469238,0.0,0.2996784448623657,-1.5796459356891077,-7.280839781742543e-05,-0.00818544626235962,1.1706383228302002,-0.0,-0.023200439289212227,1.1036487817764282,7.942525553517044e-05,-0.004986926913261414
135.0,174.0,3.5043,-1.6738,8.549,-0.0218,0.0212,-0.1261,-1.7565471134581507,-0.00023220815637614578,2.9777984619140625,-1.5071723461151123,0.011001138016581535,2.186823606491089,4.367987795467041,0.0,0.29260164499282837,-1.5796902815448206,-5.7569701311877e-05,-0.01100466400384903,1.1706582307815552,-0.0,-0.024277333170175552,1.1036045551300049,7.418762834277004e-05,-0.009040137752890587
135.0,174.0,3.5043,-1.6738,8.549,-0.0218,0.0212,-0.1261,-1.756526609460348,-0.00021172307606320828,2.9578728675842285,-1.50711989402771,0.01161384116858244,2.225210666656494,4.368031664485596,0.0,0.2946714758872986,-1.5796740690814417,-5.5441058066207916e-05,0.0019996650516986847,1.1706146001815796,-0.0,-0.025993727147579193,1.1036123037338257,7.069142156979069e-05,-0.02475358173251152
135.0,174.0,3.5043,-1.6738,8.549,-0.0218,0.0212,-0.1261,-1.756559511224264,-0.00018944009207189083,2.942039966583252,-1.5070241689682007,0.01241616066545248,2.1842923164367676,4.367987795467041,0.0,0.29781097173690796,-1.5796540419207972,-5.2837222028756514e-05,-0.0026160953566432,1.1706546545028687,-0.0001340887974947691,-0.02375088445842266,1.1036365032196045,6.651208241237327e-05,-0.01116928644478321
138.0,175.0,3.0814,-1.3603,8.7613,-0.0289,0.0418,-0.1177,-1.7565552196898402,-0.00017558081890456378,3.012317419052124,-1.5069479942321777,0.011941691860556602,2.1926889419555664,4.367987795467041,0.0,0.2990882396697998,-1.5796940962420862,-5.103940929984674e-05,-0.009700307622551918,1.170654296875,-0.00013735894754063338,-0.04251253232359886,1.1036326885223389,6.368810863932595e-05,-0.015388501808047295
138.0,175.0,3.0814,-1.3603,8.7613,-0.0289,0.0418,-0.1177,-1.7565309009947718,-0.00013997883070260286,2.9864187240600586,-1.5068440437316895,0.012784745544195175,2.2023582458496094,4.368024035091064,0.0,0.3100813329219818,-1.5796297232257288,-3.413228171211813e-07,-0.009362264536321163,1.1706181764602661,-0.0001461351930629462,-0.04173491522669792,1.103605031967163,6.027588460710831e-05,0.025841623544692993
138.0,175.0,3.0814,-1.3603,8.7613,-0.0289,0.0418,-0.1177,-1.756542821923727,-0.00014778428885620087,2.9704980850219727,-1.5068002939224243,0.013005982153117657,2.197409152984619,4.368000193233154,0.0,0.30511903762817383,-1.5796859900103968,-9.500846637200411e-11,-0.021020017564296722,1.1706866025924683,-0.0001465834939153865,-0.04403063654899597,1.1036365032196045,5.794737080577761e-05,-0.04869845509529114
138.0,175.0,3.0814,-1.3603,8.7613,-0.0289,0.0418,-0.1177,-1.756538530389303,-0.00013844358909409493,2.97159743309021,-1.5066838264465332,0.011859549209475517,2.226245164871216,4.36799590169873,0.0,0.2943623661994934,-1.579625431691305,-1.7267319318776996e-15,-0.010114041157066822,1.1706665754318237,-0.00025681406259536743,-0.0535467304289341,1.1035966873168945,5.5108808737713844e-05,-0.02408374473452568
138.0,175.0,3.0814,-1.3603,8.7613,-0.0289,0.0418,-0.1177,-1.7565676174559535,-0.000130893022287637,3.0189013481140137,-1.5065957307815552,0.010902635753154755,2.211188316345215,4.368007345790527,0.0,0.3046289384365082,-1.5796902815448206,-4.8064223881431e-19,-0.005493152420967817,1.1705944538116455,-0.00029415194876492023,-0.04313833266496658,1.103616714477539,5.315590533427894e-05,-0.08071434497833252
138.0,175.0,3.0814,-1.3603,8.7613,-0.0289,0.0418,-0.1177,-1.7565914593138636,-0.00011238786828471348,2.9456701278686523,-1.5065280199050903,0.009343654848635197,2.1919639110565186,4.367983503932617,0.0,0.3050762414932251,-1.5796621481524866,-1.3378852498430208e-22,-0.00462081003934145,1.1705702543258667,-0.00029498792719095945,-0.04918517917394638,1.1036609411239624,6.155652226880193e-05,-0.09175057709217072
138.0,175.0,3.0814,-1.3603,8.7613,-0.0289,0.0418,-0.1177,-1.7565914593138636,-0.00016266365128103644,2.9951441287994385,-1.5064115524291992,0.00796547532081604,2.1820967197418213,4.368052168483398,0.0,0.29052308201789856,-1.5796740690814417,-2.431540480827328e-27,0.0021553749684244394,1.170619010925293,-0.0004943798412568867,-0.05441904813051224,1.1036486625671387,9.317224112237454e-07,-0.0578630194067955
138.0,175.0,3.0814,-1.3603,8.7613,-0.0289,0.0418,-0.1177,-1.7565628490843714,-0.0006777377566322684,2.946094036102295,-1.5064526796340942,0.006739119533449411,2.200721263885498,4.368000193233154,0.0,0.29272910952568054,-1.5796378294574183,-6.7682820618651415e-31,-0.009949542582035065,1.1706428527832031,-0.00050207698950544,-0.050229936838150024,1.103684902191162,5.017350486014038e-05,-0.058776840567588806
138.0,175.0,3.0814,-1.3603,8.7613,-0.0289,0.0418,-0.1177,-1.7565952740111292,-0.0012015464017167687,3.004347801208496,-1.506380319595337,0.0058965436182916164,2.1934421062469482,4.3679515558430175,0.0,0.3013205826282501,-1.5796502272235315,-1.230102032725233e-35,-0.0019019243773072958,1.1706149578094482,-0.0006178485346026719,-0.06124451011419296,1.103656530380249,1.6255577613144556e-12,-0.04324863851070404
138.0,175.0,3.0814,-1.3603,8.7613,-0.0289,0.0418,-0.1177,-1.7565986118712367,-0.0019961856305599213,2.992715358734131,-1.506376028060913,0.004852103069424629,2.210062026977539,4.368007345790527,0.0,0.29031115770339966,-1.5796416441546839,1.371668440697249e-05,-0.006372088100761175,1.1705178022384644,-0.0005953392828814685,-0.05967118963599205,1.1036605834960938,0.0010137795470654964,-0.03794942796230316
138.0,175.0,3.0814,-1.3603,8.7613,-0.0289,0.0418,-0.1177,-1.7566472492613734,-0.0030355029739439487,2.9699974060058594,-1.5063408613204956,0.0028766316827386618,2.185297966003418,4.367987795467041,0.0,0.30121806263923645,-1.5796459356891077,2.127768675563857e-05,-0.007867628708481789,1.1706310510635376,-0.0005428092554211617,-0.07724981755018234,1.103696584701538,0.001070022932253778,-0.03496209532022476
138.0,175.0,3.0814,-1.3603,8.7613,-0.0289,0.0418,-0.1177,-1.7566467724242152,-0.0034878836013376713,2.9883155822753906,-1.5063408613204956,0.002258874475955963,2.1709747314453125,4.36800400793042,0.0,0.2945282757282257,-1.5796626249896448,2.0549125110846944e-05,-0.009485541842877865,1.1705739498138428,-0.00043189385905861855,-0.06635916233062744,1.1036807298660278,0.001098312670364976,-0.02666885033249855
138.0,175.0,3.0814,-1.3603,8.7613,-0.0289,0.0418,-0.1177,-1.756662984887594,-0.004169979132711887,2.9638874530792236,-1.5062806606292725,0.0014319143956527114,2.2593555450439453,4.367991610164307,0.0,0.2883850336074829,-1.5796263853656214,1.93491678146529e-06,-0.001102822832763195,1.1705782413482666,-0.0003816703683696687,-0.08788669109344482,1.1036725044250488,0.0011207812931388617,-0.08319274336099625
138.0,178.0,3.5605,-1.8203,8.4491,-0.0412,0.0183,-0.1254,-1.7567397556700648,-0.004206649027764797,2.9423720836639404,-1.5063083171844482,0.0010638475650921464,2.170454263687134,4.367975397700928,0.0,0.3033716380596161,-1.5796263853656214,5.38591171661551e-10,-0.005793718621134758,1.1705782413482666,-0.00036904303124174476,-0.08321388065814972,1.1036843061447144,0.0008643728215247393,-0.03610701858997345
138.0,178.0,3.5605,-1.8203,8.4491,-0.0412,0.0183,-0.1254,-1.75677551845693,-0.004530236124992371,2.9680237770080566,-1.5063164234161377,0.0005951537168584764,2.2054169178009033,4.368019743556641,0.0,0.2964717149734497,-1.5796459356891077,9.788629528792968e-15,0.003659963607788086,1.1705622673034668,-0.00027569368830882013,-0.09725687652826309,1.1037085056304932,0.0006928175571374595,-0.014433367177844048
138.0,178.0,3.5605,-1.8203,8.4491,-0.0412,0.0183,-0.1254,-1.7567631206908167,-0.003722887020558119,2.9867300987243652,-1.5063365697860718,0.0004575120110530406,2.113494396209717,4.368011637324951,0.0,0.30374813079833984,-1.5796263853656214,2.7247008845009367e-18,-0.002791470382362604,1.1705906391143799,-0.00027616225997917354,-0.08431030809879303,1.103744626045227,0.0005677776061929762,-0.051143694669008255
138.0,178.0,3.5605,-1.8203,8.4491,-0.0412,0.0183,-0.1254,-1.7568637333311976,-0.004057297017425299,2.996325731277466,-1.5063000917434692,0.00011952316708629951,2.1885154247283936,4.368008299464844,0.0,0.2901647090911865,-1.5796545187579554,4.9520093303863114e-23,-0.0007790797390043736,1.1705420017242432,-0.00026740081375464797,-0.08208730816841125,1.103736400604248,0.0003996661980636418,-0.06641491502523422
138.0,178.0,3.5605,-1.8203,8.4491,-0.0412,0.0183,-0.1254,-1.7568675480284632,-0.003991288598626852,3.042142868041992,-1.5062963962554932,9.728700388222933e-05,2.156463861465454,4.36799590169873,0.0,0.30134570598602295,-1.579590145741598,0.00015766291471663862,0.00018859142437577248,1.1705145835876465,-0.00027225594385527074,-0.09003851562738419,1.1037003993988037,0.00032703610486350954,-0.1057196706533432
138.0,178.0,3.5605,-1.8203,8.4491,-0.0412,0.0183,-0.1254,-1.7568918667235316,-0.0032435248140245676,2.9555511474609375,-1.5063083171844482,0.00011998739500995725,2.206480026245117,4.367931528682373,0.0,0.2942914664745331,-1.5795939604388636,0.0001385309296892956,0.00218251533806324,1.1705584526062012,-0.00028208314324729145,-0.09534859657287598,1.1037404537200928,0.00026325538055971265,-0.08895604312419891
138.0,178.0,3.5605,-1.8203,8.4491,-0.0412,0.0183,-0.1254,-1.7568632564940394,-0.0025639997329562902,2.991152763366699,-1.5062683820724487,0.00010587184806354344,2.1559081077575684,4.367991610164307,0.0,0.2873939275741577,-1.579602066670553,0.00013926965766586363,-0.0012983185006305575,1.1705666780471802,-0.0002853025507647544,-0.10415077209472656,1.1037486791610718,0.00022966375399846584,-0.10407558083534241
138.0,178.0,3.5605,-1.8203,8.4491,-0.0412,0.0183,-0.1254,-1.7568990192809046,-0.0017521694535389543,2.9871721267700195,-1.506324291229248,0.0001263034500880167,2.2183291912078857,4.367947264308594,0.0,0.2989661991596222,-1.5796063582049769,0.00014031380123924464,-0.005384909920394421,1.1705784797668457,-0.0002873382472898811,-0.10735946148633957,1.1037167310714722,0.000169748644111678,-0.08345728367567062
138.0,178.0,3.5605,-1.8203,8.4491,-0.0412,0.0183,-0.1254,-1.7568956814207972,-0.000792141945566982,3.0314555168151855,-1.506300449371338,0.00014385809481609613,2.135974884033203,4.367947264308594,0.0,0.2930543124675751,-1.5796378294574183,0.00012710544979199767,-0.005526243709027767,1.1705182790756226,-0.0002777192275971174,-0.10897742211818695,1.1037285327911377,0.00014747843670193106,-0.08843420445919037
138.0,178.0,3.5605,-1.8203,8.4491,-0.0412,0.0183,-0.1254,-1.756883283654684,-0.0005179389845579863,3.00897216796875,-1.5063328742980957,0.00020894285989925265,2.178664445877075,4.367931528682373,0.0,0.2886691987514496,-1.579590145741598,0.00011872172763105482,-0.0034053591080009937,1.170453667640686,-0.0003055602719541639,-0.1102847307920456,1.103720784187317,0.00013427622616291046,-0.03060341440141201
138.0,178.0,3.5605,-1.8203,8.4491,-0.0412,0.0183,-0.1254,-1.756928106347555,-0.0003546061343513429,2.9559953212738037,-1.5062838792800903,0.0014560818672180176,2.235027551651001,4.367967291469238,0.0,0.30393487215042114,-1.579602066670553,0.00010912478319369256,-0.00908968411386013,1.1705186367034912,-0.000288301904220134,-0.11147506535053253,1.1037285327911377,0.00011995832028333098,-0.058790963143110275
138.0,178.0,3.5605,-1.8203,8.4491,-0.0412,0.0183,-0.1254,-1.756867071191305,-0.00028679132810793817,3.0218753814697266,-1.5063164234161377,0.0016325407195836306,2.2011947631835938,4.367967291469238,0.0,0.29929518699645996,-1.5795658270465296,0.00010288714111084118,-0.0009752598125487566,1.1705387830734253,-0.0002885053399950266,-0.1240275502204895,1.1036884784698486,0.00011107528553111479,-0.08275316655635834
138.0,178.0,3.5605,-1.8203,8.4491,-0.0412,0.0183,-0.1254,-1.7569438419737757,-0.00022852599795442075,2.996422290802002,-1.5062445402145386,0.0013874801807105541,2.2166004180908203,4.3679396349140625,0.0,0.2988264262676239,-1.5796220938311976,9.56009462242946e-05,0.015290284529328346,1.1705663204193115,-0.0002619899751152843,-0.11547598242759705,1.103676199913025,0.00010109392314916477,-0.09657604992389679
137.0,178.0,3.4487,-1.52,8.415,-0.0191,0.0232,-0.1228,-1.7568751774229945,-0.00023797070025466383,3.0202040672302246,-1.5062609910964966,0.0014435859629884362,2.165351152420044,4.367967291469238,0.0,0.2994137406349182,-1.5795939604388636,9.077946015167981e-05,-0.01745813898742199,1.1705186367034912,-0.00026440093643032014,-0.11796080321073532,1.1037044525146484,9.471084194956347e-05,-0.0760607197880745
137.0,178.0,3.4487,-1.52,8.415,-0.0191,0.0232,-0.1228,-1.7569033108153285,-0.0002360258367843926,3.0165984630584717,-1.5062042474746704,0.0012543437769636512,2.217942714691162,4.367991610164307,0.0,0.292871356010437,-1.5796263853656214,8.505969890393317e-05,-0.0028742393478751183,1.1705104112625122,-0.0002614439290482551,-0.12693504989147186,1.1037085056304932,8.73565804795362e-05,-0.05188586562871933
137.0,178.0,3.4487,-1.52,8.415,-0.0191,0.0232,-0.1228,-1.7569238148131312,-0.0002424871054245159,3.0136332511901855,-1.5062321424484253,0.0009879744611680508,2.223468065261841,4.368019743556641,0.0,0.30323028564453125,-1.5795896689044397,8.122153667500243e-05,0.004904593341052532,1.170522689819336,-0.00028502068016678095,-0.12369345128536224,1.1036925315856934,8.254911517724395e-05,-0.11122139543294907
137.0,178.0,3.4487,-1.52,8.415,-0.0191,0.0232,-0.1228,-1.7568913898863734,-0.00015451481158379465,2.9873905181884766,-1.5061800479888916,0.0007451642886735499,2.2497498989105225,4.367963476771973,0.0,0.30617719888687134,-1.5796306769000452,7.661221025045961e-05,0.0036817011423408985,1.170478343963623,-0.00045495215454138815,-0.1259005069732666,1.1037167310714722,7.690610800636932e-05,-0.08911379426717758
137.0,178.0,3.4487,-1.52,8.415,-0.0191,0.0232,-0.1228,-1.7569033108153285,-0.00016810029046609998,2.981840133666992,-1.5062284469604492,0.0007189776515588164,2.193343162536621,4.367971583003662,0.0,0.3029392659664154,-1.5796344915973108,7.348453073063865e-05,-0.010461652651429176,1.1704740524291992,-0.0004857713938690722,-0.1347392499446869,1.103660225868225,7.315538823604584e-05,-0.05184254050254822
137.0,178.0,3.4487,-1.52,8.415,-0.0191,0.0232,-0.1228,-1.7569357357420863,-0.00017440045485273004,2.9880738258361816,-1.5062569379806519,0.0007044373196549714,2.1841483116149902,4.368032141322754,0.0,0.3022785484790802,-1.5795977751361292,6.9691042881459e-05,-0.011585227213799953,1.1705024242401123,-0.0010743523016571999,-0.13641440868377686,1.1036802530288696,5.4958512919256464e-05,-0.09898503124713898
137.0,178.0,3.4487,-1.52,8.415,-0.0191,0.0232,-0.1228,-1.7569200001158656,-0.0001839944306993857,2.992800712585449,-1.506232500076294,0.0008197221904993057,2.1667544841766357,4.367931528682373,0.0,0.2927493155002594,-1.5796306769000452,6.709335139021277e-05,0.0023198514245450497,1.1704823970794678,-0.003674044506624341,-0.13872559368610382,1.103660225868225,5.2544924983521923e-05,-0.05191256105899811
137.0,178.0,3.4487,-1.52,8.415,-0.0191,0.0232,-0.1228,-1.756895204583639,-0.00032333366107195616,3.0058717727661133,-1.5061964988708496,0.000777896901126951,2.2226595878601074,4.367935343379639,0.0,0.2968069612979889,-1.5796263853656214,6.468243373092264e-05,-0.009245270863175392,1.170426845550537,-0.01545038539916277,-0.13680483400821686,1.1037249565124512,5.034064088249579e-05,-0.05539168417453766
137.0,178.0,3.4487,-1.52,8.415,-0.0191,0.0232,-0.1228,-1.756939550439352,-0.000366963999113068,2.9959537982940674,-1.5062124729156494,0.001049859100021422,2.190460443496704,4.367999716395996,0.0,0.28776273131370544,-1.5796306769000452,6.172504799906164e-05,-0.0037898332811892033,1.1702549457550049,-0.025962626561522484,-0.14661774039268494,1.103684425354004,4.7674126108177006e-05,-0.08107657730579376
137.0,178.0,3.4487,-1.52,8.415,-0.0191,0.0232,-0.1228,-1.7569438419737757,-0.0008106766035780311,3.0328009128570557,-1.506204605102539,0.0010828633094206452,2.1966347694396973,4.367971583003662,0.0,0.30090007185935974,-1.579613987599508,5.96786048845388e-05,-0.007499370723962784,1.170030951499939,-0.03049374558031559,-0.14776018261909485,1.103676199913025,4.585249916999601e-05,-0.10370940715074539
137.0,178.0,3.4487,-1.52,8.415,-0.0191,0.0232,-0.1228,-1.7569552860655726,-0.001688872929662466,2.975139617919922,-1.506187915802002,0.0009640852804295719,2.1630630493164062,4.367959185237549,0.0,0.2953464388847351,-1.579602066670553,1.0846292752830777e-09,-0.0025520219933241606,1.1697674989700317,-0.044954102486371994,-0.1522669643163681,1.1037167310714722,4.3629741412587464e-05,-0.09013352543115616
137.0,178.0,3.4487,-1.52,8.415,-0.0191,0.0232,-0.1228,-1.7569314442076625,-0.001830739201977849,3.01214599609375,-1.5062129497528076,0.000842327019199729,2.174349308013916,4.368000193233154,0.0,0.3029468357563019,-1.579613987599508,3.019105961326457e-13,-0.008494877256453037,1.1694432497024536,-0.06902652978897095,-0.15942513942718506,1.1036725044250488,4.209913095110096e-05,-0.06917525827884674
137.0,178.0,3.4487,-1.52,8.415,-0.0191,0.0232,-0.1228,-1.7569591007628382,-0.0017952824709936976,2.97029972076416,-1.5061843395233154,0.0007384622585959733,2.19492769241333,4.367991610164307,0.0,0.31169795989990234,-1.579545799885885,5.487076123590907e-18,-0.00044493324821814895,1.1685876846313477,-0.12342067807912827,-0.18537303805351257,1.1036925315856934,4.0217884816229343e-05,-0.11428716778755188
140.0,175.0,3.3835,-2.3946,8.5633,-0.0405,0.0192,-0.1753,-1.7569428882994593,-0.0018245397368445992,2.9732604026794434,-1.5062003135681152,0.0008358383784070611,2.2439868450164795,4.36799590169873,0.0,0.3044278621673584,-1.579618279133932,1.5273475006846637e-21,-0.001485574059188366,1.1677682399749756,-0.13879087567329407,-0.20670655369758606,1.1036884784698486,2.097669415945802e-08,-0.12261451035737991
140.0,175.0,3.3835,-2.3946,8.5633,-0.0405,0.0192,-0.1753,-1.7569834194579066,-0.0016085711540654302,2.989150285720825,-1.5061922073364258,0.0009743577684275806,2.181382656097412,4.368000193233154,0.0,0.3035736680030823,-1.5796063582049769,2.775878882253882e-26,0.0019170736195519567,1.1667797565460205,-0.12177407741546631,-0.204024076461792,1.103676199913025,6.796181557789088e-16,-0.08411379158496857
140.0,175.0,3.3835,-2.3946,8.5633,-0.0405,0.0192,-0.1753,-1.7570401630797328,-0.001984305214136839,3.008293628692627,-1.5061966180801392,0.0009500801097601652,2.173100233078003,4.367931528682373,0.0,0.3098651170730591,-1.5795782248126429,7.72676097145783e-30,-0.011520970612764359,1.1660335063934326,-0.12727965414524078,-0.19410035014152527,1.1036639213562012,1.6411978250358817e-21,-0.15075916051864624
140.0,175.0,3.3835,-2.3946,8.5633,-0.0405,0.0192,-0.1753,-1.7570234737791957,-0.0022814017720520496,3.033738851547241,-1.5061724185943604,0.0009409619960933924,2.1524505615234375,4.368000193233154,0.0,0.28733253479003906,-1.5795782248126429,1.4043008823787398e-34,0.0032757397275418043,1.1647429466247559,-0.19066132605075836,-0.22358381748199463,1.103724479675293,3.1111747489376285e-07,-0.12806740403175354
140.0,175.0,3.3835,-2.3946,8.5633,-0.0405,0.0192,-0.1753,-1.757047792474264,-0.00272580748423934,2.932135581970215,-1.5061326026916504,0.001070189056918025,2.2021350860595703,4.367963476771973,0.0,0.2886602580547333,-1.579602066670553,3.9089231872728487e-38,-0.009145724587142467,1.163427472114563,-0.22312919795513153,-0.23864765465259552,1.1037081480026245,7.513120442621812e-13,-0.13375616073608398
140.0,175.0,3.3835,-2.3946,8.5633,-0.0405,0.0192,-0.1753,-1.7570554218687953,-0.004273296799510717,2.981466770172119,-1.5061243772506714,0.0013706062454730272,2.194352149963379,4.367967291469238,0.0,0.3023113012313843,-1.5796063582049769,7.1045832141268225e-43,-0.012466885149478912,1.1615314483642578,-0.2560206353664398,-0.24301362037658691,1.1037204265594482,2.4341556976697318e-20,-0.04435068368911743
140.0,175.0,3.3835,-2.3946,8.5633,-0.0405,0.0192,-0.1753,-1.7571240864195765,-0.0056243231520056725,2.9903206825256348,-1.506100058555603,0.0016590369632467628,2.1991629600524902,4.367967291469238,0.0,0.289218008518219,-1.579602066670553,0.0,0.007728159427642822,1.1599040031433105,-0.26246002316474915,-0.23836065828800201,1.1037085056304932,5.878199500444698e-26,-0.12467984110116959
140.0,175.0,3.3835,-2.3946,8.5633,-0.0405,0.0192,-0.1753,-1.7571760616698207,-0.00687715457752347,2.995309829711914,-1.506060242652893,0.0017934017814695835,2.2217328548431396,4.367975397700928,0.0,0.29541653394699097,-1.5796063582049769,0.0,0.0012811983469873667,1.1576273441314697,-0.30844295024871826,-0.26450175046920776,1.103724479675293,0.00026478079962544143,-0.13758042454719543
140.0,175.0,3.3835,-2.3946,8.5633,-0.0405,0.0192,-0.1753,-1.757211824456686,-0.006890961900353432,2.965770959854126,-1.5061041116714478,0.001821037381887436,2.1840147972106934,4.36799590169873,0.0,0.301611065864563,-1.5796263853656214,0.0,-0.00793897733092308,1.15565025806427,-0.3373265862464905,-0.26870304346084595,1.1037241220474243,0.00039158432628028095,-0.1072940081357956
140.0,175.0,3.3835,-2.3946,8.5633,-0.0405,0.0192,-0.1753,-1.7572399578490199,-0.006696437951177359,2.9580636024475098,-1.506116509437561,0.0022658591624349356,2.1856110095977783,4.36802784978833,0.0,0.29359355568885803,-1.579602066670553,0.0,-0.011366977356374264,1.1535747051239014,-0.36563917994499207,-0.27930736541748047,1.103728175163269,0.0010410697432234883,-0.11801711469888687
140.0,175.0,3.3835,-2.3946,8.5633,-0.0405,0.0192,-0.1753,-1.7572962246336878,-0.007111322600394487,3.0170438289642334,-1.506028175354004,0.0032829181291162968,2.223576068878174,4.367991610164307,0.0,0.3098074197769165,-1.579613987599508,0.0,-0.008509982377290726,1.1505404710769653,-0.4006774425506592,-0.2961500883102417,1.103736400604248,0.0015881020808592439,-0.11791632324457169
140.0,175.0,3.3835,-2.3946,8.5633,-0.0405,0.0192,-0.1753,-1.757336278954977,-0.00751155661419034,2.996272087097168,-1.506040334701538,0.0035299481824040413,2.2051424980163574,4.367971583003662,0.0,0.3053654730319977,-1.5796502272235315,0.0,-0.022812407463788986,1.1479946374893188,-0.43300125002861023,-0.29773378372192383,1.103784203529358,0.0019027534872293472,-0.15172483026981354
140.0,175.0,3.3835,-2.3946,8.5633,-0.0405,0.0192,-0.1753,-1.7573839626707972,-0.0074892411939799786,2.9836349487304688,-1.5059922933578491,0.004397524055093527,2.2432708740234375,4.367991610164307,0.0,0.30446407198905945,-1.5796220938311976,3.5794590758086997e-07,-0.005896661430597305,1.1443790197372437,-0.4606733024120331,-0.32140377163887024,1.1038082838058472,0.002248048549517989,-0.10069513320922852
140.0,173.0,3.4612,-2.1009,8.5687,-0.0257,0.0331,-0.5835,-1.7574321232237757,-0.008856209926307201,2.9985909461975098,-1.5059688091278076,0.00431069266051054,2.1913864612579346,4.367971583003662,0.0,0.3028486669063568,-1.5796306769000452,9.963555674952218e-11,-0.010746059007942677,1.1414291858673096,-0.4966183006763458,-0.31548869609832764,1.1037921905517578,0.002669118344783783,-0.08741186559200287
140.0,173.0,3.4612,-2.1009,8.5687,-0.0257,0.0331,-0.5835,-1.7574964962401332,-0.009665020741522312,2.9564669132232666,-1.50591242313385,0.0042211152613162994,2.1973001956939697,4.367991610164307,0.0,0.30209240317344666,-1.579613987599508,1.8108266334305274e-15,-0.0016023463103920221,1.1373727321624756,-0.528791606426239,-0.3242826759815216,1.1038684844970703,0.0035312226973474026,-0.12183593213558197
140.0,173.0,3.4612,-2.1009,8.5687,-0.0257,0.0331,-0.5835,-1.7575766048827113,-0.009837763383984566,2.9764678478240967,-1.5058845281600952,0.003735358826816082,2.211061716079712,4.3679515558430175,0.0,0.2946562170982361,-1.5796096960650843,5.040502610774301e-19,-0.0022292910143733025,1.1340296268463135,-0.5609095096588135,-0.32759249210357666,1.1038281917572021,0.0038333777338266373,-0.08668571710586548
140.0,173.0,3.4612,-2.1009,8.5687,-0.0257,0.0331,-0.5835,-1.757559438745016,-0.009594106115400791,2.9812517166137695,-1.505928874015808,0.003992012701928616,2.1789298057556152,4.367975397700928,0.0,0.2830643057823181,-1.5795820395099085,9.16086498748884e-24,-0.009335187263786793,1.1294351816177368,-0.5876048803329468,-0.32157546281814575,1.103908658027649,0.004012484569102526,-0.08210664987564087
140.0,173.0,3.4612,-2.1009,8.5687,-0.0257,0.0331,-0.5835,-1.7576681576170863,-0.008906482718884945,2.9826979637145996,-1.505840539932251,0.0035862019285559654,2.2341952323913574,4.367987795467041,0.0,0.2946131229400635,-1.5796263853656214,2.5499607130968494e-27,0.004882266744971275,1.1257964372634888,-0.6054555177688599,-0.30395686626434326,1.1039081811904907,0.004533817060291767,-0.05344061553478241
140.0,173.0,3.4612,-2.1009,8.5687,-0.0257,0.0331,-0.5835,-1.7577163181700648,-0.008752630092203617,2.9749321937561035,-1.5058083534240723,0.003046634839847684,2.1401572227478027,4.368031664485596,0.0,0.30627110600471497,-1.5796306769000452,4.6344273265455596e-32,-0.015959719195961952,1.1209992170333862,-0.6176238059997559,-0.2888062000274658,1.1039483547210693,0.004539481829851866,-0.07614599168300629
140.0,173.0,3.4612,-2.1009,8.5687,-0.0257,0.0331,-0.5835,-1.7578450642027796,-0.00881459191441536,2.9734139442443848,-1.50584876537323,0.00287595484405756,2.163620710372925,4.367983503932617,0.0,0.2939791679382324,-1.579613987599508,1.2900097707001966e-35,-0.004221692681312561,1.1172709465026855,-0.6159261465072632,-0.2810646593570709,1.1039401292800903,0.00416704174131155,-0.072212815284729
140.0,173.0,3.4612,-2.1009,8.5687,-0.0257,0.0331,-0.5835,-1.757876535455221,-0.009180882945656776,2.95112943649292,-1.5058404207229614,0.0024879586417227983,2.1578867435455322,4.36800400793042,0.0,0.2862500548362732,-1.5795858542071741,2.3445264736464947e-40,-0.009762786328792572,1.1123013496398926,-0.6350560188293457,-0.26989036798477173,1.1039879322052002,0.003932132851332426,-0.06174224615097046
140.0,173.0,3.4612,-2.1009,8.5687,-0.0257,0.0331,-0.5835,-1.7579170666136683,-0.00938796903938055,2.9257991313934326,-1.505828857421875,0.001978991786018014,2.1753358840942383,4.3680030542561035,0.0,0.29496514797210693,-1.5796344915973108,6.58610278232664e-44,-0.015303193591535091,1.108621597290039,-0.6349301338195801,-0.29054704308509827,1.104020595550537,0.004372374154627323,-0.008823157288134098
140.0,173.0,3.4612,-2.1009,8.5687,-0.0257,0.0331,-0.5835,-1.7579528294005335,-0.008974327705800533,2.9279112815856934,-1.5057482719421387,0.002061407081782818,2.2107455730438232,4.368000193233154,0.0,0.2970734238624573,-1.5796745459186,0.0,-0.004337225575000048,1.1048040390014648,-0.6294917464256287,-0.2523668110370636,1.1040644645690918,0.004284470807760954,-0.05645517259836197
140.0,173.0,3.4612,-2.1009,8.5687,-0.0257,0.0331,-0.5835,-1.7580043278136195,-0.008504035882651806,2.9467623233795166,-1.5057525634765625,0.0027280254289507866,2.1958794593811035,4.367931528682373,0.0,0.30035698413848877,-1.5795977751361292,0.0,-0.017108293250203133,1.0997605323791504,-0.6186853647232056,-0.250543475151062,1.104124665260315,0.004965296946465969,-0.0427698940038681
140.0,173.0,3.4612,-2.1009,8.5687,-0.0257,0.0331,-0.5835,-1.7580286465086878,-0.007947749458253384,2.8972349166870117,-1.5057121515274048,0.002815458457916975,2.2155508995056152,4.36799590169873,0.0,0.2885269224643707,-1.5796058813678187,0.0,-0.002298801438882947,1.096055269241333,-0.6004542112350464,-0.24075427651405334,1.1041529178619385,0.005107569973915815,-0.048115964978933334
140.0,173.0,3.4612,-2.1009,8.5687,-0.0257,0.0331,-0.5835,-1.7581411800780238,-0.007867115549743176,2.915424346923828,-1.5056923627853394,0.002648876514285803,2.1487605571746826,4.367955370540283,0.0,0.2970414161682129,-1.5796502272235315,0.0,-0.012749949470162392,1.0913326740264893,-0.5955843925476074,-0.2286384105682373,1.1042003631591797,0.00622995849698782,-0.022415224462747574
139.0,172.0,3.3434,-1.0343,8.6812,-0.0273,0.0267,-0.7298,-1.7581449947752894,-0.008205308578908443,2.907677173614502,-1.5057005882263184,0.0023041546810418367,2.212125301361084,4.367931528682373,0.0,0.2965449094772339,-1.5796306769000452,0.0,-0.005649258382618427,1.0878491401672363,-0.5834751725196838,-0.2280256450176239,1.104224443435669,0.007110408507287502,-0.06790021061897278
139.0,172.0,3.3434,-1.0343,8.6812,-0.0273,0.0267,-0.7298,-1.7582532368102015,-0.009760884568095207,2.8839635848999023,-1.5056886672973633,0.002108597429469228,2.166536808013916,4.367963476771973,0.0,0.2997790575027466,-1.5795896689044397,0.0,-0.015587745234370232,1.0832931995391846,-0.5519903898239136,-0.20420695841312408,1.104300618171692,0.008466358296573162,-0.025506019592285156
139.0,172.0,3.3434,-1.0343,8.6812,-0.0273,0.0267,-0.7298,-1.7583090267577113,-0.010592050850391388,2.900238275527954,-1.5056166648864746,0.0021207069512456656,2.167766571044922,4.3679234224506835,0.0,0.2963167428970337,-1.5796263853656214,0.0,-0.006600772961974144,1.080106258392334,-0.5441235303878784,-0.20482364296913147,1.1043685674667358,0.008798371069133282,-0.03371700271964073
139.0,172.0,3.3434,-1.0343,8.6812,-0.0273,0.0267,-0.7298,-1.7583567104735316,-0.011569233611226082,2.8478503227233887,-1.50563645362854,0.0025033308193087578,2.1628429889678955,4.36799590169873,0.0,0.3105921149253845,-1.5796459356891077,0.0,-0.015580297447741032,1.0759787559509277,-0.5042631030082703,-0.2024659663438797,1.1044809818267822,0.009118158370256424,-0.018445607274770737
139.0,172.0,3.3434,-1.0343,8.6812,-0.0273,0.0267,-0.7298,-1.7584854565062464,-0.01322049181908369,2.871833086013794,-1.5056487321853638,0.0027306436095386744,2.184277296066284,4.367967291469238,0.0,0.3099883198738098,-1.5796626249896448,0.0,-0.01824728026986122,1.072942852973938,-0.4985385537147522,-0.19205650687217712,1.104480504989624,0.009954032488167286,-0.011050280183553696
139.0,172.0,3.3434,-1.0343,8.6812,-0.0273,0.0267,-0.7298,-1.758589883843893,-0.015468928031623363,2.855264902114868,-1.5055804252624512,0.0024757208302617073,2.2360386848449707,4.367952032680176,0.0,0.30085501074790955,-1.5796263853656214,0.0,-0.01639685034751892,1.0691839456558228,-0.4521629512310028,-0.16683423519134521,1.104540228843689,0.009806541725993156,0.02955390140414238
139.0,172.0,3.3434,-1.0343,8.6812,-0.0273,0.0267,-0.7298,-1.7587019405760707,-0.017793120816349983,2.821598529815674,-1.5056166648864746,0.002223699353635311,2.188000202178955,4.367947741145752,0.0,0.30799031257629395,-1.5796220938311976,0.0,-0.007199727464467287,1.0665000677108765,-0.44421297311782837,-0.1708207130432129,1.1046406030654907,0.01063444372266531,0.018691537901759148
139.0,172.0,3.3434,-1.0343,8.6812,-0.0273,0.0267,-0.7298,-1.758784910241598,-0.0195991862565279,2.821786642074585,-1.5055965185165405,0.002281139139086008,2.1739227771759033,4.367971583003662,-4.459166120795999e-06,0.29604673385620117,-1.5796220938311976,0.0,-0.008935374207794666,1.063104510307312,-0.39544248580932617,-0.12900027632713318,1.1047366857528687,0.010858310386538506,-0.01469845324754715
139.0,172.0,3.3434,-1.0343,8.6812,-0.0273,0.0267,-0.7298,-1.7589904270567835,-0.020830240100622177,2.8492915630340576,-1.505589246749878,0.0021471765358000994,2.2239785194396973,4.367983980769775,-1.2412253447280364e-09,0.30038851499557495,-1.5796335379229944,0.0,-0.01349799707531929,1.0607889890670776,-0.3751565217971802,-0.1305600106716156,1.1047682762145996,0.011073059402406216,-0.023563101887702942
139.0,172.0,3.3434,-1.0343,8.6812,-0.0273,0.0267,-0.7298,-1.759146352807516,-0.02347014844417572,2.8163981437683105,-1.505589246749878,0.0019019553437829018,2.169177532196045,4.367927237147949,-2.25586524015952e-14,0.30597200989723206,-1.579686466847555,0.0,-0.021127542480826378,1.058090090751648,-0.33198311924934387,-0.11645366251468658,1.104892611503601,0.011493652127683163,0.0026612496003508568
139.0,172.0,3.3434,-1.0343,8.6812,-0.0273,0.0267,-0.7298,-1.759310861627096,-0.023741986602544785,2.84047794342041,-1.5055322647094727,0.0015046867774799466,2.1889822483062744,4.367955847377441,-0.0004406428197398782,0.3081977963447571,-1.5796540419207972,0.0,-0.010744946077466011,1.0562543869018555,-0.2743331491947174,-0.0890517458319664,1.104952335357666,0.011849773116409779,-0.0201808400452137
139.0,172.0,3.3434,-1.0343,8.6812,-0.0273,0.0267,-0.7298,-1.7594348392882289,-0.024221576750278473,2.828850269317627,-1.5055606365203857,0.0011419235961511731,2.2101428508758545,4.3679234224506835,-0.0004742755845654756,0.3162958323955536,-1.5796096960650843,0.0,-0.012730671092867851,1.0547149181365967,-0.2456086426973343,-0.05586431175470352,1.1050567626953125,0.0117784533649683,-0.030535994097590446
139.0,172.0,3.3434,-1.0343,8.6812,-0.0273,0.0267,-0.7298,-1.7596351108946742,-0.025135930627584457,2.8520827293395996,-1.5055327415466309,0.0008019798551686108,2.1793978214263916,4.367927713985107,-0.0005128704360686243,0.2981454133987427,-1.5796335379229944,0.0,-0.007165607996284962,1.0528874397277832,-0.20452366769313812,-0.04550255462527275,1.105128288269043,0.011742825619876385,-0.02132444456219673
143.0,166.0,3.5486,-0.5904,8.5364,-0.0377,-0.0055,-0.3115,-1.7598077259459437,-0.024380965158343315,2.783644676208496,-1.505480170249939,0.0006482106982730329,2.1630752086639404,4.3679396349140625,-0.0005431492463685572,0.3089914321899414,-1.5796297232257288,0.0,-0.015828821808099747,1.051883339881897,-0.15328218042850494,-0.015333550050854683,1.1052122116088867,0.012255581095814705,-0.01135350577533245
143.0,166.0,3.5486,-0.5904,8.5364,-0.0377,-0.0055,-0.3115,-1.7599841556944789,-0.02417103759944439,2.8273696899414062,-1.5055006742477417,0.0004591957258526236,2.163102626800537,4.367875738734863,-0.0005929308827035129,0.3005672097206116,-1.5796940962420862,0.0,-0.017604373395442963,1.0508644580841064,-0.10385681688785553,-0.003578856121748686,1.1053287982940674,0.012671729549765587,-0.06979731470346451
143.0,166.0,3.5486,-0.5904,8.5364,-0.0377,-0.0055,-0.3115,-1.7601596317686976,-0.02261662483215332,2.781827926635742,-1.5055288076400757,0.0003767895104829222,2.1751184463500977,4.36790053426709,-0.0005763908848166466,0.30017220973968506,-1.5796545187579554,0.0,-0.00818020198494196,1.0505656003952026,-0.03335556760430336,0.02155820094048977,1.1053881645202637,0.013845656998455524,0.012531399726867676
143.0,166.0,3.5486,-0.5904,8.5364,-0.0377,-0.0055,-0.3115,-1.76031555751943,-0.022145144641399384,2.8287808895111084,-1.5055487155914307,0.0003040436713490635,2.2033724784851074,4.367875738734863,-0.0006058201543055475,0.2982851266860962,-1.579642120991842,0.0,-0.017560774460434914,1.0506898164749146,0.045836612582206726,0.050299569964408875,1.1055083274841309,0.016921671107411385,0.031606562435626984
143.0,166.0,3.5486,-0.5904,8.5364,-0.0377,-0.0055,-0.3115,-1.7604638538756312,-0.021717973053455353,2.8611297607421875,-1.5055248737335205,0.0002655890129972249,2.1539812088012695,4.367863817805908,-0.0005651733954437077,0.30450066924095154,-1.579625431691305,0.0,-0.012165051884949207,1.0509783029556274,0.06669560819864273,0.07113094627857208,1.1056444644927979,0.018192298710346222,-0.035991862416267395
143.0,166.0,3.5486,-0.5904,8.5364,-0.0377,-0.0055,-0.3115,-1.7606402836241664,-0.021284453570842743,2.874598979949951,-1.5055327415466309,0.00022726409952156246,2.1649222373962402,4.36781565725293,-0.0005282917409203947,0.280759334564209,-1.5796263853656214,0.0,-0.042066801339387894,1.0513859987258911,0.045507363975048065,0.053841255605220795,1.1058084964752197,0.020194556564092636,-0.041436221450567245
143.0,166.0,3.5486,-0.5904,8.5364,-0.0377,-0.0055,-0.3115,-1.7607485256590785,-0.020596716552972794,2.8241846561431885,-1.5055327415466309,0.0002050704788416624,2.123788833618164,4.3678480821796875,-0.00047250938951037824,0.30891793966293335,-1.5796263853656214,0.0,-0.025661161169409752,1.0515300035476685,0.012283715419471264,0.018147671595215797,1.105896234512329,0.022957874462008476,0.019622324034571648
143.0,166.0,3.5486,-0.5904,8.5364,-0.0377,-0.0055,-0.3115,-1.760933061639303,-0.01878899149596691,2.8338088989257812,-1.5055407285690308,0.00018144509522244334,2.1253957748413086,4.3678318697163085,-0.000408321589929983,0.2866940498352051,-1.5796626249896448,0.0,-0.02494228631258011,1.0514650344848633,-0.012153304181993008,0.023343784734606743,1.1060686111450195,0.024103263393044472,0.008272547274827957
143.0,166.0,3.5486,-0.5904,8.5364,-0.0377,-0.0055,-0.3115,-1.7610207996764125,-0.018133338540792465,2.817451000213623,-1.5055203437805176,0.0001670146157266572,2.1261181831359863,4.367843790645264,-0.0003418300475459546,0.29312950372695923,-1.5796306769000452,-2.3530161342932843e-05,-0.013393139466643333,1.0513449907302856,-0.011884715408086777,0.02343856543302536,1.1062322854995728,0.025087540969252586,-0.01970231905579567
143.0,166.0,3.5486,-0.5904,8.5364,-0.0377,-0.0055,-0.3115,-1.7611648044981898,-0.01908160373568535,2.860187530517578,-1.5055286884307861,0.00017257401486858726,2.1880667209625244,4.367835684413574,-0.0003156165184918791,0.28056222200393677,-1.579642120991842,-4.2764908281256453e-10,-0.01361607201397419,1.0513851642608643,-0.005405018106102943,0.0240069217979908,1.1064480543136597,0.025714924558997154,-0.04782690852880478
143.0,166.0,3.5486,-0.5904,8.5364,-0.0377,-0.0055,-0.3115,-1.7612611256041468,-0.01816762611269951,2.8090312480926514,-1.5055006742477417,0.00016099729691632092,2.111255168914795,4.3678600031086425,-0.0002831056190188974,0.2774437367916107,-1.5796220938311976,-1.1903770070348374e-13,-0.015271670185029507,1.0513734817504883,-0.0017734116408973932,0.013677416369318962,1.1066160202026367,0.026576388627290726,-0.0495770238339901
143.0,166.0,3.5486,-0.5904,8.5364,-0.0377,-0.0055,-0.3115,-1.7613688908019007,-0.019329868257045746,2.844363212585449,-1.505544662475586,0.0001508763962192461,2.0931780338287354,4.367847605342529,-0.000253230711678043,0.28928279876708984,-1.579613987599508,-3.313458224655099e-17,-0.01840837672352791,1.0514014959335327,-0.0003653490566648543,0.02085963822901249,1.1067317724227905,0.027008039876818657,-0.02599933370947838
143.0,166.0,3.5486,-0.5904,8.5364,-0.0377,-0.0055,-0.3115,-1.7615214786925257,-0.019984321668744087,2.8476767539978027,-1.5054930448532104,0.00013920797209721059,2.151695489883423,4.367844267482422,-0.0002219961752416566,0.29133176803588867,-1.5796459356891077,-6.022046515519018e-22,-0.011656096205115318,1.0513813495635986,-0.00018553512927610427,0.021412208676338196,1.1070404052734375,0.029143299907445908,-0.04112968221306801
137.0,165.0,3.7783,-1.5858,8.3426,-0.0408,-0.0102,-0.0898,-1.7616898022093714,-0.02073867805302143,2.8046162128448486,-1.5054806470870972,8.90485243871808e-05,2.145604133605957,4.367847605342529,-0.00016118718485813588,0.2846084535121918,-1.5796220938311976,-1.676258672632213e-25,-0.02278219163417816,1.051349401473999,-0.00014167312474455684,0.02707350067794323,1.1072039604187012,0.031389981508255005,0.019305646419525146
