ramyac6/ROB537/final_project/csv/good/good_51.csv
tof_0,tof_1,accelx,accely,accelz,gyrox,gyroy,gyroz,shoulder_lift_joint_position,shoulder_lift_joint_velocity,shoulder_lift_joint_effort,elbow_joint_position,elbow_joint_velocity,elbow_joint_effort,wrist_1_joint_position,wrist_1_joint_velocity,wrist_1_joint_effort,wrist_2_joint_position,wrist_2_joint_velocity,wrist_2_joint_effort,wrist_3_joint_position,wrist_3_joint_velocity,wrist_3_joint_effort,shoulder_pan_joint_position,shoulder_pan_joint_velocity,shoulder_pan_joint_effort
238.0,333.0,0.5097,0.7543,9.4798,-0.038,0.0298,-0.1171,-1.8841902218260707,0.0,3.434818744659424,-1.6206161975860596,-0.0,2.0244572162628174,4.9034294364746,0.0,0.2955111265182495,-1.5414388815509241,-0.0,-0.006528063211590052,0.20097453892230988,0.0,0.012025028467178345,1.43294358253479,0.0,-0.030382968485355377
238.0,333.0,0.5097,0.7543,9.4798,-0.038,0.0298,-0.1171,-1.884197851220602,0.0,3.391921043395996,-1.620596170425415,-0.0,2.0914199352264404,4.903421389847555,0.0,0.29453378915786743,-1.5414188543902796,-0.0,-0.02291545271873474,0.20095014572143555,0.0,0.010302486829459667,1.4329156875610352,0.0,-0.0063143204897642136
238.0,333.0,0.5097,0.7543,9.4798,-0.038,0.0298,-0.1171,-1.88413729290151,0.0,3.4055261611938477,-1.62062406539917,-0.0,2.0464303493499756,4.903413164406576,0.0,0.275715708732605,-1.5414069334613245,-0.0,-0.004587224218994379,0.20095014572143555,0.0,0.0007952174637466669,1.4329273700714111,0.0,-0.037129491567611694
238.0,333.0,0.5097,0.7543,9.4798,-0.038,0.0298,-0.1171,-1.8841659031310023,0.0,3.3724746704101562,-1.6206080913543701,-0.0,2.051330327987671,4.903425472765722,0.0,0.28532493114471436,-1.541415039693014,-0.0,-0.03158377483487129,0.20092621445655823,0.0,0.010601435787975788,1.432887315750122,0.0,0.015752840787172318
238.0,333.0,0.5097,0.7543,9.4798,-0.038,0.0298,-0.1171,-1.8841573200621546,0.0,3.385605812072754,-1.6206637620925903,-0.0,2.0413084030151367,4.903421389847555,0.0,0.29142335057258606,-1.5413945356952112,-0.0,-0.00982818566262722,0.20093846321105957,0.0,0.01507005374878645,1.4329555034637451,0.0,0.012775917537510395
238.0,333.0,0.5097,0.7543,9.4798,-0.038,0.0298,-0.1171,-1.8841616115965785,0.0,3.365973472595215,-1.6206201314926147,-0.0,2.038210868835449,4.903397190361776,0.0,0.2847520709037781,-1.5414188543902796,-0.0,-0.01560458354651928,0.20095014572143555,0.0,0.0054299733601510525,1.4329235553741455,0.0,0.036003660410642624
238.0,333.0,0.5097,0.7543,9.4798,-0.038,0.0298,-0.1171,-1.8841492138304652,0.0,3.3391480445861816,-1.6207040548324585,-0.0,2.06585693359375,4.903437706619062,0.0,0.2860059142112732,-1.5414188543902796,-0.0,-0.011941606178879738,0.20093445479869843,0.0,0.017673984169960022,1.4329156875610352,0.0,-0.02897018939256668
238.0,333.0,0.5097,0.7543,9.4798,-0.038,0.0298,-0.1171,-1.8842021427550257,0.0,3.3822460174560547,-1.62062406539917,-0.0,2.015753984451294,4.903437706619062,0.0,0.28495264053344727,-1.5414188543902796,-0.0,-0.0005572002846747637,0.2009541541337967,0.0,0.007545294240117073,1.4329636096954346,0.0,0.06338582932949066
238.0,343.0,0.5133,0.7089,9.5868,-0.0286,0.0258,-0.1147,-1.884153505364889,0.0,3.3861780166625977,-1.6206642389297485,-0.0,2.100766658782959,4.9033972201640985,0.0,0.27734944224357605,-1.5413907209979456,-0.0,-0.00661962665617466,0.2009541541337967,0.0,0.00971628911793232,1.4328954219818115,0.0,-0.0122117530554533
238.0,343.0,0.5133,0.7089,9.5868,-0.0286,0.0258,-0.1147,-1.8841821155943812,0.0,3.397078037261963,-1.6206161975860596,-0.0,2.0812549591064453,4.903389739781179,0.0,0.27434617280960083,-1.541415039693014,-0.0,-0.006144867744296789,0.201002299785614,0.0,0.005672208499163389,1.4329116344451904,0.0,0.02775655686855316
238.0,343.0,0.5133,0.7089,9.5868,-0.0286,0.0258,-0.1147,-1.8841783008971156,0.0,3.4421355724334717,-1.6206003427505493,-0.0,2.0685513019561768,4.903401869326391,0.0,0.27069658041000366,-1.5414107481585901,-0.0,-0.01586424931883812,0.20096218585968018,0.0,0.007948889397084713,1.4328913688659668,0.0,0.029920483008027077
238.0,343.0,0.5133,0.7089,9.5868,-0.0286,0.0258,-0.1147,-1.8841334782042445,0.0,3.4130859375,-1.620596170425415,-0.0,2.092710018157959,4.903393137245931,0.0,0.27892574667930603,-1.5414546171771448,-0.0,-0.021228887140750885,0.20097443461418152,0.0,0.009120321832597256,1.4329354763031006,0.0,0.005774343386292458
238.0,343.0,0.5133,0.7089,9.5868,-0.0286,0.0258,-0.1147,-1.8841659031310023,0.0,3.4198195934295654,-1.6206003427505493,-0.0,2.009762763977051,4.903385582357206,0.0,0.2754272222518921,-1.5414665381061,-0.0,-0.01358652114868164,0.20095819234848022,0.0,0.004954606294631958,1.4329313039779663,0.0,-0.018217414617538452
238.0,343.0,0.5133,0.7089,9.5868,-0.0286,0.0258,-0.1147,-1.8841616115965785,0.0,3.3513846397399902,-1.6206082105636597,-0.0,2.0885660648345947,4.903437706619062,0.0,0.2814875543117523,-1.541415039693014,-0.0,-0.018250860273838043,0.20100617408752441,0.0,0.009314836002886295,1.4329636096954346,0.0,0.018725525587797165
238.0,343.0,0.5133,0.7089,9.5868,-0.0286,0.0258,-0.1147,-1.8841616115965785,0.0,3.400726318359375,-1.6206438541412354,-0.0,2.034846067428589,4.903397801309385,0.0,0.28320062160491943,-1.5414188543902796,-0.0,-0.013442390598356724,0.20096229016780853,0.0,0.014525732956826687,1.4329557418823242,0.0,0.017872946336865425
238.0,343.0,0.5133,0.7089,9.5868,-0.0286,0.0258,-0.1147,-1.8841783008971156,0.0,3.374539375305176,-1.6206003427505493,-0.0,2.064716339111328,4.903473797231474,0.0,0.2918330729007721,-1.5414469877826136,-0.0,-0.014674891717731953,0.2009861320257187,0.0,0.004944490734487772,1.4329235553741455,0.0,-0.005559724755585194
238.0,343.0,0.5133,0.7089,9.5868,-0.0286,0.0258,-0.1147,-1.8841573200621546,0.0,3.3889317512512207,-1.6206002235412598,-0.0,2.0750620365142822,4.903385597258367,0.0,0.28111889958381653,-1.5413945356952112,-0.0,-0.013989977538585663,0.20097039639949799,0.0,0.009300360456109047,1.4329276084899902,0.0,0.03787422552704811
238.0,343.0,0.5133,0.7089,9.5868,-0.0286,0.0258,-0.1147,-1.884169717828268,0.0,3.400153160095215,-1.6206438541412354,-0.0,2.0843560695648193,4.903369608312406,0.0,0.2859385311603546,-1.5413945356952112,-0.0,-0.004293873440474272,0.2009425163269043,0.0,0.010540591552853584,1.4329156875610352,0.0,0.020760927349328995
238.0,343.0,0.5133,0.7089,9.5868,-0.0286,0.0258,-0.1147,-1.8841783008971156,0.0,3.3584022521972656,-1.6205883026123047,-0.0,2.083712577819824,4.903405400901594,0.0,0.28012967109680176,-1.5414226690875452,-0.0,-0.005017939489334822,0.20094598829746246,0.0,-0.0005478571401908994,1.4329757690429688,0.0,-0.00041707628406584263
238.0,343.0,0.5133,0.7089,9.5868,-0.0286,0.0258,-0.1147,-1.8841778240599574,0.0,3.417724847793579,-1.62062406539917,-0.0,2.0357069969177246,4.903421389847555,0.0,0.28874754905700684,-1.5414107481585901,-0.0,-0.004834237042814493,0.20096229016780853,0.0,0.011463213711977005,1.4328956604003906,0.0,0.032976679503917694
238.0,343.0,0.5133,0.7089,9.5868,-0.0286,0.0258,-0.1147,-1.884141584435934,0.0,3.4036943912506104,-1.6206121444702148,-0.0,2.058103084564209,4.90344953814105,0.0,0.28209197521209717,-1.541426960621969,-0.0,-0.010194138623774052,0.20089435577392578,0.0,0.019975977018475533,1.4328752756118774,0.0,-0.0012942985631525517
238.0,343.0,0.5133,0.7089,9.5868,-0.0286,0.0258,-0.1147,-1.88419832805776,0.0,3.3604812622070312,-1.6206320524215698,-0.0,2.051532506942749,4.903473737626829,0.0,0.2979734241962433,-1.541415039693014,-0.0,-0.011904696002602577,0.20094601809978485,0.0,0.006630995776504278,1.4329156875610352,0.0,-0.018163297325372696
240.0,332.0,0.5426,0.7334,9.3978,-0.0331,0.026,-0.1145,-1.8841783008971156,0.0,3.405761241912842,-1.62064790725708,-0.0,2.05985689163208,4.903421389847555,0.0,0.2764244079589844,-1.541426960621969,-0.0,-0.0063943685963749886,0.20097856223583221,0.0,0.009245092049241066,1.432903528213501,0.0,-0.015949882566928864
240.0,332.0,0.5426,0.7334,9.3978,-0.0331,0.026,-0.1145,-1.8841778240599574,0.0,3.39192533493042,-1.6206042766571045,-0.0,2.070486068725586,4.903445783048429,0.0,0.2818271219730377,-1.5414508024798792,-0.0,-0.010646154172718525,0.20093877613544464,0.0,0.013303500600159168,1.432931661605835,0.0,-0.031093614175915718
240.0,332.0,0.5426,0.7334,9.3978,-0.0331,0.026,-0.1145,-1.8842021427550257,0.0,3.4164023399353027,-1.6206800937652588,-0.0,2.015897750854492,4.903425457864561,0.0,0.2699394226074219,-1.5414107481585901,-0.0,-0.008257310837507248,0.2009541243314743,0.0,0.0009841981809586287,1.4329476356506348,0.0,-0.013737693428993225
240.0,332.0,0.5426,0.7334,9.3978,-0.0331,0.026,-0.1145,-1.884186407128805,0.0,3.335503101348877,-1.620635986328125,-0.0,2.016516923904419,4.9034094689186,0.0,0.27454835176467896,-1.5414069334613245,-0.0,-0.015747394412755966,0.200934499502182,0.0,0.006280999630689621,1.432895302772522,0.0,0.013283324427902699
240.0,332.0,0.5426,0.7334,9.3978,-0.0331,0.026,-0.1145,-1.88413729290151,0.0,3.3906970024108887,-1.6205679178237915,-0.0,2.0658042430877686,4.903461459070005,0.0,0.2897162437438965,-1.5414508024798792,-0.0,-0.028494607657194138,0.20096638798713684,0.0,0.015909064561128616,1.4329156875610352,0.0,0.0018582148477435112
240.0,332.0,0.5426,0.7334,9.3978,-0.0331,0.026,-0.1145,-1.8841859302916468,0.0,3.3977580070495605,-1.620635986328125,-0.0,2.1177947521209717,4.90340185442523,0.0,0.27602633833885193,-1.5414188543902796,-0.0,-0.009026709944009781,0.20097847282886505,0.0,0.016206402331590652,1.4328913688659668,0.0,0.05813737213611603
240.0,332.0,0.5426,0.7334,9.3978,-0.0331,0.026,-0.1145,-1.8841616115965785,0.0,3.434323787689209,-1.6206161975860596,-0.0,2.054337501525879,4.903441759734907,0.0,0.2951136827468872,-1.5414026419269007,-0.0,-0.012045856565237045,0.20092250406742096,0.0,0.019127212464809418,1.4329354763031006,0.0,0.0409633070230484
240.0,332.0,0.5426,0.7334,9.3978,-0.0331,0.026,-0.1145,-1.8841783008971156,0.0,3.364793062210083,-1.6206121444702148,-0.0,2.0653629302978516,4.903397786408224,0.0,0.27325254678726196,-1.5413826147662562,-0.0,-0.022364944219589233,0.2010023146867752,0.0,0.017745323479175568,1.4329195022583008,0.0,0.006374797783792019
240.0,332.0,0.5426,0.7334,9.3978,-0.0331,0.026,-0.1145,-1.8841616115965785,0.0,3.3662712574005127,-1.620627999305725,-0.0,2.0748281478881836,4.903441744833746,0.0,0.2800729274749756,-1.5413907209979456,-0.0,-0.013229341246187687,0.2009902000427246,0.0,-0.001605065306648612,1.4329395294189453,0.0,0.010777315124869347
240.0,332.0,0.5426,0.7334,9.3978,-0.0331,0.026,-0.1145,-1.884169717828268,0.0,3.428586483001709,-1.620627999305725,-0.0,2.095273017883301,4.9034777758415125,0.0,0.2861879765987396,-1.5414188543902796,-0.0,-0.014099488034844398,0.20097041130065918,0.0,0.022649239748716354,1.4329156875610352,0.0,0.02523835375905037
240.0,332.0,0.5426,0.7334,9.3978,-0.0331,0.026,-0.1145,-1.88419832805776,0.0,3.4167377948760986,-1.6205679178237915,-0.0,2.081801414489746,4.9034294364746,0.0,0.29163771867752075,-1.5414469877826136,-0.0,-0.0077993907034397125,0.20096230506896973,0.0,0.011268489994108677,1.4328913688659668,0.0,-0.03560497984290123
240.0,332.0,0.5426,0.7334,9.3978,-0.0331,0.026,-0.1145,-1.8842021427550257,0.0,3.385721445083618,-1.6205922365188599,-0.0,2.0461947917938232,4.903389739781179,0.0,0.2967543601989746,-1.5413506666766565,-0.0,-0.03150179237127304,0.20096643269062042,0.0,0.0053743841126561165,1.4329235553741455,0.0,0.010934587568044662
240.0,332.0,0.5426,0.7334,9.3978,-0.0331,0.026,-0.1145,-1.8841783008971156,0.0,3.384514331817627,-1.62062406539917,-0.0,2.0490424633026123,4.903429481178083,0.0,0.27350708842277527,-1.541426960621969,-0.0,-0.02653360180556774,0.20096229016780853,0.0,-0.007548951543867588,1.4329235553741455,0.0,0.03294084966182709
240.0,332.0,0.5426,0.7334,9.3978,-0.0331,0.026,-0.1145,-1.8841659031310023,0.0,3.4027397632598877,-1.6206002235412598,-0.0,2.0461301803588867,4.903361516981878,0.0,0.2758435904979706,-1.541398827229635,-0.0,-0.006492956541478634,0.20090258121490479,0.0,-0.00032230233773589134,1.4329276084899902,0.0,0.04842812195420265
240.0,332.0,0.5426,0.7334,9.3978,-0.0331,0.026,-0.1145,-1.8841334782042445,0.0,3.388460636138916,-1.62062406539917,-0.0,2.078911066055298,4.903405400901594,0.0,0.2779237926006317,-1.5414345900165003,-0.0,-0.02896362543106079,0.20097827911376953,0.0,0.009425354190170765,1.4328954219818115,0.0,0.005486573092639446
236.0,332.0,0.548,0.7334,9.5228,-0.0371,0.022,-0.1173,-1.884237905541891,0.0,3.406765937805176,-1.6206399202346802,-0.0,2.0966618061065674,4.903453695565023,0.0,0.2809075117111206,-1.5413907209979456,-0.0,-0.019207525998353958,0.2009582370519638,0.0,0.006625358480960131,1.4329354763031006,0.0,0.006881058216094971
236.0,332.0,0.548,0.7334,9.5228,-0.0371,0.022,-0.1173,-1.8841458759703578,0.0,3.372535228729248,-1.6205843687057495,-0.0,2.0766055583953857,4.903389739781179,0.0,0.28197985887527466,-1.5414226690875452,-0.0,-0.0047917235642671585,0.20096631348133087,0.0,0.005922143347561359,1.4329557418823242,0.0,-0.033569980412721634
236.0,332.0,0.548,0.7334,9.5228,-0.0371,0.022,-0.1173,-1.88413729290151,0.0,3.380126476287842,-1.6206082105636597,-0.0,2.065521717071533,4.903385597258367,0.0,0.2926756739616394,-1.5414031187640589,-0.0,-0.013286786153912544,0.20097419619560242,0.0,0.00087385019287467,1.4329555034637451,0.0,0.004861592315137386
236.0,332.0,0.548,0.7334,9.5228,-0.0371,0.022,-0.1173,-1.8842226467528285,0.0,3.392951488494873,-1.62064790725708,-0.0,2.093201160430908,4.903401258378782,0.0,0.2938033640384674,-1.5413950125323694,-0.0,-0.0018574856221675873,0.20098237693309784,0.0,0.0005839868099428713,1.4329838752746582,0.0,0.03475826606154442
236.0,332.0,0.548,0.7334,9.5228,-0.0371,0.022,-0.1173,-1.8841740093626917,0.0,3.4101271629333496,-1.6206399202346802,-0.0,2.056868553161621,4.903437691717901,0.0,0.273073673248291,-1.5414307753192347,-0.0,-0.016061002388596535,0.20095014572143555,0.0,0.01729981228709221,1.4328835010528564,0.0,0.0034394660033285618
236.0,332.0,0.548,0.7334,9.5228,-0.0371,0.022,-0.1173,-1.8842140636839808,0.0,3.3688015937805176,-1.6206916570663452,-0.0,2.071509599685669,4.9034294364746,0.0,0.28198087215423584,-1.5414345900165003,-0.0,-0.022129442542791367,0.20092636346817017,0.0,-0.005827094428241253,1.4329116344451904,0.0,0.03887564688920975
236.0,332.0,0.548,0.7334,9.5228,-0.0371,0.022,-0.1173,-1.8841783008971156,0.0,3.353684663772583,-1.6206161975860596,-0.0,2.0711069107055664,4.903397160559454,0.0,0.2915536165237427,-1.541426960621969,-0.0,-0.019367584958672523,0.2008943408727646,0.0,0.005792790092527866,1.4329276084899902,0.0,-0.039270009845495224
236.0,332.0,0.548,0.7334,9.5228,-0.0371,0.022,-0.1173,-1.8841492138304652,0.0,3.406029224395752,-1.6206121444702148,-0.0,2.0533173084259033,4.903377818852224,0.0,0.29665684700012207,-1.5414264837848108,-0.0,-0.02696780115365982,0.2009541094303131,0.0,-0.005670679267495871,1.4329116344451904,0.0,0.006101926323026419
236.0,332.0,0.548,0.7334,9.5228,-0.0371,0.022,-0.1173,-1.8841573200621546,0.0,3.3993735313415527,-1.6205843687057495,-0.0,2.0762124061584473,4.903481784253874,0.0,0.28381478786468506,-1.5414307753192347,-0.0,-0.010502584278583527,0.20099012553691864,0.0,0.0009712627506814897,1.4329595565795898,0.0,-0.010973677970468998
236.0,332.0,0.548,0.7334,9.5228,-0.0371,0.022,-0.1173,-1.8841897449889125,0.0,3.3616557121276855,-1.620635986328125,-0.0,2.0488908290863037,4.90340185442523,0.0,0.27989500761032104,-1.5414188543902796,-0.0,-0.005599088501185179,0.2009424865245819,0.0,0.010093661956489086,1.4329195022583008,0.0,0.03217301145195961
236.0,332.0,0.548,0.7334,9.5228,-0.0371,0.022,-0.1173,-1.884169717828268,0.0,3.3851170539855957,-1.6206161975860596,-0.0,2.052738666534424,4.903433549195089,0.0,0.2832685112953186,-1.541398827229635,-0.0,-0.011587321758270264,0.20091857016086578,0.0,0.0007345328340306878,1.4329357147216797,0.0,0.025699984282255173
236.0,332.0,0.548,0.7334,9.5228,-0.0371,0.022,-0.1173,-1.8841783008971156,0.0,3.3454980850219727,-1.6206598281860352,-0.0,2.064042091369629,4.903377818852224,0.0,0.2813751995563507,-1.5414546171771448,-0.0,-0.011439282447099686,0.20092251896858215,0.0,0.013520109467208385,1.4329195022583008,0.0,0.018424926325678825
236.0,332.0,0.548,0.7334,9.5228,-0.0371,0.022,-0.1173,-1.8841539822020472,0.0,3.4034361839294434,-1.6206121444702148,-0.0,2.029341459274292,4.903357448964872,0.0,0.2926446795463562,-1.541415039693014,-0.0,-0.008087638765573502,0.20099835097789764,0.0,0.0004304635804146528,1.4329276084899902,0.0,0.00929872877895832
236.0,332.0,0.548,0.7334,9.5228,-0.0371,0.022,-0.1173,-1.8841334782042445,0.0,3.37367582321167,-1.620635986328125,-0.0,2.060835838317871,4.903417247324743,0.0,0.270967960357666,-1.5414345900165003,-0.0,-0.008609096519649029,0.2010023146867752,0.0,0.0024307887069880962,1.4329075813293457,0.0,0.00046393927186727524
239.0,333.0,0.4947,0.7095,9.524,-0.033,0.0205,-0.1159,-1.8841783008971156,0.0,3.358285903930664,-1.62064790725708,-0.0,2.054912805557251,4.903401258378782,0.0,0.27394261956214905,-1.5414264837848108,-0.0,-0.023160818964242935,0.2009863555431366,0.0,0.010330922901630402,1.43294358253479,0.0,0.0016394550912082195
239.0,333.0,0.4947,0.7095,9.524,-0.033,0.0205,-0.1159,-1.8841783008971156,0.0,3.3784351348876953,-1.6206519603729248,-0.0,2.0152573585510254,4.903401258378782,0.0,0.295600950717926,-1.5414307753192347,-0.0,-0.03255206719040871,0.20095014572143555,0.0,0.0063638812862336636,1.4329395294189453,0.0,0.01754102297127247
239.0,333.0,0.4947,0.7095,9.524,-0.033,0.0205,-0.1159,-1.8841902218260707,0.0,3.4284982681274414,-1.6206161975860596,-0.0,2.0880773067474365,4.903437691717901,0.0,0.2650291621685028,-1.5414069334613245,-0.0,-0.0125810531899333,0.20099018514156342,0.0,-0.00257516885176301,1.4329116344451904,0.0,0.02065030299127102
239.0,333.0,0.4947,0.7095,9.524,-0.033,0.0205,-0.1159,-1.8841740093626917,0.0,3.420377254486084,-1.62061607837677,-0.0,2.075258255004883,4.903417277127065,0.0,0.27130958437919617,-1.5414627234088343,-0.0,-0.0188770554959774,0.2009265422821045,0.0,0.018879994750022888,1.432971715927124,0.0,-0.012456722557544708
239.0,333.0,0.4947,0.7095,9.524,-0.033,0.0205,-0.1159,-1.8841783008971156,0.0,3.3752999305725098,-1.6205883026123047,-0.0,2.043229103088379,4.903453680663862,0.0,0.28754425048828125,-1.5413864294635218,-0.0,-0.013385206460952759,0.20098233222961426,0.0,0.008202480152249336,1.4329395294189453,0.0,0.03106946311891079
239.0,333.0,0.4947,0.7095,9.524,-0.033,0.0205,-0.1159,-1.884141584435934,0.0,3.3866066932678223,-1.6205883026123047,-0.0,2.039027690887451,4.903405415802755,0.0,0.2811295986175537,-1.5414307753192347,-0.0,-0.016091501340270042,0.20095407962799072,0.0,0.008248033002018929,1.4329313039779663,0.0,-0.006200484465807676
239.0,333.0,0.4947,0.7095,9.524,-0.033,0.0205,-0.1159,-1.8841215572752894,0.0,3.4113059043884277,-1.620635986328125,-0.0,2.037022590637207,4.903373750835218,0.0,0.2791286110877991,-1.5414188543902796,-0.0,-0.013183912262320518,0.2009144127368927,0.0,0.01448901742696762,1.432887315750122,0.0,-0.02718079648911953
239.0,333.0,0.4947,0.7095,9.524,-0.033,0.0205,-0.1159,-1.8841902218260707,0.0,3.3958511352539062,-1.6206682920455933,-0.0,2.0661208629608154,4.903381797462263,0.0,0.28482669591903687,-1.5414107481585901,-0.0,-0.011192843317985535,0.20098626613616943,0.0,0.009277123026549816,1.4328993558883667,0.0,0.026193952187895775
239.0,333.0,0.4947,0.7095,9.524,-0.033,0.0205,-0.1159,-1.8841783008971156,0.0,3.423901081085205,-1.6206518411636353,-0.0,2.0640835762023926,4.903437691717901,0.0,0.2800995707511902,-1.541415039693014,-0.0,-0.015761202201247215,0.20092251896858215,0.0,0.00847470760345459,1.4329476356506348,0.0,-0.02524801716208458
239.0,333.0,0.4947,0.7095,9.524,-0.033,0.0205,-0.1159,-1.8842140636839808,0.0,3.3611252307891846,-1.6206762790679932,-0.0,2.0520334243774414,4.9034294364746,0.0,0.2917099893093109,-1.5414031187640589,-0.0,-0.003716018283739686,0.20092234015464783,0.0,-0.003834855044260621,1.4329354763031006,0.0,0.030106857419013977
239.0,333.0,0.4947,0.7095,9.524,-0.033,0.0205,-0.1159,-1.8842102489867152,0.0,3.433842658996582,-1.6206082105636597,-0.0,2.0163350105285645,4.903429466276922,0.0,0.28055015206336975,-1.5414508024798792,-0.0,-0.015338653698563576,0.20098230242729187,0.0,0.008921975269913673,1.4329036474227905,0.0,0.04458475485444069
239.0,333.0,0.4947,0.7095,9.524,-0.033,0.0205,-0.1159,-1.8841573200621546,0.0,3.373537302017212,-1.6206320524215698,-0.0,2.0788235664367676,4.903397175460615,0.0,0.2758658528327942,-1.5414188543902796,-0.0,-0.022011924535036087,0.20094603300094604,0.0,-0.0024165576323866844,1.4329116344451904,0.0,-0.01260045450180769
239.0,333.0,0.4947,0.7095,9.524,-0.033,0.0205,-0.1159,-1.8841740093626917,0.0,3.3843207359313965,-1.6206320524215698,-0.0,2.07470965385437,4.903401258378782,0.0,0.28444552421569824,-1.5414307753192347,-0.0,-0.020938828587532043,0.20091043412685394,0.0,-0.00195977371186018,1.432903528213501,0.0,-0.05159346014261246
239.0,333.0,0.4947,0.7095,9.524,-0.033,0.0205,-0.1159,-1.8841573200621546,0.0,3.408440113067627,-1.6206320524215698,-0.0,2.061772108078003,4.903393807798185,0.0,0.2888392210006714,-1.5414188543902796,-0.0,-0.008921168744564056,0.20097023248672485,0.0,0.014115731231868267,1.432903528213501,0.0,0.01183166541159153
239.0,333.0,0.4947,0.7095,9.524,-0.033,0.0205,-0.1159,-1.8841616115965785,0.0,3.416368007659912,-1.6206519603729248,-0.0,2.039945363998413,4.903445738344946,0.0,0.29164934158325195,-1.5414345900165003,-0.0,-0.011988718993961811,0.20096230506896973,0.0,-0.005132783204317093,1.4329395294189453,0.0,0.00814002938568592
242.0,334.0,0.5324,0.7172,9.5157,-0.0379,0.0228,-0.1173,-1.8842102489867152,0.0,3.423041820526123,-1.6206557750701904,-0.0,2.109724521636963,4.903441789537229,0.0,0.27219924330711365,-1.5414188543902796,-0.0,-0.005808413028717041,0.20092251896858215,0.0,-0.0024812680203467607,1.432931661605835,0.0,-0.01568029820919037
242.0,334.0,0.5324,0.7172,9.5157,-0.0379,0.0228,-0.1173,-1.8841296635069789,0.0,3.3885278701782227,-1.6206518411636353,-0.0,2.0926873683929443,4.903425487666883,0.0,0.29470741748809814,-1.5413864294635218,-0.0,-0.013041453436017036,0.20102223753929138,0.0,0.006305167451500893,1.4329195022583008,0.0,-0.0026985779404640198
242.0,334.0,0.5324,0.7172,9.5157,-0.0379,0.0228,-0.1173,-1.88413729290151,0.0,3.418426990509033,-1.6206121444702148,-0.0,2.0352723598480225,4.903361427574911,0.0,0.2954241633415222,-1.5414031187640589,-0.0,-0.0014959146501496434,0.20096638798713684,0.0,0.010492052882909775,1.4329197406768799,0.0,-0.010194898582994938
242.0,334.0,0.5324,0.7172,9.5157,-0.0379,0.0228,-0.1173,-1.884169717828268,0.0,3.390524387359619,-1.620627999305725,-0.0,2.06622314453125,4.903421389847555,0.0,0.26574406027793884,-1.5414345900165003,-0.0,-0.011747244745492935,0.20095810294151306,0.0,0.008949372917413712,1.4329156875610352,0.0,-0.02331032231450081
242.0,334.0,0.5324,0.7172,9.5157,-0.0379,0.0228,-0.1173,-1.8842183552184046,0.0,3.3715600967407227,-1.62062406539917,-0.0,2.067298173904419,4.903437691717901,0.0,0.2866553068161011,-1.5414188543902796,-0.0,-0.026589179411530495,0.20096640288829803,0.0,-0.0049245161935687065,1.4328913688659668,0.0,-0.02432488650083542
242.0,334.0,0.5324,0.7172,9.5157,-0.0379,0.0228,-0.1173,-1.8841659031310023,0.0,3.3534131050109863,-1.6205759048461914,-0.0,2.064764976501465,4.903397816210546,0.0,0.28931766748428345,-1.541426960621969,-0.0,-0.012124594300985336,0.20094601809978485,0.0,0.009180948138237,1.4328993558883667,0.0,0.0010035885497927666
242.0,334.0,0.5324,0.7172,9.5157,-0.0379,0.0228,-0.1173,-1.8841296635069789,0.0,3.399850845336914,-1.62064790725708,-0.0,2.1083078384399414,4.9034335044916055,0.0,0.3012186884880066,-1.5414107481585901,-0.0,-0.019975556060671806,0.20091859996318817,0.0,0.007897288538515568,1.4329354763031006,0.0,0.016261156648397446
242.0,334.0,0.5324,0.7172,9.5157,-0.0379,0.0228,-0.1173,-1.8841783008971156,0.0,3.3775486946105957,-1.62064790725708,-0.0,2.076306104660034,4.903413447528639,0.0,0.27721431851387024,-1.5414226690875452,-0.0,9.251898154616356e-05,0.2009420245885849,0.0,0.014335510320961475,1.4329036474227905,0.0,-0.01025463454425335
242.0,334.0,0.5324,0.7172,9.5157,-0.0379,0.0228,-0.1173,-1.884169717828268,0.0,3.4153311252593994,-1.620643973350525,-0.0,2.0616705417633057,4.903425487666883,0.0,0.28528234362602234,-1.5414465109454554,-0.0,0.0038134618662297726,0.20091858506202698,0.0,0.0049783154390752316,1.4329357147216797,0.0,-0.007736082188785076
242.0,334.0,0.5324,0.7172,9.5157,-0.0379,0.0228,-0.1173,-1.8842102489867152,0.0,3.382295608520508,-1.62064790725708,-0.0,2.0325260162353516,4.903429451375761,0.0,0.2834636867046356,-1.5414345900165003,-0.0,-0.007927591912448406,0.20090658962726593,0.0,0.00179838459007442,1.4329235553741455,0.0,0.01015802938491106
242.0,334.0,0.5324,0.7172,9.5157,-0.0379,0.0228,-0.1173,-1.8841616115965785,0.0,3.344614267349243,-1.6206082105636597,-0.0,2.0847315788269043,4.903441774636068,0.0,0.28779715299606323,-1.5414388815509241,-0.0,-0.0140303336083889,0.20091059803962708,0.0,0.008870101533830166,1.4329235553741455,0.0,0.015489332377910614
242.0,334.0,0.5324,0.7172,9.5157,-0.0379,0.0228,-0.1173,-1.8841659031310023,0.0,3.3816275596618652,-1.6206121444702148,-0.0,2.051699638366699,4.903425457864561,0.0,0.28179022669792175,-1.5414069334613245,-0.0,-0.007354579865932465,0.20097824931144714,0.0,-0.0007721760193817317,1.4329514503479004,0.0,-0.00321973767131567
242.0,334.0,0.5324,0.7172,9.5157,-0.0379,0.0228,-0.1173,-1.8841940365233363,0.0,3.430159568786621,-1.62061607837677,-0.0,2.1236412525177,4.90340122857646,0.0,0.28293076157569885,-1.5414026419269007,-0.0,-0.02415228635072708,0.20093797147274017,0.0,0.009680643677711487,1.432915449142456,0.0,0.024282772094011307
242.0,334.0,0.5324,0.7172,9.5157,-0.0379,0.0228,-0.1173,-1.8841053448119105,0.0,3.3773255348205566,-1.6205798387527466,-0.0,2.0698132514953613,4.903405400901594,0.0,0.27530956268310547,-1.5414188543902796,-0.0,-0.012169953435659409,0.2009783536195755,0.0,0.016824018210172653,1.4329036474227905,0.0,-0.007547281216830015
235.0,337.0,0.5336,0.7316,9.533,-0.0305,0.022,-0.1127,-1.8842102489867152,0.0,3.3451735973358154,-1.6206518411636353,-0.0,2.1012661457061768,4.9034094689186,0.0,0.26896268129348755,-1.5414188543902796,-0.0,-0.009393785148859024,0.20091861486434937,0.0,-0.0041804444044828415,1.43294358253479,0.0,-0.022349510341882706
235.0,337.0,0.5336,0.7316,9.533,-0.0305,0.022,-0.1127,-1.8841902218260707,0.0,3.3566884994506836,-1.620643973350525,-0.0,2.0273756980895996,4.903449821263113,0.0,0.2773176431655884,-1.541398827229635,-0.0,-0.002371329814195633,0.20099826157093048,0.0,0.01638626679778099,1.432931661605835,0.0,0.008154034614562988
235.0,337.0,0.5336,0.7316,9.533,-0.0305,0.022,-0.1127,-1.8842021427550257,0.0,3.388397216796875,-1.6206161975860596,-0.0,2.0447912216186523,4.903465541988172,0.0,0.2824867367744446,-1.5414069334613245,-0.0,-0.018992718309164047,0.20099015533924103,0.0,0.014140801504254341,1.4329357147216797,0.0,-0.013545452617108822
235.0,337.0,0.5336,0.7316,9.533,-0.0305,0.022,-0.1127,-1.8841821155943812,0.0,3.3812992572784424,-1.6206082105636597,-0.0,2.07934308052063,4.903405386000433,0.0,0.2972121238708496,-1.5414307753192347,-0.0,-0.011319618672132492,0.2009502649307251,0.0,0.01605418510735035,1.4329676628112793,0.0,0.017536787316203117
235.0,337.0,0.5336,0.7316,9.533,-0.0305,0.022,-0.1127,-1.8841783008971156,0.0,3.3509974479675293,-1.6206201314926147,-0.0,2.0620224475860596,4.903437751322546,0.0,0.2753690779209137,-1.5414345900165003,-0.0,-0.012728799134492874,0.20097030699253082,0.0,0.007857047952711582,1.432931661605835,0.0,0.004099659621715546
235.0,337.0,0.5336,0.7316,9.533,-0.0305,0.022,-0.1127,-1.884169717828268,0.0,3.4020230770111084,-1.620672345161438,-0.0,2.0769009590148926,4.903429481178083,0.0,0.2908170819282532,-1.541415039693014,-0.0,-0.017745910212397575,0.20095014572143555,0.0,0.006894117221236229,1.4329555034637451,0.0,0.04854973405599594
235.0,337.0,0.5336,0.7316,9.533,-0.0305,0.022,-0.1127,-1.8841940365233363,0.0,3.3993124961853027,-1.6205922365188599,-0.0,2.1011693477630615,4.9034294364746,0.0,0.2791668772697449,-1.5414031187640589,-0.0,-0.004804653115570545,0.20096230506896973,0.0,0.009849078953266144,1.4329075813293457,0.0,-0.0755939930677414
235.0,337.0,0.5336,0.7316,9.533,-0.0305,0.022,-0.1127,-1.8841783008971156,0.0,3.393184185028076,-1.6206996440887451,-0.0,2.0519537925720215,4.903425472765722,0.0,0.2846421003341675,-1.5414589087115687,-0.0,-0.009703714400529861,0.20096230506896973,0.0,0.011282287538051605,1.4328675270080566,0.0,0.02901703119277954
235.0,337.0,0.5336,0.7316,9.533,-0.0305,0.022,-0.1127,-1.8841740093626917,0.0,3.4014439582824707,-1.6206438541412354,-0.0,2.0791492462158203,4.903405386000433,0.0,0.28550654649734497,-1.541415039693014,-0.0,-0.018353819847106934,0.20093847811222076,0.0,0.0014691648539155722,1.432903528213501,0.0,-0.01570736989378929
235.0,337.0,0.5336,0.7316,9.533,-0.0305,0.022,-0.1127,-1.884141584435934,0.0,3.378932237625122,-1.6206161975860596,-0.0,2.0644235610961914,4.903425472765722,0.0,0.2778468132019043,-1.5414026419269007,-0.0,-0.015740258619189262,0.20095407962799072,0.0,0.00038720661541447043,1.4329276084899902,0.0,0.018273405730724335
235.0,337.0,0.5336,0.7316,9.533,-0.0305,0.022,-0.1127,-1.8841859302916468,0.0,3.386319160461426,-1.620643973350525,-0.0,2.090930700302124,4.90340535619811,0.0,0.28296419978141785,-1.5414469877826136,-0.0,-0.009037553332746029,0.20095829665660858,0.0,0.0033334146719425917,1.4329514503479004,0.0,0.0064858561381697655
235.0,337.0,0.5336,0.7316,9.533,-0.0305,0.022,-0.1127,-1.8841945133604945,0.0,3.367246150970459,-1.6206438541412354,-0.0,2.047870397567749,4.903433549195089,0.0,0.28068673610687256,-1.5414107481585901,-0.0,-0.025918126106262207,0.20097839832305908,0.0,-0.0052711195312440395,1.4329314231872559,0.0,0.018134191632270813
235.0,337.0,0.5336,0.7316,9.533,-0.0305,0.022,-0.1127,-1.8841573200621546,0.0,3.3980863094329834,-1.6206082105636597,-0.0,2.048318862915039,4.903405386000433,0.0,0.28208234906196594,-1.5414107481585901,-0.0,-0.02551237680017948,0.20096230506896973,0.0,0.0030022012069821358,1.4329395294189453,0.0,0.020208489149808884
235.0,337.0,0.5336,0.7316,9.533,-0.0305,0.022,-0.1127,-1.8841821155943812,0.0,3.427820920944214,-1.620604157447815,-0.0,2.0514976978302,4.9034094689186,0.0,0.2897544205188751,-1.5413783232318323,-0.0,-0.015014756470918655,0.20096640288829803,0.0,0.009127048775553703,1.4329354763031006,0.0,0.01669541746377945
235.0,337.0,0.5336,0.7316,9.533,-0.0305,0.022,-0.1127,-1.8841492138304652,0.0,3.3677854537963867,-1.6205922365188599,-0.0,2.0574452877044678,4.903385552554884,0.0,0.2868906259536743,-1.5414188543902796,-0.0,-0.01446816511452198,0.20096230506896973,0.0,0.0033964847680181265,1.4329395294189453,0.0,0.024335194379091263
235.0,331.0,0.5151,0.7388,9.4379,-0.0341,0.0292,-0.1167,-1.8841616115965785,0.0,3.4008522033691406,-1.6205883026123047,-0.0,2.05757999420166,4.903365584998884,0.0,0.28373071551322937,-1.5414026419269007,-0.0,-0.009661193005740643,0.20097431540489197,0.0,0.00030188821256160736,1.4329395294189453,0.0,0.001816360279917717
235.0,331.0,0.5151,0.7388,9.4379,-0.0341,0.0292,-0.1167,-1.8842102489867152,0.0,3.4074435234069824,-1.620627999305725,-0.0,2.0929126739501953,4.903393822699346,0.0,0.2804705500602722,-1.5414708296405237,-0.0,-0.025033917278051376,0.20098234713077545,0.0,-0.0060201287269592285,1.4329314231872559,0.0,-0.025321077555418015
235.0,331.0,0.5151,0.7388,9.4379,-0.0341,0.0292,-0.1167,-1.8841573200621546,0.0,3.385890483856201,-1.6206320524215698,-0.0,2.090712070465088,4.903453710466184,0.0,0.2798876464366913,-1.5414627234088343,-0.0,-0.026640888303518295,0.20094208419322968,0.0,0.004779529757797718,1.4329555034637451,0.0,0.01431828923523426
235.0,331.0,0.5151,0.7388,9.4379,-0.0341,0.0292,-0.1167,-1.884169717828268,0.0,3.339850664138794,-1.6206682920455933,-0.0,2.0914523601531982,4.903429481178083,0.0,0.29316869378089905,-1.5414231459247034,-0.0,-0.012220039032399654,0.20096635818481445,0.0,0.014989528805017471,1.43294358253479,0.0,0.0055423639714717865
235.0,331.0,0.5151,0.7388,9.4379,-0.0341,0.0292,-0.1167,-1.8841740093626917,0.0,3.3751041889190674,-1.6206082105636597,-0.0,2.017627239227295,4.903389709978857,0.0,0.27765896916389465,-1.5414188543902796,-0.0,-0.017120953649282455,0.20094607770442963,0.0,-0.0024086632765829563,1.4328994750976562,0.0,-0.006449576932936907
235.0,331.0,0.5151,0.7388,9.4379,-0.0341,0.0292,-0.1167,-1.8842021427550257,0.0,3.394073486328125,-1.6206916570663452,-0.0,2.0559134483337402,4.903433549195089,0.0,0.2789355516433716,-1.5414031187640589,-0.0,-0.01995621621608734,0.20093846321105957,0.0,-0.013593968003988266,1.4329476356506348,0.0,0.04462923854589462
235.0,331.0,0.5151,0.7388,9.4379,-0.0341,0.0292,-0.1167,-1.8841821155943812,0.0,3.406649112701416,-1.6206438541412354,-0.0,2.0844855308532715,4.903405386000433,0.0,0.2890743613243103,-1.5414031187640589,-0.0,-0.01806699112057686,0.20094607770442963,0.0,0.02137935906648636,1.4329075813293457,0.0,0.050506122410297394
235.0,331.0,0.5151,0.7388,9.4379,-0.0341,0.0292,-0.1167,-1.88419832805776,0.0,3.4068281650543213,-1.6206399202346802,-0.0,2.119781255722046,4.903433549195089,0.0,0.28364965319633484,-1.5413950125323694,-0.0,-0.01585763320326805,0.20100615918636322,0.0,-0.003139571752399206,1.43294358253479,0.0,0.004339647479355335
235.0,331.0,0.5151,0.7388,9.4379,-0.0341,0.0292,-0.1167,-1.88419832805776,0.0,3.37880539894104,-1.6206598281860352,-0.0,2.053870916366577,4.903389709978857,0.0,0.2804942727088928,-1.5414388815509241,-0.0,-0.000322041567414999,0.20087844133377075,0.0,0.006860322318971157,1.4328632354736328,0.0,-0.002731563523411751
235.0,331.0,0.5151,0.7388,9.4379,-0.0341,0.0292,-0.1167,-1.8841740093626917,0.0,3.4449622631073,-1.6206399202346802,-0.0,2.0579915046691895,4.903421389847555,0.0,0.27571022510528564,-1.541415039693014,-0.0,-0.029037415981292725,0.20092657208442688,0.0,0.00616498664021492,1.4329036474227905,0.0,0.0027205105870962143
235.0,331.0,0.5151,0.7388,9.4379,-0.0341,0.0292,-0.1167,-1.8841659031310023,0.0,3.3995349407196045,-1.6206161975860596,-0.0,2.0732040405273438,4.903441759734907,0.0,0.2934756278991699,-1.5414345900165003,-0.0,-0.014412607997655869,0.20095013082027435,0.0,-0.0024846915621310472,1.432931661605835,0.0,-0.023176977410912514
235.0,331.0,0.5151,0.7388,9.4379,-0.0341,0.0292,-0.1167,-1.884141584435934,0.0,3.405697822570801,-1.62062406539917,-0.0,2.0394561290740967,4.903437706619062,0.0,0.2756028175354004,-1.5414031187640589,-0.0,-0.01005288865417242,0.2009821981191635,0.0,0.006691121496260166,1.4329276084899902,0.0,-0.004375702701508999
235.0,331.0,0.5151,0.7388,9.4379,-0.0341,0.0292,-0.1167,-1.884141584435934,0.0,3.364166259765625,-1.62061607837677,-0.0,2.054067611694336,4.903413179307737,0.0,0.2878044843673706,-1.5414388815509241,-0.0,-0.002434263238683343,0.20097823441028595,0.0,0.005316763650625944,1.4329514503479004,0.0,0.025237970054149628
235.0,331.0,0.5151,0.7388,9.4379,-0.0341,0.0292,-0.1167,-1.8841659031310023,0.0,3.3963255882263184,-1.6206518411636353,-0.0,2.048175573348999,4.903429466276922,0.0,0.28251299262046814,-1.5414307753192347,-0.0,-0.01578187569975853,0.2008906751871109,0.0,0.013516947627067566,1.4329116344451904,0.0,-0.015824157744646072
236.0,340.0,0.5198,0.7388,9.5426,-0.0389,0.024,-0.111,-1.8841902218260707,0.0,3.3674187660217285,-1.6206161975860596,-0.0,2.0616650581359863,4.903389709978857,0.0,0.28232139348983765,-1.541398827229635,-0.0,-0.028351053595542908,0.20091062784194946,0.0,0.0019405175698921084,1.4329197406768799,0.0,-0.0382954478263855
236.0,340.0,0.5198,0.7388,9.5426,-0.0389,0.024,-0.111,-1.8841053448119105,0.0,3.377608299255371,-1.6206121444702148,-0.0,2.0783557891845703,4.903385552554884,0.0,0.2770861089229584,-1.5414388815509241,-0.0,-0.022864338010549545,0.20098228752613068,0.0,0.01221870630979538,1.4329197406768799,0.0,-0.019831085577607155
236.0,340.0,0.5198,0.7388,9.5426,-0.0389,0.024,-0.111,-1.8841902218260707,0.0,3.402470827102661,-1.6205843687057495,-0.0,2.074763059616089,4.903498175531187,0.0,0.2846986651420593,-1.5414345900165003,-0.0,-0.0030709290876984596,0.20092254877090454,0.0,-0.0066248527728021145,1.4329075813293457,0.0,-0.027340691536664963
236.0,340.0,0.5198,0.7388,9.5426,-0.0389,0.024,-0.111,-1.8842021427550257,0.0,3.376713991165161,-1.6206320524215698,-0.0,2.0765151977539062,4.90340122857646,0.0,0.2835739850997925,-1.5414226690875452,-0.0,-0.01589254103600979,0.20093047618865967,0.0,-0.0016767708584666252,1.4329276084899902,0.0,-0.0442269928753376
236.0,340.0,0.5198,0.7388,9.5426,-0.0389,0.024,-0.111,-1.884169717828268,0.0,3.405337333679199,-1.6206201314926147,-0.0,2.0633907318115234,4.903421389847555,0.0,0.27637779712677,-1.5414546171771448,-1.1063129301547292e-09,-0.00838901661336422,0.2010100781917572,0.0,0.002590075135231018,1.4328954219818115,0.0,0.013752314262092113
236.0,340.0,0.5198,0.7388,9.5426,-0.0389,0.024,-0.111,-1.884181638757223,0.0,3.4207592010498047,-1.62062406539917,-0.0,2.070810317993164,4.903429481178083,0.0,0.2853700816631317,-1.5414226690875452,-3.079462954167639e-13,-0.007001414895057678,0.20099014043807983,0.0,0.002538831904530525,1.432903528213501,0.0,0.010702337138354778
236.0,340.0,0.5198,0.7388,9.5426,-0.0389,0.024,-0.111,-1.8841616115965785,0.0,3.399958610534668,-1.6206201314926147,-0.0,2.0232861042022705,4.9034094689186,0.0,0.28396403789520264,-1.5414307753192347,-8.571798725668148e-17,-0.014353148639202118,0.20095829665660858,0.0,0.010331101715564728,1.4329197406768799,0.0,0.03401189297437668
236.0,340.0,0.5198,0.7388,9.5426,-0.0389,0.024,-0.111,-1.8841334782042445,0.0,3.4007370471954346,-1.620604157447815,-0.0,2.0623667240142822,4.903401869326391,0.0,0.2796371877193451,-1.541415039693014,-2.3859916524754112e-20,-0.01552653219550848,0.20096637308597565,0.0,0.0033761386293917894,1.4328994750976562,0.0,-0.03884226083755493
236.0,340.0,0.5198,0.7388,9.5426,-0.0389,0.024,-0.111,-1.8842021427550257,0.0,3.3734774589538574,-1.6206761598587036,-0.0,2.041341781616211,4.903385552554884,0.0,0.2725844383239746,-1.5414426962481897,-6.641494902841694e-24,-0.012771399691700935,0.20094606280326843,0.0,0.007760862819850445,1.4329514503479004,0.0,0.00841431599110365
236.0,340.0,0.5198,0.7388,9.5426,-0.0389,0.024,-0.111,-1.8841659031310023,0.0,3.404741048812866,-1.6206518411636353,-0.0,2.077946901321411,4.90340122857646,0.0,0.28573691844940186,-1.541415039693014,-1.8486847461777526e-27,-0.00986908283084631,0.20091456174850464,0.0,0.004837956745177507,1.4328954219818115,0.0,0.009929843246936798
236.0,340.0,0.5198,0.7388,9.5426,-0.0389,0.024,-0.111,-1.8841902218260707,0.0,3.399697780609131,-1.6206762790679932,-0.0,2.099984645843506,4.903441789537229,0.0,0.28038960695266724,-1.5414188543902796,-3.359892874689091e-32,-0.015622136183083057,0.20093455910682678,0.0,0.004203682765364647,1.4329676628112793,0.0,0.047521404922008514
236.0,340.0,0.5198,0.7388,9.5426,-0.0389,0.024,-0.111,-1.88413729290151,0.0,3.389916181564331,-1.6207079887390137,-0.0,2.0570127964019775,4.903389709978857,0.0,0.2948639988899231,-1.5414307753192347,-9.352384870696706e-36,-0.01251610741019249,0.20096637308597565,0.0,-0.003219831036403775,1.4329156875610352,0.0,0.018653444945812225
236.0,340.0,0.5198,0.7388,9.5426,-0.0389,0.024,-0.111,-1.8841859302916468,0.0,3.4180350303649902,-1.6206797361373901,-0.0,2.056356430053711,4.903425472765722,0.0,0.2739746570587158,-1.5414107481585901,-2.603270629890215e-39,-0.019780628383159637,0.20093458890914917,0.0,0.012562589719891548,1.4329273700714111,0.0,0.02890121564269066
236.0,340.0,0.5198,0.7388,9.5426,-0.0389,0.024,-0.111,-1.8841616115965785,0.0,3.3824310302734375,-1.6206201314926147,-0.0,2.0397346019744873,4.903425472765722,0.0,0.2779037356376648,-1.541426960621969,-7.244713060559304e-43,-0.0029452769085764885,0.20096230506896973,0.0,0.004139821045100689,1.4329075813293457,0.0,0.018229657784104347
236.0,340.0,0.5198,0.7388,9.5426,-0.0389,0.024,-0.111,-1.8842059574522914,0.0,3.4354543685913086,-1.6206399202346802,-0.0,2.0930027961730957,4.903377401619711,0.0,0.28562361001968384,-1.5414188543902796,-0.0,-0.010300952941179276,0.20091865956783295,0.0,0.009704481810331345,1.4329156875610352,0.0,-0.06214357912540436
238.0,335.0,0.5109,0.722,9.6197,-0.0312,0.0264,-0.1171,-1.8842421970763148,0.0,3.4099278450012207,-1.6206201314926147,-0.0,2.0507547855377197,4.903425457864561,0.0,0.2870085537433624,-1.5414188543902796,-0.0,-0.017511796206235886,0.20098614692687988,0.0,0.01388125866651535,1.4328672885894775,0.0,0.00660816952586174
238.0,335.0,0.5109,0.722,9.6197,-0.0312,0.0264,-0.1171,-1.8841783008971156,0.0,3.4102141857147217,-1.6206557750701904,-0.0,2.0332164764404297,4.903417232423582,0.0,0.2886090874671936,-1.5414307753192347,-0.0,-0.0275423564016819,0.20089471340179443,0.0,0.006557903252542019,1.4329075813293457,0.0,-0.0025284886360168457
238.0,335.0,0.5109,0.722,9.6197,-0.0312,0.0264,-0.1171,-1.8842021427550257,0.0,3.379039764404297,-1.620596170425415,-0.0,2.075991630554199,4.903425472765722,0.0,0.27360999584198,-1.5414665381061,-0.0,-0.020272819325327873,0.20091867446899414,0.0,0.0013651084154844284,1.432971715927124,0.0,-0.022483093664050102
238.0,335.0,0.5109,0.722,9.6197,-0.0312,0.0264,-0.1171,-1.8841659031310023,0.0,3.3581724166870117,-1.6206320524215698,-0.0,2.0778915882110596,4.903421374946394,0.0,0.29275280237197876,-1.5414307753192347,-0.0,-0.009554813615977764,0.20093053579330444,0.0,0.01482572965323925,1.4329276084899902,0.0,0.0032734740525484085
238.0,335.0,0.5109,0.722,9.6197,-0.0312,0.0264,-0.1171,-1.884197851220602,0.0,3.3827080726623535,-1.620635986328125,-0.0,2.052090883255005,4.90340535619811,0.0,0.2858508229255676,-1.5414465109454554,-0.0,-0.010027184151113033,0.20095016062259674,0.0,0.001575116184540093,1.432931661605835,0.0,0.019710253924131393
238.0,335.0,0.5109,0.722,9.6197,-0.0312,0.0264,-0.1171,-1.8842421970763148,0.0,3.4108076095581055,-1.6206399202346802,-0.0,2.064981698989868,4.903369563608923,0.0,0.2866426706314087,-1.5413664023028772,-0.0,-0.006342104636132717,0.20095016062259674,0.0,0.011361293494701385,1.432887315750122,0.0,-0.027748797088861465
238.0,335.0,0.5109,0.722,9.6197,-0.0312,0.0264,-0.1171,-1.8841096363463343,0.0,3.3536643981933594,-1.6206518411636353,-0.0,2.1151509284973145,4.903437706619062,0.0,0.276247501373291,-1.5414307753192347,-0.0,-0.017081018537282944,0.20086251199245453,0.0,0.003531689289957285,1.4329276084899902,0.0,-0.014807810075581074
238.0,335.0,0.5109,0.722,9.6197,-0.0312,0.0264,-0.1171,-1.884181638757223,0.0,3.369935989379883,-1.620627999305725,-0.0,2.0843307971954346,4.903421374946394,0.0,0.27882644534111023,-1.541398827229635,-0.0,-0.006915952544659376,0.20093847811222076,0.0,-0.0025240310933440924,1.4329278469085693,0.0,-0.03597859665751457
238.0,335.0,0.5109,0.722,9.6197,-0.0312,0.0264,-0.1171,-1.8841496906676234,0.0,3.4101810455322266,-1.6205757856369019,-0.0,2.0383851528167725,4.903377789049902,0.0,0.2706438899040222,-1.5414345900165003,-0.0,-0.009872037917375565,0.20087853074073792,0.0,0.005681238137185574,1.4329676628112793,0.0,0.03955623507499695
238.0,335.0,0.5109,0.722,9.6197,-0.0312,0.0264,-0.1171,-1.8842021427550257,0.0,3.4003772735595703,-1.6206399202346802,-0.0,2.02864933013916,4.903389695077696,0.0,0.2815786898136139,-1.5414069334613245,-0.0,-0.003669665427878499,0.2009345144033432,0.0,0.008231637999415398,1.4329197406768799,0.0,0.010920119471848011
238.0,335.0,0.5109,0.722,9.6197,-0.0312,0.0264,-0.1171,-1.884141584435934,0.0,3.384948253631592,-1.6206557750701904,-0.0,2.051088333129883,4.9034254280622385,0.0,0.2910120487213135,-1.5414188543902796,-0.0,-0.008118627592921257,0.20097027719020844,0.0,0.0057613602839410305,1.432875394821167,0.0,0.0817452222108841
238.0,335.0,0.5109,0.722,9.6197,-0.0312,0.0264,-0.1171,-1.8841496906676234,0.0,3.3695759773254395,-1.6205922365188599,-0.0,1.9982340335845947,4.903401869326391,0.0,0.28577110171318054,-1.5413907209979456,-0.0,-0.010223252698779106,0.20098617672920227,0.0,0.0056677283719182014,1.432931661605835,0.0,0.01105564646422863
238.0,335.0,0.5109,0.722,9.6197,-0.0312,0.0264,-0.1171,-1.8841740093626917,0.0,3.368636131286621,-1.62064790725708,-0.0,2.0508873462677,4.903417232423582,0.0,0.2803974449634552,-1.5414107481585901,-0.0,-0.030290264636278152,0.20096200704574585,0.0,0.002977567259222269,1.4329278469085693,0.0,-0.030600260943174362
238.0,335.0,0.5109,0.722,9.6197,-0.0312,0.0264,-0.1171,-1.8841783008971156,0.0,3.3730411529541016,-1.6205922365188599,-0.0,2.073362350463867,4.903389709978857,0.0,0.2903374433517456,-1.541415039693014,-0.0,-0.014976223930716515,0.20092256367206573,0.0,0.009170923382043839,1.4329113960266113,0.0,0.03778720274567604
243.0,321.0,0.5025,0.7394,9.4319,-0.0396,0.0258,-0.1144,-1.8841616115965785,0.0,3.4101600646972656,-1.6206201314926147,-0.0,2.0483577251434326,4.903437751322546,0.0,0.280458003282547,-1.5414627234088343,-0.0,-0.013223564252257347,0.20093846321105957,0.0,0.007677562069147825,1.4329555034637451,0.0,0.03586174175143242
243.0,321.0,0.5025,0.7394,9.4319,-0.0396,0.0258,-0.1144,-1.8841453991331996,0.0,3.3884997367858887,-1.62065589427948,-0.0,2.0438039302825928,4.903425472765722,0.0,0.2837652564048767,-1.5414508024798792,-0.0,-0.016298364847898483,0.20092253386974335,0.0,0.00926237553358078,1.4329395294189453,0.0,0.05640994757413864
243.0,321.0,0.5025,0.7394,9.4319,-0.0396,0.0258,-0.1144,-1.8842059574522914,0.0,3.3653411865234375,-1.620604157447815,-0.0,2.1017050743103027,4.903433549195089,0.0,0.281965970993042,-1.541398827229635,-0.0,-0.012304132804274559,0.20091471076011658,0.0,0.004246579948812723,1.4329195022583008,0.0,0.03158235549926758
243.0,321.0,0.5025,0.7394,9.4319,-0.0396,0.0258,-0.1144,-1.8841902218260707,0.0,3.3441739082336426,-1.620635986328125,-0.0,2.0687594413757324,4.9034335789974115,0.0,0.2739813029766083,-1.5414508024798792,-0.0,-0.009845193475484848,0.20093052089214325,0.0,0.02182183414697647,1.432931661605835,0.0,-0.05040966719388962
243.0,321.0,0.5025,0.7394,9.4319,-0.0396,0.0258,-0.1144,-1.884197851220602,0.0,3.4626832008361816,-1.620604157447815,-0.0,2.050145387649536,4.903425472765722,0.0,0.2836422920227051,-1.5414107481585901,-0.0,-0.00493773864582181,0.20098614692687988,0.0,0.005041214637458324,1.4328835010528564,0.0,0.016946077346801758
243.0,321.0,0.5025,0.7394,9.4319,-0.0396,0.0258,-0.1144,-1.8841783008971156,0.0,3.4056711196899414,-1.620604157447815,-0.0,2.1118788719177246,4.9034213600452325,0.0,0.2919635474681854,-1.5414226690875452,-0.0,-0.024984482675790787,0.20095404982566833,0.0,0.0007572273025289178,1.432931661605835,0.0,0.014496412128210068
243.0,321.0,0.5025,0.7394,9.4319,-0.0396,0.0258,-0.1144,-1.8841740093626917,0.0,3.3606116771698,-1.6206002235412598,-0.0,2.0404250621795654,4.903437706619062,0.0,0.27914607524871826,-1.5414188543902796,-0.0,-0.010113290511071682,0.20094609260559082,0.0,0.010855475440621376,1.4329116344451904,0.0,0.04977434128522873
243.0,321.0,0.5025,0.7394,9.4319,-0.0396,0.0258,-0.1144,-1.8841573200621546,0.0,3.3974969387054443,-1.6205881834030151,-0.0,2.0910744667053223,4.903389709978857,0.0,0.2803639769554138,-1.5414708296405237,-0.0,-0.017987575381994247,0.20089073479175568,0.0,0.013304284773766994,1.4329075813293457,0.0,0.018959295004606247
243.0,321.0,0.5025,0.7394,9.4319,-0.0396,0.0258,-0.1144,-1.884125371972555,0.0,3.4351282119750977,-1.6205838918685913,-0.0,2.058657646179199,4.903421389847555,0.0,0.27205315232276917,-1.5413582960711878,-0.0,-0.0038285290356725454,0.20095016062259674,0.0,0.010757573880255222,1.4329876899719238,0.0,0.031031649559736252
243.0,321.0,0.5025,0.7394,9.4319,-0.0396,0.0258,-0.1144,-1.8841492138304652,0.0,3.339895248413086,-1.62062406539917,-0.0,2.0906858444213867,4.903413179307737,0.0,0.28152191638946533,-1.5414388815509241,-0.0,-0.014602376148104668,0.20100605487823486,0.0,-0.0002919830149039626,1.4329595565795898,0.0,-0.014866644516587257
243.0,321.0,0.5025,0.7394,9.4319,-0.0396,0.0258,-0.1144,-1.8841215572752894,0.0,3.4028737545013428,-1.6206361055374146,-0.0,2.0743093490600586,4.903461846500196,0.0,0.28613168001174927,-1.5414107481585901,-0.0,-0.006248989142477512,0.2009940892457962,0.0,-0.0012433474184945226,1.4329116344451904,0.0,-0.026337500661611557
243.0,321.0,0.5025,0.7394,9.4319,-0.0396,0.0258,-0.1144,-1.8841783008971156,0.0,3.3983519077301025,-1.6205798387527466,-0.0,2.1100385189056396,4.903401243477621,0.0,0.2802598476409912,-1.5414031187640589,-0.0,-0.0071177096106112,0.20096231997013092,0.0,0.007992459461092949,1.4329195022583008,0.0,-0.01344304345548153
243.0,321.0,0.5025,0.7394,9.4319,-0.0396,0.0258,-0.1144,-1.8841453991331996,0.0,3.423236608505249,-1.6205683946609497,-0.0,2.0792033672332764,4.9033937630947015,0.0,0.28309041261672974,-1.5414307753192347,-0.0,-0.016038428992033005,0.20093458890914917,0.0,0.004630745388567448,1.4329235553741455,0.0,-0.003193426877260208
243.0,321.0,0.5025,0.7394,9.4319,-0.0396,0.0258,-0.1144,-1.884141584435934,0.0,3.400909423828125,-1.6206161975860596,-0.0,2.0704073905944824,4.90347786524848,0.0,0.2851622700691223,-1.5414345900165003,-0.0,-0.012059674598276615,0.20095014572143555,0.0,0.019510388374328613,1.4329676628112793,0.0,0.013595390133559704
243.0,321.0,0.5025,0.7394,9.4319,-0.0396,0.0258,-0.1144,-1.8841616115965785,0.0,3.369811534881592,-1.6206002235412598,-0.0,2.0450260639190674,4.903409454017439,0.0,0.28434866666793823,-1.5414107481585901,-0.0,-0.015127051621675491,0.20093847811222076,0.0,0.027100922539830208,1.4329555034637451,0.0,-0.004760531708598137
236.0,340.0,0.3661,0.6574,9.7304,-0.0351,0.0197,-0.1118,-1.8841577968993128,0.0,3.435302972793579,-1.62058424949646,-0.0,2.0798420906066895,4.903453710466184,0.0,0.2940189838409424,-1.5414627234088343,-0.0,-0.008872645907104015,0.20095834136009216,0.0,0.01202486827969551,1.4329555034637451,0.0,-0.0017486586002632976
236.0,340.0,0.3661,0.6574,9.7304,-0.0351,0.0197,-0.1118,-1.8841821155943812,0.0,3.3963990211486816,-1.6206202507019043,-0.0,2.0939931869506836,4.903461831599035,0.0,0.29621580243110657,-1.5414627234088343,-0.0,-0.002856493927538395,0.20098617672920227,0.0,0.0022587040439248085,1.4329276084899902,0.0,0.006736354436725378
236.0,340.0,0.3661,0.6574,9.7304,-0.0351,0.0197,-0.1118,-1.884169717828268,0.0,3.4336583614349365,-1.6206002235412598,-0.0,2.091578722000122,4.903393733292379,0.0,0.2951273024082184,-1.5414107481585901,-0.0,-0.006616620346903801,0.20093819499015808,0.0,-0.0024920967407524586,1.4329276084899902,0.0,-0.017090003937482834
236.0,340.0,0.3661,0.6574,9.7304,-0.0351,0.0197,-0.1118,-1.884169717828268,0.0,3.4057726860046387,-1.6206080913543701,2.40085546465707e-06,2.131452798843384,4.903429466276922,0.0,0.2773856222629547,-1.541426960621969,-0.0,-0.015035556629300117,0.2009463906288147,0.0,4.842644557356834e-06,1.4329555034637451,0.0,-0.048178691416978836
236.0,340.0,0.3661,0.6574,9.7304,-0.0351,0.0197,-0.1118,-1.8841940365233363,0.0,3.39518666267395,-1.6205919981002808,5.797784127792305e-12,2.0953121185302734,4.903421345144071,0.0,0.2841324806213379,-1.5414426962481897,-0.0,-0.023730242624878883,0.20098614692687988,0.0,0.0038987919688224792,1.432971715927124,0.0,-0.008579294197261333
236.0,340.0,0.3661,0.6574,9.7304,-0.0351,0.0197,-0.1118,-1.8841616115965785,0.0,3.37631893157959,-1.620635986328125,1.8784082638948714e-19,2.055433511734009,4.903429496079244,0.0,0.2962428331375122,-1.5414264837848108,-0.0,-0.019335675984621048,0.2008988857269287,0.0,0.010753925889730453,1.432943344116211,0.0,0.0014137966791167855
236.0,340.0,0.3661,0.6574,9.7304,-0.0351,0.0197,-0.1118,-1.8841616115965785,0.0,3.372506618499756,-1.6205922365188599,4.5361341082193475e-25,2.0894932746887207,4.903425413161077,0.0,0.2625456750392914,-1.5414388815509241,-0.0,-0.014694658108055592,0.2009066939353943,0.0,0.011227596551179886,1.4329795837402344,0.0,-0.0009014040697365999
236.0,340.0,0.3661,0.6574,9.7304,-0.0351,0.0197,-0.1118,-1.8841096363463343,0.0,3.367863655090332,-1.6205798387527466,1.0954230610680037e-30,2.0980944633483887,4.903385552554884,0.0,0.2847731113433838,-1.5414388815509241,-0.0,-0.010759402066469193,0.20099817216396332,0.0,0.004262568429112434,1.4328954219818115,0.0002646221255417913,-0.041117724031209946
236.0,340.0,0.3661,0.6574,9.7304,-0.0351,0.0197,-0.1118,-1.8841821155943812,0.0,3.366133451461792,-1.6205599308013916,0.0003883899189531803,2.029459238052368,4.903449597745695,0.0,0.28551173210144043,-1.5414069334613245,-0.0,-0.033900242298841476,0.20093847811222076,0.0,0.008580956608057022,1.4329993724822998,0.001028702245093882,-0.007341151125729084
236.0,340.0,0.3661,0.6574,9.7304,-0.0351,0.0197,-0.1118,-1.8841496906676234,0.0,3.4167914390563965,-1.6205681562423706,0.0008746084640733898,2.1012890338897705,4.903433549195089,0.0,0.29061421751976013,-1.5414345900165003,-0.0,-0.007089489139616489,0.20096230506896973,0.0,0.01760697178542614,1.432995319366455,0.0012742944527417421,-6.711762398481369e-05
236.0,340.0,0.3661,0.6574,9.7304,-0.0351,0.0197,-0.1118,-1.884125371972555,0.0,3.3636107444763184,-1.620579719543457,0.0005535620148293674,2.0682926177978516,4.903373721032896,0.0,0.2682337164878845,-1.5414069334613245,-0.0,-0.008993150666356087,0.20095014572143555,0.0,0.011503608897328377,1.433011531829834,0.0010032264981418848,0.027702150866389275
236.0,340.0,0.3661,0.6574,9.7304,-0.0351,0.0197,-0.1118,-1.8841659031310023,0.0,3.422423839569092,-1.6205878257751465,0.0004042798245791346,2.0847179889678955,4.903457391052999,0.0,0.27439984679222107,-1.5414465109454554,-0.0,-0.007997266948223114,0.20091873407363892,0.0,-9.264855179935694e-06,1.433039665222168,0.000679071294143796,-0.015889834612607956
236.0,340.0,0.3661,0.6574,9.7304,-0.0351,0.0197,-0.1118,-1.8841616115965785,0.0,3.3809895515441895,-1.6205682754516602,0.00031843080068938434,2.1003193855285645,4.90346151867465,0.0,0.2742277979850769,-1.5414508024798792,-0.0,-0.021987564861774445,0.20099814236164093,0.0,0.01103382371366024,1.4329755306243896,0.0002092663198709488,-0.03201163932681084
236.0,340.0,0.3661,0.6574,9.7304,-0.0351,0.0197,-0.1118,-1.8841453991331996,0.0,3.4456005096435547,-1.620635986328125,0.0002626605564728379,2.0684714317321777,4.903437706619062,5.109024669991413e-08,0.28423845767974854,-1.5414426962481897,-0.0,-0.018550079315900803,0.20099405944347382,0.0,-0.006619567051529884,1.432971477508545,2.5691393602755852e-05,0.062486469745635986
234.0,333.0,0.585,0.792,9.7448,-0.0525,0.027,-0.11,-1.884181638757223,0.0,3.4172616004943848,-1.6206241846084595,0.00022351625375449657,2.07000732421875,4.903417232423582,1.4221158105287568e-11,0.2832173705101013,-1.5414426962481897,-0.0,-0.014130176976323128,0.20093052089214325,0.0,-0.0023521101102232933,1.432983636856079,6.204169816781402e-11,-0.014212088659405708
234.0,333.0,0.585,0.792,9.7448,-0.0525,0.027,-0.11,-1.8841492138304652,0.0,3.373629570007324,-1.620559811592102,0.00015562950284220278,2.068678140640259,4.9034418044383905,3.958511493720512e-15,0.2850695550441742,-1.5414703528033655,-0.0,-0.011267732828855515,0.2008909285068512,0.0,-0.0044190604239702225,1.4329833984375,1.4982337299879786e-16,-0.03253205493092537
234.0,333.0,0.585,0.792,9.7448,-0.0525,0.027,-0.11,-1.884197851220602,0.0,3.4019808769226074,-1.620604395866394,0.00013775593833997846,2.1066250801086426,4.90344991067008,1.101866200876268e-18,0.2841935157775879,-1.5414508024798792,-5.3759096772409976e-05,-0.010482143610715866,0.20094239711761475,0.0,0.008083104155957699,1.4330315589904785,3.6180584138675536e-22,-0.019129285588860512
234.0,333.0,0.585,0.792,9.7448,-0.0525,0.027,-0.11,-1.8841940365233363,0.0,3.433259963989258,-1.6205922365188599,0.00012357014929875731,2.0075788497924805,4.9033977566059015,3.067084888612052e-22,0.27619412541389465,-1.5414665381061,-7.285323226824403e-05,-0.01932508870959282,0.20093458890914917,0.0,-0.006457053124904633,1.4329952001571655,8.7371853412868e-28,-0.03204561024904251
234.0,333.0,0.585,0.792,9.7448,-0.0525,0.027,-0.11,-1.8841902218260707,0.0,3.35941743850708,-1.6206082105636597,3.1882555049378425e-05,2.0368785858154297,4.903461831599035,8.537342992463008e-26,0.2774624824523926,-1.5414665381061,-7.077210466377437e-05,-0.021388275548815727,0.20092660188674927,0.0,0.00869047548621893,1.4330518245697021,2.1099273200565638e-33,0.020416652783751488
234.0,333.0,0.585,0.792,9.7448,-0.0525,0.027,-0.11,-1.8841940365233363,0.0,3.3836588859558105,-1.6206246614456177,5.578178388532251e-05,2.0807576179504395,4.903401824622907,1.5516198173226926e-30,0.2808615565299988,-1.5414627234088343,-7.845406798878685e-05,-0.017847474664449692,0.20094215869903564,0.0,0.006859366782009602,1.432987093925476,6.835954298515755e-41,0.02454223856329918
234.0,333.0,0.585,0.792,9.7448,-0.0525,0.027,-0.11,-1.8841940365233363,0.0,3.4262759685516357,-1.6205798387527466,5.103690273244865e-05,2.0482423305511475,4.903393777995863,4.318990782709191e-34,0.2795030474662781,-1.5414703528033655,-8.638641884317622e-05,-0.009307974949479103,0.2009781450033188,0.0,0.014614831656217575,1.4330356121063232,0.00018961355090141296,0.06270762532949448
234.0,333.0,0.585,0.792,9.7448,-0.0525,0.027,-0.11,-1.8842021427550257,0.0,3.419119358062744,-1.6206365823745728,4.703591548604891e-05,2.0815651416778564,4.903405386000433,1.202207247395773e-37,0.29220205545425415,-1.5414746443377894,-8.342905493918806e-05,-0.016181230545043945,0.20099009573459625,0.0,0.007286422420293093,1.4330073595046997,0.00014406227273866534,-0.02990727685391903
234.0,333.0,0.585,0.792,9.7448,-0.0525,0.027,-0.11,-1.884225984612936,0.0,3.346451997756958,-1.6206080913543701,4.36166264989879e-05,2.0564632415771484,4.903445842653074,3.3464408626540956e-41,0.28195691108703613,-1.5414584318744105,-0.00023264394258148968,-0.023242082446813583,0.20095835626125336,0.0,0.002788378857076168,1.4329551458358765,0.00011616458505159244,-0.019785955548286438
234.0,333.0,0.585,0.792,9.7448,-0.0525,0.027,-0.11,-1.884249826470846,-0.00043307626037858427,3.4509477615356445,-1.620584487915039,4.066085966769606e-05,2.098801851272583,4.9034094689186,9.80908925027372e-45,0.29609420895576477,-1.5414546171771448,-0.0002015496138483286,-0.006548718549311161,0.20091472566127777,0.0,0.016673758625984192,1.4329993724822998,9.731948375701904e-05,-0.017091473564505577
234.0,333.0,0.585,0.792,9.7448,-0.0525,0.027,-0.11,-1.8842092953123988,-0.00033604397322051227,3.3873891830444336,-1.6205919981002808,3.808021574513987e-05,1.9921247959136963,4.903389695077696,0.0,0.2801205813884735,-1.5414703528033655,-0.00017767150711733848,-0.006886405870318413,0.2010301798582077,0.0,0.01969926618039608,1.4329912662506104,0.00012560146569740027,0.03651244938373566
234.0,333.0,0.585,0.792,9.7448,-0.0525,0.027,-0.11,-1.8842536411681117,-0.0002745281090028584,3.349945068359375,-1.6206082105636597,3.580763950594701e-05,2.072610378265381,4.903445812850752,0.0,0.2793559730052948,-1.5414746443377894,-0.00015885272296145558,-0.02029741182923317,0.20097818970680237,0.0,0.015060684643685818,1.4329993724822998,0.00011022072430932894,-0.009411103092133999
234.0,333.0,0.585,0.792,9.7448,-0.0525,0.027,-0.11,-1.884181638757223,-0.00023205233446788043,3.3899571895599365,-1.6205557584762573,3.379103509359993e-05,2.0395593643188477,4.903369504004278,0.0,0.27780842781066895,-1.5414307753192347,-0.0001436390302842483,-0.009336858987808228,0.2009504735469818,0.0,0.011633536778390408,1.4329915046691895,-3.872346132993698e-05,0.020946048200130463
234.0,333.0,0.585,0.792,9.7448,-0.0525,0.027,-0.11,-1.8842140636839808,-0.00016096304170787334,3.4025774002075195,-1.620559811592102,4.798118243343197e-05,2.095590114593506,4.903365495591917,0.0,0.2869807779788971,-1.5414984861956995,-0.0001538401556899771,-0.016124090179800987,0.20092661678791046,0.0,0.008392023853957653,1.4329915046691895,-0.00011580772115848958,0.02648877166211605
234.0,333.0,0.585,0.792,9.7448,-0.0525,0.027,-0.11,-1.8842297993102015,-0.0001417736930307001,3.3862905502319336,-1.620612621307373,0.00015503149188589305,2.100785493850708,4.9034094689186,0.0,0.29449573159217834,-1.541478459035055,-0.00014465852291323245,-0.019920388236641884,0.20098218321800232,0.0,0.00438557518646121,1.432971477508545,-0.0007461602799594402,0.06771016865968704
238.0,339.0,-0.0036,0.6658,9.7029,-0.067,0.0066,-0.1103,-1.8842054806151332,-0.00012679307837970555,3.376096248626709,-1.6205681562423706,0.00020097786909900606,2.041511058807373,4.903397786408224,0.0,0.2801283895969391,-1.5414627234088343,-0.00013389787636697292,-0.023765671998262405,0.20099009573459625,0.0,0.0006349433679133654,1.4329595565795898,-0.0007343922043219209,0.05418027937412262
238.0,339.0,-0.0036,0.6658,9.7029,-0.067,0.0066,-0.1103,-1.8842054806151332,-0.00011467598233139142,3.415717601776123,-1.6206080913543701,0.00018574537534732372,2.015705108642578,4.903397786408224,0.0,0.28030896186828613,-1.541518513356344,-0.0001246266911039129,-0.020574286580085754,0.20097026228904724,0.0,0.012494822032749653,1.4329273700714111,-0.0008560168207623065,0.01266562007367611
238.0,339.0,-0.0036,0.6658,9.7029,-0.067,0.0066,-0.1103,-1.8842455349364222,-3.441992521402426e-05,3.3782668113708496,-1.6205878257751465,0.0001724024477880448,2.0670037269592285,4.903390037804403,0.0,0.2768845856189728,-1.5414627234088343,-0.00011655630078166723,-0.010181209072470665,0.20093819499015808,0.0,0.02379654347896576,1.4329195022583008,-0.0007037791656330228,0.046797726303339005
238.0,339.0,-0.0036,0.6658,9.7029,-0.067,0.0066,-0.1103,-1.884266038934225,-5.970142956357449e-05,3.4019875526428223,-1.6206480264663696,0.00013766647316515446,2.118851661682129,4.903402301460066,0.0,0.28046780824661255,-1.5414941946612757,-0.00010729277710197493,-0.005693144164979458,0.20092660188674927,0.0,0.01712147518992424,1.4329354763031006,-0.0005633680266328156,0.04947872832417488
238.0,339.0,-0.0036,0.6658,9.7029,-0.067,0.0066,-0.1103,-1.8842622242369593,-8.144498860929161e-05,3.3642210960388184,-1.6206082105636597,0.00010451194975757971,2.0969691276550293,4.90339412072257,0.0,0.29163795709609985,-1.5414822737323206,-0.00010125698463525623,-0.004494528751820326,0.2009821981191635,0.0,0.006858851760625839,1.4329514503479004,-0.0006606318638660014,0.036335546523332596
238.0,339.0,-0.0036,0.6658,9.7029,-0.067,0.0066,-0.1103,-1.8842822513976039,-7.469068077625707e-05,3.41209077835083,-1.6205878257751465,8.900600369088352e-05,2.1420953273773193,4.9033134309347055,0.0,0.26791730523109436,-1.54149037996401,-9.58641612669453e-05,-0.02249392494559288,0.20090284943580627,0.0,-0.0006083762273192406,1.4329237937927246,-0.001489465357735753,0.021000711247324944
238.0,339.0,-0.0036,0.6658,9.7029,-0.067,0.0066,-0.1103,-1.8842255077757777,-6.896708509884775e-05,3.387816905975342,-1.6206399202346802,7.750734948785976e-05,2.038421154022217,4.903369936137953,0.0,0.29052066802978516,-1.5414426962481897,-8.354754390893504e-05,-0.02430577203631401,0.20092663168907166,0.0,0.012837689369916916,1.4329075813293457,-0.0020059864036738873,0.015532102435827255
238.0,339.0,-0.0036,0.6658,9.7029,-0.067,0.0066,-0.1103,-1.8842455349364222,-6.40582584310323e-05,3.3754425048828125,-1.6206203699111938,6.863991438876837e-05,2.042654275894165,4.9033617852027795,0.0,0.2865291237831116,-1.5414465109454554,-7.219875988084823e-05,-0.006549934856593609,0.20094217360019684,0.0,0.021021634340286255,1.432863712310791,-0.0034892738331109285,0.0660465657711029
238.0,339.0,-0.0036,0.6658,9.7029,-0.067,0.0066,-0.1103,-1.8841897449889125,-5.980183050269261e-05,3.417004108428955,-1.6206281185150146,6.159332406241447e-05,2.063394069671631,4.903353544860639,0.0,0.2778167724609375,-1.5414388815509241,-6.888130883453414e-05,-0.012746240012347698,0.20097818970680237,0.0,0.026538126170635223,1.4328677654266357,-0.005239755380898714,0.03359183296561241
238.0,339.0,-0.0036,0.6658,9.7029,-0.067,0.0066,-0.1103,-1.8842054806151332,-7.289942004717886e-05,3.3926892280578613,-1.620564341545105,8.378666825592518e-05,2.0835366249084473,4.903321507364073,0.0,0.2843548655509949,-1.5414665381061,-6.58570570521988e-05,-0.01989681087434292,0.20093458890914917,0.0,0.019125644117593765,1.432767629623413,-0.006416033022105694,0.03368351608514786
238.0,339.0,-0.0036,0.6658,9.7029,-0.067,0.0066,-0.1103,-1.884193559686178,-6.520178430946544e-05,3.4216387271881104,-1.6205960512161255,7.665219163754955e-05,2.0730440616607666,4.9033900676067255,0.0,0.28100112080574036,-1.5414345900165003,-6.308720912784338e-05,-0.017044290900230408,0.20097817480564117,0.0,0.01783105917274952,1.432743787765503,-0.006846712436527014,-0.011385743506252766
238.0,339.0,-0.0036,0.6658,9.7029,-0.067,0.0066,-0.1103,-1.884221693078512,-5.881073957425542e-05,3.411677360534668,-1.6205639839172363,9.416850662091747e-05,2.0518946647644043,4.9033256498868845,0.0,0.28985610604286194,-1.541415039693014,-4.923415690427646e-05,-0.03585746884346008,0.20093056559562683,0.0,0.008232048712670803,1.432744026184082,-0.007167138159275055,-0.014582489617168903
238.0,339.0,-0.0036,0.6658,9.7029,-0.067,0.0066,-0.1103,-1.8841778240599574,-5.356068868422881e-05,3.393521308898926,-1.6205763816833496,8.732765854801983e-05,2.0794501304626465,4.903329792409696,0.0,0.27879709005355835,-1.5414345900165003,-4.655410521081649e-05,-0.01531178131699562,0.20095016062259674,0.0,0.016707995906472206,1.432675838470459,-0.007654181681573391,0.020873745903372765
238.0,339.0,-0.0036,0.6658,9.7029,-0.067,0.0066,-0.1103,-1.884237905541891,-4.917117257718928e-05,3.4055871963500977,-1.6206082105636597,8.140366844600067e-05,2.0644679069519043,4.903321507364073,0.0,0.28156909346580505,-1.5414508024798792,-4.481527503230609e-05,-0.020344479009509087,0.20096632838249207,0.0,-0.0015346211148425937,1.4325593709945679,-0.007318110670894384,0.005866282619535923
237.0,326.0,0.4409,0.3817,9.4642,-0.0516,0.024,-0.1286,-1.8842054806151332,-4.544669354800135e-05,3.388491153717041,-1.6205805540084839,7.623236888321117e-05,2.0820343494415283,4.903345781355657,0.0,0.2826651930809021,-1.541415039693014,-4.3201867811148986e-05,-0.014588778838515282,0.20095795392990112,0.0,0.006428534165024757,1.4325838088989258,-0.007145289331674576,-0.0024425883311778307
237.0,326.0,0.4409,0.3817,9.4642,-0.0516,0.024,-0.1286,-1.884221693078512,-5.6138935178751126e-05,3.403505802154541,-1.6205837726593018,7.16788272256963e-05,2.0444130897521973,4.903346213489332,-0.00011909622844541445,0.27357324957847595,-1.5414546171771448,-3.127845411654562e-05,-0.0035364769864827394,0.20097817480564117,0.0,0.016291867941617966,1.4325077533721924,-0.006273766979575157,0.0032309102825820446
237.0,326.0,0.4409,0.3817,9.4642,-0.0516,0.024,-0.1286,-1.8842092953123988,-5.7931389164878055e-05,3.427902936935425,-1.6205971240997314,6.63912360323593e-05,2.0811917781829834,4.903321611672201,-0.00012922451423946768,0.2787381708621979,-1.5414465109454554,-2.9890510631958023e-05,-0.015501136891543865,0.20095835626125336,0.0,0.016608169302344322,1.4324557781219482,-0.004434375092387199,0.008640864863991737
237.0,326.0,0.4409,0.3817,9.4642,-0.0516,0.024,-0.1286,-1.8842016659178675,-5.442804467747919e-05,3.423046827316284,-1.6205919981002808,4.9539594328962266e-05,2.0769460201263428,4.903325783997335,-0.00012562196934595704,0.2795087695121765,-1.5414388815509241,-1.641390134921039e-08,-0.0029275212436914444,0.20097817480564117,0.0,0.004534043371677399,1.4325282573699951,-0.0025983452796936035,-0.0291901845484972
237.0,326.0,0.4409,0.3817,9.4642,-0.0516,0.024,-0.1286,-1.8842703304686488,-5.132412843522616e-05,3.3551383018493652,-1.620587944984436,3.9796264900360256e-05,2.084322452545166,4.903325709491529,-0.00011742777132894844,0.27831172943115234,-1.5414069334613245,-4.568869588217339e-12,-0.016034821048378944,0.2009461224079132,0.0,0.006485345773398876,1.4325242042541504,-0.0013621572870761156,-0.028861207887530327
237.0,326.0,0.4409,0.3817,9.4642,-0.0516,0.024,-0.1286,-1.884225984612936,-4.855517909163609e-05,3.4254837036132812,-1.6205639839172363,8.683044870849699e-05,2.0871198177337646,4.903333860426702,-0.00012860336573794484,0.28527599573135376,-1.5414031187640589,-1.2717612073916162e-15,-0.02119455114006996,0.20095014572143555,0.0,0.0034066771622747183,1.4324557781219482,-0.0002667634398676455,-0.03153861314058304
237.0,326.0,0.4409,0.3817,9.4642,-0.0516,0.024,-0.1286,-1.8842412434019984,-4.606977017829195e-05,3.3913683891296387,-1.6205317974090576,0.0023483866825699806,2.0896458625793457,4.903373706131735,-0.00012118686572648585,0.29193150997161865,-1.5414188543902796,-3.5399936191818703e-19,-0.01200878620147705,0.2009623646736145,0.0,-0.007554181851446629,1.4325119256973267,-1.6645829248318478e-07,-0.04619762301445007
237.0,326.0,0.4409,0.3817,9.4642,-0.0516,0.024,-0.1286,-1.8842255077757777,-4.3826395994983613e-05,3.4106478691101074,-1.620508074760437,0.005116458050906658,2.0514113903045654,4.903317543655195,-0.00011457478831289336,0.2759268879890442,-1.541426960621969,-9.853701956794006e-23,-0.01286772359162569,0.200978085398674,0.0,0.0021530017256736755,1.432527780532837,0.0016395453130826354,-0.027445394545793533
237.0,326.0,0.4409,0.3817,9.4642,-0.0516,0.024,-0.1286,-1.88427795986318,-5.572152804234065e-05,3.4025020599365234,-1.6204562187194824,0.00917040091007948,2.05804443359375,4.903317543655195,-0.0001086471020244062,0.2792275547981262,-1.541415039693014,-6.2368517319555394e-06,-0.011315050534904003,0.2009824961423874,0.0,0.010355940088629723,1.432527780532837,0.0014243971090763807,0.008575784042477608
237.0,326.0,0.4409,0.3817,9.4642,-0.0516,0.024,-0.1286,-1.8842536411681117,-4.081871884409338e-05,3.367111921310425,-1.6203961372375488,0.009554323740303516,2.064182758331299,4.903385969787397,-0.00010330254008295015,0.28554394841194153,-1.5414307753192347,-1.736050636580444e-09,-0.022716917097568512,0.20093445479869843,0.0,0.01500057615339756,1.4325759410858154,0.0009604851948097348,0.012455485761165619
237.0,326.0,0.4409,0.3817,9.4642,-0.0516,0.024,-0.1286,-1.884233137170309,-7.633634231751785e-05,3.4118576049804688,-1.6202505826950073,0.010299204848706722,2.0710527896881104,4.903293791204252,-9.845912427408621e-05,0.28798094391822815,-1.5414107481585901,-4.83236172431345e-13,-0.02529769204556942,0.20097018778324127,0.0,0.011480096727609634,1.4325518608093262,0.000751637271605432,-0.021296529099345207
237.0,326.0,0.4409,0.3817,9.4642,-0.0516,0.024,-0.1286,-1.8843103847899378,-8.981127029983327e-05,3.403258800506592,-1.620271921157837,0.009623323567211628,2.1111233234405518,4.903337555914678,-9.404953016201034e-05,0.2794691026210785,-1.5413945356952112,-1.345105657945468e-16,-0.012230157852172852,0.20097048580646515,0.0,0.009464766830205917,1.432567834854126,0.0004523114184848964,-0.019210753962397575
237.0,326.0,0.4409,0.3817,9.4642,-0.0516,0.024,-0.1286,-1.884301324883932,-0.0005001052631996572,3.418891429901123,-1.6202563047409058,0.007863635197281837,2.0771443843841553,4.903329866915502,-0.00010244561417493969,0.2874486744403839,-1.5413983503924769,-3.744150647777451e-20,-0.029119128361344337,0.20092619955539703,0.0,0.007749441545456648,1.4325919151306152,0.00041655864333733916,-0.008627357892692089
237.0,326.0,0.4409,0.3817,9.4642,-0.0516,0.024,-0.1286,-1.8842979870238246,-0.0005200687446631491,3.404132127761841,-1.6201516389846802,0.005585717502981424,2.065037965774536,4.903353947191992,-9.864899038802832e-05,0.27716654539108276,-1.5414064566241663,-1.0421981417924937e-23,-0.0063136275857687,0.20098645985126495,0.0,-0.007059443276375532,1.4325838088989258,0.00039463600842282176,-0.02525828778743744
237.0,326.0,0.4409,0.3817,9.4642,-0.0516,0.024,-0.1286,-1.8842860660948695,-0.0006189853302203119,3.33052134513855,-1.6201075315475464,0.004696196876466274,2.0846405029296875,4.903345766454496,-9.475438855588436e-05,0.28374722599983215,-1.5414026419269007,0.00024740572553128004,-0.018480585888028145,0.2010144591331482,0.0,0.003482853528112173,1.4325957298278809,0.00043323764111846685,-0.02662504091858864
233.0,331.0,0.4235,0.859,9.7011,-0.0171,0.0331,-0.1077,-1.8843018017210902,-0.0007165452698245645,3.4068472385406494,-1.6200593709945679,0.0030762276146560907,2.0889203548431396,4.903402256756582,-9.00158702279441e-05,0.28899243474006653,-1.5413549582110804,0.0002441911492496729,-0.004460607655346394,0.20096230506896973,0.0,0.0031781636644154787,1.4326119422912598,0.000502489972859621,-0.06194227188825607
233.0,331.0,0.4235,0.859,9.7011,-0.0171,0.0331,-0.1077,-1.8843661747374476,-0.0007815202698111534,3.373126983642578,-1.6200957298278809,0.0019803608302026987,2.0820231437683105,4.903342130571165,-8.676175639266148e-05,0.2608884572982788,-1.5413225332843226,0.00025081142666749656,0.0017320995684713125,0.2009742259979248,0.0,0.012261742725968361,1.4325675964355469,0.0006825551390647888,-0.04832886904478073
233.0,331.0,0.4235,0.859,9.7011,-0.0171,0.0331,-0.1077,-1.8843423328795375,-0.0011091262567788363,3.4094181060791016,-1.6201164722442627,0.0012940848246216774,2.058382987976074,4.903337943344869,-8.838607027428225e-05,0.27828216552734375,-1.5413430372821253,0.0002561123692430556,-0.006478940136730671,0.2009664624929428,0.0,0.014764972031116486,1.4326198101043701,0.0005848105065524578,-0.06322459131479263
233.0,331.0,0.4235,0.859,9.7011,-0.0171,0.0331,-0.1077,-1.884285112420553,-0.001534078037366271,3.3773303031921387,-1.6200875043869019,0.0007995518972165883,2.071388006210327,4.9033421007688425,-8.349130803253502e-05,0.28137457370758057,-1.541370693837301,0.00030059515847824514,0.006813943851739168,0.20095014572143555,0.0,0.023882251232862473,1.4325716495513916,0.00045814880286343396,-0.05989618971943855
233.0,331.0,0.4235,0.859,9.7011,-0.0171,0.0331,-0.1077,-1.8843256435790003,-0.0018532966496422887,3.4023561477661133,-1.6201039552688599,0.0007473831064999104,2.0575575828552246,4.903333860426702,-7.908909174147993e-05,0.2747756540775299,-1.541346851979391,0.0003385829331818968,-0.004488473758101463,0.20098206400871277,0.0,0.016772378236055374,1.4325753450393677,0.00015791258192621171,-0.11657252907752991
233.0,331.0,0.4235,0.859,9.7011,-0.0171,0.0331,-0.1077,-1.8843819103636683,-0.0024902878794819117,3.3338608741760254,-1.620091438293457,0.000570670235902071,2.065657138824463,4.903394269734182,-7.512808952014893e-05,0.2818869650363922,-1.5413191954242151,0.0006024367758072913,0.007486346177756786,0.20095014572143555,0.0,0.017673246562480927,1.4326117038726807,7.50043409425416e-06,-0.1426054835319519
233.0,331.0,0.4235,0.859,9.7011,-0.0171,0.0331,-0.1077,-1.8843852482237757,-0.003118567867204547,3.3950438499450684,-1.6201121807098389,0.0004610226023942232,2.045974016189575,4.90336628535346,-7.154458580771461e-05,0.26410841941833496,-1.541370693837301,0.0005866895080544055,0.014210013672709465,0.20101451873779297,0.0,0.005927313584834337,1.432599663734436,1.811266761575503e-11,-0.16522884368896484
233.0,331.0,0.4235,0.859,9.7011,-0.0171,0.0331,-0.1077,-1.884453912774557,-0.004343534354120493,3.370952606201172,-1.6201518774032593,0.0003867255582008511,2.0422024726867676,4.903406384378233,-8.188877836801112e-05,0.2728199362754822,-1.5413067976581019,0.0006261456292122602,0.026389654725790024,0.20092622935771942,0.0,0.012593956664204597,1.4325878620147705,4.3739954215599516e-17,-0.1636454463005066
233.0,331.0,0.4235,0.859,9.7011,-0.0171,0.0331,-0.1077,-1.8844777546324671,-0.004934514407068491,3.3425307273864746,-1.6200791597366333,0.00033305297256447375,2.0740418434143066,4.903357687383451,-7.838004239602014e-05,0.26681068539619446,-1.5413268248187464,0.0006126162479631603,0.022639920935034752,0.200982466340065,0.0,0.019235707819461823,1.432599663734436,1.056268470001851e-22,-0.21769632399082184
233.0,331.0,0.4235,0.859,9.7011,-0.0171,0.0331,-0.1077,-1.8844615421690882,-0.005424608010798693,3.3236169815063477,-1.6200392246246338,0.00029246415942907333,2.032355785369873,4.903325709491529,-7.510948489652947e-05,0.26598814129829407,-1.5413106123553675,0.0005951501661911607,0.03432021290063858,0.20092210173606873,0.0,0.030117325484752655,1.432555913925171,-0.0007759915897622705,-0.22407221794128418
233.0,331.0,0.4235,0.859,9.7011,-0.0171,0.0331,-0.1077,-1.884505411187643,-0.005736382678151131,3.34887957572937,-1.620147943496704,0.00026069473824463785,2.0382683277130127,4.903325783997335,-8.408891153521836e-05,0.26412227749824524,-1.5413668791400355,0.00054371845908463,0.03192689269781113,0.2009701430797577,0.0,0.036983899772167206,1.432607889175415,-0.0007656918605789542,-0.29342028498649597
233.0,331.0,0.4235,0.859,9.7011,-0.0171,0.0331,-0.1077,-1.884545465508932,-0.005754166282713413,3.334777355194092,-1.6200997829437256,0.0002351508301217109,2.061098575592041,4.903329762607374,-8.087913010967895e-05,0.26839500665664673,-1.5413311163531702,0.0004881937929894775,0.05230896174907684,0.20101439952850342,0.0,0.029695231467485428,1.4325838088989258,-0.00071998022031039,-0.2629662752151489
233.0,331.0,0.4235,0.859,9.7011,-0.0171,0.0331,-0.1077,-1.8845697842040003,-0.004941793158650398,3.345148801803589,-1.6200637817382812,0.00021416642994154245,2.014190673828125,4.903358104615965,-7.787623326294124e-05,0.26277804374694824,-1.5413506666766565,0.0004716950061265379,0.04713410139083862,0.20103894174098969,0.0,0.020739268511533737,1.4325637817382812,-0.0006869651260785758,-0.30989184975624084
233.0,331.0,0.4235,0.859,9.7011,-0.0171,0.0331,-0.1077,-1.8846098385252894,-0.004664073698222637,3.314310073852539,-1.620055913925171,0.0001913939486257732,2.0634875297546387,4.903329792409696,-7.421024201903492e-05,0.2653829753398895,-1.5413067976581019,0.0003939216258004308,0.04164806008338928,0.20098614692687988,0.0,0.01336139440536499,1.4325838088989258,-0.000597278238274157,-0.32802021503448486
236.0,332.0,0.4612,0.877,9.6449,-0.0363,0.0211,-0.1199,-1.8846332035460414,-0.004530273377895355,3.3163201808929443,-1.6201039552688599,0.0001772581454133615,2.0500082969665527,4.903305682330885,-7.167733565438539e-05,0.2724927067756653,-1.5412829558001917,0.0003353331994730979,0.06357856094837189,0.20097830891609192,1.3899798645411465e-08,0.02711009606719017,1.432568073272705,-0.000536158389877528,-0.3526797890663147
236.0,332.0,0.4612,0.877,9.6449,-0.0363,0.0211,-0.1199,-1.884665151635641,-0.005369121674448252,3.3233914375305176,-1.620072364807129,0.00013224751455709338,2.0685195922851562,4.903345781355657,-1.7808784832595848e-05,0.2689841389656067,-1.5412986914264124,0.00032973624183796346,0.07222944498062134,0.20100246369838715,3.8690600202839764e-12,0.019153811037540436,1.4325358867645264,-0.00055364501895383,-0.38735347986221313
236.0,332.0,0.4612,0.877,9.6449,-0.0363,0.0211,-0.1199,-1.8847218952574671,-0.0060082171112298965,3.352760076522827,-1.6200957298278809,0.00010689354530768469,2.0262856483459473,4.903345751553335,-4.9571413640592255e-09,0.2609572410583496,-1.5413067976581019,0.0003265443374402821,0.062220677733421326,0.20101849734783173,1.0769671346874134e-15,0.03296175226569176,1.4324959516525269,-0.0008701778133399785,-0.37782037258148193
236.0,332.0,0.4612,0.877,9.6449,-0.0363,0.0211,-0.1199,-1.884749551812643,-0.006884285714477301,3.284135341644287,-1.6201324462890625,9.978277375921607e-05,2.0948257446289062,4.9034065184886835,-1.379838626171248e-12,0.2605876326560974,-1.541279141102926,0.00030439262627623975,0.07510682195425034,0.2009660303592682,2.997777503135185e-19,0.03801121562719345,1.4325637817382812,-0.0012286485871300101,-0.42783764004707336
236.0,332.0,0.4612,0.877,9.6449,-0.0363,0.0211,-0.1199,-1.884829660455221,-0.007039199583232403,3.2868871688842773,-1.6200553178787231,0.0001122606554417871,2.0491318702697754,4.903385925083914,-3.8408314593530184e-16,0.2565227150917053,-1.5412710348712366,0.0003260668308939785,0.06768535077571869,0.20096604526042938,8.344424873932578e-23,0.02966618351638317,1.4325478076934814,-0.0013196115614846349,-0.41208744049072266
236.0,332.0,0.4612,0.877,9.6449,-0.0363,0.0211,-0.1199,-1.884841104547018,-0.007299178745597601,3.2627062797546387,-1.6200957298278809,0.00010567948629613966,2.0379676818847656,4.903337943344869,-1.0691096159746209e-19,0.277033269405365,-1.5412786642657679,0.000492738327011466,0.06391473114490509,0.2009701430797577,0.0002359471400268376,0.029470698907971382,1.4325878620147705,-0.0012873763917014003,-0.44496020674705505
236.0,332.0,0.4612,0.877,9.6449,-0.0363,0.0211,-0.1199,-1.8849054775633753,-0.008647491224110126,3.2812962532043457,-1.620124101638794,9.981897164834663e-05,2.0113439559936523,4.903353947191992,-2.975906451920435e-23,0.24998533725738525,-1.5412429014789026,0.0005204108310863376,0.07489524781703949,0.2009541243314743,0.0002705996739678085,0.019334010779857635,1.4325156211853027,-0.0011640038574114442,-0.45900851488113403
236.0,332.0,0.4612,0.877,9.6449,-0.0363,0.0211,-0.1199,-1.8850099049010218,-0.00966282095760107,3.280743360519409,-1.6200997829437256,9.457449777983129e-05,2.044700860977173,4.903333860426702,-8.283544868838031e-27,0.25663313269615173,-1.5412591139422815,0.0007518408820033073,0.09376928210258484,0.20102667808532715,0.00023990139015950263,0.04086196422576904,1.4325518608093262,-0.0010595445055514574,-0.5267012715339661
236.0,332.0,0.4612,0.877,9.6449,-0.0363,0.0211,-0.1199,-1.8850413761534632,-0.011244134046137333,3.312229871749878,-1.620144009590149,8.985351450974122e-05,2.0231409072875977,4.903329762607374,-3.176231257384643e-05,0.2518937587738037,-1.541227165852682,0.0007268544286489487,0.09209085255861282,0.2009742259979248,0.00024226916139014065,0.04431546479463577,1.4325437545776367,-0.0010617172811180353,-0.5623764395713806
236.0,332.0,0.4612,0.877,9.6449,-0.0363,0.0211,-0.1199,-1.8851376972594203,-0.012984857894480228,3.280230760574341,-1.620076060295105,8.558144327253103e-05,2.05358624458313,4.903325813799658,-6.823628064012155e-05,0.25496190786361694,-1.5412429014789026,0.0009553164127282798,0.09198582172393799,0.20100216567516327,0.00022097233159001917,0.03400023281574249,1.4325478076934814,-0.0011709458194673061,-0.5299482345581055
236.0,332.0,0.4612,0.877,9.6449,-0.0363,0.0211,-0.1199,-1.8851891956725062,-0.014731544069945812,3.2789082527160645,-1.6200803518295288,8.16972678876482e-05,2.074645519256592,4.903374093561926,-7.827558147255331e-05,0.26284176111221313,-1.5412429014789026,0.0019301391439512372,0.09550699591636658,0.20102618634700775,0.00019993260502815247,0.0487920343875885,1.4325158596038818,-0.0013856898294761777,-0.5653698444366455
236.0,332.0,0.4612,0.877,9.6449,-0.0363,0.0211,-0.1199,-1.8852650127806605,-0.01575358770787716,3.226499080657959,-1.6201122999191284,7.815023855073377e-05,2.0916781425476074,4.903342130571165,-8.435778727289289e-05,0.2670919895172119,-1.541199032460348,0.005276322364807129,0.10589291155338287,0.20099805295467377,0.00018255066243000329,0.03019045665860176,1.4325158596038818,-0.0013978375354781747,-0.610416054725647
236.0,332.0,0.4612,0.877,9.6449,-0.0363,0.0211,-0.1199,-1.8854333362975062,-0.016981186345219612,3.2592835426330566,-1.6200432777404785,8.198132854886353e-05,2.088754415512085,4.903321507364073,-8.29638956929557e-05,0.26463478803634644,-1.5411151091205042,0.013957958668470383,0.10510393977165222,0.2009742259979248,0.0001869563857326284,0.041177939623594284,1.4325518608093262,-0.0017896475037559867,-0.6382872462272644
236.0,332.0,0.4612,0.877,9.6449,-0.0363,0.0211,-0.1199,-1.8855091534056605,-0.016430260613560677,3.2618632316589355,-1.6201280355453491,8.278847235487774e-05,2.1016247272491455,4.903333890229025,-7.981099042808637e-05,0.2598717212677002,-1.5410755316363733,0.006096140015870333,0.11645551770925522,0.2009577751159668,0.00017344598018098623,0.0357440710067749,1.432507872581482,-0.0022776478435844183,-0.6733499765396118
236.0,332.0,0.4612,0.877,9.6449,-0.0363,0.0211,-0.1199,-1.8856455288329066,-0.017437858507037163,3.2396440505981445,-1.6201081275939941,7.964856195030734e-05,2.086789131164551,4.903321626573362,-8.786670514382422e-05,0.252239465713501,-1.54106313387026,0.0004518917412497103,0.11945542693138123,0.20098206400871277,0.00016175546625163406,0.029188642278313637,1.4324719905853271,-0.0028959813062101603,-0.7045427560806274
234.0,333.0,0.4684,0.7609,9.4875,-0.0379,0.0182,-0.1219,-1.8856727085509242,-0.01743554323911667,3.188157081604004,-1.6200553178787231,8.726451778784394e-05,2.0655336380004883,4.903366300254621,-0.00018993296544067562,0.2453462779521942,-1.54106313387026,0.00014929431199561805,0.1341211497783661,0.20095784962177277,0.00014689833915326744,0.030698653310537338,1.4324560165405273,-0.0040125772356987,-0.708870530128479
234.0,333.0,0.4684,0.7609,9.4875,-0.0379,0.0182,-0.1219,-1.8858653507628382,-0.018716299906373024,3.205171585083008,-1.6201400756835938,8.46090042614378e-05,2.0026392936706543,4.903317528754034,-0.00020833840244449675,0.24503576755523682,-1.5410555044757288,0.0001990529999602586,0.11438512802124023,0.2009742259979248,0.0001298971037613228,0.02266433835029602,1.4324520826339722,-0.005054045468568802,-0.7442875504493713
234.0,333.0,0.4684,0.7609,9.4875,-0.0379,0.0182,-0.1219,-1.8859411678709925,-0.01942620240151882,3.162975311279297,-1.6200640201568604,8.172781963367015e-05,2.068972587585449,4.903342145472326,-0.0001942931121448055,0.24638444185256958,-1.5410879294024866,0.00014946001465432346,0.12606221437454224,0.2010628581047058,0.00011954283399973065,0.035595670342445374,1.4323959350585938,-0.006685490719974041,-0.757022500038147
234.0,333.0,0.4684,0.7609,9.4875,-0.0379,0.0182,-0.1219,-1.8860932789244593,-0.019848046824336052,3.1958351135253906,-1.6200957298278809,8.616393461124972e-05,2.056155204772949,4.903333860426702,-0.00017536402447149158,0.24055948853492737,-1.5410750547992151,0.0001196351513499394,0.13192912936210632,0.20096613466739655,0.00011071861808886752,0.03945755213499069,1.4323797225952148,-0.007169471122324467,-0.7857233881950378
234.0,333.0,0.4684,0.7609,9.4875,-0.0379,0.0182,-0.1219,-1.886172433892721,-0.020248807966709137,3.270598888397217,-1.6200557947158813,9.779391984920949e-05,2.072906255722046,4.9033256498868845,-0.0001597947411937639,0.25511085987091064,-1.541079346333639,0.00014959066174924374,0.14528115093708038,0.20098204910755157,0.0001031074789352715,0.028034398332238197,1.4323359727859497,-0.007475879043340683,-0.8110020756721497
234.0,333.0,0.4684,0.7609,9.4875,-0.0379,0.0182,-0.1219,-1.8862806759276332,-0.020727671682834625,3.1747899055480957,-1.6200201511383057,0.00012363182031549513,2.057668685913086,4.903321611672201,-0.00014676470891572535,0.25010254979133606,-1.54103929201235,0.00012827683531213552,0.13551585376262665,0.20103038847446442,9.647561091696844e-05,0.042033851146698,1.4323041439056396,-0.007601245306432247,-0.8239483833312988
234.0,333.0,0.4684,0.7609,9.4875,-0.0379,0.0182,-0.1219,-1.886460920373434,-0.021776488050818443,3.2187275886535645,-1.6200639009475708,0.0005293944268487394,2.0934321880340576,4.903321611672201,-0.00013569965085480362,0.2526322603225708,-1.5410354773150843,0.0001496710756327957,0.13868045806884766,0.20099809765815735,9.064538608072326e-05,0.026908867061138153,1.4322518110275269,-0.007951141335070133,-0.7699837684631348
234.0,333.0,0.4684,0.7609,9.4875,-0.0379,0.0182,-0.1219,-1.8865605793394984,-0.022549275308847427,3.1561946868896484,-1.6200926303863525,0.0005435904604382813,2.0437874794006348,4.90338188686923,-0.00012618624896276742,0.25269362330436707,-1.54103929201235,0.0001330891827819869,0.13339290022850037,0.20100614428520203,0.00010256565292365849,0.022125009447336197,1.4322080612182617,-0.009700862690806389,-0.8105487823486328
234.0,333.0,0.4684,0.7609,9.4875,-0.0379,0.0182,-0.1219,-1.8867045841612757,-0.02319335751235485,3.1795010566711426,-1.6200361251831055,0.0006029404466971755,2.0172841548919678,4.903342115670004,-0.00011791929136961699,0.25225597620010376,-1.5410917440997522,6.482961180154234e-05,0.13281701505184174,0.20104220509529114,9.704515832709149e-05,0.023989373818039894,1.4321116209030151,-0.012140005826950073,-0.8312844038009644
234.0,333.0,0.4684,0.7609,9.4875,-0.0379,0.0182,-0.1219,-1.8868524036803187,-0.025053845718503,3.176645517349243,-1.6200718879699707,0.0005509962793439627,2.016479253768921,4.9033215818698785,-0.00011066909792134538,0.24521659314632416,-1.54103929201235,5.8104440540773794e-05,0.13894706964492798,0.20099391043186188,9.208061965182424e-05,0.022975411266088486,1.4320921897888184,-0.012246113270521164,-0.8133260011672974
234.0,333.0,0.4684,0.7609,9.4875,-0.0379,0.0182,-0.1219,-1.8870684109129847,-0.027300089597702026,3.181213855743408,-1.6200759410858154,0.0005165464244782925,2.0246405601501465,4.903293344169416,-0.0001022838696371764,0.23559626936912537,-1.5410473982440394,7.718787674093619e-05,0.14677311480045319,0.20103083550930023,0.0001005666927085258,0.03200988471508026,1.4319604635238647,-0.014499073848128319,-0.7831933498382568
234.0,333.0,0.4684,0.7609,9.4875,-0.0379,0.0182,-0.1219,-1.8871761761107386,-0.029708106070756912,3.203798532485962,-1.6200202703475952,0.0005375065957196057,2.046478271484375,4.9033617852027795,-9.67841551755555e-05,0.25775688886642456,-1.5410197416888636,9.468163625570014e-05,0.15436159074306488,0.200990229845047,9.597169992048293e-05,0.04671242833137512,1.4318242073059082,-0.016493624076247215,-0.818926215171814
234.0,333.0,0.4684,0.7609,9.4875,-0.0379,0.0182,-0.1219,-1.8873840771117152,-0.032093632966279984,3.1737852096557617,-1.619960069656372,0.0006991740083321929,2.0722548961639404,4.903374138265409,-9.18456498766318e-05,0.2528296113014221,-1.54106313387026,8.784861711319536e-05,0.1300981193780899,0.2010180652141571,0.00010483083315193653,0.029784005135297775,1.431732177734375,-0.017393995076417923,-0.8485490083694458
234.0,333.0,0.4684,0.7609,9.4875,-0.0379,0.0182,-0.1219,-1.8875838718810023,-0.03470673784613609,3.176694869995117,-1.6200159788131714,0.0015362678095698357,2.014613389968872,4.90338188686923,-8.738676115171984e-05,0.24874599277973175,-1.5410316626178187,0.00010095267498400062,0.14767839014530182,0.20097379386425018,0.00010049632692243904,0.027765493839979172,1.4316444396972656,-0.019262757152318954,-0.8661105036735535
233.0,360.0,0.533,0.8118,9.3817,-0.0197,0.0122,-0.1235,-1.8877841434874476,-0.036771010607481,3.146885395050049,-1.6200400590896606,0.0027382189873605967,2.0146539211273193,4.90339412072257,-8.334060839843005e-05,0.238305002450943,-1.5410636107074183,9.578543540555984e-05,0.13390055298805237,0.20096604526042938,0.00010314076644135639,0.03257102519273758,1.431544303894043,-0.01999492757022381,-0.8955042362213135
233.0,360.0,0.533,0.8118,9.3817,-0.0197,0.0122,-0.1235,-1.8880483112730921,-0.04016789421439171,3.1538829803466797,-1.6199920177459717,0.00395901408046484,2.028665065765381,4.9033338753278635,-7.965267286635935e-05,0.24265336990356445,-1.5410473982440394,9.003626473713666e-05,0.12898264825344086,0.20099389553070068,9.748328739078715e-05,0.030663693323731422,1.4314286708831787,-0.021152079105377197,-0.837374210357666
233.0,360.0,0.533,0.8118,9.3817,-0.0197,0.0122,-0.1235,-1.8882557354369105,-0.04464064538478851,3.1711630821228027,-1.619968295097351,0.006339986342936754,2.068715810775757,4.9033777741487405,-7.627737068105489e-05,0.2444850504398346,-1.5410555044757288,8.493776113027707e-05,0.14185062050819397,0.20105043053627014,0.00010511541040614247,0.03492030128836632,1.4312405586242676,-0.021948013454675674,-0.8602783679962158
233.0,360.0,0.533,0.8118,9.3817,-0.0197,0.0122,-0.1235,-1.8885680637755335,-0.049704551696777344,3.1032557487487793,-1.6199159622192383,0.006923394743353128,2.0616440773010254,4.903369965940275,-7.317645940929651e-05,0.24260443449020386,-1.5410755316363733,8.0385863839183e-05,0.14707770943641663,0.20098569989204407,0.00010352270328439772,0.04303771257400513,1.4311124086380005,-0.02172030508518219,-0.9117947220802307
233.0,360.0,0.533,0.8118,9.3817,-0.0197,0.0122,-0.1235,-1.8888994656004847,-0.051309358328580856,3.140784740447998,-1.619827389717102,0.007678127381950617,2.0153560638427734,4.903341683536329,-7.031775021459907e-05,0.23953697085380554,-1.5410435835467737,7.629704487044364e-05,0.14459456503391266,0.201006218791008,0.0001140670501627028,0.04228789731860161,1.4310128688812256,-0.02191385254263878,-0.8825868368148804
233.0,360.0,0.533,0.8118,9.3817,-0.0197,0.0122,-0.1235,-1.8891555271544398,-0.051876187324523926,3.1577370166778564,-1.6198359727859497,0.008639036677777767,2.0709080696105957,4.9033535597618005,-6.767408194718882e-05,0.2547057271003723,-1.5410712401019495,7.260401616804302e-05,0.15237976610660553,0.2010464072227478,0.00012176725431345403,0.024230482056736946,1.430844783782959,-0.022353939712047577,-0.8530794382095337
233.0,360.0,0.533,0.8118,9.3817,-0.0197,0.0122,-0.1235,-1.8894630871214808,-0.051191169768571854,3.1588892936706543,-1.6197518110275269,0.008157497271895409,2.042227268218994,4.903337511211195,-6.522196781588718e-05,0.2536254823207855,-1.541051212941305,0.00011676933354465291,0.1319432109594345,0.20104262232780457,0.00011771952267736197,0.05391990393400192,1.4307570457458496,-0.022660499438643456,-0.873416543006897
233.0,360.0,0.533,0.8118,9.3817,-0.0197,0.0122,-0.1235,-1.8898474178709925,-0.05084758996963501,3.175929546356201,-1.619712233543396,0.007182574365288019,2.086344003677368,4.903369965940275,-6.294135528150946e-05,0.25570178031921387,-1.541079346333639,0.00010843246127478778,0.12033812701702118,0.20103037357330322,0.00020579606643877923,0.017589760944247246,1.4306007623672485,-0.022504322230815887,-0.8411051630973816
233.0,360.0,0.533,0.8118,9.3817,-0.0197,0.0122,-0.1235,-1.8901106319823207,-0.052833057940006256,3.161895990371704,-1.6196839809417725,0.004942391067743301,2.027198076248169,4.903373691230573,-6.0814840253442526e-05,0.2597351670265198,-1.54103929201235,0.00010112219024449587,0.13749131560325623,0.20104224979877472,0.0001837058662204072,0.04893438518047333,1.4304898977279663,-0.022432954981923103,-0.8546038269996643
233.0,360.0,0.533,0.8118,9.3817,-0.0197,0.0122,-0.1235,-1.8904186687865199,-0.056046031415462494,3.142906665802002,-1.6196880340576172,0.0033798948861658573,2.026292324066162,4.903329792409696,-1.9683625396282878e-06,0.2428295761346817,-1.5410078207599085,9.473536920268089e-05,0.12981602549552917,0.20101021230220795,0.00016365932242479175,0.042414404451847076,1.4303371906280518,-0.02199367992579937,-0.8335437178611755
233.0,360.0,0.533,0.8118,9.3817,-0.0197,0.0122,-0.1235,-1.8908659420409144,-0.060373373329639435,3.1742701530456543,-1.6196646690368652,0.0016448040260002017,2.034308910369873,4.903337555914678,-3.5774015694212125e-11,0.2502205967903137,-1.5410116354571741,8.737730968277901e-05,0.13782377541065216,0.20105446875095367,0.0001428724208381027,0.035238947719335556,1.4301496744155884,-0.021844439208507538,-0.8180555105209351
233.0,360.0,0.533,0.8118,9.3817,-0.0197,0.0122,-0.1235,-1.8911897144713343,-0.05912121385335922,3.125120162963867,-1.6196480989456177,0.0013741211732849479,2.0466666221618652,4.903321626573362,-9.957829442204698e-15,0.23576132953166962,-1.5410874525653284,8.256742876255885e-05,0.12382873892784119,0.20104637742042542,0.00013044654042460024,0.03139442205429077,1.4300296306610107,-0.021367982029914856,-0.8520916700363159
233.0,360.0,0.533,0.8118,9.3817,-0.0197,0.0122,-0.1235,-1.8915654621519984,-0.05647211894392967,3.174431324005127,-1.6196801662445068,0.0017186931800097227,2.0173470973968506,4.903377789049902,-2.7717982738330216e-18,0.2555035650730133,-1.5410154501544397,7.825958891771734e-05,0.13357248902320862,0.2010304033756256,0.00014399632345885038,0.02096044458448887,1.4298815727233887,-0.021365733817219734,-0.866014838218689
233.0,360.0,0.533,0.8118,9.3817,-0.0197,0.0122,-0.1235,-1.8918653927245082,-0.05525385960936546,3.191295623779297,-1.6196398735046387,0.0024124979972839355,2.041778802871704,4.903369936137953,-7.715401955585489e-22,0.2437431514263153,-1.5410674254046839,7.437900057993829e-05,0.1444118618965149,0.20105858147144318,0.0001333415711997077,0.033431537449359894,1.4297772645950317,-0.021563544869422913,-0.8650274872779846
233.0,360.0,0.533,0.8118,9.3817,-0.0197,0.0122,-0.1235,-1.892233511010641,-0.054668352007865906,3.1758413314819336,-1.6195842027664185,0.002002796158194542,2.0568599700927734,4.903394105821409,-2.1476099660346883e-25,0.2502858340740204,-1.5409992376910608,7.08650186425075e-05,0.12941430509090424,0.20104224979877472,0.0001241447898792103,0.026095878332853317,1.429658055305481,-0.021933602169156075,-0.8792897462844849
241.0,376.0,0.6658,1.0086,9.4851,-0.0037,-0.0235,-0.1472,-1.8925329647459925,-0.05601223558187485,3.1135330200195312,-1.6196001768112183,0.0012357941595837474,2.0334672927856445,4.903385939985075,-5.977951732281873e-29,0.2394118309020996,-1.5410354773150843,6.766821024939418e-05,0.1344670057296753,0.20101848244667053,0.0001161347609013319,0.04338422045111656,1.4295299053192139,-0.02263174206018448,-0.8334016799926758
241.0,376.0,0.6658,1.0086,9.4851,-0.0037,-0.0235,-0.1472,-1.8928853474059046,-0.05685214325785637,3.1621828079223633,-1.6195882558822632,0.0008496982045471668,2.04267954826355,4.9033498642738245,-1.6639845464915235e-32,0.24111059308052063,-1.5410316626178187,6.474726251326501e-05,0.13557544350624084,0.2010340541601181,0.00010909553384408355,0.04373447597026825,1.4293580055236816,-0.024571286514401436,-0.9312632083892822
241.0,376.0,0.6658,1.0086,9.4851,-0.0037,-0.0235,-0.1472,-1.8932649097838343,-0.05756082758307457,3.2181429862976074,-1.6195801496505737,0.0006484593614004552,2.012026309967041,4.903337943344869,-4.631760915631008e-36,0.23970578610897064,-1.5410354773150843,6.206810212461278e-05,0.14235763251781464,0.2010098695755005,0.00010286112956237048,0.04905189573764801,1.42924964427948,-0.026324843987822533,-0.879784107208252
241.0,376.0,0.6658,1.0086,9.4851,-0.0037,-0.0235,-0.1472,-1.8935805759825648,-0.0569867342710495,3.1993064880371094,-1.6196001768112183,0.00042030357872135937,2.0522940158843994,4.903369936137953,-1.2892674546989766e-39,0.24775350093841553,-1.54106313387026,5.960189810139127e-05,0.14125004410743713,0.20104622840881348,0.00011350807471899316,0.03908989578485489,1.4290777444839478,-0.030629705637693405,-0.8493361473083496
241.0,376.0,0.6658,1.0086,9.4851,-0.0037,-0.0235,-0.1472,-1.8939324818053187,-0.05756578966975212,3.1658005714416504,-1.619620680809021,0.00039667374221608043,2.0892133712768555,4.903406414180555,-3.587324068671532e-43,0.2552134096622467,-1.5410354773150843,5.7324152294313535e-05,0.137267604470253,0.2010020762681961,0.00010769582149805501,0.030635802075266838,1.4289343357086182,-0.033603452146053314,-0.8727787733078003
241.0,376.0,0.6658,1.0086,9.4851,-0.0037,-0.0235,-0.1472,-1.894252439538473,-0.056756556034088135,3.1094493865966797,-1.6195682287216187,0.0009956458816304803,2.0475802421569824,4.90334581115798,-0.0,0.24960079789161682,-1.5410354773150843,5.521409184439108e-05,0.1386527419090271,0.20101848244667053,0.0001161046457127668,0.035499922931194305,1.428666353225708,-0.03921157866716385,-0.8463353514671326
241.0,376.0,0.6658,1.0086,9.4851,-0.0037,-0.0235,-0.1472,-1.8945681057372035,-0.054524775594472885,3.162450075149536,-1.619544506072998,0.002255531493574381,2.0083768367767334,4.9033859995897195,-0.0,0.25053322315216064,-1.541051212941305,5.325386882759631e-05,0.14988602697849274,0.20102989673614502,0.00011163073941133916,0.040436919778585434,1.4284424781799316,-0.04206129536032677,-0.8774170875549316
241.0,376.0,0.6658,1.0086,9.4851,-0.0037,-0.0235,-0.1472,-1.8949037990965785,-0.051539912819862366,3.1816930770874023,-1.6195321083068848,0.002993412781506777,1.9881689548492432,4.903357687383451,-0.0,0.24276259541511536,-1.5410435835467737,5.142805821378715e-05,0.13133318722248077,0.20100608468055725,0.00010666945308912545,0.04525776952505112,1.4282110929489136,-0.04525783285498619,-0.9063224792480469
241.0,376.0,0.6658,1.0086,9.4851,-0.0037,-0.0235,-0.1472,-1.8953072033324183,-0.049813318997621536,3.2026023864746094,-1.6195238828659058,0.002958055818453431,2.077406406402588,4.903346153884687,-0.0,0.2473192811012268,-1.5410354773150843,3.2465752610733034e-06,0.12876562774181366,0.20106269419193268,8.889754099072888e-05,0.046505652368068695,1.4277780055999756,-0.047400373965501785,-0.8586933016777039
241.0,376.0,0.6658,1.0086,9.4851,-0.0037,-0.0235,-0.1472,-1.8955913982787074,-0.05182230472564697,3.1285955905914307,-1.6195122003555298,0.0020836330950260162,2.027928113937378,4.903386029392042,-0.0,0.23877975344657898,-1.5409711042987269,9.036961179376135e-10,0.12399294972419739,0.20105448365211487,8.320631604874507e-05,0.047836534678936005,1.4275622367858887,-0.04877331107854843,-0.9070711135864258
