ramyac6/ROB537/final_project/csv/good/good_143.csv
tof_0,tof_1,accelx,accely,accelz,gyrox,gyroy,gyroz,shoulder_lift_joint_position,shoulder_lift_joint_velocity,shoulder_lift_joint_effort,elbow_joint_position,elbow_joint_velocity,elbow_joint_effort,wrist_1_joint_position,wrist_1_joint_velocity,wrist_1_joint_effort,wrist_2_joint_position,wrist_2_joint_velocity,wrist_2_joint_effort,wrist_3_joint_position,wrist_3_joint_velocity,wrist_3_joint_effort,shoulder_pan_joint_position,shoulder_pan_joint_velocity,shoulder_pan_joint_effort
312.0,373.0,7.3645,0.2154,5.5065,-0.0339,0.024,-0.1138,-1.6607729397215785,0.0,2.331695556640625,-1.0099141597747803,-0.0,1.949997067451477,3.2929960924335937,-0.0,0.2441880851984024,-1.6417625586139124,-0.0,0.000225115567445755,0.8115121722221375,-0.0,-0.0029347874224185944,0.797773540019989,0.0,0.025265639647841454
312.0,373.0,7.3645,0.2154,5.5065,-0.0339,0.024,-0.1138,-1.6607772312560023,0.0,2.3537192344665527,-1.0098861455917358,-0.0,1.963327169418335,3.292951746577881,-0.0,0.25166213512420654,-1.6417864004718226,-0.0,0.005396214313805103,0.8115523457527161,-0.0,-0.008388946764171124,0.7977895140647888,0.0,-0.0033578481525182724
312.0,373.0,7.3645,0.2154,5.5065,-0.0339,0.024,-0.1138,-1.6607281170287074,0.0,2.346949338912964,-1.0098941326141357,-0.0,1.97683584690094,3.2929879862019042,-0.0,0.24659699201583862,-1.6417425314532679,-0.0,-0.0009453219827264547,0.8115842342376709,-0.0,-0.01026645302772522,0.797825813293457,0.0,0.021899720653891563
312.0,373.0,7.3645,0.2154,5.5065,-0.0339,0.024,-0.1138,-1.6608292065062464,0.0,2.3202524185180664,-1.0098541975021362,-0.0,1.9248219728469849,3.292979879970215,-0.0,0.25041335821151733,-1.6417864004718226,-0.0,-0.0036227141972631216,0.8115441799163818,-0.0,-0.009212167002260685,0.7978016138076782,0.0,-0.005034757312387228
312.0,373.0,7.3645,0.2154,5.5065,-0.0339,0.024,-0.1138,-1.6607729397215785,0.0,2.319939136505127,-1.0099104642868042,-0.0,1.981067419052124,3.2930447298237304,-0.0,0.25761815905570984,-1.6417587439166468,-0.0,0.0060038091614842415,0.8115363717079163,-0.0,-0.014913516119122505,0.7978098392486572,0.0,0.041088033467531204
312.0,373.0,7.3645,0.2154,5.5065,-0.0339,0.024,-0.1138,-1.6607562504210414,0.0,2.365204095840454,-1.009878158569336,-0.0,1.9661993980407715,3.2929960924335937,-0.0,0.24490347504615784,-1.6417749563800257,-0.0,-0.006564631126821041,0.8115928769111633,-0.0,-0.014474479481577873,0.7978378534317017,0.0,-0.025661662220954895
312.0,373.0,7.3645,0.2154,5.5065,-0.0339,0.024,-0.1138,-1.6607686481871546,0.0,2.3526082038879395,-1.0098696947097778,-0.0,2.012617826461792,3.2929879862019042,-0.0,0.25005191564559937,-1.641743008290426,-0.0,-0.003342458512634039,0.8115482330322266,-0.0,-0.0036535148974508047,0.7978180646896362,0.0,0.028562309220433235
343.0,361.0,7.0869,0.1023,6.0772,-0.0392,0.0293,-0.1289,-1.6607924900450648,0.0,2.356022357940674,-1.009850025177002,-0.0,1.9299664497375488,3.2930361467548828,-0.0,0.2407456785440445,-1.6417387167560022,-0.0,-0.011810021474957466,0.8115363121032715,-0.0,-0.010032800026237965,0.7978257536888123,0.0,0.03548534959554672
343.0,361.0,7.0869,0.1023,6.0772,-0.0392,0.0293,-0.1289,-1.660764833489889,0.0,2.340822458267212,-1.0098705291748047,-0.0,1.9343137741088867,3.2930003839680175,-0.0,0.25009021162986755,-1.6417906920062464,-0.0,-0.00461845938116312,0.8115522861480713,-0.0,-0.011335315182805061,0.7978134751319885,0.0,0.00047160033136606216
343.0,361.0,7.0869,0.1023,6.0772,-0.0392,0.0293,-0.1289,-1.6607924900450648,0.0,2.3173561096191406,-1.0098985433578491,-0.0,1.9686248302459717,3.2929674822041015,-0.0,0.25254711508750916,-1.6417549292193812,-0.0,0.0033864853903651237,0.8116007447242737,-0.0,0.0036170172970741987,0.797817587852478,0.0,0.07678984105587006
343.0,361.0,7.0869,0.1023,6.0772,-0.0392,0.0293,-0.1289,-1.6607562504210414,0.0,2.3344011306762695,-1.0098624229431152,-0.0,1.9671777486801147,3.2929794031330566,-0.0,0.24544033408164978,-1.6418026129352015,-0.0,0.0051332744769752026,0.811515748500824,-0.0,-0.007215386256575584,0.7977571487426758,0.0,-0.019925100728869438
343.0,361.0,7.0869,0.1023,6.0772,-0.0392,0.0293,-0.1289,-1.6607729397215785,0.0,2.3308987617492676,-1.0098583698272705,-0.0,1.9994409084320068,3.29301564275708,-0.0,0.24899321794509888,-1.6417387167560022,-0.0,-0.014079474844038486,0.811503529548645,-0.0,0.0013430295512080193,0.7977977991104126,0.0,-0.022687993943691254
343.0,361.0,7.0869,0.1023,6.0772,-0.0392,0.0293,-0.1289,-1.6607362232603968,0.0,2.3545665740966797,-1.0098822116851807,-0.0,1.9570608139038086,3.292951746577881,-0.0,0.2464132010936737,-1.6417706648456019,-0.0,-0.00028531934367492795,0.8115481734275818,-0.0,-0.0047113411128520966,0.7977491617202759,0.0,-0.001271591056138277
343.0,361.0,7.0869,0.1023,6.0772,-0.0392,0.0293,-0.1289,-1.6607562504210414,0.0,2.374664545059204,-1.0099141597747803,-0.0,1.9220201969146729,3.292943163509033,-0.0,0.2533491253852844,-1.641782585774557,-0.0,-0.015972156077623367,0.8115203380584717,-0.0,-0.007634433452039957,0.7978257536888123,0.0,-0.037558119744062424
343.0,361.0,7.0869,0.1023,6.0772,-0.0392,0.0293,-0.1289,-1.660736700097555,0.0,2.3750603199005127,-1.0098822116851807,-0.0,1.9638195037841797,3.2930118280598144,-0.0,0.25104954838752747,-1.6417506376849573,-0.0,-0.007804057095199823,0.8115723729133606,-0.0,0.000590193085372448,0.7978097796440125,0.0,-0.008369923569262028
343.0,361.0,7.0869,0.1023,6.0772,-0.0392,0.0293,-0.1289,-1.660752912560934,0.0,2.3486034870147705,-1.0098575353622437,-0.0,1.9444983005523682,3.292959375972412,-0.0,0.2467917799949646,-1.6417706648456019,-0.0,-0.011734824627637863,0.8115281462669373,-0.0,-0.01752515882253647,0.7977451086044312,0.0,0.013572321273386478
343.0,361.0,7.0869,0.1023,6.0772,-0.0392,0.0293,-0.1289,-1.6607405147948207,0.0,2.3584070205688477,-1.0098944902420044,-0.0,1.940407633781433,3.2929794031330566,-0.0,0.2623487114906311,-1.6417349020587366,-0.0,0.0020683989860117435,0.8115769624710083,-0.0,-0.010685896500945091,0.7978420257568359,0.0,-0.031165752559900284
343.0,361.0,7.0869,0.1023,6.0772,-0.0392,0.0293,-0.1289,-1.6607605419554652,0.0,2.3458688259124756,-1.0098419189453125,-0.0,1.957492709159851,3.292976065272949,-0.0,0.2542649507522583,-1.6418145338641565,-0.0,-0.006742457859218121,0.8115244507789612,-0.0,-0.009834221564233303,0.7977612614631653,0.0,-0.009780161082744598
343.0,361.0,7.0869,0.1023,6.0772,-0.0392,0.0293,-0.1289,-1.6607605419554652,0.0,2.368595600128174,-1.00986647605896,-0.0,1.9189997911453247,3.2929155069538574,-0.0,0.2561193108558655,-1.641782585774557,-0.0,-0.012258770875632763,0.8115682601928711,-0.0,2.4228356778621674e-05,0.7977694272994995,0.0,-0.03856585919857025
344.0,371.0,7.3394,0.1914,5.5777,-0.0452,0.0229,-0.1194,-1.6607686481871546,0.0,2.33837890625,-1.009865641593933,-0.0,1.9587560892105103,3.293004198665283,-0.0,0.25335997343063354,-1.6417625586139124,-0.0,-0.002015722217038274,0.8115400075912476,-0.0,-0.016560669988393784,0.7978299260139465,0.0,0.016155770048499107
344.0,371.0,7.3394,0.1914,5.5777,-0.0452,0.0229,-0.1194,-1.6607924900450648,0.0,2.347646713256836,-1.0098862648010254,-0.0,1.9486205577850342,3.2929960924335937,-0.0,0.2476113736629486,-1.6417744795428675,-0.0,0.0012371183838695288,0.8115358948707581,-0.0,0.012986937537789345,0.7977977395057678,0.0,0.09380239993333817
344.0,371.0,7.3394,0.1914,5.5777,-0.0452,0.0229,-0.1194,-1.6608010731139125,0.0,2.335184097290039,-1.0098780393600464,-0.0,1.931723952293396,3.2929836946674804,-0.0,0.25247377157211304,-1.6417668501483362,-0.0,0.001925409073010087,0.811528205871582,-0.0,-0.004141312558203936,0.797797679901123,0.0,-0.024320127442479134
344.0,371.0,7.3394,0.1914,5.5777,-0.0452,0.0229,-0.1194,-1.6607967815794886,0.0,2.338257074356079,-1.0098739862442017,-0.0,1.954298734664917,3.292964144343994,-0.0,0.24137334525585175,-1.6417744795428675,-0.0,-0.012208187952637672,0.8115079998970032,-0.0,-0.017843645066022873,0.7977977395057678,0.0,0.02079061046242714
344.0,371.0,7.3394,0.1914,5.5777,-0.0452,0.0229,-0.1194,-1.660764833489889,0.0,2.3269364833831787,-1.0099022388458252,-0.0,1.93818998336792,3.293004198665283,-0.0,0.2519838809967041,-1.6417387167560022,-0.0,-0.007369524799287319,0.8115524053573608,-0.0,-0.009637344628572464,0.7978019118309021,0.0,0.013698173686861992
344.0,371.0,7.3394,0.1914,5.5777,-0.0452,0.0229,-0.1194,-1.660781045953268,0.0,2.3283939361572266,-1.009914517402649,-0.0,1.9923315048217773,3.2929794031330566,-0.0,0.2485472857952118,-1.6417706648456019,-0.0,-0.005187411792576313,0.8114999532699585,-0.0,0.0018169846152886748,0.7978134751319885,0.0,-0.02018369361758232
344.0,371.0,7.3394,0.1914,5.5777,-0.0452,0.0229,-0.1194,-1.6607405147948207,0.0,2.317012310028076,-1.0099146366119385,-0.0,1.9474433660507202,3.2929674822041015,-0.0,0.25405022501945496,-1.6417549292193812,-0.0,-0.0033210045658051968,0.811532735824585,-0.0,-0.015505922958254814,0.7977734804153442,0.0,-0.0215323343873024
344.0,371.0,7.3394,0.1914,5.5777,-0.0452,0.0229,-0.1194,-1.6607967815794886,0.0,2.3109734058380127,-1.009918212890625,-0.0,1.9257608652114868,3.2930118280598144,-0.0,0.25530481338500977,-1.6417387167560022,-0.0,0.010526072233915329,0.811479926109314,-0.0,-0.014176605269312859,0.7977977395057678,0.0,0.03456098958849907
344.0,371.0,7.3394,0.1914,5.5777,-0.0452,0.0229,-0.1194,-1.6608010731139125,0.0,2.2900571823120117,-1.0099183320999146,-0.0,1.9669519662857056,3.292963667506836,-0.0,0.2555369734764099,-1.6417744795428675,-0.0,-0.006807196885347366,0.8115322589874268,-0.0,-0.008938353508710861,0.7977775931358337,0.0,0.004691829904913902
344.0,371.0,7.3394,0.1914,5.5777,-0.0452,0.0229,-0.1194,-1.6607729397215785,0.0,2.3708066940307617,-1.0098222494125366,-0.0,1.9691147804260254,3.292976065272949,-0.0,0.2539063096046448,-1.6417706648456019,-0.0,0.0019123138627037406,0.8115723729133606,-0.0,-0.009896315634250641,0.7978019118309021,0.0,-0.02451484464108944
344.0,371.0,7.3394,0.1914,5.5777,-0.0452,0.0229,-0.1194,-1.6607924900450648,0.0,2.351501703262329,-1.0098505020141602,-0.0,1.9608988761901855,3.2929960924335937,-0.0,0.24435928463935852,-1.6417549292193812,-0.0,-0.006452192086726427,0.8115969896316528,-0.0,-0.004365792963653803,0.797834038734436,0.0,0.027307573705911636
344.0,371.0,7.3394,0.1914,5.5777,-0.0452,0.0229,-0.1194,-1.660764833489889,0.0,2.3210010528564453,-1.0099022388458252,-0.0,1.9737701416015625,3.2929794031330566,-0.0,0.24698349833488464,-1.641782585774557,-0.0,0.010513531044125557,0.8115723133087158,-0.0,-0.013495273888111115,0.7978139519691467,0.0,-0.020609905943274498
344.0,371.0,7.3394,0.1914,5.5777,-0.0452,0.0229,-0.1194,-1.6607686481871546,0.0,2.330779552459717,-1.0099064111709595,-0.0,1.950378656387329,3.29301564275708,-0.0,0.2567249536514282,-1.6417630354510706,-0.0,0.007859871722757816,0.8115400075912476,-0.0,-0.004554539918899536,0.7977895140647888,0.0,-0.03931461274623871
332.0,382.0,7.395,0.2237,5.3157,-0.0351,0.0214,-0.1161,-1.6607605419554652,0.0,2.330030679702759,-1.009921908378601,-0.0,1.9756417274475098,3.2929398256489257,-0.0,0.2554783523082733,-1.641766373311178,-0.0,-0.002714740578085184,0.8115079998970032,-0.0,-0.0031148246489465237,0.7978015542030334,0.0,-0.0024786596186459064
332.0,382.0,7.395,0.2237,5.3157,-0.0351,0.0214,-0.1161,-1.660804887811178,0.0,2.3182425498962402,-1.0098705291748047,-0.0,1.9362419843673706,3.292976065272949,-0.0,0.23561882972717285,-1.6417668501483362,-0.0,-0.008131381124258041,0.8115400075912476,-0.0,-0.019211597740650177,0.7977895140647888,0.0,-0.007274298463016748
332.0,382.0,7.395,0.2237,5.3157,-0.0351,0.0214,-0.1161,-1.6607524357237757,0.0,2.33308482170105,-1.0098778009414673,-0.0,1.960571050643921,3.292976065272949,-0.0,0.25275611877441406,-1.641794506703512,-0.0,-0.001972536789253354,0.8115805983543396,-0.0,-0.0023588354233652353,0.7977977395057678,0.0,0.025750188156962395
332.0,382.0,7.395,0.2237,5.3157,-0.0351,0.0214,-0.1161,-1.6607772312560023,0.0,2.31256103515625,-1.0098381042480469,-0.0,1.9613730907440186,3.293032332057617,-0.0,0.2544989585876465,-1.641743008290426,-0.0,-0.0059743765741586685,0.8115481734275818,-0.0,-0.0036633622366935015,0.7977694272994995,0.0,3.291945904493332e-05
332.0,382.0,7.395,0.2237,5.3157,-0.0351,0.0214,-0.1161,-1.6607729397215785,0.0,2.375807046890259,-1.0099142789840698,-0.0,1.8973948955535889,3.2930280405231933,-0.0,0.24150043725967407,-1.6417229811297815,-0.0,0.016122478991746902,0.8115925192832947,-0.0,-0.005559395998716354,0.7977734804153442,0.0,-0.03131982684135437
332.0,382.0,7.395,0.2237,5.3157,-0.0351,0.0214,-0.1161,-1.6607243023314417,0.0,2.374596357345581,-1.0098624229431152,-0.0,1.9683568477630615,3.2929598528095703,-0.0,0.2446260154247284,-1.6417668501483362,-0.0,0.0008606496267020702,0.811516284942627,-0.0,-0.005832626484334469,0.7978015542030334,0.0,0.02461189031600952
332.0,382.0,7.395,0.2237,5.3157,-0.0351,0.0214,-0.1161,-1.6607524357237757,0.0,2.3345818519592285,-1.0099021196365356,-0.0,1.9364348649978638,3.292947455043457,-0.0,0.24070361256599426,-1.6418269316302698,-0.0,-0.0017339749028906226,0.8114957809448242,-0.0,0.0012153193820267916,0.797825813293457,0.0,-0.005027321167290211
332.0,382.0,7.395,0.2237,5.3157,-0.0351,0.0214,-0.1161,-1.6607729397215785,0.0,2.3123602867126465,-1.009873867034912,-0.0,1.9755864143371582,3.293008490199707,-0.0,0.24143680930137634,-1.6417549292193812,-0.0,-0.010486720129847527,0.8115400075912476,-0.0,-0.0004951797891408205,0.7977858781814575,0.0,0.0034406171180307865
332.0,382.0,7.395,0.2237,5.3157,-0.0351,0.0214,-0.1161,-1.6607686481871546,0.0,2.3540802001953125,-1.0099183320999146,-0.0,1.9457862377166748,3.2929960924335937,-0.0,0.24586844444274902,-1.6417549292193812,-0.0,0.0017296315636485815,0.8115641474723816,-0.0,-0.009360551834106445,0.7977977395057678,0.0,-0.006566679570823908
332.0,382.0,7.395,0.2237,5.3157,-0.0351,0.0214,-0.1161,-1.6607843838133753,0.0,2.3497955799102783,-1.0098778009414673,-0.0,1.9726581573486328,3.2929960924335937,-0.0,0.2392626404762268,-1.6417506376849573,-0.0,0.004271299112588167,0.8115523457527161,-0.0,-0.006183220073580742,0.7977936267852783,0.0,-0.019350240007042885
332.0,382.0,7.395,0.2237,5.3157,-0.0351,0.0214,-0.1161,-1.6607924900450648,0.0,2.336009979248047,-1.0098698139190674,-0.0,1.9072121381759644,3.292951746577881,-0.0,0.2480303943157196,-1.6417787710772913,-0.0,0.011332499794661999,0.8115482926368713,-0.0,-0.004169883206486702,0.7977695465087891,0.0,0.008281536400318146
332.0,382.0,7.395,0.2237,5.3157,-0.0351,0.0214,-0.1161,-1.6607605419554652,0.0,2.372703790664673,-1.009846568107605,-0.0,1.981024980545044,3.2929279047199707,-0.0,0.24644410610198975,-1.6417668501483362,-0.0,-0.01684444025158882,0.8114915490150452,-0.0,-0.008428149856626987,0.7977775931358337,0.0,-0.010798264294862747
326.0,365.0,7.3789,0.1813,5.5208,-0.037,0.0224,-0.1165,-1.660781045953268,0.0,2.315415859222412,-1.0098823308944702,-0.0,1.9960817098617554,3.293004198665283,-0.0,0.2481497824192047,-1.641806427632467,-0.0,0.0010776063427329063,0.8115764856338501,-0.0,-0.0010488105472177267,0.7977977395057678,0.0,-0.013662763871252537
326.0,365.0,7.3789,0.1813,5.5208,-0.037,0.0224,-0.1165,-1.6608010731139125,0.0,2.3351314067840576,-1.0098942518234253,-0.0,1.9345799684524536,3.2928835588642578,-0.0,0.25668397545814514,-1.6417625586139124,-0.0,0.001514554605819285,0.8115686774253845,-0.0,-0.005606248043477535,0.797805666923523,0.0,-0.008019525557756424
326.0,365.0,7.3789,0.1813,5.5208,-0.037,0.0224,-0.1165,-1.6607362232603968,0.0,2.364030361175537,-1.0098903179168701,-0.0,1.9083354473114014,3.2930075365253906,-0.0,0.24940213561058044,-1.6417906920062464,-0.0,-0.003907452337443829,0.811523973941803,-0.0,-0.009844833984971046,0.7977895140647888,0.0,0.010275161825120449
326.0,365.0,7.3789,0.1813,5.5208,-0.037,0.0224,-0.1165,-1.6607362232603968,0.0,2.350365400314331,-1.0098778009414673,-0.0,1.9573644399642944,3.2930003839680175,-0.0,0.2588825523853302,-1.641806427632467,-0.0,-0.009380791336297989,0.8115358948707581,-0.0,-0.0064437235705554485,0.797834038734436,0.0,0.01715087890625
326.0,365.0,7.3789,0.1813,5.5208,-0.037,0.0224,-0.1165,-1.6608010731139125,0.0,2.3438527584075928,-1.0098302364349365,-0.0,1.953313946723938,3.29301564275708,-0.0,0.25559014081954956,-1.6417506376849573,-0.0,-0.000958037911914289,0.8115400075912476,-0.0,-0.011527645401656628,0.7978015542030334,0.0,-0.0014827470295131207
326.0,365.0,7.3789,0.1813,5.5208,-0.037,0.0224,-0.1165,-1.6607161960997523,0.0,2.343499183654785,-1.0098505020141602,-0.0,1.9771604537963867,3.292971296901367,-0.0,0.2545119822025299,-1.6417744795428675,-0.0,-0.008911270648241043,0.8115281462669373,-0.0,-0.016968203708529472,0.7977895140647888,0.0,-0.03327956423163414
326.0,365.0,7.3789,0.1813,5.5208,-0.037,0.0224,-0.1165,-1.6607405147948207,0.0,2.3430697917938232,-1.0098862648010254,-0.0,1.9137122631072998,3.293004198665283,-0.0,0.2480681836605072,-1.6417349020587366,-0.0,-0.0006598122417926788,0.811556339263916,-0.0,-0.016520576551556587,0.7978097796440125,0.0,-0.009065535850822926
326.0,365.0,7.3789,0.1813,5.5208,-0.037,0.0224,-0.1165,-1.6607967815794886,0.0,2.4273290634155273,-1.0098580121994019,-0.0,1.9685635566711426,3.2929836946674804,-0.0,0.24818629026412964,-1.6417349020587366,-0.0,0.0064749084413051605,0.8115441799163818,-0.0,-0.02034001238644123,0.797773540019989,0.0,-0.003745340509340167
326.0,365.0,7.3789,0.1813,5.5208,-0.037,0.0224,-0.1165,-1.660764833489889,0.0,2.350578546524048,-1.0099021196365356,-0.0,1.9814176559448242,3.2930075365253906,-0.0,0.25145789980888367,-1.6417306105243128,-0.0,-0.0027775547932833433,0.811528205871582,-0.0,-0.007084359880536795,0.797805666923523,0.0,-0.02491317130625248
326.0,365.0,7.3789,0.1813,5.5208,-0.037,0.0224,-0.1165,-1.6607886753477992,0.0,2.327784538269043,-1.0098227262496948,-0.0,1.9305176734924316,3.2929794031330566,-0.0,0.24545657634735107,-1.6417787710772913,-0.0,-0.0006375947268679738,0.8115323185920715,-0.0,-0.017349278554320335,0.797805666923523,0.0,-0.005485176108777523
326.0,365.0,7.3789,0.1813,5.5208,-0.037,0.0224,-0.1165,-1.6607772312560023,0.0,2.3702356815338135,-1.0098778009414673,-0.0,1.9441142082214355,3.2929960924335937,-0.0,0.24150723218917847,-1.641806427632467,-0.0,0.004642068408429623,0.8115605115890503,-0.0,0.002996767172589898,0.7978217005729675,0.0,-0.024060869589447975
326.0,365.0,7.3789,0.1813,5.5208,-0.037,0.0224,-0.1165,-1.6607772312560023,0.0,2.3426337242126465,-1.0098427534103394,-0.0,1.9387599229812622,3.293032332057617,-0.0,0.24629992246627808,-1.6417625586139124,-0.0,0.006182980258017778,0.8115682601928711,-0.0,-0.002539252396672964,0.7977936267852783,0.0,-0.03138496354222298
326.0,365.0,7.3789,0.1813,5.5208,-0.037,0.0224,-0.1165,-1.6607691250243128,0.0,2.3310647010803223,-1.009861946105957,-0.0,1.9796855449676514,3.2930003839680175,-0.0,0.24549943208694458,-1.6417706648456019,-0.0,0.0012785702710971236,0.8115847706794739,-0.0,-0.005548062734305859,0.797817587852478,0.0,-0.055577944964170456
348.0,349.0,7.3382,0.2136,5.534,-0.0418,0.0305,-0.1185,-1.6607886753477992,0.0,2.3110976219177246,-1.0098862648010254,-0.0,1.9137029647827148,3.29299180089917,-0.0,0.24829107522964478,-1.641782585774557,-0.0,-0.0003132983110845089,0.8115765452384949,-0.0,-0.019212281331419945,0.7977817058563232,0.0,0.0016406083013862371
348.0,349.0,7.3382,0.2136,5.534,-0.0418,0.0305,-0.1185,-1.6607562504210414,0.0,2.347015857696533,-1.0098704099655151,-0.0,1.9484596252441406,3.2929836946674804,-0.0,0.2430332452058792,-1.6417625586139124,-0.0,0.003975887782871723,0.8114957809448242,-0.0,-0.019678156822919846,0.7978015542030334,0.0,-0.039456047117710114
348.0,349.0,7.3382,0.2136,5.534,-0.0418,0.0305,-0.1185,-1.6607886753477992,0.0,2.3694615364074707,-1.0099140405654907,-0.0,1.9763033390045166,3.2930280405231933,-0.0,0.26051175594329834,-1.6417706648456019,-0.0,-0.0010935101890936494,0.8115039467811584,-0.0,-0.011915978975594044,0.797805666923523,0.0,-0.004659371450543404
348.0,349.0,7.3382,0.2136,5.534,-0.0418,0.0305,-0.1185,-1.6608129940428675,0.0,2.3310158252716064,-1.0098823308944702,-0.0,1.9510536193847656,3.292947455043457,-0.0,0.2536567151546478,-1.6417983214007776,-0.0,-0.018555115908384323,0.8115199208259583,-0.0,-0.011862998828291893,0.7978097796440125,0.0,0.05964658036828041
348.0,349.0,7.3382,0.2136,5.534,-0.0418,0.0305,-0.1185,-1.6607729397215785,0.0,2.347001791000366,-1.009941816329956,-0.0,1.9577960968017578,3.29301564275708,-0.0,0.24446535110473633,-1.6417787710772913,-0.0,0.0029373199213296175,0.8115441799163818,-0.0,-0.005653623957186937,0.7977575659751892,0.0,0.051969271153211594
348.0,349.0,7.3382,0.2136,5.534,-0.0418,0.0305,-0.1185,-1.6607405147948207,0.0,2.359442949295044,-1.009873867034912,-0.0,1.9443539381027222,3.2930075365253906,-0.0,0.2479206621646881,-1.6417706648456019,-0.0,0.006856783293187618,0.8115765452384949,-0.0,-0.007542929612100124,0.7977771759033203,0.0,0.0477600023150444
348.0,349.0,7.3382,0.2136,5.534,-0.0418,0.0305,-0.1185,-1.6607729397215785,0.0,2.3530049324035645,-1.0099378824234009,-0.0,1.965794324874878,3.2929836946674804,-0.0,0.23410049080848694,-1.6418026129352015,-0.0,-0.020780691877007484,0.8116003274917603,-0.0,0.008024864830076694,0.7977817058563232,0.0,-0.0023206379264593124
348.0,349.0,7.3382,0.2136,5.534,-0.0418,0.0305,-0.1185,-1.6607967815794886,0.0,2.323850154876709,-1.0098702907562256,-0.0,1.922114372253418,3.2930075365253906,-0.0,0.2523566484451294,-1.641714874898092,-0.0,-0.00772243645042181,0.8115322589874268,-0.0,-0.010595839470624924,0.7978298664093018,0.0,-0.02549031376838684
348.0,349.0,7.3382,0.2136,5.534,-0.0418,0.0305,-0.1185,-1.6607686481871546,0.0,2.306912899017334,-1.0099061727523804,-0.0,1.9633703231811523,3.2929231363483886,-0.0,0.24203751981258392,-1.641794506703512,-0.0,0.008544320240616798,0.8114480972290039,-0.0,-0.009687336161732674,0.7977854609489441,0.0,0.01214723289012909
348.0,349.0,7.3382,0.2136,5.534,-0.0418,0.0305,-0.1185,-1.6607204876341761,0.0,2.377875804901123,-1.0098187923431396,-0.0,1.9389595985412598,3.292975588435791,-0.0,0.2459193468093872,-1.6417625586139124,-0.0,0.008576045744121075,0.8115318417549133,-0.0,0.0036731199361383915,0.7977977395057678,0.0,0.04541417211294174
348.0,349.0,7.3382,0.2136,5.534,-0.0418,0.0305,-0.1185,-1.6607772312560023,0.0,2.3408126831054688,-1.0098698139190674,-0.0,1.9594639539718628,3.2929960924335937,-0.0,0.2510544955730438,-1.6417549292193812,-0.0,-0.011696201749145985,0.8115121722221375,-0.0,-0.007788052782416344,0.7977694272994995,0.0,-0.012649649754166603
348.0,349.0,7.3382,0.2136,5.534,-0.0418,0.0305,-0.1185,-1.6607524357237757,0.0,2.332929849624634,-1.009878396987915,-0.0,1.945932149887085,3.2929879862019042,-0.0,0.26017528772354126,-1.641719166432516,-0.0,0.001207695691846311,0.8115400075912476,-0.0,-0.007922248914837837,0.7978257536888123,0.0,-0.012758220545947552
341.0,368.0,7.3173,0.189,5.4873,-0.0308,0.0148,-0.1122,-1.6607843838133753,0.0,2.337625741958618,-1.0098381042480469,-0.0,1.9312143325805664,3.2930280405231933,-0.0,0.24834668636322021,-1.6417630354510706,-0.0,-0.00668331328779459,0.8115481734275818,-0.0,-0.005329838953912258,0.797773540019989,0.0,-0.01952098309993744
341.0,368.0,7.3173,0.189,5.4873,-0.0308,0.0148,-0.1122,-1.660764833489889,0.0,2.3327410221099854,-1.0099220275878906,-0.0,1.96664297580719,3.292975588435791,-0.0,0.248586967587471,-1.6417506376849573,-0.0,0.0029029054567217827,0.811572790145874,-0.0,-0.009221488609910011,0.7978097796440125,0.0,-0.03640572726726532
341.0,368.0,7.3173,0.189,5.4873,-0.0308,0.0148,-0.1122,-1.660809179345602,0.0,2.358309268951416,-1.0099419355392456,-0.0,1.94935941696167,3.2929794031330566,-0.0,0.24626684188842773,-1.6417625586139124,-0.0,-0.003692265599966049,0.811524510383606,-0.0,-0.0024264492094516754,0.7978097796440125,0.0,0.03324732929468155
341.0,368.0,7.3173,0.189,5.4873,-0.0308,0.0148,-0.1122,-1.660781045953268,0.0,2.341489791870117,-1.0098658800125122,-0.0,1.9452402591705322,3.292987509364746,-0.0,0.25056886672973633,-1.641794506703512,-0.0,-0.01430346816778183,0.8115400075912476,-0.0,-0.0007187893497757614,0.7977571487426758,0.0,-0.018573181703686714
341.0,368.0,7.3173,0.189,5.4873,-0.0308,0.0148,-0.1122,-1.6608129940428675,0.0,2.3363940715789795,-1.0098823308944702,-0.0,1.9295969009399414,3.2929794031330566,-0.0,0.2477504014968872,-1.641731087361471,-0.0,-0.002770703285932541,0.811523973941803,-0.0,-0.016910063102841377,0.7977612018585205,0.0,0.01659775711596012
341.0,368.0,7.3173,0.189,5.4873,-0.0308,0.0148,-0.1122,-1.660804887811178,0.0,2.3917932510375977,-1.0098658800125122,-0.0,1.9576358795166016,3.2929555612751464,-0.0,0.2516207993030548,-1.641702953969137,-0.0,0.001049824059009552,0.8115925192832947,-0.0,0.008516069501638412,0.7977977395057678,0.0,-0.03802863135933876
341.0,368.0,7.3173,0.189,5.4873,-0.0308,0.0148,-0.1122,-1.6607562504210414,0.0,2.3265819549560547,-1.0098624229431152,-0.0,1.9819200038909912,3.2929960924335937,-0.0,0.24950730800628662,-1.6417349020587366,-0.0,0.001554814400151372,0.8114798069000244,-0.0,-0.007131505757570267,0.7977531552314758,0.0,0.006583509035408497
341.0,368.0,7.3173,0.189,5.4873,-0.0308,0.0148,-0.1122,-1.6607443294920863,0.0,2.3802711963653564,-1.0098658800125122,-0.0,1.9756343364715576,3.29301564275708,-0.0,0.254249632358551,-1.6417906920062464,-0.0,0.003510760609060526,0.8115723729133606,-0.0,-0.006067431997507811,0.7977936267852783,0.0,-0.02347983978688717
341.0,368.0,7.3173,0.189,5.4873,-0.0308,0.0148,-0.1122,-1.6607562504210414,0.0,2.3611841201782227,-1.0099220275878906,-0.0,1.9418902397155762,3.2929960924335937,-0.0,0.24922102689743042,-1.641754452382223,-0.0,-0.0014390212018042803,0.8115686178207397,-0.0,-0.007884702645242214,0.7978419065475464,0.0,0.01948416419327259
341.0,368.0,7.3173,0.189,5.4873,-0.0308,0.0148,-0.1122,-1.6607562504210414,0.0,2.3368849754333496,-1.0099140405654907,-0.0,1.950817346572876,3.292975588435791,-0.0,0.2452256679534912,-1.6417864004718226,-0.0,-0.003609313163906336,0.8114839196205139,-0.0,0.008057311177253723,0.7977936267852783,0.0,0.009406298398971558
341.0,368.0,7.3173,0.189,5.4873,-0.0308,0.0148,-0.1122,-1.6607800922789515,0.0,2.287231922149658,-1.0098658800125122,-0.0,1.9604429006576538,3.2929393488117675,-0.0,0.25311678647994995,-1.6417625586139124,-0.0,-0.006426648702472448,0.8114798069000244,-0.0,-0.012018859386444092,0.7978056073188782,0.0,0.010433362796902657
341.0,368.0,7.3173,0.189,5.4873,-0.0308,0.0148,-0.1122,-1.6607729397215785,0.0,2.3621604442596436,-1.0098778009414673,-0.0,1.9679198265075684,3.29301564275708,-0.0,0.24766971170902252,-1.6417744795428675,-0.0,-0.0009497697465121746,0.8115359544754028,-0.0,-0.01886713318526745,0.7977817058563232,0.0,0.02254924736917019
341.0,368.0,7.3173,0.189,5.4873,-0.0308,0.0148,-0.1122,-1.6607605419554652,0.0,2.3613040447235107,-1.009873867034912,-0.0,1.9920754432678223,3.2929436403461914,-0.0,0.2544017434120178,-1.641782585774557,-0.0,0.006437288131564856,0.811511754989624,-0.0,-0.0017238219734281301,0.7978019118309021,0.0,0.00553223118185997
333.0,355.0,7.6391,0.338,4.8568,-0.0391,0.0275,-0.1252,-1.6607562504210414,0.0,2.3239498138427734,-1.0099259614944458,-0.0,1.9489555358886719,3.292959375972412,-0.0,0.2426527738571167,-1.6417787710772913,-0.0,0.0014276676811277866,0.8115604519844055,-0.0,-0.002001413842663169,0.7977936267852783,0.0,-0.00955954659730196
333.0,355.0,7.6391,0.338,4.8568,-0.0391,0.0275,-0.1252,-1.660764833489889,0.0,2.338521957397461,-1.0098539590835571,-0.0,1.9502462148666382,3.2930361467548828,-0.0,0.2508317232131958,-1.641731087361471,-0.0,-0.012907462194561958,0.8115277290344238,-0.0,-0.01883666031062603,0.7977695465087891,0.0,-0.011260801926255226
333.0,355.0,7.6391,0.338,4.8568,-0.0391,0.0275,-0.1252,-1.6607686481871546,0.0,2.3126983642578125,-1.0098862648010254,-0.0,1.9826157093048096,3.2929674822041015,-0.0,0.25081807374954224,-1.6417868773089808,-0.0,0.0008440747624263167,0.8115883469581604,-0.0,-0.008808154612779617,0.7977973818778992,0.0,0.009834417141973972
333.0,355.0,7.6391,0.338,4.8568,-0.0391,0.0275,-0.1252,-1.6607524357237757,0.0,2.341390371322632,-1.0098426342010498,-0.0,1.9838755130767822,3.2930118280598144,-0.0,0.24703474342823029,-1.6417625586139124,-0.0,0.0012474081013351679,0.8115199208259583,-0.0,-0.007477867417037487,0.7978015542030334,0.0,0.02913435734808445
333.0,355.0,7.6391,0.338,4.8568,-0.0391,0.0275,-0.1252,-1.6608010731139125,0.0,2.3577089309692383,-1.009869933128357,-0.0,1.9459502696990967,3.2929879862019042,-0.0,0.2508097290992737,-1.6417668501483362,-0.0,0.005078974179923534,0.8115686774253845,-0.0,-0.01324055902659893,0.7977895140647888,0.0,0.004106729291379452
333.0,355.0,7.6391,0.338,4.8568,-0.0391,0.0275,-0.1252,-1.6607362232603968,0.0,2.3960282802581787,-1.0099378824234009,-0.0,1.9297466278076172,3.292959375972412,-0.0,0.25305742025375366,-1.6417787710772913,-0.0,-0.0022091143764555454,0.811508059501648,-0.0,0.0024246270768344402,0.7977451682090759,0.0,-0.01799747347831726
333.0,355.0,7.6391,0.338,4.8568,-0.0391,0.0275,-0.1252,-1.6607605419554652,0.0,2.346418857574463,-1.0098942518234253,-0.0,1.9649832248687744,3.2930118280598144,-0.0,0.24227666854858398,-1.6417425314532679,-0.0,-0.01271604374051094,0.811556339263916,-0.0,-0.0027021709829568863,0.7977977395057678,0.0,-0.02131376788020134
333.0,355.0,7.6391,0.338,4.8568,-0.0391,0.0275,-0.1252,-1.6607362232603968,0.0,2.3594233989715576,-1.0099259614944458,-0.0,1.9264658689498901,3.2929960924335937,-0.0,0.24681298434734344,-1.6417864004718226,-0.0,0.0058752382174134254,0.8115888237953186,-0.0,-0.005433831363916397,0.7977530360221863,0.0,0.03082415461540222
333.0,355.0,7.6391,0.338,4.8568,-0.0391,0.0275,-0.1252,-1.6607443294920863,0.0,2.2616336345672607,-1.009873867034912,-0.0,1.9664368629455566,3.2930447298237304,-0.0,0.24014434218406677,-1.6417668501483362,-0.0,-0.005662304349243641,0.8115199208259583,-0.0,0.0018113311380147934,0.7977895140647888,0.0,0.032272353768348694
333.0,355.0,7.6391,0.338,4.8568,-0.0391,0.0275,-0.1252,-1.6607924900450648,0.0,2.355379819869995,-1.0098698139190674,-0.0,1.9431205987930298,3.292959375972412,-0.0,0.24817737936973572,-1.6417706648456019,-0.0,0.003621299285441637,0.8115359544754028,-0.0,0.006301183253526688,0.7978138327598572,0.0,0.0019949274137616158
333.0,355.0,7.6391,0.338,4.8568,-0.0391,0.0275,-0.1252,-1.6607772312560023,0.0,2.3722050189971924,-1.0098903179168701,-0.0,1.943814754486084,3.2929717737385253,-0.0,0.25022971630096436,-1.641782585774557,-0.0,0.0007424296345561743,0.8115319013595581,-0.0,-0.0026161314453929663,0.7978056073188782,0.0,-0.011079821735620499
333.0,355.0,7.6391,0.338,4.8568,-0.0391,0.0275,-0.1252,-1.6607967815794886,0.0,2.332554578781128,-1.0098307132720947,-0.0,1.9551472663879395,3.2930237489887695,-0.0,0.24955372512340546,-1.6417744795428675,-0.0,0.001736409030854702,0.8115400075912476,-0.0,-0.0029288455843925476,0.797805666923523,0.0,0.01180158369243145
331.0,367.0,7.2628,0.1956,5.595,-0.0411,0.0267,-0.1184,-1.6607443294920863,0.0,2.3237266540527344,-1.0098903179168701,-0.0,1.9705551862716675,3.2929836946674804,-0.0,0.24780230224132538,-1.641743008290426,-0.0,-0.006414270028471947,0.811512291431427,-0.0,-0.018350087106227875,0.797813892364502,0.0,-0.005503679625689983
331.0,367.0,7.2628,0.1956,5.595,-0.0411,0.0267,-0.1184,-1.6607443294920863,0.0,2.348991632461548,-1.0099061727523804,-0.0,1.9667375087738037,3.292975588435791,-0.0,0.25285571813583374,-1.641794506703512,-0.0,0.0027770069427788258,0.811556339263916,-0.0,-0.016561662778258324,0.7977936267852783,0.0,-0.006357820704579353
331.0,367.0,7.2628,0.1956,5.595,-0.0411,0.0267,-0.1184,-1.6608249149718226,0.0,2.325768232345581,-1.0098817348480225,-0.0,1.9226150512695312,3.2930118280598144,-0.0,0.24478793144226074,-1.641702953969137,-0.0,0.0007840595208108425,0.8115121722221375,-0.0,-0.015982024371623993,0.7977936267852783,0.0,0.002971934387460351
331.0,367.0,7.2628,0.1956,5.595,-0.0411,0.0267,-0.1184,-1.6607886753477992,0.0,2.328343391418457,-1.0099021196365356,-0.0,1.9905965328216553,3.2930003839680175,-0.0,0.24739901721477509,-1.6417072455035608,-0.0,-0.004137212876230478,0.8115482926368713,-0.0,-0.017836740240454674,0.7978138327598572,0.0,-0.025656696408987045
331.0,367.0,7.2628,0.1956,5.595,-0.0411,0.0267,-0.1184,-1.6607524357237757,0.0,2.3503777980804443,-1.0099339485168457,-0.0,1.9672861099243164,3.293032332057617,-0.0,0.25620633363723755,-1.641778294240133,-0.0,-0.007339936215430498,0.8114916682243347,-0.0,-0.01224396750330925,0.7977572083473206,0.0,-0.04601247236132622
331.0,367.0,7.2628,0.1956,5.595,-0.0411,0.0267,-0.1184,-1.6607729397215785,0.0,2.361751079559326,-1.009917974472046,-0.0,1.9460644721984863,3.2929879862019042,-0.0,0.2567565441131592,-1.6418026129352015,-0.0,-0.004626512993127108,0.8115481734275818,-0.0,-0.013019129633903503,0.7977653741836548,0.0,0.03845268487930298
331.0,367.0,7.2628,0.1956,5.595,-0.0411,0.0267,-0.1184,-1.6607772312560023,0.0,2.312458038330078,-1.009873867034912,-0.0,1.988297462463379,3.2929836946674804,-0.0,0.2544940412044525,-1.6417868773089808,-0.0,-0.010918637737631798,0.8115441799163818,-0.0,-0.007383565418422222,0.797813892364502,0.0,-0.011348985135555267
331.0,367.0,7.2628,0.1956,5.595,-0.0411,0.0267,-0.1184,-1.6607562504210414,0.0,2.3148305416107178,-1.00985848903656,-0.0,1.947404146194458,3.292963667506836,-0.0,0.24948854744434357,-1.6416953245746058,-0.0,-0.004732932895421982,0.8115606307983398,-0.0,-0.0039033317007124424,0.797797679901123,0.0,-0.002396230585873127
331.0,367.0,7.2628,0.1956,5.595,-0.0411,0.0267,-0.1184,-1.6607362232603968,0.0,2.3113961219787598,-1.0098862648010254,-0.0,1.943840742111206,3.2929674822041015,-0.0,0.26289066672325134,-1.6417506376849573,-0.0,-0.0041010137647390366,0.8115240335464478,-0.0,0.004046169575303793,0.797825813293457,0.0,-0.019088858738541603
331.0,367.0,7.2628,0.1956,5.595,-0.0411,0.0267,-0.1184,-1.6608010731139125,0.0,2.365941047668457,-1.0098658800125122,-0.0,1.9590462446212769,3.29301564275708,-0.0,0.25111180543899536,-1.641782585774557,-0.0,0.00028403056785464287,0.8115723133087158,-0.0,-0.011149014346301556,0.7977207899093628,0.0,-0.02960292622447014
331.0,367.0,7.2628,0.1956,5.595,-0.0411,0.0267,-0.1184,-1.660752912560934,0.0,2.3710665702819824,-1.0098862648010254,-0.0,1.972326636314392,3.2929436403461914,-0.0,0.24460351467132568,-1.641782585774557,-0.0,-0.005898916628211737,0.8115605115890503,-0.0,-0.001413542777299881,0.7978175282478333,0.0,-0.012352865189313889
331.0,367.0,7.2628,0.1956,5.595,-0.0411,0.0267,-0.1184,-1.6607405147948207,0.0,2.349062204360962,-1.0098544359207153,-0.0,1.9796087741851807,3.2930118280598144,-0.0,0.24864044785499573,-1.6417744795428675,-0.0,0.0008381067309528589,0.8115600347518921,-0.0,-0.012781240977346897,0.797821581363678,0.0,0.0004909329582005739
331.0,367.0,7.2628,0.1956,5.595,-0.0411,0.0267,-0.1184,-1.6607729397215785,0.0,2.351642608642578,-1.0098658800125122,-0.0,1.9113678932189941,3.2929598528095703,-0.0,0.25664663314819336,-1.6418026129352015,-0.0,0.002535066334530711,0.8115482926368713,-0.0,-0.013392362743616104,0.7977977395057678,0.0,-0.03966692090034485
344.0,365.0,7.4255,0.2279,5.4197,-0.0376,0.0272,-0.1194,-1.660809179345602,0.0,2.35447096824646,-1.0099101066589355,-0.0,1.9691848754882812,3.2930032449909667,-0.0,0.24705392122268677,-1.6417468229876917,-0.0,-0.013087683357298374,0.8115522265434265,-0.0,0.005347506143152714,0.7978097796440125,0.0,0.04233027994632721
344.0,365.0,7.4255,0.2279,5.4197,-0.0376,0.0272,-0.1194,-1.6607443294920863,0.0,2.338320255279541,-1.0098942518234253,-0.0,1.951088309288025,3.292951746577881,-0.0,0.24724692106246948,-1.6417625586139124,-0.0,0.010085772722959518,0.8115482926368713,-0.0,-0.008800216019153595,0.7977734804153442,0.0,-0.014280715025961399
344.0,365.0,7.4255,0.2279,5.4197,-0.0376,0.0272,-0.1194,-1.6607405147948207,0.0,2.3663153648376465,-1.0098698139190674,-0.0,1.9615836143493652,3.2929274278828125,-0.0,0.2604615390300751,-1.6417668501483362,-0.0,0.0122624970972538,0.8115359544754028,-0.0,-0.014178205281496048,0.7978217005729675,0.0,-0.04225225746631622
344.0,365.0,7.4255,0.2279,5.4197,-0.0376,0.0272,-0.1194,-1.6606999836363734,0.0,2.3392624855041504,-1.00983464717865,-0.0,1.9530045986175537,3.2930003839680175,-0.0,0.24792414903640747,-1.6417749563800257,-0.0,-0.009489817544817924,0.8115281462669373,-0.0,-0.0058134677819907665,0.7977775931358337,0.0,-0.039447564631700516
344.0,365.0,7.4255,0.2279,5.4197,-0.0376,0.0272,-0.1194,-1.6607800922789515,0.0,2.3588268756866455,-1.0098778009414673,-0.0,1.9317877292633057,3.29301564275708,-0.0,0.25954169034957886,-1.6417468229876917,-0.0,-0.020761627703905106,0.8115121722221375,-0.0,-0.0003822110593318939,0.7978382706642151,0.0,-0.025261908769607544
344.0,365.0,7.4255,0.2279,5.4197,-0.0376,0.0272,-0.1194,-1.6607843838133753,0.0,2.3585543632507324,-1.009846568107605,-0.0,1.953956127166748,3.2929879862019042,-0.0,0.24589256942272186,-1.6417506376849573,-0.0,-0.00011195699335075915,0.8115158081054688,-0.0,-0.015781527385115623,0.797822117805481,0.0,-0.01750420406460762
344.0,365.0,7.4255,0.2279,5.4197,-0.0376,0.0272,-0.1194,-1.6607886753477992,0.0,2.3431172370910645,-1.0099339485168457,-0.0,1.9871180057525635,3.293019934291504,-0.0,0.25254154205322266,-1.6417787710772913,-0.0,0.00427484605461359,0.8115723729133606,-0.0,-0.023855475708842278,0.797797679901123,0.0,-0.018600454553961754
344.0,365.0,7.4255,0.2279,5.4197,-0.0376,0.0272,-0.1194,-1.6607686481871546,0.0,2.3440358638763428,-1.0098862648010254,-0.0,1.9546878337860107,3.29301564275708,-0.0,0.24290987849235535,-1.6417630354510706,-0.0,-0.0004751753876917064,0.8115723729133606,-0.0,-0.004156600683927536,0.7978217005729675,0.0,-0.009003527462482452
344.0,365.0,7.4255,0.2279,5.4197,-0.0376,0.0272,-0.1194,-1.6607729397215785,0.0,2.36240816116333,-1.009878396987915,-0.0,1.9036028385162354,3.29301564275708,-0.0,0.25611862540245056,-1.6417587439166468,-0.0,-0.006219689268618822,0.8115845918655396,-0.0,0.0044965543784201145,0.7977653741836548,0.0,-0.018823573365807533
344.0,365.0,7.4255,0.2279,5.4197,-0.0376,0.0272,-0.1194,-1.6607443294920863,0.0,2.372529983520508,-1.0098421573638916,-0.0,1.9833333492279053,3.2929879862019042,-0.0,0.2412937581539154,-1.6417344252215784,-0.0,-0.006004540249705315,0.8115966320037842,-0.0,-0.0003155136073473841,0.7977734804153442,0.0,-0.01317742932587862
344.0,365.0,7.4255,0.2279,5.4197,-0.0376,0.0272,-0.1194,-1.6607729397215785,0.0,2.343719959259033,-1.0098903179168701,-0.0,1.9472036361694336,3.2930118280598144,-0.0,0.26247572898864746,-1.6417506376849573,-0.0,-0.0023094243369996548,0.8115723729133606,-0.0,0.004233282059431076,0.7977369427680969,0.0,-0.020845312625169754
344.0,365.0,7.4255,0.2279,5.4197,-0.0376,0.0272,-0.1194,-1.660804887811178,0.0,2.388420581817627,-1.00985848903656,-0.0,1.940780758857727,3.292947455043457,-0.0,0.24569165706634521,-1.6417506376849573,-0.0,-0.0055671920999884605,0.8115441799163818,-0.0,-0.019065624102950096,0.7977695465087891,0.0,0.04204364866018295
326.0,358.0,7.2754,0.2207,5.6501,-0.036,0.0313,-0.1268,-1.6607967815794886,0.0,2.335411310195923,-1.0099061727523804,-0.0,1.9808599948883057,3.29299180089917,-0.0,0.24554437398910522,-1.6417468229876917,-0.0,0.002472845371812582,0.811528205871582,-0.0,-0.011524547822773457,0.7977775931358337,0.0,-0.007438126020133495
326.0,358.0,7.2754,0.2207,5.6501,-0.036,0.0313,-0.1268,-1.6607686481871546,0.0,2.334667444229126,-1.0098658800125122,-0.0,1.9159964323043823,3.2930361467548828,-0.0,0.2541860342025757,-1.6417668501483362,-0.0,-0.014651034027338028,0.8114998936653137,-0.0,0.002943456405773759,0.7977895140647888,0.0,0.020921573042869568
326.0,358.0,7.2754,0.2207,5.6501,-0.036,0.0313,-0.1268,-1.6608010731139125,0.0,2.399296283721924,-1.0098544359207153,-0.0,1.9517099857330322,3.2929960924335937,-0.0,0.25428974628448486,-1.6417549292193812,-0.0,-0.00045407237485051155,0.8115646243095398,-0.0,-0.01746802218258381,0.797805666923523,0.0,0.03739247843623161
326.0,358.0,7.2754,0.2207,5.6501,-0.036,0.0313,-0.1268,-1.6607772312560023,0.0,2.3837270736694336,-1.0098698139190674,-0.0,1.9690380096435547,3.292959375972412,-0.0,0.24532164633274078,-1.6417468229876917,-0.0,-0.010490963235497475,0.8115481734275818,-0.0,-0.005057235714048147,0.7977694272994995,0.0,0.004091091454029083
326.0,358.0,7.2754,0.2207,5.6501,-0.036,0.0313,-0.1268,-1.6607967815794886,0.0,2.352609872817993,-1.0098942518234253,-0.0,1.9149739742279053,3.2930032449909667,-0.0,0.23739320039749146,-1.6417787710772913,-0.0,-0.006534385494887829,0.8115682601928711,-0.0,0.009410127997398376,0.7977694272994995,0.0,-0.028509320691227913
326.0,358.0,7.2754,0.2207,5.6501,-0.036,0.0313,-0.1268,-1.660748144189352,0.0,2.3216476440429688,-1.009917974472046,-0.0,1.9320135116577148,3.29299180089917,-0.0,0.24358749389648438,-1.6417630354510706,-0.0,-0.008024053648114204,0.811528205871582,-0.0,-0.02612662874162197,0.7977936267852783,0.0,-0.011264145374298096
326.0,358.0,7.2754,0.2207,5.6501,-0.036,0.0313,-0.1268,-1.6607843838133753,0.0,2.3818235397338867,-1.009873867034912,-0.0,1.9582197666168213,3.2930361467548828,-0.0,0.24880683422088623,-1.6417625586139124,-0.0,-0.0007736672414466739,0.8115765452384949,-0.0,-0.005055941175669432,0.797813892364502,0.0,0.005780853796750307
326.0,358.0,7.2754,0.2207,5.6501,-0.036,0.0313,-0.1268,-1.6607967815794886,0.0,2.3664944171905518,-1.0099180936813354,-0.0,1.946088194847107,3.2930118280598144,-0.0,0.2505008578300476,-1.6417864004718226,-0.0,0.003913982305675745,0.811523973941803,-0.0,-0.0030438601970672607,0.797825813293457,0.0,-0.026124192401766777
326.0,358.0,7.2754,0.2207,5.6501,-0.036,0.0313,-0.1268,-1.660776277581686,0.0,2.3467464447021484,-1.0099220275878906,-0.0,1.9884700775146484,3.2929794031330566,-0.0,0.2442895621061325,-1.6417587439166468,-0.0,0.013344022445380688,0.8115400075912476,-0.0,-0.005783614236861467,0.7978097796440125,0.0,0.03571227192878723
326.0,358.0,7.2754,0.2207,5.6501,-0.036,0.0313,-0.1268,-1.6607686481871546,0.0,2.310880661010742,-1.0098942518234253,-0.0,1.9877989292144775,3.2929674822041015,-0.0,0.2437463104724884,-1.641743008290426,-0.0,0.002462181728333235,0.8115682601928711,-0.0,-0.00834908802062273,0.7977652549743652,0.0,0.02611755207180977
326.0,358.0,7.2754,0.2207,5.6501,-0.036,0.0313,-0.1268,-1.6607886753477992,0.0,2.386956214904785,-1.0099339485168457,-0.0,1.9481208324432373,3.292975588435791,-0.0,0.2525094747543335,-1.6417387167560022,-0.0,0.025397175922989845,0.8115645051002502,-0.0,-0.015289271250367165,0.7977775931358337,0.0,-0.004415822681039572
326.0,358.0,7.2754,0.2207,5.6501,-0.036,0.0313,-0.1268,-1.66074862102651,0.0,2.342623233795166,-1.0099101066589355,-0.0,1.971508264541626,3.2929836946674804,-0.0,0.24521327018737793,-1.641754452382223,-0.0,-0.011380122974514961,0.8115605115890503,-0.0,-0.020188435912132263,0.7978015542030334,0.0,0.022455397993326187
326.0,358.0,7.2754,0.2207,5.6501,-0.036,0.0313,-0.1268,-1.6607161960997523,0.0,2.385782241821289,-1.0099021196365356,-0.0,1.959121584892273,3.2930404382893066,-0.0,0.25020310282707214,-1.6417267958270472,-0.0,0.0033037515822798014,0.811528205871582,-0.0,-0.006439190357923508,0.7978180646896362,0.0,0.0028052087873220444
342.0,353.0,7.4291,0.146,5.3551,-0.0373,0.0163,-0.1142,-1.660748144189352,0.0,2.344161033630371,-1.009878396987915,-0.0,1.9857699871063232,3.2930118280598144,-0.0,0.2505141794681549,-1.6417744795428675,-0.0,0.004640043247491121,0.8115682601928711,-0.0,-0.01153389923274517,0.797773540019989,0.0,-0.006734796799719334
342.0,353.0,7.4291,0.146,5.3551,-0.0373,0.0163,-0.1142,-1.6607843838133753,0.0,2.361427068710327,-1.009917974472046,-0.0,1.9495282173156738,3.293055697078369,-0.0,0.23584690690040588,-1.6417587439166468,-0.0,-0.0007437970489263535,0.8115523457527161,-0.0,-0.00988005381077528,0.7978298664093018,0.0,-0.010542294010519981
342.0,353.0,7.4291,0.146,5.3551,-0.0373,0.0163,-0.1142,-1.6607405147948207,0.0,2.3442161083221436,-1.0098862648010254,-0.0,1.9562264680862427,3.292959375972412,-0.0,0.25068455934524536,-1.6417549292193812,-0.0,-0.003344072960317135,0.8115522861480713,-0.0,-0.0038643868174403906,0.7977613210678101,0.0,-0.0023980149999260902
342.0,353.0,7.4291,0.146,5.3551,-0.0373,0.0163,-0.1142,-1.6607686481871546,0.0,2.3232674598693848,-1.0098778009414673,-0.0,1.9766006469726562,3.2929436403461914,-0.0,0.24207499623298645,-1.6417787710772913,-0.0,-0.004956752527505159,0.8115121722221375,-0.0,-0.013715098612010479,0.7977695465087891,0.0,-0.024870604276657104
342.0,353.0,7.4291,0.146,5.3551,-0.0373,0.0163,-0.1142,-1.660809179345602,0.0,2.358887195587158,-1.0098421573638916,-0.0,1.9619288444519043,3.2929679590412597,-0.0,0.24766744673252106,-1.641794506703512,-0.0,-0.0041762725450098515,0.8116007447242737,-0.0,-0.007394698448479176,0.7978217005729675,0.0,-0.018242277204990387
342.0,353.0,7.4291,0.146,5.3551,-0.0373,0.0163,-0.1142,-1.6607729397215785,0.0,2.337007999420166,-1.0098981857299805,-0.0,1.9575214385986328,3.2929960924335937,-0.0,0.25988224148750305,-1.6417506376849573,-0.0,0.011592483147978783,0.8115121722221375,-0.0,-0.013402653858065605,0.7977936267852783,0.0,0.00945761427283287
342.0,353.0,7.4291,0.146,5.3551,-0.0373,0.0163,-0.1142,-1.660764833489889,0.0,2.299146890640259,-1.0099141597747803,-0.0,1.9406254291534424,3.292964144343994,-0.0,0.25465118885040283,-1.6417749563800257,-0.0,-0.000717350747436285,0.8115481734275818,-0.0,-0.021626951172947884,0.7977977395057678,0.0,0.04933931306004524
342.0,353.0,7.4291,0.146,5.3551,-0.0373,0.0163,-0.1142,-1.660781045953268,0.0,2.3435773849487305,-1.009873867034912,-0.0,1.9817113876342773,3.2929879862019042,-0.0,0.23950232565402985,-1.641782585774557,-0.0,0.0018746348796412349,0.811556339263916,-0.0,-0.004859882406890392,0.797825813293457,0.0,0.025082403793931007
342.0,353.0,7.4291,0.146,5.3551,-0.0373,0.0163,-0.1142,-1.6607772312560023,0.0,2.3531479835510254,-1.0098381042480469,-0.0,1.9610940217971802,3.2929960924335937,-0.0,0.24626871943473816,-1.6417706648456019,-0.0,-0.009727377444505692,0.8115925192832947,-0.0,-0.0034521748311817646,0.7978419661521912,0.0,0.01984439790248871
342.0,353.0,7.4291,0.146,5.3551,-0.0373,0.0163,-0.1142,-1.6607243023314417,0.0,2.325124979019165,-1.0098903179168701,-0.0,1.9303689002990723,3.2929836946674804,-0.0,0.25165224075317383,-1.6417625586139124,-0.0,0.008062849752604961,0.8116085529327393,-0.0,-0.0063256206922233105,0.7977776527404785,0.0,-0.012425513938069344
342.0,353.0,7.4291,0.146,5.3551,-0.0373,0.0163,-0.1142,-1.660764833489889,0.0,2.376946210861206,-1.009878396987915,-0.0,1.9402562379837036,3.293032332057617,-0.0,0.2495848536491394,-1.6417868773089808,-0.0,-0.0022902549244463444,0.8115847110748291,-0.0,-0.008765902370214462,0.7977936267852783,0.0,0.027598923072218895
342.0,353.0,7.4291,0.146,5.3551,-0.0373,0.0163,-0.1142,-1.660752912560934,0.0,2.3349008560180664,-1.009873867034912,-0.0,1.966518759727478,3.2929794031330566,-0.0,0.24304243922233582,-1.641766373311178,-0.0,-0.001991456840187311,0.8115400075912476,-0.0,-0.005446590017527342,0.7978056073188782,0.0,-0.012706627137959003
335.0,370.0,7.5996,0.1023,5.324,-0.0499,0.0357,-0.1213,-1.6607800922789515,0.0,2.341141939163208,-1.0098505020141602,-0.0,1.9575443267822266,3.2930118280598144,-0.0,0.24480992555618286,-1.6417511145221155,-0.0,-0.014441493898630142,0.811556339263916,-0.0,-0.01605178602039814,0.797805666923523,0.0,0.014907252974808216
335.0,370.0,7.5996,0.1023,5.324,-0.0499,0.0357,-0.1213,-1.6607562504210414,0.0,2.3208248615264893,-1.009873867034912,-0.0,1.934438705444336,3.292999430293701,-0.0,0.25185105204582214,-1.6417506376849573,-0.0,-0.008468897081911564,0.8115646839141846,-0.0,-0.0005129093769937754,0.7978018522262573,0.0,0.006058884784579277
335.0,370.0,7.5996,0.1023,5.324,-0.0499,0.0357,-0.1213,-1.6607524357237757,0.0,2.370573043823242,-1.0099180936813354,-0.0,1.9825901985168457,3.2930003839680175,-0.0,0.2506011724472046,-1.6417468229876917,-0.0,-0.0034588207490742207,0.8114957809448242,-0.0,-0.015668600797653198,0.7977776527404785,0.0,-0.03569507226347923
335.0,370.0,7.5996,0.1023,5.324,-0.0499,0.0357,-0.1213,-1.6607443294920863,0.0,2.322676658630371,-1.0099220275878906,-0.0,1.948451042175293,3.2929717737385253,-0.0,0.2506900727748871,-1.6417511145221155,-0.0,-0.005558532662689686,0.8115481734275818,-0.0,-0.014382240362465382,0.7977936863899231,0.0,-0.017799576744437218
335.0,370.0,7.5996,0.1023,5.324,-0.0499,0.0357,-0.1213,-1.660764833489889,0.0,2.365806818008423,-1.009873867034912,-0.0,1.93384850025177,3.2930237489887695,-0.0,0.24577687680721283,-1.6417506376849573,-0.0,0.0017211164813488722,0.8115121126174927,-0.0,-0.015341188758611679,0.7977771162986755,1.3094152109260904e-06,0.09381861984729767
335.0,370.0,7.5996,0.1023,5.324,-0.0499,0.0357,-0.1213,-1.6607772312560023,0.0,2.2992050647735596,-1.00986647605896,-0.0,1.999021053314209,3.2929555612751464,-0.0,0.24898290634155273,-1.6417630354510706,-0.0,0.0038189005572348833,0.811464250087738,-0.0,-0.010543040931224823,0.7978217005729675,3.1620834423096156e-12,0.004197961650788784
335.0,370.0,7.5996,0.1023,5.324,-0.0499,0.0357,-0.1213,-1.660821100274557,0.0,2.3532612323760986,-1.0098981857299805,-0.0,1.9474256038665771,3.2930003839680175,-0.0,0.25024279952049255,-1.6417749563800257,-0.0,-0.0037953925784677267,0.8115605115890503,-0.0,-0.007804281078279018,0.7977572083473206,1.0244745623803474e-19,0.014780139550566673
335.0,370.0,7.5996,0.1023,5.324,-0.0499,0.0357,-0.1213,-1.660752912560934,0.0,2.3497087955474854,-1.0098307132720947,-0.0,1.947224497795105,3.292975588435791,-0.0,0.25123971700668335,-1.6417906920062464,-0.0,-0.007777518592774868,0.8115687370300293,-0.0,-0.005351962521672249,0.7977936267852783,3.319167310642395e-27,-0.007051957305520773
335.0,370.0,7.5996,0.1023,5.324,-0.0499,0.0357,-0.1213,-1.6607562504210414,0.0,2.279196262359619,-1.009814739227295,1.4903241662977962e-06,1.963059425354004,3.2930032449909667,-0.0,0.24153390526771545,-1.6417787710772913,-0.0,0.0003681048401631415,0.811556339263916,-0.0,-0.0061425864696502686,0.7977895140647888,8.015399165933596e-33,0.025280989706516266
335.0,370.0,7.5996,0.1023,5.324,-0.0499,0.0357,-0.1213,-1.6607405147948207,0.0,2.3205552101135254,-1.0098307132720947,4.828460155033125e-14,1.9725693464279175,3.2930118280598144,-0.0,0.26042401790618896,-1.6417787710772913,-0.0,0.005948478356003761,0.8115441799163818,-0.0,-0.011258680373430252,0.7977775931358337,2.596886314086751e-40,-0.015373911708593369
335.0,370.0,7.5996,0.1023,5.324,-0.0499,0.0357,-0.1213,-1.6607409916319789,0.0,2.3736672401428223,-1.0098704099655151,0.0019674210343509912,1.9467544555664062,3.293019934291504,-0.0,0.2430220991373062,-1.641754452382223,-0.0,0.008992633782327175,0.8114715814590454,-0.0,-0.012436233460903168,0.797781765460968,0.0,0.01839069463312626
335.0,370.0,7.5996,0.1023,5.324,-0.0499,0.0357,-0.1213,-1.660736700097555,0.0007947909762151539,2.331805467605591,-1.0097863674163818,0.003207431873306632,1.9370144605636597,3.2930518823811035,-0.0,0.24521654844284058,-1.6417506376849573,-1.1680617006959437e-07,-0.006273635663092136,0.8115605115890503,-0.0,-0.008457323536276817,0.7977932691574097,0.0,-0.022721530869603157
335.0,370.0,7.5996,0.1023,5.324,-0.0499,0.0357,-0.1213,-1.6607204876341761,0.0006706019630655646,2.383504867553711,-1.0098062753677368,0.007032926194369793,1.9724761247634888,3.293019934291504,-0.0,0.24575579166412354,-1.6417463461505335,-2.1228943082596263e-12,0.010122300125658512,0.8115404844284058,-0.0,-0.004954942502081394,0.7978180646896362,3.0968411010690033e-05,0.02172832004725933
333.0,368.0,7.0887,0.3123,5.4401,-0.0473,0.0066,-0.1159,-1.6607247791686,0.0005241427570581436,2.3052191734313965,-1.009758710861206,0.009127517230808735,2.0315232276916504,3.2930313783833007,-0.0,0.2554996907711029,-1.6418026129352015,-5.909154361743399e-16,-0.0077060917392373085,0.8115686774253845,-0.0,-0.0037961676716804504,0.7977612614631653,2.818759821821004e-05,0.011440269649028778
333.0,368.0,7.0887,0.3123,5.4401,-0.0473,0.0066,-0.1159,-1.6607047520079554,0.00040787472971715033,2.298661470413208,-1.0096468925476074,0.011192196980118752,1.9384052753448486,3.293048067683838,0.0003141762572340667,0.2536919116973877,-1.6417987982379358,-1.0739595277712099e-20,0.00498436251655221,0.8116006851196289,-0.0,-0.012438811361789703,0.7978378534317017,9.985029464587569e-05,-0.008511301130056381
333.0,368.0,7.0887,0.3123,5.4401,-0.0473,0.0066,-0.1159,-1.6607328854002894,0.00027136632706969976,2.312994956970215,-1.0095232725143433,0.01195418369024992,1.9678255319595337,3.2929879862019042,0.00027087877970188856,0.24738207459449768,-1.6417902151690882,-1.9518685537675178e-25,-0.005135281477123499,0.8115682601928711,-0.0,-0.005347689613699913,0.797805666923523,0.0004913814482279122,-0.02269958332180977
333.0,368.0,7.0887,0.3123,5.4401,-0.0473,0.0066,-0.1159,-1.6607490978636683,0.0002757202892098576,2.3341622352600098,-1.0094671249389648,0.013175584375858307,2.0027875900268555,3.293043776149414,0.00023992513888515532,0.25243237614631653,-1.6417744795428675,-5.433097725071217e-29,-0.010063022375106812,0.8115079998970032,-0.0,-0.003408126998692751,0.797805666923523,0.00045363642857410014,0.001230680150911212
333.0,368.0,7.0887,0.3123,5.4401,-0.0473,0.0066,-0.1159,-1.6607452831664027,0.0004804829659406096,2.3482236862182617,-1.0093077421188354,0.013695633970201015,1.9664990901947021,3.293059988612793,0.0002082039718516171,0.2457515299320221,-1.6417902151690882,-9.874384890712495e-34,-0.011702537536621094,0.8115605115890503,-0.0,-0.0067120804451406,0.7977813482284546,0.00037527800304815173,0.004134509712457657
333.0,368.0,7.0887,0.3123,5.4401,-0.0473,0.0066,-0.1159,-1.6606766186156214,0.001024551340378821,2.3498644828796387,-1.0092076063156128,0.014050125144422054,1.952538013458252,3.2930075365253906,0.00018389237811788917,0.24936793744564056,-1.6417902151690882,-1.9380847788852407e-06,-0.0007319329306483269,0.8115277886390686,-0.0,-0.011532017029821873,0.7978375554084778,0.00031053071143105626,-0.00039046816527843475
333.0,368.0,7.0887,0.3123,5.4401,-0.0473,0.0066,-0.1159,-1.6607004604735316,0.0007655933150090277,2.3273961544036865,-1.0091204643249512,0.013021839782595634,1.9775327444076538,3.2930075365253906,0.0001690848293947056,0.24706298112869263,-1.6417902151690882,-0.00015017388795968145,-0.002757276874035597,0.8115481734275818,-0.0,-0.014726944267749786,0.7978696823120117,0.0002749529667198658,0.026182927191257477
333.0,368.0,7.0887,0.3123,5.4401,-0.0473,0.0066,-0.1159,-1.6606723270811976,0.0005150911747477949,2.3431591987609863,-1.0090802907943726,0.009857571683824062,1.9228450059890747,3.2930189806171875,0.00015269155846908689,0.24015000462532043,-1.6417987982379358,-0.0001325221819570288,0.001842873403802514,0.8115925192832947,-0.0,-0.01891375333070755,0.7978015542030334,0.00023851764854043722,-0.0011288314126431942
333.0,368.0,7.0887,0.3123,5.4401,-0.0473,0.0066,-0.1159,-1.6607328854002894,0.00038812693674117327,2.328509569168091,-1.0089603662490845,0.006627638824284077,1.9700474739074707,3.293019934291504,0.00013919637422077358,0.24693191051483154,-1.641778294240133,-0.00011855557386297733,-0.0043179951608181,0.8115199208259583,-0.0,-0.021262548863887787,0.797805666923523,0.00018428369367029518,-0.005067422054708004
333.0,368.0,7.0887,0.3123,5.4401,-0.0473,0.0066,-0.1159,-1.6607004604735316,0.00011607145279413089,2.3473868370056152,-1.0089919567108154,0.003511629765853286,1.967656135559082,3.293060465449951,0.00013054325245320797,0.24832168221473694,-1.6417949835406702,-0.0001098711509257555,-0.000741753145121038,0.8115723729133606,-0.0,-0.01875075325369835,0.7978257536888123,0.0001694160746410489,-0.04207036644220352
333.0,368.0,7.0887,0.3123,5.4401,-0.0473,0.0066,-0.1159,-1.660708566705221,5.485184374265373e-06,2.3777220249176025,-1.0089925527572632,0.0005949334590695798,1.9659043550491333,3.2930118280598144,0.00012055116530973464,0.24310031533241272,-1.641754452382223,-8.007763972273096e-05,-0.013812760822474957,0.8115888237953186,-0.0,-0.007149788551032543,0.7978298664093018,2.8143345844000578e-05,0.021487176418304443
333.0,368.0,7.0887,0.3123,5.4401,-0.0473,0.0066,-0.1159,-1.6607204876341761,1.7771301465997758e-13,2.313124179840088,-1.0090241432189941,-0.0012237379560247064,1.9300646781921387,3.293027086848877,0.00011197995627298951,0.24937653541564941,-1.6417787710772913,-7.353322871495038e-05,-0.013054831884801388,0.8115240931510925,-0.0,-0.013141046278178692,0.7978222370147705,1.613290057100869e-09,0.0033207954838871956
346.0,358.0,7.5637,-0.2327,5.744,-0.0273,0.0118,-0.1225,-1.6608172855772914,-0.0013164966367185116,2.3550796508789062,-1.009032130241394,-0.0008451301255263388,1.9476633071899414,3.293003721828125,0.00010631101031322032,0.23992326855659485,-1.6417787710772913,-6.928743096068501e-05,-0.001186285400763154,0.8115482926368713,-0.0,-0.02230909839272499,0.7978180646896362,3.895906018039526e-15,-0.018615758046507835
346.0,358.0,7.5637,-0.2327,5.744,-0.0273,0.0118,-0.1225,-1.6607886753477992,-0.001336928689852357,2.341538906097412,-1.0090241432189941,-0.0006061908206902444,1.9343936443328857,3.293048067683838,0.00011333671864122152,0.25762271881103516,-1.6417868773089808,-6.433448288589716e-05,-0.01614762283861637,0.8115405440330505,-0.0,0.0029477609787136316,0.7978015542030334,1.2622240227014631e-22,-0.014726072549819946
346.0,358.0,7.5637,-0.2327,5.744,-0.0273,0.0118,-0.1225,-1.6607843838133753,-0.0009685464319773018,2.3751611709594727,-1.0090365409851074,-0.0005002006073482335,1.9628831148147583,3.2931038576313476,0.00010712712537497282,0.2561320662498474,-1.6417387167560022,-5.265123400022276e-05,-0.00489672739058733,0.8115605115890503,-0.0,-0.01313229463994503,0.7977776527404785,4.0894451645897885e-30,-0.01898185908794403
346.0,358.0,7.5637,-0.2327,5.744,-0.0273,0.0118,-0.1225,-1.6608406505980433,-0.0010826034704223275,2.329210042953491,-1.0090683698654175,-0.000373493239749223,1.9447529315948486,3.2931076723286132,8.425387932220474e-05,0.2510572671890259,-1.6417587439166468,-4.288809941499494e-05,0.004936001263558865,0.8114880323410034,-0.0,-0.01896679401397705,0.7977775931358337,9.875530079349585e-36,0.026215389370918274
346.0,358.0,7.5637,-0.2327,5.744,-0.0273,0.0118,-0.1225,-1.6608005962767542,-0.0008179442374967039,2.333277940750122,-1.0090404748916626,-0.0003415235551074147,1.957876443862915,3.2930356699177246,9.405270247953013e-05,0.24573174118995667,-1.6417506376849573,-4.032401920994744e-05,-0.0009171039564535022,0.811499834060669,-0.0,-0.008240088820457458,0.7978499531745911,3.194960498660583e-43,-0.011757908388972282
346.0,358.0,7.5637,-0.2327,5.744,-0.0273,0.0118,-0.1225,-1.6608206234373988,-0.0004904131637886167,2.3316798210144043,-1.0090365409851074,-0.00020613618835341185,1.9777297973632812,3.2930795389362792,0.0002598458668217063,0.23896625638008118,-1.64177114168276,-3.805087544606067e-05,-0.006508873775601387,0.8114998936653137,-0.0,-0.012502224184572697,0.7978498935699463,0.0,0.042639754712581635
346.0,358.0,7.5637,-0.2327,5.744,-0.0273,0.0118,-0.1225,-1.6608520946898402,-0.0003695415798574686,2.350844383239746,-1.0090241432189941,-6.583019421668723e-05,1.9525105953216553,3.2931076723286132,0.0005100489943288267,0.2442590296268463,-1.6418069044696253,-3.650737562566064e-05,-0.00901134591549635,0.8114798069000244,-8.574398293603736e-07,-0.02242273837327957,0.7977851629257202,0.0,-0.06023724377155304
346.0,358.0,7.5637,-0.2327,5.744,-0.0273,0.0118,-0.1225,-1.6608368359007777,-0.00027815185603685677,2.345787763595581,-1.009048581123352,-5.073006104794331e-05,1.923799753189087,3.2931391435810546,0.0013466167729347944,0.2391127496957779,-1.6417787710772913,-3.463419488980435e-05,-0.0032833910081535578,0.8115286231040955,-1.5583544871189403e-11,-0.010320620611310005,0.7977975010871887,0.0,0.04309599846601486
346.0,358.0,7.5637,-0.2327,5.744,-0.0273,0.0118,-0.1225,-1.6608606777586878,-0.00031038292217999697,2.347142219543457,-1.0089921951293945,-4.139572411077097e-05,1.9270890951156616,3.2931558328815917,0.0019718618132174015,0.24685589969158173,-1.6417787710772913,-3.294386260677129e-05,-0.001377889420837164,0.8115686774253845,-2.8322322713658806e-16,-0.025605812668800354,0.7978334426879883,0.0,0.026216164231300354
346.0,358.0,7.5637,-0.2327,5.744,-0.0273,0.0118,-0.1225,-1.6608849964537562,-0.00025260899565182626,2.3294224739074707,-1.0090404748916626,-3.637602276285179e-05,1.9329867362976074,3.293219729060791,0.003046705387532711,0.24713760614395142,-1.6417468229876917,-3.178058614139445e-05,-0.003493624273687601,0.8115646243095398,-7.883623188756212e-20,-0.02164839208126068,0.7978296279907227,0.0,-0.003155650570988655
346.0,358.0,7.5637,-0.2327,5.744,-0.0273,0.0118,-0.1225,-1.6608926258482875,-0.0014226619387045503,2.364251136779785,-1.0090365409851074,-3.13132768496871e-05,1.9692482948303223,3.29319874822583,0.013896562159061432,0.24280378222465515,-1.6417630354510706,-3.0351555324159563e-05,-0.012989325448870659,0.8115040063858032,-1.4328097384823473e-24,-0.023757442831993103,0.7978655695915222,0.0003984787326771766,0.008568006567656994
346.0,358.0,7.5637,-0.2327,5.744,-0.0273,0.0118,-0.1225,-1.6609002552428187,-0.003513588570058346,2.275036096572876,-1.0090326070785522,-5.49747928744182e-05,1.9693691730499268,3.2934152322956542,0.025733446702361107,0.26669833064079285,-1.6417391935931605,2.7107176720164716e-05,-0.01364278607070446,0.8114999532699585,-2.6040610120884726e-29,-0.006242076866328716,0.7978414297103882,0.00042891866178251803,-0.01591678522527218
346.0,358.0,7.5637,-0.2327,5.744,-0.0273,0.0118,-0.1225,-1.6609283886351527,-0.007709006313234568,2.337599277496338,-1.009063959121704,-5.0361039029667154e-05,1.9536211490631104,3.29354636251416,0.027738604694604874,0.25418758392333984,-1.6417186895953577,2.613229298731312e-05,0.00192542327567935,0.8115122318267822,-7.248499304617443e-33,-0.015886690467596054,0.797873854637146,0.0003666019765660167,0.00895231869071722
330.0,360.0,7.2514,0.0915,5.4981,-0.0409,0.0066,-0.1239,-1.6610242329039515,-0.009287665598094463,2.3514275550842285,-1.0090162754058838,-1.47133394357013e-09,1.9389336109161377,3.2938505846210937,0.027096224948763847,0.25348278880119324,-1.6417391935931605,2.46980634983629e-05,-0.0010687480680644512,0.8115081787109375,-1.317378735035981e-37,-0.018232855945825577,0.7978495955467224,0.0003606330428738147,-0.05225697159767151
330.0,360.0,7.2514,0.0915,5.4981,-0.0409,0.0066,-0.1239,-1.661055704156393,-0.002633832162246108,2.290987253189087,-1.0090285539627075,-4.7669349984079566e-17,1.9448981285095215,3.294001742000244,0.02163069322705269,0.25579607486724854,-1.64174729982485,2.341306026210077e-05,-0.00027064961614087224,0.811516284942627,-0.0001395631261402741,-0.04484415054321289,0.7978413105010986,0.00027307559503242373,0.0069237686693668365
330.0,360.0,7.2514,0.0915,5.4981,-0.0409,0.0066,-0.1239,-1.661055704156393,-0.0014560100389644504,2.31790828704834,-1.0090644359588623,-1.1511588443513313e-22,1.9580867290496826,3.2941133218952636,0.014589023776352406,0.25403594970703125,-1.641719166432516,3.233152528991923e-05,-0.009791439399123192,0.811512291431427,-0.0001359889138257131,-0.03830580413341522,0.7978334426879883,0.0002310138806933537,0.015805242583155632
330.0,360.0,7.2514,0.0915,5.4981,-0.0409,0.0066,-0.1239,-1.6611401043333949,-0.002932103583589196,2.338148593902588,-1.0090723037719727,-0.00023893635079730302,1.9531996250152588,3.294201059932373,0.0046636867336928844,0.2508549094200134,-1.6417272726642054,3.218877100152895e-05,-0.0066661592572927475,0.8114563226699829,-0.0001454799057682976,-0.021206434816122055,0.7978779673576355,0.00019165535923093557,-0.01415446400642395
330.0,360.0,7.2514,0.0915,5.4981,-0.0409,0.0066,-0.1239,-1.6612087688841761,-0.004646829329431057,2.3347926139831543,-1.0090519189834595,-0.0001578919473104179,1.9486393928527832,3.2941362100788574,-0.0006236337940208614,0.2501436769962311,-1.6417186895953577,3.07236987282522e-05,-0.00259571080096066,0.8114001750946045,-0.0001314159599132836,-0.028434237465262413,0.7978375554084778,0.00016375623818021268,-0.01969236508011818
330.0,360.0,7.2514,0.0915,5.4981,-0.0409,0.0066,-0.1239,-1.6612245045103968,-0.004178875591605902,2.304530143737793,-1.008992314338684,-0.00012499110016506165,1.9729938507080078,3.294224901790283,-0.0003961632901336998,0.255415678024292,-1.6416786352740687,1.505934869783232e-05,-0.005392950959503651,0.8115001916885376,-0.00012247390986885875,-0.03497997298836708,0.7978817820549011,0.00014763786748517305,0.0009929882362484932
330.0,360.0,7.2514,0.0915,5.4981,-0.0409,0.0066,-0.1239,-1.6612445316710414,-0.0031477014999836683,2.339263677597046,-1.0090326070785522,-0.00014664266200270504,1.9471144676208496,3.294212980861328,-0.00024945635232143104,0.23792894184589386,-1.6416786352740687,2.7369623234463347e-10,0.001519323093816638,0.8114880323410034,-0.0001310001825913787,-0.035307642072439194,0.7978496551513672,0.00013051032146904618,-0.022379610687494278
330.0,360.0,7.2514,0.0915,5.4981,-0.0409,0.0066,-0.1239,-1.6612521610655726,-0.0036179216112941504,2.3627331256866455,-1.0090042352676392,-0.00012615608284249902,1.9518847465515137,3.2942086893269042,-0.0001302304008277133,0.24000094830989838,-1.6416948477374476,7.618435911424179e-14,-0.003653160762041807,0.8114845752716064,-0.00012330860772635788,-0.03908582776784897,0.7978454828262329,0.00012006387260043994,0.005202755331993103
330.0,360.0,7.2514,0.0915,5.4981,-0.0409,0.0066,-0.1239,-1.6613241634764613,-0.005447497591376305,2.2854089736938477,-1.0090205669403076,-0.00017697886505629867,1.9729349613189697,3.2942568498798828,-0.00010096119513036683,0.23886314034461975,-1.6416824499713343,1.3846127676664143e-18,0.0011146948672831059,0.8114880323410034,-0.00011435530905146152,-0.0379631370306015,0.7978532314300537,0.00013018240861129016,-0.00844900868833065
330.0,360.0,7.2514,0.0915,5.4981,-0.0409,0.0066,-0.1239,-1.661412855187887,-0.007464137859642506,2.321864128112793,-1.0090763568878174,-0.00019593990873545408,1.9292047023773193,3.2941810327717285,-4.132692265557125e-05,0.24784418940544128,-1.641702953969137,2.5164653410219414e-23,0.005908302962779999,0.8114726543426514,-0.00011791972792707384,-0.04933427646756172,0.797829270362854,0.00013849037350155413,-0.014546501450240612
330.0,360.0,7.2514,0.0915,5.4981,-0.0409,0.0066,-0.1239,-1.6614319286742152,-0.00788340624421835,2.326352834701538,-1.0090399980545044,-0.0001733211538521573,1.962862253189087,3.2942167955585937,-3.6245633964426816e-05,0.2557266354560852,-1.6417630354510706,7.004674230098441e-27,0.0016889804974198341,0.8115203380584717,-0.00011595663090702146,-0.043945297598838806,0.7978817820549011,0.00014777129399590194,-0.046827949583530426
330.0,360.0,7.2514,0.0915,5.4981,-0.0409,0.0066,-0.1239,-1.6614796123900355,-0.00758651178330183,2.2967708110809326,-1.009080410003662,-0.00015018251724541187,1.965709924697876,3.2942086893269042,-3.121610643574968e-05,0.23468726873397827,-1.641691033040182,1.2730648488190705e-31,0.0009138158056885004,0.8114685416221619,-0.00010893331636907533,-0.05051647126674652,0.7979463338851929,0.0001022134892991744,-0.025790737941861153
336.0,347.0,7.1198,0.3135,5.4293,-0.0392,-0.0064,-0.1167,-1.6615759334959925,-0.007225540466606617,2.2938570976257324,-1.0090603828430176,-0.0001324946788372472,1.9801397323608398,3.294212980861328,-2.7412514100433327e-05,0.23696625232696533,-1.6416948477374476,2.3137323681631834e-36,-0.014754366129636765,0.8115009665489197,-0.00010271707287756726,-0.04068030044436455,0.797930121421814,9.365375444758683e-05,-0.02506866119801998
336.0,347.0,7.1198,0.3135,5.4293,-0.0392,-0.0064,-0.1167,-1.661607404748434,-0.00849277526140213,2.3094429969787598,-1.0091041326522827,-0.00016209256136789918,1.9255995750427246,3.294228716487549,-2.511724414944183e-05,0.2367963194847107,-1.6417153517352503,6.440353729052216e-40,-0.020067580044269562,0.8114962577819824,-9.85012375167571e-05,-0.040827229619026184,0.7979260087013245,8.815016190055758e-05,-0.017501555383205414
336.0,347.0,7.1198,0.3135,5.4293,-0.0392,-0.0064,-0.1167,-1.6616836986937464,-0.010072849690914154,2.2843503952026367,-1.0090643167495728,-0.00017488328740000725,1.8992164134979248,3.2942048746296386,-2.2594787878915668e-05,0.23405639827251434,-1.6417034308062952,1.1210387714598537e-44,0.004753281828016043,0.811476469039917,-9.339061944046989e-05,-0.05436406284570694,0.7979462742805481,8.174501272151247e-05,-0.06062900274991989
336.0,347.0,7.1198,0.3135,5.4293,-0.0392,-0.0064,-0.1167,-1.6617714367308558,-0.012073732912540436,2.2124953269958496,-1.0091001987457275,-0.0001601293042767793,1.8874136209487915,3.2942330080219726,-2.190480154240504e-05,0.21722312271595,-1.6416667143451136,0.0,0.0026472366880625486,0.8115081787109375,-8.660236198920757e-05,-0.05181949585676193,0.7978978157043457,6.099045276641846e-05,-0.06032661721110344
336.0,347.0,7.1198,0.3135,5.4293,-0.0392,-0.0064,-0.1167,-1.6618677578368128,-0.013206076808273792,2.205650806427002,-1.0090359449386597,-0.00015011361392680556,1.835259199142456,3.294268770808838,-2.0424862668733113e-05,0.2256823480129242,-1.6417034308062952,0.0,0.000259690685197711,0.8115162253379822,-8.18749686004594e-05,-0.06234191358089447,0.797857403755188,5.801851148135029e-05,-0.06743587553501129
336.0,347.0,7.1198,0.3135,5.4293,-0.0392,-0.0064,-0.1167,-1.6619955501952113,-0.01483161747455597,2.209843635559082,-1.0090523958206177,-0.00013855849101673812,1.8909916877746582,3.2941805559345703,-1.8725000700214878e-05,0.2219175398349762,-1.6417115370379847,0.0,-0.009642546996474266,0.8115326166152954,-7.63204152463004e-05,-0.05922582000494003,0.7978776693344116,5.4504907893715426e-05,-0.04950086027383804
336.0,347.0,7.1198,0.3135,5.4293,-0.0392,-0.0064,-0.1167,-1.662079473535055,-0.015658684074878693,2.126758575439453,-1.0090359449386597,-0.0001292193483095616,1.8580987453460693,3.2942730623432617,-1.7286358342971653e-05,0.2115572690963745,-1.6416948477374476,0.0,0.003673773491755128,0.8115405440330505,-7.14716297807172e-05,-0.04472365975379944,0.7978694438934326,5.139260247233324e-05,-0.1124735176563263
336.0,347.0,7.1198,0.3135,5.4293,-0.0392,-0.0064,-0.1167,-1.6621834240355433,-0.017473377287387848,2.153966188430786,-1.0090842247009277,-9.518203296465799e-05,1.8161656856536865,3.294172449702881,-1.6344554751412943e-05,0.22229276597499847,-1.6417272726642054,5.7028715673368424e-05,0.013336491771042347,0.8115081787109375,-5.460725151351653e-05,-0.03976775333285332,0.7979059219360352,4.928201815346256e-05,-0.10498210042715073
336.0,347.0,7.1198,0.3135,5.4293,-0.0392,-0.0064,-0.1167,-1.6622988186278285,-0.02012036368250847,2.1293885707855225,-1.0090643167495728,-8.607491326984018e-05,1.8480806350708008,3.294253035182617,-3.045797893719282e-05,0.20330743491649628,-1.6417153517352503,5.492708078236319e-05,0.009636149741709232,0.8115445971488953,-5.1456438086461276e-05,-0.04220913350582123,0.7978813648223877,2.853919068002142e-05,-0.13564419746398926
336.0,347.0,7.1198,0.3135,5.4293,-0.0392,-0.0064,-0.1167,-1.6624509296812953,-0.023669134825468063,2.041886568069458,-1.0090603828430176,-7.85613083280623e-05,1.8025791645050049,3.2941643434711914,-4.275060200598091e-05,0.20662520825862885,-1.6416948477374476,6.282106187427416e-05,0.012760501354932785,0.8114521503448486,-4.8673558922018856e-05,-0.05159518122673035,0.7979100346565247,2.343617052247282e-05,-0.12081851065158844
336.0,347.0,7.1198,0.3135,5.4293,-0.0392,-0.0064,-0.1167,-1.6626197300352992,-0.02697874791920185,1.968705177307129,-1.0090802907943726,-7.373418338829651e-05,1.808168888092041,3.2942086893269042,-5.4432493925560266e-05,0.20151153206825256,-1.6416586081134241,6.072415999369696e-05,0.01924765110015869,0.8115322589874268,-4.677621109294705e-05,-0.03783204406499863,0.7979381084442139,2.1737938368460163e-05,-0.14327338337898254
336.0,347.0,7.1198,0.3135,5.4293,-0.0392,-0.0064,-0.1167,-1.6628223858275355,-0.03242246061563492,2.0092432498931885,-1.009052038192749,-6.81508390698582e-05,1.7338542938232422,3.2941972452351074,-0.00019760891154874116,0.20379680395126343,-1.6416705290423792,7.039820104637329e-08,0.023512866348028183,0.8115445971488953,-4.44652141595725e-05,-0.02809148281812668,0.7979099750518799,1.982280627998989e-05,-0.15682345628738403
336.0,347.0,7.1198,0.3135,5.4293,-0.0392,-0.0064,-0.1167,-1.663154741326803,-0.04078607261180878,1.9350707530975342,-1.0089963674545288,-6.335358921205625e-05,1.7385706901550293,3.29415671407666,-0.0005759991472586989,0.18808700144290924,-1.6416824499713343,0.00021639512851834297,0.021218668669462204,0.8114722967147827,-4.237181201460771e-05,-0.04167645052075386,0.797865629196167,6.231346105778357e-06,-0.224659264087677
333.0,327.0,6.9942,0.3667,5.5418,-0.0214,-0.1176,-0.1266,-1.6633898220457972,-0.04907678812742233,1.8869755268096924,-1.0089921951293945,-3.3811305911513045e-05,1.718541145324707,3.2942091661640625,-0.0005932634812779725,0.1805923581123352,-1.6416590849505823,0.0002485424920450896,0.03323322534561157,0.8115483522415161,-4.09267122449819e-05,-0.0285435039550066,0.7978776693344116,1.50479680799398e-11,-0.23758071660995483
333.0,327.0,6.9942,0.3667,5.5418,-0.0214,-0.1176,-0.1266,-1.6638018093504847,-0.05911896005272865,1.8450088500976562,-1.0090404748916626,-1.648593439540491e-08,1.6381826400756836,3.294173403377197,-0.0005550108617171645,0.17084260284900665,-1.641662899647848,0.0002608632785268128,0.039384640753269196,0.8115121126174927,-6.63948128476477e-07,-0.03223830461502075,0.7978414297103882,4.875349797623495e-19,-0.2352910339832306
333.0,327.0,6.9942,0.3667,5.5418,-0.0214,-0.1176,-0.1266,-1.6642939052977503,-0.06970145553350449,1.8123500347137451,-1.0090446472167969,-5.341233593685968e-16,1.6600453853607178,3.294161005611084,-0.0004855274746660143,0.17375481128692627,-1.6417072455035608,0.0004245738382451236,0.05412421375513077,0.8114998936653137,-1.2066927318477028e-11,-0.030342774465680122,0.7978532314300537,1.5795514438891915e-26,-0.25274771451950073
333.0,327.0,6.9942,0.3667,5.5418,-0.0214,-0.1176,-0.1266,-1.6647335491576136,-0.07847823947668076,1.8057458400726318,-1.0090643167495728,-1.2898451858150972e-21,1.6301710605621338,3.294173403377197,-0.0004774622793775052,0.16957488656044006,-1.6416671911822718,0.0004005583468824625,0.05087418854236603,0.8115445971488953,-3.3588731534366697e-15,-0.041374627500772476,0.7978578805923462,-0.0004614800855051726,-0.26652103662490845
333.0,327.0,6.9942,0.3667,5.5418,-0.0214,-0.1176,-0.1266,-1.665368219415182,-0.08755896985530853,1.7396368980407715,-1.009000301361084,-4.17893455269868e-29,1.663384199142456,3.2941204744526367,-0.0003799745172727853,0.15697482228279114,-1.6416547934161585,0.0003704424016177654,0.056367598474025726,0.8115605115890503,-6.104585812057955e-20,-0.02230537123978138,0.797857403755188,-0.0005820122314617038,-0.29005810618400574
333.0,327.0,6.9942,0.3667,5.5418,-0.0214,-0.1176,-0.1266,-1.666067739526266,-0.09635429829359055,1.7196900844573975,-1.0090365409851074,-1.3539217515470928e-36,1.5988130569458008,3.2941648203083496,-0.00034079013857990503,0.15158319473266602,-1.641674820576803,0.0003346964658703655,0.0604841485619545,0.8114765286445618,-1.1094784317908929e-24,-0.04773622751235962,0.7978255152702332,-0.00048573387903161347,-0.27732765674591064
333.0,327.0,6.9942,0.3667,5.5418,-0.0214,-0.1176,-0.1266,-1.6666480503477992,-0.09980914741754532,1.661215901374817,-1.009056568145752,-3.269229317269798e-42,1.61395263671875,3.2941486078449707,-0.00033421479747630656,0.15277652442455292,-1.6416991392718714,0.00032835049205459654,0.07300201058387756,0.8114604949951172,-3.088274888143598e-28,-0.054180823266506195,0.7977851629257202,-0.0004685291787609458,-0.33516114950180054
333.0,327.0,6.9942,0.3667,5.5418,-0.0214,-0.1176,-0.1266,-1.6674701176085414,-0.10522787272930145,1.6972436904907227,-1.0090519189834595,-0.0,1.6086230278015137,3.294161005611084,-0.00031243785633705556,0.15129442512989044,-1.64160663286318,0.0003081074100919068,0.06680009514093399,0.8115081787109375,-5.612786425820752e-33,-0.033932287245988846,0.7978578209877014,-0.0003530882822815329,-0.3203336298465729
333.0,327.0,6.9942,0.3667,5.5418,-0.0214,-0.1176,-0.1266,-1.6683412990965785,-0.11397001892328262,1.6609539985656738,-1.0090323686599731,-0.0006817076355218887,1.5889605283737183,3.2941815096088867,-0.0002526446187403053,0.1328224539756775,-1.641662899647848,0.00029418582562357187,0.07757081091403961,0.811488687992096,-1.3180533642298542e-05,-0.04780566692352295,0.79780513048172,-0.0003246088162995875,-0.3401733636856079
333.0,327.0,6.9942,0.3667,5.5418,-0.0214,-0.1176,-0.1266,-1.669088979760641,-0.12215115875005722,1.6478095054626465,-1.0090326070785522,-0.0007054780726321042,1.5567491054534912,3.294205828303955,-0.00021483484306372702,0.13712404668331146,-1.641634766255514,0.00026232225354760885,0.07603555917739868,0.8114684820175171,-1.2568770216603298e-05,-0.040585003793239594,0.7978495955467224,-0.0002825806732289493,-0.3712843060493469
333.0,327.0,6.9942,0.3667,5.5418,-0.0214,-0.1176,-0.1266,-1.6700593433775843,-0.1370442509651184,1.6294353008270264,-1.0090519189834595,-0.0005744037916883826,1.5105459690093994,3.2941810327717285,-0.00021645364176947623,0.14700007438659668,-1.641691033040182,0.00022124518000055104,0.07650309801101685,0.8115003705024719,-1.1903795893886127e-05,-0.049847133457660675,0.7978255152702332,-0.0002738186449278146,-0.32906949520111084
333.0,327.0,6.9942,0.3667,5.5418,-0.0214,-0.1176,-0.1266,-1.6711427174010218,-0.1475573182106018,1.5906727313995361,-1.009000301361084,0.0002848626463674009,1.5704059600830078,3.2941853243061523,-0.0001865416270447895,0.13040484488010406,-1.6416428724872034,0.00020296797447372228,0.07505521178245544,0.8114604949951172,-2.2609678126173094e-05,-0.056292131543159485,0.7978457808494568,-0.0002464208228047937,-0.3491264879703522
328.0,373.0,6.4774,-0.1591,6.0467,-0.0531,-0.171,-0.1092,-1.6720553837218226,-0.1498003602027893,1.5917744636535645,-1.0090241432189941,0.0011282892664894462,1.5276292562484741,3.2941929537006835,-0.000169023172929883,0.14316368103027344,-1.641634766255514,0.00019750121282413602,0.08055175840854645,0.8114973306655884,-3.250012741773389e-05,-0.070432648062706,0.7978416681289673,-0.0002543723676353693,-0.3430987596511841
328.0,373.0,6.4774,-0.1591,6.0467,-0.0531,-0.171,-0.1092,-1.6732260189452113,-0.1570187360048294,1.5877091884613037,-1.009012222290039,0.0006126157240942121,1.5492348670959473,3.2941648203083496,-0.00015021412400528789,0.1342468112707138,-1.6416309515582483,0.000172296044183895,0.07929466664791107,0.811504602432251,-4.156454451731406e-05,-0.06837345659732819,0.7978457808494568,-0.00044705523760057986,-0.3549167513847351
328.0,373.0,6.4774,-0.1591,6.0467,-0.0531,-0.171,-0.1092,-1.6741606197752894,-0.1624426692724228,1.5923839807510376,-1.0090081691741943,0.00041423627408221364,1.5817928314208984,3.2941810327717285,-0.00011554981028893963,0.13956786692142487,-1.641662899647848,0.00015724325203336775,0.07221971452236176,0.8114806413650513,-0.00019989570137113333,-0.0740145817399025,0.7978375554084778,-0.0003462930617388338,-0.35055720806121826
328.0,373.0,6.4774,-0.1591,6.0467,-0.0531,-0.171,-0.1092,-1.675540109673971,-0.17288626730442047,1.6165361404418945,-1.009020209312439,0.00030273356242105365,1.5779486894607544,3.294217272395752,-0.0001047752084559761,0.15469253063201904,-1.6416433493243616,0.0001408375392202288,0.08631828427314758,0.8114485740661621,-0.0002061797713395208,-0.07040197402238846,0.797797441482544,-0.0002647745714057237,-0.3486284613609314
328.0,373.0,6.4774,-0.1591,6.0467,-0.0531,-0.171,-0.1092,-1.6769262752928675,-0.1796490103006363,1.6269383430480957,-1.0090161561965942,0.0002862141700461507,1.560472846031189,3.294161005611084,-9.584824874764308e-05,0.13340455293655396,-1.6416991392718714,0.00012753209739457816,0.09105391055345535,0.8114243149757385,-0.00020856921037193388,-0.06896276772022247,0.7978578209877014,-0.0002565871109254658,-0.3377787470817566
328.0,373.0,6.4774,-0.1591,6.0467,-0.0531,-0.171,-0.1092,-1.6779324016966761,-0.1859486997127533,1.620483160018921,-1.008988380432129,0.00028754628146998584,1.5809476375579834,3.2942048746296386,-7.215311779873446e-05,0.1520969718694687,-1.641691033040182,0.0001389369717799127,0.08242842555046082,0.8114726543426514,-0.00021689358982257545,-0.07243925333023071,0.7978134751319885,-0.00022503460058942437,-0.3057563006877899
328.0,373.0,6.4774,-0.1591,6.0467,-0.0531,-0.171,-0.1092,-1.6795407734312953,-0.1976591795682907,1.6588412523269653,-1.009000301361084,0.0002358887722948566,1.570757508277893,3.2942048746296386,4.259048728272319e-05,0.15026529133319855,-1.641662899647848,0.0001276788825634867,0.08160095661878586,0.8114932179450989,-0.00027170308749191463,-0.05900529772043228,0.7979023456573486,-0.0001928812707774341,-0.3353155851364136
328.0,373.0,6.4774,-0.1591,6.0467,-0.0531,-0.171,-0.1092,-1.681143423120016,-0.20059305429458618,1.6395559310913086,-1.0089846849441528,0.003095123451203108,1.5719575881958008,3.294264956111572,0.0001076325643225573,0.1543978601694107,-1.6416710058795374,0.0001181044863187708,0.08273874968290329,0.8114930987358093,-0.0002623285981826484,-0.08786188066005707,0.7978375554084778,-0.00019689042528625578,-0.29065072536468506
328.0,373.0,6.4774,-0.1591,6.0467,-0.0531,-0.171,-0.1092,-1.682333608666891,-0.19364196062088013,1.734480619430542,-1.008880615234375,0.004459927789866924,1.6130356788635254,3.2942368227192382,0.0007906190003268421,0.15963627398014069,-1.6416428724872034,0.00011199643631698564,0.06168293207883835,0.811493992805481,-0.00023012941528577358,-0.07221086323261261,0.7978419661521912,-0.00018001708667725325,-0.26745733618736267
328.0,373.0,6.4774,-0.1591,6.0467,-0.0531,-0.171,-0.1092,-1.683939596215719,-0.19687223434448242,1.7107685804367065,-1.0087926387786865,0.004634351469576359,1.6292935609817505,3.294264479274414,0.0009747013100422919,0.17018966376781464,-1.641646687184469,-0.00020692007092293352,0.06130506098270416,0.811424732208252,-0.00022936634195502847,-0.10080613195896149,0.797837495803833,-6.021117587806657e-05,-0.2795012295246124
328.0,373.0,6.4774,-0.1591,6.0467,-0.0531,-0.171,-0.1092,-1.6856261692442835,-0.21237142384052277,1.776003360748291,-1.0088647603988647,0.0025197844952344894,1.6763994693756104,3.2943131166645507,0.0011043886188417673,0.176214337348938,-1.6416228453265589,-0.00011375659960322082,0.05451254919171333,0.8114358186721802,-0.0002002140536205843,-0.0904039517045021,0.797837495803833,-2.0599136285603947e-10,-0.2369561493396759
328.0,373.0,6.4774,-0.1591,6.0467,-0.0531,-0.171,-0.1092,-1.6869126758971156,-0.21268662810325623,1.798694133758545,-1.0088163614273071,0.0019402888137847185,1.6684668064117432,3.294308825130127,0.0011640808079391718,0.16961529850959778,-1.6416710058795374,-8.24401795398444e-05,0.03774368762969971,0.8113920092582703,-0.00018278560310136527,-0.09061385691165924,0.7977969646453857,-4.974448739887951e-16,-0.19099542498588562
328.0,373.0,6.4774,-0.1591,6.0467,-0.0531,-0.171,-0.1092,-1.6886431179442347,-0.2016531080007553,1.8586745262145996,-1.0087852478027344,0.003825381863862276,1.7465699911117554,3.2943007188984375,0.0015176859451457858,0.18405625224113464,-1.641646687184469,-8.962817810242996e-05,0.03214937821030617,0.8114645481109619,-0.00018560554599389434,-0.09400664269924164,0.7978255152702332,-1.6116579754959074e-23,-0.23131021857261658
300.0,359.0,7.2287,0.1938,5.7188,-0.0334,-0.1981,-0.1055,-1.6903253994383753,-0.2099326252937317,1.9163341522216797,-1.0088289976119995,0.0036433900240808725,1.7479772567749023,3.294348879451416,0.0019080047495663166,0.1717580258846283,-1.6416991392718714,-9.512486576568335e-05,0.029235586524009705,0.8114772439002991,-0.0001695430401014164,-0.08923012018203735,0.7978578209877014,-5.221566595053176e-31,-0.23994985222816467
300.0,359.0,7.2287,0.1938,5.7188,-0.0334,-0.1981,-0.1055,-1.691671987573141,-0.219383105635643,1.896755337715149,-1.0087686777114868,0.0033524201717227697,1.818708896636963,3.294332190150879,0.0016398916486650705,0.20389483869075775,-1.6416705290423792,-8.210449595935643e-05,0.034486208111047745,0.811432421207428,-0.0001583557459525764,-0.08416564762592316,0.7978214025497437,-1.2609468315817897e-36,-0.159412682056427
300.0,359.0,7.2287,0.1938,5.7188,-0.0334,-0.1981,-0.1055,-1.6933614216246546,-0.21110500395298004,1.9828779697418213,-1.0087450742721558,0.0030328347347676754,1.794013261795044,3.2943526941486816,0.001759847509674728,0.20722311735153198,-1.641674820576803,-6.943318294361234e-05,0.01547185331583023,0.8114041090011597,-0.00013074449088890105,-0.08440792560577393,0.797865629196167,-4.0637655465419695e-44,-0.15761752426624298
300.0,359.0,7.2287,0.1938,5.7188,-0.0334,-0.1981,-0.1055,-1.695120473901266,-0.20904789865016937,1.9288870096206665,-1.0087405443191528,0.002498246030882001,1.8160855770111084,3.2943121629902343,0.0014376945327967405,0.19812023639678955,-1.6417072455035608,-8.919044921640307e-05,0.024614112451672554,0.8114326000213623,-0.00011703910422511399,-0.07927694916725159,0.7978941202163696,0.0002822345122694969,-0.22775378823280334
300.0,359.0,7.2287,0.1938,5.7188,-0.0334,-0.1981,-0.1055,-1.6963874302306117,-0.22117237746715546,1.9848395586013794,-1.008744478225708,0.0008238100563175976,1.820944905281067,3.294384642238281,0.0009201627690345049,0.19270789623260498,-1.641662899647848,-8.200390584534034e-05,0.029956474900245667,0.8114649057388306,-0.00012990496179554611,-0.09263259172439575,0.797873854637146,0.0002850378805305809,-0.11423991620540619
300.0,359.0,7.2287,0.1938,5.7188,-0.0334,-0.1981,-0.1055,-1.6980840168394984,-0.22249993681907654,2.051541328430176,-1.0087331533432007,-0.00014299173199106008,1.8159593343734741,3.2942802149006347,0.0006085665663704276,0.19585895538330078,-1.6416385809527796,-7.31202817405574e-05,0.018902981653809547,0.811424732208252,-0.00011881440877914429,-0.10037879645824432,0.7978496551513672,0.00019631064787972718,-0.15031257271766663
300.0,359.0,7.2287,0.1938,5.7188,-0.0334,-0.1981,-0.1055,-1.699822565118307,-0.2140839695930481,1.9958336353302002,-1.0087370872497559,0.0016517339972779155,1.8197739124298096,3.2942964273640136,0.00045471408520825207,0.21252232789993286,-1.641646687184469,-6.597313767997548e-05,0.0030063597951084375,0.8114289045333862,-0.00012740322563331574,-0.10167792439460754,0.7978982925415039,0.0001670055789873004,-0.16525796055793762
300.0,359.0,7.2287,0.1938,5.7188,-0.0334,-0.1981,-0.1055,-1.7010466061034144,-0.21042275428771973,2.045285224914551,-1.0087251663208008,0.002103620208799839,1.7970268726348877,3.2942802149006347,0.00038225785829126835,0.20410600304603577,-1.6416552702533167,-6.146716623334214e-05,0.013145090080797672,0.811444878578186,-0.00013725589087698609,-0.096273273229599,0.7978619933128357,0.00015027391782496125,-0.1978645622730255
300.0,359.0,7.2287,0.1938,5.7188,-0.0334,-0.1981,-0.1055,-1.7027484379210414,-0.21143317222595215,2.003661632537842,-1.0087132453918457,0.0018774920608848333,1.7796409130096436,3.294388456935547,0.00031528290128335357,0.20776686072349548,-1.641662899647848,-5.6336804846068844e-05,0.014622222632169724,0.8113763332366943,-0.00018993666162714362,-0.10138451308012009,0.7978457808494568,0.00013256589591037482,-0.1196848452091217
300.0,359.0,7.2287,0.1938,5.7188,-0.0334,-0.1981,-0.1055,-1.7044230900206507,-0.20851857960224152,2.0543861389160156,-1.0087212324142456,0.0010003704810515046,1.8360720872879028,3.294344587916992,0.00026828216505236924,0.21453489363193512,-1.6416948477374476,-5.199691076995805e-05,0.01169592421501875,0.8114125728607178,-0.0001950656733242795,-0.09979557245969772,0.7978537082672119,0.00011859128426294774,-0.15404514968395233
300.0,359.0,7.2287,0.1938,5.7188,-0.0334,-0.1981,-0.1055,-1.7056695423521937,-0.21157103776931763,2.0575058460235596,-1.0086933374404907,0.000677388277836144,1.8101694583892822,3.2942520815083007,0.00021897967963013798,0.20884384214878082,-1.6416190306292933,-4.915683894068934e-05,0.023492511361837387,0.8113721609115601,-0.00020438579667825252,-0.11035513132810593,0.7977969646453857,0.00010990236478392035,-0.1573960781097412
300.0,359.0,7.2287,0.1938,5.7188,-0.0334,-0.1981,-0.1055,-1.7072860203185023,-0.21138958632946014,2.028275489807129,-1.0087008476257324,0.00024402211420238018,1.8043956756591797,3.294365091914795,0.000186180230230093,0.211527481675148,-1.6416829268084925,-4.581998291541822e-05,0.02726711891591549,0.8114489316940308,-0.00020753750868607312,-0.0984659418463707,0.7978499531745911,8.010085002752021e-05,-0.10482162237167358
314.0,358.0,7.3669,0.3954,5.3228,-0.0391,-0.1477,-0.1145,-1.708926340142721,-0.20362944900989532,2.0599288940429688,-1.0087213516235352,0.0006192591390572488,1.8512849807739258,3.2942964273640136,0.00016649701865389943,0.20082733035087585,-1.6416705290423792,-4.290737706469372e-05,0.017994534224271774,0.8114209175109863,-0.000263753259787336,-0.1011696308851242,0.7978419661521912,-3.730817843461409e-05,-0.15583917498588562
314.0,358.0,7.3669,0.3954,5.3228,-0.0391,-0.1477,-0.1145,-1.7101923427977503,-0.20383688807487488,2.1015937328338623,-1.008664608001709,0.0021632863208651543,1.8199717998504639,3.2943083482929687,0.00010149662557523698,0.20045021176338196,-1.6416786352740687,-4.0954801079351455e-05,0.015433857217431068,0.8114653825759888,-0.00030227762181311846,-0.11127331852912903,0.7977775931358337,-6.871812365716323e-05,-0.12142312526702881
314.0,358.0,7.3669,0.3954,5.3228,-0.0391,-0.1477,-0.1145,-1.7117754421629847,-0.20269343256950378,2.0126309394836426,-1.008609414100647,0.003460873384028673,1.8091540336608887,3.2943288522907714,4.241185524733737e-05,0.2003951370716095,-1.6416991392718714,-3.861206641886383e-05,0.008450774475932121,0.811364471912384,-0.0002991445071529597,-0.11018969118595123,0.7978097796440125,-0.0006497548311017454,-0.15846815705299377
314.0,358.0,7.3669,0.3954,5.3228,-0.0391,-0.1477,-0.1145,-1.7133962116637171,-0.1923278570175171,2.062591314315796,-1.0086054801940918,0.0047228895127773285,1.8187236785888672,3.2943245607563476,3.8757920265197754e-05,0.2016710489988327,-1.6417034308062952,-3.652286250144243e-05,0.025229711085557938,0.8114041090011597,-0.0003821939171757549,-0.11559329926967621,0.7978581190109253,-0.0006222027586773038,-0.19255852699279785
314.0,358.0,7.3669,0.3954,5.3228,-0.0391,-0.1477,-0.1145,-1.7145983181395472,-0.18750418722629547,2.1511316299438477,-1.0085890293121338,0.0040848879143595695,1.7731657028198242,3.294280691737793,1.941615300893318e-05,0.19683310389518738,-1.6416786352740687,-3.50985283148475e-05,0.025146007537841797,0.811424732208252,-0.0003745649883057922,-0.11399613320827484,0.7978100776672363,-0.0005747436662204564,-0.15629389882087708
314.0,358.0,7.3669,0.3954,5.3228,-0.0391,-0.1477,-0.1145,-1.7161280117430628,-0.19582100212574005,2.1468987464904785,-1.0085413455963135,0.0019714629743248224,1.7906359434127808,3.29426018773999,1.4685161886518472e-07,0.1922413408756256,-1.641662899647848,-3.336368899908848e-05,0.017068132758140564,0.8114084601402283,-0.0004534820909611881,-0.11591669917106628,0.7977612614631653,-0.00045639631571248174,-0.19898736476898193
314.0,358.0,7.3669,0.3954,5.3228,-0.0391,-0.1477,-0.1145,-1.7173434696593226,-0.2019283026456833,2.084465742111206,-1.008561134338379,0.0009497131686657667,1.8020079135894775,3.294280691737793,4.087668398211619e-11,0.1952609419822693,-1.6416309515582483,-3.217110861442052e-05,0.018241694197058678,0.8114165663719177,-0.00041868898551911116,-0.11385433375835419,0.7977128624916077,-0.00047810160322114825,-0.17564000189304352
314.0,358.0,7.3669,0.3954,5.3228,-0.0391,-0.1477,-0.1145,-1.7189585171141566,-0.18606242537498474,2.0911614894866943,-1.0085257291793823,0.0007513805758208036,1.7961885929107666,3.2942845064350585,7.42913645674552e-16,0.18803319334983826,-1.6416791121112269,-3.070754974032752e-05,0.016203783452510834,0.8113964796066284,-0.00042513388325460255,-0.11094354093074799,0.7977616190910339,-0.0005286678206175566,-0.22689181566238403
314.0,358.0,7.3669,0.3954,5.3228,-0.0391,-0.1477,-0.1145,-1.7204061947264613,-0.1789083629846573,2.0650253295898438,-1.0085734128952026,0.001691654440946877,1.7929632663726807,3.2942845064350585,-0.000468918529804796,0.19357725977897644,-1.6416948477374476,-4.981584424967878e-07,0.025507047772407532,0.8113852143287659,-0.0003597187460400164,-0.12184055894613266,0.7977496981620789,-0.0017314626602455974,-0.17343416810035706
314.0,358.0,7.3669,0.3954,5.3228,-0.0391,-0.1477,-0.1145,-1.72157682994985,-0.18676723539829254,2.132939577102661,-1.0085333585739136,0.0008029560558497906,1.7993698120117188,3.294281168574951,-0.00042857081280089915,0.1807447373867035,-1.641646687184469,-1.3866424675157418e-10,0.018987096846103668,0.8114086985588074,-0.000402105477405712,-0.10916763544082642,0.7977455854415894,-0.0013060069177299738,-0.19789054989814758
314.0,358.0,7.3669,0.3954,5.3228,-0.0391,-0.1477,-0.1145,-1.723097940484518,-0.19441385567188263,2.079319715499878,-1.0085573196411133,0.0003036950947716832,1.8035625219345093,3.2942158418842773,-0.00043354532681405544,0.18193171918392181,-1.6416671911822718,-2.5201538345596703e-15,0.015773553401231766,0.8113889694213867,-0.00048139775753952563,-0.10130083560943604,0.7977455854415894,-0.0016029467806220055,-0.19352993369102478
314.0,358.0,7.3669,0.3954,5.3228,-0.0391,-0.1477,-0.1145,-1.7245975933470667,-0.17964665591716766,2.0983545780181885,-1.0084893703460693,0.00015119822637643665,1.8022212982177734,3.2942845064350585,-0.00039416071376763284,0.18344902992248535,-1.641702953969137,-4.580254148070968e-20,0.027876269072294235,0.8113763928413391,-0.0006989748799242079,-0.12527905404567719,0.7976735830307007,-0.004135699011385441,-0.2268616259098053
314.0,358.0,7.3669,0.3954,5.3228,-0.0391,-0.1477,-0.1145,-1.7256676159300746,-0.16966181993484497,2.1529102325439453,-1.008509635925293,0.0001400943729095161,1.7844209671020508,3.2942725855061035,-0.00032343316706828773,0.1804591417312622,-1.6416671911822718,-1.2749304892917839e-23,0.02358737587928772,0.8113567233085632,-0.00151745043694973,-0.11128198355436325,0.7976696491241455,-0.006014190148562193,-0.2123839557170868
302.0,395.0,8.6237,0.2441,4.3023,-0.0612,-0.1071,-0.1107,-1.7270389995970667,-0.17776232957839966,2.1122756004333496,-1.0085731744766235,1.362082557854194e-09,1.7817797660827637,3.2942206102558593,-0.00034487879020161927,0.17042961716651917,-1.6417153517352503,-2.317122908761227e-28,0.029673125594854355,0.811320424079895,-0.009711328893899918,-0.11569653451442719,0.7976333498954773,-0.003923831973224878,-0.2398788183927536
302.0,395.0,8.6237,0.2441,4.3023,-0.0612,-0.1071,-0.1107,-1.7284251652159632,-0.1832798719406128,2.0464911460876465,-1.0085139274597168,-0.0010707738110795617,1.7998254299163818,3.2941805559345703,-0.0004260138375684619,0.16634532809257507,-1.641634766255514,-4.211256633620832e-33,0.033726952970027924,0.8112531900405884,-0.02002762258052826,-0.10800395905971527,0.7976378798484802,-0.0027396592777222395,-0.2505646347999573
302.0,395.0,8.6237,0.2441,4.3023,-0.0612,-0.1071,-0.1107,-1.729443212548727,-0.17592471837997437,2.1545796394348145,-1.0085453987121582,0.0003234788018744439,1.7402231693267822,3.2942606645771484,-0.0004128947330173105,0.16514542698860168,-1.6416266600238245,-1.1722187652151835e-36,0.036485739052295685,0.8111419081687927,-0.010520962998270988,-0.11712412536144257,0.7975733876228333,-0.003184002125635743,-0.18666157126426697
302.0,395.0,8.6237,0.2441,4.3023,-0.0612,-0.1071,-0.1107,-1.730790754357809,-0.16060596704483032,2.1188554763793945,-1.008538007736206,0.0014007249847054482,1.7175415754318237,3.294196768397949,-0.00044109142618253827,0.15603938698768616,-1.641646687184469,-2.1303940553130194e-41,0.0456661581993103,0.8110973834991455,-0.0005669996608048677,-0.1022481769323349,0.797549307346344,-0.0034579334314912558,-0.21973270177841187
302.0,395.0,8.6237,0.2441,4.3023,-0.0612,-0.1071,-0.1107,-1.7319942913451136,-0.1556999534368515,2.0930819511413574,-1.0085936784744263,0.0002164523903047666,1.7752773761749268,3.294196768397949,-0.00031677121296525,0.17198887467384338,-1.6416872183429163,-1.542566074874685e-09,0.0329059362411499,0.8111220002174377,-1.4651037716362225e-08,-0.08343090862035751,0.797533392906189,-0.002964217448607087,-0.22965943813323975
302.0,395.0,8.6237,0.2441,4.3023,-0.0612,-0.1071,-0.1107,-1.7329613171019496,-0.1590118408203125,2.062244176864624,-1.0085413455963135,2.9734021911309583e-09,1.720511794090271,3.2942163187214355,-0.0003067536454182118,0.16056807339191437,-1.641646687184469,0.00014704643399454653,0.04415195435285568,0.8111057877540588,-4.078169659610387e-12,-0.08844965696334839,0.7975334525108337,-0.002474553883075714,-0.21596482396125793
302.0,395.0,8.6237,0.2441,4.3023,-0.0612,-0.1071,-0.1107,-1.7342196903624476,-0.15830416977405548,2.0756845474243164,-1.0085692405700684,9.633445998955047e-17,1.6936497688293457,3.294196768397949,-0.00033796438947319984,0.1577756553888321,-1.6416228453265589,8.88910872163251e-05,0.033054158091545105,0.8111178278923035,-7.411871807698109e-17,-0.09230507910251617,0.7974812984466553,-0.0023716276045888662,-0.2613297998905182
302.0,395.0,8.6237,0.2441,4.3023,-0.0612,-0.1071,-0.1107,-1.7354113064207972,-0.15623220801353455,2.072890281677246,-1.0086215734481812,3.1211133803649603e-24,1.683450698852539,3.2942330080219726,-0.00033051069476641715,0.1531364619731903,-1.6416633764850062,6.369976472342387e-05,0.048623718321323395,0.8111298084259033,-7.44413846405223e-05,-0.10439617931842804,0.7974735498428345,-0.0034329285845160484,-0.2742072343826294
302.0,395.0,8.6237,0.2441,4.3023,-0.0612,-0.1071,-0.1107,-1.7363211117186488,-0.15513452887535095,2.0046093463897705,-1.0085856914520264,7.53712232346114e-30,1.6884100437164307,3.294200583095215,-0.0003184136876370758,0.15225857496261597,-1.6416509787188929,5.253775088931434e-05,0.04405299574136734,0.8110778331756592,-6.014543760102242e-05,-0.08973115682601929,0.797392725944519,-0.004473083186894655,-0.3146640658378601
302.0,395.0,8.6237,0.2441,4.3023,-0.0612,-0.1071,-0.1107,-1.73746981243276,-0.15268610417842865,2.0066654682159424,-1.0085493326187134,-0.00011285283835604787,1.7166900634765625,3.2942167955585937,-0.00027827476151287556,0.13163936138153076,-1.641634766255514,4.258945045876317e-05,0.04556138813495636,0.8111215829849243,-4.745447222376242e-05,-0.09434803575277328,0.7974213361740112,-0.0060590640641748905,-0.2953931987285614
302.0,395.0,8.6237,0.2441,4.3023,-0.0612,-0.1071,-0.1107,-1.738704343835348,-0.14576171338558197,2.0348076820373535,-1.0085413455963135,-3.7290825982694287e-10,1.6350330114364624,3.294228716487549,-0.00024100986775010824,0.14221186935901642,-1.641662899647848,7.161772373365238e-05,0.044299669563770294,0.8111539483070374,-3.918710717698559e-05,-0.09556075930595398,0.7973293662071228,-0.006965091917663813,-0.33988577127456665
302.0,395.0,8.6237,0.2441,4.3023,-0.0612,-0.1071,-0.1107,-1.73954500774526,-0.13779465854167938,2.0474672317504883,-1.0085852146148682,-9.005296423787506e-16,1.7114646434783936,3.2942449289509277,-0.00021901413856539875,0.13593968749046326,-1.6416953245746058,6.398087134584785e-05,0.041671108454465866,0.8111057281494141,-3.4658878576010466e-05,-0.09479101002216339,0.7972970604896545,-0.00656431308016181,-0.3200322389602661
305.0,378.0,7.8036,-0.0024,4.6032,-0.0336,-0.0631,-0.1182,-1.7406379185118617,-0.14075976610183716,1.9863882064819336,-1.008538007736206,-2.917601111326826e-23,1.703383207321167,3.29421250402417,-0.0001952542515937239,0.14002451300621033,-1.6416390577899378,5.6015658628894016e-05,0.0363350585103035,0.811062216758728,-3.0032080758246593e-05,-0.09657175838947296,0.7972733974456787,-0.005941806826740503,-0.33341073989868164
305.0,378.0,7.8036,-0.0024,4.6032,-0.0336,-0.0631,-0.1182,-1.7418085537352503,-0.14716018736362457,2.023758888244629,-1.0085852146148682,-9.452656948126088e-31,1.6430461406707764,3.2942282396503906,-0.00017614605894777924,0.13739550113677979,-1.6416671911822718,4.981423626304604e-05,0.02887115441262722,0.8111264705657959,-2.6495228667045012e-05,-0.11722972989082336,0.7972090244293213,-0.004774798639118671,-0.31169837713241577
