ramyac6/ROB537/final_project/csv/good/good_212.csv
tof_0,tof_1,accelx,accely,accelz,gyrox,gyroy,gyroz,shoulder_lift_joint_position,shoulder_lift_joint_velocity,shoulder_lift_joint_effort,elbow_joint_position,elbow_joint_velocity,elbow_joint_effort,wrist_1_joint_position,wrist_1_joint_velocity,wrist_1_joint_effort,wrist_2_joint_position,wrist_2_joint_velocity,wrist_2_joint_effort,wrist_3_joint_position,wrist_3_joint_velocity,wrist_3_joint_effort,shoulder_pan_joint_position,shoulder_pan_joint_velocity,shoulder_pan_joint_effort
133.0,192.0,6.0981,-2.8493,6.3978,-0.0293,0.0206,-0.1188,-2.0031644306578578,0.0,3.8779964447021484,-0.8657833933830261,-0.0,2.106916666030884,3.6429788309284667,0.0,0.26968294382095337,-1.2028844992267054,-0.0,-0.03800338879227638,0.7401039600372314,-0.0,-0.01544632762670517,1.44342041015625,0.0,-0.024487636983394623
133.0,192.0,6.0981,-2.8493,6.3978,-0.0293,0.0206,-0.1188,-2.003204961816305,0.0,3.885100841522217,-0.8657544851303101,-0.0,2.108665704727173,3.6429788309284667,0.0,0.25474387407302856,-1.2029207388507288,-0.0,-0.03497244790196419,0.7401241660118103,-0.0,-0.00881559494882822,1.4434407949447632,0.0,0.01904034987092018
133.0,192.0,6.0981,-2.8493,6.3978,-0.0293,0.0206,-0.1188,-2.0032245121397914,0.0,3.915086269378662,-0.8657187223434448,-0.0,2.0790646076202393,3.6429425913044433,0.0,0.2630215883255005,-1.202905003224508,-0.0,-0.032980743795633316,0.7400999665260315,-0.0,-0.007943502627313137,1.4433883428573608,0.0,0.04590030759572983
133.0,192.0,6.0981,-2.8493,6.3978,-0.0293,0.0206,-0.1188,-2.003228803674215,0.0,3.9132797718048096,-0.8657751083374023,-0.0,2.113150119781494,3.6429788309284667,0.0,0.2654035687446594,-1.2029369513141077,-0.0,-0.03888021782040596,0.740095853805542,-0.0,-0.008082679472863674,1.4434289932250977,0.0,-0.014148307032883167
133.0,192.0,6.0981,-2.8493,6.3978,-0.0293,0.0206,-0.1188,-2.0031849346556605,0.0,3.907071113586426,-0.865766704082489,-0.0,2.080068588256836,3.6429545122333984,0.0,0.25873667001724243,-1.2029088179217737,-0.0,-0.04473971575498581,0.7401039600372314,-0.0,-0.009882232174277306,1.4434326887130737,0.0,0.006958479527384043
133.0,192.0,6.0981,-2.8493,6.3978,-0.0293,0.0206,-0.1188,-2.003172536889547,0.0,3.9135403633117676,-0.8657544851303101,-0.0,2.1279079914093018,3.6429425913044433,0.0,0.2579769492149353,-1.2029126326190394,-0.0,-0.030339941382408142,0.7400758266448975,-0.0,-0.008437581360340118,1.4433883428573608,0.0,0.020151440054178238
133.0,192.0,6.0981,-2.8493,6.3978,-0.0293,0.0206,-0.1188,-2.003204484979147,0.0,3.8850669860839844,-0.8657792806625366,-0.0,2.095168113708496,3.6429502206989746,0.0,0.26059308648109436,-1.2028926054583948,-0.0,-0.02396164834499359,0.7401158809661865,-0.0,-0.007431037724018097,1.4434608221054077,0.0,0.026153631508350372
135.0,186.0,6.3751,-2.802,6.0293,-0.0348,0.0267,-0.1263,-2.003160615960592,0.0,3.934807300567627,-0.8657667636871338,-0.0,2.1218268871307373,3.6429263788410644,0.0,0.2569739818572998,-1.2028639952289026,-0.0,-0.024496683850884438,0.7401039600372314,-0.0,0.0037048612721264362,1.4434244632720947,0.0,0.005826258100569248
135.0,186.0,6.3751,-2.802,6.0293,-0.0348,0.0267,-0.1263,-2.003176828423971,0.0,3.902740478515625,-0.8658232092857361,-0.0,2.118675470352173,3.642934485072754,0.0,0.2508469820022583,-1.2029245535479944,-0.0,-0.03776334971189499,0.7401764988899231,-0.0,-0.006010028999298811,1.4434444904327393,0.0,-0.014497657306492329
135.0,186.0,6.3751,-2.802,6.0293,-0.0348,0.0267,-0.1263,-2.0031801662840785,0.0,3.894327163696289,-0.8657709360122681,-0.0,2.1230390071868896,3.6429664331623535,0.0,0.25493013858795166,-1.2029007116900843,-0.0,-0.03606605529785156,0.7401081323623657,-0.0,-0.0008103955769911408,1.4433965682983398,0.0,-0.011070875450968742
135.0,186.0,6.3751,-2.802,6.0293,-0.0348,0.0267,-0.1263,-2.0032125912108363,0.0,3.902085065841675,-0.8657104969024658,-0.0,2.096761703491211,3.642906828517578,0.0,0.2564610540866852,-1.2028682867633265,-0.0,-0.029362084344029427,0.7400594353675842,-0.0,-0.00285826763138175,1.4433844089508057,0.0,0.01697387360036373
135.0,186.0,6.3751,-2.802,6.0293,-0.0348,0.0267,-0.1263,-2.003244539300436,0.0,3.8911008834838867,-0.8657627701759338,-0.0,2.104675769805908,3.6429788309284667,0.0,0.25533604621887207,-1.2029207388507288,-0.0,-0.043176379054784775,0.7401561141014099,-0.0,-0.0022473486606031656,1.4434125423431396,0.0,0.011092355474829674
135.0,186.0,6.3751,-2.802,6.0293,-0.0348,0.0267,-0.1263,-2.0031644306578578,0.0,3.9254961013793945,-0.8657627105712891,-0.0,2.120037078857422,3.6429263788410644,0.0,0.26687946915626526,-1.2029007116900843,-0.0,-0.03703171759843826,0.7400798797607422,-0.0,-0.008370805531740189,1.443408489227295,0.0,0.03257536515593529
135.0,186.0,6.3751,-2.802,6.0293,-0.0348,0.0267,-0.1263,-2.003200670281881,0.0,3.960787773132324,-0.8657146692276001,-0.0,2.0738344192504883,3.6429306703754882,0.0,0.2667776942253113,-1.202905003224508,-0.0,-0.044705361127853394,0.7401241660118103,-0.0,-0.0046709454618394375,1.443408489227295,0.0,0.012043029069900513
135.0,186.0,6.3751,-2.802,6.0293,-0.0348,0.0267,-0.1263,-2.0031968555846156,0.0,3.904613971710205,-0.8657307028770447,-0.0,2.0608906745910645,3.6429149347492675,0.0,0.25410380959510803,-1.2028887907611292,-0.0,-0.030132995918393135,0.7400917410850525,-0.0,-0.006731892470270395,1.4433965682983398,0.0,0.019546907395124435
135.0,186.0,6.3751,-2.802,6.0293,-0.0348,0.0267,-0.1263,-2.003160615960592,0.0,3.916447639465332,-0.8657792806625366,-0.0,2.082005023956299,3.6429306703754882,0.0,0.278822660446167,-1.2028964201556605,-0.0,-0.030860770493745804,0.7400918006896973,-0.0,0.001473817741498351,1.443408489227295,0.0,-0.019484015181660652
135.0,186.0,6.3751,-2.802,6.0293,-0.0348,0.0267,-0.1263,-2.0031730137267054,0.0,3.921327590942383,-0.8657187819480896,-0.0,2.122262716293335,3.6429502206989746,0.0,0.2534896731376648,-1.2029007116900843,-0.0,-0.03009568527340889,0.740111768245697,-0.0,-0.003050396218895912,1.4434125423431396,0.0,-0.015882372856140137
135.0,186.0,6.3751,-2.802,6.0293,-0.0348,0.0267,-0.1263,-2.0031563244261683,0.0,3.951625347137451,-0.8657384514808655,-0.0,2.1123316287994385,3.6429664331623535,0.0,0.25211137533187866,-1.2028964201556605,-0.0,-0.028912287205457687,0.7400839924812317,-0.0,-0.013255121186375618,1.443408489227295,0.0,-0.020995473489165306
135.0,186.0,6.3751,-2.802,6.0293,-0.0348,0.0267,-0.1263,-2.0031968555846156,0.0,3.8443140983581543,-0.865811288356781,-0.0,2.11673903465271,3.642958326930664,0.0,0.253264456987381,-1.2028964201556605,-0.0,-0.02752530947327614,0.7400835156440735,-0.0,-0.00479255523532629,1.443408489227295,0.0,-0.04124755412340164
135.0,186.0,6.3751,-2.802,6.0293,-0.0348,0.0267,-0.1263,-2.003172536889547,0.0,3.924058675765991,-0.8657302260398865,-0.0,2.1132779121398926,3.6429306703754882,0.0,0.2624635696411133,-1.202893082295553,-0.0,-0.03280727565288544,0.7401958107948303,-0.0,-0.0036229430697858334,1.443408489227295,0.0,-0.03938457369804382
131.0,188.0,6.2291,-2.8289,6.2028,-0.0336,0.029,-0.1231,-2.0031806431212367,0.0,3.848088264465332,-0.8657667636871338,-0.0,2.1584601402282715,3.6429664331623535,0.0,0.26013362407684326,-1.202905003224508,-0.0,-0.03061411902308464,0.740108072757721,-0.0,-0.004294090438634157,1.4434285163879395,0.0,-0.017432909458875656
131.0,188.0,6.2291,-2.8289,6.2028,-0.0336,0.029,-0.1231,-2.003160615960592,0.0,3.8937981128692627,-0.8657467365264893,-0.0,2.091887950897217,3.6429826456257324,0.0,0.25859954953193665,-1.2029488722430628,-0.0,-0.029828857630491257,0.7400716543197632,-0.0,-0.008446620777249336,1.443360686302185,0.0,-0.026197362691164017
131.0,188.0,6.2291,-2.8289,6.2028,-0.0336,0.029,-0.1231,-2.003160615960592,0.0,3.916141986846924,-0.8657265305519104,-0.0,2.1219708919525146,3.6429621416279296,0.0,0.2612500786781311,-1.2028682867633265,-0.0,-0.0391840860247612,0.740108072757721,-0.0,-0.00041783356573432684,1.4434444904327393,0.0,-0.05704348534345627
131.0,188.0,6.2291,-2.8289,6.2028,-0.0336,0.029,-0.1231,-2.0031849346556605,0.0,3.932173252105713,-0.8657627105712891,-0.0,2.077420711517334,3.642922564143799,0.0,0.26907452940940857,-1.2028887907611292,-0.0,-0.032803863286972046,0.7401437759399414,-0.0,-0.01006271131336689,1.443408489227295,0.0,-0.014435525983572006
131.0,188.0,6.2291,-2.8289,6.2028,-0.0336,0.029,-0.1231,-2.0031644306578578,0.0,3.865241050720215,-0.8657833337783813,-0.0,2.119351387023926,3.6429306703754882,0.0,0.26308098435401917,-1.202905003224508,-0.0,-0.034874770790338516,0.7400917410850525,-0.0,0.0014049464371055365,1.4434007406234741,0.0,-0.015615963377058506
131.0,188.0,6.2291,-2.8289,6.2028,-0.0336,0.029,-0.1231,-2.0031806431212367,0.0,3.8825058937072754,-0.8658154606819153,-0.0,2.0954601764678955,3.642974539394043,0.0,0.26438769698143005,-1.2029450575457972,-0.0,-0.03881746903061867,0.7401195764541626,-0.0,-0.005654758773744106,1.4434404373168945,0.0,-0.02098812349140644
131.0,188.0,6.2291,-2.8289,6.2028,-0.0336,0.029,-0.1231,-2.003200670281881,0.0,3.914395809173584,-0.8657792806625366,-0.0,2.1193835735321045,3.642946406001709,0.0,0.2588222026824951,-1.2029007116900843,-0.0,-0.027042239904403687,0.7401441931724548,-0.0,-0.00804955419152975,1.443380355834961,0.0,-0.0493287555873394
131.0,188.0,6.2291,-2.8289,6.2028,-0.0336,0.029,-0.1231,-2.003172536889547,0.0,3.9017562866210938,-0.8657627105712891,-0.0,2.1107494831085205,3.6429621416279296,0.0,0.25621113181114197,-1.2028401533709925,-0.0,-0.03712759539484978,0.7401039600372314,-0.0,0.006841463502496481,1.4433361291885376,0.0,-0.04586975276470184
131.0,188.0,6.2291,-2.8289,6.2028,-0.0336,0.029,-0.1231,-2.0031644306578578,0.0,3.923356056213379,-0.8657833933830261,-0.0,2.0511021614074707,3.6429826456257324,0.0,0.2626078128814697,-1.2028964201556605,-0.0,-0.029443155974149704,0.7401081323623657,-0.0,-0.0015063403407111764,1.4434363842010498,0.0,-0.033438678830862045
131.0,188.0,6.2291,-2.8289,6.2028,-0.0336,0.029,-0.1231,-2.0031644306578578,0.0,3.955883026123047,-0.8657708764076233,-0.0,2.107100009918213,3.642958326930664,0.0,0.2582912743091583,-1.2028964201556605,-0.0,-0.03158263862133026,0.7401318550109863,-0.0,0.002607849659398198,1.443464994430542,0.0,-0.01789306476712227
131.0,188.0,6.2291,-2.8289,6.2028,-0.0336,0.029,-0.1231,-2.003204484979147,0.0,3.910587787628174,-0.8657347559928894,-0.0,2.1318233013153076,3.642918749446533,0.0,0.2584397494792938,-1.2029245535479944,-0.0,-0.03523466736078262,0.7401642799377441,-0.0,-0.007426212541759014,1.4433802366256714,0.0,0.017569009214639664
131.0,188.0,6.2291,-2.8289,6.2028,-0.0336,0.029,-0.1231,-2.0032087765135707,0.0,3.880422592163086,-0.865750789642334,-0.0,2.07535457611084,3.64295403539624,0.0,0.2612694501876831,-1.2028844992267054,-0.0,-0.02407197281718254,0.7400794625282288,-0.0,0.0021678651683032513,1.4433724880218506,0.0,-0.023806501179933548
131.0,188.0,6.2291,-2.8289,6.2028,-0.0336,0.029,-0.1231,-2.0032245121397914,0.0,3.9820730686187744,-0.8657589554786682,-0.0,2.1109354496002197,3.642946406001709,0.0,0.2568873465061188,-1.202876392995016,-0.0,-0.035859569907188416,0.7400999069213867,-0.0,-0.005654745735228062,1.4433962106704712,0.0,0.037875816226005554
135.0,189.0,6.3003,-2.7966,6.1226,-0.0379,0.0211,-0.1191,-2.0031968555846156,0.0,3.969208240509033,-0.8658075332641602,-0.0,2.100546360015869,3.6429382997700195,0.0,0.25984635949134827,-1.2028806845294397,-0.0,-0.029089152812957764,0.740071713924408,-0.0,-0.000923888583201915,1.443416714668274,0.0,0.009374262765049934
135.0,189.0,6.3003,-2.7966,6.1226,-0.0379,0.0211,-0.1191,-2.003176351586813,0.0,3.8936538696289062,-0.8658113479614258,-0.0,2.133638858795166,3.6429263788410644,0.0,0.26332390308380127,-1.202905003224508,-0.0,-0.03782506287097931,0.7401723265647888,-0.0,-0.008348281495273113,1.443408489227295,0.0,0.0292478296905756
135.0,189.0,6.3003,-2.7966,6.1226,-0.0379,0.0211,-0.1191,-2.0031844578185023,0.0,3.9069113731384277,-0.8657183051109314,-0.0,2.1210131645202637,3.642946406001709,0.0,0.25886982679367065,-1.2029126326190394,-0.0,-0.03685940429568291,0.7400999069213867,-0.0,-0.008539462462067604,1.4434007406234741,0.0,0.014227326959371567
135.0,189.0,6.3003,-2.7966,6.1226,-0.0379,0.0211,-0.1191,-2.003160615960592,0.0,3.896620273590088,-0.8657425045967102,-0.0,2.093451738357544,3.642946406001709,0.0,0.265388548374176,-1.2029088179217737,-0.0,-0.048638101667165756,0.7400916814804077,-0.0,-0.0165458582341671,1.443372130393982,0.0,0.03302154690027237
135.0,189.0,6.3003,-2.7966,6.1226,-0.0379,0.0211,-0.1191,-2.0031968555846156,0.0,3.8996896743774414,-0.8657307028770447,-0.0,2.0891008377075195,3.642918749446533,0.0,0.25054383277893066,-1.202888313923971,-0.0,-0.02907995507121086,0.7400794625282288,-0.0,-0.008615527302026749,1.4434367418289185,0.0,-0.0015166820958256721
135.0,189.0,6.3003,-2.7966,6.1226,-0.0379,0.0211,-0.1191,-2.0031687221922816,0.0,3.968120574951172,-0.8658071160316467,-0.0,2.1014912128448486,3.6429902750202636,0.0,0.25564470887184143,-1.2028887907611292,-0.0,-0.028995312750339508,0.7400835156440735,-0.0,-0.003604787401854992,1.4433602094650269,0.0,-0.039558738470077515
135.0,189.0,6.3003,-2.7966,6.1226,-0.0379,0.0211,-0.1191,-2.0031925640501917,0.0,3.921020746231079,-0.8657627105712891,-0.0,2.104487419128418,3.6429502206989746,0.0,0.26475512981414795,-1.2029126326190394,-0.0,-0.04487081989645958,0.7401241660118103,-0.0,-0.006001302041113377,1.443416714668274,0.0,0.019033988937735558
135.0,189.0,6.3003,-2.7966,6.1226,-0.0379,0.0211,-0.1191,-2.003188272515768,0.0,3.8975043296813965,-0.8657627105712891,-0.0,2.146958827972412,3.6429902750202636,0.0,0.2576642632484436,-1.202876392995016,-0.0,-0.035780906677246094,0.7400594353675842,-0.0,-0.004604840651154518,1.4433925151824951,0.0,-0.022518452256917953
135.0,189.0,6.3003,-2.7966,6.1226,-0.0379,0.0211,-0.1191,-2.003176351586813,0.0,3.90458345413208,-0.8657307028770447,-0.0,2.118350028991699,3.6428987222858886,0.0,0.2664263844490051,-1.2029007116900843,-0.0,-0.041270364075899124,0.7401318550109863,-0.0,-0.01277635432779789,1.44342041015625,0.0,-0.012707334943115711
135.0,189.0,6.3003,-2.7966,6.1226,-0.0379,0.0211,-0.1191,-2.0031806431212367,0.0,3.905555248260498,-0.8657953143119812,-0.0,2.145883560180664,3.6429545122333984,0.0,0.26635390520095825,-1.2029369513141077,-0.0,-0.03190789371728897,0.7400835752487183,-0.0,-0.0007640032563358545,1.4433965682983398,0.0,-0.02610866166651249
135.0,189.0,6.3003,-2.7966,6.1226,-0.0379,0.0211,-0.1191,-2.003188749352926,0.0,3.888864517211914,-0.8656866550445557,-0.0,2.065574884414673,3.6429425913044433,0.0,0.2789846658706665,-1.2029126326190394,-0.0,-0.03013692796230316,0.7401158809661865,-0.0,-0.0075568328611552715,1.4433884620666504,0.0,0.03565125912427902
135.0,189.0,6.3003,-2.7966,6.1226,-0.0379,0.0211,-0.1191,-2.003188272515768,0.0,3.9143152236938477,-0.8657021522521973,-0.0,2.127626419067383,3.642922564143799,0.0,0.26299968361854553,-1.2028887907611292,-0.0,-0.0434599369764328,0.7401359677314758,-0.0,0.006684944964945316,1.443408489227295,0.0,-0.05105533450841904
135.0,189.0,6.3003,-2.7966,6.1226,-0.0379,0.0211,-0.1191,-2.003160615960592,0.0,3.855271339416504,-0.8657749891281128,-0.0,2.1260969638824463,3.642997904414795,0.0,0.27146679162979126,-1.2029007116900843,-0.0,-0.026398371905088425,0.7401158809661865,-0.0,-0.01398960966616869,1.443408489227295,0.0,-0.006616284139454365
132.0,196.0,6.1783,-2.857,6.2279,-0.0391,0.0186,-0.1216,-2.0031687221922816,0.0,3.919200897216797,-0.8657870888710022,-0.0,2.0717241764068604,3.642970247859619,0.0,0.2631751298904419,-1.2029088179217737,-0.0,-0.030515793710947037,0.740063488483429,-0.0,-0.0016211841721087694,1.4433962106704712,0.0,-0.019305139780044556
132.0,196.0,6.1783,-2.857,6.2279,-0.0391,0.0186,-0.1216,-2.0032087765135707,0.0,3.9228878021240234,-0.8657585382461548,-0.0,2.161452293395996,3.64298598348584,0.0,0.2652111351490021,-1.202905003224508,-0.0,-0.034312181174755096,0.740075409412384,-0.0,-0.019145328551530838,1.4434289932250977,0.0,-0.012042613700032234
132.0,196.0,6.1783,-2.857,6.2279,-0.0391,0.0186,-0.1216,-2.0032087765135707,0.0,3.88397216796875,-0.8657544255256653,-0.0,2.119121551513672,3.6429788309284667,0.0,0.2664823532104492,-1.2029250303851526,-0.0,-0.03989797458052635,0.7401162981987,-0.0,-0.005080136936157942,1.4433724880218506,0.0,0.01751004159450531
132.0,196.0,6.1783,-2.857,6.2279,-0.0391,0.0186,-0.1216,-2.003188272515768,0.0,3.917877674102783,-0.8657989501953125,-0.0,2.0944409370422363,3.6429306703754882,0.0,0.2554866075515747,-1.2029369513141077,-0.0,-0.02916756458580494,0.7401322722434998,-0.0,-0.010005304589867592,1.443408489227295,0.0,0.013245162554085255
132.0,196.0,6.1783,-2.857,6.2279,-0.0391,0.0186,-0.1216,-2.00321688274526,0.0,3.91616153717041,-0.8657751679420471,-0.0,2.160061836242676,3.6429621416279296,0.0,0.2683801054954529,-1.2029007116900843,-0.0,-0.03257278725504875,0.7401039600372314,-0.0,0.0002826675772666931,1.4434367418289185,0.0,-0.024325480684638023
132.0,196.0,6.1783,-2.857,6.2279,-0.0391,0.0186,-0.1216,-2.0031968555846156,0.0,3.8898229598999023,-0.8657104969024658,-0.0,2.103239059448242,3.642918749446533,0.0,0.26723021268844604,-1.2028844992267054,-0.0,-0.036344464868307114,0.7401039600372314,-0.0,-0.01239097211509943,1.4434007406234741,0.0,-0.0062370505183935165
132.0,196.0,6.1783,-2.857,6.2279,-0.0391,0.0186,-0.1216,-2.003143926660055,0.0,3.924363613128662,-0.8657829761505127,-0.0,2.1062371730804443,3.6429826456257324,0.0,0.27096936106681824,-1.202848259602682,-0.0,-0.032088831067085266,0.7400916814804077,-0.0,8.358201012015343e-05,1.4434047937393188,0.0,0.010689137503504753
132.0,196.0,6.1783,-2.857,6.2279,-0.0391,0.0186,-0.1216,-2.0031925640501917,0.0,3.9181036949157715,-0.8657911419868469,-0.0,2.100088119506836,3.642958326930664,0.0,0.2595355808734894,-1.2029169241534632,-0.0,-0.04471389949321747,0.7400475144386292,-0.0,-0.009048123843967915,1.4434125423431396,0.0,0.009633935987949371
132.0,196.0,6.1783,-2.857,6.2279,-0.0391,0.0186,-0.1216,-2.003204961816305,0.0,3.8782641887664795,-0.8657627105712891,-0.0,2.1425461769104004,3.6428987222858886,0.0,0.256916880607605,-1.2029007116900843,-0.0,-0.029137134552001953,0.7400794625282288,-0.0,-0.012788167223334312,1.4434047937393188,0.0,-0.018566301092505455
132.0,196.0,6.1783,-2.857,6.2279,-0.0391,0.0186,-0.1216,-2.0031968555846156,0.0,3.8827195167541504,-0.8657544255256653,-0.0,2.0704352855682373,3.6429382997700195,0.0,0.25221967697143555,-1.2028844992267054,-0.0,-0.040796924382448196,0.7401039600372314,-0.0,-0.016860829666256905,1.4433761835098267,0.0,0.0049406238831579685
132.0,196.0,6.1783,-2.857,6.2279,-0.0391,0.0186,-0.1216,-2.0032087765135707,0.0,3.9317331314086914,-0.865811824798584,-0.0,2.0999839305877686,3.6429382997700195,0.0,0.26144686341285706,-1.202888313923971,-0.0,-0.023177489638328552,0.7401884198188782,-0.0,8.517317473888397e-05,1.443408489227295,0.0,-0.0030985637567937374
132.0,196.0,6.1783,-2.857,6.2279,-0.0391,0.0186,-0.1216,-2.0032125912108363,0.0,3.8984670639038086,-0.8658195734024048,-0.0,2.156075954437256,3.6429425913044433,0.0,0.25610631704330444,-1.202905003224508,-0.0,-0.028086597099900246,0.7401765584945679,-0.0,-0.005784076172858477,1.4433761835098267,0.0,0.011061359196901321
132.0,196.0,6.1783,-2.857,6.2279,-0.0391,0.0186,-0.1216,-2.0031687221922816,0.0,3.9083404541015625,-0.8657627105712891,-0.0,2.0927748680114746,3.6429502206989746,0.0,0.23386240005493164,-1.202876392995016,-0.0,-0.029675327241420746,0.7401199340820312,-0.0,-0.010441518388688564,1.4434007406234741,0.0,-0.030487746000289917
135.0,195.0,6.2931,-2.8241,6.1466,-0.0224,0.0212,-0.121,-2.0032125912108363,0.0,3.9181110858917236,-0.8657792806625366,-0.0,2.116015911102295,3.6429382997700195,0.0,0.2610734701156616,-1.2029169241534632,-0.0,-0.03513796627521515,0.7401318550109863,-0.0,0.0031444744672626257,1.4433965682983398,0.0,-0.009200792759656906
135.0,195.0,6.2931,-2.8241,6.1466,-0.0224,0.0212,-0.121,-2.0031806431212367,0.0,3.8907408714294434,-0.8657751083374023,-0.0,2.0828065872192383,3.64298598348584,0.0,0.26508697867393494,-1.2028887907611292,-0.0,-0.03879433870315552,0.7401121854782104,-0.0,-0.003609946696087718,1.4434125423431396,0.0,-0.01941470056772232
135.0,195.0,6.2931,-2.8241,6.1466,-0.0224,0.0212,-0.121,-2.003200670281881,0.0,3.8943488597869873,-0.8657384514808655,-0.0,2.086355447769165,3.6429502206989746,0.0,0.27276280522346497,-1.2028964201556605,-0.0,-0.04438290372490883,0.7400917410850525,-0.0,-0.01076440792530775,1.4434444904327393,0.0,0.013464037328958511
135.0,195.0,6.2931,-2.8241,6.1466,-0.0224,0.0212,-0.121,-2.003176351586813,0.0,3.92966890335083,-0.8657351732254028,-0.0,2.0992159843444824,3.642974539394043,0.0,0.25632497668266296,-1.2029007116900843,-0.0,-0.03968276455998421,0.7400957942008972,-0.0,-0.006854276638478041,1.4433802366256714,0.0,-0.01153294276446104
135.0,195.0,6.2931,-2.8241,6.1466,-0.0224,0.0212,-0.121,-2.0031563244261683,0.0,3.915761947631836,-0.8658034801483154,-0.0,2.1239213943481445,3.6429502206989746,0.0,0.2687474489212036,-1.202893082295553,-0.0,-0.03125900775194168,0.7400515675544739,-0.0,-0.002297930419445038,1.4434244632720947,0.0,-0.0018355809152126312
135.0,195.0,6.2931,-2.8241,6.1466,-0.0224,0.0212,-0.121,-2.0032082996764125,0.0,3.9322099685668945,-0.8657503128051758,-0.0,2.1097750663757324,3.6430060106464843,0.0,0.2573927640914917,-1.2029007116900843,-0.0,-0.030520141124725342,0.7401158809661865,-0.0,0.00023681443417444825,1.443416714668274,0.0,0.025224443525075912
135.0,195.0,6.2931,-2.8241,6.1466,-0.0224,0.0212,-0.121,-2.003209253350729,0.0,3.8997039794921875,-0.865750789642334,-0.0,2.102992057800293,3.6429545122333984,0.0,0.26182231307029724,-1.2028844992267054,-0.0,-0.034063469618558884,0.7401441931724548,-0.0,-0.002491061808541417,1.4433844089508057,0.0,-0.021017590537667274
135.0,195.0,6.2931,-2.8241,6.1466,-0.0224,0.0212,-0.121,-2.003228803674215,0.0,3.884003162384033,-0.8657306432723999,-0.0,2.0844829082489014,3.642890616054199,0.0,0.2717912197113037,-1.2029207388507288,-0.0,-0.0361412838101387,0.7401682734489441,-0.0,-0.002692288486286998,1.4434126615524292,0.0,-0.017700009047985077
135.0,195.0,6.2931,-2.8241,6.1466,-0.0224,0.0212,-0.121,-2.0031849346556605,0.0,3.946977138519287,-0.8657792806625366,-0.0,2.119361400604248,3.643010302180908,0.0,0.26338547468185425,-1.2029083410846155,-0.0,-0.03438911214470863,0.740128219127655,-0.0,-0.00835178792476654,1.4433965682983398,0.0,0.035300932824611664
135.0,195.0,6.2931,-2.8241,6.1466,-0.0224,0.0212,-0.121,-2.003200670281881,0.0,3.939162492752075,-0.8657388687133789,-0.0,2.0981390476226807,3.6429940897175292,0.0,0.26440703868865967,-1.2029407660113733,-0.0,-0.03178901597857475,0.7401199340820312,-0.0,-0.004069557413458824,1.4433761835098267,0.0,0.003786659799516201
135.0,195.0,6.2931,-2.8241,6.1466,-0.0224,0.0212,-0.121,-2.0031806431212367,0.0,3.9098196029663086,-0.8657627105712891,-0.0,2.1175284385681152,3.6429106432148437,0.0,0.2649698853492737,-1.202905003224508,-0.0,-0.03863681107759476,0.7400758266448975,-0.0,-0.0026888998690992594,1.4433602094650269,0.0,0.006785162258893251
135.0,195.0,6.2931,-2.8241,6.1466,-0.0224,0.0212,-0.121,-2.0031806431212367,0.0,3.893954277038574,-0.8657751083374023,-0.0,2.113438844680786,3.6429707246967773,0.0,0.25776606798171997,-1.2029126326190394,-0.0,-0.02248983643949032,0.7401359677314758,-0.0,-0.0053267572075128555,1.44342041015625,0.0,0.05052042007446289
135.0,195.0,6.2931,-2.8241,6.1466,-0.0224,0.0212,-0.121,-2.003204961816305,0.0,3.8670828342437744,-0.8657874464988708,-0.0,2.11793851852417,3.6429382997700195,0.0,0.26315969228744507,-1.2029169241534632,-0.0,-0.03508628159761429,0.7401519417762756,-0.0,0.0012108265655115247,1.4434208869934082,0.0,-0.012239444069564342
134.0,192.0,6.1986,-2.8648,6.1741,-0.0333,0.0267,-0.1211,-2.0031925640501917,0.0,3.923745632171631,-0.8657627105712891,-0.0,2.1157987117767334,3.642975016231201,0.0,0.2614385187625885,-1.2028682867633265,-0.0,-0.04904688149690628,0.7401318550109863,-0.0,-0.012651260010898113,1.4433761835098267,0.0,0.016434939578175545
134.0,192.0,6.1986,-2.8648,6.1741,-0.0333,0.0267,-0.1211,-2.003176351586813,0.0,3.9493322372436523,-0.8657792806625366,-0.0,2.1490025520324707,3.64295403539624,0.0,0.25911569595336914,-1.2029369513141077,-0.0,-0.04088751971721649,0.740087628364563,-0.0,-0.007641044910997152,1.4434088468551636,0.0,0.07098445296287537
134.0,192.0,6.1986,-2.8648,6.1741,-0.0333,0.0267,-0.1211,-2.0032245121397914,0.0,3.8974692821502686,-0.8657224774360657,-0.0,2.138949394226074,3.6429664331623535,0.0,0.2646483778953552,-1.2028926054583948,-0.0,-0.035621143877506256,0.7401039600372314,-0.0,-0.002815778600051999,1.4434363842010498,0.0,-0.020164020359516144
134.0,192.0,6.1986,-2.8648,6.1741,-0.0333,0.0267,-0.1211,-2.003188749352926,0.0,3.934839963912964,-0.8657549023628235,-0.0,2.130950450897217,3.6429382997700195,0.0,0.2645418643951416,-1.202888313923971,-0.0,-0.036380551755428314,0.7401478886604309,-0.0,0.006028897128999233,1.4433602094650269,0.0,-0.00842711329460144
134.0,192.0,6.1986,-2.8648,6.1741,-0.0333,0.0267,-0.1211,-2.0031925640501917,0.0,3.9292736053466797,-0.865742564201355,-0.0,2.1240556240081787,3.6429788309284667,0.0,0.26456502079963684,-1.2029169241534632,-0.0,-0.030656956136226654,0.7401158809661865,-0.0,-0.0026011434383690357,1.4433561563491821,0.0,-0.014735657721757889
134.0,192.0,6.1986,-2.8648,6.1741,-0.0333,0.0267,-0.1211,-2.003200670281881,0.0,3.902893304824829,-0.8657667636871338,-0.0,2.1073966026306152,3.642922564143799,0.0,0.2726457417011261,-1.2029526869403284,-0.0,-0.04244120791554451,0.7401397228240967,-0.0,-0.0022073707077652216,1.443416714668274,0.0,-0.004618440754711628
134.0,192.0,6.1986,-2.8648,6.1741,-0.0333,0.0267,-0.1211,-2.0032125912108363,0.0,3.8670125007629395,-0.8657751083374023,-0.0,2.109149932861328,3.642975016231201,0.0,0.2679324150085449,-1.2028520742999476,-0.0,-0.038633815944194794,0.7400676012039185,-0.0,-0.005491531454026699,1.4434007406234741,0.0,0.010500220581889153
134.0,192.0,6.1986,-2.8648,6.1741,-0.0333,0.0267,-0.1211,-2.003200670281881,0.0,3.911437511444092,-0.8657749891281128,-0.0,2.110025405883789,3.642946406001709,0.0,0.26483088731765747,-1.2029007116900843,-0.0,-0.038337819278240204,0.740128219127655,-0.0,-0.006799660157412291,1.4433761835098267,0.0,-0.005162459798157215
134.0,192.0,6.1986,-2.8648,6.1741,-0.0333,0.0267,-0.1211,-2.003176351586813,0.0,3.9420883655548096,-0.8657829165458679,-0.0,2.119375467300415,3.64295403539624,0.0,0.26966628432273865,-1.202848259602682,-0.0,-0.045229651033878326,0.7400999069213867,-0.0,-0.0014464386040344834,1.4434244632720947,0.0,-0.0022519866470247507
134.0,192.0,6.1986,-2.8648,6.1741,-0.0333,0.0267,-0.1211,-2.003228803674215,0.0,3.9294192790985107,-0.865750789642334,-0.0,2.1178951263427734,3.642975016231201,0.0,0.2727500796318054,-1.2029007116900843,-0.0,-0.035816315561532974,0.7401281595230103,-0.0,-0.009054798632860184,1.4434207677841187,0.0,-0.006099153775721788
134.0,192.0,6.1986,-2.8648,6.1741,-0.0333,0.0267,-0.1211,-2.003160615960592,0.0,3.9126181602478027,-0.8657429218292236,-0.0,2.1144042015075684,3.642934485072754,0.0,0.2618667185306549,-1.202876392995016,-0.0,-0.035428643226623535,0.7400635480880737,-0.0,-0.007788875140249729,1.4433401823043823,0.0,0.07688243687152863
134.0,192.0,6.1986,-2.8648,6.1741,-0.0333,0.0267,-0.1211,-2.0031806431212367,0.0,3.8961434364318848,-0.8657187223434448,-0.0,2.0661587715148926,3.6429621416279296,0.0,0.2593885660171509,-1.2029245535479944,-0.0,-0.03003552556037903,0.7401036024093628,-0.0,-0.0002666442305780947,1.443408489227295,0.0,-0.013430299237370491
134.0,192.0,6.1986,-2.8648,6.1741,-0.0333,0.0267,-0.1211,-2.0031401119627894,0.0,3.9351067543029785,-0.8657667636871338,-0.0,2.0931077003479004,3.642958803767822,0.0,0.25977686047554016,-1.2029488722430628,-0.0,-0.02951890416443348,0.7401118278503418,-0.0,-0.010634216479957104,1.44342041015625,0.0,-0.0006207244005054235
137.0,185.0,6.1771,-2.817,6.3147,-0.0446,0.0237,-0.1228,-2.0031644306578578,0.0,3.9585561752319336,-0.8657870292663574,-0.0,2.1735196113586426,3.642946406001709,4.841581358050462e-09,0.2626022696495056,-1.2028926054583948,-0.0,-0.035066157579422,0.7401155233383179,-0.0,-0.00661027617752552,1.4434363842010498,0.0,0.017113255336880684
137.0,185.0,6.1771,-2.817,6.3147,-0.0446,0.0237,-0.1228,-2.0031806431212367,0.0,3.906928539276123,-0.8657346963882446,-0.0,2.119323253631592,3.6429940897175292,1.3476719740168619e-12,0.2642470896244049,-1.202944580708639,-0.0,-0.02930481731891632,0.7401118278503418,-0.0,-0.003721370128914714,1.4434244632720947,0.0,0.045683667063713074
137.0,185.0,6.1771,-2.817,6.3147,-0.0446,0.0237,-0.1228,-2.0031563244261683,0.0,3.929673433303833,-0.865750789642334,-0.0,2.1155271530151367,3.6429788309284667,2.4493269578309603e-17,0.2565220594406128,-1.2029402891742151,-0.0,-0.03089318983256817,0.7400999069213867,-0.0,-0.014425057917833328,1.443432331085205,0.0,0.028898920863866806
137.0,185.0,6.1771,-2.817,6.3147,-0.0446,0.0237,-0.1228,-2.0031401119627894,0.0,3.919887065887451,-0.8658158779144287,-0.0,2.116278648376465,3.6429669099995117,6.817792245311113e-21,0.2613258361816406,-1.2029126326190394,-0.0,-0.04236588254570961,0.7400676012039185,-0.0,-0.016216961666941643,1.4433844089508057,0.0,-0.019810551777482033
137.0,185.0,6.1771,-2.817,6.3147,-0.0446,0.0237,-0.1228,-2.0031730137267054,0.0,3.897458076477051,-0.8657627105712891,-0.0,2.0719919204711914,3.6429902750202636,1.2391001853879933e-25,0.2581474184989929,-1.2029288450824183,-0.0,-0.03835216164588928,0.7401437759399414,-0.0,-0.0059087336994707584,1.4434044361114502,0.0,0.004641808103770018
137.0,185.0,6.1771,-2.817,6.3147,-0.0446,0.0237,-0.1228,-2.0031644306578578,0.0,3.8829269409179688,-0.865767240524292,-0.0,2.0437986850738525,3.64295403539624,3.449081131708155e-29,0.25888508558273315,-1.2028964201556605,-0.0,-0.044867172837257385,0.7400598526000977,-0.0,-0.002665732055902481,1.44342041015625,0.0,-0.00026322808116674423
137.0,185.0,6.1771,-2.817,6.3147,-0.0446,0.0237,-0.1228,-2.0031925640501917,0.0,3.907036066055298,-0.865750789642334,-0.0,2.1121487617492676,3.642934485072754,6.268535306578492e-34,0.25619202852249146,-1.2029083410846155,-0.0,-0.03709489852190018,0.7401241064071655,-0.0,-0.0022150897420942783,1.4434003829956055,0.0,0.02028505876660347
137.0,185.0,6.1771,-2.817,6.3147,-0.0446,0.0237,-0.1228,-2.003176828423971,0.0,3.9185569286346436,-0.8657751083374023,-0.0,2.0964674949645996,3.6429940897175292,1.7448701670545015e-37,0.24381297826766968,-1.2028844992267054,-0.0,-0.04640522226691246,0.740135908126831,-0.0,-0.01313477847725153,1.443408489227295,0.0,0.007137751672416925
137.0,185.0,6.1771,-2.817,6.3147,-0.0446,0.0237,-0.1228,-2.003160615960592,0.0,3.8872103691101074,-0.8657627105712891,-0.0,2.1077945232391357,3.6429940897175292,3.171138424767061e-42,0.2682354152202606,-1.2028926054583948,-0.0,-0.03290821239352226,0.7400798797607422,-0.0,-0.010678867809474468,1.4433962106704712,0.0,0.02321094460785389
137.0,185.0,6.1771,-2.817,6.3147,-0.0446,0.0237,-0.1228,-2.003188749352926,0.0,3.9292707443237305,-0.8657141327857971,-0.0,2.129185199737549,3.6429940897175292,1.401298464324817e-45,0.2652052044868469,-1.2028639952289026,-0.0,-0.04337912052869797,0.7401039600372314,-0.0,-0.006321633234620094,1.4433602094650269,0.0,-0.012287769466638565
137.0,185.0,6.1771,-2.817,6.3147,-0.0446,0.0237,-0.1228,-2.003188749352926,0.0,3.9305427074432373,-0.8657627701759338,-0.0,2.112886905670166,3.6429902750202636,0.0,0.2625322937965393,-1.2029326597796839,-0.0,-0.030330009758472443,0.7400636076927185,-0.0,-0.0011957442620769143,1.4434207677841187,0.0,0.022701039910316467
137.0,185.0,6.1771,-2.817,6.3147,-0.0446,0.0237,-0.1228,-2.003176351586813,0.0,3.9083738327026367,-0.8657306432723999,-0.0,2.0998191833496094,3.6429707246967773,0.0,0.25096380710601807,-1.2028725782977503,-0.0,-0.0390206053853035,0.7401040196418762,-0.0,-0.005775089375674725,1.4434285163879395,0.0,0.01607866957783699
137.0,185.0,6.1771,-2.817,6.3147,-0.0446,0.0237,-0.1228,-2.0031925640501917,0.0,3.947986364364624,-0.865734338760376,-0.0,2.0951344966888428,3.6428825098225097,0.0,0.2575860619544983,-1.2029202620135706,-0.0,-0.03484037518501282,0.7401039600372314,-0.0,-0.0227225162088871,1.4433802366256714,0.0,-0.014056694693863392
135.0,187.0,6.1998,-2.9468,6.2961,-0.0367,0.0217,-0.1104,-2.003160615960592,0.0,3.894007444381714,-0.8658434152603149,-0.0,2.1116232872009277,3.642922564143799,0.0,0.2639644145965576,-1.2029407660113733,-0.0,-0.026138775050640106,0.7401400208473206,-0.0,-0.008137477561831474,1.4434446096420288,0.0,0.006704447790980339
135.0,187.0,6.1998,-2.9468,6.2961,-0.0367,0.0217,-0.1104,-2.003176351586813,0.0,3.8871891498565674,-0.8657549023628235,-0.0,2.1279757022857666,3.642962618465088,0.0,0.2669723331928253,-1.202860180531637,-0.0,-0.0444568395614624,0.7400999069213867,-0.0,0.00970747321844101,1.4434044361114502,0.0,-0.03212084621191025
135.0,187.0,6.1998,-2.9468,6.2961,-0.0367,0.0217,-0.1104,-2.0031968555846156,0.0,3.909971237182617,-0.8657585382461548,-0.0,2.1213650703430176,3.6429664331623535,0.0,0.269256055355072,-1.202905003224508,-0.0,-0.03232929855585098,0.7401121258735657,-0.0,-0.009913760237395763,1.4434003829956055,0.0,-0.036712028086185455
135.0,187.0,6.1998,-2.9468,6.2961,-0.0367,0.0217,-0.1104,-2.003172536889547,0.0,3.89788818359375,-0.8657585382461548,-0.0,2.0951719284057617,3.64295403539624,0.0,0.2667796313762665,-1.2029207388507288,-0.0,-0.03201868385076523,0.7401600480079651,-0.0,-0.009469205513596535,1.4434285163879395,0.0,-0.03444074094295502
135.0,187.0,6.1998,-2.9468,6.2961,-0.0367,0.0217,-0.1104,-2.003200670281881,0.0,3.9184999465942383,-0.8657833933830261,-0.0,2.103485584259033,3.6429382997700195,0.0,0.2479325234889984,-1.202905003224508,-0.0,-0.03110678307712078,0.7400918006896973,-0.0,-0.0016931922873482108,1.4434404373168945,0.0,0.017421038821339607
135.0,187.0,6.1998,-2.9468,6.2961,-0.0367,0.0217,-0.1104,-2.0031963787474574,0.0,3.944340229034424,-0.8657911419868469,-0.0,2.1220855712890625,3.6429382997700195,0.0,0.25859999656677246,-1.2029088179217737,-0.0,-0.036229558289051056,0.7400798797607422,-0.0,-0.0030330007430166006,1.4433642625808716,0.0,-0.012132592499256134
135.0,187.0,6.1998,-2.9468,6.2961,-0.0367,0.0217,-0.1104,-2.0031963787474574,0.0,3.8992247581481934,-0.8657627105712891,-0.0,2.117382287979126,3.6429669099995117,0.0,0.2551990747451782,-1.2029369513141077,-0.0,-0.04533256217837334,0.7401397228240967,-0.0,-0.0077233328483998775,1.4434244632720947,0.0,0.012358363717794418
135.0,187.0,6.1998,-2.9468,6.2961,-0.0367,0.0217,-0.1104,-2.00321688274526,0.0,3.865205764770508,-0.8657425045967102,-0.0,2.065857172012329,3.6429940897175292,0.0,0.2627714276313782,-1.2028639952289026,-0.0,-0.0410538911819458,0.7401321530342102,-0.0,-0.015717819333076477,1.4433761835098267,0.0,0.039898812770843506
135.0,187.0,6.1998,-2.9468,6.2961,-0.0367,0.0217,-0.1104,-2.003200670281881,0.0,3.9156322479248047,-0.8657709360122681,-0.0,2.108732223510742,3.6429826456257324,0.0,0.25720202922821045,-1.202905003224508,-0.0,-0.03614739328622818,0.740071713924408,-0.0,-0.009042352437973022,1.4433761835098267,0.0,-0.03562752157449722
135.0,187.0,6.1998,-2.9468,6.2961,-0.0367,0.0217,-0.1104,-2.0031644306578578,0.0,3.9105772972106934,-0.8657102584838867,-0.0,2.120675563812256,3.6429306703754882,0.0,0.2649105191230774,-1.202876392995016,-0.0,-0.01897658221423626,0.7401039600372314,-0.0,-0.01724209263920784,1.443432331085205,0.0,-0.022991305217146873
135.0,187.0,6.1998,-2.9468,6.2961,-0.0367,0.0217,-0.1104,-2.0031968555846156,0.0,3.8543596267700195,-0.8657146096229553,-0.0,2.1281495094299316,3.6429382997700195,0.0,0.2698706388473511,-1.2028725782977503,-0.0,-0.0315701887011528,0.740095853805542,-0.0,-0.012942502275109291,1.4434486627578735,0.0,-0.032191671431064606
135.0,187.0,6.1998,-2.9468,6.2961,-0.0367,0.0217,-0.1104,-2.003160615960592,0.0,3.97087025642395,-0.8656898140907288,-0.0,2.119986057281494,3.64295403539624,0.0,0.2737185060977936,-1.2029088179217737,-0.0,-0.04193740710616112,0.7401280999183655,-0.0,-0.013514053076505661,1.4434723854064941,0.0,-0.04668676480650902
135.0,187.0,6.1998,-2.9468,6.2961,-0.0367,0.0217,-0.1104,-2.0031968555846156,0.0,3.9228854179382324,-0.8657183051109314,-0.0,2.096243381500244,3.6429382997700195,0.0,0.27705270051956177,-1.2029007116900843,-0.0,-0.034418508410453796,0.7401039600372314,-0.0,0.0047793881967663765,1.4434483051300049,9.010494977701455e-05,0.004700790159404278
136.0,195.0,7.0235,-3.1621,6.0287,-0.031,-0.0043,-0.1258,-2.0031844578185023,0.0,3.920355796813965,-0.8657668232917786,-0.0,2.0792598724365234,3.6429306703754882,0.0,0.26496589183807373,-1.2028844992267054,-0.0,-0.03994663059711456,0.7400636076927185,-0.0,-0.006031385622918606,1.4434843063354492,0.001280170981772244,-0.028508266434073448
136.0,195.0,7.0235,-3.1621,6.0287,-0.031,-0.0043,-0.1258,-2.003188272515768,0.0,3.8861215114593506,-0.8657749891281128,-0.0,2.1039681434631348,3.642934485072754,0.0,0.26304057240486145,-1.2028844992267054,-0.0,-0.02801099419593811,0.7401600480079651,-0.0,0.0038093598559498787,1.4434802532196045,0.0023354841396212578,0.037133410573005676
136.0,195.0,7.0235,-3.1621,6.0287,-0.031,-0.0043,-0.1258,-2.003224035302633,0.0,3.8535690307617188,-0.8657915592193604,-0.0,2.132622241973877,3.642890616054199,0.0,0.25987833738327026,-1.2028887907611292,-0.0,-0.014811813831329346,0.7401280999183655,-0.0,-0.026761939749121666,1.443556785583496,0.004062957596033812,-0.05059747397899628
136.0,195.0,7.0235,-3.1621,6.0287,-0.031,-0.0043,-0.1258,-2.003256460229391,0.0,3.8736672401428223,-0.8657388687133789,-0.0,2.118992567062378,3.6429425913044433,0.0,0.2514774203300476,-1.202876392995016,-0.0,-0.03161893039941788,0.7400918006896973,-0.0,0.008957716636359692,1.4435522556304932,0.005578305572271347,-0.022537779062986374
136.0,195.0,7.0235,-3.1621,6.0287,-0.031,-0.0043,-0.1258,-2.003244539300436,-0.0004607195733115077,3.920506000518799,-0.8657264709472656,-0.0,2.126037120819092,3.642958326930664,0.0,0.2554468810558319,-1.2029488722430628,-0.0,-0.036858510226011276,0.7401280999183655,-0.0,-0.009737673215568066,1.4435921907424927,0.007177184335887432,0.006377010606229305
136.0,195.0,7.0235,-3.1621,6.0287,-0.031,-0.0043,-0.1258,-2.003200193444723,-0.0003670557925943285,3.9321908950805664,-0.8657953143119812,-0.0,2.1139819622039795,3.6429940897175292,0.0,0.24721747636795044,-1.2029526869403284,-0.0,-0.033083055168390274,0.7400876879692078,-0.0,-0.017465606331825256,1.4436122179031372,0.008356022648513317,-0.03415663167834282
136.0,195.0,7.0235,-3.1621,6.0287,-0.031,-0.0043,-0.1258,-2.0032688579955042,-0.00025707052554935217,3.923367977142334,-0.8657311201095581,-0.0,2.095658779144287,3.642962618465088,0.0,0.2562888264656067,-1.202888313923971,-0.0,-0.03659188747406006,0.7400918006896973,-0.0,-0.010964807122945786,1.4436919689178467,0.007904719561338425,-0.012834381312131882
136.0,195.0,7.0235,-3.1621,6.0287,-0.031,-0.0043,-0.1258,-2.0032364330687464,-0.00020725374633911997,3.914318084716797,-0.8657388687133789,-0.0,2.055511951446533,3.6429988580891113,0.0,0.2552323043346405,-1.2029684225665491,-0.0,-0.03080061823129654,0.7401400208473206,-0.0,-0.005608862265944481,1.4437847137451172,0.006823400501161814,0.0034034857526421547
136.0,195.0,7.0235,-3.1621,6.0287,-0.031,-0.0043,-0.1258,-2.003216405908102,-0.00010517400369280949,3.910414695739746,-0.8657709360122681,-0.0,2.0893402099609375,3.6430184084125976,6.372012917310599e-10,0.26135358214378357,-1.202972714100973,-0.0,-0.03830530494451523,0.7401440739631653,-0.0,-0.002059323713183403,1.4437724351882935,0.004469734616577625,-0.04741128161549568
136.0,195.0,7.0235,-3.1621,6.0287,-0.031,-0.0043,-0.1258,-2.003204484979147,8.82820604601875e-05,3.9077560901641846,-0.8657103180885315,-0.0,2.125563144683838,3.643026514644287,0.0003818482218775898,0.2560572028160095,-1.2029407660113733,-0.0,-0.03105207532644272,0.740095853805542,-0.0,-0.0017826003022491932,1.4438244104385376,0.0022304810117930174,-0.026959113776683807
136.0,195.0,7.0235,-3.1621,6.0287,-0.031,-0.0043,-0.1258,-2.00321688274526,0.00011081255797762424,3.9162330627441406,-0.8657388687133789,-0.0,2.104529857635498,3.643050356502197,0.0005513590294867754,0.26243582367897034,-1.20292836824526,-0.0,-0.051237329840660095,0.740135908126831,-0.0,-0.0013840459287166595,1.443796157836914,0.0010780927259474993,0.00078920042142272
136.0,195.0,7.0235,-3.1621,6.0287,-0.031,-0.0043,-0.1258,-2.003172536889547,9.86641098279506e-05,3.9255547523498535,-0.8656742572784424,-0.0,2.065068483352661,3.642986460322998,0.0005602171295322478,0.264890193939209,-1.2029722372638147,-0.0,-0.02839295007288456,0.7400876879692078,-0.0,-0.00937154982239008,1.4438002109527588,0.0007437309832312167,0.0026993537321686745
136.0,195.0,7.0235,-3.1621,6.0287,-0.031,-0.0043,-0.1258,-2.003212114373678,8.608144707977772e-05,3.9234819412231445,-0.865726888179779,-0.0,2.157688617706299,3.6430064874836425,0.00042868993477895856,0.26184964179992676,-1.202996555958883,-0.0,-0.028704695403575897,0.7400676608085632,-0.0,-0.025129197165369987,1.4437921047210693,0.0004604441055562347,-0.008683860301971436
130.0,185.0,6.0066,-2.2475,6.1005,-0.0215,0.0399,-0.1329,-2.003216405908102,7.856672891648486e-05,3.950075149536133,-0.8657709360122681,-0.0,2.114858388900757,3.643014593715332,0.00036369977169670165,0.2567374110221863,-1.2029684225665491,-0.0,-0.03205421566963196,0.7401118278503418,-0.0,-0.011641466058790684,1.4438165426254272,0.00037762895226478577,-0.01773751899600029
130.0,185.0,6.0066,-2.2475,6.1005,-0.0215,0.0399,-0.1329,-2.0031925640501917,4.785996497957967e-05,3.9376912117004395,-0.8657104969024658,-0.0,2.0871028900146484,3.6429378229328613,0.00030255079036578536,0.25337153673171997,-1.2029684225665491,-0.0,-0.033636488020420074,0.740091860294342,-0.0,-0.014867751859128475,1.4437921047210693,0.0003045905032195151,-0.048062801361083984
130.0,185.0,6.0066,-2.2475,6.1005,-0.0215,0.0399,-0.1329,-2.003172536889547,4.248716504662298e-05,3.918159246444702,-0.8657549023628235,-0.0,2.100769281387329,3.6429669099995117,0.00025900808395817876,0.2670535743236542,-1.2029526869403284,-0.0,-0.03628988191485405,0.7400999069213867,-0.0,-0.008942810818552971,1.443796157836914,0.00025522836949676275,0.04600144177675247
130.0,185.0,6.0066,-2.2475,6.1005,-0.0215,0.0399,-0.1329,-2.003228326837057,3.967754673794843e-05,3.9248862266540527,-0.8656980991363525,-0.0,2.119558811187744,3.642990751857422,0.00023377579054795206,0.2630302309989929,-1.202944580708639,-0.0,-0.04251058027148247,0.7401641011238098,-0.0,-0.0031840894371271133,1.4437642097473145,0.00022756875841878355,-0.022247737273573875
130.0,185.0,6.0066,-2.2475,6.1005,-0.0215,0.0399,-0.1329,-2.00321688274526,3.646258119260892e-05,3.8873801231384277,-0.8657751083374023,-0.0,2.083805561065674,3.642986460322998,0.00019420620810706168,0.25684741139411926,-1.202956501637594,-0.0,-0.035615649074316025,0.7400959134101868,-0.0,-0.002969335298985243,1.4438084363937378,0.0001988381118280813,0.016391705721616745
130.0,185.0,6.0066,-2.2475,6.1005,-0.0215,0.0399,-0.1329,-2.0031844578185023,5.0873168220277876e-05,3.921569347381592,-0.865750789642334,-0.0,2.0988576412200928,3.642982168788574,0.00016667319869156927,0.25631046295166016,-1.2029364744769495,-0.0,-0.03720913454890251,0.7400998473167419,-0.0,-0.0021499525755643845,1.443796157836914,0.00018163910135626793,-0.05660666152834892
130.0,185.0,6.0066,-2.2475,6.1005,-0.0215,0.0399,-0.1329,-2.003200193444723,3.1934465368976817e-05,3.9046573638916016,-0.8657998442649841,-0.0,2.09375262260437,3.642986460322998,5.032183980802074e-05,0.2553584575653076,-1.2029321829425257,-0.0,-0.0333501398563385,0.7400918006896973,-0.0,-0.0014488371089100838,1.4437601566314697,0.00016285736637655646,0.002107365056872368
130.0,185.0,6.0066,-2.2475,6.1005,-0.0215,0.0399,-0.1329,-2.0031844578185023,3.0320570658659562e-05,3.8956305980682373,-0.8657627105712891,-0.0,2.128342390060425,3.6429664331623535,2.6053778128698468e-05,0.2587186098098755,-1.2029646078692835,-0.0,-0.028976302593946457,0.7401158809661865,-0.0,-0.02066205069422722,1.443804383277893,3.0045917810639367e-05,0.03043435513973236
130.0,185.0,6.0066,-2.2475,6.1005,-0.0215,0.0399,-0.1329,-2.0031925640501917,1.4204218132363167e-05,3.9228622913360596,-0.8657953143119812,-0.0,2.1391241550445557,3.642975016231201,1.8364474385634821e-07,0.26647061109542847,-1.2029684225665491,-0.0,-0.03034607693552971,0.7400917410850525,-0.0,2.7048437914345413e-05,1.4437764883041382,1.3140146748469306e-09,0.002962931524962187
130.0,185.0,6.0066,-2.2475,6.1005,-0.0215,0.0399,-0.1329,-2.003232618371481,1.0038162662207029e-10,3.916262626647949,-0.8657911419868469,-0.0,2.1130881309509277,3.642946406001709,5.111819301184539e-11,0.2590540647506714,-1.202956501637594,-0.0,-0.035291992127895355,0.7401400208473206,-0.0,-0.011867955327033997,1.443708062171936,3.173191037662555e-15,0.003412012243643403
130.0,185.0,6.0066,-2.2475,6.1005,-0.0215,0.0399,-0.1329,-2.003244539300436,3.2522369745178552e-18,3.9302072525024414,-0.8658232092857361,-0.0,2.1038501262664795,3.6429106432148437,9.29047971163382e-16,0.2634737491607666,-1.2029407660113733,-0.0,-0.036785222589969635,0.7401358485221863,-0.0,-0.008769761770963669,1.4437199831008911,1.0280736977250382e-22,-0.0004401886835694313
130.0,185.0,6.0066,-2.2475,6.1005,-0.0215,0.0399,-0.1329,-2.0032721958556117,7.853769799191937e-24,3.9419972896575928,-0.8657585382461548,-0.0,2.066288948059082,3.6429106432148437,-0.00035245189792476594,0.2666533589363098,-1.2029364744769495,-0.0,-0.03369838371872902,0.7400517463684082,-0.0,-0.0037403327878564596,1.4437001943588257,-0.0004364493361208588,-0.023527024313807487
130.0,185.0,6.0066,-2.2475,6.1005,-0.0215,0.0399,-0.1329,-2.003268381158346,-0.0005630897940136492,3.9064230918884277,-0.8657870292663574,-0.0,2.1350979804992676,3.6429144579121093,-0.00043488573282957077,0.2700250744819641,-1.20292836824526,-0.0,-0.02915828861296177,0.740071713924408,-0.0,-0.004579148255288601,1.443687915802002,-0.0004984251572750509,-0.015521541237831116
134.0,193.0,6.396,-3.3673,6.0353,-0.0519,0.0208,-0.1219,-2.0033165417113246,-0.0010053375735878944,3.8777294158935547,-0.865803062915802,-0.0,2.106024742126465,3.642866774196289,-0.0003502766485325992,0.2575441598892212,-1.2029121557818812,-0.0,-0.03073550947010517,0.7400999069213867,-0.0,0.0037020170129835606,1.44374418258667,-0.0004600906977429986,0.00894659012556076
134.0,193.0,6.396,-3.3673,6.0353,-0.0519,0.0208,-0.1219,-2.003308435479635,-0.001226590247824788,3.906205415725708,-0.8657709956169128,-0.00027348706498742104,2.125852108001709,3.642882986659668,-0.0003244362596888095,0.25138330459594727,-1.2029202620135706,-0.0,-0.03596869856119156,0.7401397228240967,-0.0,-0.01368236169219017,1.443696141242981,-0.000366599066182971,0.012573160231113434
134.0,193.0,6.396,-3.3673,6.0353,-0.0519,0.0208,-0.1219,-2.0033003292479457,-0.001894538407213986,3.864449977874756,-0.8658071756362915,-0.00027749311993829906,2.079228162765503,3.6428987222858886,-0.0002810116275213659,0.25882449746131897,-1.202900234852926,-0.0,-0.02626153826713562,0.7401440143585205,-0.0,-0.00922384113073349,1.443687915802002,-0.00031626143027096987,0.052853647619485855
134.0,193.0,6.396,-3.3673,6.0353,-0.0519,0.0208,-0.1219,-2.0033160648741664,-0.0029572800267487764,3.8437888622283936,-0.8657988905906677,-0.000268537929514423,2.0634419918060303,3.642918749446533,-0.000238457098021172,0.2612890601158142,-1.2029483954059046,-0.0,-0.04757340997457504,0.7400918006896973,-0.0,-0.006973325740545988,1.4437322616577148,-0.00024685400421731174,0.061393871903419495
134.0,193.0,6.396,-3.3673,6.0353,-0.0519,0.0208,-0.1219,-2.003343721429342,-0.004046760965138674,3.765084743499756,-0.8658149838447571,-0.00023814036103431135,2.0735771656036377,3.642882986659668,-0.000214137980947271,0.25309914350509644,-1.202972714100973,-0.0,-0.04795868694782257,0.7401199340820312,-0.0,-0.010058417916297913,1.4437322616577148,-0.00017130552441813052,0.08954581618309021
134.0,193.0,6.396,-3.3673,6.0353,-0.0519,0.0208,-0.1219,-2.0034405193724574,-0.003835825016722083,3.7216620445251465,-0.8657953143119812,-0.00020686138304881752,2.0807809829711914,3.6429106432148437,-0.00021543455659411848,0.25305941700935364,-1.2029207388507288,-0.0,-0.04398123547434807,0.7400959134101868,-0.0,-0.006798741407692432,1.4437203407287598,-0.00010846451914403588,0.11850617825984955
134.0,193.0,6.396,-3.3673,6.0353,-0.0519,0.0208,-0.1219,-2.0034004650511683,-0.00399597454816103,3.7364118099212646,-0.8657865524291992,-0.0001883115473901853,2.040435314178467,3.642902060145996,-0.00019768817583099008,0.24204643070697784,-1.2029407660113733,-0.0,-0.04653457552194595,0.7400959134101868,-0.0,-0.010540429502725601,1.4437282085418701,9.938306175172329e-05,0.14675728976726532
134.0,193.0,6.396,-3.3673,6.0353,-0.0519,0.0208,-0.1219,-2.0034524403014125,-0.004211232531815767,3.757338762283325,-0.8657668828964233,-0.00016820072778500617,2.030533790588379,3.642890139217041,-0.0001781241298886016,0.25813692808151245,-1.202888313923971,-0.0,-0.05243410915136337,0.740091860294342,-0.0,-0.018631618469953537,1.4437084197998047,0.00013036666496191174,0.18143847584724426
134.0,193.0,6.396,-3.3673,6.0353,-0.0519,0.0208,-0.1219,-2.003472467462057,-0.004776618909090757,3.71456241607666,-0.8657829165458679,-0.0001557275973027572,1.9802225828170776,3.6429025369831542,-0.00016581694944761693,0.2575591206550598,-1.2029407660113733,-0.0,-0.05414806306362152,0.740087628364563,-0.0,-0.0044214725494384766,1.4437403678894043,0.00015182340575847775,0.2460508942604065
134.0,193.0,6.396,-3.3673,6.0353,-0.0519,0.0208,-0.1219,-2.003472467462057,-0.0050392369739711285,3.631758213043213,-0.8658392429351807,-0.0001619281538296491,2.0674688816070557,3.6428910928913574,-0.00011531042400747538,0.26356375217437744,-1.2029407660113733,-0.0,-0.07207989692687988,0.7400755882263184,-0.0,0.005639646202325821,1.443716287612915,0.00012991340190637857,0.18166455626487732
134.0,193.0,6.396,-3.3673,6.0353,-0.0519,0.0208,-0.1219,-2.0035158596434535,-0.005345201585441828,3.5932254791259766,-0.8657709956169128,-0.00015172205166891217,1.955512523651123,3.6428701120563964,-0.0001068046985892579,0.24176982045173645,-1.2029407660113733,-0.0,-0.0778244286775589,0.7400919198989868,-0.0,-0.02536618337035179,1.4437084197998047,0.00011722249473677948,0.26080334186553955
134.0,193.0,6.396,-3.3673,6.0353,-0.0519,0.0208,-0.1219,-2.003552099267477,-0.005351742263883352,3.6228504180908203,-0.8658150434494019,-0.00013992773892823607,1.9859106540679932,3.64290635168042,-9.754366328706965e-05,0.23704794049263,-1.2029321829425257,-0.0,-0.06564696878194809,0.7400959730148315,-0.0,0.0009141801856458187,1.44370436668396,0.00022582817473448813,0.31233376264572144
134.0,193.0,6.396,-3.3673,6.0353,-0.0519,0.0208,-0.1219,-2.003592153588766,-0.005974268075078726,3.5700230598449707,-0.8657627701759338,-0.00010878367174882442,1.9990791082382202,3.642866774196289,-9.158760803984478e-05,0.2353496551513672,-1.2029207388507288,-0.0,-0.06746123731136322,0.7401317954063416,-0.0,0.006232419051229954,1.4436601400375366,0.000247187475906685,0.28516632318496704
129.0,197.0,6.3799,-2.7458,6.2219,-0.0238,0.0012,-0.1297,-2.0036522350706996,-0.006392246577888727,3.616034984588623,-0.8657907247543335,-9.918864816427231e-05,1.999809980392456,3.6428987222858886,-8.469255408272147e-05,0.24561521410942078,-1.2029202620135706,-0.0,-0.08003643900156021,0.740083634853363,-0.0,0.000521269510500133,1.4437446594238281,0.0007082663360051811,0.2920401096343994
129.0,197.0,6.3799,-2.7458,6.2219,-0.0238,0.0012,-0.1297,-2.003683706323141,-0.006993680261075497,3.6321375370025635,-0.8657586574554443,-9.303662955062464e-05,2.0024242401123047,3.6429425913044433,-8.016616629902273e-05,0.23865580558776855,-1.2029245535479944,-0.0,-0.07977931201457977,0.7401039600372314,-0.0,-0.010796599090099335,1.443792462348938,0.0006897813873365521,0.33015844225883484
129.0,197.0,6.3799,-2.7458,6.2219,-0.0238,0.0012,-0.1297,-2.003711839715475,-0.007251916453242302,3.5990071296691895,-0.8657544255256653,-8.59302599565126e-05,1.9936999082565308,3.642918749446533,-7.483355875592679e-05,0.25286054611206055,-1.2029207388507288,-0.0,-0.07697945088148117,0.7401317954063416,-0.0,-0.004330742638558149,1.443772315979004,0.0008639713632874191,0.2945657968521118
129.0,197.0,6.3799,-2.7458,6.2219,-0.0238,0.0012,-0.1297,-2.0038157902159632,-0.007302819285541773,3.64955997467041,-0.8657792806625366,-8.127440378302708e-05,1.993453025817871,3.642934485072754,-6.069364826544188e-05,0.24825620651245117,-1.2029245535479944,-0.0,-0.06983724236488342,0.7400876879692078,-0.0,-0.00797656737267971,1.443804383277893,0.0008674411219544709,0.32065659761428833
129.0,197.0,6.3799,-2.7458,6.2219,-0.0238,0.0012,-0.1297,-2.0038677654662074,-0.005919967778027058,3.604344367980957,-0.8657224178314209,-7.579850353067741e-05,1.9758964776992798,3.642934485072754,-5.3624549764208496e-05,0.23745714128017426,-1.202944580708639,-0.0,-0.08212151378393173,0.740168035030365,-0.0,-0.007198957726359367,1.4437522888183594,0.0007273057708516717,0.24158760905265808
129.0,197.0,6.3799,-2.7458,6.2219,-0.0238,0.0012,-0.1297,-2.0039073429503382,-0.005416010972112417,3.6260147094726562,-0.8657710552215576,-7.215255027404055e-05,2.022692918777466,3.6429506975361328,-3.8716763810953125e-05,0.23465365171432495,-1.2029364744769495,-0.0,-0.07695678621530533,0.7401198744773865,-0.0,-0.002553159138187766,1.443804383277893,0.0006842315779067576,0.28689250349998474
129.0,197.0,6.3799,-2.7458,6.2219,-0.0238,0.0012,-0.1297,-2.0038911304869593,-0.004625345580279827,3.636486768722534,-0.8658071756362915,-6.780398689443246e-05,2.0028610229492188,3.6429621416279296,4.754265319206752e-05,0.25471824407577515,-1.2029202620135706,-0.0,-0.07767285406589508,0.7401479482650757,-0.0,-0.008179529570043087,1.4437921047210693,0.0007073216838762164,0.19470326602458954
129.0,197.0,6.3799,-2.7458,6.2219,-0.0238,0.0012,-0.1297,-2.00390686611318,-0.004565544426441193,3.6352996826171875,-0.8657585382461548,-5.189761213841848e-05,1.9686365127563477,3.6430508333393554,8.910291217034683e-05,0.2548229694366455,-1.2029364744769495,-0.0,-0.09107538312673569,0.740123987197876,-0.0,0.0018137735314667225,1.443796157836914,0.0012153869029134512,0.2292555719614029
129.0,197.0,6.3799,-2.7458,6.2219,-0.0238,0.0012,-0.1297,-2.0039831600584925,-0.003912181593477726,3.7190394401550293,-0.8657870292663574,-3.682043825392611e-05,2.0004501342773438,3.6429659563251953,0.0006223669042810798,0.2647402882575989,-1.2029407660113733,-0.0,-0.07639794796705246,0.7400959134101868,-0.0,-0.014911453239619732,1.4438161849975586,0.0019170724553987384,0.2392827272415161
129.0,197.0,6.3799,-2.7458,6.2219,-0.0238,0.0012,-0.1297,-2.0039707622923792,-0.0034644054248929024,3.7251057624816895,-0.865750253200531,-3.535531141096726e-05,2.0265493392944336,3.6430632311054687,0.001065640477463603,0.2630064785480499,-1.202944580708639,-0.0,-0.07799193263053894,0.740168035030365,-0.0,-0.0031998204067349434,1.4437633752822876,0.0028794098179787397,0.20307563245296478
129.0,197.0,6.3799,-2.7458,6.2219,-0.0238,0.0012,-0.1297,-2.004027029077047,-0.0036577393766492605,3.6907248497009277,-0.8657833337783813,4.3981730414088815e-05,2.063248872756958,3.6430708605,0.0012566812802106142,0.2740280032157898,-1.2029407660113733,-0.0,-0.09830929338932037,0.740123987197876,-0.0,-0.0031057780142873526,1.4439005851745605,0.004460145719349384,0.21582114696502686
129.0,197.0,6.3799,-2.7458,6.2219,-0.0238,0.0012,-0.1297,-2.004083295861715,-0.00413522170856595,3.7509512901306152,-0.8657792806625366,4.097839700989425e-05,2.0237369537353516,3.6430746751972656,0.0013819319428876042,0.28258711099624634,-1.20292836824526,-0.0,-0.08021993190050125,0.740123987197876,-0.0,-0.01072919275611639,1.443904161453247,0.0053779976442456245,0.18942351639270782
129.0,197.0,6.3799,-2.7458,6.2219,-0.0238,0.0012,-0.1297,-2.0041076145567835,-0.004882856272161007,3.70430850982666,-0.8657792806625366,3.7558256735792384e-05,2.0289127826690674,3.643050356502197,0.0017450194573029876,0.27200719714164734,-1.2028926054583948,-0.0,-0.06864558160305023,0.7401039600372314,-0.0,-0.01200399361550808,1.4439727067947388,0.006443037185817957,0.1954360008239746
136.0,190.0,6.1687,-2.6148,6.0377,-0.0261,0.0472,-0.117,-2.004139085809225,-0.005674480926245451,3.7199320793151855,-0.8657710552215576,3.5345736250746995e-05,2.0664026737213135,3.643014116878174,0.0020454125478863716,0.26388680934906006,-1.2029364744769495,-0.0,-0.07128463685512543,0.7400999665260315,-0.0,-0.010974133387207985,1.444000244140625,0.006392625160515308,0.16117146611213684
136.0,190.0,6.1687,-2.6148,6.0377,-0.0261,0.0472,-0.117,-2.004191061059469,-0.007497038692235947,3.720895290374756,-0.8658190965652466,3.277167706983164e-05,2.0378472805023193,3.643138571376465,0.005826861131936312,0.2728397250175476,-1.2029646078692835,-5.380412115840727e-09,-0.08485515415668488,0.7401198744773865,-0.0,-0.008707447908818722,1.4440363645553589,0.006248606368899345,0.15284913778305054
136.0,190.0,6.1687,-2.6148,6.0377,-0.0261,0.0472,-0.117,-2.0042511425414027,-0.007994823157787323,3.774129867553711,-0.8657503724098206,3.10744289890863e-05,2.051990032196045,3.643110914821289,0.011547456495463848,0.27878299355506897,-1.2029364744769495,-1.4976577920530754e-12,-0.06768900156021118,0.7401120662689209,-0.0,0.0016422136686742306,1.444084644317627,0.006441198289394379,0.17908154428005219
136.0,190.0,6.1687,-2.6148,6.0377,-0.0261,0.0472,-0.117,-2.0043069324889125,-0.00849923212081194,3.731766700744629,-0.8657833337783813,2.9067223294987343e-05,2.0493555068969727,3.6432553964802246,0.008552458137273788,0.2801729440689087,-1.2029407660113733,-2.7219187038696453e-17,-0.08166330307722092,0.740031898021698,-0.0,-0.015025913715362549,1.444108009338379,0.005629545543342829,0.11372202634811401
136.0,190.0,6.1687,-2.6148,6.0377,-0.0261,0.0472,-0.117,-2.0043984852232875,-0.008190500549972057,3.721916675567627,-0.8657953143119812,2.7724179744836874e-05,1.999234676361084,3.643214388484619,0.0030242600478231907,0.26584184169769287,-1.2029083410846155,-7.57656001288589e-21,-0.08327333629131317,0.7400836944580078,-0.0,-0.01258079893887043,1.4442001581192017,0.004607046954333782,0.15009889006614685
136.0,190.0,6.1687,-2.6148,6.0377,-0.0261,0.0472,-0.117,-2.004374166528219,-0.007927337661385536,3.7237229347229004,-0.8657705187797546,2.611527634144295e-05,2.049311637878418,3.643246813411377,0.0006515145651064813,0.26710885763168335,-1.2029364744769495,-1.3770023160843592e-25,-0.07122142612934113,0.7401320338249207,-0.0,0.00101890426594764,1.4441800117492676,0.003700929693877697,0.08230465650558472
136.0,190.0,6.1687,-2.6148,6.0377,-0.0261,0.0472,-0.117,-2.0044747791686,-0.006502950564026833,3.755059242248535,-0.8657668232917786,3.736877260962501e-05,2.041762351989746,3.643218680019043,0.0004212227649986744,0.28017690777778625,-1.2029202620135706,-3.8329367242912057e-29,-0.07750380039215088,0.7401078939437866,-0.0,-0.008016921579837799,1.444168210029602,0.002591843716800213,0.04726378619670868
136.0,190.0,6.1687,-2.6148,6.0377,-0.0261,0.0472,-0.117,-2.0045186481871546,-0.00648893928155303,3.7309722900390625,-0.8657667636871338,3.556138472049497e-05,2.040323257446289,3.643270655269287,0.00028680218383669853,0.26992854475975037,-1.2029245535479944,-6.966172836692288e-34,-0.06743770092725754,0.7400836944580078,-0.0,-0.005070449318736792,1.4441756010055542,0.0011633677640929818,0.008393047377467155
136.0,190.0,6.1687,-2.6148,6.0377,-0.0261,0.0472,-0.117,-2.0045625172057093,-0.007134484592825174,3.6900782585144043,-0.8657549023628235,3.420969005674124e-05,2.006033420562744,3.6432229715534667,0.0002314470912097022,0.2733667194843292,-1.2029169241534632,-1.9390598661630917e-37,-0.06069137156009674,0.740139901638031,-0.0,7.490022107958794e-05,1.444239854812622,0.0006543411291204393,0.022157661616802216
136.0,190.0,6.1687,-2.6148,6.0377,-0.0261,0.0472,-0.117,-2.004622598687643,-0.006747552193701267,3.690279006958008,-0.8657264709472656,3.2559568353462964e-05,2.0208077430725098,3.643214388484619,0.0001840856857597828,0.26894521713256836,-1.2029407660113733,-3.524265637776915e-42,-0.06027250736951828,0.7400715947151184,-0.0,-0.01828506775200367,1.444199800491333,0.00033088302006945014,0.009645264595746994
136.0,190.0,6.1687,-2.6148,6.0377,-0.0261,0.0472,-0.117,-2.0046426258482875,-0.006198720075190067,3.6817338466644287,-0.8657751083374023,3.1422787287738174e-05,2.01033353805542,3.6432549196430664,0.00015959586016833782,0.25765979290008545,-1.2029121557818812,-1.401298464324817e-45,-0.04573582857847214,0.7401677966117859,-0.0,-0.004000849090516567,1.4441838264465332,0.00019544859242159873,-0.023055551573634148
136.0,190.0,6.1687,-2.6148,6.0377,-0.0261,0.0472,-0.117,-2.0046378574767054,-0.0070217871107161045,3.724571704864502,-0.8657503128051758,3.0025088562979363e-05,1.979248285293579,3.643270655269287,0.00013555350597016513,0.2642183303833008,-1.2029288450824183,-0.0,-0.053431153297424316,0.7400757074356079,-0.0,-0.00903947465121746,1.4442402124404907,-0.00024008018954191357,-0.10057605057954788
136.0,190.0,6.1687,-2.6148,6.0377,-0.0261,0.0472,-0.117,-2.0047184429564417,-0.007424766663461924,3.7038044929504395,-0.8657471537590027,1.8240433607985551e-09,1.9858193397521973,3.6432625490375976,4.36465852544643e-05,0.25911012291908264,-1.2029364744769495,-0.0,-0.05836023390293121,0.7400797009468079,-0.0,-0.007777235936373472,1.444248080253601,-0.0007221963023766875,-0.1290270984172821
131.0,193.0,6.4098,-2.8552,6.0957,-0.0512,0.0034,-0.1246,-2.004782339135641,-0.006711289286613464,3.7035884857177734,-0.8657751083374023,5.909669463654448e-17,2.004380226135254,3.643286867732666,4.1385625081602484e-05,0.2471315562725067,-1.2029326597796839,-0.0,-0.04461090266704559,0.7401638031005859,-0.0,-0.005672114435583353,1.444191575050354,-0.0005376393091864884,-0.11048886179924011
131.0,193.0,6.4098,-2.8552,6.0957,-0.0512,0.0034,-0.1246,-2.0047861538329066,-0.006379701197147369,3.7449448108673096,-0.8657306432723999,1.4271157680785938e-22,1.9934914112091064,3.643286867732666,6.32965675322339e-05,0.2640330195426941,-1.2029245535479944,-0.0,-0.03921935707330704,0.7400999665260315,-0.0,-0.0075411247089505196,1.444199800491333,-0.0004140487581025809,-0.060530781745910645
131.0,193.0,6.4098,-2.8552,6.0957,-0.0512,0.0034,-0.1246,-2.004874368707174,-0.006577856373041868,3.7292332649230957,-0.8657833933830261,4.623672928563926e-30,1.9813157320022583,3.6432949739643554,6.850035424577072e-05,0.2569604516029358,-1.2029364744769495,-0.0,-0.051125820726156235,0.7401278018951416,-0.0,-0.0033628372475504875,1.4441919326782227,-0.0004223767318762839,-0.1544787883758545
131.0,193.0,6.4098,-2.8552,6.0957,-0.0512,0.0034,-0.1246,-2.00492586712026,-0.007653614040464163,3.692880392074585,-0.8657264709472656,1.1165625802334467e-35,1.9781551361083984,3.643326922053955,8.477898518322036e-05,0.2609742283821106,-1.2029364744769495,-0.0,-0.04909839108586311,0.7401356101036072,-0.0,0.001920700422488153,1.4442002773284912,-0.0004064658423885703,-0.12924224138259888
131.0,193.0,6.4098,-2.8552,6.0957,-0.0512,0.0034,-0.1246,-2.0049778423705042,-0.00821030791848898,3.6662073135375977,-0.8657751083374023,3.615350037958028e-43,1.953472375869751,3.6432625490375976,7.755940896458924e-05,0.25791916251182556,-1.2029684225665491,-0.0,-0.055987924337387085,0.7401317954063416,-0.0,-0.012803999707102776,1.4441640377044678,-0.0007370723760686815,-0.182671457529068
131.0,193.0,6.4098,-2.8552,6.0957,-0.0512,0.0034,-0.1246,-2.0050136051573695,-0.008945191279053688,3.704899311065674,-0.8657466769218445,-0.0,1.9940216541290283,3.6432663637348632,0.00020695845887530595,0.24984219670295715,-1.2028926054583948,-0.0,-0.04482808709144592,0.7401437163352966,-0.0,0.0009500638116151094,1.444111704826355,-0.0007268827757798135,-0.13181135058403015
131.0,193.0,6.4098,-2.8552,6.0957,-0.0512,0.0034,-0.1246,-2.0050813160338343,-0.009997154586017132,3.6687591075897217,-0.8657388687133789,-0.0,1.9737061262130737,3.643270655269287,0.0001757024001562968,0.24914708733558655,-1.2029407660113733,-0.0,-0.039052315056324005,0.7400878667831421,-0.0,-0.004447671584784985,1.4441719055175781,-0.0007880283519625664,-0.1976304054260254
131.0,193.0,6.4098,-2.8552,6.0957,-0.0512,0.0034,-0.1246,-2.005158086816305,-0.01085699163377285,3.6299285888671875,-0.8657957911491394,-0.0,1.9337992668151855,3.643286867732666,0.00015727670688647777,0.2548471987247467,-1.2029364744769495,-0.0,-0.04997525364160538,0.7401196956634521,-0.0,0.0023403484374284744,1.444168210029602,-0.0010518948547542095,-0.19218049943447113
131.0,193.0,6.4098,-2.8552,6.0957,-0.0512,0.0034,-0.1246,-2.005245348016256,-0.01150874700397253,3.6054999828338623,-0.8657021522521973,-0.0,1.9606502056121826,3.643326922053955,0.00013798422878608108,0.24878332018852234,-1.2029202620135706,-0.0,-0.042707253247499466,0.7401953935623169,-0.0,-0.011781677603721619,1.444063663482666,-0.0019476369488984346,-0.18209174275398254
131.0,193.0,6.4098,-2.8552,6.0957,-0.0512,0.0034,-0.1246,-2.0052410564818324,-0.011304076761007309,3.5613465309143066,-0.8657627105712891,-0.0,1.9384435415267944,3.6432906824299316,0.00012635934399440885,0.24354957044124603,-1.2029083410846155,-0.0,-0.033393826335668564,0.7401158809661865,-0.0,-0.0030987795908004045,1.444068193435669,-0.0032359682954847813,-0.22822874784469604
131.0,193.0,6.4098,-2.8552,6.0957,-0.0512,0.0034,-0.1246,-2.0053769550719203,-0.012511338107287884,3.5281312465667725,-0.8657915592193604,-0.0,1.9307684898376465,3.6432663637348632,0.00011359909694874659,0.24463117122650146,-1.2029407660113733,-0.0,-0.043804705142974854,0.7401719093322754,-0.0,-0.00909512024372816,1.4440841674804688,-0.009137149900197983,-0.28582146763801575
131.0,193.0,6.4098,-2.8552,6.0957,-0.0512,0.0034,-0.1246,-2.00543274501943,-0.012548689730465412,3.4728827476501465,-0.865767240524292,-0.0,1.9242134094238281,3.6432663637348632,0.0001056012260960415,0.24622079730033875,-1.20290452638735,-0.0,-0.04487045854330063,0.7401518821716309,-0.0,0.008545191027224064,1.4439598321914673,-0.011071434244513512,-0.27442467212677
131.0,193.0,6.4098,-2.8552,6.0957,-0.0512,0.0034,-0.1246,-2.0055371723570765,-0.01349757332354784,3.464352607727051,-0.8657388687133789,-0.0,1.877547025680542,3.643286867732666,9.65389990597032e-05,0.24483078718185425,-1.2029884497271937,-0.0,-0.028464678674936295,0.7401356101036072,-0.0,0.0073849353939294815,1.443855881690979,-0.010358321480453014,-0.29973548650741577
128.0,187.0,5.6973,-2.9061,6.122,-0.0388,0.0263,-0.1278,-2.005641122857565,-0.01374662946909666,3.408066987991333,-0.865759015083313,-0.0,1.8477632999420166,3.643254442805908,8.890929166227579e-05,0.23601427674293518,-1.2029326597796839,-0.0,-0.03825484216213226,0.740111768245697,-0.0,0.002255546161904931,1.4438079595565796,-0.008890685625374317,-0.2845328152179718
128.0,187.0,5.6973,-2.9061,6.122,-0.0388,0.0263,-0.1278,-2.0057040653624476,-0.014544534496963024,3.439345359802246,-0.8658039569854736,-0.0,1.8640958070755005,3.6433111864277343,8.393407188123092e-05,0.23395608365535736,-1.2029407660113733,-0.0,-0.040832310914993286,0.7401679158210754,-0.0,-0.010551560670137405,1.4438202381134033,-0.00845989491790533,-0.3478636145591736
128.0,187.0,5.6973,-2.9061,6.122,-0.0388,0.0263,-0.1278,-2.005857130090231,-0.016792267560958862,3.394939661026001,-0.8657146692276001,-0.0,1.8101105690002441,3.643298788661621,7.810661918483675e-05,0.2298143059015274,-1.2029364744769495,-0.0,-0.04838811978697777,0.7401518225669861,3.959530303632164e-08,0.01389882992953062,1.4437240362167358,-0.007375672925263643,-0.3160310387611389
128.0,187.0,5.6973,-2.9061,6.122,-0.0388,0.0263,-0.1278,-2.005920549432272,-0.01840543933212757,3.3253235816955566,-0.8657429814338684,-0.0,1.768639087677002,3.6432663637348632,7.424079376505688e-05,0.24073725938796997,-1.2029364744769495,-0.0,-0.056048084050416946,0.7401598691940308,1.1021497083041343e-11,0.0022982261143624783,1.4436559677124023,-0.0069657801650464535,-0.2986716628074646
128.0,187.0,5.6973,-2.9061,6.122,-0.0388,0.0263,-0.1278,-2.0061284504332484,-0.022751325741410255,3.271843433380127,-0.8656948208808899,-0.0,1.7952136993408203,3.6433068948933105,6.964478961890563e-05,0.23838193714618683,-1.2029364744769495,-0.0,-0.041533902287483215,0.7401319146156311,2.003102821289678e-16,0.02584915980696678,1.443616271018982,-0.006155580747872591,-0.36640655994415283
128.0,187.0,5.6973,-2.9061,6.122,-0.0388,0.0263,-0.1278,-2.0062481365599574,-0.026345260441303253,3.289346218109131,-0.8657388687133789,-0.0,1.7872644662857056,3.643315001125,6.65546758682467e-05,0.23397709429264069,-1.2029202620135706,-0.0,-0.05748804286122322,0.7402473092079163,5.575709792846277e-20,0.019246023148298264,1.4435884952545166,-0.005136286839842796,-0.27836766839027405
128.0,187.0,5.6973,-2.9061,6.122,-0.0388,0.0263,-0.1278,-2.0064836941161097,-0.032066285610198975,3.1964964866638184,-0.8657269477844238,-0.0,1.7388880252838135,3.6433068948933105,6.283725815592334e-05,0.23659780621528625,-1.20292836824526,-0.0,-0.04143662750720978,0.7402195334434509,1.0133577026419756e-24,0.034337203949689865,1.4435558319091797,-0.004727401304990053,-0.31831181049346924
128.0,187.0,5.6973,-2.9061,6.122,-0.0388,0.0263,-0.1278,-2.0066472492613734,-0.03595222160220146,3.114919662475586,-0.8657145500183105,-0.0,1.7290124893188477,3.643310709590576,7.196798833319917e-05,0.23860833048820496,-1.2029407660113733,-0.0,-0.05861435830593109,0.740211546421051,2.820718440997004e-28,0.04220268875360489,1.443520188331604,-0.004723465070128441,-0.30985552072525024
128.0,187.0,5.6973,-2.9061,6.122,-0.0388,0.0263,-0.1278,-2.006962915460104,-0.04073527827858925,3.1462905406951904,-0.8657269477844238,-0.0,1.6764090061187744,3.6433464723774414,9.79924516286701e-05,0.2410104125738144,-1.2029364744769495,-0.0,-0.058855652809143066,0.7401518225669861,0.0001516945631010458,0.03391123563051224,1.4434560537338257,-0.004125184845179319,-0.3186788558959961
128.0,187.0,5.6973,-2.9061,6.122,-0.0388,0.0263,-0.1278,-2.0072628460326136,-0.04219980537891388,3.08819580078125,-0.8656980991363525,-0.0,1.758260726928711,3.643310232753418,0.002201765775680542,0.24278774857521057,-1.2029684225665491,-1.6684394950061687e-06,-0.06922994554042816,0.7401673793792725,0.00017985622980631888,0.02956707775592804,1.4434481859207153,-0.003656750312075019,-0.2884134352207184
128.0,187.0,5.6973,-2.9061,6.122,-0.0388,0.0263,-0.1278,-2.007585664788717,-0.04696245491504669,3.095762252807617,-0.8656907677650452,-0.0,1.725858211517334,3.6434027391621093,0.0024098677095025778,0.2412160038948059,-1.2029364744769495,-3.032306350458924e-11,-0.06726375222206116,0.7401559948921204,0.00015507340140175074,0.030771056190133095,1.4434404373168945,-0.0028687366284430027,-0.2393801212310791
128.0,187.0,5.6973,-2.9061,6.122,-0.0388,0.0263,-0.1278,-2.0079218349852503,-0.05001567304134369,3.1105105876922607,-0.8656907677650452,-0.0,1.7212680578231812,3.6434361177631835,0.0025324630551040173,0.25083276629447937,-1.2029321829425257,-8.44053593565628e-15,-0.08441804349422455,0.7401438355445862,0.00014054177154321223,0.03453284502029419,1.4434444904327393,-0.0020086360163986683,-0.22985942661762238
128.0,187.0,5.6973,-2.9061,6.122,-0.0388,0.0263,-0.1278,-2.0083452663817347,-0.05682124197483063,3.1295363903045654,-0.8657227754592896,-0.0,1.7162909507751465,3.643451376552246,0.002736510708928108,0.2595856785774231,-1.2029646078692835,-1.5340254452842844e-19,-0.07873445749282837,0.7402715086936951,0.0001249332563020289,0.0393664725124836,1.4434764385223389,-0.0011655751150101423,-0.22977960109710693
132.0,197.0,5.7404,-2.9862,6.1555,-0.0441,-0.0386,-0.1475,-2.0087009869017542,-0.061892054975032806,3.050046443939209,-0.8657227754592896,-0.0,1.7059472799301147,3.6433822351643066,0.0030016321688890457,0.24795140326023102,-1.2029364744769495,-4.2700163586286763e-23,-0.09526461362838745,0.7401914000511169,0.00013760577712673694,0.0427054725587368,1.4434003829956055,-0.0006222314550541341,-0.20515991747379303
132.0,197.0,5.7404,-2.9862,6.1555,-0.0441,-0.0386,-0.1475,-2.00917973140859,-0.06592775136232376,3.1026387214660645,-0.8656665086746216,-0.0,1.7241740226745605,3.643450899715088,0.003642468946054578,0.24849334359169006,-1.2029364744769495,-7.760543859075603e-28,-0.08255802094936371,0.7401278018951416,0.0001255240204045549,0.02667136862874031,1.4434363842010498,-0.00032043721876107156,-0.21823230385780334
132.0,197.0,5.7404,-2.9862,6.1555,-0.0441,-0.0386,-0.1475,-2.00955929378652,-0.06893450021743774,3.0509543418884277,-0.8657393455505371,-0.0,1.6970798969268799,3.643475218410156,0.004024108871817589,0.2513425350189209,-1.2029441038714808,-2.1601756407518665e-31,-0.09300979971885681,0.740183413028717,0.00011734083818737417,0.030649373307824135,1.4433842897415161,-0.00025288801407441497,-0.17720547318458557
132.0,197.0,5.7404,-2.9862,6.1555,-0.0441,-0.0386,-0.1475,-2.0101024113097132,-0.06954071670770645,2.982536554336548,-0.8656865954399109,-0.0,1.734544038772583,3.6434823709675292,0.0035272075328975916,0.2696411907672882,-1.20292836824526,-0.00021085957996547222,-0.09862525016069412,0.7401754856109619,0.0001079570793081075,0.03607968986034393,1.443432331085205,0.0001318541617365554,-0.2136596143245697
132.0,197.0,5.7404,-2.9862,6.1555,-0.0441,-0.0386,-0.1475,-2.0105534992613734,-0.07398129254579544,3.0282983779907227,-0.8656824827194214,-0.0,1.7492378950119019,3.643587751979492,0.004454846028238535,0.26114097237586975,-1.2029603163348597,-0.0002132161462213844,-0.12598298490047455,0.7402036786079407,0.00010184842540184036,0.03954767808318138,1.443488359451294,0.00025296988314948976,-0.13811711966991425
132.0,197.0,5.7404,-2.9862,6.1555,-0.0441,-0.0386,-0.1475,-2.011160989800924,-0.07791869342327118,3.0037896633148193,-0.8657434582710266,1.0362884161896346e-10,1.7462791204452515,3.6436115938374023,0.007175052538514137,0.2724451720714569,-1.2029922644244593,-0.00045322737423703074,-0.10851176083087921,0.740183413028717,9.470353688811883e-05,0.03634384647011757,1.4434281587600708,0.0015220188070088625,-0.08679430186748505
132.0,197.0,5.7404,-2.9862,6.1555,-0.0441,-0.0386,-0.1475,-2.0116316280760707,-0.0832645520567894,3.0493502616882324,-0.8656865954399109,2.5025146381308955e-16,1.736032485961914,3.6436025339313964,0.009644745849072933,0.27189168334007263,-1.2029483954059046,-0.00041211358620785177,-0.10731616616249084,0.740187406539917,8.996983524411917e-05,0.03631753474473953,1.4434601068496704,0.0017462957184761763,-0.09927216172218323
132.0,197.0,5.7404,-2.9862,6.1555,-0.0441,-0.0386,-0.1475,-2.0123759708800257,-0.08907847106456757,2.9882569313049316,-0.8657186627388,8.107828764605606e-24,1.7787435054779053,3.6437226968952636,0.013535818085074425,0.2875813841819763,-1.2030041853534144,-0.0003532991686370224,-0.10140185803174973,0.7401674389839172,8.434848132310435e-05,0.03423059731721878,1.4434802532196045,0.0016549198189750314,-0.1090392991900444
132.0,197.0,5.7404,-2.9862,6.1555,-0.0441,-0.0386,-0.1475,-2.0128947697081507,-0.09704172611236572,2.9797353744506836,-0.8656746745109558,1.9579452195205817e-29,1.710735559463501,3.6438276010700683,0.01668759621679783,0.2799449861049652,-1.2029560248004358,-0.00032264518085867167,-0.12275996059179306,0.7401400208473206,8.057281229412183e-05,0.030694425106048584,1.443548560142517,0.0014085848815739155,-0.11982855945825577
132.0,197.0,5.7404,-2.9862,6.1555,-0.0441,-0.0386,-0.1475,-2.0136410198607386,-0.10469391942024231,3.013601064682007,-0.8657154440879822,0.000270011427346617,1.724402904510498,3.644024534816406,0.020772792398929596,0.27158987522125244,-1.202996555958883,-0.00030602235347032547,-0.11786004900932312,0.740171492099762,7.603480480611324e-05,0.03157583624124527,1.4435083866119385,0.0014670754317194223,-0.013752501457929611
132.0,197.0,5.7404,-2.9862,6.1555,-0.0441,-0.0386,-0.1475,-2.014268537560934,-0.10204681754112244,2.9855003356933594,-0.8656828999519348,0.0002746242971625179,1.760610580444336,3.644104166621826,0.02467997744679451,0.29151490330696106,-1.2029359976397913,-0.0002556014514993876,-0.11795379221439362,0.7402235269546509,7.295313116628677e-05,0.024742428213357925,1.4435243606567383,0.001462354208342731,-0.03867209702730179
132.0,197.0,5.7404,-2.9862,6.1555,-0.0441,-0.0386,-0.1475,-2.0151311359801234,-0.10393030941486359,3.009521961212158,-0.8656865954399109,0.00022819906007498503,1.7927747964859009,3.644336386317871,0.030831336975097656,0.29303115606307983,-1.2029884497271937,-0.0002069522743113339,-0.12811130285263062,0.7401992678642273,5.8064397308044136e-05,0.033882901072502136,1.443500280380249,0.0011094124056398869,-0.024996444582939148
132.0,197.0,5.7404,-2.9862,6.1555,-0.0441,-0.0386,-0.1475,-2.01576628307485,-0.10824357718229294,3.026824474334717,-0.8656545281410217,0.00020252272952347994,1.7691032886505127,3.6445204454609375,0.03747685253620148,0.288410484790802,-1.2029765287982386,-0.00021821541304234415,-0.12268219888210297,0.7401638031005859,5.5541891924804077e-05,0.03042568638920784,1.4435805082321167,0.000653977447655052,-0.015561811625957489
122.0,180.0,5.9964,-2.4915,6.0826,-0.0237,0.0078,-0.1413,-2.0166126690306605,-0.11550497263669968,3.064723014831543,-0.8656824827194214,0.0001761034654919058,1.796759843826294,3.6448981004902343,0.04817124456167221,0.2884194552898407,-1.20292836824526,-0.00018785547581501305,-0.1199585348367691,0.7402036190032959,5.292872083373368e-05,0.03885720297694206,1.443511962890625,0.0004958994104526937,-0.00988213624805212
122.0,180.0,5.9964,-2.4915,6.0826,-0.0237,0.0078,-0.1413,-2.017331739465231,-0.12064231932163239,3.0232093334198,-0.8656907081604004,0.00016040937043726444,1.7723701000213623,3.6451775270649414,0.058303069323301315,0.3054790496826172,-1.2029722372638147,-0.00017010052397381514,-0.11461026966571808,0.7401833534240723,5.112476719659753e-05,0.031010311096906662,1.443540334701538,0.0003887906204909086,-0.03519357740879059
122.0,180.0,5.9964,-2.4915,6.0826,-0.0237,0.0078,-0.1413,-2.0183145008482875,-0.11994855105876923,2.967594623565674,-0.8656623363494873,0.00014337329776026309,1.811061978340149,3.6457177835651855,0.06955686211585999,0.3116759657859802,-1.2029922644244593,-0.00015106458158697933,-0.12902364134788513,0.7401478886604309,8.294050530821551e-07,0.001801133155822754,1.4435080289840698,0.0003521542821545154,0.03378056734800339
122.0,180.0,5.9964,-2.4915,6.0826,-0.0237,0.0078,-0.1413,-2.018917223016256,-0.11643445491790771,2.9912209510803223,-0.8657072186470032,0.00015492798411287367,1.7778382301330566,3.6461660104938964,0.0696517750620842,0.32739147543907166,-1.2029765287982386,-0.000139367621159181,-0.11976635456085205,0.7401440143585205,2.3086796363536166e-10,0.01727999374270439,1.4435243606567383,0.00030157642322592437,0.0013179625384509563
122.0,180.0,5.9964,-2.4915,6.0826,-0.0237,0.0078,-0.1413,-2.0198193989195765,-0.10728786140680313,3.092883586883545,-0.8656545281410217,0.00015076229465194046,1.8209209442138672,3.6466991144367675,0.06036602705717087,0.33280059695243835,-1.202991787587301,-0.00014666386414319277,-0.1250281035900116,0.7401317358016968,4.195910688396896e-15,0.02834056317806244,1.443500280380249,4.719761273008771e-05,-0.026608601212501526
122.0,180.0,5.9964,-2.4915,6.0826,-0.0237,0.0078,-0.1413,-2.0205394230284632,-0.10698911547660828,3.109788656234741,-0.8656828999519348,0.00013666583981830627,1.8555395603179932,3.6470319467731933,0.04064983129501343,0.3191051483154297,-1.2029803434955042,-0.0001377142034471035,-0.12640276551246643,0.7401518821716309,1.1679471784712918e-18,0.022204840555787086,1.443500280380249,4.028851617476903e-05,-0.038377609103918076
122.0,180.0,5.9964,-2.4915,6.0826,-0.0237,0.0078,-0.1413,-2.021370073358053,-0.11111117899417877,3.1928043365478516,-0.8656989336013794,0.00012186196545371786,1.812997579574585,3.6472746568867187,0.013272331096231937,0.2938241958618164,-1.2029522101031702,-0.00012664099631365389,-0.12241365015506744,0.7401757836341858,2.122686171974786e-23,0.023037482053041458,1.4435120820999146,3.41697086696513e-05,-0.045990392565727234
122.0,180.0,5.9964,-2.4915,6.0826,-0.0237,0.0078,-0.1413,-2.0219880543150843,-0.111568883061409,3.173074722290039,-0.8656508326530457,0.0001551390887470916,1.8895272016525269,3.6473147112080078,0.001421494991518557,0.29879677295684814,-1.2029522101031702,-0.000136207600007765,-0.12567153573036194,0.7401278018951416,5.9085743430812005e-27,0.01387886144220829,1.443500280380249,3.0675633752252907e-05,0.018092777580022812
122.0,180.0,5.9964,-2.4915,6.0826,-0.0237,0.0078,-0.1413,-2.022879262963766,-0.10946256667375565,3.149718761444092,-0.8656384944915771,0.0012876172550022602,1.8893446922302246,3.647298975581787,-0.0025679823011159897,0.30303654074668884,-1.2029278914081019,-0.00012687874550465494,-0.12326595187187195,0.7402273416519165,1.0738542913829578e-31,0.03201713040471077,1.443540334701538,2.699512697290629e-05,-0.016964953392744064
122.0,180.0,5.9964,-2.4915,6.0826,-0.0237,0.0078,-0.1413,-2.0235101185240687,-0.10410014539957047,3.247265338897705,-0.8656182885169983,0.0028765778988599777,1.9283210039138794,3.64725844442334,0.00015734578482806683,0.3097069561481476,-1.202967945729391,-0.00010559653310338035,-0.14533206820487976,0.7401317358016968,2.9891125254591103e-35,0.010948644019663334,1.4434841871261597,2.4766521164565347e-05,-0.011637667194008827
122.0,180.0,5.9964,-2.4915,6.0826,-0.0237,0.0078,-0.1413,-2.024325510064596,-0.0905459001660347,3.2865915298461914,-0.8655582070350647,0.005379711743444204,1.8990564346313477,3.6473147112080078,0.0009783462155610323,0.30972790718078613,-1.202967945729391,-0.00011569534399313852,-0.13615542650222778,0.7402076125144958,5.432567899479094e-40,0.011316033080220222,1.4435203075408936,4.451628774404526e-05,-0.016227316111326218
122.0,180.0,5.9964,-2.4915,6.0826,-0.0237,0.0078,-0.1413,-2.0248810253539027,-0.08623967319726944,3.2956013679504395,-0.865546703338623,0.005927851889282465,1.948089838027954,3.6473066049763183,0.0012734370538964868,0.30663737654685974,-1.2030122915851038,-0.0001222344144480303,-0.13825072348117828,0.740135669708252,1.5134023414708024e-43,0.01504608616232872,1.4435603618621826,4.153263580519706e-05,0.009329622611403465
122.0,180.0,5.9964,-2.4915,6.0826,-0.0237,0.0078,-0.1413,-2.025583406487936,-0.09123345464468002,3.30592679977417,-0.8655668497085571,0.0017088755266740918,1.9999359846115112,3.6473423677631835,0.00241810898296535,0.31773900985717773,-1.2030003706561487,-0.00033954711398109794,-0.1389887034893036,0.7401674389839172,0.0,0.026228712871670723,1.4435120820999146,7.612589979544282e-05,0.008707128465175629
115.0,178.0,5.9228,-2.9204,6.1902,-0.0363,0.0231,-0.1431,-2.0261389217772425,-0.09525054693222046,3.307404041290283,-0.8655747175216675,0.00063747086096555,1.9810395240783691,3.647382898921631,0.00490028178319335,0.32229363918304443,-1.203048054371969,-0.0003797102835960686,-0.1340220421552658,0.7401478886604309,0.0,0.019069213420152664,1.44358491897583,0.00013141936506144702,0.005419096909463406
115.0,178.0,5.9228,-2.9204,6.1902,-0.0363,0.0231,-0.1431,-2.026966711083883,-0.10265792906284332,3.3599772453308105,-0.8655228614807129,0.0002174651890527457,1.9268903732299805,3.647474928493164,0.00926945824176073,0.31628066301345825,-1.202996079121725,-0.00045217748265713453,-0.1552935093641281,0.7401559352874756,0.0,0.0077170925214886665,1.443568229675293,0.0017499554669484496,0.1393905133008957
115.0,178.0,5.9228,-2.9204,6.1902,-0.0363,0.0231,-0.1431,-2.027477880517477,-0.10523790121078491,3.340549945831299,-0.8654825091362,0.0036087059415876865,1.9440628290176392,3.647566958064697,0.016004955396056175,0.33680254220962524,-1.20300800005068,-0.0005262109916657209,-0.15152201056480408,0.7402273416519165,0.0,0.013992752879858017,1.4436008930206299,0.0017793657025322318,0.04749953746795654
115.0,178.0,5.9228,-2.9204,6.1902,-0.0363,0.0231,-0.1431,-2.02832092861318,-0.09646522253751755,3.4398560523986816,-0.8654146194458008,0.011310539208352566,1.9979169368743896,3.647763414973877,0.03123616985976696,0.33779430389404297,-1.2030285040484827,-0.0006938690203242004,-0.14523400366306305,0.7401677966117859,0.0,0.02339172549545765,1.4435439109802246,0.0017600249266251922,0.11157087236642838
115.0,178.0,5.9228,-2.9204,6.1902,-0.0363,0.0231,-0.1431,-2.028839727441305,-0.08210744708776474,3.495032787322998,-0.8653178215026855,0.015069159679114819,2.0163331031799316,3.647995634669922,0.0487959161400795,0.3563155233860016,-1.2030318419085901,-0.0007046416285447776,-0.15598411858081818,0.7401638031005859,0.0,0.011239361017942429,1.4435802698135376,0.0019000251777470112,0.07270201295614243
115.0,178.0,5.9228,-2.9204,6.1902,-0.0363,0.0231,-0.1431,-2.029619356194967,-0.07263334840536118,3.4995036125183105,-0.8651858568191528,0.013799885287880898,2.070896625518799,3.6485659319111328,0.08853577822446823,0.3859703242778778,-1.2030318419085901,-0.001889035222120583,-0.1622086614370346,0.740131676197052,0.0,0.02142280340194702,1.4436041116714478,0.003502481384202838,0.13362374901771545
115.0,178.0,5.9228,-2.9204,6.1902,-0.0363,0.0231,-0.1431,-2.0300785503783167,-0.07557723671197891,3.4953203201293945,-0.8651660084724426,0.008061345666646957,2.0268020629882812,3.649174376125,0.1316438615322113,0.393088698387146,-1.2030518690692347,-0.0036479567643254995,-0.15083424746990204,0.7401638031005859,0.0,0.003437833394855261,1.4436323642730713,0.005817176308482885,0.13695746660232544
115.0,178.0,5.9228,-2.9204,6.1902,-0.0363,0.0231,-0.1431,-2.0307499370970667,-0.08804727345705032,3.4581081867218018,-0.8651582598686218,-0.00037870981032028794,1.998231291770935,3.65043227254834,0.1582111269235611,0.4099554717540741,-1.2031562964068812,-0.02167479321360588,-0.16029983758926392,0.7401039004325867,0.0,0.021770427003502846,1.44370436668396,0.008090713061392307,0.1579195111989975
115.0,178.0,5.9228,-2.9204,6.1902,-0.0363,0.0231,-0.1431,-2.031285902062887,-0.09668634086847305,3.418541193008423,-0.8652191758155823,-0.0019171216990798712,1.9363670349121094,3.6514288622089843,0.17347769439220428,0.4114060699939728,-1.2032278219806116,-0.023805046454072,-0.18034403026103973,0.7401952743530273,0.0,0.001556329894810915,1.4437400102615356,0.008011163212358952,0.17579445242881775
115.0,178.0,5.9228,-2.9204,6.1902,-0.0363,0.0231,-0.1431,-2.0320493183531703,-0.09663154929876328,3.4349191188812256,-0.8651463389396667,0.003464239649474621,1.9880778789520264,3.653048201198242,0.2232566624879837,0.43484658002853394,-1.203378979359762,-0.013387720100581646,-0.16740964353084564,0.7401599287986755,0.0,0.023743657395243645,1.443796157836914,0.005750016309320927,0.1595688909292221
115.0,178.0,5.9228,-2.9204,6.1902,-0.0363,0.0231,-0.1431,-2.0324956379332484,-0.09104921668767929,3.4089274406433105,-0.8650701642036438,0.006397543475031853,1.991651177406311,3.654477758998535,0.24290862679481506,0.4220663011074066,-1.2034552733050745,-0.0049383691512048244,-0.16173171997070312,0.7401794791221619,0.0,0.019809523597359657,1.4438202381134033,0.003508862340822816,0.12365400791168213
115.0,178.0,5.9228,-2.9204,6.1902,-0.0363,0.0231,-0.1431,-2.033198972741598,-0.08311491459608078,3.394083023071289,-0.8649495840072632,0.013346413150429726,1.9678194522857666,3.656536265010498,0.2848604917526245,0.43818581104278564,-1.2034347693072718,-5.276651336316718e-06,-0.1525631546974182,0.7401638031005859,0.0,0.017550498247146606,1.4438362121582031,0.0020190966315567493,0.18193456530570984
115.0,178.0,5.9228,-2.9204,6.1902,-0.0363,0.0231,-0.1431,-2.033750196496481,-0.08588653057813644,3.3861777782440186,-0.8648775219917297,0.01378569845110178,1.9988973140716553,3.65827385961499,0.30219683051109314,0.45752882957458496,-1.2034547964679163,-1.468775101542974e-09,-0.1583867073059082,0.7401677370071411,0.0,0.015616463497281075,1.443827748298645,0.0021126396022737026,0.18672049045562744
103.0,168.0,8.0237,-3.7627,5.059,-0.0522,0.2531,-0.0011,-2.0345541439452113,-0.09203658998012543,3.344287633895874,-0.8648179769515991,0.010634679347276688,1.961522102355957,3.660903139705322,0.33588093519210815,0.47490108013153076,-1.2034552733050745,-2.669426366151001e-14,-0.19101554155349731,0.7402114868164062,0.0,0.015179150737822056,1.443872332572937,0.0026161062996834517,0.24051876366138458
103.0,168.0,8.0237,-3.7627,5.059,-0.0522,0.2531,-0.0011,-2.035076757470602,-0.09008505195379257,3.3378148078918457,-0.8647491931915283,0.005775919649749994,1.9804877042770386,3.6628596025654296,0.3522265553474426,0.48526182770729065,-1.203419033681051,-7.430445982916865e-18,-0.17454734444618225,0.7401913404464722,0.0,0.01258903183043003,1.443872332572937,0.002402058569714427,0.1947430968284607
103.0,168.0,8.0237,-3.7627,5.059,-0.0522,0.2531,-0.0011,-2.035872598687643,-0.08991381525993347,3.2501015663146973,-0.8647899627685547,0.00149553082883358,1.9524216651916504,3.6657420831867675,0.3825936019420624,0.48880547285079956,-1.2034390608416956,-1.3504470708977602e-22,-0.17453168332576752,0.7401559352874756,0.0,0.01578165963292122,1.443900465965271,0.0022674889769405127,0.2052115797996521
103.0,168.0,8.0237,-3.7627,5.059,-0.0522,0.2531,-0.0011,-2.036448141137594,-0.08934585750102997,3.2799935340881348,-0.8647336363792419,0.00041372820851393044,1.8618519306182861,3.6681458193012695,0.3982747793197632,0.48716670274734497,-1.2034390608416956,-3.759018972098527e-26,-0.17084407806396484,0.7401599287986755,0.0,0.022614138200879097,1.4438759088516235,0.0017218395369127393,0.2771378755569458
103.0,168.0,8.0237,-3.7627,5.059,-0.0522,0.2531,-0.0011,-2.0370904407896937,-0.09035273641347885,3.1993494033813477,-0.8647899627685547,-9.439839777769521e-05,1.9058256149291992,3.671369715327881,0.41416794061660767,0.4961938261985779,-1.2034228483783167,-6.831831637459296e-31,-0.17407147586345673,0.7402154803276062,0.0,0.009914351627230644,1.443904161453247,0.001314185094088316,0.2804764211177826
103.0,168.0,8.0237,-3.7627,5.059,-0.0522,0.2531,-0.0011,-2.0376421413817347,-0.09591995179653168,3.1576614379882812,-0.864741861820221,-6.517261175176259e-10,1.844187617301941,3.673903627986572,0.43515241146087646,0.4974522888660431,-1.2034667173968714,-1.9016657435642224e-34,-0.18298658728599548,0.7401558756828308,0.0,-0.0029637417756021023,1.4438923597335815,0.0011887658620253205,0.2818889021873474
103.0,168.0,8.0237,-3.7627,5.059,-0.0522,0.2531,-0.0011,-2.0384537182249964,-0.09972574561834335,3.1246938705444336,-0.8647899627685547,-2.1115098698228766e-17,1.827479600906372,3.677464171046875,0.4478868544101715,0.5040895938873291,-1.2035310904132288,-0.0009515212732367218,-0.1837703138589859,0.7401278614997864,0.0,-0.002194055588915944,1.4438960552215576,0.0011745889205485582,0.29920199513435364
103.0,168.0,8.0237,-3.7627,5.059,-0.0522,0.2531,-0.0011,-2.039061208764547,-0.09992881119251251,3.099780321121216,-0.8647097945213318,-5.0990482699540767e-23,1.842853307723999,3.6801950174519042,0.4518817961215973,0.5080791115760803,-1.20351487794985,-0.004154840484261513,-0.1979045867919922,0.7401397228240967,0.0,0.00902035366743803,1.4438960552215576,0.0009543537744320929,0.3323625922203064
103.0,168.0,8.0237,-3.7627,5.059,-0.0522,0.2531,-0.0011,-2.0397755108275355,-0.09256386756896973,3.0487570762634277,-0.8647541999816895,0.0009493895922787488,1.859800100326538,3.6837894159504394,0.45148876309394836,0.4964771866798401,-1.2035988012896937,-0.004725939594209194,-0.20539221167564392,0.740135669708252,0.0,0.010274011641740799,1.443904161453247,0.0006519635790027678,0.3812735676765442
103.0,168.0,8.0237,-3.7627,5.059,-0.0522,0.2531,-0.0011,-2.0405355892577113,-0.08837071806192398,3.0936880111694336,-0.8647738695144653,0.0003686404670588672,1.8311736583709717,3.6873575884052734,0.45413267612457275,0.49957168102264404,-1.203590218220846,-0.005961991846561432,-0.201764315366745,0.7401559948921204,4.642020656753232e-10,-0.010396027937531471,1.4439120292663574,0.00039916427340358496,0.4634566307067871
103.0,168.0,8.0237,-3.7627,5.059,-0.0522,0.2531,-0.0011,-2.0411392650999964,-0.08643248677253723,3.026963233947754,-0.8647014498710632,0.00010632653720676899,1.7984933853149414,3.689999743098877,0.42865511775016785,0.4892500638961792,-1.2036140600787562,-0.00813932716846466,-0.22363890707492828,0.7401238679885864,1.2921234178106533e-13,-0.00268258317373693,1.4439243078231812,0.0003144215152133256,0.37450727820396423
103.0,168.0,8.0237,-3.7627,5.059,-0.0522,0.2531,-0.0011,-2.041769643823141,-0.08745833486318588,2.948951482772827,-0.8647573590278625,9.826692411174509e-12,1.8053061962127686,3.6932779985615234,0.4054544270038605,0.4809122383594513,-1.2037385145770472,-0.005242391023784876,-0.21352526545524597,0.7401158809661865,2.3483705153265677e-18,-0.006014837883412838,1.4438600540161133,0.0002890242321882397,0.42430806159973145
103.0,168.0,8.0237,-3.7627,5.059,-0.0522,0.2531,-0.0011,-2.0423175297179164,-0.08924759924411774,2.9357712268829346,-0.8648019433021545,2.3730304651070292e-17,1.8068205118179321,3.695624514217041,0.3874104619026184,0.44995760917663574,-1.2037261168109339,-0.0032890161965042353,-0.22778770327568054,0.7401238679885864,6.536775605603086e-22,-0.001501403283327818,1.4438718557357788,0.00025336709222756326,0.43911468982696533
112.0,163.0,4.4405,-2.4108,6.7831,-0.0333,0.2388,-0.0535,-2.042976518670553,-0.08839409798383713,2.9169881343841553,-0.8647738695144653,7.688316282298372e-25,1.771090030670166,3.6985789972492675,0.3565828800201416,0.44349634647369385,-1.203749958668844,-0.0046126446686685085,-0.2343471646308899,0.7401158213615417,1.1880266803043815e-26,-0.004316095262765884,1.4438923597335815,0.000248881260631606,0.4793165326118469
112.0,163.0,4.4405,-2.4108,6.7831,-0.0333,0.2388,-0.0535,-2.0434395275511683,-0.08684367686510086,2.8888165950775146,-0.8647376894950867,1.8566376557113482e-30,1.8183726072311401,3.7005573946186523,0.3297623097896576,0.4329192638397217,-1.203778092061178,-0.006174509413540363,-0.22612187266349792,0.7401437163352966,3.30691575406095e-30,-0.0012145331129431725,1.4438399076461792,0.00025429122615605593,0.5303589105606079
112.0,163.0,4.4405,-2.4108,6.7831,-0.0333,0.2388,-0.0535,-2.0440827808775843,-0.08389497548341751,2.8159446716308594,-0.8647298812866211,6.015270960938054e-38,1.823320746421814,3.702993078822754,0.27977773547172546,0.42208606004714966,-1.2038138548480433,-0.004005993716418743,-0.22970831394195557,0.7401357293128967,6.010155678960503e-35,0.0008716749725863338,1.4438800811767578,0.0002853238838724792,0.48847562074661255
112.0,163.0,4.4405,-2.4108,6.7831,-0.0333,0.2388,-0.0535,-2.0445710621275843,-0.07870343327522278,2.9545845985412598,-0.8647298216819763,0.002452885266393423,1.7920494079589844,3.704493685359619,0.26269885897636414,0.40074896812438965,-1.2038620154010218,-0.005214374978095293,-0.23982855677604675,0.740135669708252,1.6729491399443545e-38,0.00027602503541857004,1.4438681602478027,0.0007908651605248451,0.5518969297409058
112.0,163.0,4.4405,-2.4108,6.7831,-0.0333,0.2388,-0.0535,-2.0451823673644007,-0.0714530497789383,2.971914768218994,-0.8647024035453796,0.002334780525416136,1.8646445274353027,3.7063705164143066,0.21057851612567902,0.38987964391708374,-1.2039092222796839,-0.005904779769480228,-0.22967788577079773,0.7401198148727417,3.040817667584853e-43,-0.009636259637773037,1.4438964128494263,0.0008303831564262509,0.5044689774513245
112.0,163.0,4.4405,-2.4108,6.7831,-0.0333,0.2388,-0.0535,-2.0456301174559535,-0.06712120026350021,2.9466800689697266,-0.8646616339683533,0.0016134812030941248,1.826033115386963,3.707497759456299,0.18141797184944153,0.369903564453125,-1.2039373556720179,-0.0038009569980204105,-0.23730653524398804,0.7401158809661865,0.0,-0.00999460369348526,1.443912386894226,0.0007588529260829091,0.5556504726409912
112.0,163.0,4.4405,-2.4108,6.7831,-0.0333,0.2388,-0.0535,-2.046157022515768,-0.06715208292007446,2.9612622261047363,-0.8647060394287109,0.000689153850544244,1.7939186096191406,3.7086478906818847,0.11971690505743027,0.3506895899772644,-1.204005543385641,-0.003885001176968217,-0.2373383790254593,0.7401718497276306,0.0,0.0018693121382966638,1.443904161453247,0.0007090946310199797,0.5116617679595947
112.0,163.0,4.4405,-2.4108,6.7831,-0.0333,0.2388,-0.0535,-2.046572347680563,-0.0693032369017601,2.962033748626709,-0.8647138476371765,0.00047207248280756176,1.845555305480957,3.7091213899799804,0.04727513715624809,0.3179536461830139,-1.2040017286883753,-0.00481242872774601,-0.24278482794761658,0.7401158809661865,0.0,-0.0051249670796096325,1.4439083337783813,0.0006021857843734324,0.5033657550811768
112.0,163.0,4.4405,-2.4108,6.7831,-0.0333,0.2388,-0.0535,-2.0470391712584437,-0.0657450258731842,2.9683115482330322,-0.8646817207336426,0.000442304415628314,1.846301555633545,3.709045096034668,-0.03748936206102371,0.2852054834365845,-1.2040537039386194,-0.003955598454922438,-0.24111296236515045,0.7401598691940308,0.0,-0.005870166700333357,1.4438881874084473,0.0006078503793105483,0.5153722167015076
112.0,163.0,4.4405,-2.4108,6.7831,-0.0333,0.2388,-0.0535,-2.047386785546774,-0.06087089702486992,2.9431962966918945,-0.8646495938301086,0.0004350128583610058,1.8629145622253418,3.708770914668701,-0.06424205750226974,0.2634323239326477,-1.2040775457965296,-0.007874151691794395,-0.24271166324615479,0.7401677370071411,0.0,0.00046610517892986536,1.4439201354980469,0.000826836796477437,0.4795042872428894
112.0,163.0,4.4405,-2.4108,6.7831,-0.0333,0.2388,-0.0535,-2.0478950939574183,-0.05540087819099426,3.0002737045288086,-0.8647386431694031,0.0012987533118575811,1.8675068616867065,3.708312674159668,-0.06333877146244049,0.2602488696575165,-1.2041853109942835,-0.010210174135863781,-0.2509664297103882,0.7401198148727417,0.0,0.0027681617066264153,1.4439197778701782,0.001670023426413536,0.5650354623794556
112.0,163.0,4.4405,-2.4108,6.7831,-0.0333,0.2388,-0.0535,-2.0481778583922328,-0.05320146679878235,2.999250888824463,-0.8646537661552429,0.0009106864454224706,1.8310973644256592,3.7079974847980957,-0.04212098941206932,0.26432347297668457,-1.2042248884784144,-0.010869667865335941,-0.2548257112503052,0.7401793599128723,0.0,0.008341110311448574,1.443940281867981,0.002634247299283743,0.5259066224098206
112.0,163.0,4.4405,-2.4108,6.7831,-0.0333,0.2388,-0.0535,-2.048638006249899,-0.05111781135201454,3.0007529258728027,-0.864673912525177,0.0005636191344819963,1.8415086269378662,3.707815333003662,-0.01220646034926176,0.27914002537727356,-1.2042806784259241,-0.015423158183693886,-0.24985677003860474,0.7401198148727417,0.0,0.003969515208154917,1.4439480304718018,0.004108723718672991,0.5159130096435547
113.0,164.0,6.6054,-3.2596,6.0748,-0.009,0.0684,-0.1284,-2.048981329003805,-0.05144694447517395,2.9874954223632812,-0.8646335601806641,0.00035764911444857717,1.8454735279083252,3.707815333003662,0.0037496788427233696,0.2949759364128113,-1.204428497944967,-0.017977258190512657,-0.2570541799068451,0.7401873469352722,0.0,-0.009923765435814857,1.443963885307312,0.004303045570850372,0.5341735482215881
113.0,164.0,6.6054,-3.2596,6.0748,-0.009,0.0684,-0.1284,-2.0493694744505824,-0.05175883695483208,3.0363945960998535,-0.864657461643219,0.00027136103017255664,1.8386483192443848,3.7078592020222167,0.007573029957711697,0.2957645654678345,-1.2046077887164515,-0.030790340155363083,-0.265686571598053,0.7401317358016968,0.0,-0.0016112648881971836,1.4440404176712036,0.004104618448764086,0.5209234356880188
113.0,164.0,6.6054,-3.2596,6.0748,-0.009,0.0684,-0.1284,-2.0496603451170863,-0.05143327638506889,3.011751174926758,-0.8646697998046875,0.00022978616470936686,1.8673430681228638,3.707906885738037,0.003932766616344452,0.29474756121635437,-1.2048552672015589,-0.04762449488043785,-0.25428593158721924,0.740135669708252,0.0,-0.003958947956562042,1.444076418876648,0.005876387469470501,0.5486593246459961
113.0,164.0,6.6054,-3.2596,6.0748,-0.009,0.0684,-0.1284,-2.0500041447081507,-0.04477735236287117,2.951831817626953,-0.8646697998046875,0.00025399928563274443,1.8618943691253662,3.707894964809082,0.0014404784888029099,0.2883799076080322,-1.2054584662066858,-0.09083811938762665,-0.25323617458343506,0.7401039600372314,0.0,0.0018226271495223045,1.444091558456421,0.010847247205674648,0.6005978584289551
