ramyac6/ROB537/final_project/csv/good/good_184.csv
tof_0,tof_1,accelx,accely,accelz,gyrox,gyroy,gyroz,shoulder_lift_joint_position,shoulder_lift_joint_velocity,shoulder_lift_joint_effort,elbow_joint_position,elbow_joint_velocity,elbow_joint_effort,wrist_1_joint_position,wrist_1_joint_velocity,wrist_1_joint_effort,wrist_2_joint_position,wrist_2_joint_velocity,wrist_2_joint_effort,wrist_3_joint_position,wrist_3_joint_velocity,wrist_3_joint_effort,shoulder_pan_joint_position,shoulder_pan_joint_velocity,shoulder_pan_joint_effort
967.0,1000.0,2.013,0.1549,9.1956,-0.036,0.0338,-0.1199,-1.4206495744040986,0.0,1.4957407712936401,-2.043968915939331,-0.0,2.138962745666504,4.703622027034424,-0.0,0.30234262347221375,-1.5968897978412073,0.0,-0.013417353853583336,0.7880759835243225,0.0,-0.007508615031838417,0.8104634284973145,0.0,0.012454170733690262
967.0,1000.0,2.013,0.1549,9.1956,-0.036,0.0338,-0.1199,-1.4206534040025254,0.0,1.4556996822357178,-2.0439534187316895,-0.0,2.116776943206787,4.703622027034424,-0.0,0.29078739881515503,-1.5968535582171839,0.0,-0.009944317862391472,0.788139820098877,0.0,0.0047921533696353436,0.8104914426803589,0.0,-0.033309753984212875
967.0,1000.0,2.013,0.1549,9.1956,-0.036,0.0338,-0.1199,-1.4206616592458268,0.0,1.448302984237671,-2.0439813137054443,-0.0,2.088277578353882,4.703598185176514,-0.0,0.3075512647628784,-1.5968740622149866,0.0,-0.012908535078167915,0.7881561517715454,0.0,-0.0018045434262603521,0.8104754686355591,0.0,0.02994474396109581
967.0,1000.0,2.013,0.1549,9.1956,-0.036,0.0338,-0.1199,-1.4206616145423432,0.0,1.4548722505569458,-2.0439369678497314,-0.0,2.122246742248535,4.703613920802734,-0.0,0.2984098494052887,-1.5968616644488733,0.0,-0.007353433407843113,0.7880916595458984,0.0,0.0009872992523014545,0.8104994893074036,0.0,-0.015030443668365479
967.0,1000.0,2.013,0.1549,9.1956,-0.036,0.0338,-0.1199,-1.4206336003592988,0.0,1.4301260709762573,-2.0439813137054443,-0.0,2.098884344100952,4.703662558192871,-0.0,0.2953060567378998,-1.5968578497516077,0.0,-0.015808820724487305,0.788148045539856,0.0,-0.0038073002360761166,0.8104873895645142,0.0,0.02024184912443161
967.0,1000.0,2.013,0.1549,9.1956,-0.036,0.0338,-0.1199,-1.4206294578364869,0.0,1.43782639503479,-2.0439813137054443,-0.0,2.102468252182007,4.703610106105469,-0.0,0.2942294478416443,-1.5969098250018519,0.0,0.0014706463553011417,0.788135826587677,0.0,0.0008796078618615866,0.8104749917984009,0.0,-0.01834205351769924
967.0,1000.0,2.013,0.1549,9.1956,-0.036,0.0338,-0.1199,-1.4206698548844834,0.0,1.4318276643753052,-2.0439772605895996,-0.0,2.103330373764038,4.703678293819092,-0.0,0.29335492849349976,-1.5968335310565394,0.0,-0.011761844158172607,0.7881481647491455,0.0,0.0001606953446753323,0.8105155825614929,0.0,-0.0032910220324993134
991.0,991.0,2.0429,0.2106,9.2148,-0.0411,0.0261,-0.1164,-1.4206212770989914,0.0,1.4718618392944336,-2.0440256595611572,-0.0,2.09778094291687,4.703650160426758,-0.0,0.2980971038341522,-1.5969226996051233,0.0,-0.016594933345913887,0.7881680130958557,0.0,-0.01325208693742752,0.810451090335846,0.0,-0.010461591184139252
991.0,991.0,2.0429,0.2106,9.2148,-0.0411,0.0261,-0.1164,-1.4206575018218537,0.0,1.498759388923645,-2.0439419746398926,-0.0,2.054821014404297,4.703618212337158,-0.0,0.29205793142318726,-1.5969226996051233,0.0,-0.0026469011791050434,0.7881641387939453,0.0,-0.00864427164196968,0.8104754686355591,0.0,-0.05319008231163025
991.0,991.0,2.0429,0.2106,9.2148,-0.0411,0.0261,-0.1164,-1.420645461683609,0.0,1.4293971061706543,-2.043985366821289,-0.0,2.0965194702148438,4.703654451961182,-0.0,0.2970869541168213,-1.596893612538473,0.0,-0.007853145711123943,0.7881079316139221,0.0,-0.004375011660158634,0.8104754686355591,0.0,-0.003446960123255849
991.0,991.0,2.0429,0.2106,9.2148,-0.0411,0.0261,-0.1164,-1.420629547243454,0.0,1.469386100769043,-2.043968915939331,-0.0,2.1171679496765137,4.703618689174316,-0.0,0.29243016242980957,-1.5969303289996546,0.0,-0.012004153802990913,0.7881481051445007,0.0,0.007174670230597258,0.8104714155197144,0.0,-0.04793792963027954
991.0,991.0,2.0429,0.2106,9.2148,-0.0411,0.0261,-0.1164,-1.4206575465253373,0.0,1.4736098051071167,-2.044034004211426,-0.0,2.1322343349456787,4.703601999873779,-0.0,0.29340702295303345,-1.5968859831439417,0.0,-0.007969520054757595,0.788123607635498,0.0,-0.01540309190750122,0.810459315776825,0.0,-0.03935844078660011
991.0,991.0,2.0429,0.2106,9.2148,-0.0411,0.0261,-0.1164,-1.4206735801747818,0.0,1.46443510055542,-2.043989419937134,-0.0,2.128577947616577,4.703638239497803,-0.0,0.2956438362598419,-1.5968816916095179,0.0,-0.011062702164053917,0.7880997657775879,0.0,0.0011267929803580046,0.8104709386825562,0.0,0.015199362300336361
991.0,991.0,2.0429,0.2106,9.2148,-0.0411,0.0261,-0.1164,-1.420653448706009,0.0,1.4861235618591309,-2.04392147064209,-0.0,2.155012607574463,4.703658266658447,-0.0,0.2882215976715088,-1.5968292395221155,0.0,-0.00404129084199667,0.788111686706543,0.0,-0.008627727627754211,0.8104146122932434,0.0,-0.054028209298849106
991.0,991.0,2.0429,0.2106,9.2148,-0.0411,0.0261,-0.1164,-1.4206735056689759,0.0,1.475449800491333,-2.044013500213623,-0.0,2.1119284629821777,4.703622027034424,-0.0,0.29080307483673096,-1.5968897978412073,0.0,-0.0027438870165497065,0.7881276607513428,0.0,-0.007662803865969181,0.8104754686355591,0.0,-0.05809362232685089
991.0,991.0,2.0429,0.2106,9.2148,-0.0411,0.0261,-0.1164,-1.4206212323955079,0.0,1.475398302078247,-2.0439090728759766,-0.0,2.0854105949401855,4.703581972713135,-0.0,0.2968381345272064,-1.596865479146139,0.0,0.008000610396265984,0.7881076335906982,0.0,0.002176661742851138,0.8104713559150696,0.0,0.01797286421060562
991.0,991.0,2.0429,0.2106,9.2148,-0.0411,0.0261,-0.1164,-1.4206616443446656,0.0,1.4493201971054077,-2.0439977645874023,-0.0,2.0802955627441406,4.703638239497803,-0.0,0.29683321714401245,-1.5969060103045862,0.0,0.0022567238193005323,0.7881481051445007,0.0,-0.011549483984708786,0.8104953169822693,0.0,0.017127715051174164
991.0,991.0,2.0429,0.2106,9.2148,-0.0411,0.0261,-0.1164,-1.420641378765442,0.0,1.4964232444763184,-2.0439980030059814,-0.0,2.104586124420166,4.703654451961182,-0.0,0.2945939600467682,-1.5968740622149866,0.0,-0.005215066019445658,0.7880998253822327,0.0,-0.010064436122775078,0.8105115294456482,0.0,0.006480671465396881
991.0,991.0,2.0429,0.2106,9.2148,-0.0411,0.0261,-0.1164,-1.420641378765442,0.0,1.4393179416656494,-2.0439369678497314,-0.0,2.09428071975708,4.703650160426758,-0.0,0.28782132267951965,-1.5968859831439417,0.0,0.0012639891356229782,0.788111686706543,0.0,-0.00888779666274786,0.8104631304740906,0.0,0.08441445976495743
963.0,985.0,1.998,0.1753,9.2501,-0.0385,0.0226,-0.0809,-1.42070226491008,0.0,1.4448481798171997,-2.043933868408203,-0.0,2.1063058376312256,4.703674955958984,-0.0,0.2891480326652527,-1.5968173185931605,0.0,-0.00439647538587451,0.7880800366401672,0.0,-0.0033447020687162876,0.810459315776825,0.0,-0.008156679570674896
963.0,985.0,1.998,0.1753,9.2501,-0.0385,0.0226,-0.0809,-1.4206735354712983,0.0,1.464923620223999,-2.043968915939331,-0.0,2.1192402839660645,4.703610106105469,-0.0,0.28937795758247375,-1.5968697706805628,0.0,-0.009551611728966236,0.7881157398223877,0.0,0.005427675787359476,0.8104714155197144,0.0,-0.013843590393662453
963.0,985.0,1.998,0.1753,9.2501,-0.0385,0.0226,-0.0809,-1.420689882045128,0.0,1.457772970199585,-2.0440011024475098,-0.0,2.1261701583862305,4.703686400050781,-0.0,0.2920674681663513,-1.596877400075094,0.0,-0.009118834510445595,0.7881520986557007,0.0,0.007104581221938133,0.8104873895645142,0.0,0.0017548366449773312
963.0,985.0,1.998,0.1753,9.2501,-0.0385,0.0226,-0.0809,-1.4206372511437912,0.0,1.4573452472686768,-2.0439813137054443,-0.0,2.0738017559051514,4.703638239497803,-0.0,0.3026041090488434,-1.5968816916095179,0.0,-0.018187103793025017,0.788163959980011,0.0,0.0003178797196596861,0.810451090335846,0.0,-0.006080723833292723
963.0,985.0,1.998,0.1753,9.2501,-0.0385,0.0226,-0.0809,-1.4206735503724595,0.0,1.4656485319137573,-2.043973445892334,-0.0,2.09565806388855,4.703626318568848,-0.0,0.30096113681793213,-1.5968454519854944,0.0,-0.013096884824335575,0.7880793809890747,0.0,0.008161371573805809,0.8104956150054932,0.0,-0.02758152224123478
963.0,985.0,1.998,0.1753,9.2501,-0.0385,0.0226,-0.0809,-1.4206454765847703,0.0,1.4814960956573486,-2.0439658164978027,-0.0,2.076561212539673,4.703618212337158,-0.0,0.2913847863674164,-1.5968859831439417,0.0,-0.001911234692670405,0.7881399393081665,0.0,-0.0026715253479778767,0.8105155825614929,0.0,0.0299251489341259
963.0,985.0,1.998,0.1753,9.2501,-0.0385,0.0226,-0.0809,-1.420649604206421,0.0,1.4427467584609985,-2.0439977645874023,-0.0,2.10862135887146,4.703646345729492,-0.0,0.2881835699081421,-1.5968497435199183,0.0,0.005624933633953333,0.7880915999412537,0.0,-0.012834429740905762,0.8105155825614929,0.0,0.003917916212230921
963.0,985.0,1.998,0.1753,9.2501,-0.0385,0.0226,-0.0809,-1.420645461683609,0.0,1.4304804801940918,-2.0439813137054443,-0.0,2.0942065715789795,4.703638239497803,-0.0,0.30274438858032227,-1.5968816916095179,0.0,-0.0023978983517736197,0.788051426410675,0.0,0.0018191784620285034,0.8104994297027588,0.0,0.002240953501313925
963.0,985.0,1.998,0.1753,9.2501,-0.0385,0.0226,-0.0809,-1.420657531624176,0.0,1.4292670488357544,-2.0439255237579346,-0.0,2.083430290222168,4.703625841731689,-0.0,0.30177608132362366,-1.596865479146139,0.0,-0.012446869164705276,0.7881317138671875,0.0,0.0008537365356460214,0.8104915022850037,0.0,0.03915330022573471
963.0,985.0,1.998,0.1753,9.2501,-0.0385,0.0226,-0.0809,-1.4206129771522065,0.0,1.4651198387145996,-2.0439772605895996,-0.0,2.1093950271606445,4.703658266658447,-0.0,0.3026505708694458,-1.5969060103045862,0.0,-0.015533486381173134,0.7881439328193665,0.0,-0.017027582973241806,0.8105076551437378,0.0,0.03513861447572708
963.0,985.0,1.998,0.1753,9.2501,-0.0385,0.0226,-0.0809,-1.420645461683609,0.0,1.4948683977127075,-2.0439534187316895,-0.0,2.1067545413970947,4.703682108516357,-0.0,0.2944507300853729,-1.5969141165362757,0.0,-0.004519053269177675,0.788111686706543,0.0,-0.01637079566717148,0.8104795813560486,0.0,0.004424490965902805
963.0,985.0,1.998,0.1753,9.2501,-0.0385,0.0226,-0.0809,-1.4206699293902894,0.0,1.4717860221862793,-2.043917179107666,-0.0,2.119621992111206,4.703650160426758,-0.0,0.2880088686943054,-1.5968897978412073,0.0,0.007904015481472015,0.7880997657775879,0.0,-0.003908456303179264,0.8104953169822693,0.0,0.0054448870941996574
1025.0,984.0,1.9962,0.1825,9.2967,-0.0441,0.0264,-0.1194,-1.4206534040025254,0.0,1.51115083694458,-2.0439648628234863,-0.0,2.0805084705352783,4.703610106105469,-0.0,0.29356709122657776,-1.5968616644488733,0.0,0.0062749129720032215,0.7881035208702087,0.0,0.0019064201042056084,0.8104994297027588,0.0,-0.007982554845511913
1025.0,984.0,1.9962,0.1825,9.2967,-0.0441,0.0264,-0.1194,-1.4206253749183197,0.0,1.464846134185791,-2.0439453125,-0.0,2.1065421104431152,4.7035862642475585,-0.0,0.28918367624282837,-1.5968130270587366,0.0,-0.0063302237540483475,0.7880277037620544,0.0,-0.003127520438283682,0.8105117678642273,0.0,0.008318057283759117
1025.0,984.0,1.9962,0.1825,9.2967,-0.0441,0.0264,-0.1194,-1.420641378765442,0.0,1.4986162185668945,-2.043985605239868,-0.0,2.1241445541381836,4.703610106105469,-0.0,0.29595884680747986,-1.5969222227679651,0.0,-0.01033241767436266,0.7881520390510559,0.0,-0.017693210393190384,0.8104953765869141,0.0,0.02869744971394539
1025.0,984.0,1.9962,0.1825,9.2967,-0.0441,0.0264,-0.1194,-1.4206372660449524,0.0,1.3881028890609741,-2.0439493656158447,-0.0,2.1023106575012207,4.703613920802734,-0.0,0.301355242729187,-1.5968735853778284,0.0,0.00642920657992363,0.7880994081497192,0.0,-0.0011243948247283697,0.8105400204658508,0.0,0.014871391467750072
1025.0,984.0,1.9962,0.1825,9.2967,-0.0441,0.0264,-0.1194,-1.42063723624263,0.0,1.4498567581176758,-2.043952465057373,-0.0,2.1437389850616455,4.703626318568848,-0.0,0.30716443061828613,-1.5968378225909632,0.0,-0.010878422297537327,0.7881357669830322,0.0,-0.00848435889929533,0.8105197548866272,0.0,-0.003102479735389352
1025.0,984.0,1.9962,0.1825,9.2967,-0.0441,0.0264,-0.1194,-1.4206335854581376,0.0,1.475994348526001,-2.0439772605895996,-0.0,2.1285064220428467,4.703658266658447,-0.0,0.29881319403648376,-1.596893612538473,0.0,-0.004855679348111153,0.7881439924240112,0.0,-0.00018168846145272255,0.8105035424232483,0.0,0.018701843917369843
1025.0,984.0,1.9962,0.1825,9.2967,-0.0441,0.0264,-0.1194,-1.4206694078496476,0.0,1.4803377389907837,-2.043985366821289,-0.0,2.1210711002349854,4.703618212337158,-0.0,0.3024265170097351,-1.596882168446676,0.0,-0.0202316977083683,0.7880515456199646,0.0,-0.0002170085208490491,0.8104873895645142,0.0,0.0056001124903559685
1025.0,984.0,1.9962,0.1825,9.2967,-0.0441,0.0264,-0.1194,-1.4205971372178574,0.0,1.4573819637298584,-2.0439772605895996,-0.0,2.090057611465454,4.703590078944824,-0.0,0.3093104660511017,-1.5968778769122522,0.0,0.0007149846060201526,0.7881197333335876,0.0,0.0014029780868440866,0.8104713559150696,0.0,-0.03148622065782547
1025.0,984.0,1.9962,0.1825,9.2967,-0.0441,0.0264,-0.1194,-1.4206859034350892,0.0,1.4759809970855713,-2.0439298152923584,-0.0,2.1263833045959473,4.703650637263916,-0.0,0.30603405833244324,-1.5968535582171839,0.0,-0.002340310951694846,0.7881718873977661,0.0,0.00028589903376996517,0.810459315776825,0.0,0.0034034852869808674
1025.0,984.0,1.9962,0.1825,9.2967,-0.0441,0.0264,-0.1194,-1.4206616443446656,0.0,1.4557551145553589,-2.0439937114715576,-0.0,2.0729002952575684,4.703626318568848,-0.0,0.30399149656295776,-1.5968740622149866,0.0,6.2247272580862045e-06,0.7880997657775879,0.0,-0.00288462545722723,0.8104953169822693,0.0,-0.007407236844301224
1025.0,984.0,1.9962,0.1825,9.2967,-0.0441,0.0264,-0.1194,-1.4206253749183197,0.0,1.4321613311767578,-2.0439131259918213,-0.0,2.065511703491211,4.703633947963379,-0.0,0.30021440982818604,-1.5968816916095179,0.0,-0.00024504243629053235,0.7880916595458984,0.0,-0.008556722663342953,0.8104915022850037,0.0,-0.03318282216787338
1025.0,984.0,1.9962,0.1825,9.2967,-0.0441,0.0264,-0.1194,-1.4206537169269104,0.0,1.4526236057281494,-2.043968915939331,-0.0,2.0967764854431152,4.703622503871582,-0.0,0.294121652841568,-1.5968697706805628,0.0,-0.00546145997941494,0.7881479859352112,0.0,-0.0016343833412975073,0.8104832768440247,0.0,-0.008845435455441475
8190.0,981.0,2.0465,0.1567,9.2411,-0.0412,0.0217,-0.1243,-1.4206575465253373,0.0,1.465002417564392,-2.044013500213623,-0.0,2.111189126968384,4.703642054195068,-0.0,0.2928187847137451,-1.5969017187701624,0.0,-0.0012574800057336688,0.7880355715751648,0.0,0.004303724505007267,0.8104633688926697,0.0,-0.02239801548421383
8190.0,981.0,2.0465,0.1567,9.2411,-0.0412,0.0217,-0.1243,-1.4206454765847703,0.0,1.4565410614013672,-2.044029712677002,-0.0,2.107036590576172,4.703634424800537,-0.0,0.3015977144241333,-1.5968616644488733,0.0,0.0034417775459587574,0.7881558537483215,0.0,-0.004378327634185553,0.8104673027992249,0.0,-0.025619816035032272
8190.0,981.0,2.0465,0.1567,9.2411,-0.0412,0.0217,-0.1243,-1.42070588589225,0.0,1.4674662351608276,-2.0439772605895996,-0.0,2.1176810264587402,4.7036143976398925,-0.0,0.29143601655960083,-1.5969017187701624,0.0,-0.0020203276071697474,0.7880637645721436,0.0,0.0054849255830049515,0.8105156421661377,0.0,0.011988962069153786
8190.0,981.0,2.0465,0.1567,9.2411,-0.0412,0.0217,-0.1243,-1.4206817311099549,0.0,1.4629849195480347,-2.043917179107666,-0.0,2.0939157009124756,4.703674955958984,-0.0,0.3059513568878174,-1.5968816916095179,0.0,-0.012302863411605358,0.7880597114562988,0.0,0.0014093895442783833,0.8104914426803589,0.0,0.028002683073282242
8190.0,981.0,2.0465,0.1567,9.2411,-0.0412,0.0217,-0.1243,-1.4206336003592988,0.0,1.4413573741912842,-2.0439937114715576,-0.0,2.1064867973327637,4.703666372890137,-0.0,0.28869831562042236,-1.5968616644488733,0.0,-0.010592340491712093,0.7881078720092773,0.0,0.0036847535520792007,0.8104956150054932,0.0,0.02188517339527607
8190.0,981.0,2.0465,0.1567,9.2411,-0.0412,0.0217,-0.1243,-1.42063723624263,0.0,1.460564136505127,-2.0439453125,-0.0,2.0731253623962402,4.703634424800537,-0.0,0.2884419560432434,-1.5968616644488733,0.0,-0.0013856528094038367,0.7881276607513428,0.0,0.011210736818611622,0.8105197548866272,0.0,0.023527048528194427
8190.0,981.0,2.0465,0.1567,9.2411,-0.0412,0.0217,-0.1243,-1.4206335705569764,0.0,1.4610395431518555,-2.0439977645874023,-0.0,2.1284661293029785,4.7036425310322265,-0.0,0.29264888167381287,-1.596865479146139,0.0,-0.0009402267169207335,0.7881075739860535,0.0,0.001225295476615429,0.8104469776153564,0.0,0.021346932277083397
8190.0,981.0,2.0465,0.1567,9.2411,-0.0412,0.0217,-0.1243,-1.4206212323955079,0.0,1.4651321172714233,-2.043985366821289,-0.0,2.0772175788879395,4.703633947963379,-0.0,0.2925284504890442,-1.5968297163592737,0.0,0.0012812130153179169,0.7881196737289429,0.0,-0.00569568807259202,0.8104754686355591,0.0,0.03591980040073395
8190.0,981.0,2.0465,0.1567,9.2411,-0.0412,0.0217,-0.1243,-1.4206253749183197,0.0,1.5080251693725586,-2.0439534187316895,-0.0,2.056411027908325,4.703662081355713,-0.0,0.29464948177337646,-1.5969017187701624,0.0,0.000468816957436502,0.7881317734718323,0.0,0.014449622482061386,0.810459315776825,0.0,0.007599553558975458
8190.0,981.0,2.0465,0.1567,9.2411,-0.0412,0.0217,-0.1243,-1.420673520570137,0.0,1.4691230058670044,-2.0439810752868652,-0.0,2.0921082496643066,4.703653975124023,-0.0,0.30270349979400635,-1.5969141165362757,0.0,-0.00938945822417736,0.7881479859352112,0.0,0.00043543288484215736,0.8104351162910461,0.0,0.036068953573703766
8190.0,981.0,2.0465,0.1567,9.2411,-0.0412,0.0217,-0.1243,-1.4206611675075074,0.0,1.4649195671081543,-2.043985366821289,-0.0,2.152825355529785,4.703658266658447,-0.0,0.28513920307159424,-1.5968130270587366,0.0,-0.008807993493974209,0.7881197333335876,0.0,0.005237974692136049,0.8104832768440247,0.0,-0.027417432516813278
8190.0,981.0,2.0465,0.1567,9.2411,-0.0412,0.0217,-0.1243,-1.4206294578364869,0.0,1.4033745527267456,-2.0439298152923584,-0.0,2.119741916656494,4.7036706644245605,-0.0,0.2969949245452881,-1.596877400075094,0.0,-0.0020341863855719566,0.7881276607513428,0.0,0.0006295727798715234,0.8104754686355591,0.0,0.006642252206802368
990.0,1012.0,2.01,0.1597,9.3171,-0.0296,0.0255,-0.1158,-1.4206289660981675,0.0,1.4508183002471924,-2.0439534187316895,-0.0,2.081303119659424,4.703650160426758,-0.0,0.29336556792259216,-1.596893612538473,0.0,-0.011178215965628624,0.7881800532341003,0.0,-4.648289177566767e-05,0.8105035424232483,0.0,0.010028345510363579
990.0,1012.0,2.01,0.1597,9.3171,-0.0296,0.0255,-0.1158,-1.4206493359855195,0.0,1.4094843864440918,-2.0439493656158447,-0.0,2.109988212585449,4.703626318568848,-0.0,0.2872548997402191,-1.5968697706805628,0.0,-2.326926914975047e-05,0.7881076335906982,0.0,0.0029048011638224125,0.8104433417320251,0.0,-0.0010711639188230038
990.0,1012.0,2.01,0.1597,9.3171,-0.0296,0.0255,-0.1158,-1.420669363146164,0.0,1.463869571685791,-2.0439813137054443,-0.0,2.103452205657959,4.703633947963379,-0.0,0.30945342779159546,-1.5968578497516077,0.0,-0.006645188666880131,0.7880957126617432,0.0,0.000943455146625638,0.810451090335846,0.0,-0.009932894259691238
990.0,1012.0,2.01,0.1597,9.3171,-0.0296,0.0255,-0.1158,-1.4206413638642807,0.0,1.4459798336029053,-2.0439813137054443,-0.0,2.0884196758270264,4.703634424800537,-0.0,0.29528409242630005,-1.5968297163592737,0.0,-0.02284390479326248,0.7881076335906982,0.0,-0.01145477220416069,0.8104873895645142,0.0,-0.01407640241086483
990.0,1012.0,2.01,0.1597,9.3171,-0.0296,0.0255,-0.1158,-1.4206575167230149,0.0,1.4477684497833252,-2.043905019760132,-0.0,2.0835015773773193,4.703682108516357,-0.0,0.2929309010505676,-1.5969184080706995,0.0,-0.0015388530446216464,0.788103461265564,0.0,-0.004284388851374388,0.8104873895645142,0.0,0.01761789433658123
990.0,1012.0,2.01,0.1597,9.3171,-0.0296,0.0255,-0.1158,-1.4206254047206421,0.0,1.4385865926742554,-2.0439412593841553,-0.0,2.098034143447876,4.703594370479248,-0.0,0.29777050018310547,-1.5968616644488733,0.0,0.0013077912153676152,0.7880793213844299,0.0,-0.01247449405491352,0.8104832768440247,0.0,-0.030431993305683136
990.0,1012.0,2.01,0.1597,9.3171,-0.0296,0.0255,-0.1158,-1.4206289809993287,0.0,1.4681713581085205,-2.043989658355713,-0.0,2.1181435585021973,4.703653975124023,-0.0,0.2897513210773468,-1.5968897978412073,0.0,-0.011826887726783752,0.788103461265564,0.0,-0.0015017989790067077,0.8104791641235352,0.0,0.014797233045101166
990.0,1012.0,2.01,0.1597,9.3171,-0.0296,0.0255,-0.1158,-1.4206372213414689,0.0,1.485852837562561,-2.043961763381958,-0.0,2.1128456592559814,4.703622503871582,-0.0,0.2969190180301666,-1.596877400075094,0.0,-0.014174063690006733,0.7880957126617432,0.0,0.007387855090200901,0.8105076551437378,0.0,-0.02187708206474781
990.0,1012.0,2.01,0.1597,9.3171,-0.0296,0.0255,-0.1158,-1.4206575465253373,0.0,1.4675359725952148,-2.0439534187316895,-0.0,2.0850985050201416,4.703650160426758,-0.0,0.2991062104701996,-1.5969017187701624,0.0,-0.012784047052264214,0.7881076335906982,0.0,0.003602023236453533,0.8105038404464722,0.0,0.005169100593775511
990.0,1012.0,2.01,0.1597,9.3171,-0.0296,0.0255,-0.1158,-1.420645461683609,0.0,1.4731619358062744,-2.0439493656158447,-0.0,2.1602466106414795,4.703613920802734,-0.0,0.29169443249702454,-1.5968697706805628,0.0,-0.010350137948989868,0.7880833745002747,0.0,-0.006120597943663597,0.8105440139770508,0.0,0.005760121624916792
990.0,1012.0,2.01,0.1597,9.3171,-0.0296,0.0255,-0.1158,-1.4206694227508088,0.0,1.5070335865020752,-2.0439534187316895,-0.0,2.0610404014587402,4.703590078944824,-0.0,0.29326891899108887,-1.5968816916095179,0.0,0.0004248199984431267,0.7881720066070557,0.0,0.0018432480283081532,0.8105399012565613,0.0,-0.006228565704077482
990.0,1012.0,2.01,0.1597,9.3171,-0.0296,0.0255,-0.1158,-1.420641378765442,0.0,1.4851527214050293,-2.043950319290161,-0.0,2.0808892250061035,4.703650160426758,-0.0,0.2835312783718109,-1.5968979040728968,0.0,-0.012728824280202389,0.7881156802177429,0.0,-0.002808023476973176,0.8104956150054932,0.0,0.03333777189254761
990.0,1012.0,2.01,0.1597,9.3171,-0.0296,0.0255,-0.1158,-1.4206331980279465,0.0,1.489396333694458,-2.043961524963379,-0.0,2.1076865196228027,4.703601999873779,-0.0,0.2922239899635315,-1.5968979040728968,0.0,-0.009992370381951332,0.788084089756012,0.0,-0.007317179813981056,0.8104912042617798,0.0,0.01125616766512394
986.0,1011.0,2.0369,0.1717,9.3182,-0.0342,0.0281,-0.1211,-1.420677588587143,0.0,1.4461443424224854,-2.043921709060669,-0.0,2.0869171619415283,4.703654451961182,-0.0,0.2979419231414795,-1.5968859831439417,0.0,-0.012248181737959385,0.7880915999412537,0.0,0.0011799097992479801,0.8104590773582458,0.0,0.0017958343960344791
986.0,1011.0,2.0369,0.1717,9.3182,-0.0342,0.0281,-0.1211,-1.4206413638642807,0.0,1.4481472969055176,-2.043917417526245,-0.0,2.0460970401763916,4.703646345729492,-0.0,0.29245224595069885,-1.5968416372882288,0.0,-0.011830589734017849,0.7880915999412537,0.0,-0.004798727110028267,0.8104994297027588,0.0,-0.034714218229055405
986.0,1011.0,2.0369,0.1717,9.3182,-0.0342,0.0281,-0.1211,-1.4206294429353257,0.0,1.4335832595825195,-2.0440213680267334,-0.0,2.1033146381378174,4.703650160426758,-0.0,0.30170145630836487,-1.5969184080706995,0.0,-0.003993470221757889,0.7881277203559875,0.0,0.004830247722566128,0.8104873895645142,0.0,-0.0009797539096325636
986.0,1011.0,2.0369,0.1717,9.3182,-0.0342,0.0281,-0.1211,-1.4206253749183197,0.0,1.4506995677947998,-2.0439813137054443,-0.0,2.113006830215454,4.7036425310322265,-0.0,0.29290634393692017,-1.5969060103045862,0.0,-0.005227342247962952,0.7881157398223877,0.0,0.002830056007951498,0.8104673027992249,0.0,-0.06295750290155411
986.0,1011.0,2.0369,0.1717,9.3182,-0.0342,0.0281,-0.1211,-1.4206372511437912,0.0,1.4228013753890991,-2.0439298152923584,-0.0,2.0705244541168213,4.703687353725098,-0.0,0.2929181754589081,-1.5968979040728968,0.0,-0.012065883725881577,0.7881520986557007,0.0,-0.008834367617964745,0.8104829788208008,0.0,-0.056160349398851395
986.0,1011.0,2.0369,0.1717,9.3182,-0.0342,0.0281,-0.1211,-1.420657531624176,0.0,1.4643378257751465,-2.0439534187316895,-0.0,2.149672508239746,4.703590078944824,-0.0,0.28670233488082886,-1.5969141165362757,0.0,-0.004483608994632959,0.788123607635498,0.0,0.0018903622403740883,0.8104832768440247,0.0,0.0032374514266848564
986.0,1011.0,2.0369,0.1717,9.3182,-0.0342,0.0281,-0.1211,-1.4206212025931855,0.0,1.4696974754333496,-2.0439977645874023,-0.0,2.131012439727783,4.70370261251416,-0.0,0.3062758445739746,-1.5968816916095179,0.0,-0.001781507977284491,0.7880717515945435,0.0,0.0023991817142814398,0.8105238080024719,0.0,-3.982335329055786e-05
986.0,1011.0,2.0369,0.1717,9.3182,-0.0342,0.0281,-0.1211,-1.4206611675075074,0.0,1.4956154823303223,-2.0439534187316895,-0.0,2.1186113357543945,4.703622503871582,-0.0,0.28357118368148804,-1.5968335310565394,0.0,-0.014488743618130684,0.7880957126617432,0.0,-0.005044075660407543,0.8104873895645142,0.0,-0.06629578769207001
986.0,1011.0,2.0369,0.1717,9.3182,-0.0342,0.0281,-0.1211,-1.4206496191075821,0.0,1.456127405166626,-2.0439257621765137,-0.0,2.154937982559204,4.703706904048584,-0.0,0.2982441186904907,-1.596877400075094,0.0,-0.008827751502394676,0.7881357669830322,0.0,0.003086971351876855,0.8104873895645142,0.0,-0.011080808006227016
986.0,1011.0,2.0369,0.1717,9.3182,-0.0342,0.0281,-0.1211,-1.4206294429353257,0.0,1.452452540397644,-2.043989419937134,-0.0,2.139536142349243,4.7036706644245605,-0.0,0.2871135175228119,-1.5968740622149866,0.0,-0.006747625768184662,0.7880833148956299,0.0,-0.015750152990221977,0.8104791641235352,0.0,0.021571103483438492
986.0,1011.0,2.0369,0.1717,9.3182,-0.0342,0.0281,-0.1211,-1.420625389819481,0.0,1.4430794715881348,-2.043921709060669,-0.0,2.098942279815674,4.7036425310322265,-0.0,0.29256388545036316,-1.5968616644488733,0.0,-0.010707244277000427,0.7881235480308533,0.0,-0.004541095346212387,0.8105357885360718,0.0,-0.006707211025059223
986.0,1011.0,2.0369,0.1717,9.3182,-0.0342,0.0281,-0.1211,-1.4206294578364869,0.0,1.5045099258422852,-2.0439493656158447,-0.0,2.1024293899536133,4.703634424800537,-0.0,0.2905818223953247,-1.5968735853778284,0.0,-0.007729473058134317,0.7880759239196777,0.0,0.011353596113622189,0.8104914426803589,0.0,-0.021150056272745132
8190.0,1004.0,2.0267,0.0933,9.0784,-0.0449,0.0296,-0.1144,-1.4206776183894654,0.0,1.4769001007080078,-2.043968915939331,-0.0,2.1017870903015137,4.703598185176514,-0.0,0.2934235632419586,-1.5968897978412073,0.0,-0.01233923900872469,0.788135826587677,0.0,0.009859699755907059,0.8104791641235352,0.0,-0.043938472867012024
8190.0,1004.0,2.0267,0.0933,9.0784,-0.0449,0.0296,-0.1144,-1.4206735652736207,0.0,1.464332103729248,-2.043957471847534,-0.0,2.0596625804901123,4.703638239497803,-0.0,0.2920956015586853,-1.5969017187701624,0.0,-0.01617296040058136,0.7881439924240112,0.0,0.003200035309419036,0.8104754686355591,0.0,0.03816426172852516
8190.0,1004.0,2.0267,0.0933,9.0784,-0.0449,0.0296,-0.1144,-1.4206294578364869,0.0,1.4715861082077026,-2.043985605239868,-0.0,2.1131441593170166,4.703622027034424,-0.0,0.2928149998188019,-1.5968979040728968,0.0,-0.005725777242332697,0.788123607635498,0.0,-0.0048066689632833,0.8104873895645142,0.0,-0.029996369034051895
8190.0,1004.0,2.0267,0.0933,9.0784,-0.0449,0.0296,-0.1144,-1.420657531624176,0.0,1.4786009788513184,-2.043917417526245,-0.0,2.0678551197052,4.7035862642475585,-0.0,0.2962164878845215,-1.5968740622149866,0.0,0.005633166525512934,0.7880513072013855,0.0,0.00011085439473390579,0.8105196952819824,0.0,-0.004689936060458422
8190.0,1004.0,2.0267,0.0933,9.0784,-0.0449,0.0296,-0.1144,-1.4206616145423432,0.0,1.4738576412200928,-2.043985366821289,-0.0,2.079352617263794,4.703618212337158,-0.0,0.2949058711528778,-1.5968979040728968,0.0,-0.0074268365278840065,0.7880799770355225,0.0,0.011024443432688713,0.810507595539093,0.0,-0.011602682992815971
8190.0,1004.0,2.0267,0.0933,9.0784,-0.0449,0.0296,-0.1144,-1.4206455063870926,0.0,1.470930814743042,-2.0439453125,-0.0,2.0839693546295166,4.703630610103271,-0.0,0.30101871490478516,-1.5969060103045862,0.0,-0.017947789281606674,0.7880557775497437,0.0,-0.010119500569999218,0.8105196952819824,0.0,0.007341965101659298
8190.0,1004.0,2.0267,0.0933,9.0784,-0.0449,0.0296,-0.1144,-1.4206653398326416,0.0,1.4068524837493896,-2.043968915939331,-0.0,2.0808770656585693,4.7036143976398925,-0.0,0.29234129190444946,-1.5969017187701624,0.0,0.0002937691751867533,0.7880915999412537,0.0,0.0005828710272908211,0.810491144657135,0.0,0.03559981659054756
8190.0,1004.0,2.0267,0.0933,9.0784,-0.0449,0.0296,-0.1144,-1.4206413936666031,0.0,1.4807043075561523,-2.043937921524048,-0.0,2.0841739177703857,4.703633947963379,-0.0,0.296967089176178,-1.5968859831439417,0.0,-0.0066629876382648945,0.7881719470024109,0.0,-0.014994014985859394,0.8104912042617798,0.0,-0.016472425311803818
8190.0,1004.0,2.0267,0.0933,9.0784,-0.0449,0.0296,-0.1144,-1.4206414085677643,0.0,1.4556301832199097,-2.043972969055176,-0.0,2.096423387527466,4.703601999873779,-0.0,0.2962457537651062,-1.5968616644488733,0.0,-0.006334003061056137,0.7881112694740295,0.0,0.0005973270162940025,0.8104956150054932,1.081966005504753e-12,0.027486711740493774
8190.0,1004.0,2.0267,0.0933,9.0784,-0.0449,0.0296,-0.1144,-1.4206335705569764,0.0,1.4530655145645142,-2.0439648628234863,-0.0,2.083570957183838,4.703633947963379,-0.0,0.3071948289871216,-1.5968616644488733,0.0,-0.0007266001775860786,0.7881317734718323,0.0,-0.002956324489787221,0.8105196356773376,3.5054318159909027e-20,-0.024382881820201874
8190.0,1004.0,2.0267,0.0933,9.0784,-0.0449,0.0296,-0.1144,-1.4206575167230149,0.0,1.4460594654083252,-2.043933868408203,-0.0,2.10568904876709,4.703622027034424,-0.0,0.2930029034614563,-1.596893612538473,0.0,-0.008777253329753876,0.7881481051445007,0.0,-0.006741819903254509,0.8104912042617798,8.465204744168457e-26,-0.03034345433115959
8190.0,1004.0,2.0267,0.0933,9.0784,-0.0449,0.0296,-0.1144,-1.4206212770989914,0.0,1.4680190086364746,-2.0439772605895996,1.817985866015004e-11,2.0796661376953125,4.703666849727295,-0.0,0.29848331212997437,-1.596893612538473,0.0,-0.013342930004000664,0.7880957126617432,0.0,-0.0014124686131253839,0.8105035424232483,2.7426187872874284e-33,0.019945364445447922
1035.0,1029.0,2.5567,0.0778,8.9366,-0.0425,-0.0339,-0.1492,-1.4206493359855195,0.0,1.4833621978759766,-2.0439648628234863,5.890043466248286e-19,2.0745162963867188,4.703610106105469,-0.0,0.2927859425544739,-1.5968859831439417,0.0,0.003804293693974614,0.7880513668060303,0.0,-0.0021756167989224195,0.810531735420227,8.885773692130098e-41,-0.02353302575647831
1035.0,1029.0,2.5567,0.0778,8.9366,-0.0425,-0.0339,-0.1492,-1.4206575763276597,0.0,1.4003345966339111,-2.0439369678497314,1.4223759683270548e-24,2.124547004699707,4.703626318568848,-0.0,0.29174327850341797,-1.596865479146139,0.0,-0.00317375548183918,0.7881037592887878,0.0,-0.00569364707916975,0.8105073571205139,0.0,-0.02688152901828289
1035.0,1029.0,2.5567,0.0778,8.9366,-0.0425,-0.0339,-0.1492,-1.4206534189036866,0.0,1.4246971607208252,-2.043933153152466,4.6083178337722703e-32,2.100867509841919,4.703594370479248,-0.0,0.2930559515953064,-1.5969184080706995,0.0,-0.019019633531570435,0.788144052028656,0.0,-0.0007765527698211372,0.8104754686355591,0.0,-0.016488652676343918
1035.0,1029.0,2.5567,0.0778,8.9366,-0.0425,-0.0339,-0.1492,-1.4206253749183197,0.0,1.4811296463012695,-2.0440175533294678,1.4930358695903055e-39,2.0848493576049805,4.703622027034424,-0.0,0.30501610040664673,-1.5968735853778284,0.0,-0.010903815738856792,0.7881157994270325,0.0,-0.002809345256537199,0.8104994297027588,0.0,-0.015141891315579414
1035.0,1029.0,2.5567,0.0778,8.9366,-0.0425,-0.0339,-0.1492,-1.420641378765442,0.0,1.4200410842895508,-2.0440051555633545,4.203895392974451e-45,2.1076645851135254,4.703626318568848,-0.0,0.289425253868103,-1.5969222227679651,0.0,-0.00816735252737999,0.7881037592887878,0.0,-0.0035862568765878677,0.8105155825614929,5.378900095820427e-05,0.027730006724596024
1035.0,1029.0,2.5567,0.0778,8.9366,-0.0425,-0.0339,-0.1492,-1.420641378765442,0.0,1.4898624420166016,-2.043989658355713,-0.0,2.0831661224365234,4.703590078944824,-0.0,0.28824278712272644,-1.596865479146139,0.0,-0.004324996843934059,0.7881157398223877,0.0,-0.008413718082010746,0.8105477094650269,4.976832133252174e-05,-0.05434981733560562
1035.0,1029.0,2.5567,0.0778,8.9366,-0.0425,-0.0339,-0.1492,-1.4205971521190186,0.0,1.4969671964645386,-2.0439453125,-0.0,2.0890274047851562,4.703594370479248,-0.0,0.3020605444908142,-1.59691030183901,0.0,-0.018244095146656036,0.7881117463111877,0.0,-0.001374451327137649,0.8104590773582458,4.481213909457438e-05,0.008176138624548912
1035.0,1029.0,2.5567,0.0778,8.9366,-0.0425,-0.0339,-0.1492,-1.4206295174411316,0.0,1.450188159942627,-2.0440173149108887,-0.0,2.147155523300171,4.703562422389648,-0.0,0.29949134588241577,-1.596877400075094,0.0,-0.01652400568127632,0.7881079316139221,0.0,-0.007398862391710281,0.8104590773582458,4.1697898268466815e-05,0.0288634542375803
1035.0,1029.0,2.5567,0.0778,8.9366,-0.0425,-0.0339,-0.1492,-1.4206290257028122,0.0,1.4310085773468018,-2.043952703475952,-0.0,2.109362840652466,4.703622503871582,-0.0,0.294072687625885,-1.5968616644488733,0.0,-0.008865111507475376,0.788123607635498,0.0,-0.0001843031495809555,0.8104795813560486,3.8161753764143214e-05,-0.0032759830355644226
1035.0,1029.0,2.5567,0.0778,8.9366,-0.0425,-0.0339,-0.1492,-1.4206735801747818,0.0,1.4166665077209473,-2.0439565181732178,-0.0,2.092367172241211,4.703594370479248,-0.0,0.29400506615638733,-1.5968979040728968,0.0,-0.009742493741214275,0.7881035208702087,0.0,-0.008039630949497223,0.8105435967445374,3.517853474477306e-05,0.04132125526666641
1035.0,1029.0,2.5567,0.0778,8.9366,-0.0425,-0.0339,-0.1492,-1.4206898522428055,0.0,1.438053846359253,-2.043985605239868,-0.0,2.1030991077423096,4.703598185176514,-0.0,0.28639912605285645,-1.5968897978412073,0.0,0.0012441277503967285,0.7881119847297668,0.0,-0.0037844423204660416,0.8105358481407166,3.323023338452913e-05,0.041348546743392944
1035.0,1029.0,2.5567,0.0778,8.9366,-0.0425,-0.0339,-0.1492,-1.4206939351609726,0.0,1.5005779266357422,-2.044009208679199,-0.0,2.0901732444763184,4.703594370479248,-0.0,0.2930155098438263,-1.5968697706805628,0.0,-0.001151818549260497,0.7881037592887878,0.0,-0.003618895774707198,0.8104590177536011,3.0945102480473e-05,0.028789741918444633
8190.0,1014.0,1.9878,0.1567,9.0945,-0.0421,0.0345,-0.1303,-1.4206653398326416,0.0,1.4458023309707642,-2.0439648628234863,-0.0,2.0792431831359863,4.703573866481445,-0.0,0.30628395080566406,-1.5968897978412073,0.0,0.007887659594416618,0.7881317734718323,0.0,0.002857223618775606,0.8105477094650269,4.343108957982622e-05,-0.005572441965341568
8190.0,1014.0,1.9878,0.1567,9.0945,-0.0421,0.0345,-0.1303,-1.4206611824086686,0.0,1.4241523742675781,-2.0439815521240234,-0.0,2.107194423675537,4.703650160426758,-0.0,0.29646384716033936,-1.5968692938434046,0.0,-0.008673601783812046,0.7881076335906982,0.0,-0.0009449983481317759,0.8105276226997375,5.524148582480848e-05,-0.023766137659549713
8190.0,1014.0,1.9878,0.1567,9.0945,-0.0421,0.0345,-0.1303,-1.420685739522316,-1.7390640039138816e-08,1.4660975933074951,-2.0439772605895996,-0.0,2.097280263900757,4.703606768245361,-0.0,0.286910742521286,-1.596877400075094,0.0,-0.0003388181794434786,0.7880595922470093,0.0,-0.005941824987530708,0.8105717897415161,4.7730467485962436e-05,0.05764656513929367
8190.0,1014.0,1.9878,0.1567,9.0945,-0.0421,0.0345,-0.1303,-1.4207174640944977,-4.199635431079152e-14,1.43959641456604,-2.04396915435791,-0.0,2.1090986728668213,4.7036024767109375,-0.0,0.29110100865364075,-1.5968816916095179,0.0,0.004068397451192141,0.788103461265564,0.0,-0.00022823344625066966,0.810523509979248,6.536507135024294e-05,0.012233428657054901
8190.0,1014.0,1.9878,0.1567,9.0945,-0.0421,0.0345,-0.1303,-1.420697660451271,-0.0008875194471329451,1.4391214847564697,-2.0439369678497314,-0.0,2.096155881881714,4.703594370479248,-0.0,0.2908567190170288,-1.5969141165362757,0.0,-0.01802806742489338,0.788123607635498,0.0,-0.01235103327780962,0.8105435967445374,6.0330494306981564e-05,0.02740485779941082
8190.0,1014.0,1.9878,0.1567,9.0945,-0.0421,0.0345,-0.1303,-1.4207174640944977,-0.0010246757883578539,1.4521629810333252,-2.044029951095581,-0.0,2.1063904762268066,4.703638716334961,-0.0,0.3016468584537506,-1.5968497435199183,0.0,-0.004664557054638863,0.7881238460540771,0.0,-0.003696232568472624,0.8105073571205139,7.381131581496447e-05,0.019192883744835854
8190.0,1014.0,1.9878,0.1567,9.0945,-0.0421,0.0345,-0.1303,-1.4207213383964081,-0.0015206951647996902,1.4463531970977783,-2.043956756591797,-0.0,2.124208927154541,4.703618212337158,-0.0,0.29508376121520996,-1.5968859831439417,0.0,-0.0008658744627609849,0.7881197333335876,0.0,-0.0033103213645517826,0.8105515837669373,8.625511691207066e-05,0.008802864700555801
8190.0,1014.0,1.9878,0.1567,9.0945,-0.0421,0.0345,-0.1303,-1.4207172107747574,-0.0028729415498673916,1.4245444536209106,-2.0439772605895996,-0.0,2.109774112701416,4.703634424800537,-0.0,0.295813649892807,-1.5968979040728968,0.0,-0.00498067494481802,0.7881235480308533,0.0,0.005637112073600292,0.8105433583259583,0.00028271847986616194,-0.0023756856098771095
8190.0,1014.0,1.9878,0.1567,9.0945,-0.0421,0.0345,-0.1303,-1.4207734626582642,-0.004338730592280626,1.4545884132385254,-2.0439815521240234,-0.0,2.1004176139831543,4.703638716334961,-0.0,0.2907537817955017,-1.596893612538473,0.0,-0.009778055362403393,0.788111686706543,0.0,-0.004819225985556841,0.8105717897415161,0.0003122850612271577,0.03423265367746353
8190.0,1014.0,1.9878,0.1567,9.0945,-0.0421,0.0345,-0.1303,-1.4208010894111176,-0.00437694787979126,1.4474530220031738,-2.0439608097076416,-0.0,2.0669429302215576,4.7036425310322265,-0.0,0.3005414307117462,-1.5968616644488733,0.0,-0.0026552174240350723,0.7881602048873901,0.0,-0.0034751947969198227,0.8105073571205139,0.00027633359422907233,0.05679122731089592
8190.0,1014.0,1.9878,0.1567,9.0945,-0.0421,0.0345,-0.1303,-1.4208213847926636,-0.004310883581638336,1.4657156467437744,-2.0440256595611572,-0.0,2.089472770690918,4.703606291408203,-0.0,0.28802505135536194,-1.5969184080706995,0.0,0.007031329441815615,0.7880957126617432,0.0,-0.007284044288098812,0.8105394840240479,0.0003341159026604146,-0.03082628920674324
8190.0,1014.0,1.9878,0.1567,9.0945,-0.0421,0.0345,-0.1303,-1.420837090616562,-0.0030998799484223127,1.4747306108474731,-2.043985605239868,-0.0,2.0808186531066895,4.703626318568848,-0.0,0.28926417231559753,-1.5968979040728968,0.0,-0.01966094598174095,0.788084089756012,0.0,-0.010494522750377655,0.8105194568634033,0.00020607857732102275,-0.029642315581440926
990.0,1017.0,1.9998,-0.3308,9.3093,-0.0644,0.0224,-0.109,-1.4208694112351914,-0.002264181384816766,1.4954701662063599,-2.0440094470977783,-0.0,2.1073238849639893,4.7036425310322265,-0.0,0.3026342988014221,-1.5968859831439417,0.0,-0.012611763551831245,0.7880595922470093,0.0,-0.001245612045750022,0.8105313181877136,0.00017587131878826767,-0.04379608482122421
990.0,1017.0,1.9998,-0.3308,9.3093,-0.0644,0.0224,-0.109,-1.420877681379654,-0.001315192668698728,1.4912235736846924,-2.043984889984131,-0.0,2.1259841918945312,4.703666372890137,-0.0,0.2949959933757782,-1.596877400075094,0.0,0.0010730065405368805,0.7881719470024109,0.0,-0.0072945463471114635,0.8105476498603821,0.00011034006456611678,0.04348359629511833
990.0,1017.0,1.9998,-0.3308,9.3093,-0.0644,0.0224,-0.109,-1.4208735090545197,-0.0007599203963764012,1.4867894649505615,-2.0439774990081787,-0.0,2.1335806846618652,4.703630610103271,-0.0,0.2889001667499542,-1.596877400075094,0.0,-0.0062707168981432915,0.7880553603172302,0.0,0.0040734377689659595,0.8105477094650269,-0.00014798309712205082,-0.03497187793254852
990.0,1017.0,1.9998,-0.3308,9.3093,-0.0644,0.0224,-0.109,-1.4208210718682786,-0.0005300123011693358,1.4944868087768555,-2.0439651012420654,-0.0,2.0981171131134033,4.703654451961182,-0.0,0.30073750019073486,-1.5968855063067835,0.0,-0.013454977422952652,0.788111686706543,0.0,0.008679484948515892,0.810507595539093,-0.0002100892161251977,-0.0011591743677854538
990.0,1017.0,1.9998,-0.3308,9.3093,-0.0644,0.0224,-0.109,-1.4208653283170243,-0.00012567189696710557,1.4474302530288696,-2.0439937114715576,-0.0,2.121220588684082,4.703601999873779,-0.0,0.2936580777168274,-1.5968535582171839,0.0,-0.008746584877371788,0.7881399393081665,0.0,-0.003747371956706047,0.8105237483978271,-0.0004177230002824217,0.03577500209212303
990.0,1017.0,1.9998,-0.3308,9.3093,-0.0644,0.0224,-0.109,-1.4208453458598633,-9.814095392357558e-05,1.4578967094421387,-2.044006109237671,5.3219009714666754e-05,2.0995168685913086,4.703577681178711,-0.0,0.30303841829299927,-1.5969060103045862,0.0,-0.004835224244743586,0.7880874276161194,0.0,0.003853380214422941,0.8105117082595825,-0.00030460202833637595,-0.020705528557300568
990.0,1017.0,1.9998,-0.3308,9.3093,-0.0644,0.0224,-0.109,-1.4208453458598633,-8.434356277575716e-05,1.438368797302246,-2.0439412593841553,7.336830458370969e-05,2.086196184158325,4.703622027034424,-0.0,0.29305633902549744,-1.596877400075094,0.0,-0.0037553394213318825,0.7881760001182556,0.0,-0.004215538501739502,0.8104994297027588,-0.00025318056577816606,0.007099779788404703
990.0,1017.0,1.9998,-0.3308,9.3093,-0.0644,0.0224,-0.109,-1.4208575052073975,-7.102965901140124e-05,1.444539189338684,-2.043968915939331,8.8238921307493e-05,2.099055767059326,4.7036024767109375,-0.0,0.3020440340042114,-1.5968292395221155,1.9529922123950882e-09,-0.006132276728749275,0.7880799770355225,0.0,0.006454637739807367,0.8104714155197144,-0.0002066657179966569,-0.013005617074668407
990.0,1017.0,1.9998,-0.3308,9.3093,-0.0644,0.0224,-0.109,-1.4208616626313706,-0.00011907765292562544,1.4374878406524658,-2.0439608097076416,0.00010035580635303631,2.0683979988098145,4.703654451961182,-0.0,0.2835143208503723,-1.5968897978412073,3.549466832107086e-14,-0.011384060606360435,0.7880874276161194,0.0,-0.01035849004983902,0.8104791641235352,-0.00017459092487115413,0.006969159469008446
990.0,1017.0,1.9998,-0.3308,9.3093,-0.0644,0.0224,-0.109,-1.420865313415863,-0.000135320340632461,1.4930648803710938,-2.043968915939331,0.00028206585557200015,2.0794146060943604,4.703642054195068,-1.218923330270627e-06,0.30082106590270996,-1.5968416372882288,9.880071883821202e-18,-0.011322658509016037,0.7881317138671875,0.0,0.0034802942536771297,0.8105354309082031,-0.00012511036766227335,0.028011491522192955
990.0,1017.0,1.9998,-0.3308,9.3093,-0.0644,0.0224,-0.109,-1.4209335160306473,-0.0022849314846098423,1.4379849433898926,-2.043989419937134,0.000227293829084374,2.0987789630889893,4.703658266658447,-2.215333125277219e-11,0.28980618715286255,-1.5968292395221155,1.7956540387313184e-22,-0.002767201280221343,0.7881072163581848,0.0,-0.012387373484671116,0.8104991912841797,7.449364056810737e-05,-0.009788242168724537
990.0,1017.0,1.9998,-0.3308,9.3093,-0.0644,0.0224,-0.109,-1.420969472532608,-0.006823156028985977,1.440207600593567,-2.0439813137054443,0.00015129167877603322,2.0761566162109375,4.703622503871582,-4.0262588829078055e-16,0.28904208540916443,-1.5967891852008265,3.2635125574814704e-27,-0.00267558335326612,0.7881317138671875,0.0,-0.005585472099483013,0.8105112314224243,0.00015968497609719634,-0.019418170675635338
990.0,1017.0,1.9998,-0.3308,9.3093,-0.0644,0.0224,-0.109,-1.4210535150817414,-0.013156922534108162,1.4299147129058838,-2.04396915435791,0.0001343349867966026,2.1216790676116943,4.703630133266113,-1.1207241352342813e-19,0.3040095865726471,-1.5968378225909632,9.084106555301478e-31,-0.0017949403263628483,0.7881559133529663,0.0,-0.006092686206102371,0.8105877041816711,0.0007950211875140667,-0.04168118163943291
1041.0,1019.0,1.6678,0.0443,9.2979,-0.0437,0.0444,-0.1239,-1.4211773139289399,-0.02081410214304924,1.4372895956039429,-2.0439534187316895,0.00011735392035916448,2.073850154876709,4.703658266658447,-2.0368607481707724e-24,0.2981261610984802,-1.5968621412860315,1.6509914297584068e-35,-0.009269333444535732,0.7881194353103638,0.0,-0.00961664691567421,0.8105554580688477,0.0016199357341974974,0.04161400720477104
1041.0,1019.0,1.6678,0.0443,9.2979,-0.0437,0.0444,-0.1239,-1.4213937383941193,-0.02449968457221985,1.4318506717681885,-2.043968915939331,8.460082608507946e-05,2.1190571784973145,4.703622027034424,-3.7018943443892215e-29,0.2940864562988281,-1.5968292395221155,3.0006004016587308e-40,-0.008585606701672077,0.7881075739860535,0.0,-0.011671924032270908,0.810619592666626,0.0010256413370370865,-0.06404051929712296
1041.0,1019.0,1.6678,0.0443,9.2979,-0.0437,0.0444,-0.1239,-1.4215496343425293,-0.027070246636867523,1.4098536968231201,-2.0439212322235107,0.00010387068323325366,2.1432552337646484,4.703645868892334,-1.0304357765369248e-32,0.3026309311389923,-1.596821133290426,8.407790785948902e-44,-0.008153514005243778,0.788151741027832,0.0,-0.010120240040123463,0.810603678226471,0.0007485277601517737,-0.02501162700355053
1041.0,1019.0,1.6678,0.0443,9.2979,-0.0437,0.0444,-0.1239,-1.421790064578392,-0.028707077726721764,1.4436047077178955,-2.043957471847534,9.995188156608492e-05,2.048553943634033,4.703590078944824,-1.872766341581796e-37,0.2977646589279175,-1.5968502203570765,0.0,-0.012429573573172092,0.7881796956062317,0.0,0.0028399901930242777,0.8105754256248474,0.0005867371219210327,0.052630066871643066
1041.0,1019.0,1.6678,0.0443,9.2979,-0.0437,0.0444,-0.1239,-1.4219576877406617,-0.030612662434577942,1.4462512731552124,-2.044001817703247,8.996068208944052e-05,2.0688390731811523,4.703650160426758,-5.212970417134752e-41,0.2918113172054291,-1.59682542482485,0.0,-0.01793278008699417,0.788119375705719,0.0,0.012213457375764847,0.8106034398078918,0.0003525902866385877,0.02677328512072563
1041.0,1019.0,1.6678,0.0443,9.2979,-0.0437,0.0444,-0.1239,-1.4222055536559601,-0.03365600109100342,1.457340121269226,-2.043972969055176,7.938090129755437e-05,2.088862657546997,4.703650160426758,-1.401298464324817e-45,0.2899417579174042,-1.5968459288226526,0.0,-0.022556813433766365,0.7881513833999634,0.0,0.00943079125136137,0.8106116652488708,0.00043128433753736317,0.019972488284111023
1041.0,1019.0,1.6678,0.0443,9.2979,-0.0437,0.0444,-0.1239,-1.422526092534401,-0.037513114511966705,1.3915762901306152,-2.0439453125,8.16091414890252e-05,2.0966272354125977,4.7036425310322265,-0.0,0.294450044631958,-1.5968292395221155,0.0,-0.01470840722322464,0.788127601146698,0.0,-0.0021342430263757706,0.8106435537338257,0.0010646696900948882,7.718894630670547e-05
1041.0,1019.0,1.6678,0.0443,9.2979,-0.0437,0.0444,-0.1239,-1.42276984572921,-0.03871287778019905,1.4006218910217285,-2.0439131259918213,7.183761772466823e-05,2.0620551109313965,4.703654451961182,-0.0,0.31131017208099365,-1.5968897978412073,0.0,0.000264754518866539,0.7881513833999634,0.0,0.010321097448468208,0.8105952739715576,0.0009790449403226376,-0.011716716922819614
1041.0,1019.0,1.6678,0.0443,9.2979,-0.0437,0.0444,-0.1239,-1.4230737549117585,-0.043878842145204544,1.3548343181610107,-2.04392147064209,9.292178583564237e-05,2.092338800430298,4.703686400050781,-0.0,0.3082123398780823,-1.5968502203570765,0.0,-0.009949726983904839,0.7881312966346741,0.0,0.009878410957753658,0.8106394410133362,0.0006106648943386972,0.025548381730914116
1041.0,1019.0,1.6678,0.0443,9.2979,-0.0437,0.0444,-0.1239,-1.4234337669662018,-0.04904322698712349,1.3803203105926514,-2.043961524963379,8.167768828570843e-05,2.1331005096435547,4.7036377626606445,-0.0,0.29005861282348633,-1.5968459288226526,0.0,0.0021893451921641827,0.7881636619567871,0.0,0.015489378944039345,0.8106476068496704,0.00047487093252129853,0.006864389404654503
1041.0,1019.0,1.6678,0.0443,9.2979,-0.0437,0.0444,-0.1239,-1.4238025111011048,-0.05349046736955643,1.3650476932525635,-2.043937921524048,7.488186383852735e-05,2.0884294509887695,4.703686400050781,-0.0,0.2899063527584076,-1.5968416372882288,0.0,-0.003920422401279211,0.7882000803947449,0.0,0.018174972385168076,0.8106316328048706,0.0003757183440029621,0.023910213261842728
1041.0,1019.0,1.6678,0.0443,9.2979,-0.0437,0.0444,-0.1239,-1.4242460590652009,-0.06121915578842163,1.311781883239746,-2.0439770221710205,8.896974031813443e-05,2.123228073120117,4.703674002284668,-0.0,0.2932586669921875,-1.596858326588766,0.0,0.0007925790268927813,0.7882362008094788,0.0,0.017474070191383362,0.8106435537338257,0.0002939076512120664,-0.00235612690448761
8190.0,1019.0,2.1374,-0.0437,9.1179,-0.0518,0.0086,-0.1219,-1.424766556625702,-0.06826193630695343,1.3581597805023193,-2.0439460277557373,7.248082692967728e-05,2.107811450958252,4.7036706644245605,-0.0,0.2864794135093689,-1.5968096891986292,0.0,-0.011993474327027798,0.7881550192832947,0.0,0.023589028045535088,0.8106797933578491,0.00024135706189554185,-0.006840732879936695
8190.0,1019.0,2.1374,-0.0437,9.1179,-0.0518,0.0086,-0.1219,-1.4251461339047928,-0.07541490346193314,1.2531079053878784,-2.043905019760132,9.654810855863616e-05,2.109391450881958,4.703662558192871,-0.0,0.2868649959564209,-1.5967934767352503,6.273727194638923e-05,-0.000983741134405136,0.7881919145584106,0.0,0.01188109815120697,0.8106516599655151,0.0002477931557223201,-0.010616655461490154
8190.0,1019.0,2.1374,-0.0437,9.1179,-0.0518,0.0086,-0.1219,-1.4257898193648835,-0.08601602166891098,1.3303704261779785,-2.043961524963379,8.48104536999017e-05,2.1312193870544434,4.703690214748047,-0.0,0.2845999598503113,-1.5968378225909632,5.966444223304279e-05,0.006791624240577221,0.7881636023521423,0.0,0.03860858827829361,0.8106556534767151,0.0002144762547686696,-0.01689067855477333
8190.0,1019.0,2.1374,-0.0437,9.1179,-0.0518,0.0086,-0.1219,-1.4265344750932236,-0.09445406496524811,1.2780925035476685,-2.0439295768737793,0.00012547260848805308,2.0907516479492188,4.703658266658447,-0.0,0.2821999788284302,-1.5967896620379847,6.789375038351864e-05,0.02058110199868679,0.7882079482078552,0.0,0.03929247334599495,0.8106353878974915,0.00018876997637562454,-0.07048314064741135
8190.0,1019.0,2.1374,-0.0437,9.1179,-0.0518,0.0086,-0.1219,-1.4271546316197892,-0.10297933965921402,1.2918334007263184,-2.0439131259918213,0.00045756736653856933,2.129817247390747,4.703669710750244,-0.0,0.28278422355651855,-1.5968096891986292,6.551660771947354e-05,0.0038395263254642487,0.7881390452384949,0.0,0.032311927527189255,0.8106435537338257,0.0001732007076498121,-0.06524388492107391
8190.0,1019.0,2.1374,-0.0437,9.1179,-0.0518,0.0086,-0.1219,-1.4280471962741395,-0.10673774033784866,1.2624962329864502,-2.043889284133911,0.0017322717467322946,2.082157850265503,4.703682108516357,-0.0,0.2775682806968689,-1.5968292395221155,6.248431600397453e-05,0.005126369651407003,0.7881432175636292,0.0,0.050529371947050095,0.8106597065925598,0.00017802556976675987,-0.054340094327926636
8190.0,1019.0,2.1374,-0.0437,9.1179,-0.0518,0.0086,-0.1219,-1.4289508622935791,-0.11708024144172668,1.2919116020202637,-2.0438334941864014,0.0018387369345873594,2.0314109325408936,4.7036658960529785,-0.0,0.27695727348327637,-1.5968335310565394,5.97201578784734e-05,0.007428313605487347,0.7881873846054077,0.0,0.03519003093242645,0.8106597065925598,0.00016225696890614927,-0.04202358424663544
8190.0,1019.0,2.1374,-0.0437,9.1179,-0.0518,0.0086,-0.1219,-1.4297149938395997,-0.13197943568229675,1.2072720527648926,-2.043889045715332,0.0016874807188287377,2.102931261062622,4.703661604518555,-0.0,0.2706835865974426,-1.5968416372882288,1.6623324938791484e-08,0.024108977988362312,0.7881473302841187,0.0,0.03683994710445404,0.8106878995895386,0.00010701932478696108,-0.045122627168893814
8190.0,1019.0,2.1374,-0.0437,9.1179,-0.0518,0.0086,-0.1219,-1.4308435332826157,-0.1499253213405609,1.2252936363220215,-2.0438735485076904,0.0041474830359220505,2.0378105640411377,4.7036940294453125,-0.0,0.28769785165786743,-1.5968335310565394,3.02120768723782e-13,0.013407528400421143,0.7882079482078552,0.0,0.029779577627778053,0.8106878995895386,0.0001166291767731309,-0.0632687360048294
8190.0,1019.0,2.1374,-0.0437,9.1179,-0.0518,0.0086,-0.1219,-1.43204319596801,-0.15357065200805664,1.222974181175232,-2.043728828430176,0.008071058429777622,2.1218459606170654,4.703710241908691,-0.0,0.27030158042907715,-1.59682542482485,5.4908948028887584e-18,0.011769305914640427,0.7881996631622314,0.0,0.054508280009031296,0.8106597065925598,0.00012525648344308138,-0.05797477811574936
8190.0,1019.0,2.1374,-0.0437,9.1179,-0.0518,0.0086,-0.1219,-1.4331000459245224,-0.15237604081630707,1.2089025974273682,-2.0437493324279785,0.009133521467447281,2.0929391384124756,4.703710241908691,-0.0,0.2819722294807434,-1.596813980733053,1.528410657992961e-21,0.011961748823523521,0.7881873846054077,0.0,0.04089222475886345,0.8107079267501831,0.00028954001027159393,0.01981106773018837
8190.0,1019.0,2.1374,-0.0437,9.1179,-0.0518,0.0086,-0.1219,-1.4343794596246262,-0.1628112643957138,1.2434048652648926,-2.043653964996338,0.007791949436068535,2.130988836288452,4.703742189998291,-0.0,0.27927500009536743,-1.5968292395221155,2.7778106670253e-26,0.015030911192297935,0.7881832718849182,0.0,0.04549911990761757,0.8106838464736938,0.0011350696440786123,-0.0482013113796711
1010.0,1051.0,1.4883,0.1693,8.9557,-0.0385,-0.0854,-0.1179,-1.4357757580331345,-0.1857040375471115,1.2794886827468872,-2.043602228164673,0.004145967774093151,2.1066110134124756,4.703698320979736,-0.0,0.2660904824733734,-1.5968177954303187,3.826346801361069e-05,0.012401464395225048,0.7881673574447632,0.0,0.04021812230348587,0.8107196688652039,0.0037992869038134813,-0.02033110521733761
1010.0,1051.0,1.4883,0.1693,8.9557,-0.0385,-0.0854,-0.1179,-1.4369318795255204,-0.20218269526958466,1.2056469917297363,-2.0435619354248047,0.0024151599500328302,2.087398052215576,4.703738375301025,-0.0,0.2768454849720001,-1.5968177954303187,3.92739093513228e-05,0.0101186977699399,0.7881878614425659,0.0,0.04340803623199463,0.8106954097747803,0.003984305541962385,-0.03213591128587723
1010.0,1051.0,1.4883,0.1693,8.9557,-0.0385,-0.0854,-0.1179,-1.4385718715241929,-0.20237934589385986,1.2137707471847534,-2.043574094772339,0.005442306399345398,2.085268259048462,4.703729792232178,-0.0,0.2675924599170685,-1.5968621412860315,3.612224099924788e-05,0.008713917806744576,0.788199245929718,8.597582927905023e-05,0.04764051362872124,0.8107516169548035,0.0025985585525631905,-0.0024290522560477257
1010.0,1051.0,1.4883,0.1693,8.9557,-0.0385,-0.0854,-0.1179,-1.4402845662883301,-0.20019254088401794,1.2124358415603638,-2.0435304641723633,0.010075557045638561,2.0934484004974365,4.703682108516357,0.00019696659001056105,0.2705104947090149,-1.5968459288226526,3.3438023820053786e-05,0.00028243253473192453,0.7881873846054077,8.003642142284662e-05,0.056045904755592346,0.8107956051826477,0.0026403884403407574,-0.036126039922237396
1010.0,1051.0,1.4883,0.1693,8.9557,-0.0385,-0.0854,-0.1179,-1.4415562015822907,-0.2161051481962204,1.1432595252990723,-2.043421983718872,0.00938834622502327,2.105424404144287,4.70370261251416,0.00014122574066277593,0.28468021750450134,-1.5968659559832972,3.167286195093766e-05,-0.011873969808220863,0.7882238626480103,7.598215597681701e-05,0.051244571805000305,0.8108600974082947,0.004765314515680075,0.02632850408554077
1010.0,1051.0,1.4883,0.1693,8.9557,-0.0385,-0.0854,-0.1179,-1.4434044671109696,-0.24360021948814392,1.1527631282806396,-2.0434021949768066,0.00654947804287076,2.090210437774658,4.703722639674805,9.153265273198485e-05,0.2797662615776062,-1.5968502203570765,2.9590188205474988e-05,-0.0024103596806526184,0.7882034182548523,8.493058703606948e-05,0.05082157626748085,0.8108436465263367,0.005622877739369869,0.01233331672847271
1010.0,1051.0,1.4883,0.1693,8.9557,-0.0385,-0.0854,-0.1179,-1.4448122543147583,-0.2487800121307373,1.1778556108474731,-2.0433061122894287,0.006405397783964872,2.06752347946167,4.7037388521381835,0.00011052386980736628,0.27517223358154297,-1.596858326588766,2.819943802023772e-05,0.007203215267509222,0.7882398366928101,8.154055831255391e-05,0.05897814407944679,0.8108676075935364,0.005158169660717249,0.04657045751810074
1010.0,1051.0,1.4883,0.1693,8.9557,-0.0385,-0.0854,-0.1179,-1.4468048524907609,-0.2562713325023651,1.1222620010375977,-2.043194055557251,0.012561282142996788,2.1200220584869385,4.703721686000488,0.00016770692309364676,0.26741960644721985,-1.5968292395221155,3.9803773688618094e-05,-0.00014642439782619476,0.7882115840911865,7.689608901273459e-05,0.059043481945991516,0.810920238494873,0.002713120309635997,0.060080304741859436
1010.0,1051.0,1.4883,0.1693,8.9557,-0.0385,-0.0854,-0.1179,-1.4488407906940957,-0.2642463445663452,1.1696796417236328,-2.043062448501587,0.020771440118551254,2.110704183578491,4.703722162837646,0.0007596416980959475,0.27274832129478455,-1.5968335310565394,3.758818274945952e-05,-0.005596577655524015,0.7882079482078552,7.275211100932211e-05,0.05180880054831505,0.8108755350112915,0.0015212902799248695,-0.006102622952312231
1010.0,1051.0,1.4883,0.1693,8.9557,-0.0385,-0.0854,-0.1179,-1.4504611206105729,-0.2634375989437103,1.1372344493865967,-2.0430188179016113,0.025573324412107468,2.096078634262085,4.7037622171589355,0.0006904404144734144,0.2773095965385437,-1.5968053976642054,3.60812628059648e-05,-0.011572503484785557,0.7881832718849182,6.99258380336687e-05,0.04577105864882469,0.810871422290802,0.0009413905791006982,-0.016680490225553513
1010.0,1051.0,1.4883,0.1693,8.9557,-0.0385,-0.0854,-0.1179,-1.452625000183918,-0.27482128143310547,1.1924887895584106,-2.0427112579345703,0.0326683409512043,2.1390204429626465,4.703689737910889,0.0005148163181729615,0.28999605774879456,-1.5968177954303187,3.425045724725351e-05,-0.0030774055048823357,0.7882717847824097,7.756106060696766e-05,0.05308344587683678,0.8109400272369385,0.0012447441695258021,0.04478523135185242
1010.0,1051.0,1.4883,0.1693,8.9557,-0.0385,-0.0854,-0.1179,-1.454885595743992,-0.28995269536972046,1.1176801919937134,-2.0424716472625732,0.03878948837518692,2.153873920440674,4.703714056605957,0.00034355372190475464,0.2853003442287445,-1.5968177954303187,3.2596468372503296e-05,-0.00016110483556985855,0.7881633043289185,7.392235420411453e-05,0.050805024802684784,0.8109156489372253,0.0017411211738362908,0.04575227200984955
1024.0,8190.0,1.9789,0.4965,8.7835,-0.0353,-0.228,-0.1266,-1.4565896925381203,-0.29998090863227844,1.1512835025787354,-2.0422322750091553,0.04281887784600258,2.160745143890381,4.703717871303223,0.0002794967731460929,0.2858988642692566,-1.5968096891986292,3.145715891150758e-05,0.011029612272977829,0.788227915763855,7.140864181565121e-05,0.060722120106220245,0.8109598755836487,0.0012598395114764571,0.06621820479631424
1024.0,8190.0,1.9789,0.4965,8.7835,-0.0353,-0.228,-0.1266,-1.4589136031321068,-0.3052445650100708,1.1166349649429321,-2.0418334007263184,0.05058934539556503,2.165637969970703,4.703709765071533,0.0002238580782432109,0.28337010741233826,-1.5968416372882288,3.005642065545544e-05,-0.00016196508659049869,0.7881672978401184,5.872432780051895e-07,0.06935033202171326,0.8108915090560913,0.00036273084697313607,0.06249439716339111
1024.0,8190.0,1.9789,0.4965,8.7835,-0.0353,-0.228,-0.1266,-1.4613580268672486,-0.3068386912345886,1.1789982318878174,-2.0413899421691895,0.06175224855542183,2.1737895011901855,4.703770323390625,0.00029615822131745517,0.2877548038959503,-1.5968416372882288,4.194009139979471e-09,0.003499180544167757,0.7881390452384949,1.0672857563009952e-11,0.05783822387456894,0.8109320998191833,-0.00022129120770841837,-0.03893572837114334
1024.0,8190.0,1.9789,0.4965,8.7835,-0.0353,-0.228,-0.1266,-1.463221826856472,-0.31120556592941284,1.1315054893493652,-2.040919065475464,0.07028728723526001,2.1510000228881836,4.703777475947998,0.0003872269589919597,0.28601717948913574,-1.596830193196432,1.1674178334100671e-12,0.0031988092232495546,0.788191556930542,2.9708293608493455e-15,0.06213514506816864,0.8109560012817383,-0.00016164849512279034,-0.003863381454721093
1024.0,8190.0,1.9789,0.4965,8.7835,-0.0353,-0.228,-0.1266,-1.4657923591187973,-0.3113745450973511,1.1692466735839844,-2.0403881072998047,0.07862470299005508,2.2126307487487793,4.7038184839436035,0.0006635391036979854,0.2820558249950409,-1.596802059804098,2.1217242268989264e-17,0.008110128343105316,0.7881349921226501,5.399335499204365e-20,0.051514528691768646,0.8108792304992676,-5.947134195594117e-05,-0.020673736929893494
1024.0,8190.0,1.9789,0.4965,8.7835,-0.0353,-0.228,-0.1266,-1.468442478483059,-0.33093997836112976,1.1819970607757568,-2.0397489070892334,0.0781821683049202,2.176534652709961,4.703810377711914,0.00041712369420565665,0.29106730222702026,-1.5967777411090296,3.8561285571275855e-22,-0.0026489226147532463,0.7881792187690735,9.813025369735461e-25,0.06086963415145874,0.8109116554260254,-2.7371859445679547e-08,0.027640560641884804
1024.0,8190.0,1.9789,0.4965,8.7835,-0.0353,-0.228,-0.1266,-1.470451497738697,-0.33192306756973267,1.2221719026565552,-2.0391976833343506,0.0781182125210762,2.2008650302886963,4.703794165248535,0.0004521772207226604,0.2879257798194885,-1.5968135038958948,1.0733675349934958e-25,-0.002517272951081395,0.7881755232810974,2.7314915511210016e-28,0.05709092691540718,0.8108797073364258,-6.609982201345732e-14,0.03311983495950699
1024.0,8190.0,1.9789,0.4965,8.7835,-0.0353,-0.228,-0.1266,-1.4731089559248467,-0.33690372109413147,1.193197250366211,-2.0386111736297607,0.08178616315126419,2.2370693683624268,4.703818007106445,0.0018723647808656096,0.3019620180130005,-1.5967977682696741,1.95079249626306e-30,-0.00402535917237401,0.7882075309753418,4.9643499464445924e-33,0.05048462748527527,0.8109277486801147,-2.141550411060615e-21,0.056181423366069794
1024.0,8190.0,1.9789,0.4965,8.7835,-0.0353,-0.228,-0.1266,-1.4758065429380913,-0.33530524373054504,1.2353968620300293,-2.037889003753662,0.08983191102743149,2.2392938137054443,4.703821821803711,0.0011551175266504288,0.29513734579086304,-1.5968053976642054,3.545468032396049e-35,-0.0038373060524463654,0.7882360816001892,9.022459707456655e-38,0.04606877267360687,0.8109318017959595,-6.938352208383918e-29,0.08321965485811234
1024.0,8190.0,1.9789,0.4965,8.7835,-0.0353,-0.228,-0.1266,-1.4778688934496422,-0.3343704640865326,1.3094909191131592,-2.037382125854492,0.09418806433677673,2.26567006111145,4.703789873714111,0.0007024802034720778,0.30231308937072754,-1.5968459288226526,9.868940108983497e-39,-0.001841516001150012,0.788191556930542,2.511407107762937e-41,0.07586447149515152,0.8109119534492493,-1.6755304770022656e-34,0.07890841364860535
1024.0,8190.0,1.9789,0.4965,8.7835,-0.0353,-0.228,-0.1266,-1.4806226205876847,-0.34652018547058105,1.2685787677764893,-2.036651611328125,0.10252390056848526,2.257263660430908,4.703797979945801,0.00046178189222700894,0.2953084409236908,-1.5967896620379847,1.793662034335766e-43,0.01378093846142292,0.7882115244865417,0.0,0.06869149953126907,0.8109437227249146,-5.4286302507943413e-42,0.047908715903759
1024.0,8190.0,1.9789,0.4965,8.7835,-0.0353,-0.228,-0.1266,-1.4833758112839242,-0.35091105103492737,1.2170965671539307,-2.035693407058716,0.1133173406124115,2.30033540725708,4.7038299280354,0.0003440164728090167,0.3013126254081726,-1.5968416372882288,0.0,-0.012448634952306747,0.7881714105606079,0.0,0.049187254160642624,0.8109518885612488,0.0,0.06480006873607635
1006.0,970.0,2.2935,0.1412,8.8217,-0.0246,-0.2616,-0.1289,-1.4854664292982598,-0.3563396632671356,1.3386725187301636,-2.0350146293640137,0.12162557244300842,2.3051445484161377,4.703809900874756,0.0002887971349991858,0.3037947714328766,-1.596797291432516,0.0,-0.004238177090883255,0.7881956696510315,0.0,0.042304787784814835,0.810947835445404,0.0,0.049297332763671875
1006.0,970.0,2.2935,0.1412,8.8217,-0.0246,-0.2616,-0.1289,-1.4882557180574914,-0.35836783051490784,1.2654056549072266,-2.0339725017547607,0.1221032664179802,2.249044179916382,4.7038256365009765,0.00026717971195466816,0.29485729336738586,-1.5967896620379847,0.0,-0.011485089547932148,0.7882238626480103,0.0,0.05567202717065811,0.8108750581741333,0.0,0.04888813942670822
1006.0,970.0,2.2935,0.1412,8.8217,-0.0246,-0.2616,-0.1289,-1.491105244760849,-0.35568225383758545,1.2642022371292114,-2.032966375350952,0.12644752860069275,2.3068928718566895,4.703878088588379,0.0013545325491577387,0.3094571530818939,-1.5968053976642054,0.0,0.0012479762081056833,0.7881836891174316,0.0,0.0573616661131382,0.8109399676322937,0.0,0.05159915238618851
1006.0,970.0,2.2935,0.1412,8.8217,-0.0246,-0.2616,-0.1289,-1.493244820540287,-0.35819244384765625,1.3145121335983276,-2.032191038131714,0.1349242776632309,2.3479511737823486,4.7039381700703125,0.00461963377892971,0.3193378150463104,-1.5968177954303187,0.0,-0.006520234979689121,0.788159191608429,0.0,0.05754239857196808,0.8109115958213806,0.0,0.07621990889310837
1006.0,970.0,2.2935,0.1412,8.8217,-0.0246,-0.2616,-0.1289,-1.496108503346779,-0.34916922450065613,1.313854455947876,-2.0310423374176025,0.1458074152469635,2.399463653564453,4.703914328212402,0.003501224098727107,0.3031848669052124,-1.5968015829669397,0.0,-0.006068231537938118,0.7881796360015869,0.0,0.04736858606338501,0.810935914516449,0.0,0.05294922739267349
1006.0,970.0,2.2935,0.1412,8.8217,-0.0246,-0.2616,-0.1289,-1.4990422439626236,-0.35756343603134155,1.317928433418274,-2.0298044681549072,0.15569467842578888,2.378049373626709,4.703898115749023,0.0012903200695291162,0.3123762905597687,-1.5968459288226526,0.0,-0.010314765386283398,0.7882238626480103,0.0,0.06171625107526779,0.8109922409057617,5.159983993507922e-05,0.06718356907367706
1006.0,970.0,2.2935,0.1412,8.8217,-0.0246,-0.2616,-0.1289,-1.5012477797320862,-0.35986649990081787,1.3702187538146973,-2.028860330581665,0.1619187593460083,2.4100704193115234,4.70388571798291,0.0007979299407452345,0.3171257972717285,-1.5967734495746058,0.0,0.005393474828451872,0.7881713509559631,0.0,0.04915585368871689,0.8109194040298462,0.00016675218648742884,0.061225198209285736
1006.0,970.0,2.2935,0.1412,8.8217,-0.0246,-0.2616,-0.1289,-1.504193828707077,-0.3683328926563263,1.364044427871704,-2.027517795562744,0.16429255902767181,2.3879921436309814,4.703869982356689,0.0005293271387927234,0.3191162943840027,-1.5968177954303187,0.0,-0.011988959275186062,0.788227915763855,0.0,0.04964037239551544,0.8109115362167358,0.00015105653437785804,0.07118643820285797
1006.0,970.0,2.2935,0.1412,8.8217,-0.0246,-0.2616,-0.1289,-1.5063472104123612,-0.37171778082847595,1.331024169921875,-2.0265419483184814,0.1676511913537979,2.384310722351074,4.7038819032856445,0.00046711540198884904,0.3097056746482849,-1.5967653433429163,0.0,-0.005992535036057234,0.7881672978401184,0.0,0.04836900532245636,0.8109111785888672,0.00013936124742031097,0.09841559082269669
1006.0,970.0,2.2935,0.1412,8.8217,-0.0246,-0.2616,-0.1289,-1.509264839147665,-0.3711680769920349,1.325486660003662,-2.025101900100708,0.17395295202732086,2.3658294677734375,4.703921480769775,0.0003813635848928243,0.3042035698890686,-1.5968344847308558,0.0,-0.005928087048232555,0.7882402539253235,0.0,0.04969845712184906,0.8109115362167358,0.00010527921403991058,0.04862082377076149
1006.0,970.0,2.2935,0.1412,8.8217,-0.0246,-0.2616,-0.1289,-1.5121982035091897,-0.36928442120552063,1.4181275367736816,-2.023638963699341,0.18173973262310028,2.408362627029419,4.70391766607251,0.00028862227918580174,0.30778321623802185,-1.5968096891986292,0.0,-0.011745555326342583,0.7882521152496338,0.0,0.054433584213256836,0.8109477758407593,7.700821879552677e-05,0.03841519355773926
1006.0,970.0,2.2935,0.1412,8.8217,-0.0246,-0.2616,-0.1289,-1.51435965046797,-0.36524534225463867,1.3593850135803223,-2.022580862045288,0.18762390315532684,2.4166386127471924,4.703953905696533,0.0010091940639540553,0.3235543966293335,-1.5968416372882288,0.0,-0.002282824832946062,0.7882115840911865,0.0,0.053840309381484985,0.8109318017959595,7.236437522806227e-05,0.006592733785510063
1006.0,970.0,2.2935,0.1412,8.8217,-0.0246,-0.2616,-0.1289,-1.5172574047795315,-0.3645649254322052,1.407592535018921,-2.0210158824920654,0.19865162670612335,2.4634058475494385,4.703973932857178,0.004727186635136604,0.32184097170829773,-1.5967815558062952,0.0,0.0026960428804159164,0.7882480025291443,0.0,0.0470244474709034,0.8109681010246277,3.592892244341783e-05,0.01040090061724186
976.0,946.0,2.8851,0.2722,9.3087,-0.0388,-0.1907,-0.1303,-1.5201146018556138,-0.36513665318489075,1.4166415929794312,-2.0194332599639893,0.2078372687101364,2.4777181148529053,4.703997774715088,0.0021493530366569757,0.3254951238632202,-1.5967777411090296,0.0,-0.009248102083802223,0.788159191608429,0.0,0.0436004139482975,0.8108914494514465,3.0945881007937714e-05,0.041204288601875305
976.0,946.0,2.8851,0.2722,9.3087,-0.0388,-0.1907,-0.1303,-1.5223329190960904,-0.36556756496429443,1.4563270807266235,-2.018146514892578,0.20733414590358734,2.435214042663574,4.704022093410156,0.00087640160927549,0.31331613659858704,-1.5967853705035608,0.0,-0.005907523445785046,0.7882319688796997,0.0,0.043275848031044006,0.8109156489372253,2.8052150810253806e-05,0.0037113307043910027
976.0,946.0,2.8851,0.2722,9.3087,-0.0388,-0.1907,-0.1303,-1.525270664399006,-0.36692413687705994,1.409055233001709,-2.016472101211548,0.22046709060668945,2.475430965423584,4.704033537501953,0.0009448696509934962,0.32406872510910034,-1.5967934767352503,0.0,-0.014032213017344475,0.7882115840911865,0.0,0.04489722102880478,0.8109197616577148,2.4942359232227318e-05,0.022940553724765778
976.0,946.0,2.8851,0.2722,9.3087,-0.0388,-0.1907,-0.1303,-1.5281399463168164,-0.35222965478897095,1.5073142051696777,-2.014615774154663,0.23352262377738953,2.4504456520080566,4.7040740686604,0.0049626799300313,0.33470821380615234,-1.5967815558062952,0.0,0.0026035159826278687,0.7881469130516052,0.0,0.04366587474942207,0.8109114766120911,2.008039567957809e-11,0.02958594635128975
976.0,946.0,2.8851,0.2722,9.3087,-0.0388,-0.1907,-0.1303,-1.5303937692991276,-0.35633382201194763,1.5213439464569092,-2.0132298469543457,0.23701594769954681,2.5074265003204346,4.704077406520508,0.003594969166442752,0.3352925777435303,-1.5967977682696741,0.0,-0.01840057596564293,0.7881878614425659,0.0,0.040275901556015015,0.8109156489372253,4.849179912352879e-17,0.006541448645293713
976.0,946.0,2.8851,0.2722,9.3087,-0.0388,-0.1907,-0.1303,-1.5332908046296616,-0.3523391783237457,1.5990668535232544,-2.011286973953247,0.24581916630268097,2.4783871173858643,4.704109354610107,0.003550506429746747,0.34716135263442993,-1.5967734495746058,0.0,9.873136878013611e-05,0.7882356643676758,0.0,0.04438047856092453,0.8109518885612488,1.5710727976947552e-24,-0.03978142887353897
976.0,946.0,2.8851,0.2722,9.3087,-0.0388,-0.1907,-0.1303,-1.536200152044632,-0.3637094795703888,1.5303947925567627,-2.0092804431915283,0.26363852620124817,2.5292229652404785,4.704149408931396,0.0054289656691253185,0.3364691734313965,-1.596813980733053,0.0,-0.0024806205183267593,0.788215696811676,0.0,0.043581776320934296,0.8109197616577148,5.090075679420759e-32,0.02758617140352726
976.0,946.0,2.8851,0.2722,9.3087,-0.0388,-0.1907,-0.1303,-1.5383748349598427,-0.35961756110191345,1.5382440090179443,-2.0077285766601562,0.26109403371810913,2.519268274307251,4.704113169307373,0.001797635923139751,0.3282839059829712,-1.596830193196432,0.0,-0.013434587977826595,0.7881956100463867,0.0,0.04498046636581421,0.8109037280082703,1.2291935653256174e-37,0.024012040346860886
976.0,946.0,2.8851,0.2722,9.3087,-0.0388,-0.1907,-0.1303,-1.541199830626585,-0.36171042919158936,1.5464097261428833,-2.005606174468994,0.2663273215293884,2.513913631439209,4.704169912929199,0.001004803110845387,0.3379330039024353,-1.596785847340719,1.22961163473434e-09,-0.0065861651673913,0.788236141204834,0.0,0.03278442844748497,0.8109078407287598,4.203895392974451e-45,0.056247562170028687
976.0,946.0,2.8851,0.2722,9.3087,-0.0388,-0.1907,-0.1303,-1.5440053020468731,-0.35474222898483276,1.583554744720459,-2.0033316612243652,0.2869487404823303,2.614753246307373,4.704241915340088,0.003952138125896454,0.34822016954421997,-1.596802059804098,2.2347581955534795e-14,0.007491068448871374,0.7881314158439636,0.0,0.03170428425073624,0.8109238147735596,0.0,0.008850278332829475
976.0,946.0,2.8851,0.2722,9.3087,-0.0388,-0.1907,-0.1303,-1.546171524827816,-0.35100528597831726,1.5734639167785645,-2.001636028289795,0.28880709409713745,2.5237135887145996,4.704188986415527,0.003580226097255945,0.3463456332683563,-1.5967939535724085,6.220532209658002e-18,0.004123328719288111,0.7882360816001892,0.0,0.0353698693215847,0.8109560012817383,0.0,0.027510682120919228
976.0,946.0,2.8851,0.2722,9.3087,-0.0388,-0.1907,-0.1303,-1.5489331793836136,-0.34744173288345337,1.598633050918579,-1.9991859197616577,0.2962239384651184,2.5330772399902344,4.7042457300373535,0.0015912300441414118,0.3430110216140747,-1.596785847340719,1.130551146934317e-22,0.009922085329890251,0.7882115840911865,0.0,0.029973022639751434,0.8108632564544678,0.0,-0.01857088878750801
991.0,941.0,3.0042,0.3775,9.6197,-0.0275,-0.0959,-0.1193,-1.5516874243370076,-0.3472244441509247,1.6269991397857666,-1.9967387914657593,0.30406561493873596,2.5322580337524414,4.704265757197998,0.0010409457609057426,0.34870126843452454,-1.5968096891986292,2.054720731628299e-27,0.004604642279446125,0.7882239818572998,0.0,0.04127722233533859,0.8109399676322937,0.0,-0.008785643614828587
991.0,941.0,3.0042,0.3775,9.6197,-0.0275,-0.0959,-0.1193,-1.5537448556027194,-0.3440292775630951,1.6323750019073486,-1.994888424873352,0.30502843856811523,2.5931577682495117,4.704253836269043,0.0013678250834345818,0.3509760797023773,-1.5967777411090296,5.719390333417376e-31,-0.0016102578956633806,0.7881832718849182,0.0,0.039774950593709946,0.8109156489372253,0.0,0.014444667845964432
991.0,941.0,3.0042,0.3775,9.6197,-0.0275,-0.0959,-0.1193,-1.556474532266595,-0.3416059613227844,1.6699223518371582,-1.9923169612884521,0.314831018447876,2.587913990020752,4.704285307521484,0.002606429858133197,0.34872686862945557,-1.5967658201800745,1.0394709859976955e-35,-0.006876334547996521,0.788284182548523,0.0,0.03239233419299126,0.8109601736068726,0.0,0.025634190067648888
991.0,941.0,3.0042,0.3775,9.6197,-0.0275,-0.0959,-0.1193,-1.5591319634443899,-0.3243746757507324,1.7210338115692139,-1.9897143840789795,0.3264419734477997,2.5615293979644775,4.704353495235107,0.005882404278963804,0.3647715449333191,-1.5967777411090296,1.8891885506487886e-40,-0.01014567632228136,0.7881714105606079,0.0,0.02671022340655327,0.8109238147735596,0.0,-0.03627622500061989
991.0,941.0,3.0042,0.3775,9.6197,-0.0275,-0.0959,-0.1193,-1.5611501785791297,-0.3257245719432831,1.7160515785217285,-1.9878318309783936,0.33709192276000977,2.609774351119995,4.704349680537842,0.007953309454023838,0.3542366623878479,-1.5967977682696741,5.324934164434305e-44,0.003442701417952776,0.7882319092750549,0.0,0.0490313358604908,0.8109681010246277,0.0,0.011852431111037731
991.0,941.0,3.0042,0.3775,9.6197,-0.0275,-0.0959,-0.1193,-1.5637878987802942,-0.3209756016731262,1.773080587387085,-1.9851090908050537,0.34065738320350647,2.600233554840088,4.704369230861328,0.002968598622828722,0.3453195095062256,-1.5968459288226526,0.0,-0.013575732707977295,0.7882120013237,0.0,0.03558749333024025,0.8109762072563171,0.0,0.03826416656374931
991.0,941.0,3.0042,0.3775,9.6197,-0.0275,-0.0959,-0.1193,-1.5664211588776489,-0.32531866431236267,1.7706992626190186,-1.9824390411376953,0.3444755971431732,2.60099720954895,4.70432107030835,0.0005067175370641053,0.35063350200653076,-1.5967896620379847,0.0,-0.007119406014680862,0.7882238626480103,0.0,0.022296717390418053,0.8109515905380249,0.0,0.05430837720632553
991.0,941.0,3.0042,0.3775,9.6197,-0.0275,-0.0959,-0.1193,-1.5683955992902447,-0.3305128216743469,1.7837655544281006,-1.9803239107131958,0.34348946809768677,2.5090699195861816,4.704373522395752,0.00042381935054436326,0.3370349109172821,-1.5968177954303187,0.0,0.0003814045339822769,0.7881432771682739,0.0,0.04917505010962486,0.8109679222106934,0.0006043735193088651,0.04599688947200775
991.0,941.0,3.0042,0.3775,9.6197,-0.0275,-0.0959,-0.1193,-1.5709215603270472,-0.32258862257003784,1.7345290184020996,-1.977634072303772,0.35607001185417175,2.5568299293518066,4.7044054704853515,0.00028814293909817934,0.3448145389556885,-1.5968096891986292,0.0,-0.00030978117138147354,0.78814697265625,0.0,0.04251822084188461,0.8109762072563171,0.0004894246230833232,-0.027940455824136734
991.0,941.0,3.0042,0.3775,9.6197,-0.0275,-0.0959,-0.1193,-1.5727993450560511,-0.32176387310028076,1.7746232748031616,-1.9755148887634277,0.35342326760292053,2.573996067047119,4.704417868251465,0.00017427813145332038,0.3397417366504669,-1.5968177954303187,0.0,-0.014478545635938644,0.7881755232810974,0.0,0.03088296949863434,0.811000406742096,0.0003969058161601424,-0.0008734883740544319
991.0,941.0,3.0042,0.3775,9.6197,-0.0275,-0.0959,-0.1193,-1.5753613911070765,-0.309686541557312,1.7662943601608276,-1.972661018371582,0.36087971925735474,2.592985153198242,4.704364939326904,0.00013847807713318616,0.34302008152008057,-1.5967815558062952,0.0,-0.008325961418449879,0.788223922252655,0.0,0.04780927672982216,0.8110123872756958,0.0003622937365435064,0.033500246703624725
991.0,941.0,3.0042,0.3775,9.6197,-0.0275,-0.0959,-0.1193,-1.5778070888915003,-0.30900365114212036,1.856220006942749,-1.9698119163513184,0.3563201427459717,2.5203359127044678,4.704341097468994,0.00011490235920064151,0.33347180485725403,-1.596797291432516,0.0,-0.018091708421707153,0.7881555557250977,0.0,0.03391502425074577,0.8110038042068481,0.0003094967105425894,-0.033639125525951385
949.0,909.0,3.1705,0.2812,10.0397,-0.035,0.0454,-0.1235,-1.5795971355833949,-0.30882301926612854,1.8037112951278687,-1.9676225185394287,0.3583221733570099,2.5604746341705322,4.704341097468994,0.0001018891780404374,0.32976800203323364,-1.5968096891986292,0.0,-0.004773909691721201,0.7882033586502075,0.0,0.04116406291723251,0.8109798431396484,0.0010435940930619836,0.038304343819618225
949.0,909.0,3.1705,0.2812,10.0397,-0.035,0.0454,-0.1235,-1.5820805035033167,-0.3108421862125397,1.794332504272461,-1.9647412300109863,0.3548937439918518,2.5487112998962402,4.704272909755371,-0.00012178321048850194,0.32564908266067505,-1.5968292395221155,0.0,-0.022589363157749176,0.7882198691368103,0.0,0.04909816011786461,0.8109798431396484,0.0021657247561961412,0.057981573045253754
949.0,909.0,3.1705,0.2812,10.0397,-0.035,0.0454,-0.1235,-1.5844770870604457,-0.3045233190059662,1.8342747688293457,-1.9618886709213257,0.3512081503868103,2.4958322048187256,4.704369707698486,-0.0005413943435996771,0.3265155851840973,-1.5968378225909632,0.0,-0.013041463680565357,0.7882356643676758,0.0,0.05039900541305542,0.8110078573226929,0.0015441111754626036,0.03480648621916771
949.0,909.0,3.1705,0.2812,10.0397,-0.035,0.0454,-0.1235,-1.586287637750143,-0.3013818860054016,1.8268539905548096,-1.9597232341766357,0.3514007329940796,2.490387439727783,4.704357309932373,-0.0003433714446146041,0.31078362464904785,-1.596854035054342,0.0,-0.02043018490076065,0.7882398366928101,0.0,0.0341230109333992,0.8110319972038269,0.00154009903781116,0.06066077947616577
949.0,909.0,3.1705,0.2812,10.0397,-0.035,0.0454,-0.1235,-1.588693758050436,-0.2918590009212494,1.837566614151001,-1.956982135772705,0.35691285133361816,2.5037097930908203,4.704348726863525,-0.00023212192172650248,0.3207583725452423,-1.5968378225909632,0.0,-0.0238141268491745,0.7882439494132996,0.0,0.040445730090141296,0.8110358715057373,0.0018670764984562993,0.0678139328956604
949.0,909.0,3.1705,0.2812,10.0397,-0.035,0.0454,-0.1235,-1.5911199055113734,-0.2872985899448395,1.8372198343276978,-1.9541900157928467,0.35736802220344543,2.4273054599761963,4.704361601466797,-0.00013365618360694498,0.31485745310783386,-1.5968177954303187,0.0,-0.008023573085665703,0.7882075309753418,0.0,0.04108035936951637,0.8110196590423584,0.002678245073184371,0.07677622884511948
949.0,909.0,3.1705,0.2812,10.0397,-0.035,0.0454,-0.1235,-1.5929390392699183,-0.30076995491981506,1.8672853708267212,-1.9520437717437744,0.3559274971485138,2.534987449645996,4.704329176540039,-0.00010557674977462739,0.3118678629398346,-1.5968416372882288,0.0,-0.016425516456365585,0.7881828546524048,0.0,0.04071174934506416,0.8110358119010925,0.003752265591174364,0.028458457440137863
949.0,909.0,3.1705,0.2812,10.0397,-0.035,0.0454,-0.1235,-1.5953880749144496,-0.3001787066459656,1.8489246368408203,-1.9491902589797974,0.34727537631988525,2.4383316040039062,4.7043773370930175,-0.00013569054135587066,0.3005247712135315,-1.5968015829669397,0.0,-0.010159329511225224,0.7882075309753418,0.0,0.052219536155462265,0.8111201524734497,0.003144209273159504,0.08342033624649048
949.0,909.0,3.1705,0.2812,10.0397,-0.035,0.0454,-0.1235,-1.5978623829283656,-0.3071768879890442,1.8679697513580322,-1.9464417695999146,0.35920825600624084,2.5057921409606934,4.704373522395752,-0.00012145067739766091,0.29741865396499634,-1.5967853705035608,0.0,-0.032638415694236755,0.788227915763855,0.0,0.047929633408784866,0.8111200928688049,0.0026648007333278656,0.03310469165444374
949.0,909.0,3.1705,0.2812,10.0397,-0.035,0.0454,-0.1235,-1.5996419392027796,-0.30255788564682007,1.862476110458374,-1.9442930221557617,0.35492759943008423,2.4821951389312744,4.704385920161865,-0.0001924119860632345,0.30516180396080017,-1.5968263784991663,0.0,-0.01552923209965229,0.7882680892944336,0.0,0.05173642933368683,0.8110718131065369,0.001618975424207747,0.02699560672044754
949.0,909.0,3.1705,0.2812,10.0397,-0.035,0.0454,-0.1235,-1.6021000347533167,-0.2942297160625458,1.8372950553894043,-1.9414275884628296,0.3592979907989502,2.4821617603302,4.704381628627441,9.054363908944651e-05,0.30509957671165466,-1.5968263784991663,0.0,-0.012803951278328896,0.7882156372070312,0.0,0.04391815513372421,0.8111361265182495,0.0008592380327172577,0.04202729091048241
949.0,909.0,3.1705,0.2812,10.0397,-0.035,0.0454,-0.1235,-1.604441305200094,-0.30163460969924927,1.8330572843551636,-1.9385111331939697,0.3505435585975647,2.487330913543701,4.704333468074463,2.2899049767488577e-08,0.30353301763534546,-1.596854035054342,0.0,-0.011765848845243454,0.7882362008094788,0.0,0.05243927612900734,0.8111160397529602,0.0005815144395455718,0.04490499198436737
951.0,883.0,2.7823,0.5372,9.6664,-0.0255,0.0567,-0.1252,-1.6062160931029261,-0.30017489194869995,1.909010648727417,-1.9364013671875,0.35146018862724304,2.4812920093536377,4.704361124629639,6.3740354140640054e-12,0.30711764097213745,-1.596757713948385,0.0,-0.02490578219294548,0.7882238626480103,0.0,0.051951199769973755,0.8111160397529602,0.0004680742567870766,0.08910275995731354
951.0,883.0,2.7823,0.5372,9.6664,-0.0255,0.0567,-0.1252,-1.6085463962950648,-0.2981225848197937,1.89686918258667,-1.9335639476776123,0.351570725440979,2.4718894958496094,4.704364939326904,1.1584495072215702e-16,0.30649077892303467,-1.5967896620379847,0.0,0.0025595943443477154,0.7882115840911865,0.0,0.044731564819812775,0.8111039400100708,0.00012862053699791431,0.05701831728219986
951.0,883.0,2.7823,0.5372,9.6664,-0.0255,0.0567,-0.1252,-1.6108442745604457,-0.28988125920295715,1.9430723190307617,-1.930743932723999,0.3497627079486847,2.493401050567627,4.70442168294873,2.105424873004817e-21,0.30246618390083313,-1.5968220869647425,0.0,-0.017010534182190895,0.7882198691368103,0.0,0.05073441565036774,0.8110998868942261,4.1573272028472275e-05,0.058858729898929596
951.0,883.0,2.7823,0.5372,9.6664,-0.0255,0.0567,-0.1252,-1.6125794849791468,-0.2851018011569977,1.8648173809051514,-1.9286260604858398,0.3482159674167633,2.472309112548828,4.704349680537842,5.860526550977419e-25,0.29189860820770264,-1.596813980733053,0.0,-0.01895495131611824,0.788227915763855,0.0,0.046134576201438904,0.8111039400100708,3.6494577216217294e-05,0.020943157374858856
951.0,883.0,2.7823,0.5372,9.6664,-0.0255,0.0567,-0.1252,-1.6148134670653285,-0.2799474596977234,1.9081624746322632,-1.925856590270996,0.35131365060806274,2.49680233001709,4.704369230861328,1.0651217131218855e-29,0.30336248874664307,-1.5968058745013636,0.0,-0.006343191489577293,0.7882079482078552,0.0,0.044997263699769974,0.8111320734024048,6.280010711634532e-05,8.642114698886871e-05
951.0,883.0,2.7823,0.5372,9.6664,-0.0255,0.0567,-0.1252,-1.6170646152892054,-0.28155845403671265,1.9148588180541992,-1.9231492280960083,0.3461126983165741,2.4845221042633057,4.704394026393555,1.9358061632328066e-34,0.3047061562538147,-1.5968015829669397,0.0,-0.020274266600608826,0.7882115840911865,0.0,0.04720834270119667,0.8111196756362915,8.266619988717139e-05,-0.031707514077425
951.0,883.0,2.7823,0.5372,9.6664,-0.0255,0.0567,-0.1252,-1.6187273464598597,-0.2843696177005768,1.927844524383545,-1.9210337400436401,0.34506481885910034,2.4072487354278564,4.704389734859131,5.388387761495861e-38,0.30480408668518066,-1.5968177954303187,0.0,-0.012341558001935482,0.7881672978401184,0.0,0.02981911040842533,0.8111279010772705,-4.6859076974214986e-05,-0.025037365034222603
951.0,883.0,2.7823,0.5372,9.6664,-0.0255,0.0567,-0.1252,-1.6209608517088832,-0.27615219354629517,1.975214958190918,-1.918297529220581,0.3392682671546936,2.425156354904175,4.704377813930176,9.795076265630471e-43,0.292942613363266,-1.5968096891986292,0.0,-0.00920560210943222,0.7881873846054077,0.0,0.05382580682635307,0.8111200928688049,-3.996233135694638e-05,-0.019686605781316757
951.0,883.0,2.7823,0.5372,9.6664,-0.0255,0.0567,-0.1252,-1.6232673130431117,-0.2816430926322937,1.914280891418457,-1.9156160354614258,0.3500741720199585,2.437225341796875,4.7044054704853515,0.0,0.2982754707336426,-1.5967696348773401,0.0,0.0056396471336483955,0.7882521748542786,0.0,0.05140049755573273,0.8110636472702026,-1.9213095114878342e-08,-0.05372857302427292
951.0,883.0,2.7823,0.5372,9.6664,-0.0255,0.0567,-0.1252,-1.624998231927389,-0.28162768483161926,1.9381968975067139,-1.9135758876800537,0.3428126871585846,2.4798851013183594,4.704373522395752,0.0,0.2897852063179016,-1.596785847340719,0.0,-0.004384469240903854,0.788219690322876,0.0,0.03800412267446518,0.8111039996147156,-4.639736471000362e-14,-0.012814914807677269
951.0,883.0,2.7823,0.5372,9.6664,-0.0255,0.0567,-0.1252,-1.6273085079588832,-0.27757543325424194,2.032604455947876,-1.9107818603515625,0.3421535789966583,2.4287524223327637,4.704364939326904,0.0,0.2991742193698883,-1.5967934767352503,0.0,-0.005265479441732168,0.7881873846054077,0.0,0.04649294167757034,0.8110875487327576,-1.5032153746915136e-21,0.001953376457095146
951.0,883.0,2.7823,0.5372,9.6664,-0.0255,0.0567,-0.1252,-1.629003187219137,-0.28707483410835266,1.9481799602508545,-1.9088088274002075,0.33700039982795715,2.4489452838897705,4.704385920161865,0.0,0.2996632754802704,-1.596854035054342,0.0,-0.011535356752574444,0.7882079482078552,0.0,0.03772024065256119,0.81113600730896,-3.630088285306304e-27,0.02118845097720623
952.0,906.0,2.8714,0.2662,8.5454,-0.0255,0.0727,-0.1228,-1.631341119805807,-0.2876318097114563,1.9712815284729004,-1.906130075454712,0.32821983098983765,2.428218126296997,4.7043372827717285,0.0,0.29053744673728943,-1.5968263784991663,0.0,-0.014964706264436245,0.7882238626480103,0.0,0.03636505454778671,0.8111279010772705,-1.1761024166012236e-34,-0.01563405618071556
952.0,906.0,2.8714,0.2662,8.5454,-0.0255,0.0727,-0.1228,-1.633559366265768,-0.28934842348098755,1.9307692050933838,-1.903490662574768,0.32447776198387146,2.412517547607422,4.704381628627441,0.0,0.2847321033477783,-1.596830193196432,0.0,0.010615639388561249,0.788219690322876,0.0,0.034729890525341034,0.8111563324928284,-3.8101305244991776e-42,0.036987654864788055
952.0,906.0,2.8714,0.2662,8.5454,-0.0255,0.0727,-0.1228,-1.6352740726866664,-0.2917274534702301,1.9468581676483154,-1.9015114307403564,0.3168264627456665,2.398198127746582,4.704349680537842,0.0,0.2933559715747833,-1.5967896620379847,0.0,-0.006715164985507727,0.7882038354873657,0.0,0.02765125036239624,0.811116099357605,-0.0,-0.057605888694524765
952.0,906.0,2.8714,0.2662,8.5454,-0.0255,0.0727,-0.1228,-1.637536188165182,-0.28225821256637573,1.9613988399505615,-1.8989359140396118,0.3163006007671356,2.4290497303009033,4.704397364253662,0.0,0.2806858420372009,-1.5968263784991663,0.0,0.007053001318126917,0.7882196307182312,0.0,0.035956598818302155,0.811140239238739,0.0,0.0005072737112641335
952.0,906.0,2.8714,0.2662,8.5454,-0.0255,0.0727,-0.1228,-1.6398307285704554,-0.28099051117897034,1.9915368556976318,-1.8964049816131592,0.3114909827709198,2.382032632827759,4.7043492037006835,0.0,0.2830418348312378,-1.5967853705035608,0.0,0.005332328379154205,0.7881878614425659,0.0,0.050579726696014404,0.8111843466758728,0.0,-0.010493050329387188
952.0,906.0,2.8714,0.2662,8.5454,-0.0255,0.0727,-0.1228,-1.6414901218810023,-0.2796221077442169,1.9765342473983765,-1.8945437669754028,0.3123074769973755,2.4036996364593506,4.7043372827717285,0.0,0.2846742868423462,-1.5968378225909632,0.0,-0.0023941544350236654,0.7882561683654785,0.0,0.04124404117465019,0.8111563920974731,0.0,0.011873365379869938
952.0,906.0,2.8714,0.2662,8.5454,-0.0255,0.0727,-0.1228,-1.6436840496458949,-0.2839883863925934,1.9760105609893799,-1.8921982049942017,0.3044067323207855,2.3950448036193848,4.704325361842773,0.0,0.27829107642173767,-1.5968096891986292,0.0,0.0061608185060322285,0.7882120013237,0.0,0.04211072996258736,0.8110838532447815,0.0,0.00815822184085846
952.0,906.0,2.8714,0.2662,8.5454,-0.0255,0.0727,-0.1228,-1.645914217034811,-0.2850179076194763,1.9924248456954956,-1.8898224830627441,0.30205386877059937,2.401733160018921,4.704329176540039,0.0,0.28012335300445557,-1.5968378225909632,0.0,-0.01122261956334114,0.7881272435188293,0.0,0.03280102461576462,0.811075747013092,0.0,-0.006938112899661064
952.0,906.0,2.8714,0.2662,8.5454,-0.0255,0.0727,-0.1228,-1.6475721798338832,-0.28520822525024414,2.0311439037323,-1.8879668712615967,0.29580143094062805,2.3189644813537598,4.704373522395752,0.0,0.28104037046432495,-1.5968015829669397,0.0,0.004840129055082798,0.7881432175636292,0.0,0.04164987429976463,0.811079740524292,0.0,-0.0340082049369812
952.0,906.0,2.8714,0.2662,8.5454,-0.0255,0.0727,-0.1228,-1.6498829327025355,-0.28664350509643555,1.9632713794708252,-1.8856350183486938,0.2995063364505768,2.394585132598877,4.7043372827717285,0.0,0.27729111909866333,-1.5967896620379847,0.0,0.006686077918857336,0.7882198095321655,0.0,0.05117331072688103,0.8110998868942261,0.0,-0.03973252326250076
952.0,906.0,2.8714,0.2662,8.5454,-0.0255,0.0727,-0.1228,-1.6522289715208949,-0.27463364601135254,2.046204090118408,-1.8833006620407104,0.29950210452079773,2.370316743850708,4.704329176540039,0.0,0.280578076839447,-1.5968096891986292,0.0,0.0184167567640543,0.7881836891174316,0.0,0.042246263474226,0.8110394477844238,0.0,-0.0719892680644989
952.0,906.0,2.8714,0.2662,8.5454,-0.0255,0.0727,-0.1228,-1.65393128017568,-0.2813352942466736,2.020517349243164,-1.8814878463745117,0.29680290818214417,2.3431029319763184,4.7043654161640625,-8.086478192126378e-05,0.2897056043148041,-1.5968220869647425,0.0,0.008708277717232704,0.7881993055343628,0.0,0.0286855585873127,0.8110800385475159,0.0,-0.08485034108161926
952.0,906.0,2.8714,0.2662,8.5454,-0.0255,0.0727,-0.1228,-1.6562725506224574,-0.28955698013305664,2.0411031246185303,-1.8791205883026123,0.30065709352493286,2.389890670776367,4.7043492037006835,-0.00010633216879796237,0.29077500104904175,-1.5968263784991663,0.0,0.018019741401076317,0.7882033586502075,0.0,0.04619364067912102,0.811152458190918,-0.00011106635793112218,-0.059725262224674225
929.0,879.0,3.0239,0.0299,8.12,-0.044,0.0095,-0.1342,-1.658626218835348,-0.2898043990135193,2.062462568283081,-1.8767417669296265,0.2870734632015228,2.3788669109344482,4.704345865840576,-0.00012251202133484185,0.2938060462474823,-1.5968263784991663,0.0,-0.0016533008310943842,0.788236141204834,0.0,0.04284367710351944,0.8111607432365417,-0.00013481486530508846,-0.04425779730081558
929.0,879.0,3.0239,0.0299,8.12,-0.044,0.0095,-0.1342,-1.6603876552977503,-0.29805877804756165,2.0625553131103516,-1.8750301599502563,0.28690284490585327,2.392493963241577,4.704301043147705,-8.386360423173755e-05,0.2761523723602295,-1.5968459288226526,0.0,0.01006992720067501,0.7881956100463867,0.0,0.030092407017946243,0.811087965965271,-0.00011724996875273064,-0.04724373295903206
929.0,879.0,3.0239,0.0299,8.12,-0.044,0.0095,-0.1342,-1.662725111047262,-0.28842318058013916,2.052410364151001,-1.8726783990859985,0.2854406237602234,2.3824996948242188,4.704357309932373,-7.420995825668797e-05,0.27921366691589355,-1.5968053976642054,0.0,0.00010119902435690165,0.7882198691368103,0.0,0.04162951558828354,0.8111160397529602,-9.989653335651383e-05,-0.01366894319653511
929.0,879.0,3.0239,0.0299,8.12,-0.044,0.0095,-0.1342,-1.665091177026266,-0.28617140650749207,2.033311605453491,-1.8704262971878052,0.2769962251186371,2.347999095916748,4.704361601466797,-6.685897096758708e-05,0.289042204618454,-1.5967896620379847,0.0,-0.00882794614881277,0.7881836891174316,0.0,0.038602180778980255,0.8110916614532471,5.63455032533966e-05,-0.01524400245398283
929.0,879.0,3.0239,0.0299,8.12,-0.044,0.0095,-0.1342,-1.6667081318297328,-0.2908284068107605,2.0826990604400635,-1.8687235116958618,0.27305570244789124,2.3379738330841064,4.704369230861328,-6.2235449149739e-05,0.279215008020401,-1.5968177954303187,0.0,0.0076904636807739735,0.7882115840911865,0.0,0.046993136405944824,0.8111078143119812,9.488076466368511e-05,-0.01944052428007126
929.0,879.0,3.0239,0.0299,8.12,-0.044,0.0095,-0.1342,-1.669023176232809,-0.2856218218803406,2.0997750759124756,-1.8665002584457397,0.26770007610321045,2.3135135173797607,4.70434491216626,-5.7090623158728704e-05,0.2782830595970154,-1.5968263784991663,0.0,0.0071591101586818695,0.7882239818572998,0.0,0.03461246192455292,0.8110957741737366,0.00011754017759812996,0.026129908859729767
929.0,879.0,3.0239,0.0299,8.12,-0.044,0.0095,-0.1342,-1.6712595425047816,-0.28485360741615295,2.1090872287750244,-1.8643604516983032,0.2681591808795929,2.3744559288024902,4.704364939326904,7.973638275871053e-05,0.28699034452438354,-1.5968378225909632,0.0,0.008167359977960587,0.788175106048584,0.0,0.038724128156900406,0.8111039996147156,0.00010010717232944444,-0.027111731469631195
929.0,879.0,3.0239,0.0299,8.12,-0.044,0.0095,-0.1342,-1.6729580364623011,-0.27987492084503174,2.188642978668213,-1.8628411293029785,0.26684918999671936,2.3493425846099854,4.70442168294873,0.0002527207834646106,0.2905421257019043,-1.5968344847308558,0.0,0.0077829789370298386,0.7881633043289185,0.0,0.04000311344861984,0.8111361265182495,9.008642518892884e-05,-0.03075423091650009
929.0,879.0,3.0239,0.0299,8.12,-0.044,0.0095,-0.1342,-1.675131460229391,-0.2772691547870636,2.1525025367736816,-1.8606765270233154,0.2651670277118683,2.3135061264038086,4.704356833095215,0.0002464649733155966,0.29543226957321167,-1.596802059804098,0.0,-0.006671994458884001,0.7881514430046082,0.0,0.04128434509038925,0.81113600730896,7.947876292746514e-05,0.0039271824061870575
929.0,879.0,3.0239,0.0299,8.12,-0.044,0.0095,-0.1342,-1.6773096523680628,-0.275789737701416,2.190042018890381,-1.8586658239364624,0.2662235200405121,2.33925199508667,4.704341097468994,0.00018516290583647788,0.2909156084060669,-1.5967777411090296,0.0,-0.001375596853904426,0.7881391048431396,0.0,0.025980183854699135,0.8111080527305603,7.110620936146006e-05,0.02046716772019863
929.0,879.0,3.0239,0.0299,8.12,-0.044,0.0095,-0.1342,-1.6789189777769984,-0.28056618571281433,2.1551055908203125,-1.8570713996887207,0.2574346959590912,2.354785442352295,4.704385920161865,0.0001506433472968638,0.28963929414749146,-1.5968177954303187,0.0,-0.0012357491068542004,0.7881919145584106,0.0,0.03390764445066452,0.8110635876655579,6.589973054360598e-05,-0.0010076314210891724
929.0,879.0,3.0239,0.0299,8.12,-0.044,0.0095,-0.1342,-1.681193014184469,-0.2834179699420929,2.221569061279297,-1.8549549579620361,0.2605770230293274,2.404914379119873,4.704401178950928,0.00016410098760388792,0.2992737293243408,-1.5968053976642054,0.0,-0.007018230389803648,0.7882034182548523,0.0,0.04681900143623352,0.8110635876655579,6.0038244555471465e-05,0.014002896845340729
956.0,869.0,2.6518,0.2578,9.0269,-0.0319,0.0072,-0.1292,-1.6834989986815394,-0.274476557970047,2.22261381149292,-1.8528921604156494,0.26962393522262573,2.3947763442993164,4.704433127040527,8.96058845683001e-05,0.29870232939720154,-1.596830193196432,0.0,-0.011059393174946308,0.7881751656532288,0.0,0.045372314751148224,0.8111201524734497,5.119619527249597e-05,-0.01842125691473484
956.0,869.0,2.6518,0.2578,9.0269,-0.0319,0.0072,-0.1292,-1.6851808033385218,-0.2786244750022888,2.2080068588256836,-1.851283311843872,0.2667205035686493,2.3516647815704346,4.704361124629639,7.795728015480563e-05,0.30410462617874146,-1.5968096891986292,0.0,-0.0035477178171277046,0.7881956100463867,0.0,0.03201327472925186,0.8111442923545837,2.3696913558524102e-05,-0.015613680705428123
956.0,869.0,2.6518,0.2578,9.0269,-0.0319,0.0072,-0.1292,-1.6874414883055628,-0.2808645963668823,2.1567978858947754,-1.849143147468567,0.2700055241584778,2.3816232681274414,4.704413576717041,9.966112702386454e-05,0.29732444882392883,-1.5968177954303187,0.0,0.0021613920107483864,0.7881873846054077,0.0,0.03436499834060669,0.8110353350639343,4.269510827725753e-05,-0.006732238456606865
956.0,869.0,2.6518,0.2578,9.0269,-0.0319,0.0072,-0.1292,-1.6892286739745082,-0.27815812826156616,2.238692283630371,-1.8475533723831177,0.27335047721862793,2.359604835510254,4.704384966487549,5.9888687246711925e-05,0.3015744388103485,-1.596813980733053,0.0,-0.011120469309389591,0.7881555557250977,0.0,0.03687024116516113,0.8110957741737366,3.985924195148982e-05,-0.026549099013209343
956.0,869.0,2.6518,0.2578,9.0269,-0.0319,0.0072,-0.1292,-1.6915341816344203,-0.2922767400741577,2.189432144165039,-1.8453478813171387,0.2618763744831085,2.379765510559082,4.7043492037006835,4.507694029598497e-05,0.29209208488464355,-1.596813980733053,0.0,-0.0012680813670158386,0.788191556930542,0.0,0.02608964964747429,0.8111119270324707,1.830837754823733e-05,-0.03587595373392105
956.0,869.0,2.6518,0.2578,9.0269,-0.0319,0.0072,-0.1292,-1.6937791309752406,-0.28610214591026306,2.215445041656494,-1.8431905508041382,0.26433709263801575,2.377936601638794,4.704425974483154,4.215514491079375e-05,0.30037248134613037,-1.596813980733053,0.0,-0.010358858853578568,0.7882079482078552,0.0,0.038059670478105545,0.8111039996147156,1.693037847871892e-05,-0.035722050815820694
956.0,869.0,2.6518,0.2578,9.0269,-0.0319,0.0072,-0.1292,-1.6955214939513148,-0.2835465669631958,2.2470450401306152,-1.8416340351104736,0.262446790933609,2.316983461380005,4.704364939326904,3.696038402267732e-05,0.31037044525146484,-1.596830193196432,0.0,-0.005209210328757763,0.7881555557250977,0.0,0.030141547322273254,0.811079740524292,2.558761558191236e-08,0.01588512770831585
956.0,869.0,2.6518,0.2578,9.0269,-0.0319,0.0072,-0.1292,-1.6978403530516566,-0.2867875099182129,2.2786130905151367,-1.839534878730774,0.2578379511833191,2.3818438053131104,4.704433127040527,5.523225263459608e-05,0.28837791085243225,-1.5968096891986292,0.0,-0.014264937490224838,0.7881390452384949,0.0,0.039347462356090546,0.8111484050750732,8.290062861917159e-16,0.04239332675933838
956.0,869.0,2.6518,0.2578,9.0269,-0.0319,0.0072,-0.1292,-1.7000404796996058,-0.2769433856010437,2.3030505180358887,-1.8374624252319336,0.25768381357192993,2.380204200744629,4.704401178950928,6.928655784577131e-05,0.2934524118900299,-1.5968096891986292,0.0,0.004418705590069294,0.788236141204834,4.2789736198756145e-07,0.02983693778514862,0.8111201524734497,2.685875113684326e-23,-0.02488527074456215
956.0,869.0,2.6518,0.2578,9.0269,-0.0319,0.0072,-0.1292,-1.7016989193358363,-0.27396267652511597,2.287160634994507,-1.83588445186615,0.25543755292892456,2.3383307456970215,4.704425020808838,0.000277628714684397,0.3087761700153351,-1.5968096891986292,0.0,-0.01445578970015049,0.7882042527198792,1.1910680774995797e-10,0.028955765068531036,0.8110635876655579,6.486072236921988e-29,0.00013485830277204514
956.0,869.0,2.6518,0.2578,9.0269,-0.0319,0.0072,-0.1292,-1.7038198910155238,-0.26869797706604004,2.306654453277588,-1.8338327407836914,0.2539990246295929,2.3383095264434814,4.7044336038776855,0.0010572338942438364,0.312554270029068,-1.5968416372882288,0.0,-0.014181191101670265,0.7881836891174316,2.1647072579144807e-15,0.022157587110996246,0.81109619140625,2.101405113721839e-36,-0.007774513680487871
956.0,869.0,2.6518,0.2578,9.0269,-0.0319,0.0072,-0.1292,-1.7060066662230433,-0.2671656608581543,2.3642609119415283,-1.8318082094192505,0.2532654106616974,2.3735673427581787,4.704393072719238,0.000597324047703296,0.3113616108894348,-1.596769158040182,0.0,-0.015370853245258331,0.7882115840911865,3.934248707886928e-20,0.03432414308190346,0.811107873916626,6.866362475191604e-44,0.0029607682954519987
