ramyac6/ROB537/final_project/csv/good/good_174.csv
tof_0,tof_1,accelx,accely,accelz,gyrox,gyroy,gyroz,shoulder_lift_joint_position,shoulder_lift_joint_velocity,shoulder_lift_joint_effort,elbow_joint_position,elbow_joint_velocity,elbow_joint_effort,wrist_1_joint_position,wrist_1_joint_velocity,wrist_1_joint_effort,wrist_2_joint_position,wrist_2_joint_velocity,wrist_2_joint_effort,wrist_3_joint_position,wrist_3_joint_velocity,wrist_3_joint_effort,shoulder_pan_joint_position,shoulder_pan_joint_velocity,shoulder_pan_joint_effort
654.0,456.0,0.7107,0.6712,9.4528,-0.0342,0.0165,-0.111,-1.6086837253966273,0.0,2.306640148162842,-1.7398356199264526,-0.0,2.1370766162872314,4.752372811525621,-0.0,0.28300172090530396,-1.6521061102496546,-0.0,-0.0020271020475775003,0.8185635805130005,-0.0,0.004328922368586063,0.7370204329490662,0.0,-0.026197433471679688
654.0,456.0,0.7107,0.6712,9.4528,-0.0342,0.0165,-0.111,-1.608603139916891,0.0,2.3291938304901123,-1.7398520708084106,-0.0,2.1277101039886475,4.7523728897567175,-0.0,0.2896058261394501,-1.6520984808551233,-0.0,-0.0045281569473445415,0.8185836672782898,-0.0,0.0007086436380632222,0.7370122075080872,0.0,-0.019366219639778137
654.0,456.0,0.7107,0.6712,9.4528,-0.0342,0.0165,-0.111,-1.6086718044676722,0.0,2.297168016433716,-1.7398031949996948,-0.0,2.1910064220428467,4.752340904414215,-0.0,0.29149672389030457,-1.6521185080157679,-0.0,0.0035964553244411945,0.818510890007019,-0.0,-0.005931079387664795,0.7370402812957764,0.0,-0.018545860424637794
654.0,456.0,0.7107,0.6712,9.4528,-0.0342,0.0165,-0.111,-1.608716150323385,0.0,2.32892107963562,-1.7398152351379395,-0.0,2.146700859069824,4.7523329620952985,-0.0,0.2933090031147003,-1.6521266142474573,-0.0,-0.0018880624556913972,0.8185071349143982,-0.0,0.0052492073737084866,0.7370163202285767,0.0,-0.024511761963367462
654.0,456.0,0.7107,0.6712,9.4528,-0.0342,0.0165,-0.111,-1.6086560688414515,0.0,2.3095195293426514,-1.7398152351379395,-0.0,2.202256679534912,4.752368736058035,-0.0,0.2937362790107727,-1.6521146933185022,-0.0,0.0023407882545143366,0.818539559841156,-0.0,0.009001849219202995,0.7370204329490662,0.0,0.062309034168720245
714.0,501.0,0.8548,0.7376,9.2261,-0.0374,0.0305,-0.1257,-1.608687540093893,0.0,2.344851493835449,-1.7398481369018555,-0.0,2.197094202041626,4.75235232987956,-0.0,0.30122441053390503,-1.6521146933185022,-0.0,-0.0072817085310816765,0.8185554146766663,-0.0,-0.00689324177801609,0.7369961142539978,0.0,-0.005370740778744221
714.0,501.0,0.8548,0.7376,9.2261,-0.0374,0.0305,-0.1257,-1.608671327630514,0.0,2.328453302383423,-1.7398759126663208,-0.0,2.099433422088623,4.752304452448644,-0.0,0.2911093533039093,-1.6520984808551233,-0.0,-0.007889867760241032,0.818479061126709,-0.0,0.0019418350420892239,0.736996054649353,0.0,0.03940768539905548
714.0,501.0,0.8548,0.7376,9.2261,-0.0374,0.0305,-0.1257,-1.6086880169310511,0.0,2.3005948066711426,-1.739791750907898,-0.0,2.158245801925659,4.752364671766319,-0.0,0.29308873414993286,-1.6521223227130335,-0.0,-0.005349601618945599,0.8185476660728455,-0.0,-0.004473299719393253,0.7370604872703552,0.0,0.028879735618829727
714.0,501.0,0.8548,0.7376,9.2261,-0.0374,0.0305,-0.1257,-1.608619829217428,0.0,2.3399319648742676,-1.739883303642273,-0.0,2.197275161743164,4.7523686839039705,-0.0,0.2868291139602661,-1.6520984808551233,-0.0,0.007233682554215193,0.8185754418373108,-0.0,0.009282839484512806,0.7370364665985107,0.0,0.0026568924076855183
714.0,501.0,0.8548,0.7376,9.2261,-0.0374,0.0305,-0.1257,-1.6086636982359828,0.0,2.288832426071167,-1.7398152351379395,-0.0,2.10903000831604,4.752324900567093,-0.0,0.2861681878566742,-1.6521223227130335,-0.0,-0.0017082988051697612,0.8185952305793762,-0.0,0.0028535230085253716,0.7370322942733765,0.0,-0.0175633542239666
714.0,501.0,0.8548,0.7376,9.2261,-0.0374,0.0305,-0.1257,-1.6086517773070277,0.0,2.347646713256836,-1.739823579788208,-0.0,2.179046869277954,4.752296674042501,-0.0,0.2854034900665283,-1.6520984808551233,-0.0,-0.0007152567850425839,0.818543553352356,-0.0,-0.00571619626134634,0.736996054649353,0.0,-0.004188390448689461
714.0,501.0,0.8548,0.7376,9.2261,-0.0374,0.0305,-0.1257,-1.6086398563780726,0.0,2.313136100769043,-1.7398152351379395,-0.0,2.1542842388153076,4.7522844327385805,-0.0,0.29503393173217773,-1.6521590391742151,-0.0,0.00047565274871885777,0.8185476064682007,-0.0,-0.004519048146903515,0.737036406993866,0.0,0.02195863425731659
714.0,501.0,0.8548,0.7376,9.2261,-0.0374,0.0305,-0.1257,-1.6086636982359828,0.0,2.314811944961548,-1.7397515773773193,-0.0,2.150033950805664,4.7523408373589895,-0.0,0.29868102073669434,-1.65208608308901,-0.0,-0.005496546626091003,0.818555474281311,-0.0,0.0006166025996208191,0.7370402812957764,0.0,0.001012602006085217
714.0,501.0,0.8548,0.7376,9.2261,-0.0374,0.0305,-0.1257,-1.6086560688414515,0.0,2.316854953765869,-1.7398394346237183,-0.0,2.1847891807556152,4.752372859954395,-0.0,0.29249322414398193,-1.652102295552389,-0.0,-0.011805236339569092,0.818535327911377,-0.0,-0.000292776501737535,0.7370603680610657,0.0,0.05960395559668541
714.0,501.0,0.8548,0.7376,9.2261,-0.0374,0.0305,-0.1257,-1.6086317501463832,0.0,2.3448548316955566,-1.7398481369018555,-0.0,2.1129074096679688,4.752328569978037,-0.0,0.2866174578666687,-1.6521347204791468,-0.0,-0.004548340104520321,0.8185349702835083,-0.0,-0.005034612491726875,0.7369920015335083,0.0,-0.017446134239435196
708.0,464.0,0.7741,0.6891,9.3422,-0.0415,0.0258,-0.1113,-1.6086799106993617,0.0,2.30135178565979,-1.7398440837860107,-0.0,2.1472718715667725,4.752304493426838,-0.0,0.29512083530426025,-1.6521261374102991,-0.0,-0.007439850363880396,0.8185791969299316,-0.0,-0.0040945447981357574,0.7370001673698425,0.0,0.046233855187892914
708.0,464.0,0.7741,0.6891,9.3422,-0.0415,0.0258,-0.1113,-1.6086636982359828,0.0,2.3362200260162354,-1.7398440837860107,-0.0,2.1438286304473877,4.75232861468152,-0.0,0.2954367399215698,-1.6521828810321253,-0.0,0.0028674814384430647,0.8185312151908875,-0.0,-0.002483043819665909,0.7369961142539978,0.0,0.013651593588292599
708.0,464.0,0.7741,0.6891,9.3422,-0.0415,0.0258,-0.1113,-1.6086679897704066,0.0,2.2848024368286133,-1.7398595809936523,-0.0,2.114229440689087,4.752352717309751,-0.0,0.30241766571998596,-1.652074162160055,-0.0,-0.0030035695526748896,0.818543553352356,-0.0,-0.001958324806764722,0.7370484471321106,0.0,-0.0339968167245388
708.0,464.0,0.7741,0.6891,9.3422,-0.0415,0.0258,-0.1113,-1.6086799106993617,0.0,2.3338634967803955,-1.739823579788208,-0.0,2.136859178543091,4.752324900567093,-0.0,0.2877575755119324,-1.6521227995501917,-0.0,-0.0034971507266163826,0.8185553550720215,-0.0,-0.00842246599495411,0.7370405793190002,0.0,-0.015533749014139175
708.0,464.0,0.7741,0.6891,9.3422,-0.0415,0.0258,-0.1113,-1.6086517773070277,0.0,2.316577434539795,-1.7398111820220947,-0.0,2.1083779335021973,4.752336739539661,-0.0,0.2937389612197876,-1.652130428944723,-0.0,-0.0019873410928994417,0.8185710906982422,-0.0,-0.0007320789736695588,0.7370443940162659,0.0,-0.004355947487056255
708.0,464.0,0.7741,0.6891,9.3422,-0.0415,0.0258,-0.1113,-1.6086560688414515,0.0,2.277674913406372,-1.7397679090499878,-0.0,2.155083656311035,4.7523207543189905,-0.0,0.2849436104297638,-1.6520941893206995,-0.0,0.006069336552172899,0.8185550570487976,-0.0,0.0013868905371055007,0.7370322942733765,0.0,-0.002277545165270567
708.0,464.0,0.7741,0.6891,9.3422,-0.0415,0.0258,-0.1113,-1.6086718044676722,0.0,2.31062912940979,-1.7398276329040527,-0.0,2.1595449447631836,4.752344950079479,-0.0,0.2933308780193329,-1.6521027723895472,-0.0,0.004377100151032209,0.8185513019561768,-0.0,-0.0029919124208390713,0.7370241284370422,0.0,0.004933690186589956
708.0,464.0,0.7741,0.6891,9.3422,-0.0415,0.0258,-0.1113,-1.6086560688414515,0.0,2.29887056350708,-1.739791750907898,-0.0,2.1472387313842773,4.752312625735559,-0.0,0.28738778829574585,-1.6520903746234339,-0.0,-0.009103578515350819,0.8185189962387085,-0.0,0.0037355453241616488,0.7370604276657104,0.0,0.0465669110417366
708.0,464.0,0.7741,0.6891,9.3422,-0.0415,0.0258,-0.1113,-1.608687540093893,0.0,2.3125181198120117,-1.7398481369018555,-0.0,2.125797748565674,4.752356871008434,-0.0,0.2759031653404236,-1.6521227995501917,-0.0,-0.012037837877869606,0.8186112642288208,-0.0,0.005514847580343485,0.7369961142539978,0.0,0.009126182645559311
669.0,466.0,0.6879,0.6754,9.4995,-0.0357,0.0104,-0.1179,-1.6086517773070277,0.0,2.3053336143493652,-1.7397958040237427,-0.0,2.2131025791168213,4.752352724760332,-0.0,0.2914879620075226,-1.6521227995501917,-0.0,0.0038097344804555178,0.8185230493545532,-0.0,-0.002846361370757222,0.7370607852935791,0.0,-0.017987601459026337
669.0,466.0,0.6879,0.6754,9.4995,-0.0357,0.0104,-0.1179,-1.6086398563780726,0.0,2.313518524169922,-1.7398316860198975,-0.0,2.147416114807129,4.752376924246111,-0.0,0.28309309482574463,-1.6521266142474573,-0.0,0.008667295798659325,0.8185755610466003,-0.0,-0.0026071376632899046,0.7370080947875977,0.0,-0.015892401337623596
669.0,466.0,0.6879,0.6754,9.4995,-0.0357,0.0104,-0.1179,-1.6086679897704066,0.0,2.3259270191192627,-1.7398395538330078,-0.0,2.214325428009033,4.752376924246111,-0.0,0.2801084518432617,-1.6520941893206995,-0.0,0.0018213270232081413,0.8185272216796875,-0.0,-0.0002670197281986475,0.7370081543922424,0.0,0.0306057408452034
669.0,466.0,0.6879,0.6754,9.4995,-0.0357,0.0104,-0.1179,-1.6086837253966273,0.0,2.3338990211486816,-1.7397639751434326,-0.0,2.1450178623199463,4.752352724760332,-0.0,0.28369852900505066,-1.6520703474627894,-0.0,0.002892540767788887,0.8185713887214661,-0.0,-0.0049011544324457645,0.7370322942733765,0.0,0.01838976889848709
669.0,466.0,0.6879,0.6754,9.4995,-0.0357,0.0104,-0.1179,-1.6086636982359828,0.0,2.3181960582733154,-1.7398316860198975,-0.0,2.1297426223754883,4.752324546664514,-0.0,0.2797490656375885,-1.652130428944723,-0.0,0.0033101921435445547,0.8185632228851318,-0.0,-0.002287627197802067,0.7370484471321106,0.0,0.03156069666147232
669.0,466.0,0.6879,0.6754,9.4995,-0.0357,0.0104,-0.1179,-1.6086560688414515,0.0,2.3021364212036133,-1.739851474761963,-0.0,2.2061734199523926,4.752284373133936,-0.0,0.2915233373641968,-1.6521061102496546,-0.0,0.012160507962107658,0.8185271620750427,-0.0,-0.003166321897879243,0.7370241284370422,0.0,0.014794111251831055
669.0,466.0,0.6879,0.6754,9.4995,-0.0357,0.0104,-0.1179,-1.6086636982359828,0.0,2.3699464797973633,-1.73980712890625,-0.0,2.1460988521575928,4.752316690027275,-0.0,0.27215754985809326,-1.6521347204791468,-0.0,-0.013532713055610657,0.8186033964157104,-0.0,-0.0160549134016037,0.7370122671127319,0.0,-0.04698210582137108
669.0,466.0,0.6879,0.6754,9.4995,-0.0357,0.0104,-0.1179,-1.6086555920042933,0.0,2.3180272579193115,-1.7398276329040527,-0.0,2.166445255279541,4.752356871008434,-0.0,0.29324576258659363,-1.6521385351764124,-0.0,-0.00013990874867886305,0.818547248840332,-0.0,-0.008256287313997746,0.7370443940162659,0.0,-0.005142693407833576
669.0,466.0,0.6879,0.6754,9.4995,-0.0357,0.0104,-0.1179,-1.6086474857726039,0.0,2.333301067352295,-1.7398442029953003,-0.0,2.169005870819092,4.7523003844316385,-0.0,0.2880510985851288,-1.6520665327655237,-0.0,-0.004352198913693428,0.8185595870018005,-0.0,0.008878483437001705,0.7370241284370422,0.0,-0.01708664558827877
669.0,466.0,0.6879,0.6754,9.4995,-0.0357,0.0104,-0.1179,-1.6086918316283167,0.0,2.311455488204956,-1.7398037910461426,-0.0,2.1516785621643066,4.752312625735559,-0.0,0.2837892472743988,-1.6521504561053675,-0.0,-0.010449331253767014,0.8185352683067322,-0.0,-0.0050892638973891735,0.7370323538780212,0.0,0.01626073569059372
673.0,485.0,0.7107,0.67,9.5043,-0.0338,0.0237,-0.1167,-1.6086155376830042,0.0,2.2675507068634033,-1.7398232221603394,-0.0,2.186490535736084,4.7523003844316385,-0.0,0.2885131239891052,-1.6520703474627894,-0.0,0.010775803588330746,0.8185672760009766,-0.0,-0.004589457996189594,0.7370282411575317,0.0,0.013991259038448334
673.0,485.0,0.7107,0.67,9.5043,-0.0338,0.0237,-0.1167,-1.6086880169310511,0.0,2.3282597064971924,-1.7398077249526978,-0.0,2.087117910385132,4.752336739539661,-0.0,0.2881309688091278,-1.6520941893206995,-0.0,0.006486404687166214,0.8184866905212402,-0.0,-0.0013736402615904808,0.7370001673698425,0.0,0.0024473550729453564
673.0,485.0,0.7107,0.67,9.5043,-0.0338,0.0237,-0.1167,-1.6086393795409144,0.0,2.361502170562744,-1.7398111820220947,-0.0,2.1501283645629883,4.752316690027275,-0.0,0.29057037830352783,-1.6520784536944788,-0.0,-0.00827596802264452,0.8185272216796875,-0.0,-0.004685208201408386,0.7370241284370422,0.0,-0.019855007529258728
673.0,485.0,0.7107,0.67,9.5043,-0.0338,0.0237,-0.1167,-1.6087118587889613,0.0,2.3332087993621826,-1.7398442029953003,-0.0,2.136164665222168,4.752352724760332,-0.0,0.2761503756046295,-1.6520984808551233,-0.0,-0.0011363689554855227,0.8185795545578003,-0.0,-0.00949173141270876,0.7370001673698425,0.0,-0.013419017195701599
673.0,485.0,0.7107,0.67,9.5043,-0.0338,0.0237,-0.1167,-1.6086355648436488,0.0,2.300248622894287,-1.739840030670166,-0.0,2.1380298137664795,4.752349018096485,-0.0,0.28453752398490906,-1.6521266142474573,-0.0,0.01035268884152174,0.8185795545578003,-0.0,-0.0019137633498758078,0.736984133720398,0.0,-0.013725213706493378
673.0,485.0,0.7107,0.67,9.5043,-0.0338,0.0237,-0.1167,-1.6086474857726039,0.0,2.3012938499450684,-1.739851474761963,-0.0,2.2002017498016357,4.752284399210968,-0.0,0.2982041835784912,-1.6521223227130335,-0.0,0.0015189718687906861,0.8185230493545532,-0.0,-0.004107949789613485,0.7370323538780212,0.0,-0.009713636711239815
673.0,485.0,0.7107,0.67,9.5043,-0.0338,0.0237,-0.1167,-1.6086837253966273,0.0,2.342801094055176,-1.7398077249526978,-0.0,2.1270551681518555,4.752316690027275,-0.0,0.28424733877182007,-1.6520784536944788,-0.0,-0.015612461604177952,0.818547248840332,-0.0,0.00690034031867981,0.7370241284370422,0.0,-0.02722245268523693
673.0,485.0,0.7107,0.67,9.5043,-0.0338,0.0237,-0.1167,-1.6086636982359828,0.0,2.3107564449310303,-1.7397518157958984,-0.0,2.148118495941162,4.752340904414215,-0.0,0.2805721163749695,-1.6520584265338343,-0.0,-0.01525503396987915,0.8185955882072449,-0.0,0.006389194633811712,0.7370001077651978,0.0,-0.00511372834444046
673.0,485.0,0.7107,0.67,9.5043,-0.0338,0.0237,-0.1167,-1.6086880169310511,0.0,2.307234048843384,-1.7398360967636108,-0.0,2.1004512310028076,4.752340535610475,-0.0,0.2888283133506775,-1.6521104017840784,-0.0,-0.003850847017019987,0.8185713887214661,-0.0,-0.0028569987043738365,0.7370163202285767,0.0,0.04753255099058151
634.0,482.0,0.6096,0.6263,9.682,-0.042,0.025,-0.1173,-1.6086474857726039,0.0,2.3581323623657227,-1.7398152351379395,-0.0,2.161879062652588,4.752308557718553,-0.0,0.2822795808315277,-1.6520984808551233,-0.0,0.005162940360605717,0.8185791969299316,-0.0,-0.0019600752275437117,0.737044632434845,0.0,-0.02821609005331993
634.0,482.0,0.6096,0.6263,9.682,-0.042,0.025,-0.1173,-1.6086236439146937,0.0,2.315538167953491,-1.7398031949996948,-0.0,2.1435546875,4.752344596176901,-0.0,0.28516677021980286,-1.6520941893206995,-0.0,0.007872131653130054,0.8185189962387085,-0.0,0.003947547171264887,0.7370322942733765,0.0,-0.00590662844479084
634.0,482.0,0.6096,0.6263,9.682,-0.042,0.025,-0.1173,-1.6086355648436488,0.0,2.3644721508026123,-1.7398359775543213,-0.0,2.137629270553589,4.752332675247946,-0.0,0.28524312376976013,-1.6521223227130335,-0.0,-0.010524621233344078,0.81856769323349,-0.0,0.006714412942528725,0.7370001673698425,0.0,-0.014081974513828754
634.0,482.0,0.6096,0.6263,9.682,-0.042,0.025,-0.1173,-1.6087037525572718,0.0,2.3364510536193848,-1.739780306816101,-0.0,2.1904492378234863,4.752348660468616,-7.57375065441046e-11,0.29708564281463623,-1.6520703474627894,-0.0,-0.009946731850504875,0.8185833096504211,-0.0,0.00030476070242002606,0.7370204329490662,0.0,-0.013260726816952229
634.0,482.0,0.6096,0.6263,9.682,-0.042,0.025,-0.1173,-1.6086999378600062,0.0,2.358182668685913,-1.7397797107696533,-0.0,2.09993839263916,4.752340885787763,-8.987506614312798e-17,0.2877841591835022,-1.6521266142474573,-0.0,-0.0002310342388227582,0.8185635805130005,-0.0,0.0029524811543524265,0.7370081543922424,0.0,0.013135449029505253
634.0,482.0,0.6096,0.6263,9.682,-0.042,0.025,-0.1173,-1.6086918316283167,0.0,2.3132872581481934,-1.7398192882537842,-0.0,2.157637596130371,4.7523044412727735,-1.066516088705034e-22,0.29185736179351807,-1.6521146933185022,-0.0,0.0014386283000931144,0.8185872435569763,-0.0,0.004387484863400459,0.7370122671127319,0.0,-0.023189811035990715
634.0,482.0,0.6096,0.6263,9.682,-0.042,0.025,-0.1173,-1.6086317501463832,0.0,2.3200154304504395,-1.7397916316986084,-0.0,2.1420607566833496,4.752324900567093,-1.938340059169884e-27,0.29669851064682007,-1.6521385351764124,-0.0,-0.006767777726054192,0.8185553550720215,-0.0,0.006338495295494795,0.7370163202285767,0.0,-0.0011707926169037819
634.0,482.0,0.6096,0.6263,9.682,-0.042,0.025,-0.1173,-1.6086718044676722,0.0,2.334228515625,-1.7398481369018555,-0.0,2.1612935066223145,4.7523207543189905,-2.300161244269981e-33,0.2908925712108612,-1.6521385351764124,-0.0,-0.008041758090257645,0.8185595273971558,-0.0,-0.0033077760599553585,0.7370286583900452,0.0,0.026592599228024483
634.0,482.0,0.6096,0.6263,9.682,-0.042,0.025,-0.1173,-1.6086880169310511,0.0,2.326552152633667,-1.7398117780685425,-0.0,2.16620135307312,4.752368713706293,-2.7295220163320236e-39,0.2910136580467224,-1.6521671454059046,-0.0,-0.0017960395198315382,0.8185108304023743,-0.0,0.001551283523440361,0.7369883060455322,0.0,-0.007385742850601673
634.0,482.0,0.6096,0.6263,9.682,-0.042,0.025,-0.1173,-1.6086436710753382,0.0,2.336033344268799,-1.7398521900177002,-0.0,2.1599202156066895,4.752308557718553,-4.90454462513686e-44,0.28574565052986145,-1.652074162160055,-0.0,0.0071028731763362885,0.8185832500457764,-0.0,-0.0003782121930271387,0.7370443940162659,0.0,0.003785214386880398
716.0,459.0,0.5354,0.6329,9.6365,-0.0353,0.0261,-0.1155,-1.6086393795409144,0.0,2.314621925354004,-1.7398521900177002,-0.0,2.189753770828247,4.752316690027275,-0.0,0.27933061122894287,-1.6521061102496546,-0.0,-0.007371957879513502,0.8185393810272217,-0.0,0.006326218601316214,0.7370282411575317,0.0,-0.022241629660129547
716.0,459.0,0.5354,0.6329,9.6365,-0.0353,0.0261,-0.1155,-1.6086474857726039,0.0,2.3327832221984863,-1.739903450012207,-0.0,2.184019088745117,4.752336739539661,-0.0,0.2954249382019043,-1.6521504561053675,-0.0,-0.0013103301171213388,0.8185517191886902,-0.0,-0.01518973521888256,0.7370163202285767,0.0,0.011547863483428955
716.0,459.0,0.5354,0.6329,9.6365,-0.0353,0.0261,-0.1155,-1.6086317501463832,0.0,2.333831787109375,-1.73980712890625,-0.0,2.173471212387085,4.752368713706293,-0.0,0.2942074239253998,-1.6521347204791468,-0.0,0.009562419727444649,0.8185554146766663,-0.0,0.009125160053372383,0.7370402812957764,0.0,0.03835185617208481
716.0,459.0,0.5354,0.6329,9.6365,-0.0353,0.0261,-0.1155,-1.6086799106993617,0.0,2.342078447341919,-1.739871859550476,-0.0,2.211134195327759,4.752388807922163,-0.0,0.29251229763031006,-1.6521146933185022,-0.0,-0.007094576954841614,0.8185112476348877,-0.0,-0.00857020728290081,0.7369961142539978,0.0,-0.029463112354278564
716.0,459.0,0.5354,0.6329,9.6365,-0.0353,0.0261,-0.1155,-1.6086679897704066,0.0,2.304795265197754,-1.739823579788208,-0.0,2.1451833248138428,4.752336739539661,-0.0,0.28155460953712463,-1.6521466414081019,-0.0,0.0047666337341070175,0.8185553550720215,-0.0,0.0020513886120170355,0.7369882464408875,0.0,0.017963115125894547
716.0,459.0,0.5354,0.6329,9.6365,-0.0353,0.0261,-0.1155,-1.6086355648436488,0.0,2.32436466217041,-1.739823579788208,-0.0,2.1922225952148438,4.752332675247946,-0.0,0.28029853105545044,-1.6520941893206995,-0.0,-0.0002843267284333706,0.8185595273971558,-0.0,0.005228579510003328,0.7370322942733765,0.0,0.007703377865254879
716.0,459.0,0.5354,0.6329,9.6365,-0.0353,0.0261,-0.1155,-1.608671327630514,0.0,2.284698486328125,-1.739843726158142,-0.0,2.1177735328674316,4.752316690027275,-0.0,0.289548397064209,-1.6520784536944788,-0.0,0.0010279896669089794,0.8185915350914001,-0.0,-0.001023166929371655,0.7369396090507507,0.0,-0.00942245963960886
716.0,459.0,0.5354,0.6329,9.6365,-0.0353,0.0261,-0.1155,-1.6086756191649378,0.0,2.2906618118286133,-1.7398481369018555,-0.0,2.1265861988067627,4.75232861095623,-0.0,0.287394255399704,-1.6520941893206995,-0.0,-0.0024763955734670162,0.8184869885444641,-0.0,0.00865309126675129,0.7369919419288635,0.0,-0.03204263374209404
716.0,459.0,0.5354,0.6329,9.6365,-0.0353,0.0261,-0.1155,-1.6086355648436488,0.0,2.300818681716919,-1.7398356199264526,-0.0,2.1794745922088623,4.752324900567093,-0.0,0.2887630760669708,-1.6521223227130335,-0.0,0.0004623952554538846,0.8185636401176453,-0.0,0.006951304618269205,0.7370081543922424,0.0,0.004555643070489168
689.0,470.0,0.6311,0.6915,9.5958,-0.031,0.0223,-0.1167,-1.6086517773070277,0.0,2.275435209274292,-1.7398276329040527,-0.0,2.1511330604553223,4.7523207543189905,-0.0,0.2900046110153198,-1.652142349873678,-0.0,0.007018396630883217,0.8185631632804871,-0.0,-0.00188084552064538,0.7370204329490662,0.0,0.02283688262104988
689.0,470.0,0.6311,0.6915,9.5958,-0.031,0.0223,-0.1167,-1.6086436710753382,0.0,2.3209383487701416,-1.7397958040237427,-0.0,2.202157735824585,4.752344596176901,-0.0,0.30510416626930237,-1.6521146933185022,-0.0,-0.00429574865847826,0.8186033368110657,-0.0,-0.006070243194699287,0.7370644807815552,0.0,0.014224717393517494
689.0,470.0,0.6311,0.6915,9.5958,-0.031,0.0223,-0.1167,-1.6086436710753382,0.0,2.32120680809021,-1.739840030670166,-0.0,2.1620278358459473,4.752324900567093,-0.0,0.2894991636276245,-1.6521385351764124,-0.0,0.00885375589132309,0.8185108304023743,-0.0,-0.0041187843307852745,0.7370443940162659,0.0,-0.002739347517490387
689.0,470.0,0.6311,0.6915,9.5958,-0.031,0.0223,-0.1167,-1.6086999378600062,0.0,2.3467440605163574,-1.7397916316986084,-0.0,2.189049005508423,4.752348660468616,-0.0,0.2871621251106262,-1.6520903746234339,-0.0,0.0029646719340234995,0.818514883518219,-0.0,0.009976653382182121,0.7370443940162659,0.0,-0.014157800935208797
689.0,470.0,0.6311,0.6915,9.5958,-0.031,0.0223,-0.1167,-1.6086517773070277,0.0,2.3481686115264893,-1.7398316860198975,-0.0,2.1524083614349365,4.752344596176901,-0.0,0.2973106801509857,-1.6520865599261683,-0.0,-0.006198500283062458,0.8185153603553772,-0.0,0.004836191888898611,0.737015962600708,0.0,-0.019894151017069817
689.0,470.0,0.6311,0.6915,9.5958,-0.031,0.0223,-0.1167,-1.6086393795409144,0.0,2.3143296241760254,-1.739863634109497,-0.0,2.1792221069335938,4.7523207543189905,-0.0,0.3034747242927551,-1.6521185080157679,-0.0,-0.00703131640329957,0.8185476064682007,-0.0,-0.0016412724507972598,0.737036406993866,0.0,0.0190054252743721
689.0,470.0,0.6311,0.6915,9.5958,-0.031,0.0223,-0.1167,-1.6086560688414515,0.0,2.3169918060302734,-1.7397762537002563,-0.0,2.1391773223876953,4.752340885787763,-0.0,0.2948935627937317,-1.6521104017840784,-0.0,0.0042182281613349915,0.8185230493545532,-0.0,0.005840837024152279,0.7370323538780212,0.0,-0.02257673814892769
689.0,470.0,0.6311,0.6915,9.5958,-0.031,0.0223,-0.1167,-1.6086918316283167,0.0,2.349473476409912,-1.7398152351379395,-0.0,2.1361284255981445,4.752356517105856,-0.0,0.2867951989173889,-1.6521061102496546,-0.0,-0.001976371742784977,0.8184747695922852,-0.0,-0.008083304390311241,0.7370485067367554,0.0,0.010859038680791855
689.0,470.0,0.6311,0.6915,9.5958,-0.031,0.0223,-0.1167,-1.6086474857726039,0.0,2.3454747200012207,-1.7398276329040527,-0.0,2.164837598800659,4.752364645689287,-0.0,0.2925518751144409,-1.6521104017840784,-0.0,0.0020728069357573986,0.818523108959198,-0.0,-0.0012122713960707188,0.7370282411575317,0.0,0.009767197072505951
689.0,470.0,0.6311,0.6915,9.5958,-0.031,0.0223,-0.1167,-1.608676096002096,0.0,2.2947566509246826,-1.7398481369018555,-0.0,2.1481199264526367,4.752296320139923,-0.0,0.28036952018737793,-1.6521223227130335,-0.0,-0.0012047701748088002,0.8185153007507324,-0.0,-0.003749331459403038,0.7370444536209106,0.0,0.01359127089381218
678.0,486.0,0.5779,0.6443,9.6215,-0.037,0.024,-0.1148,-1.6086555920042933,0.0,2.306365728378296,-1.7398276329040527,-0.0,2.170365571975708,4.752332675247946,-0.0,0.2848135828971863,-1.652142349873678,-0.0,0.003736915299668908,0.8185997605323792,-0.0,-0.007825330831110477,0.7370727062225342,0.0,0.005077295936644077
678.0,486.0,0.5779,0.6443,9.6215,-0.037,0.024,-0.1148,-1.6086517773070277,0.0,2.3014261722564697,-1.7398195266723633,-0.0,2.1154510974884033,4.752368713706293,-0.0,0.28440213203430176,-1.6520941893206995,-0.0,-0.014113364741206169,0.8185393810272217,-0.0,-8.88030044734478e-05,0.7370323538780212,0.0,0.07361943274736404
678.0,486.0,0.5779,0.6443,9.6215,-0.037,0.024,-0.1148,-1.6086355648436488,0.0,2.3013575077056885,-1.73980712890625,-0.0,2.132711887359619,4.752308594971456,-0.0,0.30124032497406006,-1.6521146933185022,-0.0,-0.0013044802471995354,0.8185955882072449,-0.0,-0.0032204280141741037,0.7370405197143555,0.0,0.011764757335186005
678.0,486.0,0.5779,0.6443,9.6215,-0.037,0.024,-0.1148,-1.6086756191649378,0.0,2.299381732940674,-1.7398117780685425,-0.0,2.170196056365967,4.752336739539661,-0.0,0.2847942113876343,-1.652130428944723,-0.0,-0.022561436519026756,0.8185153603553772,-0.0,-0.0038933902978897095,0.737036406993866,0.0,-0.0006275277119129896
678.0,486.0,0.5779,0.6443,9.6215,-0.037,0.024,-0.1148,-1.6086636982359828,0.0,2.3103270530700684,-1.7398320436477661,-0.0,2.1416637897491455,4.752364645689287,-0.0,0.2860112190246582,-1.6521146933185022,-0.0,0.0002366935950703919,0.8185272216796875,-0.0,-0.015102410688996315,0.7370241284370422,0.0,0.0367579460144043
678.0,486.0,0.5779,0.6443,9.6215,-0.037,0.024,-0.1148,-1.6086880169310511,0.0,2.3214473724365234,-1.739823579788208,-0.0,2.1863412857055664,4.752340885787763,-0.0,0.2938309609889984,-1.6521547476397913,-0.0,0.004454758483916521,0.8185553550720215,-0.0,-0.0013018264435231686,0.7370080947875977,0.0,-0.027865303680300713
678.0,486.0,0.5779,0.6443,9.6215,-0.037,0.024,-0.1148,-1.6086474857726039,0.0,2.352823495864868,-1.7397958040237427,-0.0,2.121309757232666,4.752296320139923,-0.0,0.2964911460876465,-1.6520746389972132,-0.0,-0.0011629005894064903,0.818523108959198,-0.0,0.00821574218571186,0.7370241284370422,0.0,0.00991934072226286
678.0,486.0,0.5779,0.6443,9.6215,-0.037,0.024,-0.1148,-1.6086718044676722,0.0,2.292691230773926,-1.7398555278778076,-0.0,2.196012020111084,4.752320400416412,-0.0,0.289598673582077,-1.6521027723895472,-0.0,-0.007885608822107315,0.8184911012649536,-0.0,0.004376305732876062,0.7370282411575317,0.0,-0.023429948836565018
678.0,486.0,0.5779,0.6443,9.6215,-0.037,0.024,-0.1148,-1.6086718044676722,0.0,2.3043127059936523,-1.7398037910461426,-0.0,2.131906509399414,4.752352724760332,-0.0,0.2861166000366211,-1.6520984808551233,-0.0,-0.00812901183962822,0.8185755610466003,-0.0,0.008557967841625214,0.7370446920394897,0.0,-0.007359251379966736
673.0,500.0,0.5587,0.6443,9.6359,-0.0376,0.027,-0.12,-1.6086317501463832,0.0,2.3094329833984375,-1.7398115396499634,-0.0,2.1415634155273438,4.752308557718553,-0.0,0.29228460788726807,-1.6521504561053675,-0.0,-0.00781470350921154,0.8185513019561768,-0.0,-0.012655487284064293,0.7370282411575317,0.0,-0.00023481459356844425
673.0,500.0,0.5587,0.6443,9.6359,-0.0376,0.027,-0.12,-1.6086718044676722,0.0,2.298680543899536,-1.7397679090499878,-0.0,2.2204031944274902,4.752320400416412,-0.0,0.2908746004104614,-1.65208608308901,-0.0,-0.0021546706557273865,0.8185710906982422,-0.0,-0.00042311628931201994,0.7369800806045532,0.0,-0.045320846140384674
673.0,500.0,0.5587,0.6443,9.6359,-0.0376,0.027,-0.12,-1.6086636982359828,0.0,2.315986156463623,-1.73980712890625,-0.0,2.1509509086608887,4.752336739539661,-0.0,0.30102458596229553,-1.6521146933185022,-0.0,0.004293532110750675,0.8185067772865295,-0.0,-0.007214914076030254,0.7370122671127319,0.0,0.002002384513616562
673.0,500.0,0.5587,0.6443,9.6359,-0.0376,0.027,-0.12,-1.6086317501463832,0.0,2.3471035957336426,-1.739840030670166,-0.0,2.13466215133667,4.752340531885185,-0.0,0.28862515091896057,-1.652114216481344,-0.0,-0.01468656025826931,0.8185713887214661,-0.0,-0.010177122429013252,0.7370282411575317,0.0,0.009350186213850975
673.0,500.0,0.5587,0.6443,9.6359,-0.0376,0.027,-0.12,-1.608619829217428,0.0,2.3047916889190674,-1.7397719621658325,-0.0,2.1653952598571777,4.7523207543189905,-0.0,0.28561824560165405,-1.6520665327655237,-0.0,-0.008205781690776348,0.818535327911377,-0.0,0.004654012620449066,0.7370080947875977,0.0,0.016962163150310516
673.0,500.0,0.5587,0.6443,9.6359,-0.0376,0.027,-0.12,-1.6086517773070277,0.0,2.3121631145477295,-1.7398037910461426,-0.0,2.106266498565674,4.752348660468616,-0.0,0.2912476658821106,-1.6521027723895472,-0.0,0.0009953740518540144,0.8185553550720215,-0.0,0.0027735845651477575,0.7370080947875977,0.0,0.02870432659983635
673.0,500.0,0.5587,0.6443,9.6359,-0.0376,0.027,-0.12,-1.6086636982359828,0.0,2.2789547443389893,-1.739780306816101,-0.0,2.158869743347168,4.752380951284923,-0.0,0.2981777787208557,-1.6520903746234339,-0.0,-0.010443453676998615,0.818547248840332,-0.0,-0.0011934414505958557,0.7370364665985107,0.0,-0.00126116001047194
673.0,500.0,0.5587,0.6443,9.6359,-0.0376,0.027,-0.12,-1.6086560688414515,0.0,2.293347120285034,-1.7398314476013184,-0.0,2.162846088409424,4.752336739539661,-0.0,0.2941652238368988,-1.6521590391742151,-0.0,-0.010062763467431068,0.8184830546379089,-0.0,0.00806613452732563,0.7370282411575317,0.0,-0.016477394849061966
673.0,500.0,0.5587,0.6443,9.6359,-0.0376,0.027,-0.12,-1.6086837253966273,0.0,2.325758695602417,-1.7398396730422974,-0.0,2.117891550064087,4.752356517105856,-0.0,0.28961724042892456,-1.6521223227130335,-0.0,0.012055685743689537,0.8185513019561768,-0.0,0.0018375555519014597,0.7370566725730896,0.0,0.027192402631044388
673.0,500.0,0.5587,0.6443,9.6359,-0.0376,0.027,-0.12,-1.6086799106993617,0.0,2.349090576171875,-1.7397596836090088,-0.0,2.16494083404541,4.752280331193962,-0.0,0.285767138004303,-1.6521223227130335,-0.0,0.004403376020491123,0.8185431361198425,-0.0,0.005002157762646675,0.737056314945221,0.0,-0.03010949306190014
654.0,483.0,0.7053,0.4875,9.5264,-0.0493,0.0188,-0.1133,-1.6086636982359828,0.0,2.3205246925354004,-1.7399160861968994,-0.0,2.1623306274414062,4.752356856107273,-0.0,0.2905426025390625,-1.6521223227130335,-0.0,-0.004968022927641869,0.8185513019561768,-0.0,0.009666268713772297,0.7370443940162659,0.0,-0.01071261428296566
654.0,483.0,0.7053,0.4875,9.5264,-0.0493,0.0188,-0.1133,-1.6086398563780726,0.0,2.303685426712036,-1.7397916316986084,-0.0,2.1412549018859863,4.752360581397571,-0.0,0.2814580500125885,-1.652142349873678,-0.0,0.0022660684771835804,0.8185230493545532,-0.0,-0.0013106827391311526,0.7370724678039551,0.0,0.03339725732803345
654.0,483.0,0.7053,0.4875,9.5264,-0.0493,0.0188,-0.1133,-1.6086236439146937,-3.3697556463957445e-13,2.33048152923584,-1.7397884130477905,-0.0,2.184144973754883,4.752332321345367,-0.0,0.28558236360549927,-1.6521342436419886,-0.0,0.00030797504587098956,0.8185513019561768,-0.0,-0.001980437198653817,0.7370601296424866,0.0,-0.012613985687494278
654.0,483.0,0.7053,0.4875,9.5264,-0.0493,0.0188,-0.1133,-1.6086398563780726,0.0005170085350982845,2.286349296569824,-1.7398117780685425,9.182221649695066e-11,2.1548638343811035,4.752356517105856,-0.0,0.2892739772796631,-1.6521466414081019,-0.0,-0.006194296758621931,0.8185632228851318,-0.0,0.014257283881306648,0.7370683550834656,0.00044768609222956,0.05544000864028931
654.0,483.0,0.7053,0.4875,9.5264,-0.0493,0.0188,-0.1133,-1.6086236439146937,0.000501026981510222,2.2911925315856934,-1.739771842956543,0.001017887145280838,2.1371419429779053,4.752372822701492,-0.0,0.2850252687931061,-1.6521146933185022,-0.0,0.003912375774234533,0.8184949159622192,-0.0,0.006261779926717281,0.7370238304138184,0.00039229734102264047,-0.006317958235740662
654.0,483.0,0.7053,0.4875,9.5264,-0.0493,0.0188,-0.1133,-1.608636041680807,0.00040967160020954907,2.3436381816864014,-1.7397840023040771,0.0006079732556827366,2.161241292953491,4.752348679095068,-0.0,0.29137393832206726,-1.6521299521075647,-0.0,-0.014546368271112442,0.8186116218566895,-0.0,0.002195331733673811,0.7371089458465576,0.00016152671014424413,0.04416663199663162
654.0,483.0,0.7053,0.4875,9.5264,-0.0493,0.0188,-0.1133,-1.6086441479124964,0.00013807382492814213,2.3256325721740723,-1.7398521900177002,0.0002902169362641871,2.1945149898529053,4.752316693752565,-0.0,0.30166903138160706,-1.6521027723895472,-0.0,-0.0004007909446954727,0.8185672760009766,-0.0,0.0010907326359301805,0.7370083928108215,1.6060491825342638e-10,0.026339061558246613
654.0,483.0,0.7053,0.4875,9.5264,-0.0493,0.0188,-0.1133,-1.6086317501463832,7.990782791011952e-08,2.3367996215820312,-1.7397804260253906,-0.0001421953202225268,2.137552261352539,4.752288463502683,-0.0,0.2882657051086426,-1.6521385351764124,-0.0,-0.006357506383210421,0.8185558319091797,-0.0,-0.005894724279642105,0.7370484471321106,5.203395359696459e-18,-0.012483468279242516
654.0,483.0,0.7053,0.4875,9.5264,-0.0493,0.0188,-0.1133,-1.6086474857726039,3.47335554578405e-17,2.3247714042663574,-1.7398030757904053,-0.00015119863383006305,2.169757843017578,4.7523003844316385,-0.0,0.292839914560318,-1.6521547476397913,-0.0,-0.0031380061991512775,0.8185312151908875,-0.0,-0.020582713186740875,0.7369841933250427,2.261761282137838e-27,-0.029711274430155754
670.0,482.0,0.6263,0.8913,9.1633,-0.0202,0.0229,-0.1151,-1.6086236439146937,1.509764370870749e-26,2.3399384021759033,-1.7398276329040527,-0.00011940197146032006,2.128988742828369,4.752296674042501,-0.0,0.29178106784820557,-1.652090851460592,-0.0,-0.003287996631115675,0.818490743637085,-0.0,-0.013935152441263199,0.7370241284370422,9.83120510315708e-37,-0.005260909907519817
670.0,482.0,0.6263,0.8913,9.1633,-0.0202,0.0229,-0.1151,-1.6086636982359828,4.891445052122625e-34,2.3458852767944336,-1.7398356199264526,-0.00013527275586966425,2.1721432209014893,4.752224168717422,-0.0005469042807817459,0.2928636372089386,-1.6520584265338343,-0.0,-0.0020217951387166977,0.8185230493545532,-0.0,-0.006661133375018835,0.7370603680610657,3.2229864679470793e-44,0.030257564038038254
670.0,482.0,0.6263,0.8913,9.1633,-0.0202,0.0229,-0.1151,-1.608659406701559,2.129973665773722e-43,2.3357419967651367,-1.7397958040237427,-0.0001138768857344985,2.175851821899414,4.752308941423454,-0.00038741264143027365,0.27999258041381836,-1.6521227995501917,-0.0,-0.0032768649980425835,0.8185836672782898,-0.0,0.010161830112338066,0.7370405197143555,0.0,-0.006954952143132687
670.0,482.0,0.6263,0.8913,9.1633,-0.0202,0.0229,-0.1151,-1.6087037525572718,-0.00023068652080837637,2.328117609024048,-1.7398192882537842,-9.83252830337733e-05,2.1338624954223633,4.752256526588955,-0.00036764770629815757,0.2791193425655365,-1.652038876210348,-0.0,0.0031857076101005077,0.818535327911377,-0.0,-0.0002779497008305043,0.7370323538780212,0.0,-0.016334086656570435
670.0,482.0,0.6263,0.8913,9.1633,-0.0202,0.0229,-0.1151,-1.608687540093893,-0.0005362022202461958,2.2789437770843506,-1.7398195266723633,-6.198132905410603e-05,2.1941754817962646,4.752292963653364,-0.00029330726829357445,0.29977700114250183,-1.6520264784442347,-0.0,-0.0034607835114002228,0.8186153173446655,-0.0,-0.004791934508830309,0.736987829208374,0.0,0.033955805003643036
670.0,482.0,0.6263,0.8913,9.1633,-0.0202,0.0229,-0.1151,-1.608687540093893,-0.000981257646344602,2.2767691612243652,-1.7398111820220947,-5.207329377299175e-05,2.1632423400878906,4.752224556147613,-0.00029828003607690334,0.2848537564277649,-1.6520307699786585,-0.0,0.014604172669351101,0.8185911178588867,-0.0,0.00029791146516799927,0.7370163202285767,0.0,-0.013369189575314522
670.0,482.0,0.6263,0.8913,9.1633,-0.0202,0.0229,-0.1151,-1.608743806878561,-0.0016753309173509479,2.256354808807373,-1.7398152351379395,-6.823915464337915e-05,2.1968491077423096,4.752212709724464,-0.0013824236812070012,0.26059776544570923,-1.6519783178912562,0.0003632563166320324,0.016904469579458237,0.8185832500457764,-0.0,0.0027445589657872915,0.7370645403862,-0.00013202540867496282,-0.10937659442424774
670.0,482.0,0.6263,0.8913,9.1633,-0.0202,0.0229,-0.1151,-1.6087762318053187,-0.004033972974866629,2.2291226387023926,-1.739851474761963,-6.197391485329717e-05,2.1291871070861816,4.752261037915506,-0.0014252520631998777,0.2738308906555176,-1.6519907156573694,0.0006698392098769546,0.02935820259153843,0.8185353875160217,-0.0,0.0077788131311535835,0.7370163202285767,-0.0006945873028598726,-0.14478598535060883
670.0,482.0,0.6263,0.8913,9.1633,-0.0202,0.0229,-0.1151,-1.6088153324522914,-0.006814483553171158,2.1253747940063477,-1.7398192882537842,-5.55936130695045e-05,2.140594482421875,4.7521486459072015,-0.002449028892442584,0.26382970809936523,-1.6519745031939905,0.0007186186267063022,0.03478963300585747,0.8185833096504211,-0.0,0.007430398836731911,0.7369883060455322,-0.0007200524560175836,-0.14155636727809906
670.0,482.0,0.6263,0.8913,9.1633,-0.0202,0.0229,-0.1151,-1.6088835201659144,-0.00704018771648407,2.168372869491577,-1.7398719787597656,-5.0404458306729794e-05,2.1620724201202393,4.752060241043129,-0.008783341385424137,0.24483348429203033,-1.6519587675677698,0.0006140938494354486,0.04878069460391998,0.8185431361198425,-0.0,-0.003833902534097433,0.737004280090332,-0.0007729656645096838,-0.18103820085525513
691.0,471.0,0.4181,0.2596,9.463,-0.06,0.0286,-0.1119,-1.6089679203429164,-0.00805677194148302,2.0478572845458984,-1.7398273944854736,-4.690216155722737e-05,2.117680072784424,4.752049314766683,-0.011927921324968338,0.2311195731163025,-1.6519587675677698,0.0006159842014312744,0.0676172524690628,0.8185713887214661,-0.0,0.0008939348626881838,0.7370122671127319,-0.0008833655738271773,-0.21469420194625854
691.0,471.0,0.4181,0.2596,9.463,-0.06,0.0286,-0.1119,-1.6090833149352015,-0.01019336562603712,2.0361194610595703,-1.7397843599319458,-4.315406840760261e-05,2.1346323490142822,4.751917007356443,-0.006842688657343388,0.22382701933383942,-1.6519392172442835,0.0006262320675887167,0.05789269506931305,0.8185669779777527,-0.0,0.00492855254560709,0.7370526194572449,-0.0011935256188735366,-0.24914786219596863
691.0,471.0,0.4181,0.2596,9.463,-0.06,0.0286,-0.1119,-1.609203954736227,-0.010677602142095566,1.9965074062347412,-1.7397956848144531,-3.9960636058822274e-05,2.1072845458984375,4.751949059754171,-0.0007760384469293058,0.21976742148399353,-1.6519268194781702,0.0007037253235466778,0.06318926811218262,0.8185230493545532,-0.0,-0.003951490391045809,0.7370204329490662,-0.003027815604582429,-0.28093817830085754
691.0,471.0,0.4181,0.2596,9.463,-0.06,0.0286,-0.1119,-1.60929598430776,-0.01015220582485199,1.931295394897461,-1.7398481369018555,2.1081015802337788e-05,2.1541731357574463,4.751957080304184,-0.000148081686347723,0.19616001844406128,-1.6519430319415491,0.0008474452770315111,0.09451810270547867,0.8185390830039978,-0.0,0.003553581889718771,0.7369603514671326,-0.006445662118494511,-0.2865799069404602
691.0,471.0,0.4181,0.2596,9.463,-0.06,0.0286,-0.1119,-1.609387537042135,-0.011282532475888729,1.8824433088302612,-1.7397916316986084,1.8871929569286294e-05,2.124603748321533,4.751921131252804,-0.00027607782976701856,0.1881389319896698,-1.6519272963153284,0.0013227041345089674,0.08321214467287064,0.8185989856719971,-0.0,-0.0008961576968431473,0.736904501914978,-0.006070573814213276,-0.25993070006370544
691.0,471.0,0.4181,0.2596,9.463,-0.06,0.0286,-0.1119,-1.6094476185240687,-0.011215977370738983,1.8552005290985107,-1.7398004531860352,1.7081121768569574e-05,2.10326886177063,4.751933476864853,-0.0014438153011724353,0.19743531942367554,-1.6518872419940394,0.005144886672496796,0.10783126950263977,0.8185513019561768,-0.0,-0.01502765342593193,0.7368280291557312,-0.0051574306562542915,-0.35284423828125
691.0,471.0,0.4181,0.2596,9.463,-0.06,0.0286,-0.1119,-1.6095148525633753,-0.011055336333811283,1.818385362625122,-1.739750862121582,1.587588485563174e-05,2.135606527328491,4.751925571798839,-0.0013046639505773783,0.1671261489391327,-1.6517913977252405,0.01213432103395462,0.12017263472080231,0.8186153173446655,-0.0,-0.0015028028283268213,0.7368082404136658,-0.004786694422364235,-0.33599066734313965
691.0,471.0,0.4181,0.2596,9.463,-0.06,0.0286,-0.1119,-1.6096669636168421,-0.011982887051999569,1.8346747159957886,-1.7397964000701904,2.8596103220479563e-05,2.1335055828094482,4.751889250218429,-0.0008057062514126301,0.17146149277687073,-1.6517470518695276,0.0015200200723484159,0.1224612295627594,0.8184825778007507,-0.0,0.0006451498484238982,0.7367159128189087,-0.005774694494903088,-0.3953511118888855
691.0,471.0,0.4181,0.2596,9.463,-0.06,0.0286,-0.1119,-1.6097666225829066,-0.014248805120587349,1.8290114402770996,-1.7397966384887695,3.587576429708861e-05,2.0815415382385254,4.751885152399101,-0.0005808242713101208,0.18141159415245056,-1.6517351309405726,0.0004644764121621847,0.11098736524581909,0.818587064743042,-0.0,0.0040724813006818295,0.7366197109222412,-0.006746653467416763,-0.4574427604675293
691.0,471.0,0.4181,0.2596,9.463,-0.06,0.0286,-0.1119,-1.6098586521544398,-0.015003218315541744,1.79754638671875,-1.7397550344467163,5.0419643230270594e-05,2.166687250137329,4.751909240126171,-0.0004068904381711036,0.1734447479248047,-1.6517637411700647,0.0003061908355448395,0.12463106215000153,0.8185791969299316,-0.0,-0.005282202735543251,0.7366161346435547,-0.0070847272872924805,-0.41464757919311523
660.0,448.0,0.9428,1.0828,9.4522,-0.0215,0.0049,-0.1275,-1.6100193462767542,-0.014072004705667496,1.8364237546920776,-1.7397840023040771,0.00015159821487031877,2.0675511360168457,4.751961289882221,-0.00029549855389632285,0.17836560308933258,-1.651743237172262,0.00021478469716385007,0.10736679285764694,0.8185673356056213,-0.0,-0.006795702967792749,0.736564576625824,-0.006655090022832155,-0.4278694987297058
660.0,448.0,0.9428,1.0828,9.4522,-0.0215,0.0049,-0.1275,-1.6101147137083949,-0.013111934997141361,1.785590648651123,-1.7397634983062744,0.0007614618516527116,2.1187808513641357,4.75189699509696,-0.00023200140276458114,0.17734915018081665,-1.6517952124225062,0.0001654201914789155,0.11958938837051392,0.8186030983924866,-0.0,0.005054239649325609,0.7365365028381348,-0.004585289862006903,-0.39061594009399414
660.0,448.0,0.9428,1.0828,9.4522,-0.0215,0.0049,-0.1275,-1.610234876672262,-0.012734191492199898,1.7413008213043213,-1.7397282123565674,0.0016543000238016248,2.0981218814849854,4.7518810396786115,-0.00019797305867541581,0.17885425686836243,-1.651771370564596,0.00013973176828585565,0.11272648721933365,0.8185952305793762,-0.0,0.007139504887163639,0.7364718317985535,-0.003277470823377371,-0.39801931381225586
660.0,448.0,0.9428,1.0828,9.4522,-0.0215,0.0049,-0.1275,-1.61037077526235,-0.012847480364143848,1.8079078197479248,-1.7396875619888306,0.003142883535474539,2.099574327468872,4.751945293485679,-0.0001673013175604865,0.168803408741951,-1.65179950395693,0.00011701850598910823,0.12009674310684204,0.8186033964157104,-0.0,-0.0008557906839996576,0.7364360690116882,-0.002063423627987504,-0.37834373116493225
660.0,448.0,0.9428,1.0828,9.4522,-0.0215,0.0049,-0.1275,-1.6104427776732386,-0.011991314589977264,1.7544877529144287,-1.73966383934021,0.005703846924006939,2.165123701095581,4.751917454391279,-0.00014485931023955345,0.16965597867965698,-1.6517675558673304,0.00010065752576338127,0.12116527557373047,0.8186033964157104,-0.0,0.0037616007030010223,0.736460268497467,-0.0015895090764388442,-0.372383713722229
660.0,448.0,0.9428,1.0828,9.4522,-0.0215,0.0049,-0.1275,-1.610570570031637,-0.012260202318429947,1.8280436992645264,-1.7395840883255005,0.005779193248599768,2.159471273422241,4.751905175834455,-0.00012772665650118142,0.1840021312236786,-1.6517470518695276,8.831061859382316e-05,0.12266620248556137,0.8185591697692871,-0.0,0.0014850432053208351,0.7364764213562012,-0.0010740129509940743,-0.3988501727581024
660.0,448.0,0.9428,1.0828,9.4522,-0.0215,0.0049,-0.1275,-1.6106625996031703,-0.011423063464462757,1.7785323858261108,-1.7395124435424805,0.006686584558337927,2.142914295196533,4.751876912056961,-0.00011668622028082609,0.16853773593902588,-1.6517513434039515,8.041923138080165e-05,0.12730996310710907,0.818535327911377,-0.0,-0.007826932705938816,0.736448347568512,-0.0007374888518825173,-0.41785281896591187
660.0,448.0,0.9428,1.0828,9.4522,-0.0215,0.0049,-0.1275,-1.6107784710326136,-0.010646404698491096,1.8529326915740967,-1.7394481897354126,0.005986599251627922,2.137739658355713,4.751905127405681,-0.00010530809231568128,0.1668589860200882,-1.651715103779928,7.233923679450527e-05,0.12985605001449585,0.8185833096504211,-0.0,0.005546811502426863,0.7364484071731567,-0.0004876564780715853,-0.3801746368408203
660.0,448.0,0.9428,1.0828,9.4522,-0.0215,0.0049,-0.1275,-1.6108256779112757,-0.010693170130252838,1.8363032341003418,-1.7394286394119263,0.005540420301258564,2.0988576412200928,4.751881028502741,-9.595186566002667e-05,0.17391078174114227,-1.6517756620990198,6.57347118249163e-05,0.13020658493041992,0.8185349702835083,-0.0,0.010385304689407349,0.736392080783844,-0.00027081684675067663,-0.40550607442855835
668.0,477.0,0.5833,0.527,9.795,-0.037,0.0203,-0.1127,-1.6109944782652796,-0.01090280618518591,1.8372738361358643,-1.7393851280212402,0.004674212075769901,2.143541097640991,4.751909255027332,-8.958460239227861e-05,0.18634635210037231,-1.6517470518695276,6.126023799879476e-05,0.12212652713060379,0.8185230493545532,-0.0,0.001738760736770928,0.7364484071731567,-0.00021826733427587897,-0.40605729818344116
668.0,477.0,0.5833,0.527,9.795,-0.037,0.0203,-0.1127,-1.6110741100706996,-0.009600590914487839,1.8421766757965088,-1.7393769025802612,0.00398410577327013,2.1101009845733643,4.7519292933638475,-8.272278500953689e-05,0.17823582887649536,-1.651743237172262,5.64566180401016e-05,0.11693146824836731,0.8185952305793762,-0.0,-0.005514780059456825,0.7364280819892883,-0.0001756628043949604,-0.3837406635284424
668.0,477.0,0.5833,0.527,9.795,-0.037,0.0203,-0.1127,-1.6111217937865199,-0.008022405207157135,1.7844899892807007,-1.739317774772644,0.003407513489946723,2.1179311275482178,4.751925217896261,-7.683744479436427e-05,0.17725130915641785,-1.6517589727984827,5.2351657359395176e-05,0.12454325705766678,0.8186030983924866,-0.0,0.0025713706854730844,0.7364161610603333,-0.0001763700129231438,-0.4424210488796234
668.0,477.0,0.5833,0.527,9.795,-0.037,0.0203,-0.1127,-1.6111742458739222,-0.006915909703820944,1.8305156230926514,-1.739273190498352,0.0028099361807107925,2.1081254482269287,4.751888851612367,-7.269960042322055e-05,0.16879808902740479,-1.651755158101217,4.947380148223601e-05,0.12311402708292007,0.8185476064682007,-0.0,-0.008045097813010216,0.7364444732666016,-0.0001559905504109338,-0.4433974623680115
668.0,477.0,0.5833,0.527,9.795,-0.037,0.0203,-0.1127,-1.611246248284811,-0.0053905886597931385,1.818392038345337,-1.7392857074737549,0.0019980301149189472,2.121711492538452,4.751937164902248,-6.811454659327865e-05,0.15828123688697815,-1.6517632643329065,1.292178058065474e-05,0.12741483747959137,0.8186030983924866,-0.0,-0.015831857919692993,0.73646479845047,-0.00015902044833637774,-0.3803912401199341
668.0,477.0,0.5833,0.527,9.795,-0.037,0.0203,-0.1127,-1.6112576923766078,-0.0050686076283454895,1.7714228630065918,-1.7392213344573975,0.0013170058373361826,2.090298652648926,4.751892901002922,-7.475088932551444e-05,0.184800922870636,-1.651731316243307,2.1240338654582303e-10,0.12576957046985626,0.8185554146766663,-0.0,-0.004924082197248936,0.736468493938446,-0.00016137149941641837,-0.3906324803829193
668.0,477.0,0.5833,0.527,9.795,-0.037,0.0203,-0.1127,-1.6113501987852992,-0.00444041145965457,1.843116283416748,-1.7392535209655762,0.0010276874527335167,2.120100975036621,4.751896980195799,-8.15378298284486e-05,0.16956466436386108,-1.65179950395693,3.8603268226065825e-15,0.11512167751789093,0.8186152577400208,-0.0,-0.002864038571715355,0.736456573009491,-0.00014809479762334377,-0.3469800353050232
668.0,477.0,0.5833,0.527,9.795,-0.037,0.0203,-0.1127,-1.611361642877096,-0.0032570369075983763,1.800720453262329,-1.7392175197601318,0.0010391511023044586,2.1612892150878906,4.751857171743669,-7.12749533704482e-05,0.18592755496501923,-1.6517394224749964,4.5809161348990804e-21,0.14063753187656403,0.8186152577400208,-0.0,0.0037650277372449636,0.7364284992218018,-0.00011115268716821447,-0.3916372060775757
668.0,477.0,0.5833,0.527,9.795,-0.037,0.0203,-0.1127,-1.6113816700377406,-0.0022546735126525164,1.8079824447631836,-1.7392131090164185,0.0008373570162802935,2.0778517723083496,4.75189737135128,-0.0006825749296694994,0.18134209513664246,-1.6517513434039515,5.436013534858771e-27,0.1266167163848877,0.8185513019561768,-0.0,-0.008467554114758968,0.7364363074302673,-9.89340478554368e-05,-0.34378522634506226
668.0,477.0,0.5833,0.527,9.795,-0.037,0.0203,-0.1127,-1.6113974056639613,-0.0021307128481566906,1.8419809341430664,-1.739229679107666,0.0006459461292251945,2.1031384468078613,4.751844978868522,-0.0009156318265013397,0.17548412084579468,-1.6517389456378382,9.879686774310886e-32,0.12410704791545868,0.8185390830039978,-0.0,0.001564742997288704,0.7364404201507568,-0.00010912437574006617,-0.38904350996017456
643.0,467.0,0.7418,0.7406,9.5725,-0.0392,0.0176,-0.1129,-1.6114098034300746,-0.0015297564677894115,1.8556101322174072,-1.7392734289169312,0.00037731436896137893,2.1291093826293945,4.7518330355878255,-0.0013279247796162963,0.18394294381141663,-1.6517632643329065,1.1723881765943265e-37,0.11763950437307358,0.8185832500457764,-0.0,-0.0029886304400861263,0.7364363074302673,-0.00011562845611479133,-0.3796371817588806
643.0,467.0,0.7418,0.7406,9.5725,-0.0392,0.0176,-0.1129,-1.6114336452879847,-0.00139775057323277,1.8676793575286865,-1.7391886711120605,0.0003189951821696013,2.1037302017211914,4.751813019603052,-0.001851386041380465,0.1691080629825592,-1.6517675558673304,1.3872854796815689e-43,0.12646923959255219,0.8185149431228638,-0.0,0.0017333992291241884,0.7364164590835571,-0.00012103940389351919,-0.40992259979248047
643.0,467.0,0.7418,0.7406,9.5725,-0.0392,0.0176,-0.1129,-1.6114212475218714,-0.0012093745172023773,1.7732439041137695,-1.739229679107666,0.00033893142244778574,2.112408399581909,4.751837610244312,-0.0023493634071201086,0.18028557300567627,-1.6517913977252405,0.0,0.1205647736787796,0.8185393810272217,-0.0,-0.008434677496552467,0.7364527583122253,-0.00011341325443936512,-0.3963738977909088
643.0,467.0,0.7418,0.7406,9.5725,-0.0392,0.0176,-0.1129,-1.6114212475218714,-0.0008709598332643509,1.7726566791534424,-1.7392215728759766,0.00043538943282328546,2.0724616050720215,4.751781451493063,-0.0060605756007134914,0.17632251977920532,-1.6517513434039515,0.0,0.11158429086208344,0.8185914754867554,-0.0,-0.018020624294877052,0.736416220664978,-0.00010513320012250915,-0.36260485649108887
643.0,467.0,0.7418,0.7406,9.5725,-0.0392,0.0176,-0.1129,-1.6114093265929164,-0.00046379538252949715,1.8425761461257935,-1.7391892671585083,0.0013974362518638372,2.1650753021240234,4.751729438989916,-0.008923166431486607,0.18532536923885345,-1.6517556349383753,0.0,0.13270825147628784,0.8185873627662659,-0.0,-0.0033617326989769936,0.736456573009491,-0.0001235181698575616,-0.39056292176246643
643.0,467.0,0.7418,0.7406,9.5725,-0.0392,0.0176,-0.1129,-1.611401697198385,-0.00032836891477927566,1.8556532859802246,-1.7391738891601562,0.0025704451836645603,2.076169490814209,4.751681531756677,-0.0028453366830945015,0.18314629793167114,-1.6517913977252405,0.0,0.12033280730247498,0.8185070753097534,-0.0,0.00013538880739361048,0.7364766597747803,-0.00011129832273581997,-0.36000680923461914
643.0,467.0,0.7418,0.7406,9.5725,-0.0392,0.0176,-0.1129,-1.6114217243590296,-0.00024057758855633438,1.8308374881744385,-1.7391499280929565,0.004058957565575838,2.14570951461792,4.751685607224264,-0.00014449548325501382,0.17969048023223877,-1.6517756620990198,0.0,0.12108801305294037,0.8185272216796875,-0.0,-0.018517227843403816,0.7364044189453125,-9.904932085191831e-05,-0.3761957883834839
643.0,467.0,0.7418,0.7406,9.5725,-0.0392,0.0176,-0.1129,-1.6114336452879847,-0.0001898298942251131,1.8522443771362305,-1.7390817403793335,0.006556977052241564,2.165632486343384,4.751669268101015,-8.006142161320895e-05,0.16092804074287415,-1.6517799536334437,0.0,0.11178179830312729,0.8185510635375977,-0.0,-0.002401346806436777,0.7364404201507568,-8.922933193389326e-05,-0.38620486855506897
643.0,467.0,0.7418,0.7406,9.5725,-0.0392,0.0176,-0.1129,-1.6114498577513636,-0.0001624219148652628,1.8560281991958618,-1.7390296459197998,0.006685342639684677,2.0816097259521484,4.751689760922947,-5.9036923630628735e-05,0.17897340655326843,-1.651788059865133,0.0,0.12285858392715454,0.8185670375823975,-0.0,0.000859937455970794,0.7364445328712463,-8.267222438007593e-05,-0.42129307985305786
629.0,463.0,0.7878,0.7932,9.5378,-0.0351,0.02,-0.1165,-1.6114174328246058,-0.00013759043940808624,1.8214987516403198,-1.738937497138977,0.0070115732960402966,2.1237592697143555,4.751685607224264,-8.294008148368448e-05,0.1886616349220276,-1.6517589727984827,0.0,0.1089959442615509,0.8185391426086426,-0.0,-0.006135145667940378,0.7364606857299805,-7.571707101305947e-05,-0.34985053539276123
629.0,463.0,0.7878,0.7932,9.5378,-0.0351,0.02,-0.1165,-1.6114217243590296,-0.00011934490612475201,1.8399760723114014,-1.7389063835144043,0.006729200482368469,2.114069938659668,4.751645139395752,-7.129252480808645e-05,0.17034295201301575,-1.6517470518695276,0.0,0.13197536766529083,0.8185874223709106,-0.0,-0.0017360674683004618,0.7364404201507568,-6.98413496138528e-05,-0.39852046966552734
629.0,463.0,0.7878,0.7932,9.5378,-0.0351,0.02,-0.1165,-1.6114255390562953,-0.00010789852240122855,1.8208444118499756,-1.7388784885406494,0.006098459474742413,2.1138124465942383,4.751649214863338,-6.154116272227839e-05,0.16997945308685303,-1.6517675558673304,0.0,0.12742729485034943,0.8185551166534424,-0.0,-0.0028685792349278927,0.736468493938446,-6.57590280752629e-05,-0.4046139419078827
629.0,463.0,0.7878,0.7932,9.5378,-0.0351,0.02,-0.1165,-1.6114055118956507,-9.634759771870449e-05,1.8140840530395508,-1.7387664318084717,0.0059213778004050255,2.0962936878204346,4.751697528153219,-5.2555918955476955e-05,0.17195206880569458,-1.6517470518695276,0.0,0.1105726808309555,0.8185713887214661,-0.0,-0.0018744842382147908,0.7364082336425781,-6.128156383056194e-05,-0.38505327701568604
629.0,463.0,0.7878,0.7932,9.5378,-0.0351,0.02,-0.1165,-1.611401697198385,-8.703090861672536e-05,1.870363473892212,-1.7386701107025146,0.006537302862852812,2.132676601409912,4.751721746265449,-4.586031354847364e-05,0.17206764221191406,-1.6517351309405726,0.0,0.12403866648674011,0.8185312151908875,-0.0,0.003681838046759367,0.7364243865013123,-5.73749202885665e-05,-0.3992614150047302
629.0,463.0,0.7878,0.7932,9.5378,-0.0351,0.02,-0.1165,-1.611429353753561,-8.07815813459456e-05,1.8165993690490723,-1.7386587858200073,0.006509778555482626,2.1108756065368652,4.751713524549761,-4.161867400398478e-05,0.17336957156658173,-1.651743237172262,0.0,0.12368477880954742,0.8184830546379089,-0.0,-0.001521627651527524,0.7364404201507568,-5.459085514303297e-05,-0.3506810665130615
629.0,463.0,0.7878,0.7932,9.5378,-0.0351,0.02,-0.1165,-1.611377855340475,-7.412809645757079e-05,1.8495454788208008,-1.738574743270874,0.006412941496819258,2.108698844909668,4.75170165950016,-3.73057191609405e-05,0.19302091002464294,-1.651727024708883,0.0,0.12983453273773193,0.818523108959198,-0.0,-0.00641249492764473,0.7364161610603333,-5.146898911334574e-05,-0.395327091217041
629.0,463.0,0.7878,0.7932,9.5378,-0.0351,0.02,-0.1165,-1.6113892994322718,-6.848727934993804e-05,1.82224440574646,-1.7385468482971191,0.007518600672483444,2.1097817420959473,4.751705805748262,-5.0701608415693045e-05,0.17337629199028015,-1.6517470518695276,0.0,0.1154443696141243,0.8185513019561768,-0.0,-0.0062388828955590725,0.7364404201507568,-2.6244304507372362e-08,-0.4090863764286041
629.0,463.0,0.7878,0.7932,9.5378,-0.0351,0.02,-0.1165,-1.6114493809142054,-6.455723632825539e-05,1.7865476608276367,-1.7384629249572754,0.00861362461000681,2.161539077758789,4.751637241780319,-4.7161447582766414e-05,0.1671304702758789,-1.6517961660968226,0.0,0.11691629141569138,0.8185951709747314,-0.0,-0.0077554453164339066,0.7364322543144226,-8.502820597608494e-16,-0.35674816370010376
629.0,463.0,0.7878,0.7932,9.5378,-0.0351,0.02,-0.1165,-1.6114379368224085,-6.0236536228330806e-05,1.865915060043335,-1.7384082078933716,0.009642022661864758,2.155268430709839,4.751665602415361,-4.386616637930274e-05,0.18006670475006104,-1.6517112890826624,0.0,0.11426463723182678,0.818547248840332,-0.0,0.004934880882501602,0.7364725470542908,-3.6959232884491055e-25,-0.39299604296684265
659.0,484.0,0.7615,0.7442,9.3398,-0.0342,0.0379,-0.1205,-1.6114455662169398,-6.774950452381745e-05,1.8494504690170288,-1.7382678985595703,0.010862739756703377,2.1063451766967773,4.751609503268757,-0.0006097242585383356,0.1772286593914032,-1.651715103779928,0.0,0.12281148135662079,0.8186511993408203,-0.0,0.002884804969653487,0.7363961338996887,-1.6065079512392512e-34,-0.3619535565376282
659.0,484.0,0.7615,0.7442,9.3398,-0.0342,0.0379,-0.1205,-1.6114574871458949,-7.526406261604279e-05,1.8173143863677979,-1.7382166385650635,0.012434853240847588,2.122673511505127,4.751629586308756,-0.0006257340428419411,0.1867336630821228,-1.6517351309405726,0.0,0.10608939826488495,0.8185591697692871,-0.0,-0.012737507931888103,0.7364485859870911,-5.2044224965023706e-42,-0.3770838975906372
659.0,484.0,0.7615,0.7442,9.3398,-0.0342,0.0379,-0.1205,-1.6114136181273402,-8.116773096844554e-05,1.827677845954895,-1.7380316257476807,0.014407251961529255,2.163037061691284,4.7516255406434915,-0.0006151413545012474,0.17049401998519897,-1.651715103779928,0.0,0.10212981700897217,0.8184749484062195,-0.0,-0.0024782996624708176,0.7364725470542908,0.0,-0.3705846071243286
659.0,484.0,0.7615,0.7442,9.3398,-0.0342,0.0379,-0.1205,-1.6114455662169398,-6.160097836982459e-05,1.8404960632324219,-1.7378647327423096,0.015983430668711662,2.107717514038086,4.75160168388442,-0.0008292430429719388,0.17929857969284058,-1.6516793409930628,0.0,0.12156881392002106,0.8185832500457764,-0.0,0.0014237465802580118,0.7364367246627808,0.0,-0.40620267391204834
659.0,484.0,0.7615,0.7442,9.3398,-0.0342,0.0379,-0.1205,-1.6114574871458949,-0.0004827025404665619,1.8581242561340332,-1.7377852201461792,0.017938002943992615,2.137808322906494,4.751589491009273,-0.0013415486318990588,0.1749228537082672,-1.6517232100116175,0.0,0.11110014468431473,0.8185513019561768,-0.0,-0.013379102572798729,0.7364606261253357,0.0,-0.44081950187683105
659.0,484.0,0.7615,0.7442,9.3398,-0.0342,0.0379,-0.1205,-1.61146940807485,-0.0012803529389202595,1.8336973190307617,-1.7375893592834473,0.021846799179911613,2.1702189445495605,4.751569765597143,-0.0020186956971883774,0.1724686324596405,-1.6517112890826624,1.7103695881814929e-06,0.12106290459632874,0.8185712695121765,-0.0,-0.00977297592908144,0.7364606261253357,0.0,-0.3844587504863739
659.0,484.0,0.7615,0.7442,9.3398,-0.0342,0.0379,-0.1205,-1.611486097375387,-0.001779566053301096,1.8234801292419434,-1.737317681312561,0.025030959397554398,2.128500461578369,4.751545681595363,-0.005775311030447483,0.1894671618938446,-1.6517437140094202,2.029636441552851e-12,0.11739818751811981,0.8185272216796875,-0.0,0.009252382442355156,0.7364444732666016,0.0,-0.37299543619155884
659.0,484.0,0.7615,0.7442,9.3398,-0.0342,0.0379,-0.1205,-1.6115457020201625,-0.0016715064411982894,1.863783359527588,-1.737078070640564,0.02920490689575672,2.139913558959961,4.751401553839006,-0.015009035356342793,0.17575080692768097,-1.6517398993121546,3.688763634332454e-17,0.11135588586330414,0.8185914158821106,-0.0,-0.0008030666504055262,0.7364889979362488,0.0,-0.38262903690338135
659.0,484.0,0.7615,0.7442,9.3398,-0.0342,0.0379,-0.1205,-1.61146940807485,-0.0013425963697955012,1.8626772165298462,-1.7367786169052124,0.0340510830283165,2.1771295070648193,4.751290070801534,-0.013725386932492256,0.17623290419578552,-1.651707951222555,4.377327631920787e-23,0.1181853637099266,0.8185713291168213,-0.0,-0.0038404264487326145,0.7364122867584229,0.0,-0.3501766324043274
641.0,463.0,0.722,0.7621,9.6365,-0.0299,0.0438,-0.1205,-1.6115619144835414,-0.0010992231545969844,1.8129348754882812,-1.7364357709884644,0.0380883514881134,2.1794347763061523,4.751134010940351,-0.008115910924971104,0.18301978707313538,-1.6517356077777308,5.194423245594383e-29,0.11761975288391113,0.8185551762580872,-0.0,-0.004201577045023441,0.736424446105957,0.0,-0.3806665539741516
641.0,463.0,0.722,0.7621,9.6365,-0.0299,0.0438,-0.1205,-1.611577650109762,-0.0010046814568340778,1.8489501476287842,-1.736144781112671,0.04212482273578644,2.2303824424743652,4.751126456051626,-0.004156789276748896,0.18021076917648315,-1.6516874472247522,9.440607271449916e-34,0.10566440224647522,0.8185312747955322,-0.0,-0.011848255060613155,0.736424446105957,0.0,-0.3639313578605652
641.0,463.0,0.722,0.7621,9.6365,-0.0299,0.0438,-0.1205,-1.6115900478758753,-0.0012081224704161286,1.857985496520996,-1.735709309577942,0.04662832245230675,2.224606990814209,4.751066009491243,-0.0031576715409755707,0.18414434790611267,-1.6517155806170862,1.1202834715875826e-39,0.10682141780853271,0.8185994625091553,-0.0,0.0025123427622020245,0.7364404201507568,0.0,-0.3980683982372284
641.0,463.0,0.722,0.7621,9.6365,-0.0299,0.0438,-0.1205,-1.6115895710387171,-0.001257224939763546,1.832828402519226,-1.7352038621902466,0.049768947064876556,2.196505308151245,4.751026413380661,-0.004222563002258539,0.1836208701133728,-1.6517117659198206,1.401298464324817e-45,0.1062527745962143,0.8185713291168213,-0.0,0.006286251358687878,0.7364689111709595,0.0,-0.36297258734703064
641.0,463.0,0.722,0.7621,9.6365,-0.0299,0.0438,-0.1205,-1.611593862573141,-0.001573223271407187,1.845306158065796,-1.7347601652145386,0.05244993790984154,2.2093873023986816,4.751022751420297,-0.005100849084556103,0.18173213303089142,-1.6517117659198206,0.0,0.10716825723648071,0.8185632228851318,-0.0,0.0065749408677220345,0.7364082336425781,0.0,-0.3267076313495636
641.0,463.0,0.722,0.7621,9.6365,-0.0299,0.0438,-0.1205,-1.6116415462889613,-0.0018631312996149063,1.857126235961914,-1.7342408895492554,0.05413701757788658,2.2391293048858643,4.750910478621282,-0.005922944284975529,0.18859392404556274,-1.651679817830221,0.00010542663949308917,0.10959893465042114,0.8185393810272217,-0.0,-0.015749361366033554,0.7364807724952698,0.0,-0.3662804067134857
641.0,463.0,0.722,0.7621,9.6365,-0.0299,0.0438,-0.1205,-1.6116420231261195,-0.00187678262591362,1.8675403594970703,-1.733690619468689,0.05055498331785202,2.253678321838379,4.750898680626907,-0.004985268693417311,0.19692140817642212,-1.651667896901266,9.438197594136e-05,0.09794629365205765,0.8185954093933105,-0.0,-0.0030912894289940596,0.7364805340766907,0.0,-0.3515484929084778
641.0,463.0,0.722,0.7621,9.6365,-0.0299,0.0438,-0.1205,-1.6116134128966273,-0.0013478336622938514,1.867608666419983,-1.7332959175109863,0.0460832417011261,2.1903467178344727,4.750866687833824,-0.0025954379234462976,0.19657516479492188,-1.6516841093646448,9.999806206906214e-05,0.12042823433876038,0.8185392022132874,-0.0,-0.0002125609025824815,0.7364000082015991,0.0,-0.3829041123390198
641.0,463.0,0.722,0.7621,9.6365,-0.0299,0.0438,-0.1205,-1.6116420231261195,-0.0007998290238901973,1.8195741176605225,-1.7328732013702393,0.041113026440143585,2.178290843963623,4.750822461187401,-0.0011145452735945582,0.1833680421113968,-1.651663605366842,9.527370275463909e-05,0.10356830805540085,0.8185272216796875,-0.0,-0.008177625946700573,0.7364684343338013,0.0,-0.3742716908454895
641.0,463.0,0.722,0.7621,9.6365,-0.0299,0.0438,-0.1205,-1.6116658649840296,-0.0004672490758821368,1.8589718341827393,-1.7324296236038208,0.04002461954951286,2.1622493267059326,4.7508429279323,-0.0007640043622814119,0.18488571047782898,-1.651679817830221,8.755024464335293e-05,0.11084383726119995,0.8185190558433533,-0.0,-0.00012170011177659035,0.7364723682403564,-5.801298330609939e-10,-0.3570705056190491
707.0,519.0,0.5964,0.5204,9.6191,-0.0458,0.0861,-0.1301,-1.6115933857359828,-0.000688512809574604,1.8410565853118896,-1.732142448425293,0.04070670157670975,2.2199206352233887,4.750795028149643,-0.0018243700033053756,0.18826761841773987,-1.6517041365252894,8.22181609692052e-05,0.11330810189247131,0.8185110688209534,-0.0,0.00786738283932209,0.736468493938446,-1.8795470848032037e-17,-0.3476043939590454
707.0,519.0,0.5964,0.5204,9.6191,-0.0458,0.0861,-0.1301,-1.611673494378561,-0.0025855416897684336,1.864894151687622,-1.7317436933517456,0.04301559925079346,2.203188419342041,4.750766753196277,-0.005404554773122072,0.1871504783630371,-1.6516755262957972,7.640181866008788e-05,0.10926750302314758,0.8185434937477112,-0.0,0.001642102375626564,0.7365127205848694,0.0003962961200159043,-0.36255890130996704
707.0,519.0,0.5964,0.5204,9.6191,-0.0458,0.0861,-0.1301,-1.6117016277708949,-0.004162624478340149,1.8163607120513916,-1.7313542366027832,0.0468406155705452,2.187744379043579,4.75063447931365,-0.010125339962542057,0.1814219355583191,-1.6516960302936,8.324640657519922e-05,0.10709954798221588,0.8185312747955322,-0.0,-0.006420665420591831,0.736460268497467,0.00027523719472810626,-0.3713817000389099
707.0,519.0,0.5964,0.5204,9.6191,-0.0458,0.0861,-0.1301,-1.611793657342428,-0.005081261042505503,1.8860418796539307,-1.7309105396270752,0.05044490471482277,2.225374698638916,4.7505989139671705,-0.012937458232045174,0.18829840421676636,-1.651679817830221,7.906735845608637e-05,0.11963096261024475,0.818531334400177,-0.0,-0.0038905078545212746,0.7364681959152222,0.00022112934675533324,-0.3661856949329376
707.0,519.0,0.5964,0.5204,9.6191,-0.0458,0.0861,-0.1301,-1.611821790734762,-0.004870145116001368,1.871218204498291,-1.7303956747055054,0.053933750838041306,2.186490058898926,4.75034702846364,-0.019130541011691093,0.17832307517528534,-1.6516721884356897,8.501517004333436e-05,0.09732488542795181,0.8185109496116638,-0.0,0.005193124525249004,0.7364723086357117,0.00017751174164004624,-0.3718336820602417
707.0,519.0,0.5964,0.5204,9.6191,-0.0458,0.0861,-0.1301,-1.6118532619872035,-0.005075181368738413,1.8321999311447144,-1.7297279834747314,0.060790788382291794,2.1570069789886475,4.750139470189371,-0.03217284381389618,0.19422876834869385,-1.6516922155963343,8.028651791391894e-05,0.11913970112800598,0.818535327911377,-0.0,0.007673474494367838,0.7364924550056458,0.0001482672378187999,-0.3387075662612915
707.0,519.0,0.5964,0.5204,9.6191,-0.0458,0.0861,-0.1301,-1.6119214497008265,-0.007180281914770603,1.8339335918426514,-1.729285717010498,0.06353006511926651,2.2236099243164062,4.749763569771805,-0.05460696667432785,0.16180972754955292,-1.6516597906695765,1.1202852867597812e-08,0.11676950752735138,0.8185272812843323,-0.0,0.0007083495147526264,0.736468493938446,0.0001048160411301069,-0.3851615786552429
707.0,519.0,0.5964,0.5204,9.6191,-0.0458,0.0861,-0.1301,-1.6119371853270472,-0.006446934770792723,1.8906992673873901,-1.7286357879638672,0.06381940096616745,2.219740867614746,4.748932021647253,-0.10502346605062485,0.1482841670513153,-1.6516922155963343,1.3294036417489316e-14,0.11057122051715851,0.8185553550720215,-0.0,-0.00336660910397768,0.7365086078643799,8.969523332780227e-05,-0.3402998447418213
707.0,519.0,0.5964,0.5204,9.6191,-0.0458,0.0861,-0.1301,-1.6119567356505335,-0.002955415053293109,1.840775966644287,-1.7280091047286987,0.06176658347249031,2.2012429237365723,4.747580735921421,-0.1453898847103119,0.12244773656129837,-1.6516435782061976,1.5775573436717933e-20,0.10380589962005615,0.818535327911377,-0.0,-0.0015318186488002539,0.7364401817321777,0.0005935286171734333,-0.33748549222946167
762.0,536.0,0.4911,0.5761,9.74,-0.0411,0.0562,-0.1194,-1.6119896374144496,-0.0008954846416600049,1.8632371425628662,-1.7275303602218628,0.06031801179051399,2.2226428985595703,4.746446966170826,-0.16033637523651123,0.12094742804765701,-1.651651684437887,2.867132216358069e-25,0.10393046587705612,0.8185712695121765,-0.0,0.004294592421501875,0.7364842295646667,0.00022592200548388064,-0.3994074761867523
762.0,536.0,0.4911,0.5761,9.74,-0.0411,0.0562,-0.1194,-1.6119653187193812,-0.0005383199313655496,1.8743157386779785,-1.7269645929336548,0.06181805580854416,2.197620153427124,4.744325595885076,-0.22305452823638916,0.09192731976509094,-1.6516717115985315,6.154734728625044e-05,0.10634570568799973,0.8185675144195557,-0.0,-0.004287094343453646,0.736512303352356,0.00019744160817936063,-0.385934442281723
762.0,536.0,0.4911,0.5761,9.74,-0.0411,0.0562,-0.1194,-1.6119896374144496,-0.00035668083000928164,1.8432798385620117,-1.7263585329055786,0.06607550382614136,2.2091381549835205,4.741902847751536,-0.251604825258255,0.08588364720344543,-1.6516841093646448,5.7608820497989655e-05,0.11561407148838043,0.8185392022132874,-0.0,0.00715993857011199,0.7364801168441772,6.375825614668429e-05,-0.3599978983402252
762.0,536.0,0.4911,0.5761,9.74,-0.0411,0.0562,-0.1194,-1.6120254002013148,-0.002120811492204666,1.9011696577072144,-1.7256077527999878,0.07060332596302032,2.221775770187378,4.739158271789112,-0.2859634459018707,0.0745028480887413,-1.6516435782061976,5.414315819507465e-05,0.11503216624259949,0.8185712695121765,-0.0,-0.002975133480504155,0.7364764213562012,1.6111801129370384e-11,-0.3627431392669678
762.0,536.0,0.4911,0.5761,9.74,-0.0411,0.0562,-0.1194,-1.6120287380614222,-0.0037614803295582533,1.890824794769287,-1.7250244617462158,0.07940080761909485,2.2299370765686035,4.736589883431353,-0.33802586793899536,0.05611100047826767,-1.651691738759176,5.165706897969358e-05,0.10647603869438171,0.8185272216796875,-0.0,-0.0028338157571852207,0.7365085482597351,5.220018381286325e-19,-0.3587508797645569
762.0,536.0,0.4911,0.5761,9.74,-0.0411,0.0562,-0.1194,-1.612105508843893,-0.003996111918240786,1.869278907775879,-1.7242112159729004,0.08862968534231186,2.236605405807495,4.732921744674005,-0.38743114471435547,0.023896774277091026,-1.651635471974508,8.285539365715522e-07,0.09848994016647339,0.8184871077537537,-0.0,-0.011364791542291641,0.7364965677261353,2.2689871786961844e-28,-0.3683810830116272
762.0,536.0,0.4911,0.5761,9.74,-0.0411,0.0562,-0.1194,-1.6121417484679164,-0.003089374862611294,1.8453738689422607,-1.7232565879821777,0.08821618556976318,2.2420666217803955,4.728737954958834,-0.4449576139450073,-0.0026428354904055595,-1.6516879240619105,9.832162211134698e-13,0.11156715452671051,0.8185393810272217,-0.0,-0.006992153823375702,0.736492395401001,9.86261324641707e-38,-0.38172346353530884
762.0,536.0,0.4911,0.5761,9.74,-0.0411,0.0562,-0.1194,-1.612073083917135,-0.0017159406561404467,1.881656527519226,-1.7225788831710815,0.08317971229553223,2.250866174697876,4.724974172167041,-0.4958524703979492,-0.04026574641466141,-1.651679817830221,1.786947027641975e-17,0.10914884507656097,0.818519115447998,-0.0,0.003124766983091831,0.7364521026611328,2.802596928649634e-45,-0.3848758637905121
762.0,536.0,0.4911,0.5761,9.74,-0.0411,0.0562,-0.1194,-1.6120649776854457,-0.00047295886906795204,1.8497459888458252,-1.7217272520065308,0.08499480038881302,2.1723804473876953,4.719756097510018,-0.5508940815925598,-0.03941291570663452,-1.6516717115985315,2.1205082847876518e-23,0.09788180142641068,0.8185513019561768,-0.0,-0.004408527165651321,0.7364764213562012,0.0,-0.33476710319519043
762.0,536.0,0.4911,0.5761,9.74,-0.0411,0.0562,-0.1194,-1.612117429772848,-0.0002851522294804454,1.9277929067611694,-1.7208155393600464,0.0892859622836113,2.2336833477020264,4.7138549407017685,-0.6076218485832214,-0.05417592078447342,-1.651691738759176,2.5163335489521418e-29,0.11262485384941101,0.8185951113700867,-0.0,0.0004929469432681799,0.7364924550056458,0.0,-0.3470374345779419
771.0,529.0,-0.4092,0.4965,9.9571,-0.0612,-0.2243,-0.1034,-1.612129350701803,-0.00021653268777299672,1.873796820640564,-1.7200769186019897,0.0944909080862999,2.239258050918579,4.708769960994385,-0.6433212757110596,-0.028122205287218094,-1.6516960302936,4.573311740574477e-34,0.10406513512134552,0.8185353875160217,-0.0,-0.006360400002449751,0.7365406155586243,0.0,-0.33120766282081604
771.0,529.0,-0.4092,0.4965,9.9571,-0.0612,-0.2243,-0.1034,-1.6121250591673792,-0.00012175993470009416,1.865403175354004,-1.7191309928894043,0.10343357920646667,2.2650580406188965,4.7021209436604,-0.6893539428710938,-0.033879779279232025,-1.651663605366842,5.426990731591081e-40,0.09878251701593399,0.818575382232666,-0.0,0.00017714290879666805,0.7364883422851562,0.0,-0.3629271686077118
771.0,529.0,-0.4092,0.4965,9.9571,-0.0612,-0.2243,-0.1034,-1.612112661401266,-0.0017809354467317462,1.8849549293518066,-1.7179911136627197,0.10633242875337601,2.2126994132995605,4.694973631496094,-0.7318881750106812,-0.035576511174440384,-1.6516912619220179,0.0,0.11950448900461197,0.8185594081878662,-0.0,0.0016993368044495583,0.7365081310272217,0.0,-0.3715935945510864
771.0,529.0,-0.4092,0.4965,9.9571,-0.0612,-0.2243,-0.1034,-1.6121250591673792,-0.001922151423059404,1.876798152923584,-1.7170981168746948,0.10666010528802872,2.2303996086120605,4.689136191005371,-0.7594536542892456,-0.05832752585411072,-1.6517155806170862,-3.0118912036414258e-05,0.10870431363582611,0.8185312151908875,-0.0,-0.0044459085911512375,0.7364963293075562,0.0,-0.3524185121059418
771.0,529.0,-0.4092,0.4965,9.9571,-0.0612,-0.2243,-0.1034,-1.6120850048460902,-0.00014159185229800642,1.8735158443450928,-1.7160309553146362,0.11214061081409454,2.177494525909424,4.681399031276367,-0.7768314480781555,-0.03498478978872299,-1.6517437140094202,-2.781332477752585e-05,0.11387304216623306,0.8185513019561768,-0.0,0.009078826755285263,0.7364801168441772,0.0,-0.33268243074417114
771.0,529.0,-0.4092,0.4965,9.9571,-0.0612,-0.2243,-0.1034,-1.6121050320067347,-1.7201278108055357e-13,1.8626689910888672,-1.7148594856262207,0.12078341096639633,2.3277268409729004,4.673619433040283,-0.7766773700714111,-0.03278914466500282,-1.6517112890826624,-2.581860462669283e-05,0.11784002929925919,0.8185272216796875,-0.0,-0.018248368054628372,0.7364924550056458,0.0,-0.3689078688621521
771.0,529.0,-0.4092,0.4965,9.9571,-0.0612,-0.2243,-0.1034,-1.6120931110777796,-5.5729948794471274e-21,1.864698886871338,-1.713802456855774,0.13262997567653656,2.309966564178467,4.667421026820801,-0.7772282361984253,-0.02287515066564083,-1.6517074743853968,-3.348550308146514e-05,0.12656551599502563,0.8185751438140869,-0.0,0.001304940553382039,0.7364924550056458,0.0,-0.33286526799201965
771.0,529.0,-0.4092,0.4965,9.9571,-0.0612,-0.2243,-0.1034,-1.6120807133116664,-0.0004387282533571124,1.8460291624069214,-1.7124760150909424,0.13926254212856293,2.243105888366699,4.659619494075439,-0.7802315950393677,-0.039508968591690063,-1.6517275015460413,-3.428726995480247e-05,0.12154132127761841,0.818551242351532,-0.0,-0.017437322065234184,0.7364883422851562,0.0,-0.32920998334884644
771.0,529.0,-0.4092,0.4965,9.9571,-0.0612,-0.2243,-0.1034,-1.6121694050230921,-0.0012685063993558288,1.8548319339752197,-1.7110131978988647,0.14605273306369781,2.2855217456817627,4.651833696956299,-0.7759367823600769,-0.05187709629535675,-1.6517470518695276,-3.225146065233275e-05,0.10732594132423401,0.8186070322990417,-0.0,-0.004952348303049803,0.7364641427993774,0.0,-0.3901529908180237
603.0,390.0,0.8859,0.5079,9.6449,-0.0622,-0.6538,-0.0728,-1.612129350701803,-0.0005512284114956856,1.891570806503296,-1.709890365600586,0.15235722064971924,2.270092725753784,4.645622892970703,-0.7638736963272095,-0.04401250183582306,-1.651731316243307,-3.0780774977756664e-05,0.1354963481426239,0.8185392618179321,-0.0,-0.004914763383567333,0.7365126609802246,0.0,-0.2969610095024109
603.0,390.0,0.8859,0.5079,9.6449,-0.0622,-0.6538,-0.0728,-1.6121250591673792,-0.00027340883389115334,1.8636445999145508,-1.7082855701446533,0.16622990369796753,2.348414897918701,4.63808981954541,-0.7544813752174377,-0.04606250673532486,-1.651759449635641,-8.024441200404908e-08,0.1045980304479599,0.8185632228851318,-0.0,-0.0010858448222279549,0.7365286350250244,0.0,-0.3538060784339905
603.0,390.0,0.8859,0.5079,9.6449,-0.0622,-0.6538,-0.0728,-1.612112661401266,-0.0001486127875978127,1.9106730222702026,-1.7066468000411987,0.17733190953731537,2.2845473289489746,4.630776568050049,-0.740979015827179,-0.04999397695064545,-1.6517799536334437,-9.522328130000257e-14,0.11401818692684174,0.8185151219367981,-0.0,9.95970331132412e-05,0.7365286350250244,3.942964758607559e-05,-0.31359392404556274
603.0,390.0,0.8859,0.5079,9.6449,-0.0622,-0.6538,-0.0728,-1.6121369800963343,-0.000121794939332176,1.8795220851898193,-1.705155849456787,0.18954437971115112,2.302269458770752,4.624905748958252,-0.7279177308082581,-0.021480035036802292,-1.6517232100116175,-1.7306359629798763e-18,0.12540516257286072,0.8185353875160217,-0.0,0.012023834511637688,0.7364718317985535,0.00011497034574858844,-0.3184640407562256
603.0,390.0,0.8859,0.5079,9.6449,-0.0622,-0.6538,-0.0728,-1.6122051678099574,-6.968327215872705e-05,1.9867217540740967,-1.7031893730163574,0.20396974682807922,2.365861415863037,4.6174914079853515,-0.7238547205924988,-0.027779001742601395,-1.6517513434039515,-2.0536857707725524e-24,0.11215241253376007,0.8185592293739319,-0.0,-0.0018865377642214298,0.7365368008613586,0.00029706661007367074,-0.28973129391670227
603.0,390.0,0.8859,0.5079,9.6449,-0.0622,-0.6538,-0.0728,-1.6121412716307582,-9.211735596181825e-05,1.9298617839813232,-1.7011536359786987,0.2072335034608841,2.336927652359009,4.610335035915039,-0.7137587070465088,-0.04634750261902809,-1.65179950395693,-8.257323497673497e-05,0.11387444287538528,0.8185594081878662,-0.0,0.006822699680924416,0.7365529537200928,0.00019340688595548272,-0.3492041826248169
603.0,390.0,0.8859,0.5079,9.6449,-0.0622,-0.6538,-0.0728,-1.6121088467040003,-0.00015262854867614806,1.9398093223571777,-1.6994129419326782,0.2200310081243515,2.3612518310546875,4.604682608241699,-0.7019391059875488,-0.008190137334167957,-1.651743237172262,-7.69270773162134e-05,0.10496401786804199,0.8185594081878662,-0.0,-5.1140785217285156e-05,0.7365406155586243,0.00020043482072651386,-0.2877069413661957
603.0,390.0,0.8859,0.5079,9.6449,-0.0622,-0.6538,-0.0728,-1.6121894321837367,-0.00016814986884128302,1.9376649856567383,-1.6971797943115234,0.23195293545722961,2.4038543701171875,4.5977770525166015,-0.7029653191566467,-0.025742346420884132,-1.6517871061908167,-7.08694860804826e-05,0.10126258432865143,0.8185434937477112,-0.0,-0.006683161482214928,0.7364921569824219,0.00011184946197317913,-0.31208789348602295
603.0,390.0,0.8859,0.5079,9.6449,-0.0622,-0.6538,-0.0728,-1.6121450863280238,-0.00012822567077819258,1.9705400466918945,-1.694780945777893,0.2425062507390976,2.333916187286377,4.590927763576172,-0.6897441148757935,-0.018189720809459686,-1.6518076101886194,-7.545335392933339e-05,0.1051393672823906,0.818587064743042,-0.0,-0.0053230170160532,0.7365525364875793,0.0001704212772892788,-0.27138277888298035
603.0,390.0,0.8859,0.5079,9.6449,-0.0622,-0.6538,-0.0728,-1.612157484094137,-0.00014350045239552855,1.9350919723510742,-1.6927802562713623,0.25792914628982544,2.3813672065734863,4.585282488460205,-0.6887238621711731,-0.024236995726823807,-1.6517632643329065,-7.448573887813836e-05,0.10246320068836212,0.818567156791687,-0.0,-0.0033222874626517296,0.7365081310272217,0.0004335037083365023,-0.3144150972366333
390.0,332.0,2.2923,0.2512,9.6371,-0.0692,-0.5101,-0.0947,-1.6122127972044886,-0.0016521828947588801,1.9441003799438477,-1.690192461013794,0.25617387890815735,2.375828504562378,4.57839743673291,-0.6913692951202393,-0.036434900015592575,-1.651743237172262,-6.968014349695295e-05,0.10606399178504944,0.8186190128326416,-0.0,-0.009362067095935345,0.7365365028381348,0.0003461861051619053,-0.3339715600013733
390.0,332.0,2.2923,0.2512,9.6371,-0.0692,-0.5101,-0.0947,-1.6122447452940882,-0.004276253283023834,1.9090231657028198,-1.6874831914901733,0.27307063341140747,2.451690435409546,4.571540041560791,-0.6874856352806091,-0.026040928438305855,-1.6517828146563929,-6.545694486703724e-05,0.11515355110168457,0.8185513019561768,-0.0,0.006506152916699648,0.7365769743919373,0.00040993248694576323,-0.34610748291015625
390.0,332.0,2.2923,0.2512,9.6371,-0.0692,-0.5101,-0.0947,-1.6122728786864222,-0.0028437990695238113,1.9447721242904663,-1.685302495956421,0.2716546654701233,2.389958620071411,4.566014452571533,-0.6901207566261292,-0.027184560894966125,-1.6517952124225062,-6.24299282208085e-05,0.10640840232372284,0.8185989856719971,-0.0,-0.004298784304410219,0.7365566492080688,0.00036236297455616295,-0.31490129232406616
390.0,332.0,2.2923,0.2512,9.6371,-0.0692,-0.5101,-0.0947,-1.6122967205443324,-0.0020130090415477753,1.9430875778198242,-1.6824911832809448,0.2817264795303345,2.4038965702056885,4.559144659633301,-0.6983227729797363,-0.04063542187213898,-1.651771370564596,-3.896061571140308e-06,0.11493293941020966,0.8186149597167969,-0.0,-0.014470139518380165,0.7365323901176453,0.0002713171998038888,-0.3368629217147827
390.0,332.0,2.2923,0.2512,9.6371,-0.0692,-0.5101,-0.0947,-1.6122967205443324,-0.0017927527660503983,1.9074445962905884,-1.6796432733535767,0.2893839180469513,2.438718557357788,4.551994963283203,-0.7092189788818359,-0.0313846692442894,-1.6517789999591272,-4.623320823404775e-12,0.12794287502765656,0.8185552358627319,-0.0,-0.01304791122674942,0.7365806102752686,0.00018070146325044334,-0.38057762384414673
390.0,332.0,2.2923,0.2512,9.6371,-0.0692,-0.5101,-0.0947,-1.612328668633932,-0.003421418135985732,1.8944828510284424,-1.6772749423980713,0.2941553592681885,2.4343984127044678,4.546196623439453,-0.7217794060707092,-0.04240870475769043,-1.6517756620990198,-8.402658157502285e-17,0.11664506793022156,0.818606972694397,-0.0,0.007946726866066456,0.7365040183067322,0.00015569082461297512,-0.3661782741546631
390.0,332.0,2.2923,0.2512,9.6371,-0.0692,-0.5101,-0.0947,-1.6123973331847132,-0.006449451670050621,1.8528980016708374,-1.6743277311325073,0.30312931537628174,2.4110617637634277,4.538900061244629,-0.7370118498802185,-0.04068636894226074,-1.6518076101886194,-9.971143150742241e-23,0.14705979824066162,0.818606972694397,-0.0,-0.003548242151737213,0.7365406155586243,0.00010618360829539597,-0.37595134973526
390.0,332.0,2.2923,0.2512,9.6371,-0.0692,-0.5101,-0.0947,-1.6124893627562464,-0.008469667285680771,1.8201713562011719,-1.6712626218795776,0.30907145142555237,2.405459403991699,4.531351252193115,-0.7591415047645569,-0.0496552437543869,-1.651771370564596,-1.183240922541099e-28,0.13054338097572327,0.818606972694397,-0.0,0.009044965729117393,0.7365244626998901,-6.257940549403429e-05,-0.3649044632911682
390.0,332.0,2.2923,0.2512,9.6371,-0.0692,-0.5101,-0.0947,-1.61254944423818,-0.010592500679194927,1.792137861251831,-1.6687548160552979,0.311053067445755,2.3920397758483887,4.5250512796589355,-0.7770878076553345,-0.021283958107233047,-1.6517589727984827,-2.1504818751599327e-33,0.1389620304107666,0.818571150302887,-0.0,0.0008464124985039234,0.7365081310272217,-8.240983152063563e-05,-0.3925320506095886
354.0,325.0,1.8168,0.6443,9.7364,-0.0564,-0.3856,-0.0932,-1.6126686535277308,-0.012695466168224812,1.8368241786956787,-1.6655986309051514,0.3212527632713318,2.3835690021514893,4.517181559199951,-0.794520914554596,-0.05441157519817352,-1.6517918745623987,-2.55190323208346e-39,0.139546200633049,0.8185751438140869,-0.0,0.0037485407665371895,0.7365244626998901,-7.149835437303409e-05,-0.3623020052909851
354.0,325.0,1.8168,0.6443,9.7364,-0.0564,-0.3856,-0.0932,-1.6127649746336878,-0.013871615752577782,1.8192346096038818,-1.6623462438583374,0.3267121911048889,2.4602785110473633,4.509179278010986,-0.8147794604301453,-0.05005402863025665,-1.6517913977252405,-2.802596928649634e-45,0.1311526745557785,0.8185194134712219,-0.0,-0.0017709687817841768,0.7365566492080688,-6.313843186944723e-05,-0.4095955789089203
354.0,325.0,1.8168,0.6443,9.7364,-0.0564,-0.3856,-0.0932,-1.6129371128477992,-0.016462061554193497,1.8495289087295532,-1.6597541570663452,0.32625633478164673,2.4148666858673096,4.502593680019043,-0.8325589895248413,-0.05512912571430206,-1.651755158101217,-0.0,0.15570630133152008,0.8185393810272217,-0.0,0.009676685556769371,0.736512303352356,-5.773775410489179e-05,-0.38097941875457764
354.0,325.0,1.8168,0.6443,9.7364,-0.0564,-0.3856,-0.0932,-1.6131164036192835,-0.021833961829543114,1.8142997026443481,-1.6564102172851562,0.3295755982398987,2.4443435668945312,4.49415556966748,-0.8509926199913025,-0.02124227024614811,-1.6517389456378382,-0.0,0.13622471690177917,0.8185790777206421,-0.0,0.0005788711132481694,0.7365689277648926,-5.216067438595928e-05,-0.3548761010169983
354.0,325.0,1.8168,0.6443,9.7364,-0.0564,-0.3856,-0.0932,-1.6133562527098597,-0.024969760328531265,1.7842381000518799,-1.6530512571334839,0.32809069752693176,2.434401512145996,4.4855238634296875,-0.8680962920188904,-0.05366373807191849,-1.6518157164203089,-0.0,0.1445457935333252,0.8185752630233765,-0.0,-0.0022030184045434,0.736572802066803,-4.756612179335207e-05,-0.35804319381713867
354.0,325.0,1.8168,0.6443,9.7364,-0.0564,-0.3856,-0.0932,-1.6135245762267054,-0.025618836283683777,1.8089044094085693,-1.6503796577453613,0.33292993903160095,2.4299464225769043,4.478594942683838,-0.8747364282608032,-0.03293057903647423,-1.6517913977252405,-0.0,0.14795777201652527,0.8186149597167969,-0.0,0.01682564988732338,0.7365406155586243,-4.443493526196107e-05,-0.40832453966140747
354.0,325.0,1.8168,0.6443,9.7364,-0.0564,-0.3856,-0.0932,-1.6138001881041468,-0.028281202539801598,1.7448463439941406,-1.647040605545044,0.3305318057537079,2.4419822692871094,4.4698192316242675,-0.8894768357276917,-0.04734165221452713,-1.6517632643329065,-0.0,0.1282661259174347,0.8185831308364868,-0.0,-0.013448352925479412,0.7365930080413818,-4.105655898456462e-05,-0.3986973762512207
354.0,325.0,1.8168,0.6443,9.7364,-0.0564,-0.3856,-0.0932,-1.6141158543028773,-0.03074762411415577,1.7747647762298584,-1.6437140703201294,0.3336690664291382,2.418935775756836,4.460785074824951,-0.903660774230957,-0.05496247112751007,-1.6517394224749964,-0.0,0.14330482482910156,0.8186109662055969,-0.0,0.0022320582065731287,0.73653244972229,-3.815561649389565e-05,-0.34526050090789795
354.0,325.0,1.8168,0.6443,9.7364,-0.0564,-0.3856,-0.0932,-1.6143399677672328,-0.03260881081223488,1.7561073303222656,-1.6410934925079346,0.33734673261642456,2.4312806129455566,4.453588171596191,-0.9124899506568909,-0.05998586118221283,-1.6517513434039515,-0.0,0.13482867181301117,0.8185433149337769,-0.0,0.00552426977083087,0.7365122437477112,-3.611421925597824e-05,-0.38270634412765503
354.0,325.0,1.8168,0.6443,9.7364,-0.0564,-0.3856,-0.0932,-1.614695211450094,-0.03410615026950836,1.7577905654907227,-1.6377288103103638,0.3329964578151703,2.4084973335266113,4.444399519557617,-0.9217664003372192,-0.056980542838573456,-1.651743237172262,-0.0,0.13631002604961395,0.818583071231842,-0.0,-6.47279666736722e-05,0.7365244626998901,-3.385041418368928e-05,-0.3934514820575714
313.0,308.0,2.0973,0.6227,8.5986,-0.062,-0.5696,-0.0834,-1.6151157818236292,-0.039076048880815506,1.753342628479004,-1.6344350576400757,0.33307120203971863,2.4220376014709473,4.435117884273193,-0.9320631623268127,-0.04549848660826683,-1.6517513434039515,-0.0,0.14545010030269623,0.8186189532279968,-0.0,0.0070008146576583385,0.7365971207618713,-2.123586273228284e-05,-0.3974827527999878
313.0,308.0,2.0973,0.6227,8.5986,-0.062,-0.5696,-0.0834,-1.6154066524901332,-0.043958794325590134,1.7192392349243164,-1.6317565441131592,0.3358694911003113,2.4052460193634033,4.4275404649921875,-0.9334186315536499,-0.05485532432794571,-1.65179950395693,-0.0,0.15126816928386688,0.8186347484588623,-0.0,0.013888546265661716,0.7365365028381348,-2.0278830561437644e-05,-0.3934856057167053
313.0,308.0,2.0973,0.6227,8.5986,-0.062,-0.5696,-0.0834,-1.6158510647215785,-0.048944104462862015,1.7452447414398193,-1.6283597946166992,0.3334047198295593,2.433464288711548,4.418142481441162,-0.9432804584503174,-0.036678656935691833,-1.6517913977252405,-0.0,0.15076467394828796,0.8185989856719971,-0.0,0.007316074334084988,0.7365406155586243,-4.789190918841335e-11,-0.3774171471595764
313.0,308.0,2.0973,0.6227,8.5986,-0.062,-0.5696,-0.0834,-1.6163984737791957,-0.05844971537590027,1.7478078603744507,-1.6249886751174927,0.33623987436294556,2.4149186611175537,4.408755465144775,-0.9451234936714172,-0.051816631108522415,-1.651771370564596,-0.0,0.15151986479759216,0.818583071231842,-0.0,0.0014334440929815173,0.7365727424621582,-2.0817192418201754e-20,-0.40384024381637573
313.0,308.0,2.0973,0.6227,8.5986,-0.062,-0.5696,-0.0834,-1.6168738804259242,-0.06513562798500061,1.7321943044662476,-1.6222409009933472,0.33149492740631104,2.413347005844116,4.401231451625488,-0.9421460628509521,-0.03648611158132553,-1.6517589727984827,-0.0,0.12893496453762054,0.8186308145523071,-0.0,0.011564915999770164,0.73653244972229,-6.744503627992075e-28,-0.39609581232070923
313.0,308.0,2.0973,0.6227,8.5986,-0.062,-0.5696,-0.0834,-1.6175295315184535,-0.07076655328273773,1.7331087589263916,-1.6189451217651367,0.33429384231567383,2.4197819232940674,4.391868277187012,-0.9319876432418823,-0.043872538954019547,-1.651715103779928,-0.0,0.12876664102077484,0.818606972694397,-0.0,0.0055365730077028275,0.7364999055862427,-2.9316354416850463e-37,-0.3683139681816101
313.0,308.0,2.0973,0.6227,8.5986,-0.062,-0.5696,-0.0834,-1.6183296642699183,-0.07393303513526917,1.812955379486084,-1.6156103610992432,0.33014893531799316,2.4309544563293457,4.382766886348389,-0.9196390509605408,-0.05184779688715935,-1.6517470518695276,-0.0,0.1397542804479599,0.818587064743042,-0.0,0.01627606526017189,0.736524224281311,-0.0,-0.3525262475013733
313.0,308.0,2.0973,0.6227,8.5986,-0.062,-0.5696,-0.0834,-1.6188723049559535,-0.07553210109472275,1.7909271717071533,-1.6130404472351074,0.3314167857170105,2.418144941329956,4.375439329738281,-0.905931830406189,-0.046328023076057434,-1.6518238226519983,-0.0,0.11242054402828217,0.8186147809028625,-0.0,0.010896679013967514,0.7365604639053345,0.0,-0.3554290235042572
313.0,308.0,2.0973,0.6227,8.5986,-0.062,-0.5696,-0.0834,-1.6196757755675257,-0.07242899388074875,1.8042280673980713,-1.6097756624221802,0.33286988735198975,2.4496538639068604,4.366254015559814,-0.892738938331604,-0.028138676658272743,-1.6517589727984827,-0.0,0.13777875900268555,0.8185989856719971,-0.0,-8.255214197561145e-05,0.7365283370018005,0.0,-0.32549867033958435
284.0,284.0,2.5567,0.2985,8.4353,-0.0531,-0.6568,-0.0683,-1.6205035648741664,-0.07594547420740128,1.7986211776733398,-1.606540560722351,0.3252426087856293,2.4116640090942383,4.357500239009521,-0.8843084573745728,-0.025554902851581573,-1.6517756620990198,-2.185492348871776e-06,0.11740729957818985,0.8185990452766418,-0.0,0.008535787463188171,0.7365846037864685,0.0,-0.3070099353790283
284.0,284.0,2.5567,0.2985,8.4353,-0.0531,-0.6568,-0.0683,-1.6211029491820277,-0.08479923754930496,1.8746193647384644,-1.6040059328079224,0.3248080313205719,2.448429584503174,4.350530787105225,-0.8780056834220886,-0.030078567564487457,-1.6517828146563929,-3.972024792409101e-11,0.1068228930234909,0.8185871243476868,-0.0,0.018712572753429413,0.7365525364875793,0.0,-0.3687932789325714
284.0,284.0,2.5567,0.2985,8.4353,-0.0531,-0.6568,-0.0683,-1.621957918206686,-0.09346489608287811,1.8139270544052124,-1.6007291078567505,0.32520419359207153,2.418426990509033,4.341940088863037,-0.8541158437728882,-0.021678540855646133,-1.6517871061908167,-4.713463727506814e-17,0.12192519754171371,0.818567156791687,-0.0,0.003941912669688463,0.7365604639053345,0.0,-0.33109039068222046
284.0,284.0,2.5567,0.2985,8.4353,-0.0531,-0.6568,-0.0683,-1.6229545078673304,-0.09752874821424484,1.893556833267212,-1.5974589586257935,0.33009791374206543,2.4398481845855713,4.333394213313721,-0.8268054723739624,-0.017096832394599915,-1.6517828146563929,-5.593304021410508e-23,0.11776638776063919,0.8185870051383972,-0.0,0.003795386292040348,0.7365040183067322,0.0,-0.3020639419555664
284.0,284.0,2.5567,0.2985,8.4353,-0.0531,-0.6568,-0.0683,-1.623789449731344,-0.10212263464927673,1.8784769773483276,-1.5947357416152954,0.3326979875564575,2.408585786819458,4.32697503148999,-0.8048402667045593,-0.017788847908377647,-1.6518433729754847,-1.016555417343651e-27,0.11016684770584106,0.8185989856719971,-0.0,0.0010036721359938383,0.73653244972229,0.0,-0.3125185966491699
284.0,284.0,2.5567,0.2985,8.4353,-0.0531,-0.6568,-0.0683,-1.6248847446837367,-0.1017744392156601,1.9160773754119873,-1.5914092063903809,0.3306640088558197,2.4904239177703857,4.31920496999707,-0.7834563255310059,-0.010050209239125252,-1.6518476645099085,-0.00019185249402653426,0.09694269299507141,0.8186069130897522,-0.0,0.0027404208667576313,0.7365201115608215,0.0,-0.2562509775161743
284.0,284.0,2.5567,0.2985,8.4353,-0.0531,-0.6568,-0.0683,-1.625923296014303,-0.10427960008382797,1.9606295824050903,-1.5880508422851562,0.3313072621822357,2.4544360637664795,4.311525030727051,-0.7547342777252197,-0.0038436572067439556,-1.651771370564596,-0.00019031715055461973,0.1061994656920433,0.8185949921607971,-0.0,-0.003292808309197426,0.7366127371788025,0.0,-0.2903271019458771
284.0,284.0,2.5567,0.2985,8.4353,-0.0531,-0.6568,-0.0683,-1.6269947491087855,-0.11162175983190536,2.006749153137207,-1.5848414897918701,0.3192414343357086,2.4186851978302,4.3039867120930175,-0.7333176136016846,-0.0005771394935436547,-1.6517952124225062,-0.0001853357389336452,0.09179242700338364,0.8185791373252869,-0.0,0.014562654308974743,0.7365402579307556,0.0,-0.209864541888237
284.0,284.0,2.5567,0.2985,8.4353,-0.0531,-0.6568,-0.0683,-1.627850194970602,-0.11503756046295166,1.9738600254058838,-1.5823194980621338,0.31943196058273315,2.4125773906707764,4.298175020808838,-0.7147171497344971,-0.00569545105099678,-1.6517828146563929,-0.00016867011436261237,0.09826750308275223,0.818602979183197,-0.0,0.011640690267086029,0.7365003824234009,0.0,-0.23751500248908997
284.0,284.0,2.5567,0.2985,8.4353,-0.0531,-0.6568,-0.0683,-1.629049917260641,-0.11714255809783936,1.9753972291946411,-1.579128384590149,0.3273712694644928,2.5024404525756836,4.291337652797363,-0.6807065010070801,-0.0056352997198700905,-1.651839558278219,-0.00014875650231260806,0.09629858285188675,0.818571150302887,-0.0,0.010989544913172722,0.7365286350250244,0.0,-0.2654983699321747
261.0,275.0,4.6552,0.2758,8.6746,-0.0634,-0.576,-0.0951,-1.6301919422545375,-0.10805292427539825,2.0214552879333496,-1.5758057832717896,0.32823634147644043,2.4527456760406494,4.284890337581299,-0.6480993032455444,-0.001517213648185134,-1.651827637349264,-0.0001520447840448469,0.0869007408618927,0.8185592293739319,-0.0,-0.0011665700003504753,0.7365286350250244,0.0,-0.2478889673948288
261.0,275.0,4.6552,0.2758,8.6746,-0.0634,-0.576,-0.0951,-1.6311031780638636,-0.1047801673412323,1.9976170063018799,-1.5731946229934692,0.33121466636657715,2.475816249847412,4.279730482692383,-0.6210051774978638,0.00903094932436943,-1.6518595854388636,-0.00017970283806789666,0.0766739547252655,0.8185950517654419,-0.0,0.011097466573119164,0.7365283370018005,0.0,-0.2334722876548767
261.0,275.0,4.6552,0.2758,8.6746,-0.0634,-0.576,-0.0951,-1.6322957477965296,-0.1203133836388588,2.04002046585083,-1.5699881315231323,0.3171982765197754,2.4714298248291016,4.273535414333008,-0.5962690711021423,0.002489483915269375,-1.6518433729754847,-0.0001801839389372617,0.0821302980184555,0.818583071231842,-0.0,-0.004846986383199692,0.736564576625824,0.0005471160402521491,-0.18108928203582764
261.0,275.0,4.6552,0.2758,8.6746,-0.0634,-0.576,-0.0951,-1.633345743218893,-0.12698128819465637,2.0071117877960205,-1.5667691230773926,0.31890612840652466,2.435126304626465,4.267710371608398,-0.5787457227706909,0.008047807961702347,-1.651811424885885,-0.00015798353706486523,0.05299413949251175,0.8185752034187317,-0.0,0.006077107973396778,0.7365323901176453,0.0002662434708327055,-0.19717895984649658
261.0,275.0,4.6552,0.2758,8.6746,-0.0634,-0.576,-0.0951,-1.6343256435790003,-0.12184283137321472,2.05367374420166,-1.5641509294509888,0.3207024931907654,2.4171290397644043,4.263326330775879,-0.5445641875267029,0.0166450385004282,-1.6518238226519983,-0.00014358054613694549,0.06464828550815582,0.818587064743042,-0.0,0.004136667121201754,0.7365484237670898,7.046259270282462e-05,-0.20665320754051208
261.0,275.0,4.6552,0.2758,8.6746,-0.0634,-0.576,-0.0951,-1.635564466516012,-0.11370910704135895,2.0571041107177734,-1.560892105102539,0.32401761412620544,2.433459997177124,4.258065863246582,-0.5195574760437012,0.00546386931091547,-1.6517871061908167,-0.00014764202933292836,0.07216139882802963,0.8185672163963318,-0.0,0.016807494685053825,0.7365525364875793,0.00019649963360279799,-0.15165278315544128
261.0,275.0,4.6552,0.2758,8.6746,-0.0634,-0.576,-0.0951,-1.636731287042135,-0.11781343072652817,2.0301058292388916,-1.557666540145874,0.32156509160995483,2.435060501098633,4.253059073085449,-0.49242785573005676,0.009999895468354225,-1.6518109480487269,-0.00019982430967502296,0.053504057228565216,0.8185950517654419,-0.0,0.00027555832639336586,0.7365201115608215,0.001160473097115755,-0.21766215562820435
261.0,275.0,4.6552,0.2758,8.6746,-0.0634,-0.576,-0.0951,-1.63771452526235,-0.12448815256357193,2.052839517593384,-1.555094599723816,0.3115406036376953,2.432065486907959,4.249145670528076,-0.4792797863483429,0.028276808559894562,-1.651811424885885,-0.0001740652951411903,0.06366537511348724,0.8186306953430176,-0.0,0.000908274669200182,0.7365926504135132,0.001147926552221179,-0.19689056277275085
261.0,275.0,4.6552,0.2758,8.6746,-0.0634,-0.576,-0.0951,-1.638954301873678,-0.12709400057792664,2.0430984497070312,-1.551952838897705,0.3069171607494354,2.452744483947754,4.244388743037842,-0.46424156427383423,0.012839148752391338,-1.6518152395831507,-0.00017488663434050977,0.07200857996940613,0.8186509013175964,-0.0,-0.0009548747912049294,0.7366169095039368,0.0006559771718457341,-0.194499209523201
258.0,267.0,4.0505,0.7178,9.3416,-0.027,-0.2451,-0.1071,-1.6401049099364222,-0.12144914269447327,2.0708441734313965,-1.548905611038208,0.31147295236587524,2.411806583404541,4.239792509669922,-0.4419219493865967,0.034681834280490875,-1.651827637349264,-0.00015356999938376248,0.058418840169906616,0.8186306953430176,-0.0,0.0010600897949188948,0.7365764379501343,0.00015884553431533277,-0.1387641727924347
258.0,267.0,4.0505,0.7178,9.3416,-0.027,-0.2451,-0.1071,-1.6410042248167933,-0.11060153692960739,2.02341365814209,-1.5464580059051514,0.3106513023376465,2.4089407920837402,4.236373110408447,-0.42247718572616577,0.04137708991765976,-1.6518634001361292,-0.0001399259635945782,0.07211250811815262,0.8186386823654175,-0.0,0.006619676016271114,0.7365604639053345,0.00017607977497391403,-0.1304183453321457
258.0,267.0,4.0505,0.7178,9.3416,-0.027,-0.2451,-0.1071,-1.6422277889647425,-0.11963211745023727,2.0277092456817627,-1.5434284210205078,0.30688291788101196,2.463939905166626,4.232398195857666,-0.3891296684741974,0.06649595499038696,-1.651822868977682,-0.00014392560115084052,0.06086776405572891,0.8185632824897766,-0.0,-0.0033173924311995506,0.7366124987602234,0.0013429841492325068,-0.16001969575881958
258.0,267.0,4.0505,0.7178,9.3416,-0.027,-0.2451,-0.1071,-1.6434947452940882,-0.13337214291095734,2.029207706451416,-1.5404218435287476,0.2936643362045288,2.3701517581939697,4.228693171138428,-0.36597487330436707,0.058729056268930435,-1.6518109480487269,-0.00013085179671179503,0.06454547494649887,0.8185752034187317,-0.0,-0.0018054867396131158,0.736560046672821,0.001336931250989437,-0.14666512608528137
258.0,267.0,4.0505,0.7178,9.3416,-0.027,-0.2451,-0.1071,-1.6444374523558558,-0.1331794261932373,2.0110716819763184,-1.5380938053131104,0.2970026433467865,2.405734062194824,4.225855990047119,-0.3557931184768677,0.056755371391773224,-1.6518552939044397,-0.00012198393960716203,0.051097676157951355,0.8186109066009521,-0.0,0.021198883652687073,0.736556351184845,0.0006274928455241024,-0.13505148887634277
258.0,267.0,4.0505,0.7178,9.3416,-0.027,-0.2451,-0.1071,-1.6456886730589808,-0.12279532104730606,2.039523124694824,-1.5351626873016357,0.29467347264289856,2.394911527633667,4.222541971797607,-0.32372283935546875,0.08619552850723267,-1.6518109480487269,-0.00011245747737120837,0.061499591916799545,0.8185989856719971,-0.0,-0.0010947699192911386,0.7366045713424683,0.00022190777235664427,-0.21876290440559387
258.0,267.0,4.0505,0.7178,9.3416,-0.027,-0.2451,-0.1071,-1.6469761333861292,-0.1230667233467102,2.0004568099975586,-1.5322239398956299,0.2903250753879547,2.4210023880004883,4.219502611751221,-0.3037783205509186,0.08573725819587708,-1.6518715063678187,-0.00010431113332742825,0.07585613429546356,0.8185513615608215,-0.0,0.0004092799499630928,0.7366125583648682,0.00012591778067871928,-0.1909114420413971
