ramyac6/ROB537/final_project/csv/good/good_197.csv
tof_0,tof_1,accelx,accely,accelz,gyrox,gyroy,gyroz,shoulder_lift_joint_position,shoulder_lift_joint_velocity,shoulder_lift_joint_effort,elbow_joint_position,elbow_joint_velocity,elbow_joint_effort,wrist_1_joint_position,wrist_1_joint_velocity,wrist_1_joint_effort,wrist_2_joint_position,wrist_2_joint_velocity,wrist_2_joint_effort,wrist_3_joint_position,wrist_3_joint_velocity,wrist_3_joint_effort,shoulder_pan_joint_position,shoulder_pan_joint_velocity,shoulder_pan_joint_effort
1025.0,1062.0,-1.7025,0.2901,9.5306,-0.0292,0.0286,-0.1158,-1.953965803185934,0.0,2.916527271270752,-2.161709785461426,-0.0,1.313136339187622,5.771037804871359,0.0,0.25854408740997314,-1.5971019903766077,-0.0,0.0008914992213249207,0.8781170845031738,0.0,-0.012193466536700726,0.7918329834938049,0.0,-0.017322219908237457
1025.0,1062.0,-1.7025,0.2901,9.5306,-0.0292,0.0286,-0.1158,-1.9540025196471156,0.0,2.8972182273864746,-2.161773681640625,-0.0,1.3463134765625,5.771029937058248,0.0,0.26521357893943787,-1.5971134344684046,-0.0,-0.0013861905317753553,0.8781577348709106,0.0,0.01298731379210949,0.7918050289154053,0.0,0.021143054589629173
1025.0,1062.0,-1.7025,0.2901,9.5306,-0.0292,0.0286,-0.1158,-1.9539905987181605,0.0,2.882761001586914,-2.1617374420166016,-0.0,1.3389368057250977,5.770990478783407,0.0,0.26348018646240234,-1.5970657507525843,-0.0,-0.007263102103024721,0.8781492114067078,0.0,0.0027134199626743793,0.7918249368667603,0.0,-0.00020970124751329422
1025.0,1062.0,-1.7025,0.2901,9.5306,-0.0292,0.0286,-0.1158,-1.9539739094176234,0.0,2.93697452545166,-2.1617777347564697,-0.0,1.316240668296814,5.771033513336935,0.0,0.25782686471939087,-1.5971177260028284,-0.0,0.0015238681808114052,0.878096878528595,0.0,0.002898803213611245,0.7918449640274048,0.0,-0.03324573114514351
1025.0,1062.0,-1.7025,0.2901,9.5306,-0.0292,0.0286,-0.1158,-1.9539739094176234,0.0,2.973093032836914,-2.161733388900757,-0.0,1.3118797540664673,5.771086442261495,0.0,0.2816368639469147,-1.5971134344684046,-0.0,-0.010878515429794788,0.8780772686004639,0.0,-0.002758215880021453,0.7918770909309387,0.0,0.01871054247021675
1025.0,1062.0,-1.7025,0.2901,9.5306,-0.0292,0.0286,-0.1158,-1.9539982281126917,0.0,2.914910316467285,-2.1616973876953125,-0.0,1.3293001651763916,5.77109049537734,0.0,0.2509433329105377,-1.5971301237689417,-0.0,-0.013736091554164886,0.8781330585479736,0.0,0.0019399493467062712,0.7918369770050049,0.0,0.02327951416373253
1044.0,1052.0,-1.6714,0.2776,9.5043,-0.0385,0.0238,-0.1251,-1.95396151165151,0.0,2.926347494125366,-2.1616857051849365,-0.0,1.2647901773452759,5.7710537789161584,0.0,0.2642548084259033,-1.597070042287008,-0.0,-0.003494181437417865,0.8781536817550659,0.0,0.007534854579716921,0.791828989982605,0.0,-0.022602275013923645
1044.0,1052.0,-1.6714,0.2776,9.5043,-0.0385,0.0238,-0.1251,-1.9540420971312464,0.0,2.9272451400756836,-2.1617252826690674,-0.0,1.3019986152648926,5.771045911103048,0.0,0.25492313504219055,-1.5970976988421839,-0.0,0.00140425655990839,0.8781370520591736,0.0,-0.003946379758417606,0.7918649315834045,0.0,-0.00676664849743247
1044.0,1052.0,-1.6714,0.2776,9.5043,-0.0385,0.0238,-0.1251,-1.9539858303465785,0.0,2.9306297302246094,-2.16172194480896,-0.0,1.336618185043335,5.771025883942404,0.0,0.2582285702228546,-1.5971220175372522,-0.0,-0.020794913172721863,0.8781371116638184,0.0,0.004742477089166641,0.7918409705162048,0.0,-0.05187782645225525
1044.0,1052.0,-1.6714,0.2776,9.5043,-0.0385,0.0238,-0.1251,-1.9539581737914027,0.0,2.9255194664001465,-2.161785840988159,-0.0,1.2881851196289062,5.771045911103048,0.0,0.2629969120025635,-1.5971058050738733,-0.0,-0.014549480751156807,0.8781251907348633,0.0,-0.0009733135811984539,0.7918169498443604,0.0,-0.022298239171504974
1044.0,1052.0,-1.6714,0.2776,9.5043,-0.0385,0.0238,-0.1251,-1.9539944134154261,0.0,2.898646354675293,-2.161749839782715,-0.0,1.3491325378417969,5.771041857987203,0.0,0.25993385910987854,-1.597081486378805,-0.0,0.006090932060033083,0.8781211376190186,0.0,-0.005296666640788317,0.7918209433555603,0.0,-0.03745642304420471
1044.0,1052.0,-1.6714,0.2776,9.5043,-0.0385,0.0238,-0.1251,-1.9539739094176234,0.0,2.9288578033447266,-2.161757469177246,-0.0,1.2956246137619019,5.771094548493185,0.0,0.2721593976020813,-1.5971463362323206,-0.0,-0.005680855363607407,0.8781251907348633,0.0,0.005133540835231543,0.7918249368667603,0.0,0.06315013021230698
1044.0,1052.0,-1.6714,0.2776,9.5043,-0.0385,0.0238,-0.1251,-1.9539457760252894,0.0,2.9093122482299805,-2.161769390106201,-0.0,1.307039499282837,5.7710537789161584,0.0,0.2621834874153137,-1.5971220175372522,-0.0,-0.01244780607521534,0.8781411051750183,0.0,-0.007279825396835804,0.7918128371238708,0.0,0.03062446042895317
1044.0,1052.0,-1.6714,0.2776,9.5043,-0.0385,0.0238,-0.1251,-1.9540301762022914,0.0,2.926901340484619,-2.1617212295532227,-0.0,1.2749271392822266,5.7709624646003626,0.0,0.26185792684555054,-1.597081486378805,-0.0,0.011007968336343765,0.8780969381332397,0.0,-0.0032049191650003195,0.7918490171432495,0.0,0.024740785360336304
1044.0,1052.0,-1.6714,0.2776,9.5043,-0.0385,0.0238,-0.1251,-1.9539576969542445,0.0,2.9072678089141846,-2.1617417335510254,-0.0,1.2752254009246826,5.7710057375724695,0.0,0.2599446177482605,-1.5970938841449183,-0.0,-0.00485879834741354,0.8781170845031738,0.0,0.0012808528263121843,0.7917929887771606,0.0,0.026147793978452682
1044.0,1052.0,-1.6714,0.2776,9.5043,-0.0385,0.0238,-0.1251,-1.9540020428099574,0.0,2.9058446884155273,-2.1617531776428223,-0.0,1.351917028427124,5.771029937058248,0.0,0.2612479627132416,-1.5970576445208948,-0.0,-0.004411687143146992,0.8781532049179077,0.0,-0.006576279178261757,0.7918169498443604,0.0,-0.009452181868255138
1044.0,1052.0,-1.6714,0.2776,9.5043,-0.0385,0.0238,-0.1251,-1.9540263615050257,0.0,2.962555408477783,-2.161733388900757,-0.0,1.2831504344940186,5.77104543426589,0.0,0.2625606656074524,-1.5971177260028284,-0.0,-0.012565052136778831,0.8780972957611084,0.0,0.0029011599253863096,0.7917970418930054,0.0,0.0015851218486204743
1044.0,1052.0,-1.6714,0.2776,9.5043,-0.0385,0.0238,-0.1251,-1.9539982281126917,0.0,2.9283533096313477,-2.1617612838745117,-0.0,1.2842016220092773,5.771078574448385,0.0,0.26102033257484436,-1.5971182028399866,-0.0,0.0017213347600772977,0.8781170845031738,0.0,0.01169525645673275,0.7918810248374939,0.0,-0.0001601607073098421
1028.0,8190.0,-1.6648,0.2608,9.551,-0.0412,0.0273,-0.1251,-1.9540020428099574,0.0,2.9107656478881836,-2.161729335784912,-0.0,1.2965351343154907,5.771037804871359,0.0,0.2657787799835205,-1.5971134344684046,-0.0,-0.004319646395742893,0.8781172633171082,0.0,0.010197325609624386,0.7918490171432495,0.0,-0.04343404620885849
1028.0,8190.0,-1.6648,0.2608,9.551,-0.0412,0.0273,-0.1251,-1.953982492486471,0.0,2.9005837440490723,-2.161716938018799,-0.0,1.294815182685852,5.771037804871359,0.0,0.2628457546234131,-1.5970895926104944,-0.0,-0.014770839363336563,0.8781170845031738,0.0,0.009747613221406937,0.7918169498443604,0.0,-0.0470128208398819
1028.0,8190.0,-1.6648,0.2608,9.551,-0.0412,0.0273,-0.1251,-1.9540182552733363,0.0,2.9567439556121826,-2.1617417335510254,-0.0,1.2816758155822754,5.771021830826559,0.0,0.2626717984676361,-1.5971625486956995,-0.0,-0.015033243224024773,0.8780892491340637,0.0,0.007845512591302395,0.7918090224266052,0.0,-0.004202242475003004
1028.0,8190.0,-1.6648,0.2608,9.551,-0.0412,0.0273,-0.1251,-1.9539576969542445,0.0,2.9286093711853027,-2.161677837371826,-0.0,1.3034775257110596,5.771029937058248,0.0,0.27092331647872925,-1.5971301237689417,-0.0,-0.002023029839619994,0.8780813217163086,0.0,-0.0030796010978519917,0.7918169498443604,0.0,0.02569982036948204
1028.0,8190.0,-1.6648,0.2608,9.551,-0.0412,0.0273,-0.1251,-1.9539576969542445,0.0,2.9439706802368164,-2.1617376804351807,-0.0,1.3310527801513672,5.771057832032003,0.0,0.27065566182136536,-1.597081486378805,-0.0,-0.001025030156597495,0.8780732750892639,0.0,-0.0017528439639136195,0.7918128967285156,0.0,-0.04231284558773041
1028.0,8190.0,-1.6648,0.2608,9.551,-0.0412,0.0273,-0.1251,-1.953949590722555,0.0,2.914184093475342,-2.161729335784912,-0.0,1.2812917232513428,5.771102535515585,0.0,0.2710196077823639,-1.5971019903766077,-0.0,-0.01008270401507616,0.8781657814979553,0.0,0.009727714583277702,0.7918211221694946,0.0,0.042639732360839844
1028.0,8190.0,-1.6648,0.2608,9.551,-0.0412,0.0273,-0.1251,-1.9539901218810023,0.0,2.9439666271209717,-2.161709785461426,-0.0,1.3318381309509277,5.7710537789161584,0.0,0.26061996817588806,-1.5970857779132288,-0.0,-0.012238116934895515,0.8781092166900635,0.0,-0.012163923121988773,0.7918289303779602,0.0,-0.014904902316629887
1028.0,8190.0,-1.6648,0.2608,9.551,-0.0412,0.0273,-0.1251,-1.953982492486471,0.0,2.9217381477355957,-2.1617178916931152,-0.0,1.2900609970092773,5.771041857987203,0.0,0.27414923906326294,-1.5970738569842737,-0.0,-0.010581220500171185,0.8780533075332642,0.0,0.002971416339278221,0.7918449640274048,0.0,-0.015771908685564995
1028.0,8190.0,-1.6648,0.2608,9.551,-0.0412,0.0273,-0.1251,-1.9539457760252894,0.0,2.9719903469085693,-2.1617376804351807,-0.0,1.3089827299118042,5.771025883942404,0.0,0.25827163457870483,-1.5970938841449183,-0.0,-0.01247541606426239,0.8781450986862183,0.0,0.003409577300772071,0.7918369770050049,0.0,-0.025463491678237915
1028.0,8190.0,-1.6648,0.2608,9.551,-0.0412,0.0273,-0.1251,-1.953982492486471,0.0,2.945136308670044,-2.161717176437378,-0.0,1.3376758098602295,5.7710139630134485,0.0,0.2648097276687622,-1.597109619771139,-0.0,0.004728236701339483,0.8780654072761536,0.0,-0.004440752323716879,0.7918528914451599,0.0,0.00435681315138936
1028.0,8190.0,-1.6648,0.2608,9.551,-0.0412,0.0273,-0.1251,-1.95396151165151,0.0,2.9170329570770264,-2.161773920059204,-0.0,1.2989404201507568,5.771025883942404,0.0,0.25545716285705566,-1.5971301237689417,-0.0,-0.0016411729156970978,0.8780892491340637,0.0,0.008179440163075924,0.7918369770050049,0.0,-0.002391028217971325
1028.0,8190.0,-1.6648,0.2608,9.551,-0.0412,0.0273,-0.1251,-1.9539739094176234,0.0,2.950896739959717,-2.1617820262908936,-0.0,1.3314729928970337,5.771033513336935,0.0,0.26471102237701416,-1.5971019903766077,-0.0,-0.015645455569028854,0.878169596195221,0.0,0.0005184088950045407,0.7918528914451599,0.0,0.015231393277645111
1067.0,1055.0,-1.6816,0.2764,9.5737,-0.0718,0.0247,-0.1165,-1.95396151165151,0.0,2.929213047027588,-2.161749839782715,-0.0,1.337270975112915,5.771094548493185,0.0,0.260453462600708,-1.597121540700094,-0.0,-0.003596159629523754,0.8781129717826843,0.0,6.501300958916545e-05,0.7918651103973389,0.0,0.0048734163865447044
1067.0,1055.0,-1.6816,0.2764,9.5737,-0.0718,0.0247,-0.1165,-1.9540144405760707,0.0,2.9158265590667725,-2.1617612838745117,-0.0,1.2787621021270752,5.771082746773519,0.0,0.27177393436431885,-1.5970938841449183,-0.0,0.0029267175123095512,0.8781011700630188,0.0,0.0003921627067029476,0.791877031326294,0.0,-0.013980919495224953
1067.0,1055.0,-1.6816,0.2764,9.5737,-0.0718,0.0247,-0.1165,-1.9539414844908656,0.0,2.946930408477783,-2.161733388900757,-0.0,1.2956409454345703,5.771086442261495,0.0,0.26319625973701477,-1.5971177260028284,-0.0,-0.020589955151081085,0.8781092166900635,0.0,0.008870461024343967,0.7918449640274048,0.0,0.03335428237915039
1067.0,1055.0,-1.6816,0.2764,9.5737,-0.0718,0.0247,-0.1165,-1.9539576969542445,0.0,2.9089362621307373,-2.1617538928985596,-0.0,1.284566879272461,5.771025883942404,0.0,0.2499966025352478,-1.5970857779132288,-0.0,-0.008502253331243992,0.8780853748321533,0.0,-0.003532266477122903,0.7918209433555603,0.0,0.03704670071601868
1067.0,1055.0,-1.6816,0.2764,9.5737,-0.0718,0.0247,-0.1165,-1.9539905987181605,0.0,2.907029151916504,-2.1617014408111572,-0.0,1.3062896728515625,5.77102946022109,0.0,0.2657472491264343,-1.5971053282367151,-0.0,-0.011331068351864815,0.8780972957611084,0.0,0.005382332485169172,0.7918488383293152,0.0,0.08023468405008316
1067.0,1055.0,-1.6816,0.2764,9.5737,-0.0718,0.0247,-0.1165,-1.9539782009520472,0.0,2.938408851623535,-2.1617417335510254,-0.0,1.3010883331298828,5.771029937058248,0.0,0.26682260632514954,-1.597126309071676,-0.0,-0.0004274229286238551,0.8781211376190186,0.0,0.0024332706816494465,0.7918249368667603,0.0,-0.014214133843779564
1067.0,1055.0,-1.6816,0.2764,9.5737,-0.0718,0.0247,-0.1165,-1.9539944134154261,0.0,2.897606611251831,-2.161733388900757,-0.0,1.3624789714813232,5.771037924080648,0.0,0.2797037363052368,-1.5970895926104944,-0.0,-0.01699698343873024,0.8780694603919983,0.0,0.009305616840720177,0.7918129563331604,0.0,-0.012344812974333763
1067.0,1055.0,-1.6816,0.2764,9.5737,-0.0718,0.0247,-0.1165,-1.9539901218810023,0.0,2.9185431003570557,-2.1617252826690674,-0.0,1.3489816188812256,5.771029937058248,0.0,0.2594177722930908,-1.5971344153033655,-0.0,-0.012783193960785866,0.8781129717826843,0.0,0.007289562374353409,0.7918528914451599,0.0,0.022257152944803238
1067.0,1055.0,-1.6816,0.2764,9.5737,-0.0718,0.0247,-0.1165,-1.9539982281126917,0.0,2.9801411628723145,-2.161773681640625,-0.0,1.3332700729370117,5.77107452133254,0.0,0.26583433151245117,-1.5971463362323206,-0.0,-0.006479024421423674,0.8781291842460632,0.0,0.01143321581184864,0.7918691039085388,0.0,-0.030830560252070427
1067.0,1055.0,-1.6816,0.2764,9.5737,-0.0718,0.0247,-0.1165,-1.953949590722555,0.0,2.9237844944000244,-2.161681890487671,-0.0,1.3126837015151978,5.7710537789161584,0.0,0.2686944603919983,-1.5970976988421839,-0.0,-0.015247127041220665,0.8781450986862183,0.0,0.005145633593201637,0.7918409705162048,0.0,0.0013490610290318727
1067.0,1055.0,-1.6816,0.2764,9.5737,-0.0718,0.0247,-0.1165,-1.9539782009520472,0.0,2.936471462249756,-2.1617374420166016,-0.0,1.308506727218628,5.771033632546224,0.0,0.26266616582870483,-1.5971019903766077,-0.0,-0.0011431637685745955,0.8781132102012634,0.0,-0.00540494779124856,0.7918651103973389,0.0,0.03171520307660103
1067.0,1055.0,-1.6816,0.2764,9.5737,-0.0718,0.0247,-0.1165,-1.953965803185934,0.0,2.9275715351104736,-2.16174578666687,-0.0,1.2940330505371094,5.771070468216696,0.0,0.260453999042511,-1.597126309071676,-0.0,-0.006724120117723942,0.8780892491340637,0.0,0.004574530757963657,0.7918490171432495,0.0,-0.016341757029294968
1051.0,999.0,-1.6277,0.2644,9.4774,-0.0302,0.0212,-0.1145,-1.9539901218810023,0.0,2.9760334491729736,-2.1617417335510254,-0.0,1.3069064617156982,5.77101348617629,0.0,0.2655228078365326,-1.5970895926104944,-0.0,-0.007835455238819122,0.8781894445419312,0.0,-0.005815902724862099,0.7918528914451599,0.0,-0.008314156904816628
1051.0,999.0,-1.6277,0.2644,9.4774,-0.0302,0.0212,-0.1145,-1.9539534054198207,0.0,2.868515729904175,-2.16174578666687,-0.0,1.3061962127685547,5.771057832032003,0.0,0.2615525424480438,-1.5971220175372522,-0.0,-0.004780293442308903,0.8781092166900635,0.0,0.008200185373425484,0.7918489575386047,0.0,0.03877173736691475
1051.0,999.0,-1.6277,0.2644,9.4774,-0.0302,0.0212,-0.1145,-1.953982492486471,0.0,2.9179515838623047,-2.161729335784912,-0.0,1.3585309982299805,5.771057832032003,0.0,0.2602522373199463,-1.5970938841449183,-0.0,-0.007451293058693409,0.8780852556228638,0.0,-0.017897993326187134,0.7918369770050049,0.0,0.012722010724246502
1051.0,999.0,-1.6277,0.2644,9.4774,-0.0302,0.0212,-0.1145,-1.9539782009520472,0.0,2.9183645248413086,-2.1617374420166016,-0.0,1.2980198860168457,5.771029937058248,0.0,0.2647901177406311,-1.5970976988421839,-0.0,-0.00826413743197918,0.8781450986862183,0.0,-0.0011099744588136673,0.7918489575386047,0.0,-0.03255529701709747
1051.0,999.0,-1.6277,0.2644,9.4774,-0.0302,0.0212,-0.1145,-1.9539901218810023,0.0,2.949047565460205,-2.161749839782715,-0.0,1.3439967632293701,5.771078574448385,0.0,0.2644822299480438,-1.5970895926104944,-0.0,-0.0030373043846338987,0.8781211376190186,0.0,-0.003304276382550597,0.7918529510498047,0.0,0.025519486516714096
1051.0,999.0,-1.6277,0.2644,9.4774,-0.0302,0.0212,-0.1145,-1.953965803185934,0.0,2.9574103355407715,-2.161785125732422,-0.0,1.2875585556030273,5.7710057375724695,0.0,0.2609873116016388,-1.5970895926104944,-0.0,0.0013772668316960335,0.8780773878097534,0.0,-0.011227171868085861,0.7918449640274048,0.0,-0.007336227688938379
1051.0,999.0,-1.6277,0.2644,9.4774,-0.0302,0.0212,-0.1145,-1.9539457760252894,0.0,2.910219669342041,-2.161745071411133,-0.0,1.3508193492889404,5.771033513336935,0.0,0.275605708360672,-1.5970938841449183,-0.0,-0.010728896595537663,0.8781132102012634,0.0,0.005974113009870052,0.7918608784675598,0.0,-0.020183134824037552
1051.0,999.0,-1.6277,0.2644,9.4774,-0.0302,0.0212,-0.1145,-1.9539782009520472,0.0,2.923522472381592,-2.1617777347564697,-0.0,1.3437254428863525,5.771041857987203,0.0,0.25504252314567566,-1.5971019903766077,-0.0,-0.007722877897322178,0.8780933022499084,0.0,0.008800987154245377,0.7918169498443604,0.0,0.005956453271210194
1051.0,999.0,-1.6277,0.2644,9.4774,-0.0302,0.0212,-0.1145,-1.9540025196471156,0.0,2.9731454849243164,-2.1617014408111572,-0.0,1.3128626346588135,5.771041857987203,0.0,0.26756131649017334,-1.5970733801471155,-0.0,-0.011076425202190876,0.8780614137649536,0.0,0.00884900614619255,0.7918169498443604,0.0,0.005186508409678936
1051.0,999.0,-1.6277,0.2644,9.4774,-0.0302,0.0212,-0.1145,-1.9539901218810023,0.0,2.897937774658203,-2.1617531776428223,-0.0,1.2886931896209717,5.771049964218893,0.0,0.26391929388046265,-1.5970733801471155,-0.0,-0.010324949398636818,0.8780972957611084,0.0,-0.00531497597694397,0.7918249368667603,0.0,0.012289964593946934
1051.0,999.0,-1.6277,0.2644,9.4774,-0.0302,0.0212,-0.1145,-1.9540068111815394,0.0,2.940455436706543,-2.16172194480896,-0.0,1.3222037553787231,5.7710537789161584,0.0,0.26291778683662415,-1.597109619771139,-0.0,-0.004644413478672504,0.8781251311302185,0.0,-0.007810042705386877,0.7918369770050049,0.0,-0.023431014269590378
1058.0,1055.0,-1.657,0.28,9.5348,-0.0307,0.026,-0.1196,-1.9539982281126917,0.0,2.9453978538513184,-2.1617376804351807,-0.0,1.3313519954681396,5.7710139630134485,0.0,0.27627360820770264,-1.5970895926104944,-0.0,0.0012029591016471386,0.8781129717826843,0.0,-0.005856798030436039,0.7918209433555603,0.0,0.0481138601899147
1058.0,1055.0,-1.657,0.28,9.5348,-0.0307,0.026,-0.1196,-1.953949590722555,0.0,2.950599431991577,-2.1617612838745117,-0.0,1.311272382736206,5.771001565247335,0.0,0.25652408599853516,-1.5971182028399866,-0.0,-0.010850559920072556,0.8781092166900635,0.0,0.012506194412708282,0.79184490442276,0.0,-0.01703292317688465
1058.0,1055.0,-1.657,0.28,9.5348,-0.0307,0.026,-0.1196,-1.9539982281126917,0.0,2.9424729347229004,-2.1617212295532227,-0.0,1.3235080242156982,5.771041857987203,0.0,0.269481897354126,-1.5971134344684046,-0.0,-0.007988085970282555,0.8781251311302185,0.0,-0.003222506493330002,0.7918170094490051,0.0,0.012163616716861725
1058.0,1055.0,-1.657,0.28,9.5348,-0.0307,0.026,-0.1196,-1.9539782009520472,0.0,2.8781089782714844,-2.1617252826690674,-0.0,1.2941927909851074,5.77101348617629,0.0,0.2768270969390869,-1.5970976988421839,-0.0,-0.009085243567824364,0.8781092166900635,0.0,-0.01516916137188673,0.7918409705162048,0.0,0.03300625830888748
1058.0,1055.0,-1.657,0.28,9.5348,-0.0307,0.026,-0.1196,-1.953965803185934,0.0,2.8976900577545166,-2.1617252826690674,-0.0,1.3445411920547485,5.77107452133254,0.0,0.2597118020057678,-1.5971134344684046,-0.0,-0.0033994780387729406,0.8781052231788635,0.0,-0.004409255459904671,0.7918369770050049,0.0,0.022366145625710487
1058.0,1055.0,-1.657,0.28,9.5348,-0.0307,0.026,-0.1196,-1.953949590722555,0.0,2.9362781047821045,-2.161733388900757,-0.0,1.335311770439148,5.771025407105245,0.0,0.2753269672393799,-1.5971220175372522,-0.0,-0.0025487211532890797,0.8781370520591736,0.0,0.005175604019314051,0.7918448448181152,0.0,0.020556550472974777
1058.0,1055.0,-1.657,0.28,9.5348,-0.0307,0.026,-0.1196,-1.9540344677367152,0.0,2.9373488426208496,-2.1617178916931152,-0.0,1.3067166805267334,5.771021830826559,0.0,0.2724950611591339,-1.5971134344684046,-0.0,-0.007829379290342331,0.8781536221504211,0.0,-0.005961207672953606,0.7918528914451599,0.0,0.003610835177823901
1058.0,1055.0,-1.657,0.28,9.5348,-0.0307,0.026,-0.1196,-1.9539739094176234,0.0,2.940103054046631,-2.1617653369903564,-0.0,1.2772165536880493,5.771094548493185,0.0,0.2633609473705292,-1.5970619360553187,-0.0,-0.011360392905771732,0.8780535459518433,0.0,-0.0008310340344905853,0.7918249368667603,0.0,-0.0068353391252458096
1058.0,1055.0,-1.657,0.28,9.5348,-0.0307,0.026,-0.1196,-1.9539858303465785,0.0,2.9477081298828125,-2.1617612838745117,-0.0,1.3564492464065552,5.7710537789161584,0.0,0.26495951414108276,-1.5970657507525843,-0.0,-0.006441987119615078,0.8780970573425293,0.0,-0.0008831103332340717,0.7918369770050049,0.0,0.022119203582406044
1058.0,1055.0,-1.657,0.28,9.5348,-0.0307,0.026,-0.1196,-1.9539901218810023,0.0,2.9345693588256836,-2.1616973876953125,-0.0,1.2966930866241455,5.77107452133254,0.0,0.27320992946624756,-1.5970776716815394,-0.0,0.0002847657888196409,0.8781330585479736,0.0,0.005232956260442734,0.7918608784675598,0.0,0.03164542466402054
1058.0,1055.0,-1.657,0.28,9.5348,-0.0307,0.026,-0.1196,-1.9539863071837367,0.0,2.9167985916137695,-2.1617252826690674,-0.0,1.3460689783096313,5.7710537789161584,0.0,0.2693493664264679,-1.5971053282367151,-0.0,-0.01603074185550213,0.8781576156616211,0.0,0.002096588257700205,0.7918369174003601,0.0,0.03748851642012596
1058.0,1055.0,-1.657,0.28,9.5348,-0.0307,0.026,-0.1196,-1.9539901218810023,0.0,2.9255895614624023,-2.1617612838745117,-0.0,1.3136043548583984,5.771061885147848,0.0,0.25874432921409607,-1.5970576445208948,-0.0,0.005516109988093376,0.8781411051750183,0.0,0.005511857569217682,0.7918329834938049,0.0,0.02270171232521534
1040.0,1051.0,-1.6433,0.265,9.4337,-0.0353,0.0263,-0.1193,-1.9539739094176234,0.0,2.9141054153442383,-2.161757230758667,-0.0,1.3225973844528198,5.77107452133254,0.0,0.2624087333679199,-1.5971058050738733,-0.0,-0.004317814018577337,0.8781496286392212,0.0,-0.007141728885471821,0.7918369770050049,0.0,-0.008393293246626854
1040.0,1051.0,-1.6433,0.265,9.4337,-0.0353,0.0263,-0.1193,-1.9539820156493128,0.0,2.969851016998291,-2.1617016792297363,-0.0,1.269727349281311,5.771037804871359,0.0,0.26944202184677124,-1.5970733801471155,-0.0,-0.01586247980594635,0.8781411051750183,0.0,-0.011700469069182873,0.7918409705162048,0.0,-0.022951187565922737
1040.0,1051.0,-1.6433,0.265,9.4337,-0.0353,0.0263,-0.1193,-1.9539944134154261,0.0,2.9560599327087402,-2.1617374420166016,-0.0,1.3493492603302002,5.771061885147848,0.0,0.26836881041526794,-1.5970738569842737,-0.0,-0.014109376817941666,0.8781052231788635,0.0,0.0037790541537106037,0.7918209433555603,0.0,0.017012331634759903
1040.0,1051.0,-1.6433,0.265,9.4337,-0.0353,0.0263,-0.1193,-1.9539534054198207,0.0,2.9548938274383545,-2.161729335784912,-0.0,1.33186674118042,5.7710986016090295,0.0,0.26576828956604004,-1.5971177260028284,-0.0,-0.00917014665901661,0.8780694007873535,0.0,-0.0011774050071835518,0.7918288707733154,0.0,-0.010816965252161026
1040.0,1051.0,-1.6433,0.265,9.4337,-0.0353,0.0263,-0.1193,-1.9539739094176234,0.0,2.9415059089660645,-2.1617212295532227,-0.0,1.3104523420333862,5.771078216820516,0.0,0.274393767118454,-1.5971177260028284,-0.0,-0.01144278421998024,0.8781171441078186,0.0,-0.014328117482364178,0.7918528914451599,0.0,0.026943061500787735
1040.0,1051.0,-1.6433,0.265,9.4337,-0.0353,0.0263,-0.1193,-1.9540144405760707,0.0,2.9016318321228027,-2.16174578666687,-0.0,1.2899342775344849,5.77104543426589,0.0,0.26305413246154785,-1.5970976988421839,-0.0,-0.006880823522806168,0.878141462802887,0.0,0.007592314854264259,0.7918409705162048,0.0,-0.0013000845210626721
1040.0,1051.0,-1.6433,0.265,9.4337,-0.0353,0.0263,-0.1193,-1.9539739094176234,0.0,2.919682502746582,-2.161689281463623,-0.0,1.332709550857544,5.771021830826559,0.0,0.26246315240859985,-1.5971058050738733,-0.0,-0.020212331786751747,0.8780811429023743,0.0,-0.008410455659031868,0.791824996471405,0.0,-0.008248540572822094
1040.0,1051.0,-1.6433,0.265,9.4337,-0.0353,0.0263,-0.1193,-1.953965803185934,0.0,2.9276533126831055,-2.1617252826690674,-0.0,1.3049602508544922,5.771041857987203,0.0,0.26262378692626953,-1.597081486378805,-0.0,0.0017819476779550314,0.8780933022499084,0.0,0.002108754590153694,0.7918810248374939,0.0,0.0010048402473330498
1040.0,1051.0,-1.6433,0.265,9.4337,-0.0353,0.0263,-0.1193,-1.9539782009520472,0.0,2.8962864875793457,-2.1617538928985596,-0.0,1.3136265277862549,5.771074402123251,0.0,0.26036590337753296,-1.5970976988421839,-0.0,-0.0051542469300329685,0.8781695365905762,0.0,-0.007722232025116682,0.79184889793396,0.0,0.025726553052663803
1040.0,1051.0,-1.6433,0.265,9.4337,-0.0353,0.0263,-0.1193,-1.9539782009520472,0.0,2.9513368606567383,-2.1617178916931152,-0.0,1.3445899486541748,5.771045911103048,0.0,0.2676351070404053,-1.5970976988421839,-0.0,-0.0026485638227313757,0.8780853748321533,0.0,-0.004529329016804695,0.7918849587440491,0.0,-0.027139559388160706
1040.0,1051.0,-1.6433,0.265,9.4337,-0.0353,0.0263,-0.1193,-1.9539944134154261,0.0,2.947512626647949,-2.161729335784912,-0.0,1.3036623001098633,5.771037804871359,0.0,0.25022274255752563,-1.5970733801471155,-0.0,-0.013967541977763176,0.8781052231788635,0.0,0.0012431126087903976,0.7917889952659607,0.0,-0.004247634671628475
1040.0,1051.0,-1.6433,0.265,9.4337,-0.0353,0.0263,-0.1193,-1.953982492486471,0.0,2.914283275604248,-2.1616973876953125,-0.0,1.2580301761627197,5.770994412689962,0.0,0.2704315781593323,-1.597081486378805,-0.0,-0.012433858588337898,0.8780933022499084,0.0,-0.006832140497863293,0.7918610572814941,0.0,-0.038686975836753845
8190.0,1027.0,-1.6516,0.2614,9.5797,-0.04,0.0267,-0.1249,-1.95396151165151,0.0,2.8835628032684326,-2.1617417335510254,-0.0,1.3414630889892578,5.771021830826559,0.0,0.26027947664260864,-1.597081486378805,-0.0,-0.007322077639400959,0.8780415654182434,0.0,-0.011574960313737392,0.791873037815094,0.0,0.02679179608821869
8190.0,1027.0,-1.6516,0.2614,9.5797,-0.04,0.0267,-0.1249,-1.953949590722555,0.0,2.9203667640686035,-2.1617252826690674,-0.0,1.3141456842422485,5.7710821507270715,0.0,0.25552642345428467,-1.5971019903766077,-0.0,-0.012378646060824394,0.8781694769859314,0.0,0.0027043865993618965,0.7918849587440491,0.0,-0.008741922676563263
8190.0,1027.0,-1.6516,0.2614,9.5797,-0.04,0.0267,-0.1249,-1.9539457760252894,0.0,2.9405746459960938,-2.1617612838745117,-0.0,1.3007384538650513,5.771021830826559,0.0,0.26581645011901855,-1.5970976988421839,-0.0,-0.014212904497981071,0.8781530261039734,0.0,-0.0019162371754646301,0.7918449640274048,0.0,0.00621450413018465
8190.0,1027.0,-1.6516,0.2614,9.5797,-0.04,0.0267,-0.1249,-1.9539739094176234,0.0,2.9788808822631836,-2.1617696285247803,-0.0,1.3363256454467773,5.771061885147848,0.0,0.26091617345809937,-1.597121540700094,-0.0,-0.014125281013548374,0.8781934380531311,0.0,-0.006471741013228893,0.7918449640274048,0.0,-0.024674832820892334
8190.0,1027.0,-1.6516,0.2614,9.5797,-0.04,0.0267,-0.1249,-1.9539176426329554,0.0,2.91981840133667,-2.16174578666687,-0.0,1.3030431270599365,5.771025883942404,0.0,0.2557176351547241,-1.5970376173602503,-0.0,-0.008124446496367455,0.8781330585479736,0.0,0.016612263396382332,0.7918209433555603,0.0,-0.008766699582338333
8190.0,1027.0,-1.6516,0.2614,9.5797,-0.04,0.0267,-0.1249,-1.9539782009520472,0.0,2.913483142852783,-2.1617178916931152,-0.0,1.3007333278656006,5.7710537789161584,0.0,0.271210640668869,-1.5970857779132288,-0.0,-0.012379942461848259,0.8780933022499084,0.0,0.007459728978574276,0.7918369770050049,0.0,0.014820102602243423
8190.0,1027.0,-1.6516,0.2614,9.5797,-0.04,0.0267,-0.1249,-1.95396151165151,0.0,2.953011989593506,-2.1617531776428223,-0.0,1.3113552331924438,5.771041857987203,0.0,0.264411062002182,-1.5970895926104944,-0.0,-0.007560901343822479,0.8781410455703735,0.0,0.0031785329338163137,0.7918168902397156,0.0,-0.025558127090334892
8190.0,1027.0,-1.6516,0.2614,9.5797,-0.04,0.0267,-0.1249,-1.953982492486471,0.0,2.948643684387207,-2.161684989929199,-0.0,1.2812998294830322,5.771057832032003,0.0,0.26465916633605957,-1.5971177260028284,-0.0,-0.011166534386575222,0.8781496286392212,0.0,0.008426137268543243,0.791877031326294,0.0,-0.026086676865816116
8190.0,1027.0,-1.6516,0.2614,9.5797,-0.04,0.0267,-0.1249,-1.9539576969542445,0.0,2.9311487674713135,-2.161729335784912,-0.0,1.3295789957046509,5.77107452133254,0.0,0.2728358209133148,-1.5970776716815394,-0.0,-0.013118904083967209,0.8781251311302185,0.0,0.004033484496176243,0.7918010354042053,0.0,0.02332286164164543
8190.0,1027.0,-1.6516,0.2614,9.5797,-0.04,0.0267,-0.1249,-1.9539944134154261,0.0,2.9681801795959473,-2.161729335784912,-0.0,1.280961036682129,5.771049487381735,0.0,0.2597090005874634,-1.5971134344684046,-0.0,-0.017685579136013985,0.8781654834747314,0.0,-0.004583974834531546,0.7918249368667603,0.0,-0.0022652288898825645
8190.0,1027.0,-1.6516,0.2614,9.5797,-0.04,0.0267,-0.1249,-1.9539982281126917,0.0,2.9865260124206543,-2.16174578666687,-0.0,1.3253052234649658,5.771041857987203,0.0,0.27419281005859375,-1.5970776716815394,-0.0,-0.017807550728321075,0.8781052231788635,0.0,0.0007403496420010924,0.7918169498443604,0.0,-0.04692897945642471
8190.0,1027.0,-1.6516,0.2614,9.5797,-0.04,0.0267,-0.1249,-1.9539863071837367,0.0,2.9752273559570312,-2.1617531776428223,-0.0,1.3279223442077637,5.771066176682272,0.0,0.2604581415653229,-1.5970938841449183,-0.0,-0.017239507287740707,0.8781370520591736,0.0,-0.00016745174070820212,0.7918528318405151,0.0,0.030893662944436073
1022.0,1021.0,-1.7994,0.2662,9.5689,-0.0388,0.0255,-0.1234,-1.9539905987181605,0.0,2.893843173980713,-2.161709785461426,-0.0,1.3516783714294434,5.771021830826559,0.0,0.2786811590194702,-1.5970976988421839,-0.0,-0.007370049133896828,0.8781130313873291,0.0,-0.0015535803977400064,0.7918170094490051,0.0,0.014855427667498589
1022.0,1021.0,-1.7994,0.2662,9.5689,-0.0388,0.0255,-0.1234,-1.9539982281126917,0.0,2.9111886024475098,-2.1617777347564697,-0.0,1.3397843837738037,5.771041500359335,0.0,0.2609935998916626,-1.5970895926104944,-0.0,0.0015975052956491709,0.8781370520591736,0.0,0.004149928689002991,0.7918409705162048,0.0,0.042893026024103165
1022.0,1021.0,-1.7994,0.2662,9.5689,-0.0388,0.0255,-0.1234,-1.9539944134154261,0.0,2.914046049118042,-2.1617252826690674,-0.0,1.2967948913574219,5.771018016129293,0.0,0.276703417301178,-1.597126309071676,-0.0,-0.02319824881851673,0.8781574964523315,0.0,0.0015710091684013605,0.7918169498443604,0.0,-0.011994476430118084
1022.0,1021.0,-1.7994,0.2662,9.5689,-0.0388,0.0255,-0.1234,-1.9539700947203578,0.0,2.898667812347412,-2.16174578666687,-0.0,1.3180158138275146,5.771066176682272,0.0,0.26644861698150635,-1.5971015135394495,-0.0,-0.0036136822309345007,0.878141462802887,0.0,-0.0022948074620217085,0.7918489575386047,0.0,0.01359090767800808
1022.0,1021.0,-1.7994,0.2662,9.5689,-0.0388,0.0255,-0.1234,-1.953949590722555,0.0,2.918762683868408,-2.1617376804351807,-0.0,1.330533742904663,5.771029937058248,0.0,0.26124107837677,-1.5970619360553187,-0.0,-0.0152056235820055,0.8780893087387085,0.0,-0.003946944139897823,0.7918209433555603,0.0,-0.015708018094301224
1022.0,1021.0,-1.7994,0.2662,9.5689,-0.0388,0.0255,-0.1234,-1.9539619884886683,0.0,2.948286533355713,-2.161745548248291,-0.0,1.3245893716812134,5.7710139630134485,0.0,0.2701185643672943,-1.5970776716815394,-0.0,-0.019954005256295204,0.8781330585479736,0.0,-0.005840129218995571,0.7918329834938049,0.0,0.0011898200027644634
1022.0,1021.0,-1.7994,0.2662,9.5689,-0.0388,0.0255,-0.1234,-1.9539376697936,0.0,2.910517692565918,-2.161745071411133,-0.0,1.2981501817703247,5.771049606591024,0.0,0.25384753942489624,-1.597126309071676,-0.0,-0.00629554595798254,0.8781012892723083,0.0,0.013200451619923115,0.7918208837509155,0.0,-0.0027485601603984833
1022.0,1021.0,-1.7994,0.2662,9.5689,-0.0388,0.0255,-0.1234,-1.9540344677367152,0.0,2.9412450790405273,-2.1617417335510254,-0.0,1.2853772640228271,5.77107452133254,0.0,0.262281209230423,-1.597109619771139,-0.0,0.0010783132165670395,0.8780933022499084,0.0,0.008537225425243378,0.791828989982605,0.0,-0.00392756424844265
1022.0,1021.0,-1.7994,0.2662,9.5689,-0.0388,0.0255,-0.1234,-1.953982492486471,0.0,2.904414176940918,-2.16174578666687,-0.0,1.2812395095825195,5.771110522537985,0.0,0.27029526233673096,-1.5970895926104944,-0.0,-0.0025481516495347023,0.8781370520591736,0.0,0.0034513515420258045,0.7918289303779602,0.0,0.013113189488649368
1022.0,1021.0,-1.7994,0.2662,9.5689,-0.0388,0.0255,-0.1234,-1.9539333782591761,0.0,2.908236026763916,-2.1617212295532227,-0.0,1.3112550973892212,5.771066176682272,0.0,0.2690577805042267,-1.597109619771139,-0.0,-0.007400505244731903,0.8781171441078186,0.0,-0.0014063165290281177,0.7918691039085388,0.0,-0.0013480298221111298
1022.0,1021.0,-1.7994,0.2662,9.5689,-0.0388,0.0255,-0.1234,-1.953982492486471,0.0,2.901826858520508,-2.1617014408111572,-0.0,1.2919697761535645,5.77101360538558,0.0,0.27771615982055664,-1.5970538298236292,-0.0,-0.0017392018344253302,0.8780972957611084,0.0,-0.002335652941837907,0.7918448448181152,0.0,-0.006267411634325981
1022.0,1021.0,-1.7994,0.2662,9.5689,-0.0388,0.0255,-0.1234,-1.953965803185934,0.0,2.8792502880096436,-2.161757469177246,-0.0,1.3393752574920654,5.771002757340231,0.0,0.2569032311439514,-1.597121540700094,-0.0,-0.004649247974157333,0.8781535625457764,0.0,0.006521093659102917,0.7918528318405151,0.0,-0.0153830386698246
1063.0,8190.0,-1.7683,0.2447,9.545,-0.0353,0.031,-0.1232,-1.9539700947203578,0.0,2.9341444969177246,-2.161749839782715,-0.0,1.3242992162704468,5.771049964218893,0.0,0.2632428705692291,-1.5971177260028284,-0.0,-0.014895410276949406,0.8780893683433533,0.0,-0.0003430445212870836,0.7918409705162048,0.0,0.03394753858447075
1063.0,8190.0,-1.7683,0.2447,9.545,-0.0353,0.031,-0.1232,-1.9539538822569789,0.0,2.9524874687194824,-2.161705493927002,-0.0,1.3372327089309692,5.771053898125448,0.0,0.2651600241661072,-1.5971220175372522,-0.0,0.00404269527643919,0.8780931830406189,0.0,0.008482575416564941,0.7918528318405151,0.0,-0.01916680298745632
1063.0,8190.0,-1.7683,0.2447,9.545,-0.0353,0.031,-0.1232,-1.9539863071837367,0.0,2.943021297454834,-2.1617417335510254,-0.0,1.29087495803833,5.771057832032003,0.0,0.2679302394390106,-1.5970819632159632,-0.0,-0.0017287509981542826,0.8781130313873291,0.0,0.006810695864260197,0.7918528914451599,0.0,-0.033305730670690536
1063.0,8190.0,-1.7683,0.2447,9.545,-0.0353,0.031,-0.1232,-1.9540025196471156,0.0,2.906393527984619,-2.161709785461426,-0.0,1.2961876392364502,5.771025883942404,0.0,0.26377159357070923,-1.5971177260028284,-0.0,-0.008831102401018143,0.8781289458274841,0.0,0.014593486674129963,0.7918568253517151,0.0,-0.034588586539030075
1063.0,8190.0,-1.7683,0.2447,9.545,-0.0353,0.031,-0.1232,-1.9539376697936,0.0,2.8995745182037354,-2.161729335784912,-0.0,1.381415605545044,5.771086323052206,0.0,0.2756023108959198,-1.5971015135394495,-0.0,-0.008153860457241535,0.8780971765518188,0.0,-0.009461491368710995,0.7918409705162048,0.0,-0.06651072204113007
1063.0,8190.0,-1.7683,0.2447,9.545,-0.0353,0.031,-0.1232,-1.9539982281126917,0.0,2.9035468101501465,-2.1616933345794678,-0.0,1.3200246095657349,5.771033990174093,0.0,0.2612878382205963,-1.5970819632159632,-0.0,-0.009084946475923061,0.8781495690345764,0.0,-0.0030480034183710814,0.7918090224266052,0.0,-0.039660289883613586
1063.0,8190.0,-1.7683,0.2447,9.545,-0.0353,0.031,-0.1232,-1.9539944134154261,0.0,2.8959689140319824,-2.161705493927002,-0.0,1.3372399806976318,5.771070349007406,0.0,0.26849302649497986,-1.5970938841449183,-0.0,0.007132531143724918,0.8781495690345764,0.0,-0.006495804060250521,0.7918769121170044,0.0,-0.005519549362361431
1063.0,8190.0,-1.7683,0.2447,9.545,-0.0353,0.031,-0.1232,-1.953949590722555,0.0,2.9524362087249756,-2.161684989929199,-0.0,1.3239686489105225,5.771033632546224,0.0,0.26520779728889465,-1.5971015135394495,-0.0,-0.01600060798227787,0.8781290650367737,0.0,-0.001155313104391098,0.7918769717216492,0.0,0.025375980883836746
1063.0,8190.0,-1.7683,0.2447,9.545,-0.0353,0.031,-0.1232,-1.9539700947203578,0.0,2.9404780864715576,-2.1617374420166016,-0.0,1.3253542184829712,5.7710455534751794,0.0,0.2566196918487549,-1.5971015135394495,-0.0,-0.00449683703482151,0.8781449794769287,0.0,0.006777581293135881,0.7918289303779602,0.0,0.0005546822212636471
1063.0,8190.0,-1.7683,0.2447,9.545,-0.0353,0.031,-0.1232,-1.9539414844908656,0.0,2.9282612800598145,-2.1617417335510254,-0.0,1.2989388704299927,5.771005856781759,0.0,0.273220419883728,-1.5971015135394495,-0.0,-0.003418808802962303,0.8781330585479736,0.0,-0.0008961609564721584,0.7918528318405151,0.0,-0.014017099514603615
1063.0,8190.0,-1.7683,0.2447,9.545,-0.0353,0.031,-0.1232,-1.9539419613280238,0.0,2.894448757171631,-2.161681652069092,-0.0,1.320327877998352,5.771009909897604,0.0,0.25618666410446167,-1.597109619771139,-0.0,-0.01485355943441391,0.8781654834747314,0.0,0.003080681199207902,0.7918170094490051,0.0,-0.026293350383639336
8190.0,8190.0,-1.9352,-0.1274,9.4481,-0.0548,0.0406,-0.1067,-1.9539782009520472,0.0,2.8910281658172607,-2.1617252826690674,-0.0,1.3169394731521606,5.771049964218893,0.0,0.2754500210285187,-1.597126309071676,-0.0,-0.0024585742503404617,0.8781211376190186,0.0,-0.00235500605776906,0.791892945766449,0.0,-0.008316272869706154
8190.0,8190.0,-1.9352,-0.1274,9.4481,-0.0548,0.0406,-0.1067,-1.953982492486471,0.0,2.939448833465576,-2.1617252826690674,-0.0,1.271117091178894,5.771025883942404,0.0,0.2529401481151581,-1.5971458593951624,-0.0,-0.02599257230758667,0.8781013488769531,0.0,-0.004596260376274586,0.79184889793396,0.0,0.008937239646911621
8190.0,8190.0,-1.9352,-0.1274,9.4481,-0.0548,0.0406,-0.1067,-1.9540025196471156,0.0,2.9705047607421875,-2.1617612838745117,-0.0,1.2987773418426514,5.771045911103048,0.0,0.26052528619766235,-1.5971301237689417,-0.0,-0.010899891145527363,0.8781131505966187,0.0,0.013566527515649796,0.7918328642845154,8.741496770880985e-08,-0.013850005343556404
8190.0,8190.0,-1.9352,-0.1274,9.4481,-0.0548,0.0406,-0.1067,-1.9539576969542445,0.0,2.899005651473999,-2.161709785461426,-0.0,1.3529026508331299,5.771001684456625,0.0,0.26322823762893677,-1.5971501509295862,-0.0,-0.014727535657584667,0.8780893683433533,0.0,0.0014475616626441479,0.7918448448181152,2.8321338567253215e-15,-0.04118536412715912
8190.0,8190.0,-1.9352,-0.1274,9.4481,-0.0548,0.0406,-0.1067,-1.9539782009520472,0.0,2.8769583702087402,-2.1617653369903564,-0.0,1.3333848714828491,5.771045911103048,0.0,0.2612205445766449,-1.5971100966082972,-0.0,-0.01585252210497856,0.8780773282051086,0.0,0.0007045615348033607,0.7918729782104492,0.00048234284622594714,0.0043923379853367805
8190.0,8190.0,-1.9352,-0.1274,9.4481,-0.0548,0.0406,-0.1067,-1.95396151165151,0.0,2.9207730293273926,-2.1617653369903564,-0.0,1.2720599174499512,5.770986306458273,0.0,0.2556091248989105,-1.5971182028399866,-0.0,0.008292663842439651,0.8781171441078186,0.0,-0.0005585892358794808,0.7918609380722046,0.0005896699149161577,0.011219044215977192
8190.0,8190.0,-1.9352,-0.1274,9.4481,-0.0548,0.0406,-0.1067,-1.9539739094176234,0.0,2.9378175735473633,-2.161684989929199,-0.0,1.3107366561889648,5.771041857987203,0.0,0.27678382396698,-1.5971339384662073,-0.0,0.002074118237942457,0.8781012892723083,0.0,0.00016081752255558968,0.7919290661811829,0.001758470432832837,-0.03331213444471359
8190.0,8190.0,-1.9352,-0.1274,9.4481,-0.0548,0.0406,-0.1067,-1.953965803185934,0.0,2.9519057273864746,-2.1617138385772705,-0.0,1.278313159942627,5.771025883942404,0.0,0.2620936930179596,-1.5971739927874964,-0.0,-0.0063821133226156235,0.8781653642654419,0.0,0.003598771058022976,0.7919529676437378,0.004273961763828993,0.005447020288556814
8190.0,8190.0,-1.9352,-0.1274,9.4481,-0.0548,0.0406,-0.1067,-1.9539581737914027,0.0,2.9095377922058105,-2.161665201187134,6.093019328545779e-05,1.3218567371368408,5.771037804871359,0.0,0.26139742136001587,-1.5971220175372522,-0.0,0.003302537137642503,0.8781613111495972,0.0,-0.013599866069853306,0.7919850945472717,0.009539922699332237,-0.0010315068066120148
8190.0,8190.0,-1.9352,-0.1274,9.4481,-0.0548,0.0406,-0.1067,-1.953965803185934,0.0,2.9501352310180664,-2.1617062091827393,0.0009298311197198927,1.312547206878662,5.771033632546224,0.0,0.2690277695655823,-1.5971220175372522,-0.0,-0.0033127828501164913,0.878073513507843,0.0,-2.3675383999943733e-05,0.7920411825180054,0.00904477946460247,-0.012410147115588188
8190.0,8190.0,-1.9352,-0.1274,9.4481,-0.0548,0.0406,-0.1067,-1.953949590722555,0.0,2.9840760231018066,-2.1616692543029785,0.00527564762160182,1.3379414081573486,5.7710139630134485,0.0,0.2637861371040344,-1.5971339384662073,-0.0,-0.004907248076051474,0.8781369924545288,0.0,0.0013125190744176507,0.792141318321228,0.009706584736704826,0.05130575969815254
8190.0,8190.0,-1.9352,-0.1274,9.4481,-0.0548,0.0406,-0.1067,-1.9540020428099574,0.0,2.965465545654297,-2.161574125289917,0.010361690074205399,1.3412532806396484,5.771033990174093,0.0,0.253532737493515,-1.597177807484762,-0.0,-0.004373396746814251,0.8781092166900635,0.0,-0.0029250821098685265,0.7922573089599609,0.012551997788250446,-0.006143681704998016
8190.0,1039.0,-1.4327,0.3846,9.4516,-0.0319,0.0765,-0.109,-1.954033990899557,0.0,2.959843635559082,-2.161466121673584,0.013072253204882145,1.3424937725067139,5.771021950035848,0.0,0.26667699217796326,-1.5971735159503382,-0.0,0.0006738814990967512,0.8781289458274841,0.0,-0.010237268172204494,0.7923855185508728,0.01329319179058075,0.04543299600481987
8190.0,1039.0,-1.4327,0.3846,9.4516,-0.0319,0.0765,-0.109,-1.953977724114889,0.0,2.990560531616211,-2.1613502502441406,0.01560676097869873,1.3228509426116943,5.771037924080648,0.0,0.2610621154308319,-1.597161595021383,-0.0,0.00031303081777878106,0.8780971765518188,0.0,0.0047098384238779545,0.7924653887748718,0.014243442565202713,0.014297401532530785
8190.0,1039.0,-1.4327,0.3846,9.4516,-0.0319,0.0765,-0.109,-1.954033990899557,0.0,2.9320068359375,-2.161226749420166,0.02170003019273281,1.3674242496490479,5.771041857987203,0.0,0.2687358558177948,-1.5971182028399866,-0.0,-0.004923168104141951,0.8781012892723083,0.0,0.0035597134847193956,0.7925655245780945,0.015731949359178543,0.022912554442882538
8190.0,1039.0,-1.4327,0.3846,9.4516,-0.0319,0.0765,-0.109,-1.9540215931334437,-0.00030653318390250206,2.9353184700012207,-2.1610071659088135,0.028504488989710808,1.285271406173706,5.771045911103048,0.0,0.2629256546497345,-1.5971339384662073,-0.0,0.008304418064653873,0.8781172037124634,0.0,0.009447244927287102,0.7927377223968506,0.018503649160265923,0.06246744468808174
8190.0,1039.0,-1.4327,0.3846,9.4516,-0.0319,0.0765,-0.109,-1.954045911828512,-0.00042342563392594457,2.9636220932006836,-2.160719394683838,0.03792066499590874,1.3518918752670288,5.771058428078451,0.0,0.26602187752723694,-1.5971697012530726,-0.0,-0.012693675234913826,0.8780933618545532,0.0,-0.005562984850257635,0.7929137945175171,0.020291155204176903,-0.00040162913501262665
8190.0,1039.0,-1.4327,0.3846,9.4516,-0.0319,0.0765,-0.109,-1.9540540180602015,-0.0007446252857334912,2.9557433128356934,-2.160449504852295,0.04696256294846535,1.368415355682373,5.770922291069784,0.0,0.25934910774230957,-1.597165886555807,-0.0,-0.015162814408540726,0.8781409859657288,0.0,-0.00257572322152555,0.7930859327316284,0.021901961416006088,0.014674210920929909
8190.0,1039.0,-1.4327,0.3846,9.4516,-0.0319,0.0765,-0.109,-1.9540497265257777,-0.000585960631724447,2.9304540157318115,-2.16001033782959,0.0547589510679245,1.380363941192627,5.7710187313850305,-0.0001078528439393267,0.2699512243270874,-1.597149674092428,-0.0,-0.006679624319076538,0.8781415224075317,0.0,0.009593118913471699,0.7932300567626953,0.019942916929721832,0.02017389051616192
8190.0,1039.0,-1.4327,0.3846,9.4516,-0.0319,0.0765,-0.109,-1.9540659389891566,-0.0004022732318844646,2.9214272499084473,-2.159520149230957,0.0603371225297451,1.3909261226654053,5.770986664086141,-9.979991591535509e-05,0.2670404314994812,-1.597165886555807,-0.0,-0.0035875155590474606,0.8781330585479736,0.0,0.016330955550074577,0.7933900952339172,0.016497105360031128,0.05872172489762306
8190.0,1039.0,-1.4327,0.3846,9.4516,-0.0319,0.0765,-0.109,-1.9541026554503382,-0.00038060644874349236,2.9305336475372314,-2.1591129302978516,0.06392072141170502,1.401977777481079,5.771037924080648,-0.00010983306856360286,0.26458320021629333,-1.5971015135394495,-0.0,-0.011392125859856606,0.8781574964523315,0.0,-5.500810220837593e-05,0.7934542298316956,0.014189506880939007,0.050811104476451874
8190.0,1039.0,-1.4327,0.3846,9.4516,-0.0319,0.0765,-0.109,-1.9540454349913539,-0.00029689830262213945,2.8926568031311035,-2.158557653427124,0.06560944765806198,1.4325662851333618,5.770994651108541,-0.00010366585047449917,0.2580723166465759,-1.5971053282367151,-0.0,-0.024547763168811798,0.8781654238700867,0.0,0.007305467501282692,0.7936424016952515,0.014157441444694996,0.02019762061536312
8190.0,1039.0,-1.4327,0.3846,9.4516,-0.0319,0.0765,-0.109,-1.9541222057738246,-0.0002433695481158793,2.9256834983825684,-2.158128261566162,0.06521705538034439,1.420759916305542,5.771033990174093,-0.0001123172914958559,0.24746522307395935,-1.597161595021383,-0.0,-0.0012496956624090672,0.8781249523162842,0.0,0.005400997586548328,0.7937303781509399,0.01281520165503025,0.042100321501493454
8190.0,1039.0,-1.4327,0.3846,9.4516,-0.0319,0.0765,-0.109,-1.9540940723814906,-0.00020619537099264562,2.887923002243042,-2.157512903213501,0.06323838979005814,1.4145243167877197,5.770958649903097,-0.0001178601523861289,0.25940996408462524,-1.5971539656268519,-0.0,-0.02776798978447914,0.8781130909919739,0.0,-0.013285106047987938,0.7938505411148071,0.012397504411637783,0.07682472467422485
1048.0,1060.0,-1.9729,-0.0269,9.3787,-0.0331,0.137,-0.0991,-1.9540497265257777,-0.00017887387366499752,2.9255282878875732,-2.157034158706665,0.0672450140118599,1.4584238529205322,5.7709905979926965,-0.00017972006753552705,0.247083842754364,-1.5971100966082972,-0.0,-0.025247562676668167,0.8781732320785522,0.0,0.0033878455869853497,0.793838620185852,0.01281600072979927,0.11667531728744507
1048.0,1060.0,-1.9729,-0.0269,9.3787,-0.0331,0.137,-0.0991,-1.9540702305235804,-0.00015794587670825422,2.9068171977996826,-2.1564786434173584,0.07068580389022827,1.5007860660552979,5.771010625153341,-0.00019047186651732773,0.242682546377182,-1.5971339384662073,-5.241427061264403e-05,-0.008196286857128143,0.8781171441078186,0.0,-0.0042908936738967896,0.7939786911010742,0.013911066576838493,0.08957250416278839
1048.0,1060.0,-1.9729,-0.0269,9.3787,-0.0331,0.137,-0.0991,-1.9540697536864222,-0.00016496902389917523,2.896170139312744,-2.1558520793914795,0.07610463351011276,1.4688024520874023,5.770986783295431,-0.00022234821517486125,0.24644647538661957,-1.597137753163473,-5.0092792662326247e-05,-0.04848254472017288,0.8780933022499084,0.0,0.002080510137602687,0.79417884349823,0.01548331044614315,0.11868499964475632
1048.0,1060.0,-1.9729,-0.0269,9.3787,-0.0331,0.137,-0.0991,-1.954074045220846,-0.00017066051077563316,2.930931568145752,-2.155212640762329,0.08730566501617432,1.4934210777282715,5.7709951279456995,-0.0003483053878881037,0.23252418637275696,-1.5971339384662073,-6.989984591143639e-09,-0.039142340421676636,0.8781534433364868,0.0,-0.0013067288091406226,0.7942909598350525,0.019174424931406975,0.1608293056488037
1048.0,1060.0,-1.9729,-0.0269,9.3787,-0.0331,0.137,-0.0991,-1.9540783367552699,-0.00011823879322037101,2.8825483322143555,-2.154665470123291,0.09485194832086563,1.475691556930542,5.7709340927894495,-0.0003894440014846623,0.2315615713596344,-1.5971301237689417,-1.945687317858602e-12,-0.05825918912887573,0.8781732320785522,0.0,0.010841704905033112,0.7944070100784302,0.021169621497392654,0.16725517809391022
1048.0,1060.0,-1.9729,-0.0269,9.3787,-0.0331,0.137,-0.0991,-1.9541102848448695,-0.0001283780875382945,2.939255952835083,-2.153822422027588,0.10528945922851562,1.5354468822479248,5.7709786770637415,-0.0003623870143201202,0.2368837296962738,-1.5971134344684046,-3.536190170347048e-17,-0.032592833042144775,0.8781852126121521,0.0,0.007536150515079498,0.7945870757102966,0.024049729108810425,0.18054775893688202
1048.0,1060.0,-1.9729,-0.0269,9.3787,-0.0331,0.137,-0.0991,-1.9541341267027796,-0.0004235009546391666,2.924534320831299,-2.1528432369232178,0.111920565366745,1.5297545194625854,5.770982730179586,-0.0003017190902028233,0.23056495189666748,-1.5971301237689417,-6.426851057013032e-22,-0.03157608583569527,0.8781930804252625,0.0,0.003199589904397726,0.7948112487792969,0.028431661427021027,0.2034742832183838
1048.0,1060.0,-1.9729,-0.0269,9.3787,-0.0331,0.137,-0.0991,-1.9540935955443324,-0.00037687757867388427,2.907963752746582,-2.1519737243652344,0.11685825884342194,1.482843279838562,5.770999181061544,-0.0002708961255848408,0.237738236784935,-1.5971539656268519,-1.1680484697308683e-26,-0.04211123287677765,0.8781375885009766,0.0,0.004219996742904186,0.7950875163078308,0.033719949424266815,0.1993316411972046
1048.0,1060.0,-1.9729,-0.0269,9.3787,-0.0331,0.137,-0.0991,-1.9541222057738246,-0.00029461472877301276,2.952894687652588,-2.1509792804718018,0.12372246384620667,1.6011431217193604,5.770999181061544,-0.00021830912737641484,0.22361122071743011,-1.5971539656268519,-2.1228701520341704e-31,-0.026768125593662262,0.878173291683197,0.0,0.0020858002826571465,0.7953436970710754,0.03766325116157532,0.19822239875793457
1048.0,1060.0,-1.9729,-0.0269,9.3787,-0.0331,0.137,-0.0991,-1.9540983639159144,-0.00024183397181332111,2.9249672889709473,-2.14994740486145,0.1321297585964203,1.5541319847106934,5.770970809250631,-0.00018282361270394176,0.23304760456085205,-1.5971220175372522,-3.858211877407091e-36,-0.04266700893640518,0.8781970739364624,0.0,0.01907798834145069,0.7956159710884094,0.04030222073197365,0.2008993774652481
1048.0,1060.0,-1.9729,-0.0269,9.3787,-0.0331,0.137,-0.0991,-1.9540778599181117,-0.00027108192443847656,2.897932767868042,-2.148777484893799,0.14352339506149292,1.6077824831008911,5.7709951279456995,-0.00018658704357221723,0.2285149097442627,-1.5971339384662073,-7.012097515481385e-41,-0.02115558460354805,0.8781812787055969,0.0,0.015810448676347733,0.7959641814231873,0.04386603459715843,0.20446012914180756
1048.0,1060.0,-1.9729,-0.0269,9.3787,-0.0331,0.137,-0.0991,-1.9541217289366664,-0.0014493311755359173,2.9034066200256348,-2.1475942134857178,0.15223519504070282,1.6102266311645508,5.770974981575765,-0.00019267972675152123,0.22367827594280243,-1.5970895926104944,-1.401298464324817e-45,-0.02443191409111023,0.8781455159187317,0.0,0.015132678672671318,0.7963805794715881,0.04947332665324211,0.2559639811515808
8190.0,1058.0,-1.87,0.4881,9.862,-0.0363,0.2663,-0.0535,-1.9542023144164027,-0.002138968789950013,2.895224094390869,-2.1466596126556396,0.16018174588680267,1.6316626071929932,5.7709542391593835,-0.00020193586533423513,0.23294980823993683,-1.5971420446978968,-0.0,-0.027569608762860298,0.8781575560569763,0.0,0.026053108274936676,0.796684741973877,0.05611185356974602,0.16868849098682404
8190.0,1058.0,-1.87,0.4881,9.862,-0.0363,0.2663,-0.0535,-1.9541293583311976,-0.0023495242930948734,2.911088466644287,-2.14532208442688,0.17276185750961304,1.6345884799957275,5.770902621537008,-0.00016983249224722385,0.2232474833726883,-1.5971582571612757,-0.0,-0.016111765056848526,0.8781930804252625,0.0,0.014885896816849709,0.797149121761322,0.06688345968723297,0.24888849258422852
8190.0,1058.0,-1.87,0.4881,9.862,-0.0363,0.2663,-0.0535,-1.9541455707945765,-0.0033246248494833708,2.92525577545166,-2.1438727378845215,0.18313999474048615,1.6325643062591553,5.770906674652853,-0.00020569465414155275,0.2023809850215912,-1.5971134344684046,-0.0,-0.012817994691431522,0.8781574964523315,0.0,0.02599300444126129,0.7977895140647888,0.07563723623752594,0.21759076416492462
8190.0,1058.0,-1.87,0.4881,9.862,-0.0363,0.2663,-0.0535,-1.9542304478087367,-0.005176741164177656,2.903176784515381,-2.142390727996826,0.19543126225471497,1.6808891296386719,5.770922648697653,-0.00020826833497267216,0.20258012413978577,-1.597070042287008,-0.0,-0.010730077512562275,0.8781970739364624,0.0,0.021412234753370285,0.79842609167099,0.08086921274662018,0.24462220072746277
8190.0,1058.0,-1.87,0.4881,9.862,-0.0363,0.2663,-0.0535,-1.9542175732054652,-0.006215568631887436,2.9104881286621094,-2.1406795978546143,0.21345242857933044,1.7096855640411377,5.770926701813497,-0.00040725700091570616,0.20617353916168213,-1.5971134344684046,-0.0,-0.024638650938868523,0.8781653642654419,0.0,0.020634997636079788,0.7990345358848572,0.0780036449432373,0.17084452509880066
8190.0,1058.0,-1.87,0.4881,9.862,-0.0363,0.2663,-0.0535,-1.9542819462218226,-0.006903909612447023,2.8506999015808105,-2.1389551162719727,0.2305462658405304,1.7284131050109863,5.770875322609701,-0.000420157506596297,0.2057725042104721,-1.5971301237689417,0.0002276165469083935,-0.006839808076620102,0.8781337141990662,0.0,0.02427072264254093,0.7996830940246582,0.07559475302696228,0.1876201033592224
8190.0,1058.0,-1.87,0.4881,9.862,-0.0363,0.2663,-0.0535,-1.9543658695616664,-0.008469069376587868,2.8612780570983887,-2.137009382247925,0.24326245486736298,1.719571828842163,5.770871388703146,-0.0005516147939488292,0.19380325078964233,-1.5970619360553187,0.0001178228558273986,-0.009001784957945347,0.8782089352607727,0.0,0.02881705015897751,0.8002836108207703,0.07273122668266296,0.19660964608192444
8190.0,1058.0,-1.87,0.4881,9.862,-0.0363,0.2663,-0.0535,-1.9544698200621546,-0.008878852240741253,2.8626608848571777,-2.1350362300872803,0.2668777108192444,1.7917449474334717,5.7708953497703455,-0.00046707235742360353,0.1968669295310974,-1.5971134344684046,7.728287891950458e-05,-0.005201082210987806,0.8781851530075073,0.0,0.01717175357043743,0.8008439540863037,0.07047014683485031,0.18042154610157013
8190.0,1058.0,-1.87,0.4881,9.862,-0.0363,0.2663,-0.0535,-1.9544936619200648,-0.008203929290175438,2.860459804534912,-2.1334431171417236,0.28320086002349854,1.824817419052124,5.7708754418189905,-0.00046986297820694745,0.19552205502986908,-1.5971220175372522,6.144172220956534e-05,-0.005491640418767929,0.8781732320785522,0.0,0.02102569304406643,0.8011522889137268,0.0667792335152626,0.1744600236415863
8190.0,1058.0,-1.87,0.4881,9.862,-0.0363,0.2663,-0.0535,-1.9545613727965296,-0.007135389838367701,2.87784743309021,-2.131145477294922,0.2899657189846039,1.8273916244506836,5.770899760514059,-0.0010129129514098167,0.19679130613803864,-1.5970619360553187,4.825736323255114e-05,-0.0025427911896258593,0.8782208561897278,0.0,0.016894105821847916,0.8017086386680603,0.06383878737688065,0.12969376146793365
8190.0,1058.0,-1.87,0.4881,9.862,-0.0363,0.2663,-0.0535,-1.9546615085997523,-0.0069276271387934685,2.916496753692627,-2.128676652908325,0.319020539522171,1.9041502475738525,5.770926940232076,-0.000754974433220923,0.1901489794254303,-1.5971182028399866,7.937088957987726e-05,0.010648620314896107,0.8781653642654419,0.0,0.03560233116149902,0.8022489547729492,0.06775946915149689,0.14351683855056763
1040.0,1009.0,-2.3252,0.6514,9.8566,-0.0006,0.484,-0.0649,-1.9546691379942835,-0.005956469103693962,2.843033790588379,-2.1260764598846436,0.33119601011276245,1.890221357345581,5.770839202194967,-0.0007056020549498498,0.19797441363334656,-1.5971058050738733,6.753717752872035e-05,-0.014072811231017113,0.8781852722167969,0.0,0.023801160976290703,0.8028334975242615,0.0743565782904625,0.1489822268486023
1040.0,1009.0,-2.3252,0.6514,9.8566,-0.0006,0.484,-0.0649,-1.954721590081686,-0.005010759457945824,2.921672821044922,-2.123328447341919,0.348676472902298,1.9113550186157227,5.770806777268209,-0.0012596521992236376,0.1852901130914688,-1.5970938841449183,0.00010247869795421138,0.00291859800927341,0.8781852126121521,0.0,0.02108803763985634,0.8034459948539734,0.0769028440117836,0.1390785276889801
1040.0,1009.0,-2.3252,0.6514,9.8566,-0.0006,0.484,-0.0649,-1.9547373257079066,-0.0029438119381666183,2.920081377029419,-2.120368242263794,0.36932870745658875,1.950118064880371,5.770823228150167,-0.0007453403086401522,0.16472715139389038,-1.597070042287008,0.00013837985170539469,0.012800121679902077,0.8781611323356628,0.0,0.027891360223293304,0.8040022850036621,0.07510887086391449,0.09807915985584259
1040.0,1009.0,-2.3252,0.6514,9.8566,-0.0006,0.484,-0.0649,-1.9547411404051722,-0.001988553674891591,2.929823875427246,-2.117321491241455,0.3852655291557312,2.001103401184082,5.770803439408102,-0.000709773157723248,0.1779809296131134,-1.5970819632159632,0.00014692964032292366,0.024266863241791725,0.8781614899635315,0.0,0.03183640539646149,0.8046149015426636,0.07168222963809967,0.1320396065711975
1040.0,1009.0,-2.3252,0.6514,9.8566,-0.0006,0.484,-0.0649,-1.9547816715636195,-0.0018405577866360545,2.954113006591797,-2.115048885345459,0.3978138566017151,2.0134167671203613,5.770815360337057,-0.0013606281718239188,0.18532168865203857,-1.5970738569842737,0.00013865844812244177,0.021117348223924637,0.8782051205635071,0.0,0.02084716409444809,0.8050391674041748,0.06938048452138901,0.06959132850170135
1040.0,1009.0,-2.3252,0.6514,9.8566,-0.0006,0.484,-0.0649,-1.954801698724264,-0.0010772651294246316,2.9303197860717773,-2.111748695373535,0.41797614097595215,2.065213680267334,5.770784008293905,-0.001180201885290444,0.17546582221984863,-1.597070042287008,0.00012574344873428345,0.017590172588825226,0.8782251477241516,0.0,0.028484683483839035,0.8056036829948425,0.06498884409666061,0.013386567123234272
1040.0,1009.0,-2.3252,0.6514,9.8566,-0.0006,0.484,-0.0649,-1.9548374615111292,-0.0008402835810557008,2.9270029067993164,-2.1083693504333496,0.43677204847335815,2.0588440895080566,5.770807373314657,-0.001074075698852539,0.1748998612165451,-1.5971177260028284,0.00013417837908491492,0.031766265630722046,0.878197193145752,0.0,0.025241926312446594,0.8060401678085327,0.056214913725852966,-0.002983259968459606
1040.0,1009.0,-2.3252,0.6514,9.8566,-0.0006,0.484,-0.0649,-1.954785009423727,-0.002083701081573963,2.958627700805664,-2.1048097610473633,0.4515876770019531,2.0841257572174072,5.770796286850729,-0.003019157564267516,0.173580139875412,-1.5970738569842737,0.0001236631942447275,0.03699517250061035,0.8781771659851074,0.0,0.025835750624537468,0.8065366148948669,0.04886675253510475,0.029330585151910782
1040.0,1009.0,-2.3252,0.6514,9.8566,-0.0006,0.484,-0.0649,-1.9548822842040003,-0.003099496476352215,2.9373762607574463,-2.101139783859253,0.480019748210907,2.1315715312957764,5.770735609322347,-0.0029270595405250788,0.17550218105316162,-1.5970938841449183,0.00012272225285414606,0.037624139338731766,0.8782132267951965,0.0,0.024490199983119965,0.8068325519561768,0.044349364936351776,0.008564355783164501
1040.0,1009.0,-2.3252,0.6514,9.8566,-0.0006,0.484,-0.0649,-1.9548975429930628,-0.004147808998823166,2.9694573879241943,-2.0972814559936523,0.49244025349617004,2.187469959259033,5.770708071976461,-0.00440366892144084,0.1744004487991333,-1.5970619360553187,0.00012214771413709968,0.0361756831407547,0.8781454563140869,0.0,0.020798252895474434,0.8072008490562439,0.04324103519320488,0.02272867038846016
1040.0,1009.0,-2.3252,0.6514,9.8566,-0.0006,0.484,-0.0649,-1.954961439172262,-0.0077027189545333385,2.960320472717285,-2.093139886856079,0.5013735294342041,2.1577577590942383,5.77069245555953,-0.005564057733863592,0.17197281122207642,-1.5970657507525843,0.00016543800302315503,0.039465442299842834,0.8782094717025757,0.0,0.027620363980531693,0.8074730634689331,0.04285745695233345,-0.022766461595892906
1040.0,1009.0,-2.3252,0.6514,9.8566,-0.0006,0.484,-0.0649,-1.9550172291197718,-0.010586725547909737,2.9485533237457275,-2.088984489440918,0.5213934779167175,2.142536163330078,5.770648467331686,-0.003075362415984273,0.17829371988773346,-1.597018067036764,0.00019976009207312018,0.05540651082992554,0.8781166672706604,0.0,0.036609139293432236,0.8078739643096924,0.043721117079257965,-0.07747997343540192
948.0,866.0,-2.8337,0.7364,8.8822,0.0351,0.5408,-0.0903,-1.955081125298971,-0.012202510610222816,2.9456024169921875,-2.085782527923584,0.5279222130775452,2.1751508712768555,5.7706044791038416,-0.0024970783852040768,0.1807856410741806,-1.597001854573385,0.0006344122812151909,0.053395386785268784,0.8782172799110413,0.0,0.0225147046148777,0.8081299662590027,0.044476065784692764,-0.05114360153675079
948.0,866.0,-2.8337,0.7364,8.8822,0.0351,0.5408,-0.0903,-1.9551974735655726,-0.012310098856687546,2.9767651557922363,-2.0815470218658447,0.5362921357154846,2.245905637741089,5.770612704544821,-0.0028513309080153704,0.18502140045166016,-1.597041432057516,0.0012824590085074306,0.054980188608169556,0.8782131671905518,0.0,0.01562498603016138,0.808449923992157,0.04596241936087608,-0.09190195798873901
948.0,866.0,-2.8337,0.7364,8.8822,0.0351,0.5408,-0.0903,-1.95534147838735,-0.012791221961379051,2.9579343795776367,-2.0772273540496826,0.5476477742195129,2.2455334663391113,5.770577180176534,-0.0024451613426208496,0.1860564649105072,-1.5969894568072718,0.0041859992779791355,0.07153226435184479,0.8782172799110413,0.0,0.03312569856643677,0.8088707327842712,0.048395462334156036,-0.08760766685009003
948.0,866.0,-2.8337,0.7364,8.8822,0.0351,0.5408,-0.0903,-1.9554411373534144,-0.016442865133285522,2.9890542030334473,-2.072880506515503,0.5549899339675903,2.205059766769409,5.77051733711318,-0.005131898447871208,0.17348110675811768,-1.5969856421100062,0.019427716732025146,0.06521224230527878,0.8781771063804626,0.0,0.026361364871263504,0.8092466592788696,0.04965221881866455,-0.08129864931106567
948.0,866.0,-2.8337,0.7364,8.8822,0.0351,0.5408,-0.0903,-1.955552717248434,-0.02057657577097416,2.9190573692321777,-2.068441390991211,0.5670033693313599,2.1572184562683105,5.7704577324684045,-0.008016915991902351,0.15710091590881348,-1.5968902746783655,0.011873685754835606,0.08098939806222916,0.8781812191009521,0.0,0.036653533577919006,0.8097227215766907,0.05210491269826889,-0.06597153842449188
948.0,866.0,-2.8337,0.7364,8.8822,0.0351,0.5408,-0.0903,-1.9557653866209925,-0.024922311305999756,2.9990415573120117,-2.063868284225464,0.5692285299301147,2.2269349098205566,5.77032636383132,-0.012352854944765568,0.15616032481193542,-1.5968545118915003,0.0010136342607438564,0.07275578379631042,0.8781570196151733,0.0,0.030115213245153427,0.8101511001586914,0.055372945964336395,-0.0849054679274559
948.0,866.0,-2.8337,0.7364,8.8822,0.0351,0.5408,-0.0903,-1.9560004673399867,-0.03072395920753479,2.9205946922302246,-2.0592129230499268,0.5746263265609741,2.200042247772217,5.770255076676168,-0.016826115548610687,0.1575530469417572,-1.5968058745013636,-0.00030079306452535093,0.0824032723903656,0.8782336115837097,0.0,0.033043067902326584,0.810639500617981,0.05591122806072235,-0.08867670595645905
948.0,866.0,-2.8337,0.7364,8.8822,0.0351,0.5408,-0.0903,-1.9562326870360316,-0.032574817538261414,2.9076788425445557,-2.054553747177124,0.5821637511253357,2.2540550231933594,5.7700915215309045,-0.02058921940624714,0.15182043612003326,-1.5967896620379847,-0.00017946535081136972,0.07073085010051727,0.878217339515686,0.0,0.018373437225818634,0.8110162019729614,0.05229824036359787,-0.09222345799207687
948.0,866.0,-2.8337,0.7364,8.8822,0.0351,0.5408,-0.0903,-1.9564205608763636,-0.03257368505001068,2.9064435958862305,-2.051004648208618,0.5880722403526306,2.2966866493225098,5.770000684052267,-0.02808271534740925,0.1535651683807373,-1.5967977682696741,-0.0001381091569783166,0.07725396007299423,0.8782131671905518,0.0,0.019295837730169296,0.8113653659820557,0.0466490313410759,-0.10931119322776794
948.0,866.0,-2.8337,0.7364,8.8822,0.0351,0.5408,-0.0903,-1.9566885433592738,-0.03146574646234512,2.9462814331054688,-2.0464110374450684,0.5941537618637085,2.326416254043579,5.7696536658103845,-0.04677349328994751,0.14348453283309937,-1.5967939535724085,-5.2848190534859896e-05,0.08467282354831696,0.8781611323356628,0.0,0.02076246216893196,0.8116284012794495,0.03826547786593437,-0.13108578324317932
948.0,866.0,-2.8337,0.7364,8.8822,0.0351,0.5408,-0.0903,-1.9569241009154261,-0.033272694796323776,2.9439504146575928,-2.0416152477264404,0.5953809022903442,2.2198948860168457,5.769164311676779,-0.08792705088853836,0.13797347247600555,-1.5968096891986292,-4.278154665371403e-05,0.08423753827810287,0.8781934380531311,0.0,0.027336344122886658,0.8119446635246277,0.03076188825070858,-0.1779312789440155
948.0,866.0,-2.8337,0.7364,8.8822,0.0351,0.5408,-0.0903,-1.9572121105589808,-0.03402245044708252,2.934519052505493,-2.0368502140045166,0.609074592590332,2.2273201942443848,5.76820074298934,-0.12679345905780792,0.09806576371192932,-1.596785847340719,-3.59453224518802e-05,0.09705302119255066,0.8781893849372864,0.0,0.024682290852069855,0.8121728301048279,0.025976018980145454,-0.15462130308151245
486.0,425.0,-5.1153,0.5629,9.1771,-0.0214,0.3007,-0.1251,-1.957480093041891,-0.035329416394233704,2.8959455490112305,-2.031986951828003,0.6045247316360474,2.2043752670288086,5.767035233765402,-0.13962006568908691,0.09212212264537811,-1.5967820326434534,-5.452563982544234e-07,0.09114053845405579,0.8781291842460632,0.0,0.019711242988705635,0.8123816251754761,0.020487459376454353,-0.17961212992668152
486.0,425.0,-5.1153,0.5629,9.1771,-0.0214,0.3007,-0.1251,-1.9577671490111292,-0.0424608513712883,2.925971508026123,-2.0271036624908447,0.6068039536476135,2.254422426223755,5.765853988915243,-0.14791810512542725,0.08328743278980255,-1.5967896620379847,-9.909765716353824e-12,0.09425215423107147,0.8782050609588623,0.0,0.029636699706315994,0.8125330209732056,0.016040580347180367,-0.2038564383983612
486.0,425.0,-5.1153,0.5629,9.1771,-0.0214,0.3007,-0.1251,-1.9581433735289515,-0.04764864221215248,2.9708759784698486,-2.0222201347351074,0.6113749742507935,2.2797014713287354,5.764569866448202,-0.18669135868549347,0.07108915597200394,-1.596785847340719,-1.801050787958249e-16,0.10478183627128601,0.8782132267951965,0.0,0.023062814027071,0.8125972747802734,0.016141541302204132,-0.21888214349746704
486.0,425.0,-5.1153,0.5629,9.1771,-0.0214,0.3007,-0.1251,-1.9584714374937953,-0.04693198576569557,2.943329095840454,-2.0173308849334717,0.6127668619155884,2.2492053508758545,5.7628705380256555,-0.20649667084217072,0.05594053491950035,-1.5968096891986292,-3.2733208971406884e-21,0.09498502314090729,0.8781206011772156,0.0,0.03308115899562836,0.8126892447471619,0.014639304019510746,-0.24129661917686462
486.0,425.0,-5.1153,0.5629,9.1771,-0.0214,0.3007,-0.1251,-1.9587270222105921,-0.0486316978931427,2.9584128856658936,-2.013685941696167,0.6144030690193176,2.35212779045105,5.761538612633505,-0.24466100335121155,0.034320082515478134,-1.5967820326434534,-9.111408536327367e-25,0.09537076950073242,0.8782132267951965,0.0,0.018243160098791122,0.8127894401550293,0.01280626468360424,-0.19906479120254517
486.0,425.0,-5.1153,0.5629,9.1771,-0.0214,0.3007,-0.1251,-1.9592110119261683,-0.053656354546546936,2.925632953643799,-2.008737802505493,0.6185718178749084,2.3088972568511963,5.759354936867513,-0.2708726227283478,0.026318825781345367,-1.5967333952533167,-1.6559536866361408e-29,0.09032873064279556,0.8781812191009521,0.0,0.007200591266155243,0.8128812909126282,0.010241609998047352,-0.23128055036067963
486.0,425.0,-5.1153,0.5629,9.1771,-0.0214,0.3007,-0.1251,-1.9596344433226527,-0.06104140728712082,2.927307605743408,-2.0038321018218994,0.6223596334457397,2.2926077842712402,5.757102238922872,-0.3047805726528168,0.0060149990022182465,-1.596785847340719,-3.0096140538129756e-34,0.09109677374362946,0.878157377243042,0.0,0.015857253223657608,0.8129572868347168,0.008848012425005436,-0.2349482625722885
486.0,425.0,-5.1153,0.5629,9.1771,-0.0214,0.3007,-0.1251,-1.9602023563780726,-0.07318475842475891,2.902965545654297,-1.9988030195236206,0.6097244620323181,2.280590534210205,5.7545578358467,-0.34698694944381714,-0.018043898046016693,-1.5968177954303187,0.0001956439227797091,0.09276078641414642,0.8781533241271973,0.0,0.0075575062073767185,0.8129292726516724,0.005978178232908249,-0.2089586853981018
486.0,425.0,-5.1153,0.5629,9.1771,-0.0214,0.3007,-0.1251,-1.9608022175230921,-0.08178384602069855,2.9279673099517822,-1.9937889575958252,0.609013557434082,2.3158488273620605,5.751481878548422,-0.38686317205429077,-0.03370121866464615,-1.5967453161822718,0.0002021481195697561,0.09515856206417084,0.8781734108924866,0.0,0.01677694544196129,0.813045859336853,0.0036168128717690706,-0.19610337913036346
486.0,425.0,-5.1153,0.5629,9.1771,-0.0214,0.3007,-0.1251,-1.9614130459227503,-0.08058513700962067,2.9668784141540527,-1.9889166355133057,0.6122742295265198,2.294846534729004,5.748277175217428,-0.4345862567424774,-0.057873599231243134,-1.5967701117144983,0.00020512691116891801,0.09239135682582855,0.8781287670135498,0.0,0.011387225240468979,0.8130093812942505,0.0015804023714736104,-0.19723403453826904
486.0,425.0,-5.1153,0.5629,9.1771,-0.0214,0.3007,-0.1251,-1.9620892010130824,-0.0710582360625267,2.925398349761963,-1.9841316938400269,0.6079245209693909,2.274646520614624,5.74443410614089,-0.483989953994751,-0.0862421840429306,-1.5967701117144983,0.00018169339455198497,0.095937080681324,0.8781692981719971,0.0,0.020553287118673325,0.8130374550819397,0.00027052444056607783,-0.2070876508951187
486.0,425.0,-5.1153,0.5629,9.1771,-0.0214,0.3007,-0.1251,-1.962471147576803,-0.06963064521551132,2.957826614379883,-1.9805712699890137,0.6000799536705017,2.285094738006592,5.741410243302145,-0.5288666486740112,-0.09233604371547699,-1.5967581907855433,0.00016722404689062387,0.0977943018078804,0.8781893849372864,0.0,0.00981064047664404,0.8130614161491394,0.0001761626044753939,-0.23113879561424255
408.0,445.0,-3.7711,0.2883,8.1763,-0.093,-0.5035,-0.1174,-1.9631911716856898,-0.08030945062637329,2.9228901863098145,-1.9758012294769287,0.6008660197257996,2.2581417560577393,5.736708152085104,-0.599961519241333,-0.10304446518421173,-1.5967534224139612,0.00015117235307116061,0.07592654973268509,0.8782172799110413,0.0,0.010610589757561684,0.8131054639816284,-9.594157745596021e-06,-0.22246010601520538
408.0,445.0,-3.7711,0.2883,8.1763,-0.093,-0.5035,-0.1174,-1.9638501606383265,-0.09269694238901138,2.9572391510009766,-1.9711326360702515,0.5939765572547913,2.2145097255706787,5.731577384262838,-0.6582935452461243,-0.09958843141794205,-1.5967500845538538,0.0001379327877657488,0.09362418204545975,0.8781733512878418,0.0,0.027115855365991592,0.8130173683166504,-7.687738980166614e-05,-0.23475989699363708
408.0,445.0,-3.7711,0.2883,8.1763,-0.093,-0.5035,-0.1174,-1.9645325146117152,-0.10639841109514236,2.885392665863037,-1.9663220643997192,0.5803912878036499,2.261502504348755,5.726214277535238,-0.7211270332336426,-0.11120274662971497,-1.5967820326434534,0.00012682548549491912,0.0737316906452179,0.8781247138977051,0.0,0.014438074082136154,0.8130134344100952,-0.00011457980144768953,-0.2185688614845276
408.0,445.0,-3.7711,0.2883,8.1763,-0.093,-0.5035,-0.1174,-1.965447565118307,-0.11332686245441437,2.901564598083496,-1.9615907669067383,0.585662305355072,2.2835206985473633,5.720262038498678,-0.7635165452957153,-0.11765337735414505,-1.596729580556051,0.00011737384920706972,0.09023825824260712,0.8781934380531311,0.0,-0.00422706501558423,0.8129774928092957,-0.00013699645933229476,-0.24660822749137878
408.0,445.0,-3.7711,0.2883,8.1763,-0.093,-0.5035,-0.1174,-1.966398378411764,-0.1094735786318779,2.892205238342285,-1.9569673538208008,0.5865048170089722,2.3038437366485596,5.713803636818685,-0.8056573867797852,-0.10377202928066254,-1.5967939535724085,0.00010923323861788958,0.0943678691983223,0.878157377243042,0.0,0.020131666213274002,0.8130053877830505,-0.00011175168037880212,-0.26418638229370117
408.0,445.0,-3.7711,0.2883,8.1763,-0.093,-0.5035,-0.1174,-1.9673649273314417,-0.11043509840965271,2.914318561553955,-1.9523978233337402,0.5786848664283752,2.3300318717956543,5.707008230477133,-0.8567574620246887,-0.09870058298110962,-1.5967376867877405,0.0001021487478283234,0.08310455828905106,0.8781652450561523,0.0,0.012246254831552505,0.8130334615707397,-5.2841264732705895e-06,-0.25308164954185486
408.0,445.0,-3.7711,0.2883,8.1763,-0.093,-0.5035,-0.1174,-1.9683753452696742,-0.12078391015529633,2.9219565391540527,-1.9477832317352295,0.569125771522522,2.290161371231079,5.699868786125936,-0.9056334495544434,-0.09015362709760666,-1.5967415014850062,9.592726564733312e-05,0.09060332179069519,0.8781206607818604,0.0,0.012694261968135834,0.8130574226379395,-1.711989653773588e-13,-0.25806528329849243
408.0,445.0,-3.7711,0.2883,8.1763,-0.093,-0.5035,-0.1174,-1.969154497186178,-0.13542380928993225,2.892685890197754,-1.9444706439971924,0.5637775659561157,2.2269062995910645,5.694403338223257,-0.9449084997177124,-0.10155795514583588,-1.5967939535724085,9.173675061902031e-05,0.06771208345890045,0.8782053589820862,0.0,0.006848559714853764,0.81304931640625,-4.134253871418861e-19,-0.19484251737594604
408.0,445.0,-3.7711,0.2883,8.1763,-0.093,-0.5035,-0.1174,-1.9702240429320277,-0.14922994375228882,2.8872480392456055,-1.9399158954620361,0.5544233322143555,2.282435178756714,5.686666655331411,-0.9827359914779663,-0.09019126743078232,-1.5967453161822718,8.668761438457295e-05,0.09390068799257278,0.8781774640083313,0.0,0.0009161620400846004,0.8130255341529846,-1.3394457577224348e-26,-0.23075377941131592
408.0,445.0,-3.7711,0.2883,8.1763,-0.093,-0.5035,-0.1174,-1.9714752636351527,-0.15206000208854675,2.858884811401367,-1.9354015588760376,0.5489910840988159,2.2449839115142822,5.678635108261862,-1.0144522190093994,-0.10825631767511368,-1.5967662970172327,8.21652211016044e-05,0.07639124989509583,0.8782053589820862,0.0,0.00955852959305048,0.8130133748054504,-0.00022384572366718203,-0.19533702731132507
408.0,445.0,-3.7711,0.2883,8.1763,-0.093,-0.5035,-0.1174,-1.972701211968893,-0.1417752206325531,2.900822162628174,-1.9309942722320557,0.5517730712890625,2.291613817214966,5.67032282331542,-1.0316858291625977,-0.08755329251289368,-1.5967500845538538,3.34334654326085e-05,0.07647941261529922,0.8780968189239502,0.0,0.007009051740169525,0.8130013942718506,-0.00012295774649828672,-0.19159621000289917
449.0,747.0,-1.0122,-0.1567,7.9196,-0.097,-0.6223,-0.1115,-1.9738875828185023,-0.1338309943675995,3.001793384552002,-1.926626205444336,0.5440580248832703,2.3417720794677734,5.662130284100332,-1.0480949878692627,-0.055339887738227844,-1.5967896620379847,2.8367412596708164e-05,0.060717951506376266,0.8781692981719971,0.0,0.013874044641852379,0.8130374550819397,-1.665519448579289e-05,-0.17384788393974304
449.0,747.0,-1.0122,-0.1567,7.9196,-0.097,-0.6223,-0.1115,-1.975070138970846,-0.1474495679140091,3.0037527084350586,-1.9223955869674683,0.531955897808075,2.2491304874420166,5.653612005501547,-1.0662068128585815,-0.06354488432407379,-1.5967777411090296,1.3570253031502943e-05,0.055594488978385925,0.8781330585479736,0.0,-0.005900871939957142,0.81300950050354,-5.396071501954924e-13,-0.14027145504951477
449.0,747.0,-1.0122,-0.1567,7.9196,-0.097,-0.6223,-0.1115,-1.9763080082335414,-0.163560152053833,3.0045676231384277,-1.918196201324463,0.5197423100471497,2.2613775730133057,5.645066487580099,-1.0820130109786987,-0.03273838758468628,-1.596785847340719,1.2595659427461214e-05,0.05656091496348381,0.8781043291091919,0.0,-0.0008662375621497631,0.8130174279212952,-1.7482585030930416e-20,-0.16729703545570374
449.0,747.0,-1.0122,-0.1567,7.9196,-0.097,-0.6223,-0.1115,-1.9774934254088343,-0.16111068427562714,3.0155258178710938,-1.914021372795105,0.5237007737159729,2.2918639183044434,5.6364337084587,-1.073837161064148,-0.06176023185253143,-1.596813980733053,1.192792387882946e-05,0.07203920185565948,0.8781693577766418,0.0,0.0036367024295032024,0.8130053877830505,9.304960258305073e-05,-0.09168478846549988
449.0,747.0,-1.0122,-0.1567,7.9196,-0.097,-0.6223,-0.1115,-1.9783474407591761,-0.1455283910036087,3.0128870010375977,-1.910920262336731,0.5276294946670532,2.3054070472717285,5.630122291832723,-1.0565427541732788,-0.07570531219244003,-1.5967896620379847,1.1471810466900934e-05,0.054843682795763016,0.8781247138977051,0.0,0.0070130424574017525,0.8130214214324951,3.262694576733338e-07,-0.13315236568450928
449.0,747.0,-1.0122,-0.1567,7.9196,-0.097,-0.6223,-0.1115,-1.9795619450011195,-0.1285843402147293,3.0785632133483887,-1.906715750694275,0.5192060470581055,2.30454158782959,5.621777760773458,-1.0385092496871948,-0.044389642775058746,-1.596785847340719,5.534373940463411e-06,0.056756772100925446,0.8781330585479736,0.0,1.0317307896912098e-05,0.81301349401474,1.0570715377783597e-14,-0.10500960797071457
449.0,747.0,-1.0122,-0.1567,7.9196,-0.097,-0.6223,-0.1115,-1.9807082615294398,-0.13838186860084534,3.11712646484375,-1.9025849103927612,0.5136590600013733,2.2911410331726074,5.613636719971456,-1.0181714296340942,-0.011362988501787186,-1.5968015829669397,1.0058452681871444e-10,0.04944056272506714,0.8781092166900635,0.0,-0.002496563596650958,0.8130614161491394,3.4247768897978396e-22,-0.11190182715654373
449.0,747.0,-1.0122,-0.1567,7.9196,-0.097,-0.6223,-0.1115,-1.981802602807516,-0.15209203958511353,3.117662191390991,-1.8983944654464722,0.5045148730278015,2.3160104751586914,5.605521011143484,-0.9982753992080688,-0.010263758711516857,-1.5967896620379847,1.8280741300607563e-15,0.05585797131061554,0.8781206011772156,0.0,0.0022830250672996044,0.8130214810371399,0.0017372486181557178,-0.09650793671607971
449.0,747.0,-1.0122,-0.1567,7.9196,-0.097,-0.6223,-0.1115,-1.9829451046385707,-0.14586158096790314,3.158254623413086,-1.8942989110946655,0.5038896799087524,2.3120131492614746,5.597881841450491,-0.9637278318405151,-0.038976505398750305,-1.5967977682696741,3.322434261334884e-20,0.04910144582390785,0.8782338500022888,0.0,0.004009167198091745,0.8130055069923401,0.0009196679457090795,-0.07839660346508026
449.0,747.0,-1.0122,-0.1567,7.9196,-0.097,-0.6223,-0.1115,-1.9839230976500453,-0.11897458881139755,3.132145404815674,-1.8903237581253052,0.5117350816726685,2.3322982788085938,5.590393113880911,-0.9145320653915405,0.0009135615546256304,-1.5967939535724085,6.038358971803326e-25,0.042939119040966034,0.8781291246414185,0.0,-0.008048024959862232,0.8130614161491394,0.0003035006229765713,-0.019423985853791237
449.0,747.0,-1.0122,-0.1567,7.9196,-0.097,-0.6223,-0.1115,-1.9849258861937464,-0.10491010546684265,3.2146363258361816,-1.8862769603729248,0.5080883502960205,2.3452112674713135,5.583287107735433,-0.8770776987075806,0.001415339531376958,-1.5968015829669397,1.0974418268542414e-29,0.04038980230689049,0.8781454563140869,0.0,0.0031461939215660095,0.8130335211753845,0.0002787731646094471,-0.08510494977235794
449.0,747.0,-1.0122,-0.1567,7.9196,-0.097,-0.6223,-0.1115,-1.9858247242369593,-0.11084867268800735,3.223583936691284,-1.8823223114013672,0.5098374485969543,2.284865140914917,5.576393651753225,-0.8366258144378662,0.007848430424928665,-1.596785847340719,1.9945462128741214e-34,0.031675852835178375,0.8781454563140869,0.0,0.006471413653343916,0.8130534291267395,0.0002591766824480146,-0.08820080012083054
736.0,848.0,-1.882,0.1322,9.3458,-0.0313,-0.1358,-0.1156,-1.9864469967284144,-0.11812284588813782,3.2200424671173096,-1.8792860507965088,0.5117011666297913,2.292510986328125,5.571437644749441,-0.8126923441886902,-0.009764286689460278,-1.5967777411090296,5.551892387352052e-38,0.026614591479301453,0.8781454563140869,0.0,0.004979449324309826,0.8130654692649841,0.001070521422661841,-0.06495591253042221
736.0,848.0,-1.882,0.1322,9.3458,-0.0313,-0.1358,-0.1156,-1.9873620472350062,-0.11355792731046677,3.2646727561950684,-1.8752555847167969,0.49755382537841797,2.288020610809326,5.5651516793067834,-0.779824435710907,0.010656340047717094,-1.5967820326434534,1.0089348943138683e-42,0.025640254840254784,0.8781533241271973,0.0,-0.00033708452247083187,0.8130653500556946,0.0005768612609244883,-0.05723372474312782
736.0,848.0,-1.882,0.1322,9.3458,-0.0313,-0.1358,-0.1156,-1.9881164036192835,-0.09766735136508942,3.293809413909912,-1.8710509538650513,0.5032318234443665,2.311185121536255,5.5589995858962915,-0.7422517538070679,0.01573915034532547,-1.5967701117144983,0.0,0.027220236137509346,0.8781170845031738,0.0,-0.006159237585961819,0.8130614161491394,0.0002633411786518991,-0.09029641002416611
736.0,848.0,-1.882,0.1322,9.3458,-0.0313,-0.1358,-0.1156,-1.9888273678221644,-0.07764732092618942,3.303006649017334,-1.8670284748077393,0.5061153173446655,2.2924258708953857,5.553244578629293,-0.7155632376670837,-0.0026588933542370796,-1.596785847340719,0.0,0.03299252688884735,0.8781939148902893,0.0,0.006748192012310028,0.8130494356155396,0.00025251953047700226,-0.06097254902124405
736.0,848.0,-1.882,0.1322,9.3458,-0.0313,-0.1358,-0.1156,-1.9894825420775355,-0.0738738477230072,3.316230297088623,-1.8630375862121582,0.502208948135376,2.332399845123291,5.547636377602377,-0.6838808059692383,0.013054714538156986,-1.5967658201800745,0.0,0.029281429946422577,0.8781657218933105,0.0,-0.004574265331029892,0.8130413889884949,7.961056689964607e-05,-0.03061046078801155
736.0,848.0,-1.882,0.1322,9.3458,-0.0313,-0.1358,-0.1156,-1.9900652370848597,-0.08013075590133667,3.3336856365203857,-1.8590706586837769,0.4999098479747772,2.3352742195129395,5.542158114701071,-0.6682448983192444,0.021687645465135574,-1.5968015829669397,0.0,0.031719669699668884,0.8781492114067078,0.0,-0.00025699054822325706,0.8130134344100952,4.9664737161947414e-05,-0.06818678975105286
736.0,848.0,-1.882,0.1322,9.3458,-0.0313,-0.1358,-0.1156,-1.9907008610167445,-0.08297878503799438,3.364473819732666,-1.855079174041748,0.4974110722541809,2.321262836456299,5.536975312023916,-0.64687579870224,0.021031901240348816,-1.5967538992511194,0.0,0.030788177624344826,0.8781046271324158,0.0,0.0036627654917538166,0.8130813837051392,4.068368434673175e-05,-0.05717950314283371
736.0,848.0,-1.882,0.1322,9.3458,-0.0313,-0.1358,-0.1156,-1.9911114178099574,-0.08082591742277145,3.370725631713867,-1.8521336317062378,0.5035020709037781,2.3252580165863037,5.53313039520339,-0.6413731575012207,0.006480714771896601,-1.5967820326434534,0.0,0.022912966087460518,0.8781372904777527,0.0,0.0033815251663327217,0.8130453824996948,3.5825083614327013e-05,-0.1109800785779953
736.0,848.0,-1.882,0.1322,9.3458,-0.0313,-0.1358,-0.1156,-1.9917589626707972,-0.07097925245761871,3.3364315032958984,-1.8480983972549438,0.5105445981025696,2.3717923164367676,5.527979719429769,-0.6215206384658813,0.013942981138825417,-1.5968058745013636,0.0,0.03691012039780617,0.8781774640083313,0.0,-0.009271012619137764,0.8130815029144287,5.816621705889702e-05,-0.055424440652132034
736.0,848.0,-1.882,0.1322,9.3458,-0.0313,-0.1358,-0.1156,-1.9923583469786585,-0.06983574479818344,3.3298747539520264,-1.8440226316452026,0.5039501190185547,2.4321563243865967,5.523103642254629,-0.6176837682723999,0.00806344859302044,-1.5967620054828089,0.0,0.02660391852259636,0.8780444264411926,0.0,0.006281547714024782,0.813077449798584,8.150075882440433e-05,-0.07766558229923248
736.0,848.0,-1.882,0.1322,9.3458,-0.0313,-0.1358,-0.1156,-1.992953439752096,-0.07179713249206543,3.3537378311157227,-1.8399707078933716,0.5012406706809998,2.3723740577697754,5.518217074662008,-0.6160408854484558,0.011355859227478504,-1.596785847340719,0.0,0.029543764889240265,0.8781890273094177,0.0,0.012213695794343948,0.813121497631073,0.0003023387980647385,-0.11430123448371887
736.0,848.0,-1.882,0.1322,9.3458,-0.0313,-0.1358,-0.1156,-1.9935041866698207,-0.07252845168113708,3.37394118309021,-1.8358904123306274,0.49911120533943176,2.3638057708740234,5.513270902424612,-0.6139569282531738,0.021195869892835617,-1.5967896620379847,0.0,0.04209538549184799,0.8781812191009521,0.0,0.008912855759263039,0.8130775690078735,0.0019345100736245513,-0.06815461069345474
660.0,856.0,-1.5117,0.4152,9.5653,-0.0568,-0.2503,-0.1148,-1.9940673313536585,-0.06926719844341278,3.3396472930908203,-1.831908941268921,0.4976623058319092,2.3460896015167236,5.508302616864004,-0.6203435659408569,0.003175009274855256,-1.5967896620379847,0.0,0.03581181541085243,0.8781414031982422,0.0,-0.0049619595520198345,0.8131093978881836,0.0015575113939121366,-0.061783768236637115
660.0,856.0,-1.5117,0.4152,9.5653,-0.0568,-0.2503,-0.1148,-1.9946028194823207,-0.06545667350292206,3.3826372623443604,-1.8279722929000854,0.4978709816932678,2.3970797061920166,5.503349768906393,-0.618550717830658,0.029495397582650185,-1.5967896620379847,0.0,0.04382312297821045,0.878145158290863,0.0,0.011369774118065834,0.8131574392318726,0.0019916181918233633,-0.06195260211825371
660.0,856.0,-1.5117,0.4152,9.5653,-0.0568,-0.2503,-0.1148,-1.9951015911498011,-0.06440610438585281,3.3578896522521973,-1.823915719985962,0.49564725160598755,2.372009754180908,5.4983733771140955,-0.6283566951751709,0.008685553446412086,-1.5968454519854944,0.0,0.056488581001758575,0.8781614899635315,0.0,0.004752723034471273,0.8131499290466309,0.0024046553298830986,-0.12061026692390442
660.0,856.0,-1.5117,0.4152,9.5653,-0.0568,-0.2503,-0.1148,-1.9954968891539515,-0.07166703790426254,3.353506565093994,-1.8209803104400635,0.4988841414451599,2.3784725666046143,5.494546639710226,-0.6301841139793396,0.008048883639276028,-1.596773926411764,-2.4689001293154433e-05,0.05193069949746132,0.878205418586731,0.0,0.002488495782017708,0.8131694793701172,0.0030137887224555016,-0.02870073914527893
660.0,856.0,-1.5117,0.4152,9.5653,-0.0568,-0.2503,-0.1148,-1.9962040386595667,-0.08704735338687897,3.3879384994506836,-1.8170157670974731,0.5040900111198425,2.4267425537109375,5.489590453892507,-0.6377270221710205,0.022042367607355118,-1.5967581907855433,-2.340310857107397e-05,0.05937100201845169,0.8781372904777527,0.0,-0.0056086210533976555,0.8131896257400513,0.00404646759852767,-0.07355617731809616
660.0,856.0,-1.5117,0.4152,9.5653,-0.0568,-0.2503,-0.1148,-1.9968749485411585,-0.09670016169548035,3.3779001235961914,-1.81306791305542,0.49824419617652893,2.3693273067474365,5.484454858094015,-0.6420081257820129,-0.0012028119526803493,-1.5967538992511194,-2.224616036983207e-05,0.05590161308646202,0.8781533241271973,0.0,-0.0006236915942281485,0.8132015466690063,0.0031542477663606405,-0.11338554322719574
660.0,856.0,-1.5117,0.4152,9.5653,-0.0568,-0.2503,-0.1148,-1.9976698360838832,-0.09481337666511536,3.3118176460266113,-1.8090112209320068,0.5014982223510742,2.44419002532959,5.479342508106985,-0.6300283074378967,0.01053291093558073,-1.5967581907855433,-1.3323478015081491e-05,0.042485784739255905,0.8781206607818604,0.0,0.0030801352113485336,0.8132696151733398,0.002077145501971245,-0.12924779951572418
660.0,856.0,-1.5117,0.4152,9.5653,-0.0568,-0.2503,-0.1148,-1.9984880886473597,-0.0895395502448082,3.364858627319336,-1.804988980293274,0.5036001205444336,2.4596314430236816,5.4743738053138635,-0.6249058842658997,0.0003738231025636196,-1.5967982451068323,-1.0122325875272509e-05,0.06027739495038986,0.8782254457473755,0.0,0.01176775898784399,0.8132896423339844,0.0020946033764630556,-0.12810353934764862
660.0,856.0,-1.5117,0.4152,9.5653,-0.0568,-0.2503,-0.1148,-1.999219080010885,-0.09086053818464279,3.417665958404541,-1.8009766340255737,0.4987350404262543,2.47105073928833,5.4693025825317285,-0.6293036341667175,0.009363869205117226,-1.5967939535724085,-1.0843686837347377e-08,0.045461755245923996,0.8781614303588867,0.0,0.0034730443730950356,0.8132576942443848,0.0015159606700763106,-0.11093628406524658
660.0,856.0,-1.5117,0.4152,9.5653,-0.0568,-0.2503,-0.1148,-1.9999705753722132,-0.09976118803024292,3.352165699005127,-1.7971168756484985,0.49519985914230347,2.4418530464172363,5.464285182743826,-0.6288748979568481,-0.0002762940712273121,-1.5967896620379847,-1.9707865439415329e-13,0.04952506721019745,0.8781414031982422,0.0,0.005250279325991869,0.8132576942443848,0.0009421347640454769,-0.10540582239627838
660.0,856.0,-1.5117,0.4152,9.5653,-0.0568,-0.2503,-0.1148,-2.000789304772848,-0.10887371003627777,3.299470901489258,-1.7931227684020996,0.49085548520088196,2.395448684692383,5.459202694683828,-0.6302546262741089,0.010007228702306747,-1.5967777411090296,-3.581807444050061e-18,0.06072203814983368,0.8781614303588867,0.0,-0.007179033011198044,0.8132255673408508,0.0004100141522940248,-0.12961694598197937
660.0,856.0,-1.5117,0.4152,9.5653,-0.0568,-0.2503,-0.1148,-2.0013920269408167,-0.11030508577823639,3.3440113067626953,-1.7901289463043213,0.49522921442985535,2.456740379333496,5.455506312638082,-0.623595118522644,0.01769670471549034,-1.5967214743243616,-9.970091125839038e-22,0.05899622291326523,0.8781373500823975,0.0,0.009090084582567215,0.8132736086845398,-0.0002830113808158785,-0.14797858893871307
682.0,841.0,-1.5404,0.6706,9.9003,-0.0455,-0.1946,-0.1246,-2.002331396142477,-0.11109733581542969,3.3744568824768066,-1.7862114906311035,0.5035792589187622,2.481703758239746,5.450652229576864,-0.6143996119499207,-0.007068300619721413,-1.596733872090475,-1.812014885962224e-26,0.06564000248908997,0.878145158290863,0.0,-0.00275231059640646,0.8132414817810059,-0.0003630866704043001,-0.1696472465991974
682.0,841.0,-1.5404,0.6706,9.9003,-0.0455,-0.1946,-0.1246,-2.003277441064352,-0.11365301162004471,3.367680549621582,-1.782212734222412,0.5013630390167236,2.4475769996643066,5.445733177452841,-0.6005102396011353,-0.012954220175743103,-1.596733872090475,-3.2932475759473285e-31,0.062017254531383514,0.8781698346138,0.0,-0.012150725349783897,0.8132016658782959,-0.0002750866406131536,-0.15832434594631195
682.0,841.0,-1.5404,0.6706,9.9003,-0.0455,-0.1946,-0.1246,-2.004223485986227,-0.11383486539125443,3.410320281982422,-1.7781319618225098,0.4968762993812561,2.437720775604248,5.4409981844718835,-0.5890740752220154,0.018956296145915985,-1.596785847340719,-5.985313890263841e-36,0.06434917449951172,0.8781372904777527,0.0,-0.002996798139065504,0.8132454752922058,-0.00017685153579805046,-0.1462487131357193
682.0,841.0,-1.5404,0.6706,9.9003,-0.0455,-0.1946,-0.1246,-2.0052267513670863,-0.12126225978136063,3.429603338241577,-1.774121642112732,0.49169695377349854,2.4857327938079834,5.436315345555105,-0.5881854295730591,-0.013471105135977268,-1.5967214743243616,-1.087799971886069e-40,0.0660657286643982,0.8781288266181946,0.0,-0.003240101272240281,0.8132535815238953,-5.232463081483729e-05,-0.20651252567768097
682.0,841.0,-1.5404,0.6706,9.9003,-0.0455,-0.1946,-0.1246,-2.0061565838255824,-0.12716887891292572,3.3920040130615234,-1.770267367362976,0.4841628968715668,2.512929916381836,5.431603061943807,-0.5830940008163452,0.002125815488398075,-1.5967376867877405,-1.401298464324817e-45,0.04161636531352997,0.8781690001487732,0.0,-0.003833342809230089,0.8132416605949402,-4.2448806198081e-05,-0.16392043232917786
682.0,841.0,-1.5404,0.6706,9.9003,-0.0455,-0.1946,-0.1246,-2.007195611993307,-0.12780477106571198,3.367981433868408,-1.7663936614990234,0.4831497371196747,2.443235397338867,5.427058684616842,-0.5739339590072632,0.023005185648798943,-1.5968015829669397,-0.0,0.06675280630588531,0.8781165480613708,0.0,-0.0041866120882332325,0.8132454752922058,-3.5711025702767074e-05,-0.12967213988304138
682.0,841.0,-1.5404,0.6706,9.9003,-0.0455,-0.1946,-0.1246,-2.0081621609129847,-0.12017210572957993,3.4067726135253906,-1.7625596523284912,0.48342427611351013,2.471865177154541,5.422540473728933,-0.5634588599205017,-0.005931225139647722,-1.5967701117144983,-0.0,0.06057686358690262,0.8781010508537292,0.0,0.001517428201623261,0.8132056593894958,-3.081937393289991e-05,-0.15735825896263123
682.0,841.0,-1.5404,0.6706,9.9003,-0.0455,-0.1946,-0.1246,-2.0089131794371546,-0.11747950315475464,3.378751039505005,-1.759723424911499,0.4867994487285614,2.4506499767303467,5.419111180096426,-0.5580033659934998,0.0036027024034410715,-1.596785847340719,-0.0,0.06956648081541061,0.8781657218933105,0.0,0.004426035098731518,0.8132695555686951,-1.3276363119985035e-07,-0.11699169129133224
682.0,841.0,-1.5404,0.6706,9.9003,-0.0455,-0.1946,-0.1246,-2.009867330590719,-0.12363133579492569,3.4105124473571777,-1.7559417486190796,0.48214131593704224,2.4345200061798096,5.414701509266653,-0.5557448267936707,-0.006377801299095154,-1.596729580556051,-0.0,0.042929716408252716,0.8781124353408813,5.453054008341951e-09,0.010554064065217972,0.8132895827293396,-4.301373066593634e-15,-0.11404839903116226
682.0,841.0,-1.5404,0.6706,9.9003,-0.0455,-0.1946,-0.1246,-2.0109054050841273,-0.1348406970500946,3.4377660751342773,-1.7520740032196045,0.47027620673179626,2.464946746826172,5.410279917507925,-0.5532460808753967,0.009276129305362701,-1.5967701117144983,5.7293131249025464e-05,0.07009197771549225,0.8780690431594849,9.910656144493032e-14,0.004504343494772911,0.8132576942443848,-1.3935903155664043e-22,-0.11682967841625214
682.0,841.0,-1.5404,0.6706,9.9003,-0.0455,-0.1946,-0.1246,-2.012020250360006,-0.13817809522151947,3.3933963775634766,-1.748273491859436,0.45985954999923706,2.419855833053589,5.40570609548644,-0.5575693249702454,-0.007855269126594067,-1.5967581907855433,4.5690787374041975e-05,0.06037798151373863,0.8781330585479736,1.801212873999279e-18,-0.000718224560841918,0.8133216500282288,-4.515054993598793e-30,-0.1522478312253952
734.0,868.0,-1.41,0.3069,9.3009,-0.0452,-0.2098,-0.1254,-2.0130702457823695,-0.13872309029102325,3.38942813873291,-1.7445472478866577,0.4580402076244354,2.4614288806915283,5.401268589287557,-0.5618651509284973,0.0002149918582290411,-1.5967977682696741,3.797673707595095e-05,0.05618206411600113,0.8782058358192444,3.273615300030517e-23,0.000716247595846653,0.8132977485656738,-1.4628205115831481e-37,-0.18110446631908417
734.0,868.0,-1.41,0.3069,9.3009,-0.0452,-0.2098,-0.1254,-2.014104505578512,-0.13296185433864594,3.4395856857299805,-1.7408925294876099,0.4536098539829254,2.411346912384033,5.3968355534370325,-0.5569992661476135,0.006291589699685574,-1.5967620054828089,3.2491632737219334e-05,0.07231946289539337,0.8781087398529053,5.949633821344575e-28,0.013472694903612137,0.8132455945014954,0.0001014617009786889,-0.09490181505680084
734.0,868.0,-1.41,0.3069,9.3009,-0.0452,-0.2098,-0.1254,-2.015167375604147,-0.12676571309566498,3.4104437828063965,-1.7372934818267822,0.44822266697883606,2.4050252437591553,5.392379092961111,-0.5453983545303345,0.01073816791176796,-1.5967453161822718,2.839120315911714e-05,0.06104568392038345,0.8781697750091553,1.0813164617650921e-32,-0.005828127730637789,0.8132537007331848,8.27156618470326e-05,-0.1535733938217163
734.0,868.0,-1.41,0.3069,9.3009,-0.0452,-0.2098,-0.1254,-2.0159698925414027,-0.13261981308460236,3.442086696624756,-1.7346479892730713,0.44706547260284424,2.4508278369903564,5.389086890011587,-0.5471290946006775,0.004196907393634319,-1.5967534224139612,2.593641147541348e-05,0.08064660429954529,0.8781087398529053,3.009883992774495e-36,0.005549522582441568,0.813273549079895,0.00010911965364357457,-0.15548759698867798
734.0,868.0,-1.41,0.3069,9.3009,-0.0452,-0.2098,-0.1254,-2.0170723400511683,-0.13919325172901154,3.464212417602539,-1.7311129570007324,0.4343777596950531,2.419893741607666,5.384669351368704,-0.550706148147583,-0.013653544709086418,-1.5967581907855433,4.6406476030824706e-05,0.06685209274291992,0.8781330585479736,5.470248815184788e-41,0.004619145765900612,0.8132695555686951,9.393409709446132e-05,-0.16783753037452698
734.0,868.0,-1.41,0.3069,9.3009,-0.0452,-0.2098,-0.1254,-2.018191000024313,-0.14239753782749176,3.4215893745422363,-1.7277147769927979,0.427664190530777,2.3727691173553467,5.3803871152694605,-0.5496442914009094,0.006036499980837107,-1.5967939535724085,4.2153864342253655e-05,0.06363344937562943,0.87811279296875,1.401298464324817e-45,0.00877655390650034,0.8132537007331848,-5.4976349929347634e-05,-0.14843569695949554
734.0,868.0,-1.41,0.3069,9.3009,-0.0452,-0.2098,-0.1254,-2.019212385217184,-0.13744397461414337,3.403944969177246,-1.7243198156356812,0.43001142144203186,2.421217441558838,5.376085209637441,-0.5371461510658264,-0.00017468363512307405,-1.5967777411090296,3.8543152186321095e-05,0.07429346442222595,0.8781532645225525,0.0,-0.004209175705909729,0.8132455945014954,-4.419758261064999e-05,-0.14652837812900543
734.0,868.0,-1.41,0.3069,9.3009,-0.0452,-0.2098,-0.1254,-2.02028812984609,-0.12656855583190918,3.5004115104675293,-1.7209446430206299,0.41745805740356445,2.393169403076172,5.3716511009033105,-0.5320485830307007,0.003357461653649807,-1.5967496077166956,3.550227847881615e-05,0.07534270733594894,0.8781371116638184,0.0,-0.0007919783238321543,0.8132616281509399,-0.00011080098920501769,-0.20667122304439545
734.0,868.0,-1.41,0.3069,9.3009,-0.0452,-0.2098,-0.1254,-2.0213662586607875,-0.13454611599445343,3.474020004272461,-1.717584252357483,0.4066739082336426,2.3871304988861084,5.367289054184713,-0.5399259328842163,0.013436512090265751,-1.5967415014850062,3.290612585260533e-05,0.05819353461265564,0.8781211376190186,0.0,0.009609611704945564,0.8132215142250061,-9.53439375734888e-05,-0.14712318778038025
734.0,868.0,-1.41,0.3069,9.3009,-0.0452,-0.2098,-0.1254,-2.022395750085348,-0.14088481664657593,3.4773707389831543,-1.714345097541809,0.3974837362766266,2.393144130706787,5.363037872105398,-0.5317339897155762,0.015945499762892723,-1.596717659627096,3.06637812172994e-05,0.06446423381567001,0.878105103969574,0.0,0.006121444515883923,0.8132656216621399,-8.342683577211574e-05,-0.1648925542831421
734.0,868.0,-1.41,0.3069,9.3009,-0.0452,-0.2098,-0.1254,-2.0234748325743617,-0.13965776562690735,3.4780755043029785,-1.711264967918396,0.38890963792800903,2.3878660202026367,5.3587679145629785,-0.5264233946800232,0.015478171408176422,-1.5967376867877405,2.870760545192752e-05,0.06518286466598511,0.8780607581138611,0.0,0.007030547596514225,0.8132415413856506,-0.00022893399000167847,-0.12606015801429749
734.0,868.0,-1.41,0.3069,9.3009,-0.0452,-0.2098,-0.1254,-2.024285455743307,-0.12988269329071045,3.513493537902832,-1.7089810371398926,0.38271501660346985,2.3491151332855225,5.355727720051565,-0.5178112983703613,0.012769274413585663,-1.5967534224139612,4.1087259887717664e-05,0.04972736909985542,0.8780967593193054,0.0,0.0037165721878409386,0.8132375478744507,-0.0002864621055778116,-0.14943569898605347
813.0,855.0,-0.341,-0.2166,7.4447,-0.0579,-0.1407,-0.1274,-2.0252558193602503,-0.11653261631727219,3.5006608963012695,-1.7058892250061035,0.3820265829563141,2.357436180114746,5.351736831455984,-0.4952225387096405,0.01346542313694954,-1.5967376867877405,3.8736790884286165e-05,0.06322050839662552,0.8781288266181946,0.0,0.006340490188449621,0.8132454752922058,-0.00045557430712506175,-0.133929044008255
813.0,855.0,-0.341,-0.2166,7.4447,-0.0579,-0.1407,-0.1274,-2.026271959344381,-0.12007062137126923,3.5378520488739014,-1.702997088432312,0.3748798072338104,2.408069133758545,5.3479418633277795,-0.4807279109954834,0.010904138907790184,-1.5967534224139612,3.663442475954071e-05,0.06505197286605835,0.8781976699829102,0.0,-0.0056238058023154736,0.8132175803184509,-0.000302138680126518,-0.13173311948776245
813.0,855.0,-0.341,-0.2166,7.4447,-0.0579,-0.1407,-0.1274,-2.027245660821432,-0.13843970000743866,3.477407932281494,-1.7000322341918945,0.35941484570503235,2.347625255584717,5.344129371434011,-0.4671195149421692,0.03424069285392761,-1.5967376867877405,3.474852928775363e-05,0.07543936371803284,0.8780685663223267,0.0,-0.0032547833397984505,0.8132294416427612,-0.00022618749062530696,-0.13123053312301636
813.0,855.0,-0.341,-0.2166,7.4447,-0.0579,-0.1407,-0.1274,-2.028349062005514,-0.1470358669757843,3.4811673164367676,-1.6971091032028198,0.3626224398612976,2.350567579269409,5.340577888279714,-0.44231390953063965,0.03594227135181427,-1.5967534224139612,3.3047283068299294e-05,0.06502988189458847,0.8781211376190186,0.0,-0.0008513388456776738,0.8131975531578064,-0.00018075411207973957,-0.1538458913564682
813.0,855.0,-0.341,-0.2166,7.4447,-0.0579,-0.1407,-0.1274,-2.0294438801207484,-0.12423187494277954,3.532538414001465,-1.6942774057388306,0.36658746004104614,2.3850905895233154,5.337141084461965,-0.41365617513656616,0.039736196398735046,-1.596729580556051,3.1504845537710935e-05,0.06997652351856232,0.8781493902206421,0.0,0.0017977918032556772,0.8132334351539612,-9.339588723378256e-05,-0.1319354772567749
813.0,855.0,-0.341,-0.2166,7.4447,-0.0579,-0.1407,-0.1274,-2.0304953060545863,-0.10763062536716461,3.546168327331543,-1.6913607120513916,0.365016907453537,2.3785223960876465,5.333982634335317,-0.37916475534439087,0.08134699612855911,-1.5967496077166956,3.0099974537733942e-05,0.05391480028629303,0.8781293034553528,0.0,0.0041444869711995125,0.8131896257400513,-4.0327926399186254e-05,-0.13535571098327637
813.0,855.0,-0.341,-0.2166,7.4447,-0.0579,-0.1407,-0.1274,-2.031485696832174,-0.12346956878900528,3.507237434387207,-1.6884337663650513,0.3499552607536316,2.3478007316589355,5.330960500031271,-0.34880486130714417,0.09498745203018188,-1.5967615286456507,4.2001206956854276e-09,0.06353514641523361,0.8781210780143738,0.0,-0.013097045943140984,0.8132335543632507,-3.090131622807135e-11,-0.13056762516498566
