ramyac6/ROB537/final_project/csv/good/good_173.csv
tof_0,tof_1,accelx,accely,accelz,gyrox,gyroy,gyroz,shoulder_lift_joint_position,shoulder_lift_joint_velocity,shoulder_lift_joint_effort,elbow_joint_position,elbow_joint_velocity,elbow_joint_effort,wrist_1_joint_position,wrist_1_joint_velocity,wrist_1_joint_effort,wrist_2_joint_position,wrist_2_joint_velocity,wrist_2_joint_effort,wrist_3_joint_position,wrist_3_joint_velocity,wrist_3_joint_effort,shoulder_pan_joint_position,shoulder_pan_joint_velocity,shoulder_pan_joint_effort
455.0,779.0,1.9298,0.606,9.2231,-0.0376,0.0249,-0.1155,-1.6613084278502406,0.0,2.4832212924957275,-1.8164618015289307,-0.0,2.1121184825897217,4.752492438047685,-0.0,0.29601213335990906,-1.6522539297686976,0.0,0.0035117287188768387,0.8186028003692627,-0.0,0.004458897281438112,0.7581797242164612,0.0,-0.020611489191651344
455.0,779.0,1.9298,0.606,9.2231,-0.0376,0.0249,-0.1155,-1.6612922153868617,0.0,2.483807325363159,-1.8164782524108887,-0.0,2.0862061977386475,4.752496517240562,-0.0,0.30184823274612427,-1.6522577444659632,0.0,-0.006576840300112963,0.8185871243476868,-0.0,-0.009248229674994946,0.7581995129585266,0.0,-0.014821983873844147
455.0,779.0,1.9298,0.606,9.2231,-0.0376,0.0249,-0.1155,-1.661271711389059,0.0,2.504135847091675,-1.816457748413086,-0.0,2.1204934120178223,4.75244444513277,-0.0,0.30016225576400757,-1.6523016134845179,0.0,0.0027426420710980892,0.8185395002365112,-0.0,-0.004697028547525406,0.7581311464309692,0.0,0.018089093267917633
455.0,779.0,1.9298,0.606,9.2231,-0.0376,0.0249,-0.1155,-1.661304613152975,0.0,2.467439889907837,-1.8164700269699097,-0.0,2.0556583404541016,4.752460467606344,-0.0,0.29779642820358276,-1.6522863546954554,0.0,0.0026047697756439447,0.818567156791687,-0.0,0.002139798365533352,0.7581793069839478,0.0,-0.012562486343085766
455.0,779.0,1.9298,0.606,9.2231,-0.0376,0.0249,-0.1155,-1.661304613152975,0.0,2.4653449058532715,-1.8164658546447754,-0.0,2.15911602973938,4.752496532141723,-0.0,0.2949698567390442,-1.6522577444659632,0.0,-0.0036077680997550488,0.8185153007507324,-0.0,-0.0026738657616078854,0.7581512331962585,0.0,-0.01963220164179802
455.0,779.0,1.9298,0.606,9.2231,-0.0376,0.0249,-0.1155,-1.661304613152975,0.0,2.4927356243133545,-1.8164420127868652,-0.0,2.086491107940674,4.752484596311607,-0.0,0.30009955167770386,-1.6522863546954554,0.0,-0.0002177986316382885,0.8185034394264221,-0.0,-0.00046104833018034697,0.7581430077552795,0.0,0.050374485552310944
455.0,779.0,1.9298,0.606,9.2231,-0.0376,0.0249,-0.1155,-1.661304613152975,0.0,2.4644861221313477,-1.8164502382278442,-0.0,2.1100237369537354,4.752520679473438,-0.0,0.2945486307144165,-1.6522858778582972,0.0,0.0006019321735948324,0.8185710906982422,-0.0,-0.0026945876888930798,0.7581232190132141,0.0,0.02715568244457245
438.0,737.0,2.007,0.6173,9.0987,-0.0388,0.0229,-0.1177,-1.6612802944579066,0.0,2.4588520526885986,-1.8164618015289307,-0.0,2.0843756198883057,4.752492434322395,-0.0,0.2862798571586609,-1.652262036000387,0.0,0.010214452631771564,0.8185552358627319,-0.0,-0.0003501041792333126,0.7581512331962585,0.0,-0.0024158209562301636
438.0,737.0,2.007,0.6173,9.0987,-0.0388,0.0229,-0.1177,-1.6612922153868617,0.0,2.4414684772491455,-1.8164987564086914,-0.0,2.1099653244018555,4.752460445254602,-0.0,0.29319167137145996,-1.6522820631610315,0.0,0.008578037843108177,0.8185554146766663,-0.0,-0.0026564926374703646,0.7581352591514587,0.0,-0.010232570581138134
438.0,737.0,2.007,0.6173,9.0987,-0.0388,0.0229,-0.1177,-1.6613084278502406,0.0,2.4538192749023438,-1.8164658546447754,-0.0,2.0933115482330322,4.752464528172769,-0.0,0.2957102060317993,-1.6522377173053187,0.0,-0.008389933034777641,0.8185553550720215,-0.0,0.0048363059759140015,0.7581714987754822,0.0,-0.007030789740383625
438.0,737.0,2.007,0.6173,9.0987,-0.0388,0.0229,-0.1177,-1.6612879238524378,0.0,2.464761257171631,-1.816498875617981,-0.0,2.0675697326660156,4.752456373512306,-0.0,0.2882292866706848,-1.6522257963763636,0.0,-0.009266321547329426,0.818567156791687,-0.0,0.002006957773119211,0.7581393718719482,0.0,0.007778726518154144
438.0,737.0,2.007,0.6173,9.0987,-0.0388,0.0229,-0.1177,-1.6613122425475062,0.0,2.467479944229126,-1.8164987564086914,-0.0,2.0718255043029785,4.752472366183557,-0.0,0.2893899381160736,-1.6522744337665003,0.0,-0.004572747275233269,0.8186027407646179,-0.0,-0.0051152268424630165,0.7581714987754822,0.0,-0.04009925574064255
438.0,737.0,2.007,0.6173,9.0987,-0.0388,0.0229,-0.1177,-1.6613003216185511,0.0,2.4724268913269043,-1.8164782524108887,-0.0,2.102034568786621,4.752476881235399,-0.0,0.3056160807609558,-1.6522863546954554,0.0,0.0028527388349175453,0.8185752034187317,-0.0,-0.005702186841517687,0.7581111788749695,0.0,-0.05195806547999382
438.0,737.0,2.007,0.6173,9.0987,-0.0388,0.0229,-0.1177,-1.6612678966917933,0.0,2.499087333679199,-1.8165020942687988,-0.0,2.120668888092041,4.752456772118368,-0.0,0.2955687940120697,-1.652318302785055,0.0,0.007266092114150524,0.8185113072395325,-0.0,-0.012170142494142056,0.7581393718719482,0.0,0.035165637731552124
438.0,737.0,2.007,0.6173,9.0987,-0.0388,0.0229,-0.1177,-1.6612922153868617,0.0,2.456393241882324,-1.8164781332015991,-0.0,2.0605506896972656,4.752472384810009,-0.0,0.2960057854652405,-1.6523016134845179,0.0,0.005025502759963274,0.8185632228851318,-0.0,-0.013378530740737915,0.7581676840782166,0.0,0.016721202060580254
438.0,737.0,2.007,0.6173,9.0987,-0.0388,0.0229,-0.1177,-1.6612760029234828,0.0,2.490497589111328,-1.816457748413086,-0.0,2.0877246856689453,4.752468171506681,-0.0,0.3044373393058777,-1.6522577444659632,0.0,-0.0018002416472882032,0.8185434341430664,-0.0,-0.014318637549877167,0.758155345916748,0.0,-0.00863387156277895
438.0,737.0,2.007,0.6173,9.0987,-0.0388,0.0229,-0.1177,-1.6612678966917933,0.0,2.4177980422973633,-1.8164864778518677,-0.0,2.059065818786621,4.752468231111326,-0.0,0.2974005341529846,-1.6522496382342737,0.0,-0.004068588372319937,0.8185830116271973,-0.0,-4.3282750993967056e-05,0.7581714987754822,0.0,0.02832464873790741
438.0,737.0,2.007,0.6173,9.0987,-0.0388,0.0229,-0.1177,-1.6613484821715296,0.0,2.4951982498168945,-1.8164864778518677,-0.0,2.1182355880737305,4.752456358611145,-0.0,0.2963929772377014,-1.6522863546954554,0.0,0.0038525445852428675,0.8185395002365112,-0.0,-0.0009047358762472868,0.7581191062927246,0.0,-0.060185305774211884
438.0,737.0,2.007,0.6173,9.0987,-0.0388,0.0229,-0.1177,-1.6613403759398402,0.0,2.4509336948394775,-1.8164535760879517,-0.0,2.089816093444824,4.752520619868793,-0.0,0.29794660210609436,-1.6522977987872522,0.0,-0.00474060932174325,0.8186193704605103,-0.0,-0.011332749389111996,0.7581714987754822,0.0,0.003032367443665862
438.0,737.0,2.007,0.6173,9.0987,-0.0388,0.0229,-0.1177,-1.6612755260863246,0.0,2.4514217376708984,-1.8164142370224,-0.0,2.105152130126953,4.752476456552305,-0.0,0.294469952583313,-1.6522744337665003,0.0,-0.0010921237990260124,0.8185751438140869,-0.0,-0.0026835049502551556,0.758143424987793,0.0,-0.016401469707489014
438.0,737.0,2.007,0.6173,9.0987,-0.0388,0.0229,-0.1177,-1.6613122425475062,0.0,2.4943532943725586,-1.81650710105896,-0.0,2.065934658050537,4.752456414490499,-0.0,0.3001551926136017,-1.6522858778582972,0.0,-0.002315160585567355,0.818595290184021,-0.0,-0.0004258248955011368,0.7581594586372375,0.0,0.0016722624422982335
453.0,758.0,1.9029,0.588,9.3087,-0.0406,0.0212,-0.1185,-1.6612640819945277,0.0,2.509859085083008,-1.8164337873458862,-0.0,2.1191658973693848,4.75244044417099,-0.0,0.29308298230171204,-1.6522863546954554,0.0,0.0010480113560333848,0.818535327911377,-0.0,-0.0038381535559892654,0.758171796798706,0.0,0.03185545653104782
453.0,758.0,1.9029,0.588,9.3087,-0.0406,0.0212,-0.1185,-1.6613003216185511,0.0,2.5278873443603516,-1.8165102005004883,-0.0,2.093902111053467,4.752464546799221,-0.0,0.3009069263935089,-1.6522820631610315,0.0,-0.0011381164658814669,0.8186312913894653,-0.0,-0.003683679271489382,0.7581192851066589,0.0,-0.0007400899194180965
453.0,758.0,1.9029,0.588,9.3087,-0.0406,0.0212,-0.1185,-1.6613003216185511,0.0,2.5085692405700684,-1.8164536952972412,-0.0,2.12648606300354,4.752508758544483,-0.0,0.30154624581336975,-1.6523101965533655,0.0,0.005574189126491547,0.8185952305793762,-0.0,-0.004170908592641354,0.7581352591514587,0.0,-0.025624198839068413
453.0,758.0,1.9029,0.588,9.3087,-0.0406,0.0212,-0.1185,-1.661271711389059,0.0,2.493821859359741,-1.816514492034912,-0.0,2.1065640449523926,4.752472366183557,-0.0,0.292604923248291,-1.652250115071432,0.0,0.009408358484506607,0.8186149597167969,-0.0,0.0005889113526791334,0.7581111192703247,0.0,0.038883745670318604
453.0,758.0,1.9029,0.588,9.3087,-0.0406,0.0212,-0.1185,-1.6612841091551722,0.0,2.518871784210205,-1.816482424736023,-0.0,2.0883803367614746,4.75248837748126,-0.0,0.300811231136322,-1.6522820631610315,0.0,-0.004927904345095158,0.8185312151908875,-0.0,-0.01705571636557579,0.75810706615448,0.0,0.01785881258547306
453.0,758.0,1.9029,0.588,9.3087,-0.0406,0.0212,-0.1185,-1.661271711389059,0.0,2.4960007667541504,-1.8165069818496704,-0.0,2.068153142929077,4.752496517240562,-0.0,0.2909489572048187,-1.652278248463766,0.0,-0.00909552350640297,0.8185911178588867,-0.0,-0.006375448312610388,0.7581193447113037,0.0,0.0636412650346756
453.0,758.0,1.9029,0.588,9.3087,-0.0406,0.0212,-0.1185,-1.6612760029234828,0.0,2.4871225357055664,-1.8164618015289307,-0.0,2.0998876094818115,4.752508747368612,-0.0,0.29015421867370605,-1.6522300879107874,0.0,-0.001097828266210854,0.8185713887214661,-0.0,5.2744289860129356e-05,0.758151650428772,0.0,-0.00801426637917757
453.0,758.0,1.9029,0.588,9.3087,-0.0406,0.0212,-0.1185,-1.6612678966917933,0.0,2.4445719718933105,-1.8164823055267334,-0.0,2.123560667037964,4.7524404031927965,-0.0,0.288419246673584,-1.652262036000387,0.0,-0.0024194512516260147,0.818587064743042,-0.0,0.001380143454298377,0.7581512331962585,0.0,-0.032057251781225204
453.0,758.0,1.9029,0.588,9.3087,-0.0406,0.0212,-0.1185,-1.661283632318014,0.0,2.4510936737060547,-1.816465973854065,-0.0,2.067256450653076,4.752460463881054,-0.0,0.2871531844139099,-1.6522896925555628,0.0,0.010102061554789543,0.8185832500457764,-0.0,-0.0004416631709318608,0.7581915259361267,0.0,-0.06771726906299591
453.0,758.0,1.9029,0.588,9.3087,-0.0406,0.0212,-0.1185,-1.661304613152975,0.0,2.4796509742736816,-1.816457748413086,-0.0,2.1002931594848633,4.7525329170520685,-0.0,0.29942527413368225,-1.6522935072528284,0.0,-0.0067833359353244305,0.8185431957244873,-0.0,-0.0026173810474574566,0.7581393718719482,0.0,-0.0054227495566010475
453.0,758.0,1.9029,0.588,9.3087,-0.0406,0.0212,-0.1185,-1.661304613152975,0.0,2.5229744911193848,-1.8164618015289307,-0.0,2.0867605209350586,4.752476441651144,-0.0,0.300887793302536,-1.652233902608053,0.0,0.000767412013374269,0.8185755610466003,-0.0,-0.005303825717419386,0.7581193447113037,0.0,-0.017540201544761658
453.0,758.0,1.9029,0.588,9.3087,-0.0406,0.0212,-0.1185,-1.6612760029234828,0.0,2.4245588779449463,-1.8164865970611572,-0.0,2.0696980953216553,4.752468238561907,-0.0,0.2900463044643402,-1.6523140112506312,0.0,-0.008770179934799671,0.8185553550720215,-0.0,-0.004726093262434006,0.7581755518913269,0.0,0.044265877455472946
453.0,758.0,1.9029,0.588,9.3087,-0.0406,0.0212,-0.1185,-1.6612559757628382,0.0,2.4527010917663574,-1.8164700269699097,-0.0,2.0923569202423096,4.752500495850601,-0.0,0.30860164761543274,-1.652262036000387,0.0,-0.0039411126635968685,0.8185751438140869,-0.0,-0.005180579610168934,0.7581471800804138,0.0,0.008733558468520641
453.0,758.0,1.9029,0.588,9.3087,-0.0406,0.0212,-0.1185,-1.661283632318014,0.0,2.4884653091430664,-1.8164701461791992,-0.0,2.108161449432373,4.752476832806625,-0.0,0.29965656995773315,-1.652273956929342,0.0,-0.008716540411114693,0.8185393810272217,-0.0,0.0008869844023138285,0.7581635117530823,0.0,0.017658311873674393
444.0,723.0,1.9352,0.5844,9.3075,-0.0304,0.0258,-0.1126,-1.661304613152975,0.0,2.5291481018066406,-1.8164544105529785,-0.0,2.1303610801696777,4.752500592708149,-0.0,0.2928420901298523,-1.652262036000387,0.0,0.009860324673354626,0.818543553352356,-0.0,-0.009609626606106758,0.7581352591514587,0.0,0.005144169554114342
444.0,723.0,1.9352,0.5844,9.3075,-0.0304,0.0258,-0.1126,-1.6613003216185511,0.0,2.4410886764526367,-1.8164502382278442,-0.0,2.1180808544158936,4.75245218256072,-0.0,0.2889562249183655,-1.6523140112506312,0.0,-0.0026662470772862434,0.8185390830039978,-0.0,-0.005666358396410942,0.758155345916748,0.0,0.020886793732643127
444.0,723.0,1.9352,0.5844,9.3075,-0.0304,0.0258,-0.1126,-1.6612879238524378,0.0,2.48036527633667,-1.8164058923721313,-0.0,2.1284570693969727,4.752472355007686,-0.0,0.29411283135414124,-1.6522977987872522,0.0,0.001552956411615014,0.8185352683067322,-0.0,0.0021162242628633976,0.7581673860549927,0.0,0.016227461397647858
444.0,723.0,1.9352,0.5844,9.3075,-0.0304,0.0258,-0.1126,-1.6613003216185511,0.0,2.4778881072998047,-1.8164701461791992,-0.0,2.0974950790405273,4.75248051711873,-0.0,0.3110921382904053,-1.6522863546954554,0.0,-0.002972965594381094,0.8185431361198425,-0.0,-0.010114442557096481,0.7581834197044373,0.0,0.04369046539068222
444.0,723.0,1.9352,0.5844,9.3075,-0.0304,0.0258,-0.1126,-1.6612922153868617,0.0,2.47696590423584,-1.816457748413086,-0.0,2.1329360008239746,4.752504679351606,-0.0,0.30092960596084595,-1.652278248463766,0.0,-0.001138758845627308,0.818547248840332,-0.0,0.0005498176906257868,0.7581833600997925,0.0,-0.011888453736901283
444.0,723.0,1.9352,0.5844,9.3075,-0.0304,0.0258,-0.1126,-1.6612841091551722,0.0,2.4633359909057617,-1.8164584636688232,-0.0,2.0963034629821777,4.752492438047685,-0.0,0.29209327697753906,-1.6522300879107874,0.0,-0.007423081900924444,0.8186075091362,-0.0,-0.006917477119714022,0.7581793069839478,0.0,-0.002383427694439888
444.0,723.0,1.9352,0.5844,9.3075,-0.0304,0.0258,-0.1126,-1.661328455010885,0.0,2.490100622177124,-1.8164461851119995,-0.0,2.115607500076294,4.75248051339344,-0.0,0.28227096796035767,-1.6523016134845179,0.0,0.0022224311251193285,0.8185312151908875,-0.0,-0.013174271211028099,0.758171558380127,0.0,-0.0029073944315314293
444.0,723.0,1.9352,0.5844,9.3075,-0.0304,0.0258,-0.1126,-1.6613203487791957,0.0,2.515326976776123,-1.816474199295044,-0.0,2.088588237762451,4.752460430353441,-0.0,0.2924260199069977,-1.6522863546954554,0.0,0.006371356546878815,0.8185791969299316,-0.0,0.0027179515454918146,0.7581393122673035,0.0,-0.017367446795105934
444.0,723.0,1.9352,0.5844,9.3075,-0.0304,0.0258,-0.1126,-1.661283632318014,0.0,2.4729771614074707,-1.8164864778518677,-0.0,2.0837223529815674,4.752456380962887,-0.0,0.30460742115974426,-1.6522658506976526,0.0,-0.0005086471792310476,0.8185635805130005,-0.0,-0.0030698806513100863,0.7581272721290588,0.0,0.015463492833077908
444.0,723.0,1.9352,0.5844,9.3075,-0.0304,0.0258,-0.1126,-1.6612879238524378,0.0,2.466442584991455,-1.816490650177002,-0.0,2.097099542617798,4.75247239971117,-0.0,0.299495130777359,-1.6522539297686976,0.0,-0.004433079157024622,0.8185833096504211,-0.0,0.004038022831082344,0.7581834197044373,0.0,0.023810792714357376
444.0,723.0,1.9352,0.5844,9.3075,-0.0304,0.0258,-0.1126,-1.6612478695311488,0.0,2.517465353012085,-1.8164215087890625,-0.0,2.048292875289917,4.752476441651144,-0.0,0.2853095233440399,-1.652278248463766,0.0,-0.01289074681699276,0.8185312747955322,-0.0,-0.011891203001141548,0.7581193447113037,0.0,-0.027639519423246384
444.0,723.0,1.9352,0.5844,9.3075,-0.0304,0.0258,-0.1126,-1.6613203487791957,0.0,2.502211093902588,-1.816418170928955,-0.0,2.117629051208496,4.752456000983276,-0.0,0.2965119779109955,-1.652290169392721,0.0,0.0005688214441761374,0.8185312747955322,-0.0,0.004254242405295372,0.7581915855407715,0.0,0.046216581016778946
444.0,723.0,1.9352,0.5844,9.3075,-0.0304,0.0258,-0.1126,-1.6612798176207484,0.0,2.447880506515503,-1.816506266593933,-0.0,2.057734727859497,4.752460013120928,-0.0,0.29893758893013,-1.652245823537008,0.0,0.006220703944563866,0.8185595273971558,-0.0,0.0010823698248714209,0.7581512331962585,0.0,0.023882368579506874
455.0,735.0,1.9238,0.6012,9.3075,-0.0345,0.0231,-0.1159,-1.6612879238524378,0.0,2.482703924179077,-1.8164420127868652,-0.0,2.0981502532958984,4.752464554249801,-0.0,0.28818684816360474,-1.6523221174823206,0.0,0.0054442789405584335,0.8185189962387085,-0.0,-0.009961294941604137,0.7581232190132141,0.0,0.026982014998793602
455.0,735.0,1.9238,0.6012,9.3075,-0.0345,0.0231,-0.1159,-1.661271711389059,0.0,2.4610655307769775,-1.8164420127868652,-0.0,2.107006072998047,4.752460478782215,-0.0,0.29729288816452026,-1.652278248463766,0.0,-0.005177753511816263,0.8185394406318665,-0.0,-0.010611237026751041,0.758187472820282,0.0,0.03126247972249985
455.0,735.0,1.9238,0.6012,9.3075,-0.0345,0.0231,-0.1159,-1.6613122425475062,0.0,2.5159146785736084,-1.8164740800857544,-0.0,2.083775043487549,4.752508691489258,-0.0,0.3002625107765198,-1.652262036000387,0.0,0.002006656490266323,0.8185352683067322,-0.0,-0.009097754023969173,0.758155345916748,0.0,0.014568696729838848
455.0,735.0,1.9238,0.6012,9.3075,-0.0345,0.0231,-0.1159,-1.66131653408193,0.0,2.4791784286499023,-1.8164782524108887,-0.0,2.1133575439453125,4.752492438047685,-0.0,0.29209935665130615,-1.652250115071432,0.0,0.0023903041146695614,0.8186033368110657,-0.0,-0.0055086310021579266,0.7581232190132141,0.0,-0.001264265738427639
455.0,735.0,1.9238,0.6012,9.3075,-0.0345,0.0231,-0.1159,-1.6613122425475062,0.0,2.471248149871826,-1.816490650177002,-0.0,2.0962910652160645,4.752516451268949,-0.0,0.28683507442474365,-1.6522744337665003,0.0,-0.006234152242541313,0.818535327911377,-0.0,-0.007330300286412239,0.7581833600997925,0.0,0.00046421587467193604
455.0,735.0,1.9238,0.6012,9.3075,-0.0345,0.0231,-0.1159,-1.661304613152975,0.0,2.5311310291290283,-1.8165020942687988,-0.0,2.0561745166778564,4.752444452583351,-0.0,0.28967490792274475,-1.6522696653949183,0.0,-0.0019344525644555688,0.818599283695221,-0.0,0.008194365538656712,0.758163332939148,0.0,-0.024869460612535477
455.0,735.0,1.9238,0.6012,9.3075,-0.0345,0.0231,-0.1159,-1.66131653408193,0.0,2.4643707275390625,-1.8165391683578491,-0.0,2.097384214401245,4.75253667586998,-0.0,0.28987693786621094,-1.652318302785055,0.0,0.006518125534057617,0.8185551166534424,-0.0,-0.0025780401192605495,0.7581512331962585,0.0,-0.016796981915831566
455.0,735.0,1.9238,0.6012,9.3075,-0.0345,0.0231,-0.1159,-1.6612922153868617,0.0,2.5099730491638184,-1.8164420127868652,-0.0,2.055637836456299,4.752496517240562,-0.0,0.2858344316482544,-1.652245823537008,0.0,-0.008268490433692932,0.8185830116271973,-0.0,-0.00579322874546051,0.7581313848495483,0.0,0.005689992103725672
455.0,735.0,1.9238,0.6012,9.3075,-0.0345,0.0231,-0.1159,-1.6612760029234828,0.0,2.4730207920074463,-1.8164502382278442,-0.0,2.1158430576324463,4.752476441651144,-0.0,0.2944629192352295,-1.6522977987872522,0.0,0.0032549211755394936,0.8185832500457764,-0.0,0.009507226757705212,0.75810706615448,0.0,0.006177413742989302
455.0,735.0,1.9238,0.6012,9.3075,-0.0345,0.0231,-0.1159,-1.6612841091551722,0.0,2.475515842437744,-1.81650710105896,-0.0,2.0802321434020996,4.752496517240562,-0.0,0.29944050312042236,-1.6522539297686976,0.0,0.005378369241952896,0.8186072111129761,-0.0,0.0008469316526316106,0.758155345916748,0.0,-0.03463739529252052
455.0,735.0,1.9238,0.6012,9.3075,-0.0345,0.0231,-0.1159,-1.6612922153868617,0.0,2.461214780807495,-1.8164700269699097,-0.0,2.0564613342285156,4.752480125963249,-0.0,0.2970637083053589,-1.652262036000387,0.0,-0.004861318971961737,0.818543553352356,-0.0,-0.018079698085784912,0.7581593990325928,0.0,0.05137842148542404
455.0,735.0,1.9238,0.6012,9.3075,-0.0345,0.0231,-0.1159,-1.6612397632994593,0.0,2.478023052215576,-1.8164255619049072,-0.0,2.0423338413238525,4.75243220382885,-0.0,0.29416322708129883,-1.6522577444659632,0.0,-0.006445147097110748,0.8185713291168213,-0.0,0.011998622678220272,0.758163571357727,0.0,0.012181468307971954
455.0,735.0,1.9238,0.6012,9.3075,-0.0345,0.0231,-0.1159,-1.661283632318014,0.0,2.4599239826202393,-1.8165225982666016,-0.0,2.1019279956817627,4.7525128340120695,-0.0,0.29980558156967163,-1.6522820631610315,0.0,-0.0044512441381812096,0.8185792565345764,-0.0,-0.00663997046649456,0.7581673860549927,0.0,-0.00892791897058487
455.0,735.0,1.9238,0.6012,9.3075,-0.0345,0.0231,-0.1159,-1.6613003216185511,0.0,2.483372449874878,-1.8164584636688232,-0.0,2.04406476020813,4.752452208637752,-0.0,0.2844396233558655,-1.6522658506976526,0.0,-0.00045510707423090935,0.8185756206512451,-0.0,0.0024350308813154697,0.7581354975700378,0.0,0.003060765564441681
444.0,730.0,1.8574,0.5474,9.4977,-0.0391,0.0174,-0.1141,-1.6613079510130824,0.0,2.4398250579833984,-1.8164781332015991,-0.0,2.1213436126708984,4.752480505942859,-0.0,0.31080567836761475,-1.652278248463766,0.0,-0.0050463322550058365,0.818543553352356,-0.0,-0.0018512934911996126,0.7581594586372375,0.0,0.0066277566365897655
444.0,730.0,1.8574,0.5474,9.4977,-0.0391,0.0174,-0.1141,-1.661283632318014,0.0,2.487170696258545,-1.8164947032928467,-0.0,2.1223342418670654,4.752508799522676,-0.0,0.2945155203342438,-1.652278248463766,0.0,0.0016495299059897661,0.8185713887214661,-0.0,-0.005778589751571417,0.758163332939148,0.0,-0.022480860352516174
444.0,730.0,1.8574,0.5474,9.4977,-0.0391,0.0174,-0.1141,-1.6612640819945277,0.0,2.493370294570923,-1.8164947032928467,-0.0,2.1339645385742188,4.752492359816589,-0.0,0.29118311405181885,-1.652250115071432,0.0,-0.011986572295427322,0.8185632228851318,-0.0,-0.00662493659183383,0.758143424987793,0.0,-0.023625992238521576
444.0,730.0,1.8574,0.5474,9.4977,-0.0391,0.0174,-0.1141,-1.6612960300841273,0.0,2.5259790420532227,-1.8164864778518677,-0.0,2.08650541305542,4.752484596311607,-0.0,0.2992528975009918,-1.6522658506976526,0.0,-0.0017148279584944248,0.8185833096504211,-0.0,0.00214073876850307,0.7581273317337036,0.0,0.01602080836892128
444.0,730.0,1.8574,0.5474,9.4977,-0.0391,0.0174,-0.1141,-1.6613084278502406,0.0,2.4959611892700195,-1.8165102005004883,-0.0,2.089371681213379,4.752448133170166,-0.0,0.29909127950668335,-1.6522744337665003,0.0,-0.00927706342190504,0.8185393810272217,-0.0,-0.004853906575590372,0.7581676840782166,0.0,-0.02753496542572975
444.0,730.0,1.8574,0.5474,9.4977,-0.0391,0.0174,-0.1141,-1.661283632318014,0.0,2.4128050804138184,-1.8164701461791992,-0.0,2.104285478591919,4.752484596311607,-0.0,0.29057779908180237,-1.652278248463766,0.0,-0.013091705739498138,0.8185312151908875,-0.0,-0.008535470813512802,0.7581594586372375,0.0,7.092813029885292e-05
444.0,730.0,1.8574,0.5474,9.4977,-0.0391,0.0174,-0.1141,-1.6612802944579066,0.0,2.51529598236084,-1.8164700269699097,-0.0,2.061499834060669,4.752468231111326,-0.0,0.2976545989513397,-1.6522257963763636,0.0,0.0061713289469480515,0.8185713887214661,-0.0,0.00019842851907014847,0.7581714391708374,0.0,-0.013551592826843262
444.0,730.0,1.8574,0.5474,9.4977,-0.0391,0.0174,-0.1141,-1.6612760029234828,0.0,2.4694066047668457,-1.8164987564086914,-0.0,2.033196210861206,4.7524723810847185,-0.0,0.28618431091308594,-1.652278248463766,0.0,0.006652261596173048,0.818543553352356,-0.0,-0.007320588454604149,0.7581755518913269,0.0,0.007300152443349361
444.0,730.0,1.8574,0.5474,9.4977,-0.0391,0.0174,-0.1141,-1.6612922153868617,0.0,2.4778881072998047,-1.8164700269699097,-0.0,2.09973406791687,4.752468205034294,-0.0,0.2916523814201355,-1.652250115071432,0.0,-0.0007855994626879692,0.8186033368110657,-0.0,-0.00413573207333684,0.758155345916748,0.0,-0.024353668093681335
444.0,730.0,1.8574,0.5474,9.4977,-0.0391,0.0174,-0.1141,-1.6612922153868617,0.0,2.4895691871643066,-1.8164544105529785,-0.0,2.1004087924957275,4.752460452705183,-0.0,0.28766047954559326,-1.6522701422320765,0.0,-0.0006209660787135363,0.818587064743042,-0.0,-0.003010660642758012,0.7581512331962585,0.0,-0.021616116166114807
444.0,730.0,1.8574,0.5474,9.4977,-0.0391,0.0174,-0.1141,-1.6612516842284144,0.0,2.4601337909698486,-1.8164865970611572,-0.0,2.0881452560424805,4.752456373512306,-0.0,0.28843533992767334,-1.6522381941424769,0.0,-0.0095474012196064,0.8185230493545532,-0.0,0.013372333720326424,0.758143424987793,0.0,0.03182734176516533
444.0,730.0,1.8574,0.5474,9.4977,-0.0391,0.0174,-0.1141,-1.6612960300841273,0.0,2.4843411445617676,-1.8164658546447754,-0.0,2.051006317138672,4.7524603744740865,-0.0,0.2952335774898529,-1.6522744337665003,0.0,0.0006181193748489022,0.8185791969299316,-0.0,-0.01101606898009777,0.7581352591514587,0.0,0.012645414099097252
444.0,730.0,1.8574,0.5474,9.4977,-0.0391,0.0174,-0.1141,-1.6612760029234828,0.0,2.460103750228882,-1.8165061473846436,-0.0,2.095043659210205,4.752472369908848,-0.0,0.2898496389389038,-1.6523059050189417,0.0,-0.004431824665516615,0.8185553550720215,-0.0,0.015373701229691505,0.758155345916748,0.0,0.006115298718214035
444.0,730.0,1.8574,0.5474,9.4977,-0.0391,0.0174,-0.1141,-1.6612760029234828,0.0,2.4886887073516846,-1.8164700269699097,-0.0,2.1187264919281006,4.752512886166134,-0.0,0.29377883672714233,-1.6522744337665003,0.0,-0.0024721885565668344,0.8185312151908875,-0.0,-0.008165404200553894,0.7581355571746826,0.0,0.001589096151292324
446.0,743.0,1.6463,0.463,9.8513,-0.0338,0.0128,-0.1095,-1.661283632318014,0.0,2.4434616565704346,-1.8164297342300415,-0.0,2.084444522857666,4.752472366183557,-0.0,0.29955291748046875,-1.6522577444659632,0.0,0.0009786949958652258,0.8185271620750427,-0.0,-0.016989119350910187,0.7581797242164612,0.0,-0.0056937336921691895
446.0,743.0,1.6463,0.463,9.8513,-0.0338,0.0128,-0.1095,-1.661328455010885,0.0,2.4999098777770996,-1.8164701461791992,-0.0,2.090893030166626,4.752472362458267,-0.0,0.3015888035297394,-1.6523140112506312,0.0,0.009278872981667519,0.8185517191886902,-0.0,-0.0038348333910107613,0.7581593990325928,0.0,-0.019662732258439064
446.0,743.0,1.6463,0.463,9.8513,-0.0338,0.0128,-0.1095,-1.661283632318014,0.0,2.5121347904205322,-1.8164700269699097,-0.0,2.042375087738037,4.752464520722189,-0.0,0.2990718185901642,-1.6522863546954554,0.0,-0.004275813698768616,0.8185591101646423,-0.0,-0.01141408272087574,0.758135199546814,0.0,-0.003951308783143759
446.0,743.0,1.6463,0.463,9.8513,-0.0338,0.0128,-0.1095,-1.6612917385497035,0.0,2.4942739009857178,-1.8164658546447754,-0.0,2.0840394496917725,4.752496941923656,-0.0,0.2946256101131439,-1.6522539297686976,0.0,-0.0076638273894786835,0.818547248840332,-0.0,-0.0024504493921995163,0.7581673264503479,0.0,0.004343567416071892
446.0,743.0,1.6463,0.463,9.8513,-0.0338,0.0128,-0.1095,-1.6613003216185511,0.0,2.4850528240203857,-1.8164100646972656,-0.0,2.0950348377227783,4.752488429635324,-0.0,0.2936055660247803,-1.6522496382342737,0.0,-0.002806856296956539,0.8184787631034851,-0.0,-0.009222989901900291,0.7581511735916138,0.0,0.009975193999707699
446.0,743.0,1.6463,0.463,9.8513,-0.0338,0.0128,-0.1095,-1.6612473926939906,0.0,2.493567943572998,-1.816457748413086,-0.0,2.0799593925476074,4.7524883700306795,-0.0,0.2930011451244354,-1.6522744337665003,0.0,-0.0015280755469575524,0.8185632228851318,-0.0,-0.013697796501219273,0.7581272721290588,0.0,0.026646116748452187
446.0,743.0,1.6463,0.463,9.8513,-0.0338,0.0128,-0.1095,-1.6612678966917933,0.0,2.4259748458862305,-1.8164823055267334,-0.0,2.1047096252441406,4.752472377359428,-0.0,0.3052513897418976,-1.6522577444659632,0.0,0.0018101446330547333,0.818514883518219,-0.0,-0.002549869706854224,0.7581191062927246,0.0,-0.009169874712824821
446.0,743.0,1.6463,0.463,9.8513,-0.0338,0.0128,-0.1095,-1.6613203487791957,0.0,2.51336932182312,-1.816474199295044,-0.0,2.073223114013672,4.75248837748126,-0.0,0.28854653239250183,-1.652278248463766,0.0,-0.0012882862938567996,0.8185833096504211,-0.0,-0.0015319355297833681,0.7581354975700378,0.0,0.0007676620734855533
446.0,743.0,1.6463,0.463,9.8513,-0.0338,0.0128,-0.1095,-1.6613079510130824,0.0,2.4468631744384766,-1.8164658546447754,-0.0,2.1039748191833496,4.752480077534475,-0.0,0.2913869619369507,-1.6523340384112757,0.0,0.0025785535108298063,0.8185672760009766,-0.0,-0.006083296611905098,0.75810706615448,0.0,-0.02990175597369671
446.0,743.0,1.6463,0.463,9.8513,-0.0338,0.0128,-0.1095,-1.6613127193846644,0.0,2.4757578372955322,-1.8164743185043335,-0.0,2.1240432262420654,4.75252070182518,-0.0,0.3016258180141449,-1.6523459593402308,0.0,-0.007789964787662029,0.8185632228851318,-0.0,-0.006360635161399841,0.7581635117530823,0.0,-0.07708188891410828
446.0,743.0,1.6463,0.463,9.8513,-0.0338,0.0128,-0.1095,-1.661283632318014,0.0,2.4962191581726074,-1.8164576292037964,-0.0,2.064701557159424,4.752468570112743,-0.0,0.2998008131980896,-1.652278248463766,0.0,0.0048103793524205685,0.8186075687408447,-0.0,-0.0010229849722236395,0.7581313848495483,0.0,-0.018238607794046402
446.0,743.0,1.6463,0.463,9.8513,-0.0338,0.0128,-0.1095,-1.6612760029234828,0.0,2.4861602783203125,-1.816530704498291,-0.0,2.0343310832977295,4.752500521927633,-0.0,0.29147544503211975,-1.652262036000387,0.0,0.0036994561087340117,0.8185149431228638,-0.0,0.002632526680827141,0.7581676244735718,0.0,0.021714776754379272
446.0,743.0,1.6463,0.463,9.8513,-0.0338,0.0128,-0.1095,-1.661283632318014,0.0,2.500901222229004,-1.8164618015289307,-0.0,2.1027228832244873,4.752484231233158,-0.0,0.29418081045150757,-1.6522896925555628,0.0,-0.007835953496396542,0.8185230493545532,-0.0,0.0039330231957137585,0.7581511735916138,0.0,0.0006288063596002758
446.0,743.0,1.6463,0.463,9.8513,-0.0338,0.0128,-0.1095,-1.6613084278502406,0.0,2.46793532371521,-1.8164947032928467,-0.0,2.0754451751708984,4.752452599793234,-0.0,0.29300621151924133,-1.6523059050189417,0.0,0.006525901146233082,0.8185513019561768,-0.0,-0.0023731891997158527,0.7581475377082825,0.0,0.006960854399949312
450.0,753.0,1.8766,0.5886,9.3278,-0.0347,0.0209,-0.1184,-1.6612516842284144,0.0,2.474722385406494,-1.8164215087890625,-0.0,2.0733609199523926,4.752500663488664,-0.0,0.2921869158744812,-1.6522257963763636,0.0,-0.016905786469578743,0.818547248840332,-0.0,0.0028416330460458994,0.758143424987793,0.0,-0.022789426147937775
450.0,753.0,1.8766,0.5886,9.3278,-0.0347,0.0209,-0.1184,-1.6612960300841273,0.0,2.4860262870788574,-1.8164823055267334,-0.0,2.1047770977020264,4.752444053977289,-0.0,0.28859618306159973,-1.6522896925555628,0.0,-0.001320296199992299,0.8185874223709106,-0.0,-0.00286821648478508,0.758163332939148,0.0,-0.034500423818826675
450.0,753.0,1.8766,0.5886,9.3278,-0.0347,0.0209,-0.1184,-1.6613246403136195,0.0,2.5064260959625244,-1.8164782524108887,-0.0,2.084306478500366,4.752492475300588,-0.0,0.2860087752342224,-1.6522577444659632,0.0,-0.001279601245187223,0.8185871243476868,-0.0,0.008571123704314232,0.7581512331962585,0.0,-0.04610230028629303
450.0,753.0,1.8766,0.5886,9.3278,-0.0347,0.0209,-0.1184,-1.6612760029234828,0.0,2.524268627166748,-1.8165152072906494,-0.0,2.0633273124694824,4.752464520722189,-0.0,0.3031042814254761,-1.6522777716266077,0.0,-0.004084262531250715,0.8185189962387085,-0.0,0.00745454803109169,0.7581833600997925,0.0,-0.008802160620689392
450.0,753.0,1.8766,0.5886,9.3278,-0.0347,0.0209,-0.1184,-1.661271711389059,0.0,2.4527032375335693,-1.8164740800857544,-0.0,2.1168484687805176,4.752476441651144,-0.0,0.2770790457725525,-1.6522658506976526,0.0,-0.0024692618753761053,0.8185271620750427,-0.0,0.002033428754657507,0.7582118511199951,0.0,-0.03707600757479668
450.0,753.0,1.8766,0.5886,9.3278,-0.0347,0.0209,-0.1184,-1.6613084278502406,0.0,2.4982995986938477,-1.816506266593933,-0.0,2.057953357696533,4.752552720695295,-0.0,0.2898482084274292,-1.6522658506976526,0.0,0.01348018366843462,0.8185431957244873,-0.0,-0.003156171413138509,0.7581232190132141,0.0,-0.012658449821174145
450.0,753.0,1.8766,0.5886,9.3278,-0.0347,0.0209,-0.1184,-1.661283632318014,0.0,2.4764420986175537,-1.8164948225021362,-0.0,2.120820999145508,4.752460430353441,-0.0,0.2940559387207031,-1.6522744337665003,0.0,0.007070937193930149,0.8185673356056213,-0.0,-0.008671741932630539,0.7581393718719482,0.0,0.016417523846030235
450.0,753.0,1.8766,0.5886,9.3278,-0.0347,0.0209,-0.1184,-1.6612678966917933,0.0,2.4778945446014404,-1.8164337873458862,-0.0,2.1079142093658447,4.752456343709984,-0.0,0.28494903445243835,-1.6522701422320765,0.0,-0.015252330340445042,0.8185271620750427,-0.0,-0.01204635389149189,0.7581311464309692,0.0,0.009768664836883545
450.0,753.0,1.8766,0.5886,9.3278,-0.0347,0.0209,-0.1184,-1.6613003216185511,0.0,2.488276481628418,-1.816418170928955,-0.0,2.1174612045288086,4.752440332412281,-0.0,0.301408588886261,-1.652245823537008,0.0,-0.006881942041218281,0.818535327911377,-0.0,0.00028148898854851723,0.7581714987754822,0.0,0.026042314246296883
450.0,753.0,1.8766,0.5886,9.3278,-0.0347,0.0209,-0.1184,-1.6612678966917933,0.0,2.5023255348205566,-1.8164616823196411,-0.0,2.0624473094940186,4.752448509424486,-0.0,0.2958545684814453,-1.6522658506976526,0.0,0.0014315283624455333,0.8185553550720215,-0.0,-0.012713147327303886,0.7581593990325928,0.0,-0.027898412197828293
450.0,753.0,1.8766,0.5886,9.3278,-0.0347,0.0209,-0.1184,-1.6612798176207484,0.0,2.5269980430603027,-1.8164740800857544,-0.0,2.094802141189575,4.752496539592304,-0.0,0.290103018283844,-1.6522858778582972,0.0,-0.00648886663839221,0.8185751438140869,-0.0,-0.0029269566293805838,0.758155345916748,0.0,0.025451013818383217
450.0,753.0,1.8766,0.5886,9.3278,-0.0347,0.0209,-0.1184,-1.6613246403136195,0.0,2.4990286827087402,-1.816474199295044,-0.0,2.07379412651062,4.752468205034294,-0.0,0.29043248295783997,-1.6523140112506312,0.0,0.00805169902741909,0.8185471892356873,-0.0,0.011374574154615402,0.758155345916748,0.0,0.010794597677886486
450.0,753.0,1.8766,0.5886,9.3278,-0.0347,0.0209,-0.1184,-1.6613246403136195,0.0,2.5042402744293213,-1.8164576292037964,-0.0,2.1165285110473633,4.752476441651144,-0.0,0.2995954751968384,-1.65233022371401,0.0,-0.005462567321956158,0.8185673356056213,-0.0,-0.0017157800029963255,0.7581755518913269,0.0,-0.010836385190486908
437.0,767.0,1.8616,0.5701,9.4421,-0.0281,0.0209,-0.113,-1.6612636051573695,0.0,2.4851279258728027,-1.8164905309677124,-0.0,2.0899877548217773,4.752452171384849,-0.0,0.304363876581192,-1.6523140112506312,0.0,0.0030033360235393047,0.8186312913894653,-0.0,0.005037202034145594,0.7581593990325928,0.0,0.024686697870492935
437.0,767.0,1.8616,0.5701,9.4421,-0.0281,0.0209,-0.113,-1.661283632318014,0.0,2.4666903018951416,-1.8164502382278442,-0.0,2.1196036338806152,4.752456373512306,-0.0,0.2831157147884369,-1.6522858778582972,0.0,-0.0019870037212967873,0.8185791969299316,-0.0,-0.0022836567368358374,0.7581313848495483,0.0,0.04856771230697632
437.0,767.0,1.8616,0.5701,9.4421,-0.0281,0.0209,-0.113,-1.6612636051573695,0.0,2.481376886367798,-1.8165227174758911,-0.0,2.0619678497314453,4.7524645058210275,-0.0,0.2894935607910156,-1.6522820631610315,0.0,0.0047442857176065445,0.8185955286026001,-0.0,0.0030523063614964485,0.7581593990325928,0.0,0.01716621220111847
437.0,767.0,1.8616,0.5701,9.4421,-0.0281,0.0209,-0.113,-1.661304613152975,0.0,2.49503755569458,-1.816449522972107,-0.0,2.091549873352051,4.752415816276827,-0.0,0.27283865213394165,-1.6523178259478968,0.0,0.01248063426464796,0.8185672760009766,-0.0,-0.005705575924366713,0.7581512331962585,0.0,-0.01422547921538353
437.0,767.0,1.8616,0.5701,9.4421,-0.0281,0.0209,-0.113,-1.6612478695311488,0.0,2.493941307067871,-1.8164256811141968,-0.0,2.1147022247314453,4.752516499697723,-0.0,0.28938838839530945,-1.652290169392721,0.0,-0.003884036559611559,0.8185791969299316,-0.0,-0.00810454785823822,0.7581673860549927,0.0,0.015524063259363174
437.0,767.0,1.8616,0.5701,9.4421,-0.0281,0.0209,-0.113,-1.661328455010885,0.0,2.444675922393799,-1.8164379596710205,-0.0,2.04835844039917,4.752452599793234,-0.0,0.30629247426986694,-1.652278248463766,0.0,-0.006904535926878452,0.8185189962387085,-0.0,6.767938612028956e-05,0.7581232190132141,0.0,0.00484719593077898
437.0,767.0,1.8616,0.5701,9.4421,-0.0281,0.0209,-0.113,-1.6612798176207484,0.0,2.4224507808685303,-1.816474199295044,-0.0,2.113330841064453,4.752468205034294,-0.0,0.2880779802799225,-1.6522820631610315,0.0,-0.002245365409180522,0.8185393810272217,-0.0,-0.0027898973785340786,0.7581475377082825,0.0,-0.011148886755108833
437.0,767.0,1.8616,0.5701,9.4421,-0.0281,0.0209,-0.113,-1.6612922153868617,0.0,2.5227420330047607,-1.8164905309677124,-0.0,2.1053273677825928,4.752528830408611,-0.0,0.29759228229522705,-1.652245823537008,0.0,-0.00046152248978614807,0.8185911178588867,-0.0,0.0030884426087141037,0.7581673860549927,0.0,0.0057095717638731
437.0,767.0,1.8616,0.5701,9.4421,-0.0281,0.0209,-0.113,-1.661283632318014,0.0,2.485365390777588,-1.8164215087890625,-0.0,2.065009593963623,4.752500521927633,-0.0,0.29177147150039673,-1.6522658506976526,0.0,-0.00399512704461813,0.8185513019561768,-0.0,-0.019678950309753418,0.7581635117530823,0.0,-0.017328588292002678
437.0,767.0,1.8616,0.5701,9.4421,-0.0281,0.0209,-0.113,-1.661283632318014,0.0,2.495816230773926,-1.8164864778518677,-0.0,2.0173144340515137,4.75251284146265,-0.0,0.28666236996650696,-1.6523140112506312,0.0,0.007054186891764402,0.8184908032417297,-0.0,-0.003062058473005891,0.7581879496574402,0.0,-0.008753414265811443
437.0,767.0,1.8616,0.5701,9.4421,-0.0281,0.0209,-0.113,-1.6612516842284144,0.0,2.4963414669036865,-1.8164535760879517,-0.0,2.121890068054199,4.752480159490862,-0.0,0.3122250437736511,-1.6522858778582972,0.0,-0.006495087873190641,0.8185672760009766,-0.0,-0.0016125976108014584,0.7581593990325928,0.0,0.020634077489376068
437.0,767.0,1.8616,0.5701,9.4421,-0.0281,0.0209,-0.113,-1.6612597904601039,0.0,2.4174604415893555,-1.816490650177002,-0.0,2.0982298851013184,4.752440369665184,-0.0,0.2988736033439636,-1.6523101965533655,0.0,0.0036040309350937605,0.8184989094734192,-0.0,-0.004824630916118622,0.7581232190132141,0.0,-0.016729898750782013
437.0,767.0,1.8616,0.5701,9.4421,-0.0281,0.0209,-0.113,-1.6612721882262171,0.0,2.4853599071502686,-1.816457748413086,-0.0,2.0944466590881348,4.7525087659950636,-0.0,0.29457423090934753,-1.652262036000387,0.0,-0.0015996508300304413,0.8185312151908875,-0.0,-0.009642962366342545,0.7581635117530823,0.0,0.011123569682240486
437.0,767.0,1.8616,0.5701,9.4421,-0.0281,0.0209,-0.113,-1.6613122425475062,0.0,2.453916072845459,-1.8164379596710205,-0.0,2.064776659011841,4.752464520722189,-0.0,0.2994031310081482,-1.6522744337665003,0.0,-0.0023733903653919697,0.818595290184021,-0.0,-0.0030438939575105906,0.758155345916748,0.0,-0.007907949388027191
435.0,743.0,1.9436,0.6126,9.1555,-0.0444,0.0279,-0.0884,-1.6612516842284144,0.0,2.511298179626465,-1.8164701461791992,-0.0,2.1138546466827393,4.7525087399180315,-0.0,0.29658451676368713,-1.6522820631610315,0.0,0.004108024295419455,0.818498969078064,-0.0,0.003954255022108555,0.7581512331962585,0.0,-0.02483728900551796
435.0,743.0,1.9436,0.6126,9.1555,-0.0444,0.0279,-0.0884,-1.661356588403219,0.0,2.4878690242767334,-1.8164987564086914,-0.0,2.0551939010620117,4.752460445254602,-0.0,0.29201650619506836,-1.6523101965533655,0.0,0.007796133868396282,0.8186033964157104,-0.0,0.003970050718635321,0.7581594586372375,0.0,-0.01599695533514023
435.0,743.0,1.9436,0.6126,9.1555,-0.0444,0.0279,-0.0884,-1.661283632318014,0.0,2.5203163623809814,-1.8164823055267334,-0.0,2.0984697341918945,4.752504694252767,-0.0,0.3000308871269226,-1.6522820631610315,0.0,-0.004566036630421877,0.8185394406318665,-0.0,-0.00031411973759531975,0.7581190466880798,0.0,-0.01983311027288437
435.0,743.0,1.9436,0.6126,9.1555,-0.0444,0.0279,-0.0884,-1.6613003216185511,0.0,2.4701030254364014,-1.8165061473846436,-0.0,2.075161933898926,4.752448531776228,-0.0,0.28576454520225525,-1.6522977987872522,0.0,0.007869753986597061,0.8185553550720215,-0.0,-0.007362117059528828,0.7581354975700378,0.0,0.0434693843126297
435.0,743.0,1.9436,0.6126,9.1555,-0.0444,0.0279,-0.0884,-1.6613041363158167,0.0,2.4408962726593018,-1.8164658546447754,-0.0,2.1124017238616943,4.752512826561489,-0.0,0.29454943537712097,-1.6523059050189417,0.0,0.008429834619164467,0.8185553550720215,-0.0,-0.0004331734962761402,0.7581396102905273,0.0,0.00414695031940937
435.0,743.0,1.9436,0.6126,9.1555,-0.0444,0.0279,-0.0884,-1.6612879238524378,0.0,2.4408445358276367,-1.816498875617981,-0.0,2.1036603450775146,4.7525169281061075,-0.0,0.2902798056602478,-1.6522701422320765,0.0,0.009965462610125542,0.8185471892356873,-0.0,-0.008786979131400585,0.7581512331962585,0.0,0.031205009669065475
435.0,743.0,1.9436,0.6126,9.1555,-0.0444,0.0279,-0.0884,-1.661283632318014,0.0,2.558478355407715,-1.8164182901382446,-0.0,2.0912563800811768,4.752508780896225,-0.0,0.30539947748184204,-1.6522744337665003,0.0,-0.005238544661551714,0.818547248840332,-0.0,-0.002043408341705799,0.7582155466079712,0.0,0.016413498669862747
435.0,743.0,1.9436,0.6126,9.1555,-0.0444,0.0279,-0.0884,-1.6613003216185511,0.0,2.4926059246063232,-1.8164494037628174,-0.0,2.091752290725708,4.752460467606344,-0.0,0.2946874797344208,-1.6522420088397425,0.0,-0.0031641812529414892,0.8185874223709106,-0.0,0.00545450858771801,0.7581393718719482,0.0,0.02051367424428463
435.0,743.0,1.9436,0.6126,9.1555,-0.0444,0.0279,-0.0884,-1.6612960300841273,0.0,2.476503849029541,-1.8164700269699097,-0.0,2.104814291000366,4.752403861820259,-0.0,0.30023670196533203,-1.6522858778582972,0.0,-0.006509213708341122,0.8185632228851318,-0.0,0.0024704551324248314,0.758135199546814,0.0,0.0031513990834355354
435.0,743.0,1.9436,0.6126,9.1555,-0.0444,0.0279,-0.0884,-1.6612640819945277,0.0,2.5080950260162354,-1.8164700269699097,-0.0,2.071119785308838,4.752484205156126,-0.0,0.2937561869621277,-1.6523578802691858,0.0,0.0005356486653909087,0.8185352087020874,-0.0,-0.008109237998723984,0.7582032680511475,0.0,-0.027049431577324867
435.0,743.0,1.9436,0.6126,9.1555,-0.0444,0.0279,-0.0884,-1.6612879238524378,0.0,2.489596366882324,-1.8164584636688232,-0.0,2.0974133014678955,4.7524760504956625,-0.0,0.28486859798431396,-1.6522539297686976,0.0,-0.004797567613422871,0.8185029625892639,-0.0,-0.02440265379846096,0.7581793069839478,0.00042280045454390347,0.046430185437202454
435.0,743.0,1.9436,0.6126,9.1555,-0.0444,0.0279,-0.0884,-1.6612841091551722,0.0,2.490166425704956,-1.8164461851119995,-0.0,2.08598256111145,4.752488362580099,-0.0,0.302360475063324,-1.652290169392721,0.0,-0.006367495283484459,0.8185751438140869,-0.0,0.0031817592680454254,0.7581872344017029,0.0005217380239628255,0.011391717940568924
435.0,743.0,1.9436,0.6126,9.1555,-0.0444,0.0279,-0.0884,-1.661304613152975,0.0,2.444321632385254,-1.8164297342300415,-0.0,2.107213020324707,4.752460445254602,-0.0,0.2943154573440552,-1.6523101965533655,0.0,0.024655820801854134,0.8185390830039978,-0.0,-0.0065342434681952,0.758199155330658,0.000870799005497247,-0.07159916311502457
435.0,743.0,1.9436,0.6126,9.1555,-0.0444,0.0279,-0.0884,-1.661304613152975,0.0,2.4552524089813232,-1.8164905309677124,-0.0,2.060519218444824,4.752476441651144,-0.0,0.2841818928718567,-1.6523378531085413,0.0,0.006421925500035286,0.8185836672782898,-0.0,-0.004377055913209915,0.7582234740257263,0.0008701144834049046,-0.014947652816772461
454.0,693.0,1.8377,0.5815,9.1944,-0.0122,0.0286,-0.1191,-1.6613203487791957,0.0,2.4900903701782227,-1.81650710105896,-0.0,2.096776247024536,4.75248051711873,-0.0,0.3029741048812866,-1.6523101965533655,0.0,0.007487032096832991,0.8185067176818848,-0.0,-0.001907307654619217,0.7582314610481262,0.0007818482117727399,0.013078680261969566
454.0,693.0,1.8377,0.5815,9.1944,-0.0122,0.0286,-0.1191,-1.6612760029234828,0.0,2.443495750427246,-1.8164461851119995,-0.0,2.1410059928894043,4.752508758544483,-0.0,0.2917846441268921,-1.6523340384112757,0.0,-0.007304948754608631,0.8185754418373108,-0.0,-0.006563280709087849,0.7582032084465027,0.000750596693251282,-0.02584257908165455
454.0,693.0,1.8377,0.5815,9.1944,-0.0122,0.0286,-0.1191,-1.6612802944579066,0.0,2.481672763824463,-1.816474199295044,-0.0,2.136753559112549,4.752500536828794,-0.0,0.3012251555919647,-1.6523378531085413,0.0,0.004857516847550869,0.8185751438140869,-0.0,-0.00029202242149040103,0.7582273483276367,0.0008032030309550464,0.06002267450094223
454.0,693.0,1.8377,0.5815,9.1944,-0.0122,0.0286,-0.1191,-1.6612760029234828,0.0,2.48901629447937,-1.8164461851119995,-0.0,2.102195978164673,4.752512893616714,-0.0,0.3053819537162781,-1.6523178259478968,0.0,-0.004408502951264381,0.818510890007019,-0.0,-0.004771423991769552,0.7581872940063477,0.0009127663215622306,-0.01344276126474142
454.0,693.0,1.8377,0.5815,9.1944,-0.0122,0.0286,-0.1191,-1.6612802944579066,0.0,2.510042190551758,-1.8164576292037964,-0.0,2.089524269104004,4.752516909479656,-0.0,0.2898196578025818,-1.6522982756244105,0.0,0.0035894934553653,0.8185591697692871,-0.0,-0.012682024389505386,0.7582352757453918,0.0008100055856630206,0.02197295054793358
454.0,693.0,1.8377,0.5815,9.1944,-0.0122,0.0286,-0.1191,-1.6612640819945277,0.0,2.501077890396118,-1.8164658546447754,-0.0,2.104191303253174,4.752468205034294,-0.0,0.2809041738510132,-1.6523340384112757,0.0,-0.002462417585775256,0.8185271620750427,-0.0,0.006823801435530186,0.7582393884658813,0.0008099449332803488,-0.013528596609830856
454.0,693.0,1.8377,0.5815,9.1944,-0.0122,0.0286,-0.1191,-1.6612516842284144,0.0,2.4543650150299072,-1.8164420127868652,-0.0,2.053593397140503,4.752500629961052,-0.0,0.30105507373809814,-1.6523059050189417,0.0,0.006862422917038202,0.8185190558433533,-0.0,0.004133105743676424,0.7582674026489258,0.0007607915322296321,0.026866337284445763
454.0,693.0,1.8377,0.5815,9.1944,-0.0122,0.0286,-0.1191,-1.661288400689596,0.0,2.494906425476074,-1.816490650177002,-0.0,2.1074347496032715,4.752464092313804,-0.0,0.29066261649131775,-1.6523659865008753,0.0,-0.012798295356333256,0.818611204624176,-0.0,-0.014751031994819641,0.7582108378410339,0.0008243336924351752,-0.0012735947966575623
454.0,693.0,1.8377,0.5815,9.1944,-0.0122,0.0286,-0.1191,-1.661283632318014,0.0,2.4923672676086426,-1.8164987564086914,-0.0,2.127819776535034,4.752528878837385,-0.0,0.2883528470993042,-1.6523259321795862,0.0,0.004530538804829121,0.8185271620750427,-0.0,-0.0003955676220357418,0.7582069039344788,0.0009991686092689633,-0.028572382405400276
454.0,693.0,1.8377,0.5815,9.1944,-0.0122,0.0286,-0.1191,-1.6612879238524378,3.802762148552574e-05,2.4579873085021973,-1.8164987564086914,-0.0,2.1076998710632324,4.752460441529312,-0.0,0.2974362373352051,-1.6523540655719202,0.0,-0.00725752767175436,0.8185390830039978,-0.0,-0.006862066686153412,0.7582592368125916,0.0011306516826152802,-0.006317621562629938
454.0,693.0,1.8377,0.5815,9.1944,-0.0122,0.0286,-0.1191,-1.661283632318014,3.5779237805400044e-05,2.5150132179260254,-1.8164700269699097,-0.0,2.122622013092041,4.752468588739195,-0.0,0.2936668395996094,-1.6523178259478968,0.0,0.001957663567736745,0.8185553550720215,-0.0,-0.0060716476291418076,0.758295476436615,0.0011057264637202024,0.03421621769666672
454.0,693.0,1.8377,0.5815,9.1944,-0.0122,0.0286,-0.1191,-1.661328455010885,3.376574386493303e-05,2.5135960578918457,-1.8164701461791992,-0.0,2.1319847106933594,4.7524444227810285,-0.0,0.3023833930492401,-1.6522858778582972,0.0,0.002303318353369832,0.8185673356056213,-0.0,-0.004485204350203276,0.7582674026489258,0.000993044232018292,-0.023207543417811394
454.0,693.0,1.8377,0.5815,9.1944,-0.0122,0.0286,-0.1191,-1.6612922153868617,1.57045269588707e-05,2.501129150390625,-1.8164947032928467,-0.0,2.0721864700317383,4.752460430353441,-0.0,0.2894885241985321,-1.6522701422320765,0.0,0.007817386649549007,0.8185553550720215,-0.0,-0.008730909787118435,0.7582914233207703,0.0009438229026272893,0.023872114717960358
445.0,781.0,1.864,0.5498,9.402,-0.029,0.0234,-0.1135,-1.661283632318014,1.4923287380952388e-05,2.4812569618225098,-1.8165102005004883,-0.0,2.093574047088623,4.75242809110836,-0.0,0.29616159200668335,-1.6523259321795862,0.0,-0.006532276980578899,0.8184865713119507,-0.0,-0.009488699957728386,0.7582914233207703,0.0008241301402449608,-0.02955533005297184
445.0,781.0,1.864,0.5498,9.402,-0.029,0.0234,-0.1135,-1.6613198719420375,1.421613160346169e-05,2.4398975372314453,-1.8164494037628174,-0.0,2.0651447772979736,4.752452599793234,-2.22079748368742e-07,0.2976410984992981,-1.6523297468768519,0.0,0.004279271233826876,0.8185632824897766,-0.0,0.000575212761759758,0.758263111114502,0.0005970687489025295,0.017824891954660416
445.0,781.0,1.864,0.5498,9.402,-0.029,0.0234,-0.1135,-1.661328455010885,1.3479378203895553e-12,2.4758081436157227,-1.8164535760879517,-0.0,2.1164660453796387,4.75248051339344,-4.036189351491748e-12,0.28780025243759155,-1.6523101965533655,0.0,0.004760162904858589,0.8185591101646423,-0.0,-0.008551763370633125,0.7583075165748596,0.0006266635609790683,0.02202814444899559
445.0,781.0,1.864,0.5498,9.402,-0.029,0.0234,-0.1135,-1.661304613152975,3.2551110135561707e-18,2.482344627380371,-1.8164947032928467,-0.0,2.0463006496429443,4.752436256944694,-1.1234881958538693e-15,0.30032026767730713,-1.6523297468768519,0.0,-0.014533196575939655,0.8186272382736206,-0.0,-0.004586364142596722,0.7582952976226807,0.000826566363684833,0.04068044573068619
445.0,781.0,1.864,0.5498,9.402,-0.029,0.0234,-0.1135,-1.66131653408193,7.860709408575167e-24,2.461857318878174,-1.8164701461791992,-0.0,2.1247169971466064,4.752452566265621,-3.127271077066713e-19,0.2882312536239624,-1.652302090321676,0.0,0.0009816258680075407,0.8186190724372864,-0.0,0.004569035954773426,0.7582790851593018,0.0010391147807240486,-0.014427166432142258
445.0,781.0,1.864,0.5498,9.402,-0.029,0.0234,-0.1135,-1.661311765710348,1.898269226950805e-29,2.4889214038848877,-1.8164823055267334,-0.0,2.0733022689819336,4.75243220382885,-8.70487372310106e-23,0.299374520778656,-1.6523340384112757,0.0,-0.0023633644450455904,0.8185710906982422,-0.0,-0.0037957478780299425,0.7583150863647461,0.001252942020073533,0.016497334465384483
445.0,781.0,1.864,0.5498,9.402,-0.029,0.0234,-0.1135,-1.6613198719420375,6.150150534388281e-37,2.5039587020874023,-1.8164987564086914,-0.0,2.0733189582824707,4.752448595106163,-1.5820678639545278e-27,0.29467853903770447,-1.6523101965533655,0.0,0.0032314418349415064,0.818626880645752,-0.0,-0.005653882399201393,0.7583233714103699,0.0015544939087703824,-0.020602263510227203
445.0,781.0,1.864,0.5498,9.402,-0.029,0.0234,-0.1135,-1.6613527737059535,1.485376372184306e-42,2.513063430786133,-1.8164864778518677,-0.0,2.1423959732055664,4.752416598587789,-0.00021946639753878117,0.29949435591697693,-1.6522701422320765,0.0,-0.007153598591685295,0.8185550570487976,-0.0,-0.014716113917529583,0.7583233118057251,0.0012404349399730563,-0.020437423139810562
445.0,781.0,1.864,0.5498,9.402,-0.029,0.0234,-0.1135,-1.6613403759398402,0.0,2.454695224761963,-1.8165308237075806,-0.0,2.083726644515991,4.752444955497541,-0.00023012800374999642,0.29132023453712463,-1.6523178259478968,0.0,-0.0014508290914818645,0.8185632228851318,-0.0,-0.0053706043399870396,0.7583795785903931,0.001467038644477725,0.0007629301398992538
445.0,781.0,1.864,0.5498,9.402,-0.029,0.0234,-0.1135,-1.6613122425475062,0.0,2.481860637664795,-1.8165184259414673,-0.0,2.1092476844787598,4.752424444049158,-0.000229302590014413,0.29942527413368225,-1.6522744337665003,0.0,-0.0001113389153033495,0.818527102470398,-0.0,-0.0149202486500144,0.7583914995193481,0.0022145479451864958,-0.001032947562634945
445.0,781.0,1.864,0.5498,9.402,-0.029,0.0234,-0.1135,-1.6613041363158167,0.0,2.50986385345459,-1.816457748413086,-0.0,2.0917744636535645,4.752473208099165,-0.00023538294772151858,0.2980545163154602,-1.6523340384112757,0.0,0.008672844618558884,0.8185312747955322,-0.0,0.00022179551888257265,0.7583713531494141,0.0025122417137026787,0.026298781856894493
445.0,781.0,1.864,0.5498,9.402,-0.029,0.0234,-0.1135,-1.6613360844054164,0.0,2.5195095539093018,-1.8165309429168701,-0.0,2.096371650695801,4.75240025201396,-0.00021520050358958542,0.29654133319854736,-1.6523178259478968,0.0,-0.007618728093802929,0.8186430931091309,-0.0,0.009274866431951523,0.7584272027015686,0.0028644779231399298,0.006993387825787067
445.0,781.0,1.864,0.5498,9.402,-0.029,0.0234,-0.1135,-1.6613604031004847,0.0,2.467244863510132,-1.8164618015289307,-0.0,2.0985732078552246,4.75240025946454,-0.00023346302623394877,0.280734658241272,-1.6523855368243616,0.0,-0.01913895644247532,0.8186432123184204,-0.0,0.004023442976176739,0.7583909034729004,0.0034922342747449875,0.005638628266751766
445.0,781.0,1.864,0.5498,9.402,-0.029,0.0234,-0.1135,-1.6614366970457972,0.0,2.503018379211426,-1.8164865970611572,-0.0,2.081204414367676,4.752412511944332,-0.00020267677609808743,0.30105239152908325,-1.6523101965533655,0.0,-0.00032498640939593315,0.8186231255531311,-0.0,-0.0023031961172819138,0.7585036158561707,0.004322861321270466,0.03758120909333229
460.0,750.0,1.9292,0.3799,9.3171,-0.0287,0.0215,-0.1112,-1.661327978173727,0.0,2.488027572631836,-1.8165104389190674,-0.0,2.1033542156219482,4.752392533212461,-0.0001785469357855618,0.29493248462677,-1.6522977987872522,0.0,0.0008357060141861439,0.8186109066009521,-0.0,-0.0063650296069681644,0.7585033178329468,0.004908842500299215,0.005090569145977497
460.0,750.0,1.9292,0.3799,9.3171,-0.0287,0.0215,-0.1112,-1.661327978173727,0.0,2.4978256225585938,-1.8165267705917358,-0.0,2.09401535987854,4.7523842742438696,-0.00019138411153107882,0.2851777672767639,-1.6522939840899866,0.0,-0.00033602374605834484,0.8185505867004395,-0.0,0.0023517468944191933,0.758539617061615,0.0052968403324484825,0.018280209973454475
460.0,750.0,1.9292,0.3799,9.3171,-0.0287,0.0215,-0.1112,-1.661311765710348,0.0,2.45938777923584,-1.8165228366851807,-0.0,2.1205546855926514,4.752436778485336,-0.00016767875058576465,0.2939688265323639,-1.6523578802691858,0.0,-0.007356087677180767,0.8186271786689758,-0.0,0.012553381733596325,0.7585835456848145,0.006461628712713718,0.040165822952985764
460.0,750.0,1.9292,0.3799,9.3171,-0.0287,0.0215,-0.1112,-1.6613522968687953,-9.93590074358508e-05,2.4542880058288574,-1.8164865970611572,-0.0,2.062737226486206,4.752388454019584,-0.00017850741278380156,0.28978365659713745,-1.6523340384112757,0.0,-0.01075747236609459,0.8185951709747314,-0.0,0.007472734432667494,0.7586314678192139,0.00858326256275177,0.04205699265003204
460.0,750.0,1.9292,0.3799,9.3171,-0.0287,0.0215,-0.1112,-1.6613160572447718,-0.00010784785263240337,2.443175792694092,-1.8164700269699097,-0.0,2.079807758331299,4.752396187722244,-0.00016490030975546688,0.29557231068611145,-1.6523140112506312,0.0,-0.016976533457636833,0.8185509443283081,-0.0,0.0097059216350317,0.7586793899536133,0.009592320770025253,0.07415664196014404
460.0,750.0,1.9292,0.3799,9.3171,-0.0287,0.0215,-0.1112,-1.6613480053343714,-0.00010061389184556901,2.461190938949585,-1.816490650177002,-0.0,2.088412284851074,4.752412497043171,-0.00015289383009076118,0.26784250140190125,-1.6523140112506312,0.0,-0.008851954713463783,0.818626880645752,-0.0,-0.004116767551749945,0.7586950063705444,0.009724264033138752,0.021908288821578026
460.0,750.0,1.9292,0.3799,9.3171,-0.0287,0.0215,-0.1112,-1.661356111566061,-9.23543339013122e-05,2.4128670692443848,-1.816474199295044,-0.0,2.073939561843872,4.752396180271663,-0.00013936456525698304,0.282761812210083,-1.6523497740374964,0.0,-0.012548306956887245,0.8186633586883545,-0.0,0.01117196399718523,0.7588515877723694,0.011625531129539013,0.11228179186582565
460.0,750.0,1.9292,0.3799,9.3171,-0.0287,0.0215,-0.1112,-1.6613437137999476,-0.00010436975571792573,2.4183497428894043,-1.8164947032928467,-0.0,2.092118501663208,4.752428918122806,-0.00013069124543108046,0.291890412569046,-1.6523259321795862,0.0,-0.001861649681814015,0.8185788989067078,-0.0,0.008883219212293625,0.7588992118835449,0.012507014907896519,0.0957852154970169
460.0,750.0,1.9292,0.3799,9.3171,-0.0287,0.0215,-0.1112,-1.6613480053343714,-9.86745799309574e-05,2.458284378051758,-1.8164576292037964,-0.0,2.0508010387420654,4.752384259342708,-0.00012303363473620266,0.2902456521987915,-1.6523101965533655,0.0,-0.023914551362395287,0.8186030387878418,-0.0,0.009881268255412579,0.7590034604072571,0.013639967888593674,0.07691197097301483
460.0,750.0,1.9292,0.3799,9.3171,-0.0287,0.0215,-0.1112,-1.6613403759398402,-9.195355232805014e-05,2.4443905353546143,-1.8164782524108887,-0.0,2.0222856998443604,4.752416598587789,-0.00011411918967496604,0.28266799449920654,-1.6523221174823206,0.0,-0.011876147240400314,0.8185550570487976,-0.0,0.002698509255424142,0.7590828537940979,0.015339515171945095,0.1143961101770401
460.0,750.0,1.9292,0.3799,9.3171,-0.0287,0.0215,-0.1112,-1.6613804302611292,-8.748443360673264e-05,2.4404351711273193,-1.8165227174758911,-0.0,2.095334529876709,4.752400292992153,-0.00010823718184838071,0.27682316303253174,-1.6523736158954065,0.0,-0.0019426713697612286,0.8186109066009521,-0.0,0.0068210577592253685,0.7592234015464783,0.0164691973477602,0.06158415973186493
460.0,750.0,1.9292,0.3799,9.3171,-0.0287,0.0215,-0.1112,-1.6613198719420375,-8.342960791196674e-05,2.415449857711792,-1.8164700269699097,-0.0,2.014075756072998,4.752412511944332,-0.0001029318809742108,0.2760257422924042,-1.6523855368243616,0.0,-0.019228272140026093,0.8185949325561523,-0.0,0.011204942129552364,0.7593432664871216,0.017118657007813454,0.022174183279275894
460.0,750.0,1.9292,0.3799,9.3171,-0.0287,0.0215,-0.1112,-1.661379953423971,-9.28421359276399e-05,2.3877832889556885,-1.8164782524108887,-0.0,2.1115055084228516,4.752372476249494,-9.81224438874051e-05,0.28342777490615845,-1.6523378531085413,0.0,-0.0071864621713757515,0.8186350464820862,-0.0,0.006689855828881264,0.7594311833381653,0.018316490575671196,0.10306738317012787
460.0,750.0,1.9292,0.3799,9.3171,-0.0287,0.0215,-0.1112,-1.661356111566061,-8.78353530424647e-05,2.4035143852233887,-1.8164618015289307,-0.0,2.068312644958496,4.752436785935917,-0.00010553384345257655,0.2746334373950958,-1.6523221174823206,0.0,-0.011312841437757015,0.8186272382736206,-0.0,0.014591927640140057,0.7595751881599426,0.01942303031682968,0.17364761233329773
446.0,744.0,1.8006,0.719,9.1843,-0.0228,0.0266,-0.1055,-1.661368032495016,-8.430914749624208e-05,2.413904905319214,-1.8164658546447754,-0.0,2.051361322402954,4.752372461348333,-0.00010111577284988016,0.271604984998703,-1.6523101965533655,0.0,-0.017023975029587746,0.8185710906982422,-0.0,0.0033506681211292744,0.7596749663352966,0.020108530297875404,0.11593581736087799
446.0,744.0,1.8006,0.719,9.1843,-0.0228,0.0266,-0.1055,-1.661379953423971,-9.263435640605167e-05,2.4333341121673584,-1.816418170928955,-0.0,2.0887839794158936,4.752420770912924,-9.702784154796973e-05,0.2698499858379364,-1.6523459593402308,-3.664860196295194e-05,-0.01864801160991192,0.8186391592025757,-0.0,0.0119265615940094,0.7598592042922974,0.02201753295958042,0.1227891817688942
446.0,744.0,1.8006,0.719,9.1843,-0.0228,0.0266,-0.1055,-1.6613642177977503,-0.0001431878044968471,2.436978578567505,-1.8164658546447754,-0.0,2.089952230453491,4.752380623459377,-7.46458608773537e-05,0.2670106887817383,-1.652365509663717,-6.85969353071414e-05,-0.022221900522708893,0.8186312317848206,-0.0,0.008104916661977768,0.7600590586662292,0.027576440945267677,0.13997483253479004
446.0,744.0,1.8006,0.719,9.1843,-0.0228,0.0266,-0.1055,-1.6613556347289027,-0.00015563005581498146,2.337618827819824,-1.8164782524108887,-0.0,2.08905291557312,4.752376507013597,-8.508427708875388e-05,0.2611887753009796,-1.6523340384112757,-6.559773464687169e-05,-0.02758682891726494,0.8186109662055969,-0.0,0.0190802700817585,0.7602594494819641,0.03152981400489807,0.20463775098323822
446.0,744.0,1.8006,0.719,9.1843,-0.0228,0.0266,-0.1055,-1.6614037952818812,-0.0004760909068863839,2.3318021297454834,-1.8164905309677124,-0.0,2.049738883972168,4.75241261625246,-8.146551408572122e-05,0.28096556663513184,-1.6523459593402308,-6.284922710619867e-05,-0.036724936217069626,0.8185989856719971,-0.0,0.017293144017457962,0.7604552507400513,0.03533163294196129,0.18694144487380981
446.0,744.0,1.8006,0.719,9.1843,-0.0228,0.0266,-0.1055,-1.6613675556578578,-0.00043257392826490104,2.378412961959839,-1.8164987564086914,-0.0,2.084380626678467,4.752356409072437,-9.091325046028942e-05,0.2689242362976074,-1.6523297468768519,-6.0321774071780965e-05,-0.03483486920595169,0.818611204624176,6.333451096907083e-09,0.0023984969593584538,0.7606954574584961,0.03984200581908226,0.18490074574947357
446.0,744.0,1.8006,0.719,9.1843,-0.0228,0.0266,-0.1055,-1.661351820031637,-0.00032818879117257893,2.35660982131958,-1.8164502382278442,-0.0,2.078988552093506,4.752396161645212,-8.596494444645941e-05,0.28412926197052,-1.6523736158954065,-5.7251974794780836e-05,-0.028193235397338867,0.8186150193214417,1.1510731875042507e-13,-0.0027328552678227425,0.7610594034194946,0.045177772641181946,0.1595001518726349
446.0,744.0,1.8006,0.719,9.1843,-0.0228,0.0266,-0.1055,-1.6613599262633265,-0.0002775729226414114,2.3488824367523193,-1.816498875617981,-0.0,2.102827548980713,4.752404439240255,-8.258431626018137e-05,0.28053927421569824,-1.6523297468768519,-6.615209713345394e-05,-0.031793490052223206,0.8186068534851074,3.204054655094346e-17,0.0221168864518404,0.7613232135772705,0.04975675791501999,0.1911320984363556
446.0,744.0,1.8006,0.719,9.1843,-0.0228,0.0266,-0.1055,-1.6613923511900843,-0.00024048506747931242,2.3930234909057617,-1.816429615020752,-0.0,2.0994553565979004,4.752444955497541,-7.945954712340608e-05,0.25701436400413513,-1.6523578802691858,-6.382988067343831e-05,-0.039513442665338516,0.8185945749282837,8.918604818997058e-21,0.0025529167614877224,0.7615947723388672,0.05236807093024254,0.21004828810691833
446.0,744.0,1.8006,0.719,9.1843,-0.0228,0.0266,-0.1055,-1.6613556347289027,-0.00020412137382663786,2.3849434852600098,-1.816474199295044,-0.0,2.0850419998168945,4.752420770912924,-7.564332918263972e-05,0.25929027795791626,-1.6523259321795862,-5.579951903200708e-05,-0.026754606515169144,0.8185387253761292,1.6209123147814233e-25,0.018976006656885147,0.762079119682312,0.052094828337430954,0.21762564778327942
446.0,744.0,1.8006,0.719,9.1843,-0.0228,0.0266,-0.1055,-1.6613875828185023,-0.00021374002972152084,2.3448503017425537,-1.8164700269699097,-0.0,2.0277554988861084,4.752408421575584,-7.301335426745936e-05,0.24613572657108307,-1.652365509663717,-3.890203061018838e-06,-0.025864146649837494,0.8186109662055969,4.5118694603317936e-29,0.020772505551576614,0.7623708248138428,0.05028578266501427,0.2119826376438141
446.0,744.0,1.8006,0.719,9.1843,-0.0228,0.0266,-0.1055,-1.661379953423971,-0.0002217138244304806,2.3317534923553467,-1.8164618015289307,-0.0,2.059267997741699,4.7523842109139345,-7.932708831503987e-05,0.2594064176082611,-1.6523855368243616,-1.0828523633321652e-09,-0.04266822338104248,0.818626880645752,1.2558955195562426e-32,0.011230937205255032,0.7626869678497314,0.04813501238822937,0.2350417971611023
446.0,744.0,1.8006,0.719,9.1843,-0.0228,0.0266,-0.1055,-1.661448141137594,-0.00021688116248697042,2.3593573570251465,-1.8165225982666016,-0.0,2.034729480743408,4.752400289266863,-6.703178883071814e-07,0.2614058554172516,-1.6523459593402308,-3.014159288914492e-13,-0.03466115891933441,0.8186228275299072,3.4958315206945055e-36,0.01114598847925663,0.7629508376121521,0.047059036791324615,0.2531781792640686
432.0,741.0,1.7551,0.7047,9.3637,-0.0027,0.027,-0.0727,-1.6613956890501917,-0.0015480943256989121,2.330446720123291,-1.8164782524108887,-0.0,2.0805561542510986,4.7523884428437135,-1.2182696691731554e-11,0.26014816761016846,-1.6523497740374964,-5.47808425674215e-18,-0.028796439990401268,0.8186149597167969,6.353487237248721e-41,0.017026294022798538,0.7634117007255554,0.04734445735812187,0.25703269243240356
432.0,741.0,1.7551,0.7047,9.3637,-0.0027,0.027,-0.0727,-1.6614638767638148,-0.002074725227430463,2.3039803504943848,-1.8164782524108887,-0.0,2.0690340995788574,4.752448617457905,-3.3910985219149595e-15,0.2533789575099945,-1.652381722127096,-1.5248451581626558e-21,-0.03043767809867859,0.8186309337615967,1.8216880036222622e-44,0.02576911635696888,0.763667643070221,0.04978718236088753,0.23213176429271698
432.0,741.0,1.7551,0.7047,9.3637,-0.0027,0.027,-0.0727,-1.661448141137594,-0.003955839201807976,2.2840657234191895,-1.8164256811141968,-0.0,2.0781075954437256,4.752436737507143,-9.711848542792723e-05,0.2639458477497101,-1.652365509663717,-4.244462156237128e-25,-0.04217502102255821,0.8186472654342651,0.0,0.024361349642276764,0.7640001177787781,0.05077942833304405,0.31772953271865845
432.0,741.0,1.7551,0.7047,9.3637,-0.0027,0.027,-0.0727,-1.6614676914610804,-0.006901005748659372,2.3126282691955566,-1.8164701461791992,-0.0,2.0264463424682617,4.752392525761881,-9.12698233150877e-05,0.23938784003257751,-1.6523616949664515,-7.714099486706252e-30,-0.03651206195354462,0.8186109066009521,0.00011476498912088573,0.023115478456020355,0.7643918991088867,0.05492140352725983,0.3155580759048462
432.0,741.0,1.7551,0.7047,9.3637,-0.0027,0.027,-0.0727,-1.6615597210326136,-0.0065709687769412994,2.2833096981048584,-1.8164337873458862,-0.0,2.0289461612701416,4.752436778485336,-8.603485184721649e-05,0.2736239731311798,-1.6522977987872522,-2.147247796327233e-33,-0.035962074995040894,0.818626880645752,0.00010832762200152501,0.025629762560129166,0.7647405862808228,0.05560983344912529,0.34887051582336426
432.0,741.0,1.7551,0.7047,9.3637,-0.0027,0.027,-0.0727,-1.6616078815855921,-0.004421919584274292,2.2641825675964355,-1.8164658546447754,-0.0,2.035745859146118,4.752436778485336,-8.136775431921706e-05,0.24091224372386932,-1.652365509663717,-5.976943317965105e-37,-0.04122300073504448,0.8185786008834839,0.00012088893709005788,0.029999680817127228,0.7650966644287109,0.05858573690056801,0.33734965324401855
432.0,741.0,1.7551,0.7047,9.3637,-0.0027,0.027,-0.0727,-1.6616598568358363,-0.002977489260956645,2.295380115509033,-1.8165061473846436,-0.0,2.048658847808838,4.752384300320902,-7.587957952637225e-05,0.24513965845108032,-1.6523335615741175,-1.0862865695445982e-41,-0.04700528085231781,0.8186748027801514,0.00011124677985208109,0.02189159207046032,0.7655166983604431,0.06384004652500153,0.3216923475265503
432.0,741.0,1.7551,0.7047,9.3637,-0.0027,0.027,-0.0727,-1.6616112194456996,-0.003876588772982359,2.2951149940490723,-1.816457748413086,-0.0,1.9932990074157715,4.752388427942552,-8.666683424962685e-05,0.2636570930480957,-1.6523855368243616,-2.802596928649634e-45,-0.04720237851142883,0.8186030983924866,0.00012107061047572643,0.03041655570268631,0.7659533619880676,0.07131268084049225,0.355175644159317
432.0,741.0,1.7551,0.7047,9.3637,-0.0027,0.027,-0.0727,-1.6616879902281703,-0.00432777451351285,2.220620632171631,-1.8164536952972412,-0.0,2.0540173053741455,4.752380597382345,-8.268962119473144e-05,0.239078551530838,-1.652353588734762,-0.0,-0.03693836182355881,0.8186391592025757,0.00011550946510396898,0.03106195107102394,0.7664141654968262,0.07837148755788803,0.32645273208618164
432.0,741.0,1.7551,0.7047,9.3637,-0.0027,0.027,-0.0727,-1.6617113552489222,-0.0035901896189898252,2.2782089710235596,-1.8164019584655762,-0.0,2.0074338912963867,4.752388427942552,-9.211993892677128e-05,0.2509680986404419,-1.652369801198141,-0.0,-0.027534473687410355,0.8186432123184204,0.0001094873805413954,0.03890719264745712,0.7668901681900024,0.08355404436588287,0.41339239478111267
432.0,741.0,1.7551,0.7047,9.3637,-0.0027,0.027,-0.0727,-1.6617075405516566,-0.0014500131364911795,2.286153793334961,-1.816490650177002,-0.0,2.0624990463256836,4.75241261625246,-8.713160059414804e-05,0.24813106656074524,-1.6523340384112757,-2.463880809955299e-05,-0.02615981362760067,0.8186391592025757,0.00010237094102194533,0.026858750730752945,0.7675346732139587,0.08272401988506317,0.3853813409805298
432.0,741.0,1.7551,0.7047,9.3637,-0.0027,0.027,-0.0727,-1.6617032490172328,-0.0008121794671751559,2.267242908477783,-1.8164700269699097,-0.0,2.0551304817199707,4.752380206226864,-8.366035763174295e-05,0.2600457966327667,-1.6523140112506312,-2.3667073037358932e-05,-0.04085807129740715,0.8186468482017517,9.761245746631175e-05,0.03192635998129845,0.7680148482322693,0.07748571038246155,0.4016978442668915
432.0,741.0,1.7551,0.7047,9.3637,-0.0027,0.027,-0.0727,-1.6617394886412562,-0.0006487757782451808,2.3085761070251465,-1.8164256811141968,-0.0,2.0457980632781982,4.752371969610014,-8.045522554311901e-05,0.2403278946876526,-1.6523178259478968,-2.2768956114305183e-05,-0.03912153095006943,0.8186309337615967,9.327667794423178e-05,0.03343366086483002,0.7685760259628296,0.07480567693710327,0.3520492911338806
432.0,741.0,1.7551,0.7047,9.3637,-0.0027,0.027,-0.0727,-1.6617075405516566,-0.0005359672359190881,2.315277099609375,-1.8164947032928467,-0.0,2.0746593475341797,4.7524167513246915,-7.654509681742638e-05,0.25251322984695435,-1.652341667805807,-2.167238744732458e-05,-0.050352610647678375,0.8186748027801514,8.80613733897917e-05,0.029568765312433243,0.7691445350646973,0.07158581912517548,0.3603907823562622
437.0,747.0,1.9693,-0.2076,9.2279,-0.0286,0.0319,-0.0078,-1.6616994343199671,-0.0010428361129015684,2.2666144371032715,-1.8164700269699097,-0.0,2.0277740955352783,4.752396608680048,-7.385320350294933e-05,0.24036434292793274,-1.6523259321795862,-2.091685928462539e-05,-0.054435063153505325,0.818626880645752,8.451726898783818e-05,0.020889274775981903,0.7695483565330505,0.07022054493427277,0.3499593138694763
437.0,747.0,1.9693,-0.2076,9.2279,-0.0286,0.0319,-0.0078,-1.6617199383177699,-0.0008938411483541131,2.268624782562256,-1.816449522972107,-0.0,1.9921901226043701,4.752440831601181,-7.134416227927431e-05,0.24987930059432983,-1.6523101965533655,-2.0212253730278462e-05,-0.030187498778104782,0.8186309337615967,8.124729356495664e-05,0.03569880872964859,0.7699441909790039,0.06862491369247437,0.3452463448047638
437.0,747.0,1.9693,-0.2076,9.2279,-0.0286,0.0319,-0.0078,-1.6617394886412562,-0.0007202937849797308,2.2557153701782227,-1.8164421319961548,-0.0,2.097740888595581,4.752436756133594,-8.986069587990642e-06,0.24948468804359436,-1.652353588734762,-3.316339700631943e-07,-0.025358784943819046,0.8186309337615967,7.822101906640455e-05,0.04074520990252495,0.7703565955162048,0.06651906669139862,0.37732237577438354
437.0,747.0,1.9693,-0.2076,9.2279,-0.0286,0.0319,-0.0078,-1.6617394886412562,-0.000721168820746243,2.24615216255188,-1.8164700269699097,-0.0,2.0459158420562744,4.752400289266863,-1.6331737351382714e-10,0.2403598129749298,-1.6523101965533655,-6.0272837068553464e-12,-0.04079853370785713,0.8186472058296204,7.452000863850117e-05,0.035971157252788544,0.7708367705345154,0.06640428304672241,0.36385470628738403
437.0,747.0,1.9693,-0.2076,9.2279,-0.0286,0.0319,-0.0078,-1.6617118320860804,-0.0013753373641520739,2.258878707885742,-1.8164182901382446,-0.0,2.0745511054992676,4.752432594984331,-4.545998722859518e-14,0.252929151058197,-1.6522982756244105,-1.6777165704398166e-15,-0.048055291175842285,0.8185868263244629,7.196624937932938e-05,0.03892506659030914,0.7713302373886108,0.0694371834397316,0.3790072798728943
437.0,747.0,1.9693,-0.2076,9.2279,-0.0286,0.0319,-0.0078,-1.6617313824095667,-0.001763341948390007,2.306765079498291,-1.8164905309677124,-0.0,2.0851080417633057,4.752400281816282,-1.2653955066388164e-17,0.24816611409187317,-1.6523140112506312,-4.669985666944955e-19,-0.030225522816181183,0.8185905814170837,6.958172161830589e-05,0.03466466814279556,0.7716696858406067,0.07530486583709717,0.3849518597126007
437.0,747.0,1.9693,-0.2076,9.2279,-0.0286,0.0319,-0.0078,-1.6617919407286585,-0.0017962078563869,2.2750163078308105,-1.8164666891098022,-0.0,2.067188262939453,4.752420756011762,-2.299793586241445e-22,0.25837740302085876,-1.6522858778582972,-8.487467286382313e-24,-0.03619507700204849,0.818583071231842,1.2646134139870924e-09,0.018855182453989983,0.7723708152770996,0.08454681932926178,0.3419400453567505
437.0,747.0,1.9693,-0.2076,9.2279,-0.0286,0.0319,-0.0078,-1.6617914638915003,-0.0016977362101897597,2.331028461456299,-1.8164420127868652,0.0002850936143659055,2.065459728240967,4.752452789783039,-2.8733602448482998e-05,0.24700778722763062,-1.6522858778582972,-2.3625176553294173e-27,-0.037354517728090286,0.8186390995979309,3.5200973537950764e-13,0.029527176171541214,0.772879421710968,0.08528200536966324,0.3713189959526062
437.0,747.0,1.9693,-0.2076,9.2279,-0.0286,0.0319,-0.0078,-1.6618153057494105,-0.002046847017481923,2.2731802463531494,-1.8164544105529785,0.00029211287619546056,2.032599449157715,4.752404439240255,-2.6832758521777578e-05,0.2579241991043091,-1.6522577444659632,-6.5761545631893435e-31,-0.04055937007069588,0.8186509609222412,9.798320300393606e-17,0.026645243167877197,0.7733269929885864,0.08443234115839005,0.3585036098957062
437.0,747.0,1.9693,-0.2076,9.2279,-0.0286,0.0319,-0.0078,-1.6617709598936976,-0.0025615196209400892,2.2854771614074707,-1.816434621810913,0.000293093646178022,2.076083183288574,4.752428519516744,-2.5683997591841035e-05,0.25858795642852783,-1.6523140112506312,-1.8304967926672553e-34,-0.018300186842679977,0.8186309337615967,2.727398333403169e-20,0.031063571572303772,0.7738439440727234,0.08366499841213226,0.33453887701034546
437.0,747.0,1.9693,-0.2076,9.2279,-0.0286,0.0319,-0.0078,-1.6618439159789027,-0.0025552657898515463,2.280579090118408,-1.8164666891098022,0.00035707809729501605,2.025655746459961,4.752400192409315,-2.4297205527545884e-05,0.2632328271865845,-1.6522181669818323,-3.326838098436656e-39,-0.03545273095369339,0.8186187148094177,4.956911528988104e-25,0.015767375007271767,0.7744924426078796,0.07907071709632874,0.34323418140411377
437.0,747.0,1.9693,-0.2076,9.2279,-0.0286,0.0319,-0.0078,-1.661851545373434,-0.003072519088163972,2.294679641723633,-1.816454291343689,0.00040294131031259894,2.0876388549804688,4.752432594984331,-2.335159297217615e-05,0.26299768686294556,-1.6522577444659632,-9.262582849187041e-43,-0.028459586203098297,0.8186832070350647,1.379774610387282e-28,0.020427830517292023,0.7749083638191223,0.07311294227838516,0.33786121010780334
437.0,747.0,1.9693,-0.2076,9.2279,-0.0286,0.0319,-0.0078,-1.6618877849974574,-0.003040819428861141,2.2795450687408447,-1.816418170928955,0.0005755377351306379,2.054068088531494,4.752404279052772,-2.2476824597106315e-05,0.26399925351142883,-1.6522863546954554,-0.0,-0.025196539238095284,0.8186553120613098,3.8406530195073197e-32,0.02547018975019455,0.7753406763076782,0.06727194041013718,0.3387892544269562
437.0,747.0,1.9693,-0.2076,9.2279,-0.0286,0.0319,-0.0078,-1.661931654016012,-0.0036508962512016296,2.3091001510620117,-1.8163623809814453,0.001035649562254548,2.0697829723358154,4.75246915125803,-2.1407551685115322e-05,0.2636788785457611,-1.6522863546954554,-0.0,-0.008253498002886772,0.8186349868774414,6.980196339369706e-37,0.03751281276345253,0.7759135961532593,0.06488358229398727,0.29245465993881226
420.0,787.0,1.9669,1.1049,9.1998,0.0139,0.0122,-0.0559,-1.6619636021056117,-0.004207960795611143,2.3180880546569824,-1.8163983821868896,0.0008889226010069251,2.0457072257995605,4.752428512066164,-2.0670076992246322e-05,0.25917160511016846,-1.652245823537008,-0.0,-0.020719988271594048,0.8186751008033752,1.942956372724932e-40,0.010201618075370789,0.7762819528579712,0.0655088946223259,0.2853793799877167
420.0,787.0,1.9669,1.1049,9.1998,0.0139,0.0122,-0.0559,-1.6619473896422328,-0.003969942219555378,2.2750918865203857,-1.81636643409729,0.0007528195856139064,2.0458173751831055,4.7524728057678125,-1.9981700461357832e-05,0.24758395552635193,-1.652245823537008,-0.0,-0.025055136531591415,0.8185865879058838,5.465064010866787e-44,0.019405923783779144,0.7766135931015015,0.06784538179636002,0.2822698950767517
420.0,787.0,1.9669,1.1049,9.1998,0.0139,0.0122,-0.0559,-1.6619874439635218,-0.0037978298496454954,2.2360148429870605,-1.816394329071045,0.0009478596039116383,2.0928449630737305,4.752416598587789,-2.164674839377767e-08,0.2636776566505432,-1.6523140112506312,-0.0,-0.020580261945724487,0.8186473250389099,0.0,0.022870734333992004,0.7770583629608154,0.07045379281044006,0.30869972705841064
420.0,787.0,1.9669,1.1049,9.1998,0.0139,0.0122,-0.0559,-1.6620151005186976,-0.00448243785649538,2.2755026817321777,-1.816358208656311,0.0013056155294179916,2.058129072189331,4.752436804562368,-3.9341899421389825e-13,0.2579243779182434,-1.6522024313556116,0.0001691278157522902,-0.02370285429060459,0.8185706734657288,0.0,0.018641354516148567,0.7775583267211914,0.07338834553956985,0.29624658823013306
420.0,787.0,1.9669,1.1049,9.1998,0.0139,0.0122,-0.0559,-1.662079473535055,-0.00654134526848793,2.2475528717041016,-1.8164024353027344,0.0015047710621729493,2.042430877685547,4.752432606160202,-1.0950962735017258e-16,0.2509608268737793,-1.652221981679098,0.000205033749807626,-0.012603585608303547,0.818618655204773,0.0,0.020579272881150246,0.7779707312583923,0.07253850996494293,0.23459674417972565
420.0,787.0,1.9669,1.1049,9.1998,0.0139,0.0122,-0.0559,-1.662090917626852,-0.008688843809068203,2.283768653869629,-1.8163982629776,0.0018022374715656042,2.047539472579956,4.752464855998316,-3.048240690379748e-20,0.2431139200925827,-1.6522019545184534,0.00022001308389008045,0.00422154413536191,0.818626880645752,0.0,0.013872446492314339,0.7784467935562134,0.07062924653291702,0.2234281599521637
420.0,787.0,1.9669,1.1049,9.1998,0.0139,0.0122,-0.0559,-1.6621996364989222,-0.010438932105898857,2.211170196533203,-1.8163063526153564,0.0016131162410601974,2.027981996536255,4.752420219569959,-5.540026663290029e-25,0.25023284554481506,-1.6522696653949183,0.00035171263152733445,0.005294220522046089,0.8186149597167969,0.0,0.011475484818220139,0.7790762782096863,0.06952822208404541,0.1916404664516449
420.0,787.0,1.9669,1.1049,9.1998,0.0139,0.0122,-0.0559,-1.662239213983053,-0.012279710732400417,2.198117733001709,-1.8163219690322876,0.0013447873061522841,2.0290186405181885,4.752404487669029,-1.5420870509047557e-28,0.2456405758857727,-1.6522024313556116,0.00029311919934116304,0.005592714063823223,0.8185908198356628,0.0,0.016033975407481194,0.77944415807724,0.06674688309431076,0.20604652166366577
420.0,787.0,1.9669,1.1049,9.1998,0.0139,0.0122,-0.0559,-1.6622830830016078,-0.012744443491101265,2.2478554248809814,-1.8162742853164673,0.0012895631371065974,2.0538690090179443,4.752428519516744,-4.29245633036098e-32,0.24633705615997314,-1.6521785894977015,0.000245186616666615,0.006414827890694141,0.8186350464820862,0.0,0.01731746457517147,0.7798486351966858,0.06097302585840225,0.13286906480789185
420.0,787.0,1.9669,1.1049,9.1998,0.0139,0.0122,-0.0559,-1.6623951397337855,-0.012780274264514446,2.212163209915161,-1.8163104057312012,0.0011214179685339332,2.0460472106933594,4.752460817783632,-1.194820987495774e-35,0.24944445490837097,-1.6522181669818323,0.0002526775060687214,-0.0024530126247555017,0.8186635971069336,0.0,0.009102817624807358,0.7801846265792847,0.05387278273701668,0.13971549272537231
420.0,787.0,1.9669,1.1049,9.1998,0.0139,0.0122,-0.0559,-1.6624704800047816,-0.014656178653240204,2.2344112396240234,-1.8163020610809326,0.0008393977768719196,2.066371440887451,4.752432606160202,-2.1715221652409528e-40,0.24298730492591858,-1.6521981398211878,0.000212973594898358,0.008393391966819763,0.8185989856719971,0.0,0.007339939475059509,0.7805729508399963,0.04365032911300659,0.0963507741689682
420.0,787.0,1.9669,1.1049,9.1998,0.0139,0.0122,-0.0559,-1.6625505886473597,-0.016741080209612846,2.2638518810272217,-1.8162939548492432,0.0006862655282020569,2.048696994781494,4.752432594984331,-6.025583396596713e-44,0.2533666789531708,-1.652262036000387,0.00019043750944547355,0.014223345555365086,0.8186231255531311,0.0,0.01680791936814785,0.780849039554596,0.03841260075569153,0.10108616203069687
420.0,787.0,1.9669,1.1049,9.1998,0.0139,0.0122,-0.0559,-1.6627031765379847,-0.018739162012934685,2.2116646766662598,-1.8163349628448486,0.00046123319771140814,2.078707695007324,4.752452789783039,-0.0,0.23590087890625,-1.6521981398211878,0.00020090877660550177,0.0034846439957618713,0.8186269402503967,0.0,0.015430711209774017,0.7810330390930176,0.033399321138858795,0.044540464878082275
420.0,787.0,1.9669,1.1049,9.1998,0.0139,0.0122,-0.0559,-1.662774225274557,-0.021200548857450485,2.229846239089966,-1.8162907361984253,0.0005154215614311397,2.0856266021728516,4.752448520600357,-0.0,0.24082466959953308,-1.6522539297686976,0.00017818505875766277,0.013226142153143883,0.818655252456665,0.0,0.009373885579407215,0.7812368273735046,0.02889375388622284,0.11403562128543854
423.0,716.0,2.1314,1.0887,8.9916,-0.0137,-0.0031,-0.0625,-1.6629468403258265,-0.02331252582371235,2.1777682304382324,-1.8162422180175781,0.0006907786009833217,2.0743250846862793,4.752408421575584,-0.0,0.24032431840896606,-1.6522181669818323,0.00018462014850229025,0.021640777587890625,0.8186469078063965,0.0,0.016839880496263504,0.7814212441444397,0.02731141448020935,0.09448323398828506
423.0,716.0,2.1314,1.0887,8.9916,-0.0137,-0.0031,-0.0625,-1.6630622349181117,-0.025277728214859962,2.2297396659851074,-1.8163028955459595,0.0013778065331280231,2.0619277954101562,4.752448509424486,-0.0,0.25297167897224426,-1.6521981398211878,0.00017409343854524195,0.029069844633340836,0.8185825943946838,0.0,0.017591014504432678,0.7815450429916382,0.025467442348599434,0.018681781366467476
423.0,716.0,2.1314,1.0887,8.9916,-0.0137,-0.0031,-0.0625,-1.663262506524557,-0.02741587534546852,2.200162649154663,-1.8162543773651123,0.0019092343281954527,2.0709753036499023,4.752440414368667,-0.0,0.25011539459228516,-1.6522100607501429,0.00016231923655141145,0.018542032688856125,0.8185908198356628,0.0,0.025343284010887146,0.7817094922065735,0.024747321382164955,0.05795861780643463
423.0,716.0,2.1314,1.0887,8.9916,-0.0137,-0.0031,-0.0625,-1.6634537182249964,-0.03149824216961861,2.1786210536956787,-1.8162782192230225,0.001719948835670948,2.04878568649292,4.752420260548153,-0.0,0.240686297416687,-1.6521981398211878,0.00012230682477820665,0.020169027149677277,0.8186432123184204,0.0,0.014748623594641685,0.7818816900253296,0.020259791985154152,0.017340362071990967
423.0,716.0,2.1314,1.0887,8.9916,-0.0137,-0.0031,-0.0625,-1.6637183628477992,-0.03440996631979942,2.2171568870544434,-1.816226601600647,0.0013587053399533033,2.1210455894470215,4.752460389375248,-0.0,0.2535566985607147,-1.6521862188922327,0.00011306114174658433,0.01702573522925377,0.8186109066009521,0.0,0.016750643029808998,0.7819693684577942,0.017278337851166725,-0.014786932617425919
423.0,716.0,2.1314,1.0887,8.9916,-0.0137,-0.0031,-0.0625,-1.6639257870116175,-0.039428360760211945,2.1933045387268066,-1.8162750005722046,0.0011402800446376204,2.0293965339660645,4.752420260548153,-0.0,0.2515454590320587,-1.6521666685687464,0.0001260692806681618,0.026095841079950333,0.818606436252594,0.0,0.019445940852165222,0.7820738554000854,0.013986440375447273,0.0517561100423336
423.0,716.0,2.1314,1.0887,8.9916,-0.0137,-0.0031,-0.0625,-1.664173265496725,-0.04487806186079979,2.176269292831421,-1.8162667751312256,0.0007508100825361907,2.0898990631103516,4.752448509424486,-0.0,0.25070539116859436,-1.6522062460528772,0.00012964326015207916,0.03296249359846115,0.8186026811599731,0.0,0.017870867624878883,0.7821699380874634,0.01035295519977808,0.05973551422357559
423.0,716.0,2.1314,1.0887,8.9916,-0.0137,-0.0031,-0.0625,-1.664468904534811,-0.04916426166892052,2.15975284576416,-1.8162388801574707,0.0007651568739674985,2.0661561489105225,4.752408421575584,-0.0,0.24249833822250366,-1.6522300879107874,0.00012649990094359964,0.01942785456776619,0.818626880645752,0.0,0.01604432240128517,0.7821934223175049,0.007254702039062977,0.028161125257611275
423.0,716.0,2.1314,1.0887,8.9916,-0.0137,-0.0031,-0.0625,-1.6647888622679652,-0.0524548776447773,2.1545419692993164,-1.8161541223526,0.0014444896951317787,2.085993766784668,4.752468611090936,-0.0,0.2547953724861145,-1.6521742979632776,0.00011931385233765468,0.035865768790245056,0.8186068534851074,0.0,0.01428879052400589,0.7822378277778625,0.0039760353974998,0.006844982039183378
423.0,716.0,2.1314,1.0887,8.9916,-0.0137,-0.0031,-0.0625,-1.6651245556273402,-0.05582012981176376,2.165976047515869,-1.8162026405334473,0.001988720614463091,2.075651168823242,4.752476870059528,-0.0,0.24236243963241577,-1.6521905104266565,0.00012895632244180888,0.033710893243551254,0.8186309933662415,0.0,0.013409784063696861,0.7822093367576599,0.002189790364354849,-0.04642751067876816
423.0,716.0,2.1314,1.0887,8.9916,-0.0137,-0.0031,-0.0625,-1.665556093255514,-0.06214838847517967,2.1726129055023193,-1.8161871433258057,0.0021506764460355043,2.094566822052002,4.7524608364100835,-0.0,0.24795472621917725,-1.6522024313556116,0.00012039719877066091,0.03444574773311615,0.8185908198356628,0.0,0.011729253455996513,0.7822414636611938,0.0007779241423122585,-0.010571803897619247
423.0,716.0,2.1314,1.0887,8.9916,-0.0137,-0.0031,-0.0625,-1.6659237347044886,-0.06489595770835876,2.179027557373047,-1.8161952495574951,0.0016340451547876,2.0591492652893066,4.7524404404456995,-0.0,0.2593281865119934,-1.6521742979632776,0.0001582713593961671,0.028036121279001236,0.8186026811599731,0.0,0.016245083883404732,0.7822336554527283,0.0005120633286423981,-0.06126837432384491
423.0,716.0,2.1314,1.0887,8.9916,-0.0137,-0.0031,-0.0625,-1.6663357220091761,-0.06666695326566696,2.139362096786499,-1.8161664009094238,0.0010930668795481324,2.0490591526031494,4.752432181477108,-0.0,0.24817687273025513,-1.6521862188922327,0.00017132442735601217,0.03900628536939621,0.8186309933662415,0.0,0.006729905027896166,0.7822414636611938,0.00030647747917100787,-0.05381504073739052
439.0,778.0,1.468,0.7394,9.076,-0.0339,-0.0173,-0.1112,-1.6668950519957484,-0.0665573850274086,2.163358688354492,-1.8162034749984741,0.0007739803986623883,2.0696165561676025,4.7524567795689485,-0.0,0.24880199134349823,-1.652154270802633,0.0001777135767042637,0.02759283035993576,0.8185505867004395,0.0,0.00246939854696393,0.7822295427322388,0.0002279859036207199,-0.0822339802980423
439.0,778.0,1.468,0.7394,9.076,-0.0339,-0.0173,-0.1112,-1.6673304043211878,-0.0672682449221611,2.1836795806884766,-1.8161746263504028,0.0002365531981922686,2.0696115493774414,4.752391981869497,-0.0,0.25254979729652405,-1.6521385351764124,0.0001842797064455226,0.026429615914821625,0.8185908198356628,0.0,0.008136971853673458,0.7822496294975281,0.00014369626296684146,-0.0594295933842659
439.0,778.0,1.468,0.7394,9.076,-0.0339,-0.0173,-0.1112,-1.6677261791624964,-0.06814227998256683,2.1745033264160156,-1.8161993026733398,0.000167118341778405,2.0860514640808105,4.752448576479711,-0.0,0.2596002519130707,-1.6521666685687464,0.00017379526980221272,0.02929854765534401,0.8186391592025757,0.0,0.019451677799224854,0.7822298407554626,-6.935009878361598e-05,-0.13576370477676392
439.0,778.0,1.468,0.7394,9.076,-0.0339,-0.0173,-0.1112,-1.6681415043272914,-0.07058510929346085,2.219820022583008,-1.816178798675537,0.00013070230488665402,2.0528626441955566,4.752408421575584,-0.0,0.2558148205280304,-1.6521580854998987,0.00023609743220731616,0.043355606496334076,0.8185830116271973,3.1016490709134814e-08,0.00015204178635030985,0.7822257280349731,-0.00012289435835555196,-0.12200969457626343
439.0,778.0,1.468,0.7394,9.076,-0.0339,-0.0173,-0.1112,-1.6686731777586878,-0.07078072428703308,2.224125862121582,-1.8161500692367554,0.00010127988207386807,2.052304744720459,4.752472798317232,-0.0,0.25641006231307983,-1.6521785894977015,0.00021858290710952133,0.03696754574775696,0.8186068534851074,5.637093439606056e-13,0.002570902230218053,0.7821851968765259,-0.0001386862131766975,-0.10008829832077026
439.0,778.0,1.468,0.7394,9.076,-0.0339,-0.0173,-0.1112,-1.6691161594786585,-0.07088322192430496,2.1957616806030273,-1.816162347793579,8.665160567034036e-05,2.0796141624450684,4.752436268120565,-0.0,0.24629804491996765,-1.6521862188922327,0.00021092793031129986,0.042442090809345245,0.8186431527137756,1.569105903127032e-16,0.0031666061840951443,0.7822336554527283,-0.0001247081090696156,-0.1129370629787445
439.0,778.0,1.468,0.7394,9.076,-0.0339,-0.0173,-0.1112,-1.6694957218565882,-0.073236845433712,2.2584140300750732,-1.8161219358444214,0.00011355218157405034,2.058182954788208,4.752436279296436,-0.0,0.26410380005836487,-1.652154270802633,0.00018880460993386805,0.04789803922176361,0.818626880645752,4.367663883883438e-20,0.023349104449152946,0.7822377681732178,-0.00011296774755464867,-0.1043480932712555
439.0,778.0,1.468,0.7394,9.076,-0.0339,-0.0173,-0.1112,-1.670119424859518,-0.07762014120817184,2.2173843383789062,-1.8161827325820923,0.00011849285510834306,2.092057228088379,4.752448505699196,-0.0,0.2684318721294403,-1.6521623770343226,0.00019323833112139255,0.04221927374601364,0.818587064743042,7.938013438551847e-25,-0.007614840753376484,0.782274067401886,-0.00010036911407951266,-0.12009631097316742
439.0,778.0,1.468,0.7394,9.076,-0.0339,-0.0173,-0.1112,-1.670570512811178,-0.08178742229938507,2.1785647869110107,-1.8161383867263794,7.661776180611923e-05,2.1194076538085938,4.752504750132122,-0.0,0.2640235722064972,-1.6521504561053675,0.0001769577502273023,0.04511658847332001,0.818626880645752,2.209575128806755e-28,-0.0008353127632290125,0.7822051644325256,-8.957889076555148e-05,-0.10774226486682892
439.0,778.0,1.468,0.7394,9.076,-0.0339,-0.0173,-0.1112,-1.6710177860655726,-0.08383677154779434,2.2065505981445312,-1.8161343336105347,0.00012929041986353695,2.0482006072998047,4.7524805320198915,-0.0,0.25628572702407837,-1.6521862188922327,0.0001632042258279398,0.05790860950946808,0.8186030983924866,6.150433885063056e-32,-0.003036246635019779,0.7822213768959045,-7.690782513236627e-05,-0.13724827766418457
439.0,778.0,1.468,0.7394,9.076,-0.0339,-0.0173,-0.1112,-1.6716772518553675,-0.08215629309415817,2.2323269844055176,-1.8161591291427612,0.0009221278014592826,2.086620807647705,4.75246453562335,-0.0,0.25518661737442017,-1.6520984808551233,0.00014787974942009896,0.03199037164449692,0.8185707330703735,1.1178107178966596e-36,-0.007308335974812508,0.7822418808937073,-3.284092963440344e-05,-0.13793224096298218
439.0,778.0,1.468,0.7394,9.076,-0.0339,-0.0173,-0.1112,-1.6721931896605433,-0.08008939027786255,2.238107681274414,-1.816110610961914,0.0011988923652097583,2.065136671066284,4.752468618541517,-0.0,0.2612152695655823,-1.652170483266012,0.0001577989023644477,0.03571854159235954,0.8186190128326416,3.1114711361561103e-40,0.0013082504738122225,0.7822332382202148,-2.960042911581695e-05,-0.11944104731082916
439.0,778.0,1.468,0.7394,9.076,-0.0339,-0.0173,-0.1112,-1.6726967296996058,-0.08268795162439346,2.2316203117370605,-1.816154956817627,0.0008722998318262398,2.097269058227539,4.752521130233564,-0.0,0.2630392611026764,-1.6521862188922327,0.0001481409271946177,0.05213792249560356,0.818626880645752,8.688050478813866e-44,0.010254389606416225,0.7822336554527283,-3.1680835945735453e-06,-0.1413055956363678
439.0,778.0,1.468,0.7394,9.076,-0.0339,-0.0173,-0.1112,-1.6732050381102503,-0.08724594861268997,2.264065980911255,-1.8161509037017822,0.0005597167764790356,2.0918335914611816,4.7524240528936765,-0.0,0.2561476528644562,-1.6521428267108362,0.00013952827430330217,0.04223395138978958,0.8186190724372864,0.0,0.017252128571271896,0.7822861075401306,-7.65054859741543e-12,-0.151097372174263
505.0,868.0,1.9005,0.853,9.4229,-0.0396,-0.0609,-0.1101,-1.6738430462279261,-0.09043918550014496,2.2257895469665527,-1.8161187171936035,0.00039846613071858883,2.0445268154144287,4.752468596189775,-0.0,0.2635505795478821,-1.652158562337057,0.00011891350004589185,0.03736481815576553,0.8186473846435547,0.0,0.005095535423606634,0.7822295427322388,-2.478680051233591e-19,-0.18539848923683167
505.0,868.0,1.9005,0.853,9.4229,-0.0396,-0.0609,-0.1101,-1.674358984033102,-0.09038634598255157,2.2245841026306152,-1.8161630630493164,0.001473767333664,2.105724573135376,4.752452208637752,-0.0,0.26032084226608276,-1.6521309057818812,0.0001320341689279303,0.04710802435874939,0.8185386657714844,0.0,0.009675780311226845,0.7822336554527283,-5.985720255750191e-25,-0.1478593945503235
505.0,868.0,1.9005,0.853,9.4229,-0.0396,-0.0609,-0.1101,-1.6748701534666957,-0.08817608654499054,2.2256524562835693,-1.816090703010559,0.0035678609274327755,2.048706293106079,4.752440369665184,-0.0,0.2503781020641327,-1.652182404194967,0.000138309522299096,0.04789343476295471,0.8186309933662415,0.0,-0.004560189787298441,0.7822377681732178,-1.445481235042314e-30,-0.10803842544555664
505.0,868.0,1.9005,0.853,9.4229,-0.0396,-0.0609,-0.1101,-1.675573011437887,-0.08561103790998459,2.1971750259399414,-1.8160430192947388,0.004825914278626442,2.124760150909424,4.752504694252767,-0.0,0.2519819140434265,-1.6521504561053675,0.0001316112611675635,0.030670586973428726,0.8185949325561523,0.0,0.008019994013011456,0.782225489616394,-4.683175621273918e-38,-0.15128350257873535
505.0,868.0,1.9005,0.853,9.4229,-0.0396,-0.0609,-0.1101,-1.6761084995665492,-0.08794960379600525,2.2488820552825928,-1.8160388469696045,0.004519083071500063,2.060903549194336,4.752504694252767,-0.0,0.252017617225647,-1.652114216481344,0.00012384928413666785,0.04654867574572563,0.8186149597167969,0.0,-0.005227931775152683,0.7821769714355469,-1.1350517561031018e-43,-0.17149357497692108
505.0,868.0,1.9005,0.853,9.4229,-0.0396,-0.0609,-0.1101,-1.6766401729979457,-0.08723082393407822,2.2683825492858887,-1.816091537475586,0.0035750162787735462,2.102111339569092,4.752484205156126,-0.0,0.26265034079551697,-1.6521619001971644,0.00013309455243870616,0.045469749718904495,0.818574845790863,0.0,0.006546096410602331,0.7822373509407043,0.0,-0.20618607103824615
505.0,868.0,1.9005,0.853,9.4229,-0.0396,-0.0609,-0.1101,-1.677216192285055,-0.0884849801659584,2.2585995197296143,-1.8160191774368286,0.0027130634989589453,2.0465853214263916,4.752464092313804,-0.0,0.25590792298316956,-1.652130428944723,0.00012660799256991595,0.047957807779312134,0.8186071515083313,0.0,0.007673163898289204,0.7822295427322388,0.0,-0.17146369814872742
505.0,868.0,1.9005,0.853,9.4229,-0.0396,-0.0609,-0.1101,-1.6778308353819789,-0.09082958847284317,2.266883611679077,-1.8159788846969604,0.0018144944915547967,2.0902369022369385,4.752492438047685,-0.0,0.26034319400787354,-1.6521619001971644,0.00018107728101313114,0.04991573095321655,0.818587064743042,0.0,0.013921018689870834,0.7822496294975281,0.0,-0.2233293354511261
505.0,868.0,1.9005,0.853,9.4229,-0.0396,-0.0609,-0.1101,-1.6783706150450648,-0.09329621493816376,2.226008415222168,-1.8159756660461426,0.002072012983262539,2.0514068603515625,4.752508780896225,0.00010080108040710911,0.24871826171875,-1.652130428944723,0.0001625357399461791,0.04584208130836487,0.8185952305793762,0.0,-0.0016473510768264532,0.7822455167770386,0.0,-0.16807302832603455
505.0,868.0,1.9005,0.853,9.4229,-0.0396,-0.0609,-0.1101,-1.678946157495016,-0.0960710272192955,2.203526258468628,-1.8159394264221191,0.004363840911537409,2.108921527862549,4.752516533225336,0.00012920222070533782,0.25075429677963257,-1.6521342436419886,0.00014664400077890605,0.043520405888557434,0.8186391592025757,0.0,0.022982794791460037,0.7822254300117493,0.0,-0.231685072183609
505.0,868.0,1.9005,0.853,9.4229,-0.0396,-0.0609,-0.1101,-1.6797048054137171,-0.09807580709457397,2.2663474082946777,-1.815887689590454,0.00874245259910822,2.0515902042388916,4.7525165295000456,0.00014633421960752457,0.2559427320957184,-1.6521380583392542,0.00015564753266517073,0.05550340190529823,0.8185829520225525,0.0,-0.0011283657513558865,0.7822418808937073,0.0,-0.19940629601478577
505.0,868.0,1.9005,0.853,9.4229,-0.0396,-0.0609,-0.1101,-1.6802760563292445,-0.09618089348077774,2.187234878540039,-1.815811038017273,0.00931639689952135,2.132453680038452,4.752512416779556,0.0001379610475851223,0.2538646459579468,-1.6521504561053675,0.00014328469114843756,0.03195105865597725,0.8185989856719971,0.0,0.007213936652988195,0.7821972370147705,0.0,-0.19987139105796814
505.0,868.0,1.9005,0.853,9.4229,-0.0396,-0.0609,-0.1101,-1.680892129937643,-0.0991053432226181,2.218923568725586,-1.8157427310943604,0.0101439468562603,2.105403184890747,4.752504265844383,0.0003127977252006531,0.2620014548301697,-1.6521185080157679,0.00013271928764879704,0.05635549873113632,0.8185669779777527,0.0,0.00018711545271798968,0.7821893095970154,0.0,-0.1275443285703659
505.0,868.0,1.9005,0.853,9.4229,-0.0396,-0.0609,-0.1101,-1.6815115414061488,-0.0984642505645752,2.256953477859497,-1.8157435655593872,0.010123200714588165,2.0628409385681152,4.752524356334963,0.00026854246971197426,0.2620638906955719,-1.6521428267108362,0.0001236050738953054,0.05920282006263733,0.818539023399353,0.0,0.005052948836237192,0.7822175025939941,0.0,-0.1579669713973999
721.0,929.0,1.7486,0.5838,9.2166,-0.04,-0.0437,-0.1109,-1.6823345623412074,-0.09788770973682404,2.2629175186157227,-1.8156317472457886,0.009944639168679714,2.076961040496826,4.752484085946836,0.00021678007033187896,0.2646618187427521,-1.6521380583392542,0.00011323689250275493,0.05086411535739899,0.8186714053153992,0.0,0.014225823804736137,0.7821610569953918,0.0,-0.10711820423603058
721.0,929.0,1.7486,0.5838,9.2166,-0.04,-0.0437,-0.1109,-1.6829139194884242,-0.09942617267370224,2.1764893531799316,-1.8155674934387207,0.010408963076770306,2.0639235973358154,4.752492400794782,0.0001894009910756722,0.2584311366081238,-1.6521547476397913,0.00012425037857610732,0.05675656720995903,0.8185908198356628,0.0,0.001244939281605184,0.7822418808937073,0.0,-0.1908983588218689
721.0,929.0,1.7486,0.5838,9.2166,-0.04,-0.0437,-0.1109,-1.683545251885885,-0.103139728307724,2.2452378273010254,-1.8154516220092773,0.011417550966143608,2.096909523010254,4.752540375083246,0.0001681632420513779,0.25577840209007263,-1.6521342436419886,0.00011734501458704472,0.046993039548397064,0.8186109662055969,0.0,0.0027798800729215145,0.7822377681732178,0.0,-0.16742917895317078
721.0,929.0,1.7486,0.5838,9.2166,-0.04,-0.0437,-0.1109,-1.6843677959837855,-0.1131824478507042,2.2242298126220703,-1.815375804901123,0.015817008912563324,2.1182026863098145,4.752504295646705,0.00018986417853739113,0.2584889233112335,-1.6521261374102991,0.0001237729302374646,0.057384032756090164,0.8186350464820862,0.0,-0.00711857108399272,0.7821769714355469,0.0,-0.21035322546958923
721.0,929.0,1.7486,0.5838,9.2166,-0.04,-0.0437,-0.1109,-1.685087343255514,-0.12019191682338715,2.195363998413086,-1.8152483701705933,0.021160101518034935,2.1040449142456055,4.752500086068668,0.00021344622655306011,0.2716386020183563,-1.6521185080157679,0.00011863956024171785,0.05083397030830383,0.8185387253761292,0.0,0.00231899693608284,0.782265841960907,0.0,-0.1780501753091812
721.0,929.0,1.7486,0.5838,9.2166,-0.04,-0.0437,-0.1109,-1.6857944927611292,-0.12273187935352325,2.249906063079834,-1.8151003122329712,0.02715832181274891,2.112130641937256,4.752580462932148,0.0002615450066514313,0.2564605176448822,-1.6521104017840784,0.00011305130465188995,0.0684727132320404,0.8186071515083313,0.0,0.0049156793393194675,0.7821974754333496,0.0,-0.19432805478572845
721.0,929.0,1.7486,0.5838,9.2166,-0.04,-0.0437,-0.1109,-1.686577936212057,-0.12179949134588242,2.244218349456787,-1.8148847818374634,0.034359101206064224,2.128890037536621,4.752588297217645,0.0007453193538822234,0.2596130967140198,-1.6521185080157679,0.0001079655485227704,0.04577074199914932,0.8186309933662415,0.0,-0.0006687692366540432,0.7822336554527283,0.0,-0.16336321830749512
721.0,929.0,1.7486,0.5838,9.2166,-0.04,-0.0437,-0.1109,-1.6876284084715785,-0.11602697521448135,2.2342820167541504,-1.814581274986267,0.040320415049791336,2.10025691986084,4.752544353693285,0.00045600076555274427,0.2745589017868042,-1.6520946661578577,0.00010185615246882662,0.06157394498586655,0.8186632990837097,0.0,0.011687426827847958,0.7822455167770386,0.0,-0.16351521015167236
721.0,929.0,1.7486,0.5838,9.2166,-0.04,-0.0437,-0.1109,-1.6884318790831507,-0.12047484517097473,2.279226303100586,-1.8143820762634277,0.04031156003475189,2.1311817169189453,4.7525444878037355,0.0003495990240480751,0.26586413383483887,-1.6520903746234339,9.770942415343598e-05,0.044237613677978516,0.8185710906982422,0.0,-0.005081574432551861,0.7822254300117493,0.0,-0.1632019281387329
721.0,929.0,1.7486,0.5838,9.2166,-0.04,-0.0437,-0.1109,-1.6891590557494105,-0.1350807398557663,2.258347272872925,-1.8141417503356934,0.03840968385338783,2.1133604049682617,4.752556703030624,0.00028348350315354764,0.26772400736808777,-1.6520903746234339,9.388708713231608e-05,0.05134449526667595,0.818626880645752,0.0,0.006985954474657774,0.7822054624557495,0.0,-0.20494605600833893
721.0,929.0,1.7486,0.5838,9.2166,-0.04,-0.0437,-0.1109,-1.6902862987914027,-0.1514013260602951,2.2198486328125,-1.8137739896774292,0.03954657167196274,2.1561412811279297,4.75255627834753,0.00022640802490059286,0.25680863857269287,-1.652142349873678,8.130045898724347e-05,0.04981031268835068,0.818671464920044,0.0,0.012611262500286102,0.78216952085495,0.0,-0.18471798300743103
721.0,929.0,1.7486,0.5838,9.2166,-0.04,-0.0437,-0.1109,-1.6911612949767054,-0.15158283710479736,2.2270941734313965,-1.8135149478912354,0.04732661694288254,2.109607219696045,4.7525964742298505,0.00025492708664387465,0.2597775459289551,-1.6521499792682093,7.469366391887888e-05,0.05356287956237793,0.8185949325561523,0.0,-0.014660605229437351,0.7822459936141968,-0.00019558158237487078,-0.1954987347126007
