ramyac6/ROB537/final_project/csv/good/good_22.csv
tof_0,tof_1,accelx,accely,accelz,gyrox,gyroy,gyroz,shoulder_lift_joint_position,shoulder_lift_joint_velocity,shoulder_lift_joint_effort,elbow_joint_position,elbow_joint_velocity,elbow_joint_effort,wrist_1_joint_position,wrist_1_joint_velocity,wrist_1_joint_effort,wrist_2_joint_position,wrist_2_joint_velocity,wrist_2_joint_effort,wrist_3_joint_position,wrist_3_joint_velocity,wrist_3_joint_effort,shoulder_pan_joint_position,shoulder_pan_joint_velocity,shoulder_pan_joint_effort
440.0,672.0,0.076,0.265,9.7107,-0.0423,0.022,-0.1119,-1.8424750767149867,0.0,3.088703155517578,-1.8168096542358398,-0.0,1.9516608715057373,5.149578380375662,0.0,0.2709891200065613,-1.5942419211017054,1.0389693670731504e-05,0.0010253593791276217,0.852916955947876,-0.0,-0.00886264257133007,0.802725613117218,2.956998628178553e-07,-0.031742990016937256
440.0,672.0,0.076,0.265,9.7107,-0.0423,0.022,-0.1119,-1.8425318203368128,0.0,3.091804027557373,-1.8168056011199951,-0.0,1.9721388816833496,5.149626093893804,0.0,0.27804529666900635,-1.5942257086383265,1.0041921086667571e-05,-0.01341128721833229,0.8528890013694763,-0.0,-0.005484743509441614,0.8027495741844177,7.140803790287031e-13,0.02333674021065235
440.0,672.0,0.076,0.265,9.7107,-0.0423,0.022,-0.1119,-1.8425637684264125,0.0,3.092564344406128,-1.8167898654937744,-0.0,1.950757622718811,5.149650025158682,0.0,0.28231143951416016,-1.594217602406637,4.2337884309517904e-08,-0.011048412881791592,0.8529086112976074,-0.0,-0.007176662795245647,0.8027054071426392,1.7244203210619997e-18,-0.042345449328422546
440.0,672.0,0.076,0.265,9.7107,-0.0423,0.022,-0.1119,-1.8425194225706996,0.0,3.12406063079834,-1.8167693614959717,-0.0,1.9396300315856934,5.1496018944080255,0.0,0.2831783592700958,-1.5942218939410608,7.694702080368598e-13,-0.006064718589186668,0.8528926372528076,-0.0,-0.002901326399296522,0.8027094602584839,5.586902134132942e-26,-0.013938946649432182
440.0,672.0,0.076,0.265,9.7107,-0.0423,0.022,-0.1119,-1.8424626789488734,0.0,3.101713180541992,-1.8167097568511963,-0.0,1.9057352542877197,5.14960195401267,0.0,0.281154602766037,-1.5942218939410608,2.1418484062367085e-16,-0.008049007505178452,0.852924644947052,-0.0,-0.011254848912358284,0.8027133941650391,1.3491712901675788e-31,0.015943989157676697
440.0,672.0,0.076,0.265,9.7107,-0.0423,0.022,-0.1119,-1.842515607873434,0.0,3.087599515914917,-1.8167457580566406,-0.0,1.942840814590454,5.14966185668067,0.0,0.28072023391723633,-1.5941656271563929,3.892703480842095e-21,0.004815831780433655,0.8529170155525208,-0.0,-0.010542577132582664,0.8027054071426392,4.371143167288547e-39,-0.03291439637541771
440.0,672.0,0.076,0.265,9.7107,-0.0423,0.022,-0.1119,-1.8425480328001917,0.0,3.0564656257629395,-1.8168210983276367,-0.0,1.9246935844421387,5.149653899460592,0.0,0.29045528173446655,-1.5941656271563929,1.083548475228665e-24,-0.008885780349373817,0.8528849482536316,-0.0,-0.0061872852966189384,0.8027094602584839,1.1210387714598537e-44,-0.0048929243348538876
432.0,668.0,0.0233,0.2518,9.6437,-0.0389,0.0266,-0.1173,-1.8425318203368128,0.0,3.138329029083252,-1.8167619705200195,-0.0,1.9165273904800415,5.149650025158682,0.0,0.285234659910202,-1.5941980520831507,3.0160965708765545e-28,-0.0072031025774776936,0.8528640866279602,-0.0,-0.024613844230771065,0.8027216196060181,0.0,-0.007609645836055279
432.0,668.0,0.0233,0.2518,9.6437,-0.0389,0.0266,-0.1173,-1.8425194225706996,0.0,3.0681846141815186,-1.8167531490325928,-0.0,1.8992047309875488,5.1496340213115595,0.0,0.2770604193210602,-1.5941856543170374,5.481607133740739e-33,-0.012562591582536697,0.8529045581817627,-0.0,-0.0017513999482616782,0.8026934862136841,0.0,-0.017389262095093727
432.0,668.0,0.0233,0.2518,9.6437,-0.0389,0.0266,-0.1173,-1.8425480328001917,0.0,3.078256607055664,-1.8167818784713745,-0.0,1.991139531135559,5.149613815336981,0.0,0.2857993543148041,-1.5942218939410608,1.5258256034530188e-36,-0.003286028280854225,0.8528683185577393,-0.0,-0.013018499128520489,0.8026894330978394,0.0,0.04811013117432594
432.0,668.0,0.0233,0.2518,9.6437,-0.0389,0.0266,-0.1173,-1.842571874658102,0.0,3.099395751953125,-1.8167778253555298,-0.0,1.993687391281128,5.14960594752387,0.0,0.2786386013031006,-1.5942133108722132,2.773169660898813e-41,-0.008826570585370064,0.8529607653617859,-0.0,-0.015892241150140762,0.8026812076568604,0.0,0.0032795006409287453
432.0,668.0,0.0233,0.2518,9.6437,-0.0389,0.0266,-0.1173,-1.84251131633901,0.0,3.0869083404541016,-1.8168137073516846,-0.0,1.9416264295578003,5.149649905949392,0.0,0.28518351912498474,-1.5942061583148401,8.407790785948902e-45,0.002845157403498888,0.8528640866279602,-0.0,-0.017461571842432022,0.8027334213256836,0.0,-0.014177696779370308
432.0,668.0,0.0233,0.2518,9.6437,-0.0389,0.0266,-0.1173,-1.8425194225706996,0.0,3.1009573936462402,-1.8168251514434814,-0.0,1.9401724338531494,5.149657892971792,0.0,0.2826627194881439,-1.594217602406637,0.0,-0.020308421924710274,0.8528885841369629,-0.0,-0.015148128382861614,0.8027215600013733,0.0,-0.004358928184956312
432.0,668.0,0.0233,0.2518,9.6437,-0.0389,0.0266,-0.1173,-1.8425237141051234,0.0,3.062633752822876,-1.8168292045593262,-0.0,1.9525364637374878,5.149637985020437,0.0,0.28588759899139404,-1.5942061583148401,0.0,-0.005452622659504414,0.8528640866279602,-0.0,-0.0052680643275380135,0.8027095198631287,0.0,-0.02459571324288845
432.0,668.0,0.0233,0.2518,9.6437,-0.0389,0.0266,-0.1173,-1.842555662194723,0.0,3.095153570175171,-1.8167901039123535,-0.0,1.9160258769989014,5.149669813900747,0.0,0.2757360339164734,-1.5942218939410608,0.0,-0.003793043550103903,0.8528683185577393,-0.0,-0.00888028647750616,0.8027136325836182,0.0,0.014508025720715523
432.0,668.0,0.0233,0.2518,9.6437,-0.0389,0.0266,-0.1173,-1.8425518474974574,0.0,3.0810532569885254,-1.8168129920959473,-0.0,1.9861005544662476,5.149641978531637,0.0,0.2794274389743805,-1.5941980520831507,0.0,-0.012251820415258408,0.8528972268104553,-0.0,-0.0024175215512514114,0.8027095198631287,0.0,-0.008236965164542198
432.0,668.0,0.0233,0.2518,9.6437,-0.0389,0.0266,-0.1173,-1.842555662194723,0.0,3.0904297828674316,-1.8167693614959717,-0.0,1.9490221738815308,5.149625974684515,0.0,0.27777421474456787,-1.5942218939410608,0.0,-0.012876180000603199,0.8528725504875183,-0.0,-0.019733086228370667,0.8027215600013733,0.0,-0.028438672423362732
432.0,668.0,0.0233,0.2518,9.6437,-0.0389,0.0266,-0.1173,-1.8424788914122523,0.0,3.0989227294921875,-1.816765308380127,-0.0,1.9424488544464111,5.149650025158682,0.0,0.2999851107597351,-1.5942218939410608,0.0,-0.014705833978950977,0.8527960181236267,-0.0,-0.005198604427278042,0.8027051091194153,0.0,0.012953279539942741
432.0,668.0,0.0233,0.2518,9.6437,-0.0389,0.0266,-0.1173,-1.8425194225706996,0.0,3.1233723163604736,-1.816798210144043,-0.0,1.931374430656433,5.1496218023593805,0.0,0.28602078557014465,-1.5942423979388636,0.0,-0.008930660784244537,0.8528558611869812,-0.0,-0.010997499339282513,0.8027012348175049,0.0,-0.017733115702867508
432.0,668.0,0.0233,0.2518,9.6437,-0.0389,0.0266,-0.1173,-1.8425036869444789,0.0,3.0662283897399902,-1.816725254058838,-0.0,1.9716649055480957,5.149653899460592,0.0,0.28326278924942017,-1.5942342917071741,0.0,-0.015203827992081642,0.8529009819030762,-0.0,-0.005176793318241835,0.8026770949363708,0.0,0.03031253069639206
416.0,691.0,-0.0251,0.2357,9.5994,-0.0315,0.0258,-0.1145,-1.842515607873434,0.0,3.0847511291503906,-1.8167293071746826,-0.0,1.8899749517440796,5.149649905949392,0.0,0.27584388852119446,-1.5942018667804163,0.0,-0.015696436166763306,0.8528850078582764,-6.970963681851572e-07,-0.017884962260723114,0.8027215600013733,0.0,0.04754427820444107
416.0,691.0,-0.0251,0.2357,9.5994,-0.0315,0.0258,-0.1145,-1.8425518474974574,0.0,3.0860462188720703,-1.816733479499817,-0.0,1.9207484722137451,5.14962204077796,0.0,0.28043636679649353,-1.5942218939410608,0.0,0.001969993580132723,0.8528807163238525,-1.94039354028952e-10,-0.0015254492172971368,0.8027334213256836,0.0,-0.04307050257921219
416.0,691.0,-0.0251,0.2357,9.5994,-0.0315,0.0258,-0.1145,-1.8425599537291468,0.0,3.1187496185302734,-1.8167695999145508,-0.0,1.9505095481872559,5.1496300278003595,0.0,0.2771065831184387,-1.594217602406637,0.0,-0.020138289779424667,0.8528931140899658,-3.5265695833670233e-15,-0.003169841831550002,0.8027256727218628,0.0,-0.013591045513749123
416.0,691.0,-0.0251,0.2357,9.5994,-0.0315,0.0258,-0.1145,-1.8425599537291468,0.0,3.0648584365844727,-1.8167901039123535,-0.0,1.9338185787200928,5.149669813900747,0.0,0.2754775583744049,-1.5942257086383265,0.0,-0.004004835616797209,0.8527930378913879,-9.816336376853072e-19,0.009729089215397835,0.8026934862136841,0.0,0.017618341371417046
416.0,691.0,-0.0251,0.2357,9.5994,-0.0315,0.0258,-0.1145,-1.842515607873434,0.0,3.100045680999756,-1.8167415857315063,-0.0,1.9222257137298584,5.149625944882192,0.0,0.285293847322464,-1.5942300001727503,0.0,-0.008663833141326904,0.8528399467468262,-1.7840706260801065e-23,-0.006523254327476025,0.8027136325836182,0.0,-0.028557613492012024
416.0,691.0,-0.0251,0.2357,9.5994,-0.0315,0.0258,-0.1145,-1.8425117931761683,0.0,3.0933427810668945,-1.8167498111724854,-0.0,1.971566915512085,5.149637985020437,0.0,0.28226011991500854,-1.5941737333880823,0.0,0.01407551858574152,0.8529371619224548,-4.966025769042043e-27,-0.010493313893675804,0.8026934862136841,0.0,-0.03294895216822624
416.0,691.0,-0.0251,0.2357,9.5994,-0.0315,0.0258,-0.1145,-1.8425480328001917,0.0,3.1116409301757812,-1.8167736530303955,-0.0,1.9309675693511963,5.149617898255148,0.0,0.2877838611602783,-1.5942061583148401,0.0,-0.021905267611145973,0.8528558611869812,-1.3823115792223453e-30,-0.007045078091323376,0.8026971817016602,0.0,-0.0676068365573883
416.0,691.0,-0.0251,0.2357,9.5994,-0.0315,0.0258,-0.1145,-1.8425237141051234,0.0,3.110116958618164,-1.8167572021484375,-0.0,1.939133644104004,5.149665969401159,0.0,0.28392332792282104,-1.5942094961749476,0.0,-0.010971367359161377,0.8528523445129395,-2.5122825403920354e-35,-0.009026303887367249,0.8027174472808838,0.0,0.01208038441836834
416.0,691.0,-0.0251,0.2357,9.5994,-0.0315,0.0258,-0.1145,-1.8425356350340785,0.0,3.08872127532959,-1.8168210983276367,-0.0,1.9707400798797607,5.149605828314581,0.0,0.2782289385795593,-1.594217602406637,0.0,-0.010755527764558792,0.8529211282730103,-6.993031448575781e-39,-0.006582580041140318,0.8026730418205261,0.0,0.021717438474297523
416.0,691.0,-0.0251,0.2357,9.5994,-0.0315,0.0258,-0.1145,-1.842499395410055,0.0,3.0606915950775146,-1.8167693614959717,-0.0,1.961731195449829,5.149609821825781,0.0,0.28561821579933167,-1.5942018667804163,0.0,-0.0021212357096374035,0.8528640866279602,-1.2751816025355835e-43,-0.01711311750113964,0.8027094602584839,0.0,0.02540089190006256
416.0,691.0,-0.0251,0.2357,9.5994,-0.0315,0.0258,-0.1145,-1.8425075016417445,0.0,3.072542190551758,-1.8168416023254395,-0.0,1.9538195133209229,5.149630057602682,0.0,0.28342899680137634,-1.5942342917071741,0.0,-0.004011846147477627,0.8528926372528076,-0.0,-0.02967408113181591,0.8027417063713074,0.0,-0.02329852618277073
416.0,691.0,-0.0251,0.2357,9.5994,-0.0315,0.0258,-0.1145,-1.8425313434996546,0.0,3.1213345527648926,-1.8168096542358398,-0.0,1.9400098323822021,5.149641829520025,0.0,0.28278881311416626,-1.5941737333880823,0.0,-0.0043073613196611404,0.852916955947876,-0.0,-0.01897464320063591,0.8027012944221497,0.0,-0.043329477310180664
416.0,691.0,-0.0251,0.2357,9.5994,-0.0315,0.0258,-0.1145,-1.8425919018187464,0.0,3.064201593399048,-1.8167614936828613,-0.0,1.8979206085205078,5.149626064091482,0.0,0.2832221984863281,-1.594189469014303,0.0,-0.015537014231085777,0.852916955947876,-0.0,-0.018530527129769325,0.8027054071426392,0.0,-0.04604912921786308
416.0,691.0,-0.0251,0.2357,9.5994,-0.0315,0.0258,-0.1145,-1.842555662194723,0.0,3.084437847137451,-1.8167693614959717,-0.0,1.920331597328186,5.149630057602682,0.0,0.2818227708339691,-1.5942381064044397,0.0,-0.007626784034073353,0.8528363108634949,-0.0,-0.010294722393155098,0.8026971817016602,0.0,0.03606302663683891
442.0,671.0,0.082,0.21,9.6515,-0.0318,0.025,-0.1206,-1.8425475559630335,0.0,3.119825601577759,-1.8168015480041504,-0.0,1.9249227046966553,5.149665820389547,0.0,0.27491265535354614,-1.5941856543170374,0.0,-0.003953620791435242,0.8528404235839844,-0.0,-0.00016459031030535698,0.8027136325836182,0.0,0.010058499872684479
442.0,671.0,0.082,0.21,9.6515,-0.0318,0.025,-0.1206,-1.8425399265685023,0.0,3.110269069671631,-1.8167572021484375,-0.0,1.9165265560150146,5.1496659992034814,0.0,0.2847960889339447,-1.5942257086383265,0.0,0.0071353972889482975,0.8528890609741211,-0.0,-0.0037177219055593014,0.8027215600013733,0.0,0.01516725867986679
442.0,671.0,0.082,0.21,9.6515,-0.0318,0.025,-0.1206,-1.842515607873434,0.0,3.104686975479126,-1.8168096542358398,-0.0,1.9049186706542969,5.149618077069082,0.0,0.2786565124988556,-1.5942257086383265,0.0,-0.012826792895793915,0.8529168963432312,-0.0,-0.004680472891777754,0.802725613117218,0.0,-0.013104329816997051
442.0,671.0,0.082,0.21,9.6515,-0.0318,0.025,-0.1206,-1.8425280056395472,0.0,3.0904483795166016,-1.8167734146118164,-0.0,1.900463342666626,5.149669813900747,0.0,0.2867439389228821,-1.5942214171039026,0.0,-0.017628485336899757,0.8529209494590759,-0.0,-0.011230137199163437,0.8026934862136841,0.0,0.0006166617386043072
442.0,671.0,0.082,0.21,9.6515,-0.0318,0.025,-0.1206,-1.8425518474974574,0.0,3.0906295776367188,-1.816757082939148,-0.0,1.9344110488891602,5.149641978531637,0.0,0.2837461829185486,-1.5942218939410608,0.0,-0.02055998519062996,0.8528600335121155,-0.0,-0.012193272821605206,0.8027054071426392,0.0,-0.03270529583096504
442.0,671.0,0.082,0.21,9.6515,-0.0318,0.025,-0.1206,-1.8425313434996546,0.0,3.0683958530426025,-1.8167818784713745,-0.0,1.925093650817871,5.149597781687536,0.0,0.2835860848426819,-1.5942094961749476,0.0,0.0021480899304151535,0.852864146232605,-0.0,-0.009302482940256596,0.8027211427688599,0.0,-0.038718681782484055
442.0,671.0,0.082,0.21,9.6515,-0.0318,0.025,-0.1206,-1.842527528802389,0.0,3.093716859817505,-1.816745638847351,-0.0,1.904904842376709,5.149622070580282,0.0,0.2771310806274414,-1.5942061583148401,0.0,-0.0021572625264525414,0.8528807163238525,-0.0,-0.008027664385735989,0.8027054071426392,0.0,-0.015584790147840977
442.0,671.0,0.082,0.21,9.6515,-0.0318,0.025,-0.1206,-1.8425399265685023,0.0,3.068183422088623,-1.8168096542358398,-0.0,1.9510185718536377,5.149630057602682,0.0,0.27875569462776184,-1.5942018667804163,0.0,-0.0068621342070400715,0.8528320789337158,-0.0,-0.016343191266059875,0.8027133345603943,0.0,0.013358838856220245
442.0,671.0,0.082,0.21,9.6515,-0.0318,0.025,-0.1206,-1.8424869976439417,0.0,3.107856035232544,-1.816749095916748,-0.0,1.921058177947998,5.149653899460592,0.0,0.2862853407859802,-1.5942342917071741,0.0,-0.011791550554335117,0.8528523445129395,-0.0,-0.004209782928228378,0.8027054071426392,0.0,0.008779818192124367
442.0,671.0,0.082,0.21,9.6515,-0.0318,0.025,-0.1206,-1.8425518474974574,0.0,3.102609634399414,-1.8167818784713745,-0.0,1.9057568311691284,5.1496260342891595,0.0,0.2899548411369324,-1.5942061583148401,0.0,0.008368379436433315,0.8529286980628967,-0.0,-0.01971476711332798,0.8026934862136841,0.0,-0.03522437438368797
442.0,671.0,0.082,0.21,9.6515,-0.0318,0.025,-0.1206,-1.8425194225706996,0.0,3.095820188522339,-1.8167933225631714,-0.0,1.9069994688034058,5.149617898255148,0.0,0.2893579602241516,-1.5942133108722132,0.0,-0.013030227273702621,0.8528807163238525,-0.0,-0.022320859134197235,0.8026894330978394,0.0,-0.0037889257073402405
442.0,671.0,0.082,0.21,9.6515,-0.0318,0.025,-0.1206,-1.8425075016417445,0.0,3.074730396270752,-1.8168096542358398,-0.0,1.9482756853103638,5.149630057602682,0.0,0.285957396030426,-1.594217602406637,0.0,-7.715774700045586e-05,0.8528844714164734,-0.0,-0.013953481800854206,0.8027215600013733,0.0,-0.07779013365507126
442.0,671.0,0.082,0.21,9.6515,-0.0318,0.025,-0.1206,-1.8425075016417445,0.0,3.1051201820373535,-1.8168251514434814,-0.0,1.91511869430542,5.149645972042837,0.0,0.2780747711658478,-1.594217602406637,0.0,-0.008171634748578072,0.8529126644134521,-0.0,-0.0016487253597006202,0.8027136921882629,0.0,-0.05065047740936279
439.0,704.0,0.0311,0.1956,9.5862,-0.04,0.0276,-0.1133,-1.8425075016417445,0.0,3.0846505165100098,-1.8167901039123535,-0.0,1.938173770904541,5.149669813900747,0.0,0.29252466559410095,-1.594210449849264,0.0,-0.015486657619476318,0.8528563976287842,-0.0,-0.016536999493837357,0.8026890158653259,0.0,0.02732962742447853
439.0,704.0,0.0311,0.1956,9.5862,-0.04,0.0276,-0.1133,-1.8425518474974574,0.0,3.107454299926758,-1.8167777061462402,-0.0,1.8632224798202515,5.1496819136436365,0.0,0.28643956780433655,-1.5942423979388636,0.0,-0.015030884183943272,0.8528885245323181,-0.0,-0.003930564969778061,0.8026812672615051,0.0,-0.017313899472355843
439.0,704.0,0.0311,0.1956,9.5862,-0.04,0.0276,-0.1133,-1.8425399265685023,0.0,3.051859140396118,-1.8168178796768188,-0.0,1.9445993900299072,5.149653929262914,0.0,0.2812691628932953,-1.594217602406637,0.0,-0.00788715947419405,0.8529009819030762,-0.0,-0.006956613622605801,0.8026893734931946,0.0,-0.001952582853846252
439.0,704.0,0.0311,0.1956,9.5862,-0.04,0.0276,-0.1133,-1.8425036869444789,0.0,3.104041576385498,-1.8168376684188843,-0.0,1.922005295753479,5.149613815336981,0.0,0.28341764211654663,-1.5942342917071741,0.0,-0.005364594049751759,0.8528931140899658,-0.0,-0.010865559801459312,0.8027174472808838,0.0,-0.011730866506695747
439.0,704.0,0.0311,0.1956,9.5862,-0.04,0.0276,-0.1133,-1.8425313434996546,0.0,3.0638856887817383,-1.8167734146118164,-0.0,1.9348052740097046,5.149634110718527,0.0,0.29024580121040344,-1.5941856543170374,0.0,-0.019328635185956955,0.8529045581817627,-0.0,-0.018970035016536713,0.8027054667472839,0.0,0.01158215757459402
439.0,704.0,0.0311,0.1956,9.5862,-0.04,0.0276,-0.1133,-1.842499395410055,0.0,3.0735368728637695,-1.8167860507965088,-0.0,1.9432224035263062,5.149661946087637,0.0,0.28136807680130005,-1.5941694418536585,0.0,-0.010552354156970978,0.8528399467468262,-0.0,-0.0153814647346735,0.8027499318122864,0.0,-0.008055450394749641
439.0,704.0,0.0311,0.1956,9.5862,-0.04,0.0276,-0.1133,-1.842555662194723,0.0,3.0994553565979004,-1.8167611360549927,-0.0,1.9447133541107178,5.149681943445959,0.0,0.2797451913356781,-1.5941937605487269,0.0,-0.007270295172929764,0.852855920791626,-0.0,0.0038576535880565643,0.8026853203773499,0.0,0.01588781364262104
439.0,704.0,0.0311,0.1956,9.5862,-0.04,0.0276,-0.1133,-1.8425232372679652,0.0,3.072896957397461,-1.8167778253555298,-0.0,1.9607865810394287,5.14961804726676,0.0,0.28596675395965576,-1.594217602406637,0.0,-0.008419210091233253,0.8528280258178711,-0.0,-0.0007563105318695307,0.8027376532554626,0.0,-0.015059961006045341
439.0,704.0,0.0311,0.1956,9.5862,-0.04,0.0276,-0.1133,-1.842515607873434,0.0,3.0548152923583984,-1.816789984703064,-0.0,1.8990010023117065,5.1496218023593805,0.0,0.28006792068481445,-1.5942300001727503,0.0,-0.01618444174528122,0.8528931140899658,-0.0,-0.006982915103435516,0.8027054071426392,0.0,-0.03585398197174072
439.0,704.0,0.0311,0.1956,9.5862,-0.04,0.0276,-0.1133,-1.8425194225706996,0.0,3.0657098293304443,-1.8168251514434814,-0.0,1.9312055110931396,5.149637985020437,0.0,0.2927839756011963,-1.5941813627826136,0.0,-0.018367547541856766,0.8529050350189209,-0.0,-0.009688999503850937,0.8027094602584839,0.0,-0.037332601845264435
439.0,704.0,0.0311,0.1956,9.5862,-0.04,0.0276,-0.1133,-1.842555662194723,0.0,3.0916757583618164,-1.8167251348495483,-0.0,1.9120450019836426,5.149638104229727,0.0,0.27669504284858704,-1.5941937605487269,0.0,-0.010037293657660484,0.8528239130973816,-0.0,-0.009208625182509422,0.8026930689811707,0.0,-0.014451194554567337
439.0,704.0,0.0311,0.1956,9.5862,-0.04,0.0276,-0.1133,-1.8425356350340785,0.0,3.0586838722229004,-1.8167736530303955,-0.0,1.9685181379318237,5.149657922774114,0.0,0.2747636139392853,-1.594210449849264,0.0,-0.01129092462360859,0.8528804183006287,-0.0,-0.0071587818674743176,0.8027252554893494,0.0,0.006113226525485516
439.0,704.0,0.0311,0.1956,9.5862,-0.04,0.0276,-0.1133,-1.8425475559630335,0.0,3.0733444690704346,-1.816781997680664,-0.0,1.934920310974121,5.149705964117803,0.0,0.29037684202194214,-1.5942018667804163,0.0,-0.011655901558697224,0.852855920791626,-0.0,-0.009458325803279877,0.8026731014251709,0.0,-0.026347484439611435
449.0,671.0,0.0018,0.262,9.7388,-0.0324,0.0211,-0.1151,-1.8424912891783656,0.0,3.1179046630859375,-1.8167332410812378,-0.0,1.937863826751709,5.149653899460592,0.0,0.2761242091655731,-1.5941980520831507,0.0,-0.007846520282328129,0.8528480529785156,-0.0,-0.006808455102145672,0.8027175068855286,0.0,-0.03786657005548477
449.0,671.0,0.0018,0.262,9.7388,-0.0324,0.0211,-0.1151,-1.8425518474974574,0.0,3.0754308700561523,-1.8167983293533325,-0.0,1.9746818542480469,5.149669813900747,0.0,0.2875129282474518,-1.5941937605487269,0.0,-0.016419045627117157,0.852876603603363,-0.0,-0.017514780163764954,0.8027174472808838,0.0,-0.014216737821698189
449.0,671.0,0.0018,0.262,9.7388,-0.0324,0.0211,-0.1151,-1.842515607873434,0.0,3.101682186126709,-1.8168293237686157,-0.0,1.92543625831604,5.149609821825781,0.0,0.29350027441978455,-1.5942257086383265,0.0,-0.012703489512205124,0.852800190448761,-0.0,0.0033956924453377724,0.8027455806732178,0.0,-0.022425059229135513
449.0,671.0,0.0018,0.262,9.7388,-0.0324,0.0211,-0.1151,-1.8425637684264125,0.0,3.053614616394043,-1.8168210983276367,-0.0,1.9203819036483765,5.149661946087637,0.0,0.2783738374710083,-1.5942218939410608,0.0,-0.009616004303097725,0.8528766632080078,-0.0,-0.0038934487383812666,0.8027012944221497,0.0,-0.04519493505358696
449.0,671.0,0.0018,0.262,9.7388,-0.0324,0.0211,-0.1151,-1.8425594768919886,0.0,3.11244797706604,-1.816757082939148,-0.0,1.9250270128250122,5.149645972042837,0.0,0.2760217785835266,-1.5942061583148401,0.0,-0.00728786364197731,0.8529210686683655,-0.0,-0.001066328608430922,0.8027216196060181,0.0,-0.025397753342986107
449.0,671.0,0.0018,0.262,9.7388,-0.0324,0.0211,-0.1151,-1.8425194225706996,0.0,3.0834262371063232,-1.8167736530303955,-0.0,1.9256513118743896,5.149650054961004,0.0,0.2810894846916199,-1.5942543188678187,0.0,-0.013795525766909122,0.852924644947052,-0.0,-0.016846055164933205,0.8027334809303284,0.0,-0.031244730576872826
449.0,671.0,0.0018,0.262,9.7388,-0.0324,0.0211,-0.1151,-1.842555662194723,0.0,3.105595111846924,-1.8167860507965088,-0.0,1.9204167127609253,5.149609821825781,0.0,0.26901713013648987,-1.5942342917071741,0.0,-0.00826021283864975,0.8528522849082947,-0.0,0.006343952380120754,0.8027458190917969,0.0,-0.03774150088429451
449.0,671.0,0.0018,0.262,9.7388,-0.0324,0.0211,-0.1151,-1.8425637684264125,0.0,3.063396692276001,-1.8167983293533325,-0.0,1.9452275037765503,5.149626064091482,0.0,0.2710507810115814,-1.5942381064044397,0.0,-0.006537003442645073,0.8528967499732971,-0.0,-0.025719190016388893,0.8026689291000366,0.0,-0.004556158557534218
449.0,671.0,0.0018,0.262,9.7388,-0.0324,0.0211,-0.1151,-1.8424912891783656,0.0,3.0807552337646484,-1.8167818784713745,-0.0,1.95988130569458,5.149661916285314,0.0,0.28665608167648315,-1.5941937605487269,0.0,-0.02150782197713852,0.8528849482536316,-0.0,-0.017872579395771027,0.8027256727218628,0.0,-0.01413692906498909
449.0,671.0,0.0018,0.262,9.7388,-0.0324,0.0211,-0.1151,-1.8425232372679652,0.0,3.0650405883789062,-1.8167611360549927,-0.0,1.9439895153045654,5.149613815336981,0.0,0.2867794930934906,-1.5942094961749476,0.0,-0.009806451387703419,0.8528844714164734,-0.0,-0.007550220005214214,0.8027136921882629,0.0,-0.016245447099208832
449.0,671.0,0.0018,0.262,9.7388,-0.0324,0.0211,-0.1151,-1.8424788914122523,0.0,3.1002755165100098,-1.8167489767074585,-0.0,1.9576077461242676,5.149609821825781,0.0,0.2852560579776764,-1.5942061583148401,0.0,0.0012226435355842113,0.8528403639793396,-0.0,-0.0062772613018751144,0.8027216196060181,0.0,-0.01803671009838581
449.0,671.0,0.0018,0.262,9.7388,-0.0324,0.0211,-0.1151,-1.842555662194723,0.0,3.0450220108032227,-1.8168258666992188,-0.0,1.9424809217453003,5.149613815336981,0.0,0.2872658967971802,-1.5942133108722132,0.0,-0.004349533934146166,0.8528480529785156,-0.0,-0.005708200857043266,0.8026688098907471,0.0,0.015916796401143074
449.0,671.0,0.0018,0.262,9.7388,-0.0324,0.0211,-0.1151,-1.8425194225706996,0.0,3.0912251472473145,-1.8168015480041504,-0.0,1.981933832168579,5.149661916285314,0.0,0.27301225066185,-1.5941980520831507,0.0,-0.012687025591731071,0.8528480529785156,-0.0,-0.02275754138827324,0.8027298450469971,0.0,-0.04154357686638832
449.0,671.0,0.0018,0.262,9.7388,-0.0324,0.0211,-0.1151,-1.8425399265685023,0.0,3.057887554168701,-1.816729187965393,-0.0,2.008859157562256,5.149653899460592,0.0,0.2729473114013672,-1.5941937605487269,0.0,-0.007700774818658829,0.8528890609741211,-0.0,-0.014120982028543949,0.8026852607727051,0.0,-0.0008142816368490458
437.0,675.0,0.3942,0.1513,9.6915,-0.0374,0.0177,-0.1095,-1.8424955807127894,0.0,3.1061930656433105,-1.816733479499817,-0.0,1.9571253061294556,5.1496300278003595,0.0,0.27131909132003784,-1.5942257086383265,0.0,-0.005056715104728937,0.852876603603363,-0.0,-0.01648098975419998,0.8026893734931946,0.0,-0.00661508459597826
437.0,675.0,0.3942,0.1513,9.6915,-0.0374,0.0177,-0.1095,-1.84251131633901,0.0,3.0900487899780273,-1.8168376684188843,-0.0,1.93964684009552,5.1496580121810815,0.0,0.2776010036468506,-1.5942342917071741,0.0,-0.005571507848799229,0.8528480529785156,-0.0,-0.001909617567434907,0.8026934862136841,0.0,-0.025150377303361893
437.0,675.0,0.3942,0.1513,9.6915,-0.0374,0.0177,-0.1095,-1.842567583123678,0.0,3.1173653602600098,-1.8168096542358398,-0.0,1.9604642391204834,5.149637955218115,0.0,0.27793243527412415,-1.5941856543170374,0.0,-0.010600258596241474,0.8528320789337158,-0.0,-0.005451763980090618,0.8027054071426392,1.0711636022620041e-08,-0.05529361218214035
437.0,675.0,0.3942,0.1513,9.6915,-0.0374,0.0177,-0.1095,-1.842555662194723,0.0,3.0797743797302246,-1.8168015480041504,-0.0,1.9312152862548828,5.149657892971792,0.0,0.28541260957717896,-1.5941980520831507,0.0,-0.01964494027197361,0.8528523445129395,-0.0,0.0006895130500197411,0.8026852607727051,3.4704332159415734e-16,0.03044506162405014
437.0,675.0,0.3942,0.1513,9.6915,-0.0374,0.0177,-0.1095,-1.842499395410055,0.0,3.102155923843384,-1.816781997680664,-0.0,1.9400795698165894,5.149689930468359,0.0,0.2932163178920746,-1.5941813627826136,0.0,-0.006721656769514084,0.8528000712394714,-0.0,-0.005874291528016329,0.8027375936508179,8.380688620418971e-22,-0.038085706532001495
437.0,675.0,0.3942,0.1513,9.6915,-0.0374,0.0177,-0.1095,-1.8425356350340785,0.0,3.126412868499756,-1.8168376684188843,-0.0,1.9292330741882324,5.1496698437030695,0.0,0.2867579758167267,-1.594217602406637,0.0,-0.007713737431913614,0.8528926372528076,-0.0,-0.012244295328855515,0.8027334809303284,2.715236220907887e-29,-0.040417253971099854
437.0,675.0,0.3942,0.1513,9.6915,-0.0374,0.0177,-0.1095,-1.8425356350340785,5.524017296920647e-07,3.0776591300964355,-1.8167777061462402,-0.0,1.9464658498764038,5.14964987614707,0.0,0.2845410406589508,-1.594217602406637,0.0,-0.002542531816288829,0.8528363108634949,-0.0,0.005968794226646423,0.8026771545410156,6.55697751345254e-35,-0.00023091956973075867
437.0,675.0,0.3942,0.1513,9.6915,-0.0374,0.0177,-0.1095,-1.8425361118712367,1.3339852226318394e-12,3.0488734245300293,-1.8168015480041504,-0.0,1.8938816785812378,5.149689900666036,0.0,0.29368317127227783,-1.594189469014303,0.0,-0.00643113162368536,0.8528599739074707,-0.0,-0.0052813016809523106,0.8027092218399048,1.5834392387177568e-40,-0.015189247205853462
437.0,675.0,0.3942,0.1513,9.6915,-0.0374,0.0177,-0.1095,-1.8424674473204554,0.0016957102343440056,3.089472770690918,-1.816757082939148,-0.0,1.9233356714248657,5.1496978280837915,0.0,0.2874082326889038,-1.5942061583148401,0.0,-0.008221050724387169,0.8528683185577393,-0.0,-0.011113437823951244,0.8026893734931946,0.0,-0.04968195781111717
437.0,675.0,0.3942,0.1513,9.6915,-0.0374,0.0177,-0.1095,-1.8424831829466761,0.0023389444686472416,3.1025609970092773,-1.8168336153030396,-0.0,1.979116439819336,5.149685877352514,0.0,0.27237361669540405,-1.5942257086383265,0.0,-0.018071038648486137,0.8528239130973816,-0.0,0.0015250539872795343,0.8026731014251709,0.0,0.043554797768592834
437.0,675.0,0.3942,0.1513,9.6915,-0.0374,0.0177,-0.1095,-1.8424755535521449,0.0025224159471690655,3.114314079284668,-1.8167941570281982,-0.0,1.9591703414916992,5.14973400810317,0.0,0.26778313517570496,-1.5942300001727503,0.0,-0.0053615751676261425,0.8529447317123413,-0.0,-0.00965347234159708,0.8026934862136841,0.0,-0.00775184016674757
437.0,675.0,0.3942,0.1513,9.6915,-0.0374,0.0177,-0.1095,-1.842419763604635,0.0026061134412884712,3.0805630683898926,-1.8167736530303955,-0.0,1.9521859884262085,5.149693923979559,0.0,0.28663167357444763,-1.594217602406637,0.0,-0.004721040837466717,0.8528967499732971,-0.0,-0.00405071722343564,0.8027133941650391,0.0,-0.0036103231832385063
437.0,675.0,0.3942,0.1513,9.6915,-0.0374,0.0177,-0.1095,-1.8424073658385218,0.0023415274918079376,3.091768264770508,-1.8167778253555298,-0.0,1.9642260074615479,5.149685877352514,0.0,0.28977012634277344,-1.5942342917071741,0.0,-0.009351572021842003,0.8528766632080078,-0.0,-0.0030473885126411915,0.8027334809303284,0.0,-0.015351484529674053
429.0,655.0,-0.1232,0.533,9.4289,-0.0247,0.0338,-0.1106,-1.842419763604635,0.0019025268265977502,3.1299633979797363,-1.8167777061462402,-0.0,1.996960163116455,5.1496698437030695,0.0,0.2832193970680237,-1.5942462126361292,0.0,-0.005952030885964632,0.8528644442558289,-0.0,-0.010915767401456833,0.8027174472808838,0.0,-0.02080431766808033
429.0,655.0,-0.1232,0.533,9.4289,-0.0247,0.0338,-0.1106,-1.8423754177489222,0.001693189493380487,3.0957350730895996,-1.8167611360549927,-0.0,1.9455242156982422,5.149693923979559,0.0,0.2871720492839813,-1.5941937605487269,0.0,-0.008374606259167194,0.8528762459754944,-0.0,-0.00016066190437413752,0.802745521068573,5.639524169964716e-05,0.005049745552241802
429.0,655.0,-0.1232,0.533,9.4289,-0.0247,0.0338,-0.1106,-1.8423510990538539,0.0018910336075350642,3.0957889556884766,-1.816745638847351,-0.0,1.940070390701294,5.149677771120825,0.0,0.29098451137542725,-1.5942781607257288,0.0,-0.009001865983009338,0.8529127240180969,-0.0,0.006151540670543909,0.8027414083480835,9.617924661142752e-05,-0.019883623346686363
429.0,655.0,-0.1232,0.533,9.4289,-0.0247,0.0338,-0.1106,-1.842339654962057,0.0020088164601475,3.1167478561401367,-1.8167619705200195,-0.0,1.9875860214233398,5.1497018215949915,0.0,0.28617945313453674,-1.5942133108722132,0.0,-0.004736537113785744,0.8528199791908264,-0.0,0.011356335133314133,0.8027860522270203,0.0007200742838904262,0.002788479207083583
429.0,655.0,-0.1232,0.533,9.4289,-0.0247,0.0338,-0.1106,-1.8423272571959437,0.0023888021241873503,3.1100778579711914,-1.816765308380127,0.000532252190168947,1.9656102657318115,5.149649607926168,4.9805748858489096e-05,0.2812855839729309,-1.5942133108722132,0.0,-0.020345808938145638,0.8529484868049622,-0.0,-0.009043476544320583,0.8027331233024597,0.0020261011086404324,0.018227972090244293
429.0,655.0,-0.1232,0.533,9.4289,-0.0247,0.0338,-0.1106,-1.8423358402647914,0.0020960518158972263,3.1257734298706055,-1.816745638847351,0.0003152743447571993,1.9782888889312744,5.149669933110037,4.6308770834002644e-05,0.2785509526729584,-1.5942342917071741,0.0,-0.011593369767069817,0.8528684973716736,-0.0,-0.004737808369100094,0.8028138279914856,0.0022764657624065876,0.0015125202480703592
429.0,655.0,-0.1232,0.533,9.4289,-0.0247,0.0338,-0.1106,-1.8423072300352992,0.0014432513853535056,3.1080410480499268,-1.816765308380127,0.000330982671584934,1.933606505393982,5.149686115771093,4.3074451241409406e-05,0.2894240915775299,-1.5941980520831507,0.0,0.00598988588899374,0.8529045581817627,-0.0,-0.007176245097070932,0.8027737736701965,0.0023719603195786476,0.013435575179755688
429.0,655.0,-0.1232,0.533,9.4289,-0.0247,0.0338,-0.1106,-1.842323442498678,0.000623183383140713,3.107840061187744,-1.8167818784713745,6.260723603190854e-05,1.9659626483917236,5.149661707669058,2.0322639102232642e-05,0.2682439088821411,-1.5942218939410608,0.0,-0.006624593399465084,0.8529286980628967,-0.0,-0.0011674293782562017,0.802793562412262,0.0023009248543530703,0.048737190663814545
429.0,655.0,-0.1232,0.533,9.4289,-0.0247,0.0338,-0.1106,-1.842355867425436,0.00035345263313502073,3.11086106300354,-1.8167693614959717,1.5118913065936823e-10,1.9085378646850586,5.149629550963201,1.844720827648416e-05,0.2859612703323364,-1.5942500273333948,0.0,-0.00919214729219675,0.8528885841369629,-0.0,-0.004161413758993149,0.8028218150138855,0.0023422427475452423,0.012373104691505432
429.0,655.0,-0.1232,0.533,9.4289,-0.0247,0.0338,-0.1106,-1.8423878155150355,0.00018992344848811626,3.1039090156555176,-1.8167611360549927,4.898334872099659e-18,1.916292428970337,5.149657922774114,1.704918031464331e-05,0.28595390915870667,-1.5941980520831507,0.0,-0.004482996184378862,0.8529446721076965,-0.0,-0.006877180188894272,0.8028214573860168,0.0027275055181235075,-0.03650742396712303
429.0,655.0,-0.1232,0.533,9.4289,-0.0247,0.0338,-0.1106,-1.8423840008177699,-0.00018570221436675638,3.099320888519287,-1.8167901039123535,1.1828903798333939e-23,1.9341259002685547,5.149665820389547,1.072554141501314e-06,0.29185429215431213,-1.5941937605487269,0.0,0.002434226218611002,0.8528684973716736,-0.0,-0.007975204847753048,0.8028454184532166,0.003520258003845811,-0.008340171538293362
429.0,655.0,-0.1232,0.533,9.4289,-0.0247,0.0338,-0.1106,-1.842351575891012,-0.00015923440514598042,3.1120119094848633,-1.8168138265609741,2.856540798147917e-29,1.9290015697479248,5.14966173747138,2.9854937966256045e-10,0.28502002358436584,-1.59426194826235,0.0,-0.00785994715988636,0.8528885841369629,-0.0,0.012780977413058281,0.8028412461280823,0.004718700423836708,0.00036467239260673523
429.0,655.0,-0.1232,0.533,9.4289,-0.0247,0.0338,-0.1106,-1.8423434696593226,-0.00012883749150205404,3.0756144523620605,-1.816825270652771,-0.0004002693167421967,1.986830234527588,5.14964987614707,5.425987604509115e-15,0.2819855213165283,-1.5942819754229944,0.0,-0.015866097062826157,0.8528926372528076,-0.0,-0.00954161211848259,0.8029459118843079,0.005184785462915897,0.018387986347079277
440.0,673.0,-0.2554,0.1525,9.5019,-0.0228,0.0287,-0.099,-1.8423315487303675,-0.00011270253162365407,3.1148242950439453,-1.8168590068817139,-0.0009107336518354714,1.9267959594726562,5.149657922774114,1.5103434969914385e-18,0.27748435735702515,-1.5942538420306605,0.0,-0.016770891845226288,0.8528522849082947,-0.0,-0.006308505777269602,0.8029819130897522,0.0059962025843560696,0.039108578115701675
440.0,673.0,-0.2554,0.1525,9.5019,-0.0228,0.0287,-0.099,-1.842367788354391,-9.657715418143198e-05,3.1012353897094727,-1.816808819770813,-0.0007951275329105556,1.9695873260498047,5.149686085968771,2.744974994981674e-23,0.28323936462402344,-1.5942538420306605,0.0,-0.005023700185120106,0.8529286980628967,-0.0,0.0027405889704823494,0.8030139803886414,0.007264898624271154,-0.030963953584432602
440.0,673.0,-0.2554,0.1525,9.5019,-0.0228,0.0287,-0.099,-1.8424040279784144,-8.721756603335962e-05,3.043443441390991,-1.816773772239685,-0.00041649327613413334,1.9258520603179932,5.149661946087637,7.640739557251548e-27,0.2865421175956726,-1.594233814870016,0.0,0.0019151167944073677,0.852855920791626,-0.0,0.003401389578357339,0.8030738830566406,0.009864823892712593,0.008140691556036472
440.0,673.0,-0.2554,0.1525,9.5019,-0.0228,0.0287,-0.099,-1.842351575891012,-7.723741873633116e-05,3.099461555480957,-1.8168656826019287,-0.00021368052694015205,1.9132952690124512,5.1496698437030695,1.388666959959727e-31,0.28259578347206116,-1.594245735798971,0.0,-0.002560653258115053,0.8528518676757812,-0.0,0.0020878708455711603,0.8031417727470398,0.012012158520519733,-0.005368678830564022
440.0,673.0,-0.2554,0.1525,9.5019,-0.0228,0.0287,-0.099,-1.84240784267568,-7.11328029865399e-05,3.0935587882995605,-1.816841959953308,0.00023586343741044402,1.89767587184906,5.149685996561804,3.865405394869035e-35,0.2800566256046295,-1.5942819754229944,0.0,0.0007546592969447374,0.8528926372528076,-0.0,-0.0054863616824150085,0.8032259345054626,0.014210170134902,0.04169842600822449
440.0,673.0,-0.2554,0.1525,9.5019,-0.0228,0.0287,-0.099,-1.8424083195128382,-6.592256249859929e-05,3.1009600162506104,-1.8168139457702637,0.0003123727801721543,1.9318716526031494,5.149682062655248,1.0759498914225062e-38,0.28163424134254456,-1.594306770955221,0.0,0.0012274790788069367,0.8528845310211182,-0.0,-0.0044837757013738155,0.8032897114753723,0.016212336719036102,0.011541835963726044
440.0,673.0,-0.2554,0.1525,9.5019,-0.0228,0.0287,-0.099,-1.8424045048155726,-6.005715113133192e-05,3.0734786987304688,-1.8167983293533325,0.0007839506724849343,1.9312703609466553,5.149645793228903,1.961817850054744e-43,0.2752610445022583,-1.5943101088153284,0.0,0.011953114531934261,0.852876603603363,-0.0,0.0027679551858454943,0.8034661412239075,0.01890820451080799,-0.020262572914361954
440.0,673.0,-0.2554,0.1525,9.5019,-0.0228,0.0287,-0.099,-1.8424035511412562,-9.357643284602091e-05,3.0864408016204834,-1.8167823553085327,0.0011478174710646272,1.895346999168396,5.149689900666036,0.0,0.27693629264831543,-1.59428579012026,0.0,-0.0023463123943656683,0.8528563976287842,-0.0,0.0013494319282472134,0.8036105632781982,0.02012498863041401,-0.051666781306266785
440.0,673.0,-0.2554,0.1525,9.5019,-0.0228,0.0287,-0.099,-1.842447420159811,-0.0019213628256693482,3.1519479751586914,-1.816737413406372,0.0002845319686457515,1.9131762981414795,5.149673896818914,-2.7970041628577746e-05,0.27064278721809387,-1.5942614714251917,0.0,-0.007015042472630739,0.8529086112976074,-0.0,-0.015696048736572266,0.8038429021835327,0.02230815589427948,0.003946384415030479
440.0,673.0,-0.2554,0.1525,9.5019,-0.0228,0.0287,-0.099,-1.8424917660155238,-0.003902546362951398,3.0826148986816406,-1.816752552986145,2.1448414599944954e-08,1.9320130348205566,5.149646001845159,-4.9174697778653353e-05,0.2769874632358551,-1.5942657629596155,0.0,0.0015953844413161278,0.8528523445129395,-0.0,-0.012235723435878754,0.8039708137512207,0.024091223254799843,0.04564521834254265
440.0,673.0,-0.2554,0.1525,9.5019,-0.0228,0.0287,-0.099,-1.8425399265685023,-0.007451406214386225,3.0636587142944336,-1.8168665170669556,5.179540403890161e-14,1.8701565265655518,5.149670529156484,-9.075766138266772e-05,0.2715117335319519,-1.5942376295672815,0.0,0.0027344224508851767,0.8529050350189209,-0.0,-0.016346793621778488,0.8041309714317322,0.027127020061016083,0.027815870940685272
440.0,673.0,-0.2554,0.1525,9.5019,-0.0228,0.0287,-0.099,-1.842635294000143,-0.0144567359238863,3.0490715503692627,-1.8168178796768188,1.6781052062902878e-21,1.939913034439087,5.149574327259817,-0.0006976414006203413,0.2782069146633148,-1.5942419211017054,0.0,-0.0019936899188905954,0.852855920791626,-0.0,-0.010348787531256676,0.8043269515037537,0.028830669820308685,0.03484274074435234
440.0,673.0,-0.2554,0.1525,9.5019,-0.0228,0.0287,-0.099,-1.8427473507323207,-0.009748701006174088,3.035943031311035,-1.8167096376419067,-4.914279543299926e-07,1.961219072341919,5.149578380375662,-0.0006830640486441553,0.27665889263153076,-1.5942495504962366,0.0,0.005951715633273125,0.8528931140899658,-0.0,-0.008962961845099926,0.8044872283935547,0.027986589819192886,0.0014507938176393509
440.0,673.0,-0.2554,0.1525,9.5019,-0.0228,0.0287,-0.099,-1.8427797756590785,-0.0026584563311189413,3.0732421875,-1.816729187965393,-1.5921641040089404e-14,1.941277265548706,5.149621861964025,-0.0004249626072123647,0.2789105772972107,-1.5942700544940394,0.0,0.003537741955369711,0.8528766632080078,-0.0,-0.007563739083707333,0.8047233819961548,0.024247240275144577,0.03184881806373596
459.0,717.0,0.393,0.8315,9.6012,-0.025,0.014,-0.1266,-1.842795034448141,-0.0012525757774710655,3.075753688812256,-1.8167414665222168,0.00028809902141802013,1.9453632831573486,5.149538057833471,-0.0003926200733985752,0.2833934426307678,-1.5942862669574183,0.0,-0.006201107986271381,0.8528849482536316,-0.0,-0.01372605748474598,0.8048918843269348,0.022552505135536194,-0.025949325412511826
459.0,717.0,0.393,0.8315,9.6012,-0.025,0.014,-0.1266,-1.8427993259825648,-0.0022013369016349316,3.136335849761963,-1.8167859315872192,0.000173558626556769,1.934990644454956,5.149586486607351,-0.00034750354825519025,0.27045950293540955,-1.5942133108722132,0.0,0.0017835331382229924,0.8528764843940735,-0.0,-0.004862494301050901,0.8049672245979309,0.017990252003073692,-0.022326240316033363
459.0,717.0,0.393,0.8315,9.6012,-0.025,0.014,-0.1266,-1.842823167840475,-0.0029395464807748795,3.0467376708984375,-1.8167333602905273,0.0001346073840977624,1.9445068836212158,5.149542081146993,-0.0003353919310029596,0.28721144795417786,-1.594233814870016,0.0,-0.0015956725692376494,0.8529012799263,-0.0,-0.02048693224787712,0.8050791621208191,0.014320378191769123,0.03186166286468506
459.0,717.0,0.393,0.8315,9.6012,-0.025,0.014,-0.1266,-1.84283508876943,-0.0019746122416108847,3.078521728515625,-1.816765308380127,0.00016481330385431647,1.9205645322799683,5.149574178248205,-0.0002827069547493011,0.28625088930130005,-1.5942376295672815,0.0,-0.0077017368748784065,0.8528807163238525,-0.0,-0.018036793917417526,0.8050912022590637,0.009688842110335827,-0.010340794920921326
459.0,717.0,0.393,0.8315,9.6012,-0.025,0.014,-0.1266,-1.8428431950011195,-0.0010779814328998327,3.0949511528015137,-1.8167818784713745,0.00013252611097414047,1.9090538024902344,5.1495782909686945,-0.00023374408192466944,0.28010743856430054,-1.5942462126361292,0.0,-0.00609234906733036,0.8528284430503845,-0.0,-0.004244319628924131,0.8051912784576416,0.004309055395424366,-0.015768442302942276
459.0,717.0,0.393,0.8315,9.6012,-0.025,0.014,-0.1266,-1.8428107700743617,-0.0007436811574734747,3.1197328567504883,-1.816773533821106,0.00012005609460175037,1.9513294696807861,5.149590539723196,-0.00020687436335720122,0.27588510513305664,-1.5942700544940394,0.0,0.007989580743014812,0.8528439998626709,-0.0,-0.0128715168684721,0.8051549196243286,0.0016194026684388518,-0.026302698999643326
459.0,717.0,0.393,0.8315,9.6012,-0.025,0.014,-0.1266,-1.842806955377096,-0.0005261971964500844,3.1046605110168457,-1.8167775869369507,8.324922964675352e-05,1.9699045419692993,5.149590241699972,-0.0001793818228179589,0.2838602662086487,-1.5942133108722132,0.0,-0.019565483555197716,0.8528926372528076,-0.0,-0.007306481711566448,0.8051714301109314,7.265277304213669e-07,0.025796927511692047
459.0,717.0,0.393,0.8315,9.6012,-0.025,0.014,-0.1266,-1.8428636989989222,-0.00043156056199222803,3.047116279602051,-1.8167859315872192,0.00010533590102568269,1.9264047145843506,5.149557995587148,-0.00016312376828864217,0.27875474095344543,-1.594229523335592,0.0,-0.004935247823596001,0.852816104888916,-0.0,-0.014691663905978203,0.805131196975708,-0.0015523973852396011,-0.06970193237066269
459.0,717.0,0.393,0.8315,9.6012,-0.025,0.014,-0.1266,-1.8428713283934535,-0.0002956142998300493,3.098928928375244,-1.8167859315872192,9.77476520347409e-05,1.9153141975402832,5.149550127774038,-0.00014956814993638545,0.29297029972076416,-1.5942581335650843,0.0,0.006033494137227535,0.8529168963432312,-0.0,-0.02088942378759384,0.8050953149795532,-0.0027510549407452345,-0.018579555675387383
459.0,717.0,0.393,0.8315,9.6012,-0.025,0.014,-0.1266,-1.84283508876943,-0.001068267971277237,3.096170425415039,-1.816806435585022,0.00011384389654267579,1.9694255590438843,5.1495423195655725,-0.00013464914809446782,0.27917054295539856,-1.5941651503192347,0.0,-0.0059364475309848785,0.8529126644134521,-0.0,-0.024727631360292435,0.805046796798706,-0.0020474251359701157,0.017994385212659836
459.0,717.0,0.393,0.8315,9.6012,-0.025,0.014,-0.1266,-1.8428875408568324,-0.0027976015117019415,3.061985492706299,-1.8167693614959717,0.00010397912410553545,1.9362045526504517,5.149521994381704,-0.00014615088002756238,0.2846890091896057,-1.5942257086383265,0.0,0.0008309169206768274,0.8528640866279602,-0.0,-0.017577532678842545,0.8051196336746216,-0.0016041678609326482,-0.0857364684343338
459.0,717.0,0.393,0.8315,9.6012,-0.025,0.014,-0.1266,-1.8429395161070765,-0.006763785146176815,3.0795528888702393,-1.8167662620544434,0.00011640275624813512,1.9601396322250366,5.1495782909686945,-0.00015220382192637771,0.2875199019908905,-1.594161335621969,0.0,-0.002423795172944665,0.8528563380241394,-0.0,-0.01817631721496582,0.805079460144043,-0.0012869032798334956,-0.0185641348361969
459.0,717.0,0.393,0.8315,9.6012,-0.025,0.014,-0.1266,-1.8429433308043421,-0.006226370111107826,3.0508735179901123,-1.8167133331298828,0.000295848585665226,1.9726226329803467,5.1495423195655725,-0.0001436993043171242,0.27296194434165955,-1.594217602406637,0.0,-0.0014688989613205194,0.8528967499732971,-0.0,-0.022942539304494858,0.8050956726074219,-0.0009957669535651803,-0.04890380799770355
451.0,713.0,0.1448,0.1579,9.4026,-0.0283,0.0237,-0.1063,-1.8429871998228968,-0.002495355438441038,3.0562283992767334,-1.8167133331298828,0.001845399383455515,1.9483970403671265,5.149566101818838,-0.00010775447299238294,0.2750433385372162,-1.5942376295672815,0.0,0.005638682283461094,0.8529045581817627,-0.0,-0.015218406915664673,0.8050311207771301,-0.0006101735634729266,-0.0691862404346466
451.0,713.0,0.1448,0.1579,9.4026,-0.0283,0.0237,-0.1063,-1.8429833851256312,-0.001735841273330152,3.061283826828003,-1.8166810274124146,0.002020944142714143,1.9911342859268188,5.149526375323095,-0.00012060099106747657,0.2816084027290344,-1.5941656271563929,0.0,-0.014979379251599312,0.852876603603363,-0.0,-0.01010378822684288,0.805079460144043,-0.00047276035184040666,-0.04621325805783272
451.0,713.0,0.1448,0.1579,9.4026,-0.0283,0.0237,-0.1063,-1.8430153332152308,-0.0028989524580538273,3.086637496948242,-1.8166815042495728,0.0013253361685201526,2.0175135135650635,5.149526047497549,-0.00015008138143457472,0.2815430164337158,-1.5942300001727503,0.0,-0.008011548779904842,0.8529369831085205,-0.0,-0.015659917145967484,0.8050956130027771,-0.0003858729323837906,-0.0626237690448761
451.0,713.0,0.1448,0.1579,9.4026,-0.0283,0.0237,-0.1063,-1.8430429897704066,-0.003528838511556387,2.9935426712036133,-1.8167299032211304,0.0007883435464464128,1.9837241172790527,5.149538266449728,-0.0004901333013549447,0.27732864022254944,-1.594217602406637,0.0,-0.006083249114453793,0.8529406189918518,-0.0,-0.004791341722011566,0.8050550818443298,-0.0003099306777585298,-0.10036952048540115
451.0,713.0,0.1448,0.1579,9.4026,-0.0283,0.0237,-0.1063,-1.8430797062315882,-0.0031351300422102213,3.0209946632385254,-1.816710352897644,0.000661452068015933,2.021775007247925,5.149574208050527,-0.000400660588638857,0.27435463666915894,-1.5942133108722132,0.0,-0.0022153572645038366,0.8529725670814514,6.072484097785491e-07,-0.010370306670665741,0.8050753474235535,-0.000307078764308244,-0.12645873427391052
451.0,713.0,0.1448,0.1579,9.4026,-0.0283,0.0237,-0.1063,-1.8430711231627406,-0.0025280152913182974,2.9921135902404785,-1.8167060613632202,0.0013004455249756575,1.978013038635254,5.149550485401907,-0.0003647891280706972,0.28074193000793457,-1.5942018667804163,0.0,0.0009476464474573731,0.8530051708221436,1.1036436521616455e-11,-0.00027222512289881706,0.8050753474235535,-0.00026347042876295745,-0.11986219882965088
451.0,713.0,0.1448,0.1579,9.4026,-0.0283,0.0237,-0.1063,-1.843135496179098,-0.002871235366910696,3.006842851638794,-1.8166738748550415,0.0015721652889624238,2.0030884742736816,5.149530070811071,-0.0003168097755406052,0.2750436067581177,-1.5942300001727503,0.0,0.0067216819152235985,0.8529682159423828,3.0720328573872894e-15,-0.010236737318336964,0.8050671219825745,-0.00023740714823361486,-0.13369300961494446
451.0,713.0,0.1448,0.1579,9.4026,-0.0283,0.0237,-0.1063,-1.8431393108763636,-0.003098726272583008,3.0044188499450684,-1.8167107105255127,0.0016373719554394484,1.9712746143341064,5.149546372681417,-0.00026938688824884593,0.27359068393707275,-1.5942500273333948,0.0,-0.007515536155551672,0.8529322147369385,5.583266863223773e-20,0.008290653117001057,0.805079460144043,-0.00020974292419850826,-0.14987610280513763
451.0,713.0,0.1448,0.1579,9.4026,-0.0283,0.0237,-0.1063,-1.843130727807516,-0.003433060832321644,2.9768338203430176,-1.8166502714157104,0.0017235878622159362,2.0198147296905518,5.149582403689184,-0.00024219749320764095,0.2690809965133667,-1.5942018667804163,0.0,-0.0042426749132573605,0.8529691100120544,1.554122720917975e-23,0.005654158070683479,0.8050753474235535,-0.00019288575276732445,-0.15096180140972137
451.0,713.0,0.1448,0.1579,9.4026,-0.0283,0.0237,-0.1063,-1.843142648736471,-0.0038010424468666315,2.9515786170959473,-1.8165971040725708,0.002495000371709466,2.0035595893859863,5.149566399842062,-0.00021999444288667291,0.26988518238067627,-1.5942700544940394,0.0,0.0008190998341888189,0.8529443740844727,4.325957974278511e-27,-0.0032528862357139587,0.8050431609153748,-0.00012105821224395186,-0.20537486672401428
451.0,713.0,0.1448,0.1579,9.4026,-0.0283,0.0237,-0.1063,-1.8431908092894496,-0.0038319649174809456,2.9741363525390625,-1.816565990447998,0.0028907409869134426,2.008270263671875,5.149570542364874,-0.00019603330292738974,0.26909446716308594,-1.5941980520831507,0.0,0.01743054948747158,0.8529722690582275,7.86221579510054e-32,0.001067580422386527,0.8050835728645325,-0.000130853324662894,-0.1928151249885559
451.0,713.0,0.1448,0.1579,9.4026,-0.0283,0.0237,-0.1063,-1.8432232342162074,-0.0047903587110340595,2.9327969551086426,-1.816545844078064,0.0025541812647134066,2.0081303119659424,5.1495423195655725,-0.0001812293048715219,0.2686285376548767,-1.5942500273333948,0.0,0.0023346329107880592,0.8529279828071594,0.0001827715168474242,-0.008549345657229424,0.8050431609153748,-0.00040612657903693616,-0.18297532200813293
451.0,713.0,0.1448,0.1579,9.4026,-0.0283,0.0237,-0.1063,-1.8432709179320277,-0.006003944203257561,2.9387335777282715,-1.816554069519043,0.0026282190810889006,2.0244712829589844,5.149562346726217,-0.00016465113731101155,0.25819167494773865,-1.5942257086383265,0.0,0.011703145690262318,0.8529725074768066,0.00022025710495654494,-0.004780063405632973,0.8050591945648193,-0.0005822612438350916,-0.1874031126499176
464.0,710.0,0.0072,0.0861,9.3697,-0.0425,0.0279,-0.1249,-1.843278547326559,-0.005903309676796198,2.9109046459198,-1.8165022134780884,0.002513575367629528,2.0009241104125977,5.149582373886862,-0.00015408016042783856,0.265897661447525,-1.5942133108722132,0.0,0.003199174767360091,0.8530448079109192,0.0004727354971691966,0.011748026125133038,0.8050431609153748,-0.0008465110440738499,-0.2100289762020111
464.0,710.0,0.0072,0.0861,9.3697,-0.0425,0.0279,-0.1249,-1.843363424340719,-0.00675219064578414,2.9518089294433594,-1.8165299892425537,0.0024988516233861446,1.984269618988037,5.149562346726217,-0.00014478449884336442,0.2798649072647095,-1.5942500273333948,0.0,0.0025945210363715887,0.8530163764953613,0.00049971928820014,0.015486214309930801,0.805079460144043,-0.0009716800996102393,-0.23528224229812622
464.0,710.0,0.0072,0.0861,9.3697,-0.0425,0.0279,-0.1249,-1.8433948955931605,-0.008273299783468246,2.9270806312561035,-1.8164654970169067,0.0030155181884765625,2.009308338165283,5.1495220241840265,-0.00010085808753501624,0.282320499420166,-1.5942500273333948,0.0,-0.002023529727011919,0.8530405759811401,0.0004463725199457258,0.007909384556114674,0.8050352334976196,-0.0010354534024372697,-0.1382550448179245
464.0,710.0,0.0072,0.0861,9.3697,-0.0425,0.0279,-0.1249,-1.843487402001852,-0.009371734224259853,3.0118374824523926,-1.8164262771606445,0.0031745254527777433,2.051079511642456,5.149522292404928,-9.449516073800623e-05,0.28015607595443726,-1.5942300001727503,0.0,-0.00661073112860322,0.8530204892158508,0.0004844681825488806,0.027377627789974213,0.8050108551979065,-0.0009343634592369199,-0.17530837655067444
464.0,710.0,0.0072,0.0861,9.3697,-0.0425,0.0279,-0.1249,-1.8435718021788539,-0.010956551879644394,2.946120262145996,-1.8164658546447754,0.0033588060177862644,2.0413849353790283,5.149521964579382,-8.717289892956614e-05,0.2798236012458801,-1.5942257086383265,0.0,0.010754000395536423,0.8530436754226685,0.0004227877070661634,0.035156406462192535,0.8050108551979065,-0.0007304329192265868,-0.18166978657245636
464.0,710.0,0.0072,0.0861,9.3697,-0.0425,0.0279,-0.1249,-1.8436228237547816,-0.012593226507306099,2.913078784942627,-1.8164740800857544,0.003460473380982876,2.0086193084716797,5.1495423195655725,-8.238492591772228e-05,0.26701247692108154,-1.5942218939410608,0.0,0.009979511611163616,0.8530003428459167,0.00040217008790932596,0.02060103788971901,0.8050393462181091,-0.0005427375435829163,-0.14599299430847168
464.0,710.0,0.0072,0.0861,9.3697,-0.0425,0.0279,-0.1249,-1.8437110386290492,-0.016099410131573677,2.9202752113342285,-1.8164149522781372,0.004243442323058844,2.0086724758148193,5.149582493096151,-7.676339009776711e-05,0.2624489963054657,-1.5942257086383265,0.0,0.012376263737678528,0.8530516624450684,0.00039452314376831055,0.016756290569901466,0.8050187826156616,-0.000403617654228583,-0.2187906801700592
464.0,710.0,0.0072,0.0861,9.3697,-0.0425,0.0279,-0.1249,-1.8438917599120082,-0.01909642107784748,2.928684949874878,-1.8163539171218872,0.004270086996257305,2.0606529712677,5.149574595480718,-7.302620360860601e-05,0.27666085958480835,-1.594189469014303,0.0,-0.005814212374389172,0.853020429611206,0.0004300452128518373,0.027172517031431198,0.8050472736358643,-0.00033853971399366856,-0.22685180604457855
464.0,710.0,0.0072,0.0861,9.3697,-0.0425,0.0279,-0.1249,-1.8439871273436488,-0.02234988659620285,2.9044127464294434,-1.8163021802902222,0.004703546408563852,2.0044922828674316,5.149562346726217,-6.963602936593816e-05,0.263089656829834,-1.5942700544940394,0.0,-0.01072761695832014,0.8530961871147156,0.0005474128993228078,0.029588978737592697,0.8050591945648193,-0.00029153714422136545,-0.19201956689357758
464.0,710.0,0.0072,0.0861,9.3697,-0.0425,0.0279,-0.1249,-1.8442350826659144,-0.028301024809479713,2.906787633895874,-1.8162939548492432,0.005530822556465864,2.0120720863342285,5.149546372681417,-5.246534419711679e-05,0.25941237807273865,-1.5941980520831507,0.0,0.005229431204497814,0.8530311584472656,0.0006469650543294847,0.03233880549669266,0.8050393462181091,-0.0002459988172631711,-0.223088800907135
464.0,710.0,0.0072,0.0861,9.3697,-0.0425,0.0279,-0.1249,-1.84434237102651,-0.032855842262506485,2.833430290222168,-1.8162782192230225,0.00592006416991353,2.065253257751465,5.149598735361852,-5.0264068704564124e-05,0.2679954767227173,-1.5942218939410608,0.0,0.004137228708714247,0.8530232906341553,0.0007137653301469982,0.03966047614812851,0.8050756454467773,-0.0002503870928194374,-0.18140757083892822
464.0,710.0,0.0072,0.0861,9.3697,-0.0425,0.0279,-0.1249,-1.8446508846678675,-0.0393512137234211,2.8245468139648438,-1.8161911964416504,0.007757081650197506,2.044466495513916,5.149582373886862,-4.7605364670744166e-05,0.2761807143688202,-1.5942381064044397,0.0,-0.006419691722840071,0.8530476093292236,0.0012883953750133514,0.0452430322766304,0.8050270080566406,-0.00016088251140899956,-0.16239073872566223
464.0,710.0,0.0072,0.0861,9.3697,-0.0425,0.0279,-0.1249,-1.84491028408193,-0.043823279440402985,2.8088464736938477,-1.816154956817627,0.009841658174991608,2.0385873317718506,5.149538266449728,-4.5788881834596395e-05,0.26268112659454346,-1.5942462126361292,0.0,-0.005397079978138208,0.8530797958374023,0.0027575369458645582,0.04331547021865845,0.8050550818443298,-0.00017352386203128844,-0.24033987522125244
464.0,710.0,0.0072,0.0861,9.3697,-0.0425,0.0279,-0.1249,-1.8451906643309535,-0.04919392988085747,2.791661262512207,-1.8160390853881836,0.01174493134021759,2.0622000694274902,5.149554091482916,-3.867032137350179e-05,0.26779451966285706,-1.594273869191305,0.0,-0.0009398450492881238,0.8530423045158386,0.008066744543612003,0.04734985530376434,0.8050435185432434,-0.00018465817265678197,-0.17190611362457275
491.0,746.0,-0.472,0.1884,9.3153,-0.0365,-0.031,-0.1145,-1.8456508121886195,-0.057383984327316284,2.819032669067383,-1.8160067796707153,0.014020008966326714,2.1186439990997314,5.149582373886862,-3.153418219881132e-05,0.26735880970954895,-1.5942376295672815,0.0,-0.0029115465003997087,0.8531555533409119,0.010918179526925087,0.038189709186553955,0.8050028681755066,-0.00018888869090005755,-0.194017693400383
491.0,746.0,-0.472,0.1884,9.3153,-0.0365,-0.031,-0.1145,-1.8459860287108363,-0.0659966990351677,2.769406795501709,-1.8158793449401855,0.01600015163421631,2.0740997791290283,5.149562048702993,3.378113979124464e-05,0.2657456398010254,-1.5942419211017054,0.0,-0.006856267340481281,0.853199303150177,0.005966533441096544,0.05037432909011841,0.805031418800354,-0.00027078791754320264,-0.21235838532447815
491.0,746.0,-0.472,0.1884,9.3153,-0.0365,-0.031,-0.1145,-1.8465420208373011,-0.07312945276498795,2.8003346920013428,-1.815703272819519,0.019334642216563225,2.060835123062134,5.149614321976461,5.241407052380964e-05,0.26426196098327637,-1.5942943731891077,0.0,-0.0029433839954435825,0.8532714247703552,0.0005351534928195179,0.04198593273758888,0.8050152659416199,-0.00030072624213062227,-0.2112177312374115
491.0,746.0,-0.472,0.1884,9.3153,-0.0365,-0.031,-0.1145,-1.8470374546446742,-0.07953250408172607,2.7781214714050293,-1.8155955076217651,0.022565800696611404,2.085217237472534,5.149582403689184,6.618688348680735e-05,0.2921215295791626,-1.5942581335650843,0.0,-0.008423035964369774,0.8532388210296631,0.0002756891481112689,0.055475786328315735,0.8049951195716858,-0.0003000376746058464,-0.2142716944217682
491.0,746.0,-0.472,0.1884,9.3153,-0.0365,-0.031,-0.1145,-1.8476611576476039,-0.0818958505988121,2.7818539142608643,-1.815352201461792,0.029197197407484055,2.104489803314209,5.149606185942449,7.76596789364703e-05,0.2852216958999634,-1.5942376295672815,0.0,-0.01564851403236389,0.8532512187957764,0.00017080173711292446,0.042952053248882294,0.8049830794334412,-0.00036182822077535093,-0.18118005990982056
491.0,746.0,-0.472,0.1884,9.3153,-0.0365,-0.031,-0.1145,-1.8482090435423792,-0.07935326546430588,2.799227714538574,-1.8151882886886597,0.0344778411090374,2.1080923080444336,5.149582373886862,7.385285425698385e-05,0.27021947503089905,-1.594233814870016,0.0,-0.030562736093997955,0.8532192707061768,0.000132923130877316,0.04923824965953827,0.8050393462181091,-0.00031704912544228137,-0.14322426915168762
491.0,746.0,-0.472,0.1884,9.3153,-0.0365,-0.031,-0.1145,-1.8487607441344203,-0.07862730324268341,2.82174015045166,-1.8149687051773071,0.03950677067041397,2.1474804878234863,5.149526047497549,7.038731564534828e-05,0.27507343888282776,-1.5942776838885706,0.0,-0.03775506839156151,0.8532431125640869,0.0001631702616577968,0.06238456815481186,0.8049707412719727,-0.00026172026991844177,-0.18108680844306946
491.0,746.0,-0.472,0.1884,9.3153,-0.0365,-0.031,-0.1145,-1.84940828899526,-0.0868649035692215,2.7644100189208984,-1.814652681350708,0.04257431626319885,2.148003339767456,5.1495865164096735,7.437353633577004e-05,0.27828288078308105,-1.594273869191305,0.0,-0.033797282725572586,0.8532671928405762,0.0001736851263558492,0.06046424061059952,0.8049910068511963,-0.0001698590349406004,-0.12653237581253052
491.0,746.0,-0.472,0.1884,9.3153,-0.0365,-0.031,-0.1145,-1.8499919376769007,-0.09216125309467316,2.7748849391937256,-1.8144173622131348,0.04512738808989525,2.148435354232788,5.149566489249029,7.230147457448766e-05,0.27250319719314575,-1.5942376295672815,0.0,-0.038670457899570465,0.8532590866088867,8.68950883159414e-05,0.05700216442346573,0.8049665689468384,-0.00014879339141771197,-0.1402776688337326
491.0,746.0,-0.472,0.1884,9.3153,-0.0365,-0.031,-0.1145,-1.8506914577879847,-0.0942644327878952,2.7841978073120117,-1.813894271850586,0.053769782185554504,2.151325225830078,5.1495660720165155,6.229317659744993e-05,0.27463850378990173,-1.5942419211017054,0.0,-0.036967892199754715,0.8533151745796204,0.00017279485473409295,0.056631386280059814,0.8050070405006409,-5.199470615480095e-05,-0.12282200902700424
491.0,746.0,-0.472,0.1884,9.3153,-0.0365,-0.031,-0.1145,-1.851210733453268,-0.09551559388637543,2.740841865539551,-1.8135987520217896,0.06466836482286453,2.2188005447387695,5.149561989098348,8.461684046778828e-05,0.2769946753978729,-1.594273869191305,0.0,-0.05100330710411072,0.8532587885856628,0.00081324961502105,0.05228721350431442,0.8049871921539307,-4.431349952938035e-05,-0.1255965530872345
491.0,746.0,-0.472,0.1884,9.3153,-0.0365,-0.031,-0.1145,-1.8518115482726039,-0.09774734824895859,2.726923942565918,-1.8131678104400635,0.07575834542512894,2.142833948135376,5.149553942471304,7.737214036751539e-05,0.28049081563949585,-1.59428579012026,0.0,-0.037952207028865814,0.853306770324707,0.0011640290031209588,0.06386467814445496,0.8049992322921753,-2.617523753301043e-09,-0.14201374351978302
491.0,746.0,-0.472,0.1884,9.3153,-0.0365,-0.031,-0.1145,-1.852586408654684,-0.10706329345703125,2.774523973464966,-1.8124973773956299,0.08987171947956085,2.2030200958251953,5.149566042214193,6.941486208233982e-05,0.2730395793914795,-1.594257656727926,0.0,-0.0396893210709095,0.8532989025115967,0.0007481958600692451,0.06148802489042282,0.8050352334976196,-8.480443575328812e-17,-0.13727056980133057
524.0,752.0,0.8536,0.3428,9.8704,-0.0203,0.0444,-0.1225,-1.8532582722105921,-0.11083563417196274,2.7187743186950684,-1.8118572235107422,0.10629154741764069,2.268458604812622,5.1495660720165155,6.444418977480382e-05,0.2633357048034668,-1.5942819754229944,0.0,-0.05308099091053009,0.8533029556274414,0.0005988207412883639,0.05148286372423172,0.8050190806388855,-2.0479273385999287e-22,-0.1323608160018921
524.0,752.0,0.8536,0.3428,9.8704,-0.0203,0.0444,-0.1225,-1.854201456109518,-0.11224279552698135,2.801650047302246,-1.810975432395935,0.11551806330680847,2.219881772994995,5.149566101818838,5.882751429453492e-05,0.2729341983795166,-1.5942700544940394,0.0,-0.051179125905036926,0.8533393740653992,0.0005525557789951563,0.046866290271282196,0.805023193359375,-6.635024260674004e-30,-0.09094958752393723
524.0,752.0,0.8536,0.3428,9.8704,-0.0203,0.0444,-0.1225,-1.8548451862730921,-0.11314168572425842,2.791595458984375,-1.8102078437805176,0.12060839682817459,2.2379207611083984,5.1496387896831415,5.5218097259057686e-05,0.26910024881362915,-1.5942700544940394,0.0,-0.056690044701099396,0.8532669544219971,0.0003893355606123805,0.07074526697397232,0.8049789667129517,-1.6022804476665808e-35,-0.1767675280570984
524.0,752.0,0.8536,0.3428,9.8704,-0.0203,0.0444,-0.1225,-1.8557845554747523,-0.1168154701590538,2.71653413772583,-1.8092254400253296,0.13145065307617188,2.2594478130340576,5.149594294815817,5.1042567065451294e-05,0.26885899901390076,-1.594233814870016,0.0,-0.056073032319545746,0.8532910346984863,0.0003437412087805569,0.06123107671737671,0.8049992322921753,-5.184804318001823e-43,-0.11320440471172333
524.0,752.0,0.8536,0.3428,9.8704,-0.0203,0.0444,-0.1225,-1.8564440212645472,-0.11897250264883041,2.7390120029449463,-1.8084038496017456,0.13936291635036469,2.2956836223602295,5.149561989098348,4.8303005314664915e-05,0.2738857567310333,-1.59426194826235,0.0,-0.06152255833148956,0.8532907962799072,0.00029005773831158876,0.07362166792154312,0.8050393462181091,0.0,-0.12450698763132095
524.0,752.0,0.8536,0.3428,9.8704,-0.0203,0.0444,-0.1225,-1.8571516476073207,-0.12258642166852951,2.734553813934326,-1.80747652053833,0.14883579313755035,2.2918763160705566,5.1496184943015955,4.5842647523386404e-05,0.2665674686431885,-1.5942819754229944,0.0,-0.04955798387527466,0.8533070087432861,0.0002497929090168327,0.0725812166929245,0.8049629926681519,0.0,-0.14187410473823547
524.0,752.0,0.8536,0.3428,9.8704,-0.0203,0.0444,-0.1225,-1.8580666981139125,-0.1215682178735733,2.757948398590088,-1.8061989545822144,0.1634601354598999,2.2967114448547363,5.149590241699972,5.6991713790921494e-05,0.25670570135116577,-1.594245735798971,0.0,-0.06163137033581734,0.8533148765563965,0.00021078286226838827,0.053234394639730453,0.8049868941307068,0.0,-0.18355056643486023
524.0,752.0,0.8536,0.3428,9.8704,-0.0203,0.0444,-0.1225,-1.8588062725462855,-0.11547660082578659,2.7616331577301025,-1.8052527904510498,0.17556171119213104,2.3296568393707275,5.1496102688606165,4.065103712491691e-05,0.27726590633392334,-1.5942733923541468,0.0,-0.051254577934741974,0.853294849395752,0.00021595977887045592,0.057530224323272705,0.8050835728645325,0.0,-0.07460509985685349
524.0,752.0,0.8536,0.3428,9.8704,-0.0203,0.0444,-0.1225,-1.8597899876036585,-0.11775148659944534,2.7303829193115234,-1.8037029504776,0.18929515779018402,2.3107359409332275,5.14957423785285,3.718351945281029e-05,0.2712056040763855,-1.5942981878863733,-8.337195322383195e-05,-0.05967932939529419,0.8532628417015076,0.00019313438679091632,0.07009884715080261,0.8050190806388855,0.0,-0.07184984534978867
524.0,752.0,0.8536,0.3428,9.8704,-0.0203,0.0444,-0.1225,-1.8604332409300746,-0.1192878931760788,2.7579941749572754,-1.802641749382019,0.19560083746910095,2.3037631511688232,5.149582373886862,3.50135778717231e-05,0.2843303680419922,-1.5942252318011683,-7.898679177742451e-05,-0.048992566764354706,0.8533311486244202,0.0001768667862052098,0.06623560935258865,0.8050352334976196,0.0,-0.051438361406326294
524.0,752.0,0.8536,0.3428,9.8704,-0.0203,0.0444,-0.1225,-1.8611890278258265,-0.12024348974227905,2.736443281173706,-1.8014118671417236,0.20707347989082336,2.3407137393951416,5.1496184943015955,3.308297527837567e-05,0.2760128974914551,-1.5943024794207972,-7.503554661525413e-05,-0.0486593022942543,0.8533434867858887,0.00016312695515807718,0.05628820136189461,0.8050516843795776,0.0,-0.09129874408245087
524.0,752.0,0.8536,0.3428,9.8704,-0.0203,0.0444,-0.1225,-1.8620840511717738,-0.11863332986831665,2.74100399017334,-1.7996909618377686,0.21544213593006134,2.323648452758789,5.149626213103094,3.0817289371043444e-05,0.27565234899520874,-1.5942819754229944,-7.034368172753602e-05,-0.0686393603682518,0.8532310128211975,0.00016892982239369303,0.06220616400241852,0.8050152063369751,0.0,-0.11997345089912415
524.0,752.0,0.8536,0.3428,9.8704,-0.0203,0.0444,-0.1225,-1.8627845249571742,-0.11487511545419693,2.810290575027466,-1.7983965873718262,0.2290176898241043,2.38581919670105,5.149625944882192,4.299489228287712e-05,0.2782630920410156,-1.5942614714251917,-6.719263910781592e-05,-0.0581727959215641,0.8533189296722412,0.00015782369882799685,0.05750105530023575,0.8050554990768433,0.0,-0.0947069302201271
510.0,705.0,0.0227,0.1956,9.2764,-0.0249,0.1582,-0.1251,-1.8636752567686976,-0.11230166256427765,2.780210018157959,-1.7964674234390259,0.24571643769741058,2.377450466156006,5.149590241699972,4.1278835851699114e-05,0.2685834765434265,-1.5942495504962366,-6.340561230899766e-05,-0.06479243189096451,0.8533149361610413,0.0001160182073363103,0.05489669740200043,0.8050270080566406,0.0,-0.0867762491106987
510.0,705.0,0.0227,0.1956,9.2764,-0.0249,0.1582,-0.1251,-1.8643666706480921,-0.11187542974948883,2.82204532623291,-1.7950105667114258,0.2520238161087036,2.3999311923980713,5.149574267655172,3.946862125303596e-05,0.27244189381599426,-1.5942733923541468,-6.0834128817077726e-05,-0.04605817049741745,0.8533308506011963,0.00010683324217097834,0.050248883664608,0.8050513863563538,0.0,-0.097697913646698
510.0,705.0,0.0227,0.1956,9.2764,-0.0249,0.1582,-0.1251,-1.865286489526266,-0.11600300669670105,2.7714710235595703,-1.792938232421875,0.26697248220443726,2.381406784057617,5.149613755732336,3.728831507032737e-05,0.268893837928772,-1.5943101088153284,-5.771331416326575e-05,-0.050028689205646515,0.8533393740653992,9.756736108101904e-05,0.06829452514648438,0.8050472736358643,0.00013605946151074022,-0.15502381324768066
510.0,705.0,0.0227,0.1956,9.2764,-0.0249,0.1582,-0.1251,-1.8660065136351527,-0.12454403191804886,2.81325626373291,-1.7912933826446533,0.28087490797042847,2.5248379707336426,5.149582403689184,2.387337008258328e-05,0.27555280923843384,-1.5942581335650843,-5.557507029152475e-05,-0.04602658748626709,0.8533227443695068,0.00010870900587178767,0.06993873417377472,0.8050270080566406,0.00014977141108829528,-0.10904902219772339
510.0,705.0,0.0227,0.1956,9.2764,-0.0249,0.1582,-0.1251,-1.8666898212828578,-0.13056887686252594,2.749056816101074,-1.7895995378494263,0.2881309986114502,2.4503848552703857,5.149606185942449,2.2956630346016027e-05,0.26839083433151245,-1.5943024794207972,-5.358954513212666e-05,-0.043745044618844986,0.8533594012260437,0.00010360240412410349,0.07890519499778748,0.8049748539924622,0.00010898392065428197,-0.17547109723091125
510.0,705.0,0.0227,0.1956,9.2764,-0.0249,0.1582,-0.1251,-1.86773743251943,-0.127853661775589,2.7398252487182617,-1.787235975265503,0.3079701066017151,2.4893205165863037,5.149570214539327,3.257794014643878e-05,0.27303317189216614,-1.5942543188678187,-5.115290332469158e-05,-0.051185835152864456,0.8533025979995728,9.621860226616263e-05,0.0689583271741867,0.8050311207771301,7.288424239959568e-05,-0.1521487832069397
510.0,705.0,0.0227,0.1956,9.2764,-0.0249,0.1582,-0.1251,-1.8685127697386683,-0.122780442237854,2.7677595615386963,-1.7853553295135498,0.32445210218429565,2.5667366981506348,5.149586546211996,1.3251973541628104e-05,0.25055593252182007,-1.594273869191305,-1.2709650945907924e-05,-0.044035933911800385,0.853306770324707,9.133619460044429e-05,0.06175608187913895,0.8050352334976196,6.742267578374594e-05,-0.18504756689071655
510.0,705.0,0.0227,0.1956,9.2764,-0.0249,0.1582,-0.1251,-1.8695956669249476,-0.12502184510231018,2.774315357208252,-1.7827526330947876,0.3270947337150574,2.4537181854248047,5.149570214539327,1.5191229385536076e-09,0.25204867124557495,-1.594273869191305,-2.3099158696915367e-10,-0.027831006795167923,0.8532944321632385,8.554826490581036e-05,0.05766942352056503,0.8050472736358643,6.240203219931573e-05,-0.13998103141784668
510.0,705.0,0.0227,0.1956,9.2764,-0.0249,0.1582,-0.1251,-1.8704120121397914,-0.14094573259353638,2.7849786281585693,-1.780778408050537,0.3339317739009857,2.502516984939575,5.1495340941245935,4.2285345689362097e-13,0.24742043018341064,-1.5943024794207972,-6.42973562304909e-14,-0.03380301594734192,0.8532907962799072,8.166689076460898e-05,0.054145216941833496,0.80503910779953,8.935092046158388e-05,-0.2040170431137085
510.0,705.0,0.0227,0.1956,9.2764,-0.0249,0.1582,-0.1251,-1.8716193638243617,-0.16429433226585388,2.749601125717163,-1.7780134677886963,0.3380953371524811,2.5230515003204346,5.149534034519949,-0.0005064225988462567,0.2591726779937744,-1.5942581335650843,-1.1685726304119584e-18,-0.024381306022405624,0.8532547354698181,7.700831338297576e-05,0.06708183139562607,0.8050835728645325,7.456561434082687e-05,-0.1707090586423874
510.0,705.0,0.0227,0.1956,9.2764,-0.0249,0.1582,-0.1251,-1.8726149998106898,-0.1715025156736374,2.7041049003601074,-1.775922417640686,0.35081619024276733,2.5660955905914307,5.149598347931661,-0.00037886956124566495,0.2391200065612793,-1.5942581335650843,-3.252764570345822e-22,-0.04112650826573372,0.8532710075378418,7.384886703221127e-05,0.071943499147892,0.8050270080566406,3.316169386380352e-05,-0.22072266042232513
510.0,705.0,0.0227,0.1956,9.2764,-0.0249,0.1582,-0.1251,-1.8736340008177699,-0.16609229147434235,2.7191944122314453,-1.7737560272216797,0.35993072390556335,2.5725793838500977,5.1495865164096735,-0.00011050984903704375,0.23800703883171082,-1.5942538420306605,-9.054189866421842e-26,-0.02665853500366211,0.8532829284667969,7.09385349182412e-05,0.051588788628578186,0.8050633072853088,6.788678508229395e-10,-0.17968866229057312
510.0,705.0,0.0227,0.1956,9.2764,-0.0249,0.1582,-0.1251,-1.8749567470946253,-0.15278775990009308,2.774868965148926,-1.7707633972167969,0.3759582042694092,2.563880205154419,5.149570214539327,-0.00012659771891776472,0.2407894730567932,-1.5942581335650843,-1.645554041094642e-30,-0.03158152103424072,0.8533594012260437,6.739706441294402e-05,0.05239037424325943,0.8050426840782166,2.1994454555099188e-17,-0.22164762020111084
510.0,705.0,0.0227,0.1956,9.2764,-0.0249,0.1582,-0.1251,-1.8760291538634242,-0.15984177589416504,2.7617006301879883,-1.7685973644256592,0.37960705161094666,2.5946974754333496,5.149481522827902,-0.0008072216296568513,0.2400696873664856,-1.59428579012026,-4.580460215595415e-34,-0.01730518601834774,0.8532706499099731,6.496458809124306e-05,0.054458796977996826,0.8050709366798401,0.0013800085289403796,-0.22765499353408813
414.0,539.0,-0.935,1.2837,10.1773,0.0295,0.2259,-0.1127,-1.8774639568724574,-0.1961156278848648,2.663261890411377,-1.7655929327011108,0.37822425365448,2.633164405822754,5.14944680312232,-0.015413914807140827,0.2213134765625,-1.594233814870016,2.5681703846203163e-05,-0.014127371832728386,0.8533070087432861,5.16631844220683e-05,0.04568701609969139,0.8051072359085083,0.0021374779753386974,-0.21904608607292175
414.0,539.0,-0.935,1.2837,10.1773,0.0295,0.2259,-0.1127,-1.8786994419493617,-0.22108273208141327,2.6595051288604736,-1.7633473873138428,0.3740403652191162,2.6066136360168457,5.14932661035613,-0.02187485247850418,0.2173691987991333,-1.5942462126361292,3.7806872569490224e-05,-0.0009421755094081163,0.8532788753509521,4.9932252295548096e-05,0.0503859743475914,0.8050994873046875,0.0008130627684295177,-0.1858794093132019
414.0,539.0,-0.935,1.2837,10.1773,0.0295,0.2259,-0.1127,-1.8799544773497523,-0.2181445062160492,2.645693778991699,-1.7610375881195068,0.38197699189186096,2.535700798034668,5.149275290756979,-0.01591223105788231,0.21173815429210663,-1.5942218939410608,4.8387741117039695e-05,-0.005659496411681175,0.8532670140266418,5.40931708314929e-08,0.03339936584234238,0.8050550818443298,4.423237598416563e-08,-0.27560123801231384
414.0,539.0,-0.935,1.2837,10.1773,0.0295,0.2259,-0.1127,-1.8816334209837855,-0.20269526541233063,2.697145700454712,-1.7579172849655151,0.3935765326023102,2.6081719398498535,5.1492435214813135,-0.004915166180580854,0.20817925035953522,-1.5942342917071741,4.5925193262519315e-05,0.013118309900164604,0.8532670140266418,9.831166913540357e-13,0.04075861722230911,0.8050709366798401,1.43307249120733e-15,-0.2867603600025177
414.0,539.0,-0.935,1.2837,10.1773,0.0295,0.2259,-0.1127,-1.8829132519164027,-0.2032950520515442,2.7023227214813232,-1.7556906938552856,0.4033811092376709,2.5849084854125977,5.1491673467452905,-0.0016444606008008122,0.21736587584018707,-1.5942342917071741,4.423240170581266e-05,0.009401995688676834,0.8533188700675964,2.736541371127786e-16,0.039434727281332016,0.8051475286483765,-2.59170690242172e-07,-0.267673134803772
414.0,539.0,-0.935,1.2837,10.1773,0.0295,0.2259,-0.1127,-1.8846684894957484,-0.22380171716213226,2.748427391052246,-1.7525756359100342,0.39496710896492004,2.634164333343506,5.149087238102712,-0.006119763478636742,0.2056947648525238,-1.5942419211017054,4.216034722048789e-05,0.011942096054553986,0.8533673286437988,4.973528446138782e-21,0.03646975755691528,0.8051755428314209,0.002209519501775503,-0.2596535384654999
414.0,539.0,-0.935,1.2837,10.1773,0.0295,0.2259,-0.1127,-1.8860274753966273,-0.23581764101982117,2.7110815048217773,-1.7500848770141602,0.39099040627479553,2.6231558322906494,5.149006712227621,-0.011104502715170383,0.19704091548919678,-1.5942342917071741,5.0570852181408554e-05,0.01819707825779915,0.8532590866088867,1.3843998099192627e-24,0.03687720373272896,0.8051310181617737,0.001796973985619843,-0.2599652111530304
414.0,539.0,-0.935,1.2837,10.1773,0.0295,0.2259,-0.1127,-1.8878618679442347,-0.24890314042568207,2.6432266235351562,-1.746864914894104,0.38649436831474304,2.581791877746582,5.148979979544439,-0.011661740951240063,0.1927637755870819,-1.5942462126361292,0.00017548717733006924,0.009741343557834625,0.8532791137695312,2.5160786641610643e-29,0.028484642505645752,0.8051677346229553,0.0001821840851334855,-0.29761776328086853
414.0,539.0,-0.935,1.2837,10.1773,0.0295,0.2259,-0.1127,-1.8893615208067835,-0.25231999158859253,2.659186840057373,-1.7445240020751953,0.38988229632377625,2.5960617065429688,5.148891287833013,-0.009157282300293446,0.20108994841575623,-1.594217602406637,0.00018143771740142256,0.01780402846634388,0.8532750606536865,7.003598280935066e-33,0.02301388792693615,0.805131196975708,1.9539336904017546e-07,-0.30501264333724976
414.0,539.0,-0.935,1.2837,10.1773,0.0295,0.2259,-0.1127,-1.8907844028868617,-0.24347233772277832,2.663761615753174,-1.742178201675415,0.39027315378189087,2.5700554847717285,5.148847567826071,-0.0058798836544156075,0.19591085612773895,-1.5942543188678187,0.0001715767284622416,0.019388966262340546,0.8532265424728394,1.9494772758923104e-36,0.024106431752443314,0.8051353096961975,4.718519412000299e-13,-0.29306143522262573
414.0,539.0,-0.935,1.2837,10.1773,0.0295,0.2259,-0.1127,-1.8927151165404261,-0.23988594114780426,2.665994882583618,-1.7390464544296265,0.3953531086444855,2.619382381439209,5.148803430586614,-0.0028336751274764538,0.20009395480155945,-1.5942342917071741,0.00017759340698830783,0.02303447388112545,0.8533069491386414,3.5430430371988675e-41,0.025820527225732803,0.8051475286483765,1.5287404397166668e-20,-0.3400411605834961
414.0,539.0,-0.935,1.2837,10.1773,0.0295,0.2259,-0.1127,-1.8941699467101039,-0.24229204654693604,2.729739189147949,-1.7366963624954224,0.394234299659729,2.5830540657043457,5.148808169155874,-0.0019395553972572088,0.21007876098155975,-1.5941980520831507,0.00016375129052903503,0.020072253420948982,0.8532631397247314,-1.9867711671395227e-05,0.03134458139538765,0.8051351308822632,3.691728520585593e-26,-0.3375355005264282
414.0,539.0,-0.935,1.2837,10.1773,0.0295,0.2259,-0.1127,-1.89616121868276,-0.25401318073272705,2.688704490661621,-1.7335679531097412,0.3916965126991272,2.565807580947876,5.148748564511099,-0.00660746032372117,0.1911771595478058,-1.5942133108722132,0.00015874391829129308,0.027335386723279953,0.8532910346984863,-1.999660707951989e-05,0.01596783474087715,0.805183470249176,1.1960732161433548e-33,-0.28283292055130005
346.0,412.0,-1.2742,1.0834,9.8788,0.0092,0.1862,-0.1193,-1.897684236566061,-0.26759299635887146,2.736844778060913,-1.731217861175537,0.3846701383590698,2.54946231842041,5.148692178517141,-0.009817691519856453,0.18580859899520874,-1.594217602406637,0.00015860625717323273,0.029991328716278076,0.853283166885376,-2.1662838634028958e-08,0.013552446849644184,0.8051875829696655,0.0003077237925026566,-0.3116946220397949
346.0,412.0,-1.2742,1.0834,9.8788,0.0092,0.1862,-0.1193,-1.8992673359312953,-0.27559658885002136,2.6851987838745117,-1.728896141052246,0.3886568546295166,2.6059155464172363,5.148700642376699,-0.008225899189710617,0.19617685675621033,-1.5942257086383265,0.00023556777159683406,0.01647251658141613,0.853255033493042,-6.02992959383708e-12,0.026723258197307587,0.8051755428314209,1.1863838153658435e-05,-0.35270237922668457
346.0,412.0,-1.2742,1.0834,9.8788,0.0092,0.1862,-0.1193,-1.901433607141012,-0.26551100611686707,2.730666399002075,-1.725815773010254,0.39267584681510925,2.575638771057129,5.148712563305654,-0.0019472748972475529,0.19072775542736053,-1.5942743460284632,0.000250376935582608,0.02749878540635109,0.8532265424728394,-1.095909756003335e-16,0.025190267711877823,0.8051553964614868,3.8437322443830857e-13,-0.36518895626068115
346.0,412.0,-1.2742,1.0834,9.8788,0.0092,0.1862,-0.1193,-1.9030643902220667,-0.26747003197669983,2.737971782684326,-1.7233942747116089,0.4026619791984558,2.623514175415039,5.1486723003681085,-1.5929756500554504e-06,0.18174707889556885,-1.5941856543170374,0.0002269526885356754,0.039711978286504745,0.8532546758651733,-0.00021901485160924494,0.021380826830863953,0.8051632046699524,9.28216174883011e-19,-0.3762319087982178
346.0,412.0,-1.2742,1.0834,9.8788,0.0092,0.1862,-0.1193,-1.9053431950011195,-0.2709288001060486,2.7894930839538574,-1.7201924324035645,0.3966413736343384,2.5609030723571777,5.148684489517965,-2.8951540817501176e-11,0.19845429062843323,-1.5942500273333948,0.0002015393547480926,0.04929755628108978,0.8532427549362183,-0.00027549665537662804,0.005902973003685474,0.8051829934120178,3.0073026303057365e-26,-0.3466227650642395
346.0,412.0,-1.2742,1.0834,9.8788,0.0092,0.1862,-0.1193,-1.9070302448668421,-0.27166393399238586,2.7605173587799072,-1.717788815498352,0.39844486117362976,2.5695981979370117,5.148676383286276,-8.0587680219334e-15,0.1987667977809906,-1.5942376295672815,0.00018592528067529202,0.0421212874352932,0.853199303150177,-0.0002854318590834737,0.015299167484045029,0.8052437901496887,7.262282857501597e-32,-0.3481779396533966
346.0,412.0,-1.2742,1.0834,9.8788,0.0092,0.1862,-0.1193,-1.9093362293639125,-0.29409679770469666,2.6843488216400146,-1.714704990386963,0.3905090093612671,2.5440073013305664,5.1486567137535,-1.4646410185154536e-19,0.1848892867565155,-1.5942300001727503,0.0001685178285697475,0.036514412611722946,0.8532553911209106,-0.0003852631780318916,0.01727648451924324,0.8052236437797546,2.352888021583121e-39,-0.3611345589160919
346.0,412.0,-1.2742,1.0834,9.8788,0.0092,0.1862,-0.1193,-1.911131044427389,-0.2994859218597412,2.796560764312744,-1.712308406829834,0.38823366165161133,2.5712978839874268,5.148640352278509,-4.076882067558313e-23,0.19585494697093964,-1.5942300001727503,0.00015746121061965823,0.03645148128271103,0.8532633185386658,-0.0003067640936933458,0.002358639147132635,0.8052116632461548,5.605193857299268e-45,-0.3219457268714905
346.0,412.0,-1.2742,1.0834,9.8788,0.0092,0.1862,-0.1193,-1.9128614864745082,-0.289713591337204,2.8243284225463867,-1.7099806070327759,0.38701003789901733,2.548543691635132,5.148692714958944,-1.134815007796511e-26,0.19565066695213318,-1.5942581335650843,0.00014776620082557201,0.03947428613901138,0.8532950282096863,-0.0003054625412914902,0.002780310343950987,0.8051590919494629,9.354127541882917e-05,-0.2995602488517761
346.0,412.0,-1.2742,1.0834,9.8788,0.0092,0.1862,-0.1193,-1.9151960812010707,-0.28774088621139526,2.805279016494751,-1.7069053649902344,0.3889026343822479,2.5254673957824707,5.1486845193202875,-2.062469960904739e-31,0.1951269805431366,-1.5941937605487269,0.0001365556090604514,0.039992623031139374,0.8531993627548218,-0.0002905006695073098,0.012078053317964077,0.8052117228507996,0.00012138622696511447,-0.319856733083725
346.0,412.0,-1.2742,1.0834,9.8788,0.0092,0.1862,-0.1193,-1.916919847527975,-0.28511902689933777,2.8174214363098145,-1.7046536207199097,0.3910936713218689,2.581416130065918,5.148636567383566,-5.740961158931839e-35,0.1960693597793579,-1.5941980520831507,0.00012920392327941954,0.01902293786406517,0.853234589099884,-0.000286958587821573,-0.0006009889766573906,0.8052112460136414,0.00020025076810270548,-0.36066725850105286
346.0,412.0,-1.2742,1.0834,9.8788,0.0092,0.1862,-0.1193,-1.9191934070982875,-0.28416678309440613,2.8252029418945312,-1.7015531063079834,0.38427045941352844,2.5245399475097656,5.1486567137535,-1.0433914222531512e-39,0.20249547064304352,-1.5942662397967737,0.00012055074330419302,0.019051112234592438,0.8532235622406006,-0.00025110263959504664,-4.491361323744059e-06,0.8052274584770203,0.00027066291659139097,-0.3555169701576233
346.0,412.0,-1.2742,1.0834,9.8788,0.0092,0.1862,-0.1193,-1.9209238491454066,-0.2921910285949707,2.8714864253997803,-1.6992405652999878,0.3821225166320801,2.518944263458252,5.148588347225942,-2.9006878211523713e-43,0.1985159069299698,-1.594217602406637,0.00011478509986773133,0.031476616859436035,0.8532314300537109,-0.0002035616635112092,-0.0023167412728071213,0.805231511592865,0.0010449542896822095,-0.29112234711647034
307.0,366.0,-0.143,0.5216,9.0945,-0.0368,0.1541,-0.126,-1.9226790867247523,-0.2907283902168274,2.86252498626709,-1.6969164609909058,0.38232025504112244,2.541395425796509,5.148612516909399,-0.0,0.20930111408233643,-1.5942018667804163,0.0001095458646886982,0.027145661413669586,0.8532792329788208,-0.00021029809431638569,0.006824343465268612,0.8052273988723755,0.0012765686260536313,-0.36794403195381165
307.0,366.0,-0.143,0.5216,9.0945,-0.0368,0.1541,-0.126,-1.924905916253561,-0.2844819128513336,2.9129161834716797,-1.693968415260315,0.38383641839027405,2.573486328125,5.1486161825950525,-0.0,0.2138080894947052,-1.5942133108722132,0.00010326155461370945,0.023182716220617294,0.8531957268714905,-0.00021233090956229717,0.0036031343042850494,0.805199384689331,0.0007274929084815085,-0.293209433555603
307.0,366.0,-0.143,0.5216,9.0945,-0.0368,0.1541,-0.126,-1.926488538781637,-0.27509915828704834,2.929349899291992,-1.6916691064834595,0.38404718041419983,2.5578701496124268,5.148624467640676,-0.0,0.2150711864233017,-1.5942500273333948,9.90018670563586e-05,0.027950825169682503,0.853203535079956,-0.00019620568491518497,0.008418350480496883,0.8051993250846863,0.0005876806098967791,-0.298673540353775
307.0,366.0,-0.143,0.5216,9.0945,-0.0368,0.1541,-0.126,-1.928706785241598,-0.27548879384994507,2.9318761825561523,-1.6885888576507568,0.3752143681049347,2.569396734237671,5.1486768303211115,-0.0,0.20493708550930023,-1.5942500273333948,9.38405137276277e-05,0.019298218190670013,0.8531995415687561,-0.00019938677723985165,-0.0014362211804836988,0.8052634000778198,0.0006340174586512148,-0.325109601020813
307.0,366.0,-0.143,0.5216,9.0945,-0.0368,0.1541,-0.126,-1.9303857288756312,-0.2783806025981903,2.9187886714935303,-1.6863172054290771,0.37201088666915894,2.5224618911743164,5.148664492159643,-7.560092490166426e-05,0.21217089891433716,-1.594201389943258,8.47447881824337e-05,0.015314307063817978,0.8531716465950012,-0.00018409827316645533,-0.002868127077817917,0.8052228689193726,0.0015944198239594698,-0.2475222945213318
307.0,366.0,-0.143,0.5216,9.0945,-0.0368,0.1541,-0.126,-1.9325114689269007,-0.27217429876327515,2.9660465717315674,-1.6832643747329712,0.36742228269577026,2.4762537479400635,5.148656326323309,-6.531627150252461e-05,0.21503886580467224,-1.5942824522601526,7.524566171923652e-05,0.014717740938067436,0.8531997203826904,-0.0001905163226183504,-0.0009585308725945652,0.8052592873573303,0.001961511792615056,-0.2457079440355301
307.0,366.0,-0.143,0.5216,9.0945,-0.0368,0.1541,-0.126,-1.9342109165587367,-0.27502211928367615,2.9604265689849854,-1.6810808181762695,0.3667532801628113,2.5142452716827393,5.148648488312521,-2.9585979063995183e-05,0.2125592827796936,-1.594233814870016,7.26427388144657e-05,0.018850114196538925,0.8531437516212463,-0.000169072620337829,-0.003807711647823453,0.8053197264671326,0.0021678972989320755,-0.26257187128067017
307.0,366.0,-0.143,0.5216,9.0945,-0.0368,0.1541,-0.126,-1.9358416996397914,-0.27503281831741333,2.9321951866149902,-1.6788520812988281,0.36566826701164246,2.5228395462036133,5.148656743555822,-3.3713036827975884e-05,0.2135542929172516,-1.594273869191305,7.021395140327513e-05,0.00133502297103405,0.8532154560089111,-0.00015194375009741634,-0.006633161101490259,0.8052994012832642,0.002315780846402049,-0.2441108524799347
307.0,366.0,-0.143,0.5216,9.0945,-0.0368,0.1541,-0.126,-1.9380160770811976,-0.25981348752975464,3.0389480590820312,-1.6759499311447144,0.3659783601760864,2.480539321899414,5.1486160335834406,-2.3962311388459057e-05,0.22430510818958282,-1.5942218939410608,2.5578603526810184e-05,0.00866197980940342,0.8531556129455566,-0.00013386232603807002,-0.004800727125257254,0.8052991032600403,0.0022219764068722725,-0.2566106915473938
307.0,366.0,-0.143,0.5216,9.0945,-0.0368,0.1541,-0.126,-1.9396106205382289,-0.26194003224372864,3.0021519660949707,-1.673781156539917,0.36861613392829895,2.5096445083618164,5.148664492159643,-2.218968620582018e-05,0.22600077092647552,-1.59426194826235,2.403097641945351e-05,0.008323331363499165,0.8531635999679565,-0.0001228940236615017,0.0056860800832509995,0.8053677082061768,0.0037692785263061523,-0.2564620077610016
307.0,366.0,-0.143,0.5216,9.0945,-0.0368,0.1541,-0.126,-1.941801210443014,-0.27345216274261475,3.0438780784606934,-1.6708565950393677,0.36158305406570435,2.465752363204956,5.148628580361166,-6.0580761783057824e-05,0.22287273406982422,-1.5942538420306605,1.1412814274081029e-05,0.002972733462229371,0.8532587885856628,-0.00011079075920861214,-0.0020673538092523813,0.8053954839706421,0.004293359816074371,-0.2174888551235199
307.0,366.0,-0.143,0.5216,9.0945,-0.0368,0.1541,-0.126,-1.9434644184508265,-0.26672548055648804,3.0232040882110596,-1.668668508529663,0.3600575029850006,2.465102434158325,5.148604231863775,3.005190592375584e-05,0.21798360347747803,-1.5942495504962366,1.0988512258336414e-05,0.007781384512782097,0.8532273769378662,-0.00010317018313799053,0.008562113158404827,0.8054194450378418,0.003799447324126959,-0.24483416974544525
307.0,366.0,-0.143,0.5216,9.0945,-0.0368,0.1541,-0.126,-1.9450589619078578,-0.2677164077758789,3.010897159576416,-1.6664483547210693,0.363504022359848,2.5086662769317627,5.148608404188909,3.238969293306582e-05,0.2190674990415573,-1.594273869191305,3.550812550656701e-07,-0.005280120298266411,0.8532314300537109,-9.65304861892946e-05,-0.004360536579042673,0.8053830862045288,0.0034137212205678225,-0.19959886372089386
307.0,366.0,-0.143,0.5216,9.0945,-0.0368,0.1541,-0.126,-1.9471456013121546,-0.2673010230064392,3.040393590927124,-1.6636407375335693,0.35792168974876404,2.501905918121338,5.148648488312521,2.8314630981185474e-05,0.2125100940465927,-1.594233814870016,6.45342676866556e-12,-0.010069060139358044,0.8532235026359558,-8.890201570466161e-05,0.012136802077293396,0.8054394125938416,0.003826198633760214,-0.1973627209663391
287.0,327.0,0.0335,-0.2459,9.664,-0.0524,0.1147,-0.1116,-1.9487081966795863,-0.2585488259792328,3.029153347015381,-1.6615324020385742,0.36320754885673523,2.545292377471924,5.148608404188909,2.5872543119476177e-05,0.20491135120391846,-1.59428579012026,1.7963351702524272e-15,0.011961188167333603,0.8532671928405762,-6.717992800986394e-05,0.0011703764321282506,0.805459201335907,0.004794315900653601,-0.22194653749465942
287.0,327.0,0.0335,-0.2459,9.664,-0.0524,0.1147,-0.1116,-1.9507228336729945,-0.25218862295150757,3.0557098388671875,-1.6586005687713623,0.35304269194602966,2.5139217376708984,5.148644822626867,2.320412386325188e-05,0.22432677447795868,-1.5942257086383265,3.2647503689541014e-20,-0.018289238214492798,0.853175699710846,-6.248085264815018e-05,0.0012997181620448828,0.8054994940757751,0.005044522229582071,-0.21956515312194824
287.0,327.0,0.0335,-0.2459,9.664,-0.0524,0.1147,-0.1116,-1.952261587182516,-0.24907121062278748,3.0821778774261475,-1.6565015316009521,0.3514559268951416,2.481232166290283,5.148623901396551,2.153811146854423e-05,0.2351250946521759,-1.5942538420306605,9.08755141040122e-24,-0.008271503262221813,0.8532426953315735,-5.938861795584671e-05,0.002015762496739626,0.8055397272109985,0.005759431514889002,-0.18027172982692719
287.0,327.0,0.0335,-0.2459,9.664,-0.0524,0.1147,-0.1116,-1.9541641674437464,-0.2454383373260498,3.11885404586792,-1.6536341905593872,0.3467632234096527,2.5510284900665283,5.148672747402944,1.965640694834292e-05,0.21528756618499756,-1.5942900816546839,1.651617696107596e-28,-0.01081070676445961,0.8532354235649109,-5.5712316680001095e-05,0.008398330770432949,0.8056120276451111,0.006595449987798929,-0.1911916732788086
287.0,327.0,0.0335,-0.2459,9.664,-0.0524,0.1147,-0.1116,-1.9555627308287562,-0.24011237919330597,3.071427345275879,-1.6515343189239502,0.3439607620239258,2.479052782058716,5.148608404188909,8.200725432061517e-08,0.22686654329299927,-1.5943024794207972,4.59733871653559e-32,-0.0021636844612658024,0.8532266020774841,-5.324052108335309e-05,-0.00015705800615251064,0.805655837059021,0.007559145800769329,-0.1940462440252304
287.0,327.0,0.0335,-0.2459,9.664,-0.0524,0.1147,-0.1116,-1.9569703541197718,-0.23297470808029175,3.111572027206421,-1.6494710445404053,0.3401089608669281,2.442443609237671,5.14860017874793,2.2827023257732115e-11,0.21461962163448334,-1.5942581335650843,1.2796863129883364e-35,-0.019281920045614243,0.8532872796058655,-5.097871689940803e-05,-0.0026211263611912727,0.805695652961731,0.007113087456673384,-0.17277461290359497
287.0,327.0,0.0335,-0.2459,9.664,-0.0524,0.1147,-0.1116,-1.9586922130980433,-0.22204861044883728,3.1293797492980957,-1.6467679738998413,0.33412978053092957,2.5331239700317383,5.148604261666097,4.1486985542245986e-16,0.20955145359039307,-1.5942581335650843,2.3257630872091854e-40,-0.008754141628742218,0.8532346487045288,-4.824594725505449e-05,0.0020622285082936287,0.8057962656021118,0.0076229083351790905,-0.17610949277877808
287.0,327.0,0.0335,-0.2459,9.664,-0.0524,0.1147,-0.1116,-1.9600721798338832,-0.22100625932216644,3.125027656555176,-1.6447393894195557,0.3331693112850189,2.465547561645508,5.148660796671667,1.1548053981881438e-19,0.22069376707077026,-1.5942657629596155,6.445972935894159e-44,0.002413189969956875,0.853314995765686,-3.488593574729748e-05,0.0031935726292431355,0.8058361411094666,0.009119163267314434,-0.16710272431373596
287.0,327.0,0.0335,-0.2459,9.664,-0.0524,0.1147,-0.1116,-1.9617659054198207,-0.2128714770078659,3.1870014667510986,-1.6420717239379883,0.33476001024246216,2.4665613174438477,5.148584562330999,2.0988019092335e-24,0.20868909358978271,-1.594229523335592,0.0,-0.006213081534951925,0.8533109426498413,-3.308107261545956e-05,0.018553905189037323,0.8058193325996399,0.010294589214026928,-0.2006119191646576
287.0,327.0,0.0335,-0.2459,9.664,-0.0524,0.1147,-0.1116,-1.962987562219137,-0.20216263830661774,3.1927309036254883,-1.6400395631790161,0.33683088421821594,2.5182013511657715,5.148660796671667,5.8420923006624225e-28,0.22430011630058289,-1.5942981878863733,0.0,-0.011293964460492134,0.8532510995864868,2.817252607201226e-05,0.026057817041873932,0.805959939956665,0.01087277103215456,-0.169080913066864
287.0,327.0,0.0335,-0.2459,9.664,-0.0524,0.1147,-0.1116,-1.9642788372435511,-0.20227232575416565,3.167595624923706,-1.6380366086959839,0.3320726156234741,2.498948574066162,5.148612844734945,1.62616795283009e-31,0.20390234887599945,-1.5942943731891077,0.0,-0.006689760833978653,0.8532909750938416,3.895193003700115e-05,0.018412383273243904,0.8060364723205566,0.011620127595961094,-0.16491009294986725
287.0,327.0,0.0335,-0.2459,9.664,-0.0524,0.1147,-0.1116,-1.9660116634764613,-0.21743521094322205,3.1356887817382812,-1.6353849172592163,0.33700814843177795,2.4829061031341553,5.148616927653112,-0.0006592642748728395,0.2111559957265854,-1.5942700544940394,0.0,0.00010704854503273964,0.8533228635787964,3.840821227640845e-05,0.021753625944256783,0.8061123490333557,0.010717167519032955,-0.17921024560928345
287.0,327.0,0.0335,-0.2459,9.664,-0.0524,0.1147,-0.1116,-1.967353960076803,-0.21542784571647644,3.1358799934387207,-1.6334145069122314,0.33620527386665344,2.4375319480895996,5.14859293678359,-0.001572492066770792,0.20249983668327332,-1.5942657629596155,0.0,-0.01284901611506939,0.8532346487045288,4.9008849600795656e-05,0.02980489283800125,0.8061763048171997,0.00955283548682928,-0.16714562475681305
253.0,288.0,-0.5725,-0.2692,9.4253,-0.0454,0.1662,-0.1138,-1.9689909420409144,-0.20100650191307068,3.0809106826782227,-1.630678415298462,0.34998592734336853,2.521153211593628,5.14854450800971,-0.0008606816991232336,0.20853281021118164,-1.5943024794207972,0.0,-0.014899255707859993,0.8532829880714417,4.657335739466362e-05,0.012103592976927757,0.8062402606010437,0.008473895490169525,-0.16816431283950806
253.0,288.0,-0.5725,-0.2692,9.4253,-0.0454,0.1662,-0.1138,-1.9703132114806117,-0.20411719381809235,3.1934428215026855,-1.628631353378296,0.3459540605545044,2.5124950408935547,5.148528742581167,-0.0025487507227808237,0.20108667016029358,-1.5943382422076624,0.0,-0.014173797331750393,0.8533071279525757,4.483332304516807e-05,0.03597874194383621,0.8063045144081116,0.0081829484552145,-0.24081078171730042
253.0,288.0,-0.5725,-0.2692,9.4253,-0.0454,0.1662,-0.1138,-1.9719983539977015,-0.22039636969566345,3.146371364593506,-1.6257871389389038,0.34211283922195435,2.5369155406951904,5.14849283078269,-0.009413069114089012,0.20468147099018097,-1.5942538420306605,0.0,-0.0014391511213034391,0.8532950282096863,4.2705964006017894e-05,0.03951353579759598,0.806372344493866,0.010300111956894398,-0.12919378280639648
253.0,288.0,-0.5725,-0.2692,9.4253,-0.0454,0.1662,-0.1138,-1.9733568630614222,-0.21746917068958282,3.118313789367676,-1.623732089996338,0.3440198302268982,2.5170183181762695,5.14840908625678,-0.009039525873959064,0.18748460710048676,-1.5942538420306605,0.0,-0.01882920227944851,0.8532422780990601,4.6321503759827465e-05,0.02529984712600708,0.8064447641372681,0.009978794492781162,-0.2128479927778244
253.0,288.0,-0.5725,-0.2692,9.4253,-0.0454,0.1662,-0.1138,-1.974626203576559,-0.21010597050189972,3.131892204284668,-1.6215604543685913,0.3434176743030548,2.4814558029174805,5.148377287178793,-0.008228042162954807,0.1960197240114212,-1.59428579012026,0.0,-0.010505709797143936,0.8532910346984863,4.983392864232883e-05,0.03551618754863739,0.8064965009689331,0.009068520739674568,-0.1715981364250183
253.0,288.0,-0.5725,-0.2692,9.4253,-0.0454,0.1662,-0.1138,-1.9763804874815882,-0.2083902209997177,3.1648788452148438,-1.6187880039215088,0.34784767031669617,2.5495519638061523,5.148265230446615,-0.006775564514100552,0.19150790572166443,-1.5942819754229944,0.0,-0.0036789572332054377,0.8532472252845764,1.786795822411591e-09,0.03959764540195465,0.8065405488014221,0.009401681832969189,-0.19071605801582336
253.0,288.0,-0.5725,-0.2692,9.4253,-0.0454,0.1662,-0.1138,-1.9776016674437464,-0.20912019908428192,3.137711763381958,-1.6167213916778564,0.34245121479034424,2.513829231262207,5.148217278509893,-0.008649860508739948,0.19082415103912354,-1.5942781607257288,0.0,0.0022704433649778366,0.8532907962799072,0.0001235475210705772,0.0348844900727272,0.8066449165344238,0.010569673031568527,-0.21244043111801147
253.0,288.0,-0.5725,-0.2692,9.4253,-0.0454,0.1662,-0.1138,-1.9792834721007289,-0.20652878284454346,3.178147077560425,-1.6140053272247314,0.34324517846107483,2.5268290042877197,5.148149388819494,-0.010243094526231289,0.17927777767181396,-1.5942695776568812,0.0,-0.012987523339688778,0.8532950282096863,0.00011277646262897179,0.0423765704035759,0.8067086338996887,0.010688157752156258,-0.22758470475673676
253.0,288.0,-0.5725,-0.2692,9.4253,-0.0454,0.1662,-0.1138,-1.9805013142027796,-0.2023801952600479,3.1583690643310547,-1.612030029296875,0.3449265956878662,2.522038459777832,5.148117470532217,-0.010772707872092724,0.17969705164432526,-1.594233814870016,0.0,-0.002613367745652795,0.8533433675765991,0.00012582041381392628,0.041414011269807816,0.8067765235900879,0.012239404022693634,-0.17916718125343323
253.0,288.0,-0.5725,-0.2692,9.4253,-0.0454,0.1662,-0.1138,-1.982046743432516,-0.20476694405078888,3.1081197261810303,-1.60930597782135,0.34491583704948425,2.5258948802948,5.147962051420965,-0.01727854646742344,0.1768808364868164,-1.5942376295672815,0.0,-0.007387428544461727,0.8532949090003967,0.00011513312347233295,0.045002296566963196,0.806864857673645,0.013810550794005394,-0.2134108543395996
253.0,288.0,-0.5725,-0.2692,9.4253,-0.0454,0.1662,-0.1138,-1.9832855663695277,-0.2031714916229248,3.1591572761535645,-1.6072711944580078,0.3408312201499939,2.5237550735473633,5.14783405044631,-0.02451317384839058,0.17857635021209717,-1.5942819754229944,0.0,0.010807436890900135,0.8532551527023315,0.00012159140896983445,0.045731253921985626,0.8069406747817993,0.015627646818757057,-0.2348460853099823
253.0,288.0,-0.5725,-0.2692,9.4253,-0.0454,0.1662,-0.1138,-1.9845434627928675,-0.19936440885066986,3.170048713684082,-1.6052637100219727,0.34822139143943787,2.5421438217163086,5.147650557547369,-0.03574775159358978,0.16017960011959076,-1.5943024794207972,0.0,0.01305821817368269,0.8533148169517517,0.00011908593296539038,0.042367592453956604,0.8070490956306458,0.017496241256594658,-0.28641635179519653
253.0,288.0,-0.5725,-0.2692,9.4253,-0.0454,0.1662,-0.1138,-1.9861093960204066,-0.19654104113578796,3.1584391593933105,-1.6024919748306274,0.34278440475463867,2.537531852722168,5.147259163647451,-0.06964530050754547,0.14180955290794373,-1.594233814870016,0.0,0.005506463348865509,0.8533069491386414,0.00011071579501731321,0.04503941908478737,0.8072212338447571,0.020287038758397102,-0.23389387130737305
220.0,243.0,-1.2425,-0.3314,9.2889,-0.0321,-0.0356,-0.1067,-1.9872266254820765,-0.19647689163684845,3.1805002689361572,-1.6004040241241455,0.3477589190006256,2.5354554653167725,5.1467283246810815,-0.10876430571079254,0.13789096474647522,-1.5942657629596155,0.0,0.009453721344470978,0.8532869815826416,0.00010517096961848438,0.043725546449422836,0.8073533177375793,0.024947786703705788,-0.2481137216091156
220.0,243.0,-1.2425,-0.3314,9.2889,-0.0321,-0.0356,-0.1067,-1.9887529812254847,-0.18865378201007843,3.163832664489746,-1.5976645946502686,0.34512215852737427,2.5285587310791016,5.145551699190893,-0.15151481330394745,0.09864279627799988,-1.5942495504962366,0.0,0.01491627562791109,0.8533388376235962,9.858766861725599e-05,0.04710037633776665,0.8075293302536011,0.02888805978000164,-0.25340837240219116
