ramyac6/ROB537/final_project/csv/good/good_50.csv
tof_0,tof_1,accelx,accely,accelz,gyrox,gyroy,gyroz,shoulder_lift_joint_position,shoulder_lift_joint_velocity,shoulder_lift_joint_effort,elbow_joint_position,elbow_joint_velocity,elbow_joint_effort,wrist_1_joint_position,wrist_1_joint_velocity,wrist_1_joint_effort,wrist_2_joint_position,wrist_2_joint_velocity,wrist_2_joint_effort,wrist_3_joint_position,wrist_3_joint_velocity,wrist_3_joint_effort,shoulder_pan_joint_position,shoulder_pan_joint_velocity,shoulder_pan_joint_effort
221.0,290.0,-0.2004,0.3332,9.536,-0.0359,0.0232,-0.121,-1.9419342480101527,0.0,3.5857198238372803,-1.595875859260559,-0.0,2.035299777984619,5.007964360504904,0.0,0.27120813727378845,-1.5416424910174769,-0.0,-0.016197362914681435,0.24519367516040802,0.0,0.01833011396229267,1.3795993328094482,0.0,0.002890991047024727
221.0,290.0,-0.2004,0.3332,9.536,-0.0359,0.0232,-0.121,-1.9419504604735316,0.0,3.612916946411133,-1.595900058746338,-0.0,2.0729053020477295,5.0079243061836145,0.0,0.2719998061656952,-1.5416343847857874,-0.0,-0.0241263248026371,0.24514932930469513,0.0,0.029915614053606987,1.379631757736206,0.0,-0.0010656050872057676
221.0,290.0,-0.2004,0.3332,9.536,-0.0359,0.0232,-0.121,-1.941930433312887,0.0,3.609902858734131,-1.59583580493927,-0.0,2.0729756355285645,5.008000153094091,0.0,0.2843421995639801,-1.5415785948382776,-0.0,-0.0032591824419796467,0.24515755474567413,0.0,0.015934357419610023,1.3796075582504272,0.0,-0.012115737423300743
221.0,290.0,-0.2004,0.3332,9.536,-0.0359,0.0232,-0.121,-1.9419504604735316,0.0,3.5962767601013184,-1.5958757400512695,-0.0,2.051386833190918,5.007964330702581,0.0,0.2836221754550934,-1.5416057745562952,-0.0,-0.018463129177689552,0.2451370656490326,0.0,0.020668232813477516,1.3796075582504272,0.0,0.004367870278656483
221.0,290.0,-0.2004,0.3332,9.536,-0.0359,0.0232,-0.121,-1.9419790707030238,0.0,3.6120548248291016,-1.5958518981933594,-0.0,2.0345988273620605,5.007908421545782,0.0,0.2755991220474243,-1.5416424910174769,-0.0,-0.012202451005578041,0.2451014667749405,0.0,0.01423952542245388,1.3795956373214722,0.0,-0.029879605397582054
221.0,290.0,-0.2004,0.3332,9.536,-0.0359,0.0232,-0.121,-1.9419743023314417,0.0,3.628605842590332,-1.59586763381958,-0.0,2.0292906761169434,5.007952111750402,0.0,0.28426361083984375,-1.5416300932513636,-0.0,-0.014444449916481972,0.24516531825065613,0.0,0.011983752250671387,1.3795629739761353,0.0,0.02325696311891079
221.0,290.0,-0.2004,0.3332,9.536,-0.0359,0.0232,-0.121,-1.941958566705221,0.0,3.636476993560791,-1.5958915948867798,-0.0,2.052842378616333,5.007940131216802,0.0,0.28623563051223755,-1.5416463057147425,-0.0,-0.006546771619468927,0.24518950283527374,0.0,0.020678149536252022,1.379623532295227,0.0,0.006098607555031776
221.0,292.0,-0.1053,0.3356,9.5797,-0.037,0.018,-0.1113,-1.9419547520079554,0.0,3.5744996070861816,-1.5958716869354248,-0.0,2.07877779006958,5.007960307389059,0.0,0.27988994121551514,-1.5416863600360315,-0.0,-0.011386364698410034,0.24512514472007751,0.0,0.023189550265669823,1.3795956373214722,0.0,0.057539764791727066
221.0,292.0,-0.1053,0.3356,9.5797,-0.037,0.018,-0.1113,-1.9419824085631312,0.0,3.587796688079834,-1.5958399772644043,-0.0,2.064377784729004,5.007964360504904,0.0,0.2779613137245178,-1.541626278554098,-0.0,-0.027880195528268814,0.24514108896255493,0.0,0.014868156984448433,1.379623532295227,0.0,-0.03195646032691002
221.0,292.0,-0.1053,0.3356,9.5797,-0.037,0.018,-0.1113,-1.9419461689391078,0.0,3.630305528640747,-1.5958155393600464,-0.0,2.049936056137085,5.007928210287847,0.0,0.26850059628486633,-1.5416744391070765,-0.0,-0.010414425283670425,0.24517349898815155,0.0,0.010918963700532913,1.379603385925293,0.0,0.005347376223653555
221.0,292.0,-0.1053,0.3356,9.5797,-0.037,0.018,-0.1113,-1.9419948063292445,0.0,3.59812331199646,-1.5959120988845825,-0.0,2.051346778869629,5.007908361941137,0.0,0.27237099409103394,-1.5416463057147425,-0.0,-0.017962796613574028,0.2451370507478714,0.0,0.014309113845229149,1.3795993328094482,0.0,-0.004617827013134956
221.0,292.0,-0.1053,0.3356,9.5797,-0.037,0.018,-0.1113,-1.9419061146178187,0.0,3.583873987197876,-1.5958279371261597,-0.0,2.0010488033294678,5.007932263403692,0.0,0.2750735580921173,-1.5416186491595667,-0.0,-0.018588028848171234,0.24518994987010956,0.0,0.011576752178370953,1.3796075582504272,0.0,-0.014638502150774002
221.0,292.0,-0.1053,0.3356,9.5797,-0.037,0.018,-0.1113,-1.9419785938658656,0.0,3.6404881477355957,-1.595815896987915,-0.0,2.0525145530700684,5.00794409492568,0.0,0.2760309875011444,-1.5416019598590296,-0.0,-0.028711548075079918,0.24518540501594543,0.0,0.014116646721959114,1.3796075582504272,0.0,-0.01128420140594244
221.0,292.0,-0.1053,0.3356,9.5797,-0.037,0.018,-0.1113,-1.9419423542418421,0.0,3.612194538116455,-1.5958518981933594,-0.0,2.0402402877807617,5.007960307389059,0.0,0.2937730848789215,-1.5416701475726526,-0.0,-0.024586539715528488,0.24515756964683533,0.0,0.00501873018220067,1.379603385925293,0.0,0.05643074959516525
221.0,292.0,-0.1053,0.3356,9.5797,-0.037,0.018,-0.1113,-1.9419342480101527,0.0,3.569279193878174,-1.595827579498291,-0.0,2.086198568344116,5.007952111750402,0.0,0.28198593854904175,-1.5416620413409632,-0.0,-0.01383986696600914,0.24516534805297852,0.0,0.00568988174200058,1.3796277046203613,0.0,0.008845813572406769
221.0,292.0,-0.1053,0.3356,9.5797,-0.037,0.018,-0.1113,-1.941930433312887,0.0,3.6138792037963867,-1.5958439111709595,-0.0,2.0215187072753906,5.007972287922659,0.0,0.27951961755752563,-1.5416305700885218,-0.0,-0.005692366976290941,0.2451210469007492,0.0,0.019804727286100388,1.3796075582504272,0.0,0.01819102093577385
221.0,292.0,-0.1053,0.3356,9.5797,-0.037,0.018,-0.1113,-1.9419990978636683,0.0,3.5737695693969727,-1.5958439111709595,-0.0,2.0165953636169434,5.007964360504904,0.0,0.2814498543739319,-1.5416424910174769,-0.0,-0.01567402109503746,0.24517764151096344,0.0,0.013894597068428993,1.3795874118804932,0.0,0.033912915736436844
221.0,292.0,-0.1053,0.3356,9.5797,-0.037,0.018,-0.1113,-1.9419623814024867,0.0,3.5991790294647217,-1.5958399772644043,-0.0,2.028327465057373,5.007968324213781,0.0,0.2778337895870209,-1.5416105429278772,-0.0,-0.013466814532876015,0.2451813668012619,0.0,0.007353924214839935,1.3796156644821167,0.0,0.0515197329223156
221.0,292.0,-0.1053,0.3356,9.5797,-0.037,0.018,-0.1113,-1.9419790707030238,0.0,3.6163182258605957,-1.5958359241485596,-0.0,2.0151634216308594,5.007920342474737,0.0,0.2681686282157898,-1.541650120412008,-0.0,-0.007774127647280693,0.2451370358467102,0.0,0.012754170224070549,1.3795874118804932,0.0,0.014159818179905415
221.0,292.0,-0.1053,0.3356,9.5797,-0.037,0.018,-0.1113,-1.941918512383932,0.0,3.548981189727783,-1.5958598852157593,-0.0,2.033041000366211,5.007980245142736,0.0,0.2856893539428711,-1.5416463057147425,-0.0,-0.014326166361570358,0.24516531825065613,0.0,0.009722095914185047,1.3795267343521118,0.0,-0.012843471020460129
221.0,292.0,-0.1053,0.3356,9.5797,-0.037,0.018,-0.1113,-1.9419666729369105,0.0,3.530974864959717,-1.5958638191223145,-0.0,2.0016751289367676,5.00795607545928,0.0,0.28098320960998535,-1.5416424910174769,-0.0,-0.014295883476734161,0.24514929950237274,0.0,0.00010677042882889509,1.3795431852340698,0.0,0.021054379642009735
229.0,285.0,-0.1573,0.3117,9.5815,-0.0444,0.0165,-0.109,-1.9419142208495082,0.0,3.6188035011291504,-1.5958279371261597,-0.0,2.0434892177581787,5.007928210287847,0.0,0.28014224767684937,-1.5416582266436976,-0.0,-0.020944800227880478,0.24516940116882324,0.0,0.003014633199200034,1.3795915842056274,0.0,0.04328973963856697
229.0,285.0,-0.1573,0.3117,9.5815,-0.0444,0.0165,-0.109,-1.9419266186156214,0.0,3.58876895904541,-1.5958439111709595,-0.0,2.0391628742218018,5.007952111750402,0.0,0.2832512855529785,-1.541650120412008,-0.0,-0.004005045630037785,0.24518543481826782,0.0,0.010361493565142155,1.3795586824417114,0.0,0.07395990937948227
229.0,285.0,-0.1573,0.3117,9.5815,-0.0444,0.0165,-0.109,-1.9419704876341761,0.0,3.5943517684936523,-1.5958558320999146,-0.0,2.0585343837738037,5.00794409492568,0.0,0.26968854665756226,-1.5416224638568323,-0.0,-0.014256422407925129,0.24518950283527374,0.0,0.02069483883678913,1.3795956373214722,0.0,0.04149820655584335
229.0,285.0,-0.1573,0.3117,9.5815,-0.0444,0.0165,-0.109,-1.9419905147948207,0.0,3.5833630561828613,-1.5958797931671143,-0.0,2.0664823055267334,5.007972287922659,0.0,0.2688975930213928,-1.5416463057147425,-0.0,-0.0032071606256067753,0.24518132209777832,0.0,0.00082820700481534,1.379539132118225,0.0,-0.0008821669034659863
229.0,285.0,-0.1573,0.3117,9.5815,-0.0444,0.0165,-0.109,-1.9420110187926234,0.0,3.6108860969543457,-1.5958040952682495,-0.0,2.0295300483703613,5.00794409492568,0.0,0.2754201292991638,-1.5416463057147425,-0.0,-0.007353249005973339,0.24520178139209747,0.0,0.0006290392484515905,1.379555106163025,0.0,0.005323947407305241
229.0,285.0,-0.1573,0.3117,9.5815,-0.0444,0.0165,-0.109,-1.9419428310790003,0.0,3.6022372245788574,-1.5958677530288696,-0.0,2.0283803939819336,5.008000093489446,0.0,0.2737148106098175,-1.541654411946432,-0.0,-0.009268803521990776,0.24515758454799652,0.0,0.005079097114503384,1.379539132118225,0.0,0.025948479771614075
229.0,285.0,-0.1573,0.3117,9.5815,-0.0444,0.0165,-0.109,-1.9419666729369105,0.0,3.585902214050293,-1.5959316492080688,-0.0,2.021623373031616,5.007912325650015,0.0,0.28135135769844055,-1.5416343847857874,-0.0,-0.023167915642261505,0.24514532089233398,0.0,0.006039951462298632,1.379539132118225,0.0,-0.006288685370236635
229.0,285.0,-0.1573,0.3117,9.5815,-0.0444,0.0165,-0.109,-1.9419504604735316,0.0,3.5790657997131348,-1.5958279371261597,-0.0,2.0132222175598145,5.007992076664724,0.0,0.27548345923423767,-1.5416186491595667,-0.0,-0.02527858316898346,0.24515339732170105,0.0,0.018066348508000374,1.379563331604004,0.0,0.03445636108517647
229.0,285.0,-0.1573,0.3117,9.5815,-0.0444,0.0165,-0.109,-1.9419385395445765,0.0,3.562943696975708,-1.5958194732666016,-0.0,1.9990875720977783,5.007884281664648,0.0,0.2875222861766815,-1.541650120412008,-0.0,-0.01719486340880394,0.24517346918582916,0.0,0.0101224509999156,1.3795993328094482,0.0,-0.009225588291883469
229.0,285.0,-0.1573,0.3117,9.5815,-0.0444,0.0165,-0.109,-1.9419342480101527,0.0,3.62021803855896,-1.59586763381958,-0.0,2.0392990112304688,5.007940131216802,0.0,0.2670985460281372,-1.5416343847857874,-0.0,-0.012835037894546986,0.2451051026582718,0.0,0.013290854170918465,1.3795915842056274,0.0,0.0002768188714981079
229.0,285.0,-0.1573,0.3117,9.5815,-0.0444,0.0165,-0.109,-1.9419504604735316,0.0,3.5618085861206055,-1.595871925354004,-0.0,2.0249528884887695,5.007928210287847,0.0,0.2837817072868347,-1.5416224638568323,-0.0,-0.011267472058534622,0.24517303705215454,0.0,0.0033211279660463333,1.3796236515045166,0.0,-0.010211518034338951
229.0,285.0,-0.1573,0.3117,9.5815,-0.0444,0.0165,-0.109,-1.941930433312887,0.0,3.5981521606445312,-1.5958638191223145,-0.0,1.976348876953125,5.007976221829214,0.0,0.28208205103874207,-1.5415900389300745,-0.0,-0.00867861695587635,0.2451370656490326,0.0,0.0037180082872509956,1.379575252532959,0.0,0.0016101535875350237
229.0,285.0,-0.1573,0.3117,9.5815,-0.0444,0.0165,-0.109,-1.941930433312887,0.0,3.6115670204162598,-1.5958757400512695,-0.0,2.0514302253723145,5.007916229754247,0.0,0.2815171182155609,-1.5416582266436976,-0.0,-0.01343347504734993,0.24515748023986816,0.0,0.01356272678822279,1.379603385925293,0.0,0.03427514433860779
229.0,285.0,-0.1573,0.3117,9.5815,-0.0444,0.0165,-0.109,-1.941930433312887,0.0,3.627870559692383,-1.5958439111709595,-0.0,2.028449773788452,5.0079761920268915,0.0,0.2727546691894531,-1.5416582266436976,-0.0,-0.0068116337060928345,0.24516163766384125,0.0,0.016829082742333412,1.3795710802078247,0.0,0.0001598144881427288
222.0,289.0,-0.1531,0.3117,9.5145,-0.033,0.0191,-0.109,-1.9419423542418421,0.0,3.5998902320861816,-1.5958439111709595,-0.0,2.02915620803833,5.0079683540161035,0.0,0.26339423656463623,-1.541610066090719,-0.0,-0.013961583375930786,0.24522605538368225,0.0,-0.0031669442541897297,1.3795710802078247,0.0,0.020863117650151253
222.0,289.0,-0.1531,0.3117,9.5145,-0.033,0.0191,-0.109,-1.9419223270811976,0.0,3.609409809112549,-1.595920205116272,-0.0,2.0509696006774902,5.007916378765859,0.0,0.2737416625022888,-1.5416305700885218,-0.0,-0.013065481558442116,0.2451697736978531,0.0,0.012837476097047329,1.3796112537384033,0.0,-0.0008567841723561287
222.0,289.0,-0.1531,0.3117,9.5145,-0.033,0.0191,-0.109,-1.941918512383932,0.0,3.58101224899292,-1.5958638191223145,-0.0,2.05465030670166,5.00795607545928,0.0,0.2737713158130646,-1.541598145161764,-0.0,-0.009781716391444206,0.24519769847393036,0.0,0.005606791004538536,1.379623532295227,0.0,0.06377249956130981
222.0,289.0,-0.1531,0.3117,9.5145,-0.033,0.0191,-0.109,-1.9419461689391078,0.0,3.6332221031188965,-1.5958439111709595,-0.0,2.0049352645874023,5.007948148041525,0.0,0.27715155482292175,-1.541650120412008,-0.0,-0.012359483167529106,0.24513712525367737,0.0,0.006100759841501713,1.3795993328094482,0.0,-0.022523067891597748
222.0,289.0,-0.1531,0.3117,9.5145,-0.033,0.0191,-0.109,-1.9419423542418421,0.0,3.610715389251709,-1.5958478450775146,-0.0,2.050920009613037,5.007960307389059,0.0,0.27242568135261536,-1.5416186491595667,-0.0,-0.004598856903612614,0.2451370805501938,0.0,-0.0030699139460921288,1.3795874118804932,0.0,0.03398594260215759
222.0,289.0,-0.1531,0.3117,9.5145,-0.033,0.0191,-0.109,-1.9419580898680628,0.0,3.551565647125244,-1.5958157777786255,-0.0,2.041285991668701,5.008012342243948,0.0,0.26960819959640503,-1.541650120412008,-0.0,-0.019007829949259758,0.2452138066291809,0.0,0.009906946681439877,1.3795628547668457,0.0,0.02026885561645031
222.0,289.0,-0.1531,0.3117,9.5145,-0.033,0.0191,-0.109,-1.9419504604735316,0.0,3.669790744781494,-1.5958638191223145,-0.0,2.0372161865234375,5.007928210287847,0.0,0.2719877362251282,-1.5416143576251429,-0.0,-0.017913999035954475,0.2451411485671997,0.0,0.01539046224206686,1.3796316385269165,0.0,-0.022472575306892395
222.0,289.0,-0.1531,0.3117,9.5145,-0.033,0.0191,-0.109,-1.941930433312887,0.0,3.5883188247680664,-1.5958796739578247,-0.0,2.0415713787078857,5.007908361941137,0.0,0.28442174196243286,-1.5416186491595667,-0.0,-0.024420982226729393,0.24516572058200836,0.0,0.009232413955032825,1.379603385925293,0.0,0.024867959320545197
222.0,289.0,-0.1531,0.3117,9.5145,-0.033,0.0191,-0.109,-1.9419385395445765,0.0,3.573275089263916,-1.5958478450775146,-0.0,2.054086446762085,5.007952350168981,0.0,0.2811036705970764,-1.541654411946432,-0.0,-0.00695794215425849,0.24517764151096344,0.0,0.012531513348221779,1.3795874118804932,0.0,0.027130909264087677
222.0,289.0,-0.1531,0.3117,9.5145,-0.033,0.0191,-0.109,-1.9419824085631312,0.0,3.6276564598083496,-1.5958436727523804,-0.0,2.0243844985961914,5.007936137705602,0.0,0.2710881233215332,-1.5416019598590296,-0.0,-0.007800904102623463,0.24516572058200836,0.0,0.00781673938035965,1.3795874118804932,0.0,-0.04990917816758156
222.0,289.0,-0.1531,0.3117,9.5145,-0.033,0.0191,-0.109,-1.9419948063292445,0.0,3.6307268142700195,-1.5958876609802246,-0.0,2.0219385623931885,5.007972377329626,0.0,0.2711285948753357,-1.5416300932513636,-0.0,-0.024588124826550484,0.2451293170452118,0.0,0.014935150742530823,1.379575252532959,0.0,0.03228037804365158
222.0,289.0,-0.1531,0.3117,9.5145,-0.033,0.0191,-0.109,-1.9419623814024867,0.0,3.634185314178467,-1.5958558320999146,-0.0,2.044551372528076,5.007928210287847,0.0,0.28055983781814575,-1.5416186491595667,-0.0,-0.01874861679971218,0.2451292872428894,0.0,0.012592799961566925,1.3795993328094482,0.0,-0.010962225496768951
222.0,289.0,-0.1531,0.3117,9.5145,-0.033,0.0191,-0.109,-1.9419504604735316,0.0,3.582913398742676,-1.5958439111709595,-0.0,2.0426807403564453,5.00794409492568,0.0,0.2823694944381714,-1.5416305700885218,-0.0,-0.009707152843475342,0.24514932930469513,0.0,0.01117121335119009,1.3795510530471802,0.0,0.05714161694049835
228.0,286.0,-0.1878,0.2865,9.5683,-0.0383,0.0202,-0.1048,-1.9419785938658656,0.0,3.5690243244171143,-1.5958278179168701,-0.0,2.026331901550293,5.007932263403692,0.0,0.2726948857307434,-1.5416305700885218,-0.0,-0.01195892971009016,0.24518175423145294,0.0,0.01436854712665081,1.379603385925293,0.0,0.039444420486688614
228.0,286.0,-0.1878,0.2865,9.5683,-0.0383,0.0202,-0.1048,-1.9419461689391078,0.0,3.598785400390625,-1.5958318710327148,-0.0,2.0546131134033203,5.007960098772802,0.0,0.27398109436035156,-1.541598145161764,-0.0,-0.0020873136818408966,0.24514532089233398,0.0,0.008539067581295967,1.3795833587646484,0.0,-0.011612460017204285
228.0,286.0,-0.1878,0.2865,9.5683,-0.0383,0.0202,-0.1048,-1.9419623814024867,0.0,3.6344857215881348,-1.5958797931671143,-0.0,2.042530059814453,5.007928180485525,0.0,0.2728854715824127,-1.5416343847857874,-0.0,-0.013022632338106632,0.24511700868606567,0.0,0.0070164380595088005,1.379555106163025,0.0,0.03887297213077545
228.0,286.0,-0.1878,0.2865,9.5683,-0.0383,0.0202,-0.1048,-1.9419704876341761,0.0,3.56832218170166,-1.5958638191223145,-0.0,2.0516374111175537,5.00791226604537,0.0,0.29035601019859314,-1.5416582266436976,-0.0,-0.022808486595749855,0.24513296782970428,0.0,0.019662797451019287,1.379555106163025,0.0,0.03872416168451309
228.0,286.0,-0.1878,0.2865,9.5683,-0.0383,0.0202,-0.1048,-1.941958566705221,0.0,3.658881187438965,-1.5958517789840698,-0.0,2.0396463871002197,5.00790040472106,0.0,0.2825629413127899,-1.5416143576251429,-0.0,-0.010628392919898033,0.2452058643102646,0.0,0.026865500956773758,1.37952721118927,0.0,-0.04287374019622803
228.0,286.0,-0.1878,0.2865,9.5683,-0.0383,0.0202,-0.1048,-1.9419628582396449,0.0,3.660907745361328,-1.595747709274292,-0.0,2.0805673599243164,5.007916348963537,0.0,0.3007000684738159,-1.5416305700885218,-0.0,-0.02931280992925167,0.24516165256500244,0.0,-0.0030449151527136564,1.3795874118804932,0.0,-0.02372690849006176
228.0,286.0,-0.1878,0.2865,9.5683,-0.0383,0.0202,-0.1048,-1.9419547520079554,0.0,3.5989956855773926,-1.5959316492080688,-0.0,2.0804574489593506,5.007960307389059,0.0,0.28848180174827576,-1.541626278554098,-0.0,-0.008424507454037666,0.24514532089233398,0.0,0.012198038399219513,1.379575252532959,0.0,0.018851950764656067
228.0,286.0,-0.1878,0.2865,9.5683,-0.0383,0.0202,-0.1048,-1.9419261417784632,0.0,3.6257104873657227,-1.5958876609802246,-0.0,2.0251450538635254,5.00789241769866,0.0,0.28284114599227905,-1.5416143576251429,-0.0,-0.008708764798939228,0.2451292872428894,0.0,0.025051210075616837,1.3795993328094482,0.0,0.013766400516033173
228.0,286.0,-0.1878,0.2865,9.5683,-0.0383,0.0202,-0.1048,-1.9419709644713343,0.0,3.595210552215576,-1.5958757400512695,-0.0,2.0179765224456787,5.007952111750402,0.0,0.27930641174316406,-1.5416620413409632,-0.0,-0.011639738455414772,0.2451411634683609,0.0,-0.0007180928951129317,1.3795592784881592,0.0,-0.014676114544272423
228.0,286.0,-0.1878,0.2865,9.5683,-0.0383,0.0202,-0.1048,-1.9419461689391078,0.0,3.615856885910034,-1.5958917140960693,-0.0,2.0394511222839355,5.007924216776647,0.0,0.26949894428253174,-1.5416424910174769,-0.0,-0.007778511848300695,0.24518954753875732,0.0,-0.0016545786056667566,1.3796075582504272,0.0,-0.0323394350707531
228.0,286.0,-0.1878,0.2865,9.5683,-0.0383,0.0202,-0.1048,-1.9419666729369105,0.0,3.592801094055176,-1.5959161520004272,-0.0,2.042401075363159,5.007920282870092,0.0,0.2738913595676422,-1.541654411946432,-0.0,-0.0017468198202550411,0.24518947303295135,0.0,0.013406652957201004,1.379607081413269,0.0,0.026462549343705177
228.0,286.0,-0.1878,0.2865,9.5683,-0.0383,0.0202,-0.1048,-1.9419428310790003,0.0,3.6220040321350098,-1.595903754234314,-0.0,2.0273475646972656,5.007928180485525,0.0,0.2678491771221161,-1.5416343847857874,-0.0,-0.021170422434806824,0.24515338242053986,0.0,0.012408727779984474,1.3795710802078247,0.0,0.026970019564032555
228.0,286.0,-0.1878,0.2865,9.5683,-0.0383,0.0202,-0.1048,-1.9419504604735316,0.0,3.6053123474121094,-1.5958757400512695,-0.0,2.078947067260742,5.007920431881704,0.0,0.27233725786209106,-1.541586701069967,-0.0,-0.03927214816212654,0.24517348408699036,0.0,0.005397428758442402,1.379575252532959,0.0,0.022473616525530815
228.0,286.0,-0.1878,0.2865,9.5683,-0.0383,0.0202,-0.1048,-1.941930433312887,0.0,3.6135776042938232,-1.5958757400512695,-0.0,2.0195302963256836,5.00794010141448,0.0,0.27778196334838867,-1.5416186491595667,-0.0,-0.013325435109436512,0.24516572058200836,0.0,0.02338411659002304,1.3795431852340698,0.0,0.012034974992275238
229.0,279.0,-0.1717,0.2746,9.6526,-0.0341,0.0273,-0.1072,-1.9419266186156214,0.0,3.6172637939453125,-1.5958918333053589,-0.0,1.977524995803833,5.00790040472106,0.0,0.27747392654418945,-1.541610066090719,-0.0,-0.011222662404179573,0.24516165256500244,0.0,0.0049048131331801414,1.37956702709198,0.0,0.0041495258919894695
229.0,279.0,-0.1717,0.2746,9.6526,-0.0341,0.0273,-0.1072,-1.9419547520079554,0.0,3.5726757049560547,-1.595900058746338,-0.0,2.0281577110290527,5.007916348963537,0.0,0.2854391634464264,-1.541650120412008,-0.0,-0.007779430598020554,0.2451411336660385,0.0,0.008445488288998604,1.3796035051345825,0.0,0.036481790244579315
229.0,279.0,-0.1717,0.2746,9.6526,-0.0341,0.0273,-0.1072,-1.9419461689391078,0.0,3.6034202575683594,-1.5958597660064697,-0.0,2.0367307662963867,5.007948148041525,0.0,0.2887386679649353,-1.5416186491595667,-0.0,-0.0038533369079232216,0.24517764151096344,0.0,0.016646858304739,1.3795026540756226,0.0,0.038348712027072906
229.0,279.0,-0.1717,0.2746,9.6526,-0.0341,0.0273,-0.1072,-1.9419824085631312,0.0,3.605074882507324,-1.5958114862442017,-0.0,2.0246009826660156,5.00793622711257,0.0,0.2794928252696991,-1.541650120412008,-0.0,-0.0099041648209095,0.24517764151096344,0.0,0.008777214214205742,1.379611611366272,0.0,0.0006034686230123043
229.0,279.0,-0.1717,0.2746,9.6526,-0.0341,0.0273,-0.1072,-1.941873689691061,0.0,3.6004881858825684,-1.5958597660064697,-0.0,2.0436229705810547,5.007948148041525,0.0,0.2821512222290039,-1.541638199483053,-0.0,-0.003712279722094536,0.24517764151096344,0.0,0.006295638158917427,1.3795874118804932,0.0,-0.025411587208509445
229.0,279.0,-0.1717,0.2746,9.6526,-0.0341,0.0273,-0.1072,-1.9419824085631312,0.0,3.5900275707244873,-1.5958359241485596,-0.0,2.079785108566284,5.0079683540161035,0.0,0.26854392886161804,-1.5416062513934534,-0.0,-0.01238635741174221,0.2451411485671997,0.0,0.005708253011107445,1.379575252532959,0.0,0.0022647823207080364
229.0,279.0,-0.1717,0.2746,9.6526,-0.0341,0.0273,-0.1072,-1.9419428310790003,0.0,3.6394615173339844,-1.5958638191223145,-0.0,2.0697154998779297,5.007920223265447,0.0,0.2737600803375244,-1.5416186491595667,-0.0,-0.03048500418663025,0.24515748023986816,0.0,0.010111477226018906,1.379583477973938,0.0,-0.029133198782801628
229.0,279.0,-0.1717,0.2746,9.6526,-0.0341,0.0273,-0.1072,-1.9419580898680628,0.0,3.5720162391662598,-1.5959681272506714,-0.0,2.060349225997925,5.00794409492568,0.0,0.2744392454624176,-1.5416062513934534,-0.0,-0.023067163303494453,0.24518583714962006,0.0,0.01650441251695156,1.3796398639678955,0.0,-0.021417543292045593
229.0,279.0,-0.1717,0.2746,9.6526,-0.0341,0.0273,-0.1072,-1.941986700097555,0.0,3.6078929901123047,-1.5958997011184692,-0.0,2.0235490798950195,5.00794409492568,0.0,0.2822653353214264,-1.5416224638568323,-0.0,-0.017410948872566223,0.24512514472007751,0.0,0.0028048374224454165,1.3796075582504272,0.0,0.04338977858424187
229.0,279.0,-0.1717,0.2746,9.6526,-0.0341,0.0273,-0.1072,-1.941930433312887,0.0,3.5532333850860596,-1.5958877801895142,-0.0,2.050536870956421,5.007956105261602,0.0,0.2757759988307953,-1.5416343847857874,-0.0,-0.019318506121635437,0.2451210916042328,0.0,0.017721027135849,1.3795390129089355,0.0,-0.017466075718402863
229.0,279.0,-0.1717,0.2746,9.6526,-0.0341,0.0273,-0.1072,-1.9419948063292445,0.0,3.614494800567627,-1.5959081649780273,-0.0,2.015869617462158,5.0080124018485925,0.0,0.27258267998695374,-1.5416343847857874,-0.0,-0.009346021339297295,0.2451370656490326,0.0,0.013268005102872849,1.379575252532959,0.0,0.004009099677205086
229.0,279.0,-0.1717,0.2746,9.6526,-0.0341,0.0273,-0.1072,-1.9419342480101527,0.0,3.6066513061523438,-1.5958757400512695,-0.0,2.027491807937622,5.007904428034582,0.0,0.2715105414390564,-1.541666332875387,-0.0,-0.030805550515651703,0.2451813519001007,0.0,0.0025862264446914196,1.379599690437317,0.0,0.00271633081138134
229.0,279.0,-0.1717,0.2746,9.6526,-0.0341,0.0273,-0.1072,-1.9419623814024867,0.0,3.5853090286254883,-1.5958797931671143,-0.0,2.0225744247436523,5.007980274945059,0.0,0.27034687995910645,-1.5416343847857874,-0.0,-0.013069000095129013,0.24518544971942902,0.0,0.018815862014889717,1.3795710802078247,0.0,-0.028786171227693558
229.0,279.0,-0.1717,0.2746,9.6526,-0.0341,0.0273,-0.1072,-1.9419423542418421,0.0,3.6302907466888428,-1.5958359241485596,-0.0,2.0520596504211426,5.007980274945059,0.0,0.28832894563674927,-1.5416424910174769,-0.0,-0.03299279883503914,0.24511297047138214,0.0,0.01766033284366131,1.3795915842056274,0.0,0.05366462096571922
226.0,292.0,-0.1214,0.2877,9.6634,-0.0394,0.0221,-0.1103,-1.9419461689391078,0.0,3.5658082962036133,-1.5958597660064697,-0.0,2.054274082183838,5.00794409492568,0.0,0.27777403593063354,-1.5416186491595667,-0.0,-0.010633226484060287,0.2451370805501938,0.0,0.026828471571207047,1.3795833587646484,0.0,0.029453612864017487
226.0,292.0,-0.1214,0.2877,9.6634,-0.0394,0.0221,-0.1103,-1.9419547520079554,0.0,3.714982032775879,-1.595903754234314,-0.0,2.0284624099731445,5.007964360504904,0.0,0.2766258716583252,-1.5416305700885218,-0.0,-0.011754894629120827,0.24518132209777832,0.0,0.008727858774363995,1.3795874118804932,0.0,-0.00015295203775167465
226.0,292.0,-0.1214,0.2877,9.6634,-0.0394,0.0221,-0.1103,-1.9419785938658656,0.0,3.5897645950317383,-1.5958478450775146,-0.0,2.0390963554382324,5.00801636555747,0.0,0.27259767055511475,-1.541650120412008,-0.0,-0.011045686900615692,0.24516940116882324,0.0,0.01431538537144661,1.3796398639678955,0.0,-0.002966640517115593
226.0,292.0,-0.1214,0.2877,9.6634,-0.0394,0.0221,-0.1103,-1.9419342480101527,0.0,3.618966579437256,-1.5958678722381592,-0.0,2.0089821815490723,5.0079243061836145,0.0,0.2802545726299286,-1.5416343847857874,-0.0,-0.0003679664805531502,0.24516978859901428,0.0,0.009454206563532352,1.3795952796936035,0.0,0.003511643037199974
226.0,292.0,-0.1214,0.2877,9.6634,-0.0394,0.0221,-0.1103,-1.9419380627074183,0.0,3.6187644004821777,-1.5958757400512695,-0.0,2.0190203189849854,5.007976221829214,0.0,0.28013619780540466,-1.5416343847857874,-0.0,-0.019418098032474518,0.24516163766384125,0.0,0.012997092679142952,1.37956702709198,0.0,0.06374827772378922
226.0,292.0,-0.1214,0.2877,9.6634,-0.0394,0.0221,-0.1103,-1.9419061146178187,0.0,3.561588764190674,-1.595855951309204,-0.0,2.0224859714508057,5.007964360504904,0.0,0.27504467964172363,-1.541666332875387,-0.0,-0.01933198980987072,0.24516572058200836,0.0,0.022704556584358215,1.3795710802078247,0.0,-0.0019921506755053997
226.0,292.0,-0.1214,0.2877,9.6634,-0.0394,0.0221,-0.1103,-1.9419704876341761,0.0,3.611863613128662,-1.595903754234314,-0.0,2.056429862976074,5.007972317724981,0.0,0.28064870834350586,-1.5416305700885218,-0.0,-0.010907761752605438,0.24514155089855194,0.0,0.018498122692108154,1.3795230388641357,0.0,0.03609277680516243
226.0,292.0,-0.1214,0.2877,9.6634,-0.0394,0.0221,-0.1103,-1.9419580898680628,0.0,3.5986227989196777,-1.595823884010315,-0.0,2.059298515319824,5.00793622711257,0.0,0.2809549868106842,-1.5416186491595667,-0.0,-0.0157840084284544,0.24515347182750702,0.0,0.012460742145776749,1.379575252532959,0.0,-0.03299768269062042
226.0,292.0,-0.1214,0.2877,9.6634,-0.0394,0.0221,-0.1103,-1.9419266186156214,0.0,3.603013038635254,-1.5958797931671143,-0.0,2.00492525100708,5.007932054787435,0.0,0.2793697714805603,-1.541610066090719,-0.0,-0.010199902579188347,0.24518170952796936,0.0,0.010846626944839954,1.37956702709198,0.0,0.007921653799712658
226.0,292.0,-0.1214,0.2877,9.6634,-0.0394,0.0221,-0.1103,-1.9419952831664027,0.0,3.6209278106689453,-1.5958837270736694,-0.0,2.037188768386841,5.007960098772802,0.0,0.27782511711120605,-1.5416186491595667,-0.0,-0.00018573971465229988,0.2451333999633789,0.0,0.017085034400224686,1.379575252532959,0.0,-0.01596510410308838
226.0,292.0,-0.1214,0.2877,9.6634,-0.0394,0.0221,-0.1103,-1.9419385395445765,0.0,3.58392333984375,-1.595871925354004,-0.0,2.0612478256225586,5.0079281506832025,0.0,0.2756633460521698,-1.5416019598590296,-0.0,-0.027476483955979347,0.2451936900615692,0.0,0.006373102776706219,1.379575252532959,0.0,0.010017524473369122
226.0,292.0,-0.1214,0.2877,9.6634,-0.0394,0.0221,-0.1103,-1.9419995747008265,0.0,3.6078429222106934,-1.5958997011184692,-0.0,2.0648486614227295,5.007952171355047,0.0,0.2621879577636719,-1.5416143576251429,-0.0,0.0008395623881369829,0.24515755474567413,0.0,0.00500353192910552,1.379575252532959,0.0,-0.011456369422376156
226.0,292.0,-0.1214,0.2877,9.6634,-0.0394,0.0221,-0.1103,-1.9419094524779261,0.0,3.638580322265625,-1.5958797931671143,-0.0,2.006270408630371,5.007980274945059,0.0,0.27766045928001404,-1.5416582266436976,-0.0,-0.010362128727138042,0.24516572058200836,0.0,-0.004025380127131939,1.3796076774597168,0.0,-0.016124442219734192
226.0,292.0,-0.1214,0.2877,9.6634,-0.0394,0.0221,-0.1103,-1.9419223270811976,0.0,3.6132521629333496,-1.5958837270736694,-0.0,2.0106194019317627,5.007952111750402,0.0,0.2744162380695343,-1.5416625181781214,-0.0,-0.022196024656295776,0.24518132209777832,0.0,0.009713518433272839,1.37956702709198,0.0,0.012539800256490707
224.0,289.0,-0.0957,0.3003,9.4816,-0.0345,0.0189,-0.1151,-1.9419504604735316,0.0,3.6053996086120605,-1.5958478450775146,-0.0,2.004786491394043,5.00793622711257,0.0,0.2824415862560272,-1.5416744391070765,-0.0,-0.019735511392354965,0.24518579244613647,0.0,0.005923324264585972,1.3796194791793823,0.0,0.025401629507541656
224.0,289.0,-0.0957,0.3003,9.4816,-0.0345,0.0189,-0.1151,-1.9419828854002894,0.0,3.6124422550201416,-1.5958757400512695,-0.0,2.052063465118408,5.007968413620748,0.0,0.27025920152664185,-1.5416062513934534,-0.0,-0.0022475498262792826,0.24511700868606567,0.0,0.005718625616282225,1.3795793056488037,0.0,0.027676304802298546
224.0,289.0,-0.0957,0.3003,9.4816,-0.0345,0.0189,-0.1151,-1.9419461689391078,0.0,3.5893232822418213,-1.5958678722381592,-0.0,2.011754274368286,5.007968294411459,0.0,0.2818329334259033,-1.5416186491595667,-0.0,-0.021346520632505417,0.24517764151096344,0.0,0.00590320210903883,1.3795993328094482,0.0,-0.005280906334519386
224.0,289.0,-0.0957,0.3003,9.4816,-0.0345,0.0189,-0.1151,-1.9419747791686,0.0,3.642866373062134,-1.5958638191223145,-0.0,2.012692451477051,5.007980304747381,0.0,0.2914676070213318,-1.541638199483053,-0.0,-0.01893184520304203,0.2450931817293167,0.0,0.00862829014658928,1.3795915842056274,0.0,0.029437709599733353
224.0,289.0,-0.0957,0.3003,9.4816,-0.0345,0.0189,-0.1151,-1.9419423542418421,0.0,3.624039649963379,-1.595871925354004,-0.0,2.0729026794433594,5.007964390307226,0.0,0.2776453495025635,-1.5416186491595667,-0.0,-0.015219643712043762,0.2451617568731308,0.0,0.00962970219552517,1.3795710802078247,0.0,-0.018145829439163208
224.0,289.0,-0.0957,0.3003,9.4816,-0.0345,0.0189,-0.1151,-1.941918512383932,0.0,3.6116490364074707,-1.5958757400512695,-0.0,2.0308682918548584,5.007948148041525,0.0,0.2752856910228729,-1.5416019598590296,-0.0,-0.019275736063718796,0.2451210767030716,0.0,0.0076299081556499004,1.37956702709198,0.0,-0.017417658120393753
224.0,289.0,-0.0957,0.3003,9.4816,-0.0345,0.0189,-0.1151,-1.9419504604735316,0.0,3.6294918060302734,-1.5957674980163574,-0.0,2.0176126956939697,5.007940131216802,0.0,0.2735024690628052,-1.5416305700885218,-0.0,0.0022077939938753843,0.24516162276268005,0.0,0.0049846055917441845,1.3796193599700928,0.0,-0.03404407575726509
224.0,289.0,-0.0957,0.3003,9.4816,-0.0345,0.0189,-0.1151,-1.9419266186156214,0.0,3.6188807487487793,-1.5958518981933594,-0.0,2.0683088302612305,5.0079440651233575,0.0,0.2694135904312134,-1.541626278554098,-0.0,-0.014098895713686943,0.24519774317741394,0.0,0.009247586131095886,1.379623532295227,0.0,-0.004152543842792511
224.0,289.0,-0.0957,0.3003,9.4816,-0.0345,0.0189,-0.1151,-1.9419385395445765,0.0,3.6035234928131104,-1.5958279371261597,-0.0,2.0645437240600586,5.007984298258581,0.0,0.27881115674972534,-1.541638199483053,-0.0,-0.02666059136390686,0.24508915841579437,0.0,0.012644965201616287,1.3795592784881592,0.0,-0.019378751516342163
224.0,289.0,-0.0957,0.3003,9.4816,-0.0345,0.0189,-0.1151,-1.9419385395445765,0.0,3.5747432708740234,-1.5959161520004272,-0.0,2.046190023422241,5.007936197310247,0.0,0.2738299071788788,-1.5416186491595667,-0.0,0.007960949093103409,0.24516940116882324,0.0,0.002242081565782428,1.3795915842056274,0.0,-0.06400245428085327
224.0,289.0,-0.0957,0.3003,9.4816,-0.0345,0.0189,-0.1151,-1.9419628582396449,0.0,3.5975022315979004,-1.5958638191223145,-0.0,2.088020086288452,5.00795607545928,0.0,0.2767452001571655,-1.5416343847857874,-0.0,-0.018260611221194267,0.2451251894235611,0.0,0.007886223495006561,1.379631757736206,0.0,0.024662431329488754
224.0,289.0,-0.0957,0.3003,9.4816,-0.0345,0.0189,-0.1151,-1.9419104061522425,0.0,3.624073028564453,-1.5958518981933594,-0.0,2.0291624069213867,5.007980304747381,0.0,0.26645976305007935,-1.5416224638568323,-0.0,-0.00843727681785822,0.2451251596212387,0.0,0.008345973677933216,1.3795710802078247,0.0,-0.030177250504493713
224.0,289.0,-0.0957,0.3003,9.4816,-0.0345,0.0189,-0.1151,-1.9419785938658656,0.0,3.5977277755737305,-1.5958518981933594,-0.0,2.054391860961914,5.007936256914892,0.0,0.27971017360687256,-1.5416305700885218,-0.0,-0.017003856599330902,0.24520958960056305,0.0,0.01136284414678812,1.379623532295227,0.0,0.0008683182531967759
230.0,292.0,-0.1783,0.2524,9.5874,-0.0313,0.0229,-0.109,-1.9419666729369105,0.0,3.5930938720703125,-1.5958517789840698,-0.0,2.023014545440674,5.007976251631536,0.0,0.2742542326450348,-1.5416224638568323,-0.0,-0.014280609786510468,0.24514532089233398,0.0,0.008119143545627594,1.37956702709198,0.0,-0.004655177239328623
230.0,292.0,-0.1783,0.2524,9.5874,-0.0313,0.0229,-0.109,-1.9419428310790003,0.0,3.6335599422454834,-1.5958837270736694,-0.0,2.0726985931396484,5.0079122362430475,0.0,0.27561861276626587,-1.541598145161764,-0.0,-0.032344359904527664,0.24518945813179016,0.0,0.004255169536918402,1.3796075582504272,0.0,0.013282740488648415
230.0,292.0,-0.1783,0.2524,9.5874,-0.0313,0.0229,-0.109,-1.9419380627074183,0.0,3.5989112854003906,-1.5958797931671143,-0.0,2.058154582977295,5.007940190821447,0.0,0.27254462242126465,-1.5416224638568323,-0.0,-0.016398124396800995,0.24518945813179016,0.0,0.013894370757043362,1.379575252532959,0.0,-0.0053658075630664825
230.0,292.0,-0.1783,0.2524,9.5874,-0.0313,0.0229,-0.109,-1.941930433312887,0.0,3.605654239654541,-1.5958716869354248,-0.0,2.067920684814453,5.007932203799047,0.0,0.27875179052352905,-1.5415948073016565,-0.0,-0.010999590158462524,0.24514932930469513,0.0,0.005693959072232246,1.37956702709198,0.0,-0.002250104211270809
230.0,292.0,-0.1783,0.2524,9.5874,-0.0313,0.0229,-0.109,-1.941918512383932,0.0,3.6250457763671875,-1.5959081649780273,-0.0,2.0132570266723633,5.00789241769866,0.0,0.2809932827949524,-1.541638199483053,-0.0,-0.012013765051960945,0.24518132209777832,0.0,0.0048868791200220585,1.379607081413269,0.0,-0.004349658265709877
230.0,292.0,-0.1783,0.2524,9.5874,-0.0313,0.0229,-0.109,-1.9419747791686,0.0,3.5722527503967285,-1.5959041118621826,-0.0,2.037731409072876,5.007948118239202,0.0,0.2782554626464844,-1.5416305700885218,-0.0,-0.014279761351644993,0.24518945813179016,0.0,0.02080758661031723,1.3795710802078247,0.0,0.03696861118078232
230.0,292.0,-0.1783,0.2524,9.5874,-0.0313,0.0229,-0.109,-1.9419461689391078,0.0,3.622089385986328,-1.5958716869354248,-0.0,2.0645759105682373,5.007924186974325,0.0,0.2798681855201721,-1.541654411946432,-0.0,-0.018068574368953705,0.2450932115316391,0.0,0.01817306876182556,1.3796193599700928,0.0,-0.029736071825027466
230.0,292.0,-0.1783,0.2524,9.5874,-0.0313,0.0229,-0.109,-1.9419061146178187,0.0,3.546171188354492,-1.5958716869354248,-0.0,2.066551446914673,5.007952141552725,0.0,0.26389938592910767,-1.541638199483053,-0.0,-0.004713031928986311,0.24516946077346802,0.0,0.008333811536431313,1.3795428276062012,0.0,0.003867753315716982
230.0,292.0,-0.1783,0.2524,9.5874,-0.0313,0.0229,-0.109,-1.9419785938658656,0.0,3.574208974838257,-1.5959041118621826,-0.0,2.0412819385528564,5.007972287922659,0.0,0.2698805332183838,-1.5416701475726526,-0.0,-0.020802496001124382,0.24514532089233398,0.0,-0.00027398625388741493,1.379623532295227,0.0,0.05128073692321777
230.0,292.0,-0.1783,0.2524,9.5874,-0.0313,0.0229,-0.109,-1.9419261417784632,0.0,3.610042095184326,-1.5958837270736694,-0.0,2.036794662475586,5.007896351605215,0.0,0.28211620450019836,-1.5416424910174769,-0.0,-0.013964729383587837,0.24520175158977509,0.0,0.024735931307077408,1.3795710802078247,0.0,-0.01536671631038189
230.0,292.0,-0.1783,0.2524,9.5874,-0.0313,0.0229,-0.109,-1.9419905147948207,0.0,3.5820372104644775,-1.5958997011184692,-0.0,2.0222461223602295,5.007952141552725,0.0,0.28826481103897095,-1.5416939894305628,-0.0,-0.01833481714129448,0.24513310194015503,0.0,0.008105969987809658,1.3795710802078247,0.0,0.01094924658536911
230.0,292.0,-0.1783,0.2524,9.5874,-0.0313,0.0229,-0.109,-1.9419704876341761,0.0,3.6133480072021484,-1.5958439111709595,-0.0,2.0072379112243652,5.007972377329626,0.0,0.28776663541793823,-1.5416143576251429,-0.0,-0.006431854795664549,0.24518132209777832,0.0,0.006596184801310301,1.37956702709198,0.0,0.018814612179994583
230.0,292.0,-0.1783,0.2524,9.5874,-0.0313,0.0229,-0.109,-1.9419747791686,0.0,3.575554370880127,-1.5958518981933594,-0.0,2.024646759033203,5.007956135063925,0.0,0.26500874757766724,-1.5416701475726526,-0.0,-0.004114402458071709,0.24517345428466797,0.0,0.0030395849607884884,1.3795952796936035,0.0,-0.049208689481019974
230.0,292.0,-0.1783,0.2524,9.5874,-0.0313,0.0229,-0.109,-1.9419785938658656,0.0,3.5938563346862793,-1.5958678722381592,-0.0,2.0495097637176514,5.007936078100958,0.0,0.2677857279777527,-1.5416186491595667,-0.0,-0.008992495946586132,0.245213583111763,0.0,0.012507857754826546,1.3795915842056274,0.0,0.02142435871064663
228.0,294.0,-0.1178,0.3284,9.5856,-0.0307,0.024,-0.109,-1.9419385395445765,0.0,3.6308445930480957,-1.595823884010315,-0.0,2.0649573802948,5.00792424657897,0.0,0.2636629343032837,-1.5415824095355433,-0.0,-0.012047340162098408,0.24515748023986816,0.0,0.014923824928700924,1.3795956373214722,0.0,-0.03834670037031174
228.0,294.0,-0.1178,0.3284,9.5856,-0.0307,0.024,-0.109,-1.9419704876341761,0.0,3.6160616874694824,-1.5958716869354248,-0.0,2.0529239177703857,5.007964390307226,0.0,0.26708167791366577,-1.5416424910174769,-0.0,-0.01231411099433899,0.24521763622760773,0.0,0.010663868859410286,1.3795874118804932,0.0,-0.017399732023477554
228.0,294.0,-0.1178,0.3284,9.5856,-0.0307,0.024,-0.109,-1.9419580898680628,0.0,3.6094484329223633,-1.5958279371261597,-0.0,2.0440375804901123,5.00793622711257,0.0,0.2775326371192932,-1.541638199483053,-0.0,-0.008725213818252087,0.24512521922588348,0.0,0.0027644375804811716,1.37956702709198,0.0,0.016404328867793083
228.0,294.0,-0.1178,0.3284,9.5856,-0.0307,0.024,-0.109,-1.9419428310790003,0.0,3.5963144302368164,-1.5958797931671143,-0.0,2.0142176151275635,5.007984298258581,0.0,0.28591835498809814,-1.5416224638568323,-0.0,-0.01847209595143795,0.24516940116882324,0.0,0.009241078048944473,1.3795793056488037,0.0,0.005497270729392767
228.0,294.0,-0.1178,0.3284,9.5856,-0.0307,0.024,-0.109,-1.9419547520079554,0.0,3.612687826156616,-1.5958917140960693,-0.0,2.060519218444824,5.00793622711257,0.0,0.28932440280914307,-1.5416463057147425,-0.0,-0.01663867011666298,0.24518129229545593,0.0,0.023992527276277542,1.3796275854110718,0.0,0.040352579206228256
228.0,294.0,-0.1178,0.3284,9.5856,-0.0307,0.024,-0.109,-1.9419504604735316,0.0,3.594313144683838,-1.5958837270736694,-0.0,2.069864273071289,5.007968383818426,0.0,0.280297189950943,-1.541638199483053,-0.0,-0.012566582299768925,0.24518568813800812,0.0,-0.0008987942710518837,1.3795915842056274,0.0,-0.02887115627527237
228.0,294.0,-0.1178,0.3284,9.5856,-0.0307,0.024,-0.109,-1.9419547520079554,0.0,3.563344717025757,-1.5958757400512695,-0.0,2.048948287963867,5.007916319161215,0.0,0.28289514780044556,-1.5416186491595667,-0.0,-0.0337100550532341,0.24518942832946777,0.0,0.007864437997341156,1.3795915842056274,0.0,0.029382292181253433
228.0,294.0,-0.1178,0.3284,9.5856,-0.0307,0.024,-0.109,-1.9419623814024867,0.0,3.611778736114502,-1.5958956480026245,-0.0,2.03761887550354,5.0079804239566705,0.0,0.27016645669937134,-1.5416343847857874,-0.0,-0.010915525257587433,0.24513308703899384,0.0,0.023486964404582977,1.3795592784881592,0.0,-0.02086525410413742
228.0,294.0,-0.1178,0.3284,9.5856,-0.0307,0.024,-0.109,-1.9419547520079554,0.0,3.5661609172821045,-1.5958478450775146,-0.0,2.0396203994750977,5.0079082427318475,0.0,0.272582471370697,-1.5416186491595667,-0.0,-0.01756768301129341,0.24513745307922363,0.0,-0.0032682858873158693,1.379619836807251,0.0,-0.024435313418507576
228.0,294.0,-0.1178,0.3284,9.5856,-0.0307,0.024,-0.109,-1.9419342480101527,0.0,3.5945098400115967,-1.5959120988845825,-0.0,1.9988534450531006,5.007948148041525,0.0,0.28262874484062195,-1.541650120412008,-0.0,-0.026389170438051224,0.24516940116882324,0.0,0.005187915172427893,1.379623532295227,0.0,-0.010142317973077297
228.0,294.0,-0.1178,0.3284,9.5856,-0.0307,0.024,-0.109,-1.9419385395445765,0.0,3.5785350799560547,-1.5958956480026245,-0.0,2.0212173461914062,5.007968383818426,0.0,0.2753124535083771,-1.5416186491595667,-0.0,-0.019943730905652046,0.2451411932706833,0.0,0.0015998287126421928,1.3796356916427612,0.0,0.06810285151004791
228.0,294.0,-0.1178,0.3284,9.5856,-0.0307,0.024,-0.109,-1.9419261417784632,0.0,3.600306510925293,-1.5958558320999146,-0.0,2.092005729675293,5.00793622711257,0.0,0.2720564007759094,-1.541638199483053,-0.0,-0.0033416966907680035,0.2451174259185791,0.0,0.0056564463302493095,1.3795956373214722,0.0,-0.008203599601984024
228.0,294.0,-0.1178,0.3284,9.5856,-0.0307,0.024,-0.109,-1.9419666729369105,0.0,3.6491355895996094,-1.5958359241485596,-0.0,2.00697660446167,5.007964390307226,0.0,0.2864122986793518,-1.541650120412008,-0.0,-0.017100689932703972,0.2451772689819336,0.0,0.003450928721576929,1.3795510530471802,0.0,0.015447624959051609
228.0,294.0,-0.1178,0.3284,9.5856,-0.0307,0.024,-0.109,-1.9419261417784632,0.0,3.6615660190582275,-1.5958518981933594,-0.0,2.0039865970611572,5.007960307389059,0.0,0.2732904255390167,-1.5416463057147425,-0.0,-0.017559563741087914,0.24509327113628387,0.0,0.01101165171712637,1.37956702709198,0.0,0.03853099048137665
218.0,285.0,-0.1657,0.3338,9.6203,-0.031,0.0322,-0.113,-1.9419504604735316,0.0,3.6250600814819336,-1.5958917140960693,-0.0,2.031169891357422,5.00793223360137,0.0,0.27487218379974365,-1.541626278554098,-0.0,-0.012217514216899872,0.24518568813800812,0.0,0.016383282840251923,1.3795469999313354,0.0,0.023748699575662613
218.0,285.0,-0.1657,0.3338,9.6203,-0.031,0.0322,-0.113,-1.9419747791686,0.0,3.6774280071258545,-1.5958876609802246,-0.0,2.04546856880188,5.008000212698736,0.0,0.29928097128868103,-1.5416620413409632,-0.0,0.00011262690532021224,0.2451333850622177,0.0,0.005520423874258995,1.3795915842056274,0.0,0.014308223500847816
218.0,285.0,-0.1657,0.3338,9.6203,-0.031,0.0322,-0.113,-1.9419504604735316,0.0,3.6425955295562744,-1.595875859260559,-0.0,2.06412672996521,5.007980304747381,0.0,0.2827313244342804,-1.5416625181781214,-0.0,-0.01178309228271246,0.24515746533870697,0.0,0.00804910808801651,1.3795793056488037,0.0,0.0014121741987764835
218.0,285.0,-0.1657,0.3338,9.6203,-0.031,0.0322,-0.113,-1.9419709644713343,0.0,3.5790486335754395,-1.595855951309204,-0.0,2.064741611480713,5.007992136269369,0.0,0.28960683941841125,-1.541650120412008,-0.0,-0.016014423221349716,0.24513714015483856,0.0,-0.0036776969209313393,1.379575252532959,0.0,-0.02002565935254097
218.0,285.0,-0.1657,0.3338,9.6203,-0.031,0.0322,-0.113,-1.9419385395445765,0.0,3.6202266216278076,-1.5958114862442017,-0.0,2.0795936584472656,5.007988291769781,0.0,0.2745882570743561,-1.5416620413409632,-0.0,-0.019855355843901634,0.24516160786151886,0.0,0.0024145713541656733,1.3796037435531616,0.0,-0.0018788217566907406
218.0,285.0,-0.1657,0.3338,9.6203,-0.031,0.0322,-0.113,-1.9419747791686,0.0,3.601811408996582,-1.595871925354004,-0.0,2.0494937896728516,5.007968383818426,0.0,0.28807777166366577,-1.5416582266436976,-0.0,-0.0053551653400063515,0.2451411932706833,0.0,-0.002232976723462343,1.379603385925293,0.0,0.028854748234152794
218.0,285.0,-0.1657,0.3338,9.6203,-0.031,0.0322,-0.113,-1.941991468469137,0.0,3.585869312286377,-1.5958638191223145,-0.0,2.015016555786133,5.0079440651233575,0.0,0.2870548367500305,-1.5416463057147425,-0.0,-0.0174238421022892,0.2450852245092392,0.0,0.015945157036185265,1.3795510530471802,0.0,0.022744998335838318
218.0,285.0,-0.1657,0.3338,9.6203,-0.031,0.0322,-0.113,-1.9419428310790003,0.0,3.5974907875061035,-1.5958877801895142,-0.0,2.0466816425323486,5.007916319161215,0.0,0.2760154604911804,-1.5416305700885218,-0.0,-0.013952062465250492,0.24518939852714539,0.0,0.008296962827444077,1.379603385925293,0.0,0.017013926059007645
218.0,285.0,-0.1657,0.3338,9.6203,-0.031,0.0322,-0.113,-1.941930433312887,0.0,3.5962882041931152,-1.59583580493927,-0.0,2.0448949337005615,5.007956135063925,0.0,0.2806742489337921,-1.5416424910174769,-0.0,0.001257522264495492,0.24513711035251617,0.0,0.0067821829579770565,1.3795793056488037,0.0,0.02062985487282276
218.0,285.0,-0.1657,0.3338,9.6203,-0.031,0.0322,-0.113,-1.9419623814024867,0.0,3.630373954772949,-1.5958638191223145,-0.0,1.9724165201187134,5.007960307389059,0.0,0.2828342318534851,-1.541666332875387,-0.0,-0.02004699781537056,0.24517729878425598,0.0,0.0058258590288460255,1.379555106163025,0.0,-0.010606857016682625
218.0,285.0,-0.1657,0.3338,9.6203,-0.031,0.0322,-0.113,-1.9419504604735316,0.0,3.631004810333252,-1.5958318710327148,-0.0,2.029644012451172,5.00793622711257,0.0,0.2865424156188965,-1.5416186491595667,-0.0,-0.020647143945097923,0.24515748023986816,0.0,0.014049293473362923,1.379603385925293,0.0,-0.003397056832909584
218.0,285.0,-0.1657,0.3338,9.6203,-0.031,0.0322,-0.113,-1.9419824085631312,0.0,3.6159000396728516,-1.595815658569336,-0.0,1.9769859313964844,5.007956135063925,0.0,0.28329038619995117,-1.5416620413409632,-0.0,-0.013644251972436905,0.2451251894235611,0.0,0.01289437897503376,1.3795710802078247,0.0,0.018154416233301163
218.0,285.0,-0.1657,0.3338,9.6203,-0.031,0.0322,-0.113,-1.9419223270811976,0.0,3.5900280475616455,-1.5958318710327148,-0.0,2.0618255138397217,5.007984298258581,0.0,0.28448352217674255,-1.5416105429278772,-0.0,-0.0056068734265863895,0.24521352350711823,0.0,-0.002347736619412899,1.379563331604004,0.0,0.020862428471446037
228.0,290.0,-0.1436,0.326,9.5354,-0.0351,0.0237,-0.1071,-1.9419504604735316,0.0,3.58862566947937,-1.5958757400512695,-0.0,2.018429756164551,5.0079402206237695,0.0,0.27216631174087524,-1.5416305700885218,-0.0,-0.0015718755312263966,0.24514532089233398,0.0,-0.0036979708820581436,1.3795833587646484,0.0,-0.022201325744390488
228.0,290.0,-0.1436,0.326,9.5354,-0.0351,0.0237,-0.1071,-1.9419547520079554,0.0,3.5918498039245605,-1.5958638191223145,-0.0,2.050417423248291,5.0079440651233575,0.0,0.2834741473197937,-1.5416019598590296,-0.0,-0.025313537567853928,0.24511340260505676,0.0,0.008997905999422073,1.3795832395553589,0.0,0.06629104167222977
228.0,290.0,-0.1436,0.326,9.5354,-0.0351,0.0237,-0.1071,-1.9419666729369105,0.0,3.6271610260009766,-1.5958278179168701,-0.0,2.0265073776245117,5.0079282996948145,0.0,0.28017401695251465,-1.5416019598590296,-0.0,-0.01775147020816803,0.24514120817184448,0.0,0.006889119744300842,1.3795793056488037,0.0,0.058897215873003006
228.0,290.0,-0.1436,0.326,9.5354,-0.0351,0.0237,-0.1071,-1.9419504604735316,0.0,3.568565845489502,-1.5958517789840698,-0.0,2.0669095516204834,5.007980304747381,0.0,0.2766159772872925,-1.5416625181781214,-0.0,-0.012242214754223824,0.2451656460762024,0.0,0.0008454408962279558,1.37956702709198,0.0,0.018102630972862244
228.0,290.0,-0.1436,0.326,9.5354,-0.0351,0.0237,-0.1071,-1.9419709644713343,0.0,3.607285499572754,-1.59583580493927,-0.0,2.039435386657715,5.007964390307226,0.0,0.28483492136001587,-1.541610066090719,-0.0,-0.011151876300573349,0.24510148167610168,0.0,0.005249764304608107,1.3795710802078247,0.0,0.03701253980398178
228.0,290.0,-0.1436,0.326,9.5354,-0.0351,0.0237,-0.1071,-1.9419428310790003,0.0,3.621962070465088,-1.5959081649780273,-0.0,2.0713047981262207,5.00793622711257,0.0,0.27371594309806824,-1.541650120412008,-0.0,-0.01432076096534729,0.24510926008224487,0.0,0.0014498070813715458,1.3795993328094482,0.0,0.017851950600743294
228.0,290.0,-0.1436,0.326,9.5354,-0.0351,0.0237,-0.1071,-1.9419309101500453,0.0,3.586660385131836,-1.5958439111709595,-0.0,2.064490556716919,5.007972377329626,0.0,0.27182736992836,-1.5416019598590296,-0.0,-0.013556769117712975,0.24518536031246185,0.0,-0.0038734625559300184,1.3795915842056274,0.0,0.023768367245793343
228.0,290.0,-0.1436,0.326,9.5354,-0.0351,0.0237,-0.1071,-1.9419709644713343,0.0,3.600721836090088,-1.5957999229431152,4.975950207430913e-10,2.033879518508911,5.007972377329626,0.0,0.2792004942893982,-1.5416305700885218,-0.0,-0.007924657315015793,0.2451333999633789,0.0,0.004898194223642349,1.3796075582504272,0.0,-0.008780431002378464
228.0,290.0,-0.1436,0.326,9.5354,-0.0351,0.0237,-0.1071,-1.9419628582396449,0.0,3.6027016639709473,-1.595827579498291,1.2016336556225382e-15,2.0582821369171143,5.007984328060903,0.0,0.2722228169441223,-1.541626278554098,-0.0,-0.02449744939804077,0.24515745043754578,0.0,-0.0005419002845883369,1.37956702709198,0.0,0.038672737777233124
228.0,290.0,-0.1436,0.326,9.5354,-0.0351,0.0237,-0.1071,-1.9419223270811976,0.0,3.6036601066589355,-1.5958999395370483,2.9018039129533982e-21,2.0129776000976562,5.007956313877859,0.0,0.2829482853412628,-1.5416224638568323,-0.0,-0.020479094237089157,0.24515338242053986,0.0,0.026532242074608803,1.3795710802078247,0.0,-0.007586225867271423
228.0,290.0,-0.1436,0.326,9.5354,-0.0351,0.0237,-0.1071,-1.9419104061522425,0.0,3.5839884281158447,-1.5958518981933594,9.401476977334224e-29,2.0015616416931152,5.007940190821447,0.0,0.2694914638996124,-1.541650120412008,-0.0,-0.01354544423520565,0.24526581168174744,0.0,0.004999795462936163,1.3796075582504272,0.0,0.0033673448488116264
228.0,290.0,-0.1436,0.326,9.5354,-0.0351,0.0237,-0.1071,-1.941930433312887,0.0,3.589472532272339,-1.5958479642868042,2.2703461157583198e-34,2.0355207920074463,5.0079402206237695,0.0,0.28603625297546387,-1.541638199483053,-0.0,-0.00901773665100336,0.24518541991710663,0.0,-0.0026200904976576567,1.3796194791793823,0.0,0.003544519655406475
228.0,290.0,-0.1436,0.326,9.5354,-0.0351,0.0237,-0.1071,-1.9419547520079554,0.0,3.5990734100341797,-1.595844030380249,5.4826222806247765e-40,2.0392825603485107,5.0079282996948145,0.0,0.2697461247444153,-1.5416463057147425,-0.0,-0.011616744101047516,0.2451494336128235,0.0,0.00844556838274002,1.3795952796936035,0.0,0.03359062224626541
228.0,290.0,-0.1436,0.326,9.5354,-0.0351,0.0237,-0.1071,-1.9419623814024867,0.0,3.5663256645202637,-1.5958837270736694,0.0,2.021165609359741,5.007924276381292,0.0,0.2816855013370514,-1.5416143576251429,-0.0,-0.01603156514465809,0.24517342448234558,0.0,0.0032635850366204977,1.3796398639678955,0.0,0.034309372305870056
223.0,298.0,-0.1442,0.3039,9.5845,-0.0386,0.0238,-0.1074,-1.9419104061522425,0.0,3.6132473945617676,-1.5958837270736694,-0.0,2.0246665477752686,5.007956135063925,0.0,0.2754705846309662,-1.5416424910174769,-0.0,-0.02338290587067604,0.2451491355895996,4.9287848469248274e-08,0.0069913677871227264,1.3795751333236694,0.0,0.0016144383698701859
223.0,298.0,-0.1442,0.3039,9.5845,-0.0386,0.0238,-0.1074,-1.9419905147948207,0.0,3.5894241333007812,-1.5958235263824463,-0.0,2.028831720352173,5.0079281506832025,0.0,0.27862751483917236,-1.5416820685016077,-0.0,-0.007446863688528538,0.24515721201896667,-3.21142069878988e-05,0.010452855378389359,1.3796275854110718,0.0,-0.03356479853391647
223.0,298.0,-0.1442,0.3039,9.5845,-0.0386,0.0238,-0.1074,-1.9419785938658656,0.0,3.601269245147705,-1.5959277153015137,-0.0,2.0560433864593506,5.007952141552725,0.0,0.2900584936141968,-1.5416105429278772,-0.0,-0.02393859066069126,0.2451411932706833,-8.939108120387118e-09,0.01867201365530491,1.3795469999313354,0.0,0.02736528590321541
223.0,298.0,-0.1442,0.3039,9.5845,-0.0386,0.0238,-0.1074,-1.9420191250243128,0.0,3.6260299682617188,-1.5958918333053589,-0.0,2.0568511486053467,5.007948148041525,7.549176075372088e-07,0.27926522493362427,-1.5416978041278284,-0.0,-0.01311950758099556,0.24521347880363464,-1.6246387373429483e-13,0.004067498259246349,1.3796075582504272,0.0,-0.007817315869033337
223.0,298.0,-0.1442,0.3039,9.5845,-0.0386,0.0238,-0.1074,-1.9419018230833949,0.0,3.59824800491333,-1.5958359241485596,-0.0,2.0621209144592285,5.0079522905643366,2.1013411843906482e-10,0.2789965867996216,-1.5417588392840784,-0.002898505423218012,-0.014186060056090355,0.24517348408699036,-4.52224107658048e-17,0.005871732719242573,1.379615306854248,0.0,0.014185231178998947
223.0,298.0,-0.1442,0.3039,9.5845,-0.0386,0.0238,-0.1074,-1.9419018230833949,0.0,3.5684874057769775,-1.595844030380249,-0.0,2.0615615844726562,5.008000212698736,5.849160945089332e-14,0.2849997580051422,-1.5417464415179651,-0.0030482178553938866,-0.028507713228464127,0.24518534541130066,-1.2587824535504569e-20,0.010677529498934746,1.3796234130859375,-1.188067422219774e-10,-0.007448624353855848
223.0,298.0,-0.1442,0.3039,9.5845,-0.0386,0.0238,-0.1074,-1.9419223270811976,0.0,3.6277332305908203,-1.5957916975021362,0.00014099043619353324,2.012211561203003,5.007976221829214,1.6281354637850616e-17,0.28522157669067383,-1.541774098073141,-0.000986478989943862,-0.00410266499966383,0.24513734877109528,-3.5038669166411585e-24,0.000955072115175426,1.3796629905700684,0.004096620716154575,0.07930642366409302
223.0,298.0,-0.1442,0.3039,9.5845,-0.0386,0.0238,-0.1074,-1.9419385395445765,0.0,3.5573196411132812,-1.5957915782928467,0.00304902670904994,2.0746231079101562,5.007952320366659,2.959055878113935e-22,0.27077171206474304,-1.5417059103595179,-0.0005237297737039626,-0.005972903221845627,0.24512124061584473,-6.368105416709624e-29,0.00208218558691442,1.379694938659668,0.0073701501823961735,0.05019907280802727
223.0,298.0,-0.1442,0.3039,9.5845,-0.0386,0.0238,-0.1074,-1.9419666729369105,0.0,3.6313633918762207,-1.595815896987915,0.005193199031054974,2.0565173625946045,5.007992136269369,8.236639076154073e-26,0.28337326645851135,-1.5417302290545862,-0.000388037646189332,-0.014536172151565552,0.24518539011478424,-1.7725855308281176e-32,-0.0009324493585154414,1.3797506093978882,0.008260151371359825,0.04807654395699501
223.0,298.0,-0.1442,0.3039,9.5845,-0.0386,0.0238,-0.1074,-1.9419428310790003,0.0,3.60587215423584,-1.5957200527191162,0.008667835034430027,2.0491814613342285,5.007944243937292,2.2926984758550956e-29,0.2801268696784973,-1.5417621771441858,-0.00030823316774331033,-0.018743004649877548,0.24511343240737915,-4.9340571815174136e-36,0.004951108247041702,1.3798108100891113,0.007267995737493038,0.06084272265434265
223.0,298.0,-0.1442,0.3039,9.5845,-0.0386,0.0238,-0.1074,-1.9419628582396449,0.0,3.603626251220703,-1.595664381980896,0.010577162727713585,2.039806842803955,5.007988142758169,0.00019676795636769384,0.2760224938392639,-1.5417502562152308,-0.00024191864940803498,-0.014511212706565857,0.24509331583976746,-8.967469392600234e-41,0.0057005202397704124,1.379866600036621,0.005112208425998688,0.03235369548201561
223.0,298.0,-0.1442,0.3039,9.5845,-0.0386,0.0238,-0.1074,-1.941930433312887,0.0,3.6224544048309326,-1.595604658126831,0.012332254089415073,2.051278591156006,5.007948237448492,0.00017466086137574166,0.27195388078689575,-1.5417059103595179,-0.00020831127767451108,-0.015702372416853905,0.24516154825687408,-2.5223372357846707e-44,0.008721638470888138,1.3799067735671997,0.003449499374255538,0.025469530373811722
223.0,298.0,-0.1442,0.3039,9.5845,-0.0386,0.0238,-0.1074,-1.9419785938658656,0.0,3.6536996364593506,-1.5954971313476562,0.014693252742290497,2.018794059753418,5.007924157172003,0.00015644219820387661,0.2680547833442688,-1.5417659918414515,-0.0001829046377679333,-0.01775345578789711,0.24511343240737915,-0.0,0.005660012364387512,1.379902720451355,0.0033369415905326605,0.03270517662167549
223.0,298.0,-0.1442,0.3039,9.5845,-0.0386,0.0238,-0.1074,-1.9419542751707972,0.0,3.620436668395996,-1.5953518152236938,0.01721944473683834,2.0816855430603027,5.008004414826193,0.0001416654558852315,0.27640724182128906,-1.5417097250567835,-0.00016302258882205933,-0.023279733955860138,0.24512550234794617,-0.0,0.009365233592689037,1.379934310913086,0.004929129965603352,-0.02038833498954773
220.0,289.0,-0.1878,0.5898,9.6945,-0.0342,0.0231,-0.1168,-1.9419661960997523,0.0,3.607023239135742,-1.5952484607696533,0.02030344307422638,2.041715145111084,5.007956105261602,8.201502350857481e-05,0.28276848793029785,-1.5417020956622522,-0.0001423868234269321,-0.02153352089226246,0.24512550234794617,-0.0,0.0002420927630737424,1.3800104856491089,0.006047432776540518,-0.005245523992925882
220.0,289.0,-0.1878,0.5898,9.6945,-0.0342,0.0231,-0.1168,-1.9419666729369105,0.0,3.6269359588623047,-1.5951013565063477,0.020408347249031067,2.0536623001098633,5.007964390307226,6.965122884139419e-05,0.27829211950302124,-1.541717831288473,-0.00010406380897620693,-0.016035476699471474,0.24514532089233398,-0.0,-0.0046373470686376095,1.3800022602081299,0.005265259649604559,0.011993065476417542
220.0,289.0,-0.1878,0.5898,9.6945,-0.0342,0.0231,-0.1168,-1.9419423542418421,0.0,3.54555082321167,-1.5949410200119019,0.02047012373805046,2.094529390335083,5.007968324213781,-8.118432015180588e-05,0.27292972803115845,-1.5417097250567835,-9.573312127031386e-05,-0.010210474021732807,0.24514533579349518,-0.0,-0.008513336069881916,1.3799859285354614,0.0030849811155349016,0.053794976323843
220.0,289.0,-0.1878,0.5898,9.6945,-0.0342,0.0231,-0.1168,-1.9419619045653285,0.0,3.5603389739990234,-1.5948054790496826,0.019842511042952538,2.0768613815307617,5.0079601285751245,-7.553651084890589e-05,0.28404897451400757,-1.541678253804342,-8.865963172866032e-05,-0.02702159807085991,0.24514532089233398,-0.0,-0.00556899793446064,1.380034327507019,0.0013100289506837726,0.0057350690476596355
220.0,289.0,-0.1878,0.5898,9.6945,-0.0342,0.0231,-0.1168,-1.9419504604735316,0.0,3.6221325397491455,-1.594673752784729,0.018040085211396217,2.081740140914917,5.0079440651233575,-6.467896309914067e-05,0.28029751777648926,-1.5416901747332972,-6.0543308791238815e-05,-0.011433348059654236,0.24516557157039642,-0.0,-0.0058340998366475105,1.3800101280212402,0.0006642938242293894,0.020125530660152435
220.0,289.0,-0.1878,0.5898,9.6945,-0.0342,0.0231,-0.1168,-1.9419423542418421,0.0,3.623236656188965,-1.594618320465088,0.015415044501423836,2.098344326019287,5.007944035321035,-5.83843320782762e-05,0.2728428244590759,-1.5416901747332972,-5.671671897289343e-05,-0.0032432014122605324,0.24516157805919647,-0.0,-0.010647774673998356,1.3799819946289062,0.00043242788524366915,-0.004941271152347326
220.0,289.0,-0.1878,0.5898,9.6945,-0.0342,0.0231,-0.1168,-1.9419824085631312,0.0,3.607421875,-1.5945420265197754,0.011629430577158928,2.0508294105529785,5.007952141552725,-5.320649506757036e-05,0.2717258930206299,-1.5416620413409632,-5.335433525033295e-05,-0.016900112852454185,0.24514532089233398,-0.0,0.0011805954854935408,1.3800060749053955,0.00031843598117120564,-0.0012202144134789705
220.0,289.0,-0.1878,0.5898,9.6945,-0.0342,0.0231,-0.1168,-1.9420072040953578,0.0,3.61293888092041,-1.5944981575012207,0.005839052144438028,2.073671579360962,5.00793622711257,-7.055847527226433e-05,0.2682003676891327,-1.5417097250567835,-4.9445905460743234e-05,-0.0039968714118003845,0.24515748023986816,-0.0,-0.0015952680259943008,1.3799819946289062,0.00019854474521707743,0.01017055381089449
220.0,289.0,-0.1878,0.5898,9.6945,-0.0342,0.0231,-0.1168,-1.941970010797018,0.0,3.6113545894622803,-1.5945184230804443,0.0020822035148739815,2.0442700386047363,5.007956164866247,-8.246586367022246e-05,0.2778048515319824,-1.5416539351092737,-4.687079126597382e-05,-0.015395380556583405,0.2451573759317398,-0.0,-0.008456571027636528,1.3799583911895752,-8.332404831890017e-05,0.06976614892482758
220.0,289.0,-0.1878,0.5898,9.6945,-0.0342,0.0231,-0.1168,-1.942014833489889,0.0,3.64876651763916,-1.59442138671875,-0.0006999641773290932,2.0735175609588623,5.007928329497137,-9.9966797279194e-05,0.26049643754959106,-1.5416901747332972,-4.455059752217494e-05,-0.0002592464443296194,0.24510914087295532,-0.0,-0.006932854186743498,1.3799543380737305,-0.0008471785695292056,0.0016233976930379868
220.0,289.0,-0.1878,0.5898,9.6945,-0.0342,0.0231,-0.1168,-1.9420348606505335,0.0,3.578361988067627,-1.5944981575012207,-0.002617689548060298,2.0207056999206543,5.007912385254659,-0.00022315621026791632,0.2844931483268738,-1.541678253804342,-4.244932279107161e-05,-0.017842475324869156,0.24512937664985657,-0.0,0.0018786003347486258,1.3799588680267334,-0.0013354448601603508,-0.011450297199189663
220.0,289.0,-0.1878,0.5898,9.6945,-0.0342,0.0231,-0.1168,-1.9419943294920863,0.0,3.640143394470215,-1.5945260524749756,-0.0012840770650655031,2.054325580596924,5.007868367224493,-0.0011045752326026559,0.27719488739967346,-1.5416582266436976,2.679763565538451e-05,-0.010870666243135929,0.2451411932706833,-0.0,0.0021598106250166893,1.379878044128418,-0.0007369026425294578,0.023855645209550858
220.0,289.0,-0.1878,0.5898,9.6945,-0.0342,0.0231,-0.1168,-1.9420105419554652,0.0,3.619347095489502,-1.5944981575012207,-0.0001532903843326494,2.020226001739502,5.007856088667669,-0.0010194177739322186,0.2743815779685974,-1.5416820685016077,2.5921897758962587e-05,-0.014758288860321045,0.24512936174869537,-0.0,-0.007374276407063007,1.379886269569397,-0.0006666043773293495,0.021872419863939285
223.0,277.0,-0.2004,0.7944,9.5533,-0.0724,0.0341,-0.1439,-1.942026754418844,0.0,3.611076831817627,-1.5945301055908203,-1.0146512519071393e-09,2.053457021713257,5.0079082427318475,-0.0007499701459892094,0.27430370450019836,-1.5416820685016077,2.4848453904269263e-05,-0.0012713655596598983,0.24516159296035767,-0.0,-0.005543709732592106,1.3799304962158203,-0.0005400879308581352,-0.01475256122648716
223.0,277.0,-0.2004,0.7944,9.5533,-0.0724,0.0341,-0.1439,-1.9419824085631312,0.0,3.6111021041870117,-1.5945022106170654,-2.45026302849935e-15,2.0119123458862305,5.007824051171102,-0.0005607629427686334,0.2666139304637909,-1.541638199483053,2.386030428169761e-05,-0.01223023422062397,0.24512527883052826,-0.0,-0.0031241297256201506,1.3798822164535522,-0.0003912939573638141,-0.025866355746984482
223.0,277.0,-0.2004,0.7944,9.5533,-0.0724,0.0341,-0.1439,-1.942002912560934,0.0,3.6061553955078125,-1.5944981575012207,-7.938540160978263e-23,2.050485134124756,5.00788431146697,-0.00041344104101881385,0.2662603259086609,-1.5416820685016077,2.2658863599644974e-05,-0.012526214122772217,0.24516157805919647,-0.0,-0.007580853067338467,1.379894495010376,-0.0004096318152733147,-0.04192438721656799
223.0,277.0,-0.2004,0.7944,9.5533,-0.0724,0.0341,-0.1439,-1.9420305691161097,0.0,3.579204559326172,-1.5945461988449097,-1.9170639258882492e-28,2.056112766265869,5.007880466967382,-0.00034540588967502117,0.27104437351226807,-1.5416820685016077,2.1834302970091812e-05,-0.009239589795470238,0.24518965184688568,-0.0,-0.0024675081949681044,1.379902720451355,-0.0006498981965705752,0.04355399310588837
223.0,277.0,-0.2004,0.7944,9.5533,-0.0724,0.0341,-0.1439,-1.9419619045653285,0.0,3.5988378524780273,-1.5944702625274658,0.00045753316953778267,2.0431246757507324,5.007876384049215,-0.00029660476138815284,0.2760888338088989,-1.5416978041278284,2.1067651687189937e-05,-0.023014497011899948,0.24518132209777832,-0.0,-0.010629513300955296,1.3798985481262207,-0.000568079820368439,-0.02998625487089157
223.0,277.0,-0.2004,0.7944,9.5533,-0.0724,0.0341,-0.1439,-1.9420186481871546,0.0,3.5871567726135254,-1.594527244567871,0.0016699666157364845,2.034276008605957,5.007860141783514,-0.00024959055008366704,0.2837512493133545,-1.541717831288473,3.0187424272298813e-05,-0.011787121184170246,0.24520939588546753,-0.0,0.010664591565728188,1.3798580169677734,-0.0004317825078032911,-0.051720354706048965
223.0,277.0,-0.2004,0.7944,9.5533,-0.0724,0.0341,-0.1439,-1.9419943294920863,0.0,3.58069109916687,-1.5944904088974,0.0012459871359169483,2.069234848022461,5.007876384049215,-0.00022307340987026691,0.27376633882522583,-1.5416820685016077,1.2727369380627351e-07,-0.002507583238184452,0.2451891452074051,-0.0,-0.0002569375792518258,1.3799186944961548,-0.0003659377107396722,-0.032001152634620667
223.0,277.0,-0.2004,0.7944,9.5533,-0.0724,0.0341,-0.1439,-1.9419905147948207,0.0,3.5645558834075928,-1.5944225788116455,0.0006831558421254158,2.053755283355713,5.007900494128027,-0.00020165032765362412,0.26545751094818115,-1.5416858831988733,3.542710222403933e-11,-0.01746341958642006,0.24516940116882324,-0.0,-0.006204686127603054,1.379902720451355,-0.0003175198216922581,0.031378090381622314
223.0,277.0,-0.2004,0.7944,9.5533,-0.0724,0.0341,-0.1439,-1.9420224628844203,0.0,3.632246494293213,-1.5944544076919556,0.00028295768424868584,2.0455875396728516,5.007832067995825,-0.00020344914810266346,0.27617648243904114,-1.5416901747332972,9.861263451052971e-15,-0.019503867253661156,0.2451775223016739,-0.0,-0.0021689217537641525,1.3799346685409546,-0.00028041869518347085,0.023790255188941956
223.0,277.0,-0.2004,0.7944,9.5533,-0.0724,0.0341,-0.1439,-1.9420505962767542,-0.000153675937326625,3.59462833404541,-1.5945103168487549,-0.00017022491374518722,2.0594353675842285,5.007856058865347,-0.0001365755160804838,0.2721864879131317,-1.5416420141803187,1.7922358188533647e-19,0.0027609746903181076,0.24514929950237274,-0.0,0.0004130660090595484,1.3799023628234863,-0.00024261967337224633,-0.0020742518827319145
223.0,277.0,-0.2004,0.7944,9.5533,-0.0724,0.0341,-0.1439,-1.9420420132079066,-0.0011161451693624258,3.619697093963623,-1.5944584608078003,-0.00013259593106340617,2.0028817653656006,5.00788031795577,-0.00014219729928299785,0.2764631509780884,-1.5416978041278284,4.988753840262782e-23,-0.010297168046236038,0.24520933628082275,-0.0,-0.0149148628115654,1.3799264430999756,-0.00022034422727301717,0.004308232106268406
223.0,277.0,-0.2004,0.7944,9.5533,-0.0724,0.0341,-0.1439,-1.9420706234373988,-0.001573715009726584,3.5825538635253906,-1.5944340229034424,-0.00010859287431230769,2.045846939086914,5.007827955275335,-0.00015378925309050828,0.2709046006202698,-1.5416539351092737,1.388638014436369e-26,-0.006557784974575043,0.2451934665441513,-0.0,0.001996859908103943,1.3799186944961548,-0.0001766025525284931,0.001284352969378233
223.0,277.0,-0.2004,0.7944,9.5533,-0.0724,0.0341,-0.1439,-1.9420911274352015,-0.0013645472936332226,3.554729461669922,-1.5944340229034424,-9.194883023155853e-05,2.0227675437927246,5.007872271328726,-0.00016375498671550304,0.26909133791923523,-1.5416582266436976,3.865325223582915e-30,-0.006527327932417393,0.24516941606998444,-0.0,0.0029417912010103464,1.379906415939331,-0.00016289101040456444,-0.039568040519952774
223.0,277.0,-0.2004,0.7944,9.5533,-0.0724,0.0341,-0.1439,-1.9420739612975062,-0.0010565611300989985,3.5630362033843994,-1.5944743156433105,-3.835772804450244e-05,2.052846908569336,5.007823961764135,-0.0001501189253758639,0.27277666330337524,-1.5417059103595179,7.025037208636527e-35,0.0005874027847312391,0.24514931440353394,-0.0,0.0024378038942813873,1.3799546957015991,-0.000147623271914199,0.015402428805828094
223.0,272.0,-0.1615,-0.0341,9.5234,-0.0483,0.0304,-0.1133,-1.9420749149718226,-0.000978991505689919,3.5957162380218506,-1.5944545269012451,-2.2667911991902656e-09,2.024961471557617,5.007868367224493,-0.00014128178008832037,0.2785595953464508,-1.5416901747332972,1.955444884768841e-38,-0.012266273610293865,0.2451132982969284,-0.0,-0.0047273216769099236,1.3799465894699097,-0.00013792725803796202,-0.016066431999206543
223.0,272.0,-0.1615,-0.0341,9.5234,-0.0483,0.0304,-0.1133,-1.9420739612975062,-0.0007029856787994504,3.5805246829986572,-1.5944664478302002,-5.474034277892694e-15,2.0338783264160156,5.007864224701681,-0.0001334269327344373,0.2795689105987549,-1.5417059103595179,5.4426432354375895e-42,0.0004242236609570682,0.2452133446931839,-0.0,0.0009597627213224769,1.379894495010376,-0.00012942661123815924,0.011353129521012306
223.0,272.0,-0.1615,-0.0341,9.5234,-0.0483,0.0304,-0.1133,-1.9421073398985804,-0.0005054986104369164,3.592933177947998,-1.5944421291351318,0.001867157407104969,2.0467185974121094,5.007880466967382,-0.00012421899009495974,0.2780413329601288,-1.541666332875387,0.0,-0.001417235704138875,0.2451774924993515,-0.0,0.0023157282266765833,1.3799628019332886,-4.01697943743784e-05,-0.019354045391082764
223.0,272.0,-0.1615,-0.0341,9.5234,-0.0483,0.0304,-0.1133,-1.9420539341368617,-0.0004175382200628519,3.595646858215332,-1.5944544076919556,0.0030010496266186237,2.063537120819092,5.007872301131048,-0.0001181059778900817,0.271784245967865,-1.5416620413409632,0.0,-0.010992983356118202,0.24514123797416687,-0.0,0.01303073950111866,1.3799023628234863,-3.668030331027694e-05,0.01571580208837986
223.0,272.0,-0.1615,-0.0341,9.5234,-0.0483,0.0304,-0.1133,-1.9420987568297328,-0.00035565649159252644,3.5708670616149902,-1.594411015510559,0.004039719235152006,2.027210235595703,5.007876384049215,-0.00011256643483648077,0.27340415120124817,-1.5416858831988733,0.0,-0.0015845184680074453,0.24514123797416687,-0.0,0.0056964498944580555,1.3799301385879517,-3.4567048714961857e-05,0.017034778371453285
223.0,272.0,-0.1615,-0.0341,9.5234,-0.0483,0.0304,-0.1133,-1.9420577488341273,-0.00023815614986233413,3.6392650604248047,-1.5943784713745117,0.005290905945003033,2.053990125656128,5.0078438995178125,-0.00010752336675068364,0.265668123960495,-1.5417140165912073,0.0,-0.016067449003458023,0.24518533051013947,-0.0,0.0008050730684772134,1.3799424171447754,-3.268407817813568e-05,0.01995200291275978
223.0,272.0,-0.1615,-0.0341,9.5234,-0.0483,0.0304,-0.1133,-1.942066331902975,-0.00018993602134287357,3.577489137649536,-1.5943105220794678,0.006103296298533678,2.0086746215820312,5.007872301131048,-0.00010146246495423838,0.27294647693634033,-1.5416739622699183,0.0,-0.02246059663593769,0.24518917500972748,-0.0,0.012283832766115665,1.3799784183502197,-3.047099380637519e-05,0.010198576375842094
223.0,272.0,-0.1615,-0.0341,9.5234,-0.0483,0.0304,-0.1133,-1.9420696697630824,-0.00025799323339015245,3.5885820388793945,-1.5942668914794922,0.005649761762470007,2.0046496391296387,5.007836150913992,-9.734697960084304e-05,0.2721981704235077,-1.5416939894305628,0.0,-0.01929590478539467,0.24516941606998444,-0.0,0.01580946519970894,1.3799383640289307,-2.8998305424465798e-05,0.012987696565687656
223.0,272.0,-0.1615,-0.0341,9.5234,-0.0483,0.0304,-0.1133,-1.9421311817564906,-0.0006551725091412663,3.5717642307281494,-1.5941944122314453,0.00553967384621501,2.078447103500366,5.007828223496237,-0.000105315339169465,0.2738073766231537,-1.5416420141803187,0.0,-0.009878097102046013,0.24517731368541718,-0.0,0.015310224145650864,1.379906415939331,-2.7661442800308578e-05,0.030715033411979675
223.0,272.0,-0.1615,-0.0341,9.5234,-0.0483,0.0304,-0.1133,-1.9421421490111292,-0.0016410903772339225,3.6104440689086914,-1.5941671133041382,0.00438269879668951,2.0426716804504395,5.007844137936392,-9.860782301984727e-05,0.27860477566719055,-1.5417140165912073,0.0,-0.010019986890256405,0.24518932402133942,-0.0,0.02155737392604351,1.3799264430999756,-2.6442421585670672e-05,0.0065905433148145676
223.0,272.0,-0.1615,-0.0341,9.5234,-0.0483,0.0304,-0.1133,-1.942162653008932,-0.0016708004986867309,3.577538251876831,-1.5941872596740723,0.0035033468157052994,2.052471876144409,5.007860082178869,-0.00010879181354539469,0.2882971465587616,-1.5416582266436976,0.0,-0.02196408435702324,0.24518130719661713,-0.0,0.022084496915340424,1.3799346685409546,-2.4974890038720332e-05,0.01000377256423235
223.0,272.0,-0.1615,-0.0341,9.5234,-0.0483,0.0304,-0.1133,-1.9421292744078578,-0.001746220514178276,3.5960450172424316,-1.594162940979004,0.0032502696849405766,2.1156768798828125,5.0078438995178125,-0.00011911289038835093,0.2691919207572937,-1.5416701475726526,0.0,-0.013381784781813622,0.24516940116882324,-0.0,0.017085181549191475,1.379886269569397,-2.397687239863444e-05,0.05663544312119484
223.0,272.0,-0.1615,-0.0341,9.5234,-0.0483,0.0304,-0.1133,-1.9422103367247523,-0.001724918489344418,3.6076951026916504,-1.5941797494888306,0.002951169153675437,2.0283203125,5.007840144425192,-0.00011323676153551787,0.2728871703147888,-1.541666332875387,0.0,-0.012971624732017517,0.24516940116882324,-0.0,0.029641464352607727,1.3799587488174438,-2.305555608472787e-05,-0.017442453652620316
223.0,272.0,-0.1615,-0.0341,9.5234,-0.0483,0.0304,-0.1133,-1.9422270260252894,-0.0018721960950642824,3.5701847076416016,-1.5941393375396729,0.0034004608169198036,2.0339231491088867,5.007804292231359,-0.0001207326931762509,0.2870631515979767,-1.5416582266436976,0.0,-0.008975460194051266,0.24515748023986816,-0.0,0.019162654876708984,1.379902720451355,-2.193190812249668e-05,-0.0421118400990963
216.0,280.0,-0.2195,0.4439,9.4487,-0.0283,0.0318,-0.1155,-1.9422351322569789,-0.0017229286022484303,3.62007474899292,-1.5940828323364258,0.003946586046367884,2.0332465171813965,5.00788031795577,-0.00020983272406738251,0.2825275659561157,-1.5417140165912073,0.0,-0.016574982553720474,0.24523745477199554,-0.0,0.02149512991309166,1.3799104690551758,-2.115850475092884e-05,0.02502657100558281
216.0,280.0,-0.2195,0.4439,9.4487,-0.0283,0.0318,-0.1155,-1.9421936474242152,-0.001437008730135858,3.5825891494750977,-1.5940994024276733,0.004356184974312782,2.0236709117889404,5.007844137936392,-0.0002528481127228588,0.27539148926734924,-1.541666332875387,0.0,-0.008337362669408321,0.2451653778553009,-0.0,0.017504308372735977,1.3799264430999756,-3.025042315130122e-05,0.011269435286521912
216.0,280.0,-0.2195,0.4439,9.4487,-0.0283,0.0318,-0.1155,-1.942197938958639,-0.001288278610445559,3.6209590435028076,-1.594088077545166,0.005034150090068579,2.054558515548706,5.007768142014303,-0.00026180941495113075,0.27193087339401245,-1.541650120412008,0.0,-0.019714295864105225,0.24521735310554504,-0.0,0.02898954600095749,1.3799264430999756,1.9585195332183503e-05,0.0756235122680664
216.0,280.0,-0.2195,0.4439,9.4487,-0.0283,0.0318,-0.1155,-1.942226072350973,-0.0015105620259419084,3.570265293121338,-1.5939509868621826,0.006163259968161583,2.0185329914093018,5.007824438601293,-0.0005558810080401599,0.2754742205142975,-1.541626278554098,0.0,-0.004445248283445835,0.24521750211715698,-0.0,0.0400061309337616,1.3798985481262207,1.802465158107225e-05,0.038513462990522385
216.0,280.0,-0.2195,0.4439,9.4487,-0.0283,0.0318,-0.1155,-1.9423114262022914,-0.0015633564908057451,3.5740582942962646,-1.593935489654541,0.006585601717233658,2.0595808029174805,5.007820385485449,-0.0009230355499312282,0.27440547943115234,-1.5416305700885218,0.0,-0.016222991049289703,0.24518120288848877,-0.0,0.038902781903743744,1.3799104690551758,1.7003076209221035e-05,0.01423661783337593
216.0,280.0,-0.2195,0.4439,9.4487,-0.0283,0.0318,-0.1155,-1.9422460995116175,-0.0014921260299161077,3.544790744781494,-1.5939230918884277,0.006832107435911894,2.031064510345459,5.007848459273138,-0.0011074412614107132,0.2620895802974701,-1.541626278554098,2.07328199053336e-07,-0.019788915291428566,0.24522945284843445,-0.0,0.033257171511650085,1.3798904418945312,1.609108403499704e-05,-0.009142283350229263
216.0,280.0,-0.2195,0.4439,9.4487,-0.0283,0.0318,-0.1155,-1.9422828159727992,-0.001551066990941763,3.6087183952331543,-1.5938515663146973,0.006965539418160915,2.0247597694396973,5.007796245604315,-0.0010349680669605732,0.25299108028411865,-1.541654411946432,3.7680874045986634e-12,-0.004832773469388485,0.24519741535186768,0.0003945796634070575,0.041750017553567886,1.3798781633377075,1.5017129044281319e-05,0.04886040836572647
216.0,280.0,-0.2195,0.4439,9.4487,-0.0283,0.0318,-0.1155,-1.9422785244383753,-0.001961244735866785,3.54226016998291,-1.5937753915786743,0.0060097272507846355,2.0457029342651367,5.007800298720159,-0.0008700087200850248,0.2557506263256073,-1.541666332875387,1.048861099189858e-15,-0.012768939137458801,0.2452213019132614,0.00038054687320254743,0.04826834052801132,1.379858136177063,1.4301270311989356e-05,0.15224695205688477
216.0,280.0,-0.2195,0.4439,9.4487,-0.0283,0.0318,-0.1155,-1.942327161828512,-0.0021703438833355904,3.526944875717163,-1.5937914848327637,0.0054142358712852,2.1073365211486816,5.007792132883825,-0.0008769338019192219,0.2537603974342346,-1.541610066090719,2.919543536281744e-19,-0.029803210869431496,0.2452452927827835,0.0003658124478533864,0.04064096882939339,1.3798822164535522,1.3650545042764861e-05,0.05606682226061821
216.0,280.0,-0.2195,0.4439,9.4487,-0.0283,0.0318,-0.1155,-1.942289491693014,-0.0025804194156080484,3.478835105895996,-1.5937187671661377,0.0049779703840613365,2.0661604404449463,5.007784384280004,-0.0010918413754552603,0.25122496485710144,-1.541654411946432,8.126657612235783e-23,-0.01767544448375702,0.24524936079978943,0.0003888806968461722,0.03456936031579971,1.3798980712890625,1.3056464013061486e-05,0.0356525219976902
216.0,280.0,-0.2195,0.4439,9.4487,-0.0283,0.0318,-0.1155,-1.9422971210875453,-0.0036701636854559183,3.4857840538024902,-1.5937035083770752,0.003665731754153967,2.0760951042175293,5.007760214596548,-0.002243578201159835,0.2498394250869751,-1.5416186491595667,1.4769795928355355e-27,-0.029833223670721054,0.24523323774337769,0.00035080453380942345,0.04704282432794571,1.379886269569397,1.2340376997599378e-05,0.04372008144855499
216.0,280.0,-0.2195,0.4439,9.4487,-0.0283,0.0318,-0.1155,-1.9423419437804164,-0.004183201584964991,3.5241751670837402,-1.5936880111694336,0.0030761028174310923,2.024031162261963,5.007777112513342,-0.0043177432380616665,0.2547246813774109,-1.5416620413409632,4.1112270749105255e-31,-0.005653684027493,0.2451813668012619,0.00034209739533253014,0.04841720312833786,1.3798781633377075,1.1852829629788175e-05,0.02541562356054783
216.0,280.0,-0.2195,0.4439,9.4487,-0.0283,0.0318,-0.1155,-1.9424354038634242,-0.00469776289537549,3.5085294246673584,-1.5936638116836548,0.0021672069560736418,2.0390450954437256,5.007704275637426,-0.006605456583201885,0.2444779872894287,-1.5416305700885218,0.00010333162936149165,-0.02467266656458378,0.2452171891927719,0.0002944986626971513,0.05204484611749649,1.3799145221710205,5.289930626872774e-08,0.016251176595687866
216.0,280.0,-0.2195,0.4439,9.4487,-0.0283,0.0318,-0.1155,-1.9424430332579554,-0.005436580162495375,3.460999011993408,-1.5936999320983887,0.001493821619078517,2.023637533187866,5.007700162916937,-0.007516403216868639,0.24806475639343262,-1.541626278554098,0.00016443940694443882,0.000562335248105228,0.24522538483142853,0.00029514377820305526,0.050640299916267395,1.3799104690551758,1.2774560597707263e-13,0.014522790908813477
222.0,289.0,-0.2369,0.2788,9.6634,-0.0365,0.0192,-0.1191,-1.9424745045103968,-0.006808044854551554,3.455596446990967,-1.5936638116836548,0.0007882935460656881,2.0519638061523438,5.007592218905248,-0.00523836724460125,0.24356861412525177,-1.5416138807879847,0.00017217807180713862,-0.0017683609621599317,0.2452411651611328,0.0002538235276006162,0.05720829591155052,1.3799465894699097,4.138795771528373e-21,0.013512622565031052
222.0,289.0,-0.2369,0.2788,9.6634,-0.0365,0.0192,-0.1191,-1.9425183735289515,-0.008235008455812931,3.447779655456543,-1.5937039852142334,0.000644660962279886,2.068535327911377,5.007596748858251,-0.003946514800190926,0.2261369377374649,-1.5415781180011194,0.00018288112187292427,-0.007788680028170347,0.2452573925256729,0.00021450889471452683,0.05537687987089157,1.3798822164535522,9.994705891034891e-27,-0.004640283528715372
222.0,289.0,-0.2369,0.2788,9.6634,-0.0365,0.0192,-0.1191,-1.942610879937643,-0.010039917193353176,3.4677016735076904,-1.593695878982544,0.00018298838404007256,2.049534320831299,5.007564294129171,-0.0034645318519324064,0.22127293050289154,-1.541654411946432,0.0001686159084783867,-0.0011868802830576897,0.24530528485774994,0.00018766423454508185,0.050641562789678574,1.3799104690551758,2.4136037592298258e-32,-0.01702013611793518
222.0,289.0,-0.2369,0.2788,9.6634,-0.0365,0.0192,-0.1191,-1.9426623783507289,-0.01191365160048008,3.4498424530029297,-1.5936956405639648,0.0001300744916079566,2.1099116802215576,5.007500189333715,-0.0035467720590531826,0.22041034698486328,-1.5416024366961878,0.00017401819059159607,0.00021886546164751053,0.24526537954807281,0.00016083088121376932,0.0621083602309227,1.379906415939331,7.81976391136428e-40,0.022849291563034058
222.0,289.0,-0.2369,0.2788,9.6634,-0.0365,0.0192,-0.1191,-1.9427539310851039,-0.013260846957564354,3.4233579635620117,-1.5936321020126343,0.00010689596820157021,2.0290186405181885,5.007532256632604,-0.0036409066524356604,0.2247331440448761,-1.5415948073016565,0.0001622962736291811,-0.00323780276812613,0.2452411651611328,0.00017404589743819088,0.06280673295259476,1.3799104690551758,1.401298464324817e-45,-0.01775253191590309
222.0,289.0,-0.2369,0.2788,9.6634,-0.0365,0.0192,-0.1191,-1.9428345165648402,-0.014497247524559498,3.3790688514709473,-1.5936235189437866,0.00012045704352203757,2.062129020690918,5.007568138628759,-0.00281926104798913,0.24493606388568878,-1.5416343847857874,0.00015213013102766126,0.0012325119460001588,0.24526923894882202,0.00015891515067778528,0.05853443592786789,1.3799104690551758,0.0,-0.008612066507339478
222.0,289.0,-0.2369,0.2788,9.6634,-0.0365,0.0192,-0.1191,-1.942942281762594,-0.014998072758316994,3.4062275886535645,-1.5936837196350098,0.00011821633233921602,2.034208297729492,5.007496076613226,-0.002384213265031576,0.21542242169380188,-1.5416463057147425,0.0001728559727780521,0.0038540330715477467,0.24522924423217773,0.00014602229930460453,0.057629577815532684,1.379886269569397,0.0,-0.037453845143318176
222.0,289.0,-0.2369,0.2788,9.6634,-0.0365,0.0192,-0.1191,-1.9430176220335902,-0.016945211216807365,3.411984920501709,-1.593695878982544,0.00013366232451517135,2.0806713104248047,5.007452207594671,-0.002262142254039645,0.23881232738494873,-1.5416181723224085,0.00014984013978391886,0.0005010133609175682,0.2452773004770279,0.00013176872744224966,0.046600598841905594,1.379906415939331,0.0,0.0030899294652044773
222.0,289.0,-0.2369,0.2788,9.6634,-0.0365,0.0192,-0.1191,-1.9431702099242152,-0.019474009051918983,3.3737058639526367,-1.5937039852142334,0.0001206443557748571,2.0618979930877686,5.007412242680349,-0.0023869818542152643,0.21662060916423798,-1.5415661970721644,0.00016323359159287065,0.003889325074851513,0.2452370822429657,0.00012278025678824633,0.059851959347724915,1.3799145221710205,0.0,0.005427667871117592
222.0,289.0,-0.2369,0.2788,9.6634,-0.0365,0.0192,-0.1191,-1.9432293377318324,-0.021047981455922127,3.3542861938476562,-1.5936797857284546,0.00010962290252791718,2.0540637969970703,5.007460403233328,-0.0026165873277932405,0.21691220998764038,-1.5415948073016565,0.000149864426930435,0.002544837072491646,0.2452574074268341,0.00011493976489873603,0.07516882568597794,1.3798822164535522,0.0,-0.044612642377614975
222.0,289.0,-0.2369,0.2788,9.6634,-0.0365,0.0192,-0.1191,-1.9433981380858363,-0.022272827103734016,3.342040538787842,-1.593660593032837,8.946761226980016e-05,2.080965280532837,5.0073759136493585,-0.003356772242113948,0.21359407901763916,-1.5415743033038538,0.00013834521814715117,0.018226219341158867,0.2452692687511444,0.000108040650957264,0.05267418175935745,1.3799145221710205,0.0,-0.025738529860973358
222.0,289.0,-0.2369,0.2788,9.6634,-0.0365,0.0192,-0.1191,-1.9436022243895472,-0.023406507447361946,3.3593430519104004,-1.5936075448989868,0.0001331819803453982,2.0309906005859375,5.007388072996893,-0.0035265772603452206,0.19679036736488342,-1.5416138807879847,0.00012548522499855608,0.009970693849027157,0.24521712958812714,0.0001145231508417055,0.045193567872047424,1.379854440689087,-0.00041016662726178765,-0.0638815239071846
222.0,289.0,-0.2369,0.2788,9.6634,-0.0365,0.0192,-0.1191,-1.9437133274474085,-0.02372712828218937,3.3889336585998535,-1.593715786933899,0.0005635712295770645,2.044435501098633,5.007359969406881,-0.0033878472167998552,0.21494337916374207,-1.5416024366961878,0.00011730695405276492,0.01256837509572506,0.24522913992404938,0.00011056185758206993,0.04772750288248062,1.3798625469207764,-0.00037049222737550735,-0.046170610934495926
226.0,284.0,-0.0855,0.3254,9.4816,-0.0283,0.0002,-0.1219,-1.9438735447325648,-0.024824460968375206,3.346731662750244,-1.5936195850372314,0.0005086909513920546,2.0642333030700684,5.0073038814361475,-0.003642106894403696,0.1982664316892624,-1.5416181723224085,0.00011012952018063515,0.012627349235117435,0.2452370971441269,0.00010503256635274738,0.05866432562470436,1.3798785209655762,-0.00032872334122657776,-0.064775250852108
226.0,284.0,-0.0855,0.3254,9.4816,-0.0283,0.0002,-0.1219,-1.9440857372679652,-0.028065931051969528,3.3178672790527344,-1.5936040878295898,0.0006089783855713904,2.061807632446289,5.0072920499141595,-0.003309565130621195,0.21134521067142487,-1.5415900389300745,0.0001187181769637391,0.004786212928593159,0.24523329734802246,9.846605826169252e-05,0.05610974133014679,1.3798985481262207,-0.0003108071687165648,-0.03439423069357872
226.0,284.0,-0.0855,0.3254,9.4816,-0.0283,0.0002,-0.1219,-1.9442573986449183,-0.03036937117576599,3.288512706756592,-1.5936357975006104,0.0006151210982352495,2.0633254051208496,5.007308172970571,-0.002534174360334873,0.2137378305196762,-1.541610066090719,0.00011243314656894654,0.010640752501785755,0.24524518847465515,9.405594755662605e-05,0.06806427985429764,1.3798707723617554,-0.00027074775425717235,-0.1271120309829712
226.0,284.0,-0.0855,0.3254,9.4816,-0.0283,0.0002,-0.1219,-1.9444009266295375,-0.03222555294632912,3.3305437564849854,-1.5935803651809692,0.0008777222246862948,2.0729217529296875,5.007312047272482,-0.0015907296910881996,0.20970073342323303,-1.5415948073016565,0.00010671940253814682,0.015130139887332916,0.24523720145225525,9.002391016110778e-05,0.061100296676158905,1.3798621892929077,-0.00031562981894239783,-0.09159014374017715
226.0,284.0,-0.0855,0.3254,9.4816,-0.0283,0.0002,-0.1219,-1.9446450672545375,-0.033395957201719284,3.328099250793457,-1.5936203002929688,0.0011639496078714728,2.0535616874694824,5.007336336165228,-0.0010362559696659446,0.22469158470630646,-1.5416224638568323,0.0001015582456602715,0.01773395575582981,0.24524912238121033,8.632332901470363e-05,0.06472646445035934,1.3798261880874634,-0.0003177252656314522,-0.04303760081529617
226.0,284.0,-0.0855,0.3254,9.4816,-0.0283,0.0002,-0.1219,-1.9449130497374476,-0.03288456052541733,3.318241834640503,-1.5936203002929688,0.0016734976088628173,2.0884687900543213,5.007239746838369,-0.0004911503638140857,0.21923741698265076,-1.541610066090719,9.54062634264119e-05,-0.0006486509228125215,0.2452370971441269,8.183791214833036e-05,0.04672352597117424,1.3798584938049316,-0.0003599186602514237,-0.10219801217317581
226.0,284.0,-0.0855,0.3254,9.4816,-0.0283,0.0002,-0.1219,-1.945080896417135,-0.03405820578336716,3.2793145179748535,-1.5936038494110107,0.0014447615249082446,2.0628814697265625,5.007264125138082,-0.00044258817797526717,0.22111737728118896,-1.5416305700885218,9.126013173954561e-05,-0.008850338868796825,0.24527326226234436,7.876833842601627e-05,0.049684152007102966,1.3798465728759766,-0.0003483127220533788,-0.04848723113536835
226.0,284.0,-0.0855,0.3254,9.4816,-0.0283,0.0002,-0.1219,-1.9453126392760218,-0.03573116287589073,3.30143404006958,-1.5935359001159668,0.0010409574024379253,2.034482479095459,5.007292228728094,-0.0004699860292021185,0.21192224323749542,-1.5415661970721644,8.745949162403122e-05,0.010695386677980423,0.24525314569473267,7.592068141093478e-05,0.0673891231417656,1.3798424005508423,-0.0002918336249422282,-0.052275024354457855
226.0,284.0,-0.0855,0.3254,9.4816,-0.0283,0.0002,-0.1219,-1.945552488366598,-0.040505532175302505,3.243748188018799,-1.5935957431793213,0.0007790519739501178,2.0266709327697754,5.00725598910407,-0.00045106158358976245,0.22136783599853516,-1.5415948073016565,8.396259363507852e-05,0.000723428325727582,0.24527329206466675,7.327173807425424e-05,0.07325015962123871,1.379866600036621,-0.00025111582363024354,-0.022731076925992966
226.0,284.0,-0.0855,0.3254,9.4816,-0.0283,0.0002,-0.1219,-1.9458605251707972,-0.04794442281126976,3.253842353820801,-1.5935879945755005,0.0006109205423854291,2.0624024868011475,5.007292228728094,-0.00041959696682170033,0.20204900205135345,-1.5416181723224085,7.971318700583652e-05,0.009058495983481407,0.2452652007341385,8.001647074706852e-05,0.062426500022411346,1.3798342943191528,-0.00021172940614633262,-0.0008767712861299515
226.0,284.0,-0.0855,0.3254,9.4816,-0.0283,0.0002,-0.1219,-1.9461118183531703,-0.04729614034295082,3.3154006004333496,-1.5935118198394775,0.0015847936738282442,2.0517938137054443,5.007256018906393,-0.00035119702806696296,0.20306655764579773,-1.541626278554098,7.679805275984108e-05,-0.0009557093726471066,0.24529311060905457,8.668373396858442e-08,0.05732644349336624,1.3798465728759766,-0.00018944486510008574,-0.016598312184214592
226.0,284.0,-0.0855,0.3254,9.4816,-0.0283,0.0002,-0.1219,-1.9463960132994593,-0.04575420171022415,3.288639783859253,-1.5935355424880981,0.003937138710170984,2.1110055446624756,5.007264125138082,-0.00030086483457125723,0.22388876974582672,-1.541586701069967,7.408863166347146e-05,0.003192518139258027,0.24527329206466675,2.4128737202699924e-11,0.049998559057712555,1.3798061609268188,-0.00017140440468210727,-0.05566773563623428
226.0,284.0,-0.0855,0.3254,9.4816,-0.0283,0.0002,-0.1219,-1.9467560253539027,-0.04242680221796036,3.2763054370880127,-1.5934760570526123,0.005343034863471985,2.0545501708984375,5.007272261172094,-0.00025260020629502833,0.21310165524482727,-1.5415905157672327,2.7356278224033304e-05,-0.0004265645984560251,0.24524511396884918,4.385278562161869e-16,0.06532937288284302,1.379894495010376,-0.00015209338744170964,-0.033861976116895676
226.0,284.0,-0.0855,0.3254,9.4816,-0.0283,0.0002,-0.1219,-1.94706453899526,-0.040654975920915604,3.2959470748901367,-1.5934443473815918,0.0057673524133861065,2.0419704914093018,5.007296311646261,-0.0002493038773536682,0.22394466400146484,-1.5416019598590296,2.6157642423640937e-05,-0.008733284659683704,0.24528919160366058,1.2206584099762268e-19,0.06841280311346054,1.3798707723617554,-0.0001402432972099632,-0.004018626641482115
223.0,294.0,-0.25,0.1358,9.4014,-0.0252,-0.0072,-0.1142,-1.947303911248678,-0.04089924320578575,3.2706997394561768,-1.5934522151947021,0.005516537930816412,2.0419015884399414,5.0072762844856165,-0.00024122852482832968,0.20366087555885315,-1.541650120412008,2.5064910005312413e-05,-0.007677525281906128,0.2452573925256729,3.3977476121768365e-23,0.07166161388158798,1.379854440689087,-0.00013010627299081534,-0.003690615762025118
223.0,294.0,-0.25,0.1358,9.4014,-0.0252,-0.0072,-0.1142,-1.9475146732726039,-0.04169116169214249,3.2427282333374023,-1.5934040546417236,0.0036552418023347855,2.031059503555298,5.007264125138082,-0.0002863220579456538,0.20204485952854156,-1.5416138807879847,2.4059820134425536e-05,-0.005980572663247585,0.2452976554632187,9.457755081795774e-27,0.061931949108839035,1.379902720451355,-0.00012133593554608524,-0.017975594848394394
223.0,294.0,-0.25,0.1358,9.4014,-0.0252,-0.0072,-0.1142,-1.947871824304098,-0.042826391756534576,3.26947021484375,-1.593388319015503,0.0026585462037473917,2.0462284088134766,5.00725598910407,-0.0006354231154546142,0.2057550847530365,-1.5415948073016565,2.2838734366814606e-05,-0.023698236793279648,0.2452370822429657,1.7189001160788883e-31,0.06813549250364304,1.3798625469207764,-0.00011132987856399268,-0.007931766100227833
223.0,294.0,-0.25,0.1358,9.4014,-0.0252,-0.0072,-0.1142,-1.9481107197203578,-0.04084356874227524,3.2601771354675293,-1.5933923721313477,0.002719071926549077,2.0666675567626953,5.0072762844856165,-0.00047066150000318885,0.21775144338607788,-1.541610066090719,2.2001262550475076e-05,-0.02464110031723976,0.24534140527248383,6.739826829971207e-08,0.06407490372657776,1.379882574081421,-0.0001048451813403517,0.011520817875862122
223.0,294.0,-0.25,0.1358,9.4014,-0.0252,-0.0072,-0.1142,-1.9482947788634242,-0.03814175724983215,3.3034958839416504,-1.5933685302734375,0.0031679461244493723,2.05251407623291,5.007284480124273,-0.0003730378521140665,0.20971201360225677,-1.5416057745562952,2.122305340890307e-05,-0.012154076248407364,0.2452491670846939,1.87605556090098e-11,0.0867735892534256,1.3798425197601318,-9.90744520095177e-05,-0.019313404336571693
223.0,294.0,-0.25,0.1358,9.4014,-0.0252,-0.0072,-0.1142,-1.9485346279540003,-0.034474294632673264,3.301393508911133,-1.5933723449707031,0.003811075584962964,2.07484769821167,5.007260012417593,-0.00030897173564881086,0.21341973543167114,-1.5416424910174769,1.0592157195787877e-05,-0.018245356157422066,0.245253324508667,5.2220695046553255e-15,0.06689094007015228,1.379854440689087,-7.825491775292903e-05,0.06466034799814224
223.0,294.0,-0.25,0.1358,9.4014,-0.0252,-0.0072,-0.1142,-1.9487978420653285,-0.03134823590517044,3.3020756244659424,-1.5932965278625488,0.0048564113676548,2.0866153240203857,5.007268208056249,-0.0002514116058591753,0.20919525623321533,-1.541558567677633,3.280036651176488e-07,-0.03128672391176224,0.2452612668275833,9.490853213522644e-20,0.06703412532806396,1.3798707723617554,-7.316555274883285e-05,0.04205857589840889
223.0,294.0,-0.25,0.1358,9.4014,-0.0252,-0.0072,-0.1142,-1.9490186176695765,-0.029841026291251183,3.303112745285034,-1.5932965278625488,0.005234746262431145,2.051938056945801,5.007292258530416,-0.00024776780628599226,0.20374032855033875,-1.5416143576251429,9.130102923693428e-11,-0.02886315807700157,0.24519741535186768,2.641814234456293e-23,0.06029216945171356,1.3798744678497314,-6.976275471970439e-05,0.11553932726383209
223.0,294.0,-0.25,0.1358,9.4014,-0.0252,-0.0072,-0.1142,-1.9492188892760218,-0.03001827374100685,3.2766213417053223,-1.5932044982910156,0.005294945556670427,2.1004209518432617,5.007224100619116,-0.00022925547091290355,0.21852447092533112,-1.5416343847857874,2.541397505580103e-14,-0.03307171165943146,0.24526524543762207,7.353586484031322e-27,0.0748320147395134,1.3798179626464844,-6.666241824859753e-05,0.08066943287849426
223.0,294.0,-0.25,0.1358,9.4014,-0.0252,-0.0072,-0.1142,-1.9493776760497035,-0.030630987137556076,3.325249195098877,-1.5931645631790161,0.006098780781030655,2.0865650177001953,5.007247882872381,-0.00020012403547298163,0.2066316306591034,-1.5416424910174769,4.618864871113412e-19,-0.023155342787504196,0.24524937570095062,0.00011464740236988291,0.07000332325696945,1.3798584938049316,-7.54615175537765e-05,0.04651404172182083
223.0,294.0,-0.25,0.1358,9.4014,-0.0252,-0.0072,-0.1142,-1.9495898685851039,-0.03086438961327076,3.2841079235076904,-1.5931448936462402,0.007148853037506342,2.062540054321289,5.007215994387426,-0.00020879629300907254,0.20233577489852905,-1.5415986219989222,1.28567780404677e-22,-0.03339007496833801,0.24529752135276794,0.00017901530372910202,0.07941000163555145,1.379882574081421,-7.24791461834684e-05,0.09130935370922089
223.0,294.0,-0.25,0.1358,9.4014,-0.0252,-0.0072,-0.1142,-1.9497744045653285,-0.03056790493428707,3.362355947494507,-1.5930806398391724,0.009303728118538857,2.051443338394165,5.007268208056249,-0.00019209730089642107,0.194889634847641,-1.5415781180011194,3.578731283334878e-26,-0.024320892989635468,0.24529369175434113,0.00019083009101450443,0.08414407819509506,1.3798221349716187,-6.967371155042201e-05,0.044029638171195984
223.0,294.0,-0.25,0.1358,9.4014,-0.0252,-0.0072,-0.1142,-1.949921270410055,-0.03037581965327263,3.3142342567443848,-1.5930205583572388,0.011324647814035416,2.0643303394317627,5.007292496948995,-0.00017786037642508745,0.2070956528186798,-1.5416138807879847,9.961529581071633e-30,-0.029707275331020355,0.24523314833641052,0.00017343838408123702,0.08537191152572632,1.3798465728759766,-6.707734428346157e-05,0.0408046618103981
223.0,294.0,-0.25,0.1358,9.4014,-0.0252,-0.0072,-0.1142,-1.9501201115050257,-0.029763396829366684,3.300004005432129,-1.5928646326065063,0.015098817646503448,2.0646958351135254,5.007268208056249,-0.000121207871416118,0.20664820075035095,-1.541638199483053,1.8104588613774326e-34,-0.03822992742061615,0.24526920914649963,0.0001788606314221397,0.07712376862764359,1.3798142671585083,-7.455263403244317e-05,0.028947990387678146
222.0,316.0,0.0921,0.3428,9.6897,-0.0299,-0.0263,-0.1171,-1.950357576409811,-0.032082799822092056,3.29354190826416,-1.5927727222442627,0.01762324757874012,2.0525403022766113,5.007272201567449,-0.00010688997281249613,0.20286105573177338,-1.5416620413409632,5.039479017383011e-38,-0.023826027289032936,0.24527721107006073,0.00016520028293598443,0.08371736109256744,1.3798588514328003,-8.214244735427201e-05,0.07557495683431625
222.0,316.0,0.0921,0.3428,9.6897,-0.0299,-0.0263,-0.1171,-1.9505330524840296,-0.035276148468256,3.2525994777679443,-1.5927175283432007,0.020227670669555664,2.0836565494537354,5.007260012417593,-9.977795707527548e-05,0.20214121043682098,-1.541638199483053,1.402699762789142e-41,-0.01393425278365612,0.24531349539756775,0.00015315170458052307,0.07718004286289215,1.3798465728759766,-5.708098251488991e-05,0.03798503428697586
222.0,316.0,0.0921,0.3428,9.6897,-0.0299,-0.0263,-0.1171,-1.950768610040182,-0.03780205547809601,3.225001811981201,-1.5926258563995361,0.02254652790725231,2.037033796310425,5.007220077305593,-0.00010743410530267283,0.19889137148857117,-1.5415986219989222,4.203895392974451e-45,-0.04265560954809189,0.2452811300754547,0.0001631268096389249,0.07788027822971344,1.3798342943191528,-7.450985140167177e-05,0.041510943323373795
222.0,316.0,0.0921,0.3428,9.6897,-0.0299,-0.0263,-0.1171,-1.9510685406126917,-0.03907270357012749,3.246762752532959,-1.5923572778701782,0.02744975872337818,2.1283721923828125,5.007288503437795,-0.00010364607442170382,0.20424379408359528,-1.541626278554098,0.0,-0.0381704680621624,0.24533326923847198,0.00014957640087231994,0.0822390466928482,1.3798304796218872,-0.0008109851623885334,0.03350350633263588
222.0,316.0,0.0921,0.3428,9.6897,-0.0299,-0.0263,-0.1171,-1.9513007603087367,-0.03782527148723602,3.2646684646606445,-1.5921183824539185,0.031779371201992035,2.0709939002990723,5.00725598910407,-9.800286352401599e-05,0.20206406712532043,-1.5416343847857874,0.0,-0.020004063844680786,0.24528507888317108,0.00015506366617046297,0.06881754100322723,1.379814863204956,-0.0012018060078844428,0.031562741845846176
222.0,316.0,0.0921,0.3428,9.6897,-0.0299,-0.0263,-0.1171,-1.9515110454955042,-0.03678085654973984,3.2439141273498535,-1.5919291973114014,0.03419353812932968,2.0686612129211426,5.007239985256948,-0.00010839822061825544,0.20367780327796936,-1.5415986219989222,0.0,-0.038635075092315674,0.24528956413269043,0.00014057059888727963,0.07888290286064148,1.379814863204956,-0.0022222634870558977,0.042565494775772095
222.0,316.0,0.0921,0.3428,9.6897,-0.0299,-0.0263,-0.1171,-1.9518162212767542,-0.03705120459198952,3.303997039794922,-1.591670274734497,0.03800659254193306,2.1147496700286865,5.007224070816793,-0.00022803357569500804,0.20368756353855133,-1.5416224638568323,0.0,-0.032485440373420715,0.24533335864543915,0.000149511790368706,0.07259291410446167,1.37981116771698,-0.00523783266544342,-0.019579751417040825
222.0,316.0,0.0921,0.3428,9.6897,-0.0299,-0.0263,-0.1171,-1.9520722828307093,-0.036394812166690826,3.2866859436035156,-1.591439127922058,0.03995693847537041,2.0855000019073486,5.0072481510932825,-0.0007960164221003652,0.1861027181148529,-1.541650120412008,0.0,-0.03165566176176071,0.2452811300754547,0.0001384154602419585,0.08556094765663147,1.3797388076782227,-0.006726447492837906,-0.014579914510250092
222.0,316.0,0.0921,0.3428,9.6897,-0.0299,-0.0263,-0.1171,-1.9522677860655726,-0.038002073764801025,3.277144432067871,-1.5911146402359009,0.041699398308992386,2.122713804244995,5.007200020342626,-0.0012687456328421831,0.2030528485774994,-1.541626278554098,0.0,-0.035291753709316254,0.24526122212409973,0.00012853134830947965,0.06411272287368774,1.3797309398651123,-0.006135574541985989,0.024165820330381393
