ramyac6/ROB537/final_project/csv/good/good_179.csv
tof_0,tof_1,accelx,accely,accelz,gyrox,gyroy,gyroz,shoulder_lift_joint_position,shoulder_lift_joint_velocity,shoulder_lift_joint_effort,elbow_joint_position,elbow_joint_velocity,elbow_joint_effort,wrist_1_joint_position,wrist_1_joint_velocity,wrist_1_joint_effort,wrist_2_joint_position,wrist_2_joint_velocity,wrist_2_joint_effort,wrist_3_joint_position,wrist_3_joint_velocity,wrist_3_joint_effort,shoulder_pan_joint_position,shoulder_pan_joint_velocity,shoulder_pan_joint_effort
411.0,653.0,0.9027,0.7555,9.39,-0.0394,0.0293,-0.1161,-1.7166549168028773,0.0,2.681941509246826,-1.847702980041504,-0.0,2.026340961456299,4.923669624119558,0.0,0.30545157194137573,-1.6521385351764124,0.0,0.005916632246226072,0.7881357669830322,0.0,-0.001409173826687038,0.7799481749534607,0.0,-0.007313627749681473
411.0,653.0,0.9027,0.7555,9.39,-0.0394,0.0293,-0.1161,-1.7166744671263636,0.0,2.6698789596557617,-1.8477033376693726,-0.0,2.016808032989502,4.923677685647764,0.0,0.28637611865997314,-1.6521661917315882,0.0,-0.0057017868384718895,0.7880957126617432,0.0,-0.0058441003784537315,0.779944121837616,0.0,0.009773928672075272
411.0,653.0,0.9027,0.7555,9.39,-0.0394,0.0293,-0.1161,-1.716630598107809,0.0,2.6612138748168945,-1.8477431535720825,-0.0,1.9962306022644043,4.923673617630758,0.0,0.2974207401275635,-1.6521466414081019,0.0,0.008662119507789612,0.7880759239196777,0.0,0.015977490693330765,0.7799239158630371,0.0,0.019801169633865356
411.0,653.0,0.9027,0.7555,9.39,-0.0394,0.0293,-0.1161,-1.716630598107809,0.0,2.61574387550354,-1.8477271795272827,-0.0,2.0351321697235107,4.9236575839813135,0.0,0.2822222411632538,-1.6521828810321253,0.0,-0.002093367511406541,0.7881562113761902,0.0,-0.0027197692543268204,0.7799033522605896,0.0,0.03436727449297905
411.0,653.0,0.9027,0.7555,9.39,-0.0394,0.0293,-0.1161,-1.7166058025755824,0.0,2.6270182132720947,-1.8477072715759277,-0.0,2.044121503829956,4.923653620272436,0.0,0.2929026782512665,-1.6521661917315882,0.0,-0.008140092715620995,0.788127601146698,0.0,0.005044819321483374,0.7798956632614136,0.0,-0.00920623354613781
411.0,653.0,0.9027,0.7555,9.39,-0.0394,0.0293,-0.1161,-1.716642519036764,0.0,2.6620712280273438,-1.8476710319519043,-0.0,2.0050387382507324,4.923637631326475,0.0,0.2839464843273163,-1.6521785894977015,0.0,0.018093256279826164,0.7881157398223877,0.0,-0.003991369158029556,0.7798832654953003,0.0,-0.04081723093986511
411.0,653.0,0.9027,0.7555,9.39,-0.0394,0.0293,-0.1161,-1.716642519036764,0.0,2.6396656036376953,-1.8477193117141724,-0.0,2.0277042388916016,4.923693376570501,0.0,0.29142501950263977,-1.6521499792682093,0.0,-0.011811600998044014,0.7880676984786987,0.0,0.005045806989073753,0.7799116373062134,0.0,0.03965708613395691
407.0,610.0,0.8788,0.7202,9.5007,-0.0444,0.0276,-0.1191,-1.716658731500143,0.0,2.642942428588867,-1.8476190567016602,-0.0,2.025937557220459,4.923705684929647,0.0,0.28846117854118347,-1.6521261374102991,0.0,0.000349175650626421,0.7881317734718323,0.0,-0.015254341065883636,0.7799277901649475,0.0,0.026843030005693436
407.0,610.0,0.8788,0.7202,9.5007,-0.0444,0.0276,-0.1191,-1.7166506252684535,0.0,2.614731788635254,-1.8477152585983276,-0.0,2.069546937942505,4.923693376570501,0.0,0.29236891865730286,-1.652142349873678,0.0,0.01572631485760212,0.7880957126617432,0.0,-0.004684540443122387,0.7799075245857239,0.0,-0.005827179178595543
407.0,610.0,0.8788,0.7202,9.5007,-0.0444,0.0276,-0.1191,-1.7166468105711878,0.0,2.659010648727417,-1.8477791547775269,-0.0,2.0179214477539062,4.923649462848463,0.0,0.28574299812316895,-1.652170483266012,0.0,-0.0003991981502622366,0.7880557775497437,0.0,-0.013621065765619278,0.7798795104026794,0.0,0.014704456552863121
407.0,610.0,0.8788,0.7202,9.5007,-0.0444,0.0276,-0.1191,-1.716626306573385,0.0,2.6638400554656982,-1.8476909399032593,-0.0,2.0704169273376465,4.923641639738836,0.0,0.286966472864151,-1.652182404194967,0.0,-0.011567500419914722,0.7881276607513428,0.0,-0.007775931619107723,0.7799195051193237,0.0,-0.02005460485816002
407.0,610.0,0.8788,0.7202,9.5007,-0.0444,0.0276,-0.1191,-1.716654439965719,0.0,2.6488728523254395,-1.8477152585983276,-0.0,1.9982489347457886,4.923705625325002,0.0,0.2942753732204437,-1.652142349873678,0.0,0.009335476905107498,0.7881399393081665,0.0,0.004886070266366005,0.7799033522605896,0.0,0.02398707903921604
407.0,610.0,0.8788,0.7202,9.5007,-0.0444,0.0276,-0.1191,-1.7166058025755824,0.0,2.68874454498291,-1.8477392196655273,-0.0,1.995928406715393,4.923721703677931,0.0,0.28203922510147095,-1.6521299521075647,0.0,0.0009864678140729666,0.7881076335906982,0.0,-0.0019104634411633015,0.7799075245857239,0.0,-0.027546506375074387
407.0,610.0,0.8788,0.7202,9.5007,-0.0444,0.0276,-0.1191,-1.7166668377318324,0.0,2.7071447372436523,-1.8476710319519043,-0.0,2.0348715782165527,4.923661696701803,0.0,0.2864680290222168,-1.6521580854998987,0.0,0.003108125412836671,0.788151741027832,0.0,-0.0049321395345032215,0.7799075841903687,0.0,-0.028492122888565063
407.0,610.0,0.8788,0.7202,9.5007,-0.0444,0.0276,-0.1191,-1.716630598107809,0.0,2.6689510345458984,-1.8476669788360596,-0.0,2.041045665740967,4.923677700548925,0.0,0.28852203488349915,-1.6521580854998987,0.0,-0.0007016921299509704,0.7881079316139221,0.0,-0.006188965402543545,0.7799277901649475,0.0,0.003927810117602348
407.0,610.0,0.8788,0.7202,9.5007,-0.0444,0.0276,-0.1191,-1.7166058025755824,0.0,2.677086114883423,-1.847691535949707,-0.0,2.057865619659424,4.9236899493034265,0.0,0.27811017632484436,-1.6521661917315882,0.0,-0.004883393179625273,0.7881603240966797,0.0,0.009547529742121696,0.7799639105796814,0.0,0.03144875541329384
407.0,610.0,0.8788,0.7202,9.5007,-0.0444,0.0276,-0.1191,-1.7166382275023402,0.0,2.655928134918213,-1.8477156162261963,-0.0,2.090362071990967,4.923633414297857,0.0,0.29453325271606445,-1.6521580854998987,0.0,-0.004257760941982269,0.7880799770355225,0.0,-0.005296363495290279,0.7799078822135925,0.0,0.02260623499751091
407.0,610.0,0.8788,0.7202,9.5007,-0.0444,0.0276,-0.1191,-1.716626306573385,0.0,2.6705920696258545,-1.847703218460083,-0.0,2.01572847366333,4.92369336166934,0.0,0.29844775795936584,-1.6521466414081019,0.0,0.0003866952029056847,0.7881119847297668,0.0,0.00711567047983408,0.7799277901649475,0.0,-0.04099811241030693
407.0,610.0,0.8788,0.7202,9.5007,-0.0444,0.0276,-0.1191,-1.716642519036764,0.0,2.645028591156006,-1.8477152585983276,-0.0,2.051332473754883,4.923653903394499,0.0,0.27723824977874756,-1.652142349873678,0.0,0.005299335345625877,0.788123607635498,0.0,-0.009691569022834301,0.7799075245857239,0.0,-0.009383152239024639
419.0,628.0,0.8112,0.6879,9.5474,-0.0386,0.0281,-0.1164,-1.7166301212706507,0.0,2.631835460662842,-1.8476948738098145,-0.0,2.029494524002075,4.923645692854681,0.0,0.28653231263160706,-1.652153793965475,0.0,0.00221630884334445,0.7880759239196777,0.0,0.0040631284937262535,0.7798956632614136,0.0,-0.01750893145799637
419.0,628.0,0.8112,0.6879,9.5474,-0.0386,0.0281,-0.1164,-1.7166182003416957,0.0,2.6698989868164062,-1.8476629257202148,-0.0,1.9672425985336304,4.92366577961997,0.0,0.285122811794281,-1.6521661917315882,0.0,0.0026629173662513494,0.7880957126617432,0.0,0.005955756641924381,0.779960036277771,0.0,0.01534220576286316
419.0,628.0,0.8112,0.6879,9.5474,-0.0386,0.0281,-0.1164,-1.7166139088072718,0.0,2.6776888370513916,-1.847727656364441,-0.0,1.959191083908081,4.923653620272436,0.0,0.28340622782707214,-1.6522224585162562,0.0,-0.0006627334514632821,0.7881037592887878,0.0,-0.00124399084597826,0.7799195051193237,0.0,-0.05452386662364006
419.0,628.0,0.8112,0.6879,9.5474,-0.0386,0.0281,-0.1164,-1.716658731500143,0.0,2.6148040294647217,-1.8477072715759277,-0.0,1.9845902919769287,4.923653635173597,0.0,0.29186299443244934,-1.6521661917315882,0.0,0.0006546780350618064,0.7881157398223877,0.0,-0.007150364574044943,0.7799038290977478,0.0,-0.006297306157648563
419.0,628.0,0.8112,0.6879,9.5474,-0.0386,0.0281,-0.1164,-1.716626306573385,0.0,2.626769542694092,-1.847654938697815,-0.0,2.0570011138916016,4.923681172519483,0.0,0.2913861870765686,-1.6521218458758753,0.0,-0.0046323505230247974,0.7881520390510559,0.0,-0.012142110615968704,0.7798956036567688,0.0,0.026797039434313774
419.0,628.0,0.8112,0.6879,9.5474,-0.0386,0.0281,-0.1164,-1.7166100941100062,0.0,2.6554598808288574,-1.8476669788360596,-0.0,2.0412724018096924,4.9236657349164865,0.0,0.2870505452156067,-1.652186695729391,0.0,0.010316800326108932,0.788103461265564,0.0,0.017001962289214134,0.779951810836792,0.0,-0.06367860734462738
419.0,628.0,0.8112,0.6879,9.5474,-0.0386,0.0281,-0.1164,-1.716630598107809,0.0,2.6266698837280273,-1.8476589918136597,-0.0,2.0598466396331787,4.923653620272436,0.0,0.2782871127128601,-1.6521385351764124,0.0,0.012891916558146477,0.7880874872207642,0.0,0.007475594989955425,0.7798956632614136,0.0,3.0999071896076202e-06
419.0,628.0,0.8112,0.6879,9.5474,-0.0386,0.0281,-0.1164,-1.7166668377318324,0.0,2.6240649223327637,-1.8477317094802856,-0.0,2.0597126483917236,4.923665764718809,0.0,0.28600984811782837,-1.6521785894977015,0.0,-0.0038341591134667397,0.7881399393081665,0.0,0.010461210273206234,0.7798511385917664,0.0,-0.006691240705549717
419.0,628.0,0.8112,0.6879,9.5474,-0.0386,0.0281,-0.1164,-1.7166620693602503,0.0,2.653560161590576,-1.8477072715759277,-0.0,2.0443003177642822,4.923649462848463,0.0,0.2844289243221283,-1.6521623770343226,0.0,-0.006450317334383726,0.7880800366401672,0.0,-0.0013014146825298667,0.7798675894737244,0.0,-0.005268794018775225
419.0,628.0,0.8112,0.6879,9.5474,-0.0386,0.0281,-0.1164,-1.7166100941100062,0.0,2.622119903564453,-1.8476754426956177,-0.0,2.005012273788452,4.923685955792227,0.0,0.29416173696517944,-1.6521499792682093,0.0,-0.0015610954724252224,0.7881439924240112,0.0,0.003357049310579896,0.7799195051193237,0.0,-0.010110260918736458
419.0,628.0,0.8112,0.6879,9.5474,-0.0386,0.0281,-0.1164,-1.7166301212706507,0.0,2.621971607208252,-1.8476948738098145,-0.0,2.0594255924224854,4.923733892827787,0.0,0.2861020267009735,-1.652153793965475,0.0,-0.0010385827627032995,0.7881119847297668,0.0,-0.007720339111983776,0.7798956632614136,0.0,-0.019128359854221344
419.0,628.0,0.8112,0.6879,9.5474,-0.0386,0.0281,-0.1164,-1.7166182003416957,0.0,2.7039082050323486,-1.8476793766021729,-0.0,2.039299488067627,4.923649790674009,0.0,0.27944833040237427,-1.652198616658346,0.0,-0.008013366721570492,0.7881439924240112,0.0,0.003489788854494691,0.7799195051193237,0.0,-0.026044633239507675
419.0,628.0,0.8112,0.6879,9.5474,-0.0386,0.0281,-0.1164,-1.7166954479613246,0.0,2.6455421447753906,-1.847643494606018,-0.0,2.0115373134613037,4.923685344844618,0.0,0.28963619470596313,-1.6521623770343226,0.0,-0.0010325319599360228,0.788123607635498,0.0,-0.003777289530262351,0.7799481153488159,0.0,0.002436751499772072
399.0,649.0,0.862,0.728,9.5181,-0.0357,0.0267,-0.1188,-1.716626306573385,0.0,2.6609606742858887,-1.8477113246917725,-0.0,2.0139565467834473,4.923697459488668,0.0,0.29414448142051697,-1.6521342436419886,0.0,-0.0049113929271698,0.788111686706543,0.0,-0.004556065890938044,0.7798997163772583,0.0,0.0015881084837019444
399.0,649.0,0.862,0.728,9.5181,-0.0357,0.0267,-0.1188,-1.7166182003416957,0.0,2.6620683670043945,-1.8476710319519043,-0.0,2.0363333225250244,4.923709678440847,0.0,0.2984953820705414,-1.6521385351764124,0.0,0.008552782237529755,0.7881079316139221,0.0,-0.00580618716776371,0.7799440622329712,0.0,-0.04142310470342636
399.0,649.0,0.862,0.728,9.5181,-0.0357,0.0267,-0.1188,-1.7166625461974085,0.0,2.667771100997925,-1.847702980041504,-0.0,2.027897834777832,4.923637646227636,0.0,0.30336007475852966,-1.6521785894977015,0.0,0.0048864115960896015,0.7880916595458984,0.0,-0.018338680267333984,0.7799195051193237,0.0,0.017570769414305687
399.0,649.0,0.862,0.728,9.5181,-0.0357,0.0267,-0.1188,-1.716630598107809,0.0,2.6824021339416504,-1.8476948738098145,-0.0,1.9967714548110962,4.923673602729597,0.0,0.2932325601577759,-1.6521261374102991,0.0,-0.001006891019642353,0.7880357503890991,0.0,-0.0038301367312669754,0.7799116373062134,0.0,0.012369547039270401
399.0,649.0,0.862,0.728,9.5181,-0.0357,0.0267,-0.1188,-1.7166100941100062,0.0,2.605861186981201,-1.847751259803772,-0.0,2.000521421432495,4.9237016318138025,0.0,0.2821703255176544,-1.6521299521075647,0.0,-0.006205692421644926,0.7881276607513428,0.0,-0.006679769605398178,0.7799075245857239,0.0,0.03347562253475189
399.0,649.0,0.862,0.728,9.5181,-0.0357,0.0267,-0.1188,-1.7166625461974085,0.0,2.66485595703125,-1.847691535949707,-0.0,2.072012424468994,4.923653977900305,0.0,0.29539954662323,-1.6521580854998987,0.0,0.006318253930658102,0.7881078720092773,0.0,-0.003448010189458728,0.7798792123794556,0.0,-0.04141655191779137
399.0,649.0,0.862,0.728,9.5181,-0.0357,0.0267,-0.1188,-1.7166100941100062,0.0,2.6525611877441406,-1.8476353883743286,-0.0,1.994276762008667,4.923697370081701,0.0,0.2895759344100952,-1.6520941893206995,0.0,0.0012098500737920403,0.7881560921669006,0.0,0.003936167806386948,0.7799440622329712,0.0,0.005802250932902098
399.0,649.0,0.862,0.728,9.5181,-0.0357,0.0267,-0.1188,-1.7166224918761195,0.0,2.6509203910827637,-1.8476669788360596,-0.0,2.015316963195801,4.923665794521131,0.0,0.28619110584259033,-1.6521905104266565,0.0,-0.0003945990465581417,0.7880997657775879,0.0,-0.007668486330658197,0.7798914909362793,0.0,-0.015064241364598274
399.0,649.0,0.862,0.728,9.5181,-0.0357,0.0267,-0.1188,-1.7166701755919398,0.0,2.684417724609375,-1.8477113246917725,-0.0,2.027590274810791,4.92366577961997,0.0,0.30588164925575256,-1.6522424856769007,0.0,-0.003436759114265442,0.7881357073783875,0.0,-0.002128203632310033,0.7798634767532349,0.0,0.013812609948217869
399.0,649.0,0.862,0.728,9.5181,-0.0357,0.0267,-0.1188,-1.7166506252684535,0.0,2.6351633071899414,-1.8476710319519043,-0.0,2.0513534545898438,4.923725682287969,0.0,0.29150623083114624,-1.6522191206561487,0.0,0.006202592048794031,0.7880759835243225,0.0,-0.002906584646552801,0.7798873782157898,0.0,-0.023264970630407333
399.0,649.0,0.862,0.728,9.5181,-0.0357,0.0267,-0.1188,-1.716703554193014,0.0,2.6866049766540527,-1.847703218460083,-0.0,2.058579683303833,4.923649447947302,0.0,0.29223546385765076,-1.652170483266012,0.0,-0.0006293419282883406,0.7881679534912109,0.0,0.0003851582296192646,0.7799518704414368,0.0,-5.653593689203262e-05
399.0,649.0,0.862,0.728,9.5181,-0.0357,0.0267,-0.1188,-1.7166744671263636,0.0,2.671523094177246,-1.8476669788360596,-0.0,2.0229430198669434,4.923649790674009,0.0,0.28274065256118774,-1.652182404194967,0.0,-0.001349870814010501,0.7881357073783875,0.0,-0.00641970569267869,0.779944121837616,0.0,0.02946787327528
399.0,649.0,0.862,0.728,9.5181,-0.0357,0.0267,-0.1188,-1.7166139088072718,0.0,2.6177518367767334,-1.847671389579773,-0.0,2.0169014930725098,4.923693346768179,0.0,0.2863166928291321,-1.6521180311786097,0.0,0.0007471665740013123,0.788084089756012,0.0,-0.013808872550725937,0.7799680829048157,0.0,0.0038498518988490105
400.0,642.0,0.8734,0.7035,9.5007,-0.0324,0.0312,-0.124,-1.7166501484312953,0.0,2.6454765796661377,-1.847702980041504,-0.0,2.0241150856018066,4.923661711602964,0.0,0.2986754775047302,-1.6522024313556116,0.0,-0.005601318087428808,0.788071870803833,0.0,0.004796681925654411,0.7798956632614136,0.0,0.012791268527507782
400.0,642.0,0.8734,0.7035,9.5007,-0.0324,0.0312,-0.124,-1.7166468105711878,0.0,2.685579538345337,-1.8476988077163696,-0.0,2.016211748123169,4.923697459488668,0.0,0.307900071144104,-1.6522024313556116,0.0,-0.011906212195754051,0.7880678176879883,0.0,-0.002070253947749734,0.7798835039138794,0.0,-0.01211732067167759
400.0,642.0,0.8734,0.7035,9.5007,-0.0324,0.0312,-0.124,-1.7166468105711878,0.0,2.6357169151306152,-1.8476834297180176,-0.0,2.063648223876953,4.923673632531919,0.0,0.2839134931564331,-1.6521828810321253,0.0,0.0010491064749658108,0.7880997657775879,0.0,0.004503303207457066,0.7798712849617004,0.0,-0.009676486253738403
400.0,642.0,0.8734,0.7035,9.5007,-0.0324,0.0312,-0.124,-1.7166625461974085,0.0,2.6505725383758545,-1.8476827144622803,-0.0,2.021819591522217,4.923645752459326,0.0,0.2956940233707428,-1.6521828810321253,0.0,-0.0035954329650849104,0.7880957722663879,0.0,-0.0039332290180027485,0.7799116373062134,0.0,-0.047948889434337616
400.0,642.0,0.8734,0.7035,9.5007,-0.0324,0.0312,-0.124,-1.7166668377318324,0.0,2.657197952270508,-1.8477357625961304,-0.0,2.0442304611206055,4.923657628684797,0.0,0.2975655496120453,-1.6521661917315882,0.0,0.00011514063226059079,0.7881194949150085,0.0,-0.004849047400057316,0.7799318432807922,0.0,0.011500783264636993
400.0,642.0,0.8734,0.7035,9.5007,-0.0324,0.0312,-0.124,-1.716642519036764,0.0,2.655817985534668,-1.8476794958114624,-0.0,2.0453763008117676,4.923681768565931,0.0,0.30032849311828613,-1.6521747748004358,0.0,-0.0012670462019741535,0.7880997657775879,0.0,-0.0055405255407094955,0.7799116373062134,0.0,-0.00964907743036747
400.0,642.0,0.8734,0.7035,9.5007,-0.0324,0.0312,-0.124,-1.716654439965719,0.0,2.653923988342285,-1.847727656364441,-0.0,2.0547590255737305,4.923661696701803,0.0,0.29536172747612,-1.6521905104266565,0.0,0.015572860836982727,0.788111686706543,0.0,-0.009238870814442635,0.7799075245857239,0.0,-0.0029206322506070137
400.0,642.0,0.8734,0.7035,9.5007,-0.0324,0.0312,-0.124,-1.7166224918761195,0.0,2.6704108715057373,-1.8476629257202148,-0.0,1.988114833831787,4.923653620272436,0.0,0.30159521102905273,-1.6521623770343226,0.0,-0.010093752294778824,0.7880518436431885,0.0,-0.0042688846588134766,0.779887318611145,0.0,-0.015382117591798306
400.0,642.0,0.8734,0.7035,9.5007,-0.0324,0.0312,-0.124,-1.7166911564269007,0.0,2.651165723800659,-1.8476508855819702,-0.0,2.003206253051758,4.923673617630758,0.0,0.29446035623550415,-1.652170483266012,0.0,0.006756190676242113,0.7881398797035217,0.0,-0.0017371965805068612,0.7799400091171265,0.0,0.043589286506175995
400.0,642.0,0.8734,0.7035,9.5007,-0.0324,0.0312,-0.124,-1.7165938816466273,0.0,2.6671299934387207,-1.8476790189743042,-0.0,2.0270519256591797,4.923721614270963,0.0,0.29078876972198486,-1.6521785894977015,0.0,0.011394298635423183,0.788179874420166,0.0,-0.01494942419230938,0.7799277901649475,0.0,0.0025978698395192623
400.0,642.0,0.8734,0.7035,9.5007,-0.0324,0.0312,-0.124,-1.7166506252684535,0.0,2.652001142501831,-1.8477357625961304,-0.0,1.9956629276275635,4.923658016114988,0.0,0.30491793155670166,-1.652142349873678,0.0,0.005817758850753307,0.7881558537483215,0.0,0.004403471946716309,0.779923677444458,0.0,-0.03417002037167549
400.0,642.0,0.8734,0.7035,9.5007,-0.0324,0.0312,-0.124,-1.7166549168028773,0.0,2.6626663208007812,-1.8477152585983276,-0.0,2.046992063522339,4.923633459001341,0.0,0.3024371266365051,-1.6521299521075647,0.0,-0.005055464804172516,0.788123607635498,0.0,-0.006548975594341755,0.7799477577209473,0.0,0.03127489238977432
402.0,631.0,0.8835,0.7178,9.4032,-0.0331,0.0174,-0.1179,-1.716658731500143,0.0,2.642958641052246,-1.847715139389038,-0.0,2.0339667797088623,4.923697444587507,0.0,0.3049851357936859,-1.6521828810321253,0.0,-0.009175370447337627,0.7881036996841431,0.0,0.00872883666306734,0.7799318432807922,0.0,0.037274401634931564
402.0,631.0,0.8835,0.7178,9.4032,-0.0331,0.0174,-0.1179,-1.7166100941100062,0.0,2.6501822471618652,-1.8477113246917725,-0.0,2.0518805980682373,4.923721658974447,0.0,0.29074549674987793,-1.6521466414081019,0.0,0.013299655169248581,0.788111686706543,0.0,-0.0007781231543049216,0.7799317836761475,0.0,-0.014630613848567009
402.0,631.0,0.8835,0.7178,9.4032,-0.0331,0.0174,-0.1179,-1.7166344128050746,0.0,2.6579172611236572,-1.8476754426956177,-0.0,2.0251359939575195,4.923669639020719,0.0,0.2894478142261505,-1.6521299521075647,0.0,0.004012709017843008,0.7880597710609436,0.0,-0.0009355944348499179,0.779956042766571,0.0,-0.013217118568718433
402.0,631.0,0.8835,0.7178,9.4032,-0.0331,0.0174,-0.1179,-1.716642519036764,0.0,2.6326920986175537,-1.8477072715759277,-0.0,2.004903554916382,4.923669922142782,0.0,0.27328839898109436,-1.6521509329425257,0.0,0.0029404908418655396,0.7880880832672119,0.0,-0.016641555353999138,0.7799441814422607,0.0,0.01882978156208992
402.0,631.0,0.8835,0.7178,9.4032,-0.0331,0.0174,-0.1179,-1.7166139088072718,0.0,2.6665430068969727,-1.8476908206939697,-0.0,2.065545082092285,4.923633459001341,0.0,0.3008102774620056,-1.6521499792682093,0.0,-0.002733789151534438,0.7880997657775879,0.0,-0.0002779357600957155,0.7799522876739502,0.0,-0.0018636556342244148
402.0,631.0,0.8835,0.7178,9.4032,-0.0331,0.0174,-0.1179,-1.7165981731810511,0.0,2.661862373352051,-1.8477237224578857,-0.0,2.0294432640075684,4.923685925989904,0.0,0.29923194646835327,-1.652170483266012,0.0,0.00801266822963953,0.7881035208702087,0.0,-0.0063964989967644215,0.779944121837616,0.0,0.006931738927960396
402.0,631.0,0.8835,0.7178,9.4032,-0.0331,0.0174,-0.1179,-1.7166348896422328,0.0,2.6475934982299805,-1.8477072715759277,-0.0,2.0285823345184326,4.9236657349164865,0.0,0.28310519456863403,-1.6521299521075647,0.0,-0.00046436971751973033,0.7881157398223877,0.0,-0.02170335128903389,0.7798795104026794,0.0,0.05789058655500412
402.0,631.0,0.8835,0.7178,9.4032,-0.0331,0.0174,-0.1179,-1.716658731500143,0.0,2.6873979568481445,-1.8477153778076172,-0.0,2.0551366806030273,4.9236293760831735,0.0,0.29760438203811646,-1.6521466414081019,0.0,-0.019185427576303482,0.7880875468254089,0.0,-0.005251644179224968,0.7799318432807922,0.0,0.012163507752120495
402.0,631.0,0.8835,0.7178,9.4032,-0.0331,0.0174,-0.1179,-1.7166224918761195,0.0,2.6360654830932617,-1.8476669788360596,-0.0,2.0267457962036133,4.923657613783636,0.0,0.2807666063308716,-1.6521342436419886,0.0,0.0017315889708697796,0.7881196737289429,0.0,0.0010637762024998665,0.779944121837616,0.0,-0.026617368683218956
402.0,631.0,0.8835,0.7178,9.4032,-0.0331,0.0174,-0.1179,-1.7166139088072718,0.0,2.6658589839935303,-1.8476793766021729,-0.0,2.087625503540039,4.923629420786657,0.0,0.2849079370498657,-1.6521948019610804,0.0,-0.006854195613414049,0.7880921363830566,0.0,-0.002537969034165144,0.7799116373062134,0.0,0.03528038039803505
402.0,631.0,0.8835,0.7178,9.4032,-0.0331,0.0174,-0.1179,-1.716658731500143,0.0,2.65858793258667,-1.8476874828338623,-0.0,2.048740863800049,4.923637631326475,0.0,0.2946578860282898,-1.6521828810321253,0.0,-0.002662921790033579,0.7880678772926331,0.0,0.006286162883043289,0.7799400091171265,0.0,0.008993854746222496
402.0,631.0,0.8835,0.7178,9.4032,-0.0331,0.0174,-0.1179,-1.7166058025755824,0.0,2.630311965942383,-1.847743272781372,-0.0,2.001229763031006,4.923669564514913,0.0,0.2873326241970062,-1.652170483266012,0.0,-0.009227094240486622,0.7881355881690979,0.0,0.004603869281709194,0.7799277901649475,0.0,0.03200238198041916
402.0,631.0,0.8835,0.7178,9.4032,-0.0331,0.0174,-0.1179,-1.716682573358053,0.0,2.652662754058838,-1.847727656364441,-0.0,2.017284631729126,4.923677700548925,0.0,0.29450273513793945,-1.6521905104266565,0.0,-0.00800340250134468,0.7880957126617432,0.0,-0.014302249066531658,0.779923677444458,0.0,0.04300188273191452
411.0,656.0,0.9081,0.734,9.4516,-0.0315,0.0218,-0.1124,-1.7166224918761195,0.0,2.6294217109680176,-1.8477113246917725,-0.0,2.0504252910614014,4.923693391471662,0.0,0.293637216091156,-1.6521099249469202,0.0,0.002908098278567195,0.7880997657775879,0.0,-0.004984742496162653,0.7799601554870605,0.0,-0.0421183742582798
411.0,656.0,0.9081,0.734,9.4516,-0.0315,0.0218,-0.1124,-1.716670652429098,0.0,2.673738479614258,-1.847719430923462,-0.0,2.0746898651123047,4.923637586622991,0.0,0.2963092029094696,-1.6521499792682093,0.0,-0.004646854475140572,0.7881196737289429,0.0,0.0001568525331094861,0.7799400091171265,0.0,-0.006787410005927086
411.0,656.0,0.9081,0.734,9.4516,-0.0315,0.0218,-0.1124,-1.7166224918761195,0.0,2.636518955230713,-1.8476589918136597,-0.0,2.004887104034424,4.923673617630758,0.0,0.2982200086116791,-1.6521466414081019,0.0,0.011911165900528431,0.7880957126617432,0.0,-0.0038784865755587816,0.7799277901649475,0.0,0.0015219009947031736
411.0,656.0,0.9081,0.734,9.4516,-0.0315,0.0218,-0.1124,-1.716642519036764,0.0,2.652599334716797,-1.847719430923462,-0.0,2.0102572441101074,4.923629390984335,0.0,0.2911919355392456,-1.6521466414081019,0.0,-0.007291107438504696,0.7881559729576111,0.0,-0.006353107746690512,0.7799277901649475,0.0,-0.05381735414266586
411.0,656.0,0.9081,0.734,9.4516,-0.0315,0.0218,-0.1124,-1.7166348896422328,0.0,2.650935173034668,-1.847719430923462,-0.0,2.016907215118408,4.923633473902502,0.0,0.29189133644104004,-1.652153793965475,0.0,0.00676457304507494,0.7881076335906982,0.0,0.0034625702537596226,0.7799844741821289,0.0,-0.06073060631752014
411.0,656.0,0.9081,0.734,9.4516,-0.0315,0.0218,-0.1124,-1.7166224918761195,0.0,2.6378650665283203,-1.8476908206939697,-0.0,2.045295000076294,4.923661681800642,0.0,0.28942012786865234,-1.6521466414081019,0.0,0.012856194749474525,0.7880997657775879,0.0,-0.003870757296681404,0.779944121837616,0.0,0.01650477573275566
411.0,656.0,0.9081,0.734,9.4516,-0.0315,0.0218,-0.1124,-1.7166344128050746,0.0,2.6843056678771973,-1.847727656364441,-0.0,2.0438621044158936,4.923665436893263,0.0,0.292611300945282,-1.6521905104266565,0.0,-0.0070243701338768005,0.7880876064300537,0.0,-0.004486796446144581,0.7798791527748108,0.0,-0.005920853465795517
411.0,656.0,0.9081,0.734,9.4516,-0.0315,0.0218,-0.1124,-1.7166506252684535,0.0,2.636898994445801,-1.8477152585983276,-0.0,2.010626792907715,4.923633533507147,0.0,0.29728758335113525,-1.6521948019610804,0.0,-0.0022969082929193974,0.7881518006324768,0.0,0.0015446993056684732,0.7798711657524109,0.0,-0.014755946584045887
411.0,656.0,0.9081,0.734,9.4516,-0.0315,0.0218,-0.1124,-1.7166382275023402,0.0,2.6747841835021973,-1.847703218460083,-0.0,2.082489490509033,4.923673617630758,0.0,0.28937986493110657,-1.6522029081927698,0.0,-0.0015426389873027802,0.7881035804748535,0.0,-0.005493707489222288,0.7799277901649475,0.0,-0.012346174567937851
411.0,656.0,0.9081,0.734,9.4516,-0.0315,0.0218,-0.1124,-1.7166224918761195,0.0,2.6440987586975098,-1.8476754426956177,-0.0,2.0739998817443848,4.923681768565931,0.0,0.2920868694782257,-1.6522024313556116,0.0,-0.001823992352001369,0.7881958484649658,0.0,0.00219708145596087,0.7799116373062134,0.0,-0.00461726076900959
411.0,656.0,0.9081,0.734,9.4516,-0.0315,0.0218,-0.1124,-1.7166100941100062,0.0,2.6112241744995117,-1.8476989269256592,-0.0,2.030907392501831,4.923641624837675,0.0,0.29195287823677063,-1.6521747748004358,0.0,-0.006798686925321817,0.7881355881690979,0.0,-0.005404307506978512,0.7799075245857239,0.0,-0.026596274226903915
411.0,656.0,0.9081,0.734,9.4516,-0.0315,0.0218,-0.1124,-1.7166100941100062,0.0,2.7128682136535645,-1.8477152585983276,-0.0,2.0421509742736816,4.923657628684797,0.0,0.28735291957855225,-1.652186695729391,0.0,-0.0023159028496593237,0.788131594657898,0.0,-0.0078062862157821655,0.7798753380775452,0.0,0.01329809706658125
411.0,656.0,0.9081,0.734,9.4516,-0.0315,0.0218,-0.1124,-1.7166139088072718,0.0,2.6302099227905273,-1.8477152585983276,-0.0,2.0384409427642822,4.923689278751173,0.0,0.2831520736217499,-1.6521948019610804,0.0,-0.015860997140407562,0.7881078124046326,0.0,0.0038003011140972376,0.7799318432807922,0.0,-0.05197954177856445
390.0,628.0,0.9535,0.7759,9.3972,-0.0339,0.0208,-0.1121,-1.7166506252684535,0.0,2.6383159160614014,-1.8476588726043701,-0.0,2.0310919284820557,4.923681768565931,0.0,0.3048029839992523,-1.6521661917315882,0.0,-0.0013503637164831161,0.7880719900131226,0.0,-0.005631820764392614,0.7798915505409241,0.0,-0.024708036333322525
390.0,628.0,0.9535,0.7759,9.3972,-0.0339,0.0208,-0.1121,-1.716630598107809,0.0,2.634056329727173,-1.8476948738098145,-0.0,2.0519890785217285,4.923673617630758,0.0,0.291949987411499,-1.652153793965475,0.0,-0.009056275710463524,0.7881316542625427,4.698017086468553e-09,-0.005871577654033899,0.7799642086029053,0.0,0.015866756439208984
390.0,628.0,0.9535,0.7759,9.3972,-0.0339,0.0208,-0.1121,-1.7166711292662562,0.0,2.679457187652588,-1.8476793766021729,-0.0,1.9906675815582275,4.923669624119558,0.0,0.2937716841697693,-1.6521261374102991,0.0,-0.0023988077882677317,0.7881156802177429,1.3077102335029567e-12,0.002809287281706929,0.7798914909362793,0.0,0.05652531608939171
390.0,628.0,0.9535,0.7759,9.3972,-0.0339,0.0208,-0.1121,-1.7166348896422328,0.0,2.651934862136841,-1.8477277755737305,-0.0,2.009173631668091,4.923693376570501,0.0,0.28840935230255127,-1.6521509329425257,0.0,0.0048785824328660965,0.788107693195343,2.376698680251457e-17,-0.011439446359872818,0.7798992395401001,0.0,-0.008575085550546646
390.0,628.0,0.9535,0.7759,9.3972,-0.0339,0.0208,-0.1121,-1.716654439965719,0.0,2.6469523906707764,-1.847675085067749,-0.0,2.034313201904297,4.923661696701803,0.0,0.28726518154144287,-1.652142349873678,0.0,-0.0017587038455531001,0.7881037592887878,6.615627364898592e-21,0.006048252806067467,0.779951810836792,0.0,0.01648496463894844
390.0,628.0,0.9535,0.7759,9.3972,-0.0339,0.0208,-0.1121,-1.716658731500143,0.0,2.6741819381713867,-1.8477152585983276,-0.0,2.0026988983154297,4.923665764718809,0.0,0.27953022718429565,-1.6521580854998987,0.0,-0.00418262742459774,0.7881156802177429,1.2023576328726438e-25,-0.005249722860753536,0.7798712253570557,0.0,0.03222764655947685
390.0,628.0,0.9535,0.7759,9.3972,-0.0339,0.0208,-0.1121,-1.716682573358053,0.0,2.7196741104125977,-1.8477072715759277,-0.0,2.037151336669922,4.923690008908071,0.0,0.2938973009586334,-1.6521580854998987,0.0,-0.0033688703551888466,0.788127601146698,3.3468064275707935e-29,-0.0033442953135818243,0.7799116373062134,0.0,-0.02929336205124855
390.0,628.0,0.9535,0.7759,9.3972,-0.0339,0.0208,-0.1121,-1.7166787586607875,0.0,2.6081082820892334,-1.847703218460083,-0.0,2.0064172744750977,4.923633414297857,0.0,0.2916131615638733,-1.6521905104266565,0.0,-0.00035086669959127903,0.788111686706543,6.082656129757391e-34,0.0065455655567348,0.7798835635185242,0.0,-0.012618408538401127
390.0,628.0,0.9535,0.7759,9.3972,-0.0339,0.0208,-0.1121,-1.7166787586607875,0.0,2.6923983097076416,-1.8477357625961304,-0.0,2.0525267124176025,4.923645692854681,0.0,0.3024987578392029,-1.6521342436419886,0.0,-0.004196698311716318,0.7880917191505432,1.693129407284912e-37,0.003349343780428171,0.7799277901649475,0.0,0.01504366286098957
390.0,628.0,0.9535,0.7759,9.3972,-0.0339,0.0208,-0.1121,-1.7166382275023402,0.0,2.623499631881714,-1.8476991653442383,-0.0,2.0262792110443115,4.923681768565931,0.0,0.2947901785373688,-1.6521623770343226,0.0,-0.002628631889820099,0.788127601146698,3.077251427657298e-42,0.005865538492798805,0.7799156904220581,0.0,0.0200718455016613
390.0,628.0,0.9535,0.7759,9.3972,-0.0339,0.0208,-0.1121,-1.716630598107809,0.0,2.656712532043457,-1.8476955890655518,-0.0,2.0310840606689453,4.923689308553495,0.0,0.28700143098831177,-1.6521623770343226,0.0,-0.006929132621735334,0.7880841493606567,0.0,-0.0004110389854758978,0.7798915505409241,0.0,0.026894548907876015
390.0,628.0,0.9535,0.7759,9.3972,-0.0339,0.0208,-0.1121,-1.716630598107809,0.0,2.6606709957122803,-1.8477152585983276,-0.0,2.041050434112549,4.923657598882475,0.0,0.2929580509662628,-1.6522067228900355,0.0,0.0036444005090743303,0.7881436347961426,0.0,0.0006590915145352483,0.7799559831619263,0.0,0.05607224255800247
413.0,655.0,0.8255,0.5372,9.4205,-0.0344,0.0276,-0.1205,-1.7166100941100062,0.0,2.665487289428711,-1.8476588726043701,-0.0,2.068833112716675,4.923657598882475,0.0,0.29911914467811584,-1.652142349873678,0.0,0.0018227770924568176,0.788111686706543,0.0,-0.0029841712675988674,0.7799116373062134,0.0,0.03247822821140289
413.0,655.0,0.8255,0.5372,9.4205,-0.0344,0.0276,-0.1205,-1.7166348896422328,0.0,2.668365240097046,-1.8476827144622803,-0.0,2.012678861618042,4.923677700548925,0.0,0.3136405348777771,-1.6521747748004358,0.0,0.012332386337220669,0.7880761027336121,0.0,0.0029203249141573906,0.7799156904220581,0.0,0.03570275381207466
413.0,655.0,0.8255,0.5372,9.4205,-0.0344,0.0276,-0.1205,-1.716642519036764,0.0,2.6808061599731445,-1.847702980041504,-0.0,2.011568546295166,4.923645692854681,0.0,0.29353949427604675,-1.652153793965475,0.0,-0.003144624177366495,0.7880801558494568,0.0,0.003503552870824933,0.7798753380775452,0.0,0.009080733172595501
413.0,655.0,0.8255,0.5372,9.4205,-0.0344,0.0276,-0.1205,-1.7166224918761195,0.0,2.652479887008667,-1.8476793766021729,-0.0,2.024602174758911,4.9236934063728235,0.0,0.29359808564186096,-1.6521385351764124,0.0,0.00526159442961216,0.7881557941436768,0.0,0.0007733380771242082,0.7799642086029053,0.0,0.0027160290628671646
413.0,655.0,0.8255,0.5372,9.4205,-0.0344,0.0276,-0.1205,-1.7165895901122035,0.0,2.638643741607666,-1.8476908206939697,-0.0,2.0109174251556396,4.923661666899481,0.0,0.2953263521194458,-1.652170483266012,0.0,-0.007360890973359346,0.7881518602371216,0.0,0.010142293758690357,0.7799198627471924,0.0,0.001926308497786522
413.0,655.0,0.8255,0.5372,9.4205,-0.0344,0.0276,-0.1205,-1.716626306573385,0.0,2.6030147075653076,-1.847719430923462,-0.0,2.033104658126831,4.923645692854681,0.0,0.29515865445137024,-1.6521499792682093,0.0,0.0006353957578539848,0.7881478667259216,0.0,-0.003256985917687416,0.779944121837616,0.0,0.014522815123200417
413.0,655.0,0.8255,0.5372,9.4205,-0.0344,0.0276,-0.1205,-1.7166668377318324,0.0,2.6450843811035156,-1.8477072715759277,-0.0,2.0516223907470703,4.92366540709094,0.0,0.2895592153072357,-1.652210537587301,0.0,-0.010668856091797352,0.7881637811660767,0.0,0.0012971574906259775,0.7799198031425476,0.0,0.003116380423307419
413.0,655.0,0.8255,0.5372,9.4205,-0.0344,0.0276,-0.1205,-1.716658731500143,0.0,2.65866756439209,-1.847719669342041,-0.0,2.0300049781799316,4.923677730351248,0.0,0.29492753744125366,-1.6521661917315882,0.0,2.2311927750706673e-05,0.7880761623382568,0.0,0.012640992179512978,0.7799075245857239,0.0,0.02114706300199032
413.0,655.0,0.8255,0.5372,9.4205,-0.0344,0.0276,-0.1205,-1.716658731500143,0.0,2.6251602172851562,-1.8476390838623047,-0.0,2.039666175842285,4.923677730351248,0.0,0.278248131275177,-1.6521385351764124,0.0,-0.000734250177629292,0.7881478667259216,0.0,-0.0009595560841262341,0.7799679636955261,0.0,-0.012810354121029377
413.0,655.0,0.8255,0.5372,9.4205,-0.0344,0.0276,-0.1205,-1.7166382275023402,0.0,2.683454990386963,-1.8477070331573486,-0.0,1.9881994724273682,4.923693346768179,0.0,0.29693901538848877,-1.6521499792682093,0.0,0.0026929606683552265,0.7881757020950317,0.0,-0.007637868169695139,0.7799400091171265,0.0,-0.002114048693329096
413.0,655.0,0.8255,0.5372,9.4205,-0.0344,0.0276,-0.1205,-1.7166224918761195,0.0,2.651109218597412,-1.8476868867874146,-0.0,2.0633344650268555,4.923673617630758,1.4877643650379468e-07,0.298970490694046,-1.6521742979632776,0.0,0.015481235459446907,0.7880921959877014,0.0,-0.003922588191926479,0.7799762487411499,0.0,-0.0338023379445076
413.0,655.0,0.8255,0.5372,9.4205,-0.0344,0.0276,-0.1205,-1.7166182003416957,0.0,2.6595206260681152,-1.8477113246917725,-0.0,1.9814136028289795,4.92366577961997,4.1412467205459436e-11,0.2944336533546448,-1.652186695729391,0.0,-0.010716026648879051,0.7880720496177673,0.0,0.00035901350202038884,0.7798915505409241,0.0,-0.03760458156466484
413.0,655.0,0.8255,0.5372,9.4205,-0.0344,0.0276,-0.1205,-1.7166625461974085,0.0,2.6284775733947754,-1.8477072715759277,-0.0,2.0441884994506836,4.923701661616125,7.526511364361874e-16,0.28006139397621155,-1.652154270802633,0.0,-0.0029054181650280952,0.7880558371543884,0.0,0.002881410298869014,0.7798672318458557,0.0,0.022831453010439873
395.0,604.0,0.9165,0.6562,9.4971,-0.0376,0.0252,-0.1081,-1.7166100941100062,0.0,2.6532955169677734,-1.847671389579773,-0.0,2.0241215229034424,4.9236822603042505,2.0950321321678482e-19,0.28486064076423645,-1.6521943251239222,0.0,0.0016785244224593043,0.7881398797035217,0.0,-0.0028707976453006268,0.7799400091171265,0.0,-0.005183307453989983
395.0,604.0,0.9165,0.6562,9.4971,-0.0376,0.0252,-0.1081,-1.7166382275023402,0.0,2.689962863922119,-1.847686767578125,-0.0,2.050872564315796,4.923665451794424,3.8076174137660565e-24,0.3071492314338684,-1.6521580854998987,0.0,0.0026717977598309517,0.7881195545196533,0.0,0.006038781721144915,0.7799033522605896,0.0,0.015567944385111332
395.0,604.0,0.9165,0.6562,9.4971,-0.0376,0.0252,-0.1081,-1.716642519036764,0.0,2.6512293815612793,-1.8476948738098145,-0.0,2.0041251182556152,4.923649775772848,1.0598643817820701e-27,0.2961900234222412,-1.6521623770343226,0.0,0.007279727607965469,0.7881317734718323,0.0,0.0027409782633185387,0.779988169670105,0.0,0.022669047117233276
395.0,604.0,0.9165,0.6562,9.4971,-0.0376,0.0252,-0.1081,-1.7166501484312953,0.0,2.657564640045166,-1.8476588726043701,-0.0,1.9945828914642334,4.9236334441001794,1.9262515890289796e-32,0.28047889471054077,-1.6521747748004358,0.0,-0.006232717074453831,0.7881757020950317,0.0,-0.0011514538200572133,0.7799400091171265,0.0,-0.011825686320662498
395.0,604.0,0.9165,0.6562,9.4971,-0.0376,0.0252,-0.1081,-1.7166139088072718,0.0,2.6765236854553223,-1.8476754426956177,-0.0,2.0091769695281982,4.923649775772848,3.5008677649545135e-37,0.28797224164009094,-1.6521948019610804,0.0,0.005294962786138058,0.7880599498748779,0.0,-0.007688324898481369,0.7799600958824158,0.0,0.04929836839437485
395.0,604.0,0.9165,0.6562,9.4971,-0.0376,0.0252,-0.1081,-1.7166344128050746,0.0,2.6500437259674072,-1.8476868867874146,-0.0,2.012617826461792,4.923653948097982,9.74476965076121e-41,0.30750948190689087,-1.6522024313556116,0.0,0.01758974976837635,0.7881355285644531,0.0,0.0009874450042843819,0.7799277901649475,0.0,0.01391688548028469
395.0,604.0,0.9165,0.6562,9.4971,-0.0376,0.0252,-0.1081,-1.716642519036764,0.0,2.6494741439819336,-1.847731113433838,-0.0,2.024479389190674,4.92366577961997,1.401298464324817e-45,0.28458285331726074,-1.6521747748004358,0.0,0.0003548618406057358,0.788131594657898,0.0,-0.006555398926138878,0.7799721956253052,0.0,-0.027156174182891846
395.0,604.0,0.9165,0.6562,9.4971,-0.0376,0.0252,-0.1081,-1.7166663608946742,0.0,2.6665024757385254,-1.847739815711975,-0.0,2.042665719985962,4.92361747005538,0.0,0.2962023913860321,-1.6521661917315882,0.0,0.0019278128165751696,0.788091778755188,0.0,0.0013874468859285116,0.7799559831619263,0.0,-0.02162395603954792
395.0,604.0,0.9165,0.6562,9.4971,-0.0376,0.0252,-0.1081,-1.7166911564269007,0.0,2.5890045166015625,-1.8477113246917725,-0.0,2.073253631591797,4.923662084131994,0.0,0.2979653477668762,-1.652210537587301,0.0,0.007407124619930983,0.7881835103034973,0.0,-0.008655796758830547,0.7799074649810791,0.0,-0.049961674958467484
395.0,604.0,0.9165,0.6562,9.4971,-0.0376,0.0252,-0.1081,-1.7166663608946742,0.0,2.6638567447662354,-1.847671389579773,-0.0,2.0347166061401367,4.923645797162809,0.0,0.2965063452720642,-1.6521580854998987,0.0,-0.005529656540602446,0.788123607635498,0.0,-0.009853493422269821,0.7799277901649475,0.0,0.008753826841711998
395.0,604.0,0.9165,0.6562,9.4971,-0.0376,0.0252,-0.1081,-1.7166949711241664,9.717819011711981e-07,2.6036376953125,-1.8476868867874146,-0.0,2.013375759124756,4.923613759666242,0.0,0.29972267150878906,-1.6521385351764124,5.935927305245059e-08,-0.019258897751569748,0.788123607635498,0.0,0.008287553675472736,0.7798997163772583,0.0,0.014435994438827038
395.0,604.0,0.9165,0.6562,9.4971,-0.0376,0.0252,-0.1081,-1.7167064152159632,2.346738905631418e-12,2.6776981353759766,-1.84766685962677,-0.0,2.026895523071289,4.923613789468565,-0.00047733657993376255,0.29876840114593506,-1.6521342436419886,1.6522871612578705e-11,0.008123070932924747,0.7881596088409424,0.0,0.005484350025653839,0.7799074649810791,0.0,-0.0005335131427273154
395.0,604.0,0.9165,0.6562,9.4971,-0.0376,0.0252,-0.1081,-1.716682573358053,-0.0007710500503890216,2.6323108673095703,-1.847727656364441,-0.0,1.972430944442749,4.923645871668615,-0.0012480008881539106,0.28725022077560425,-1.6521266142474573,3.0029501736982087e-16,-0.0038486369885504246,0.7881397008895874,0.0,9.121140465140343e-05,0.7799116373062134,0.0,-0.0234232060611248
407.0,621.0,0.8357,1.1503,9.3721,-0.0231,0.0009,-0.1292,-1.716726919213766,-0.00173560727853328,2.637829303741455,-1.8476827144622803,-0.0,2.073709726333618,4.9235937027032755,-0.0014037390938028693,0.28570738434791565,-1.6520980040179651,8.358822294796587e-20,-0.006926641333848238,0.7881277799606323,0.0,-0.007353672292083502,0.7798832654953003,0.0,0.018107445910573006
407.0,621.0,0.8357,1.1503,9.3721,-0.0231,0.0009,-0.1292,-1.7167426548399867,-0.003553772112354636,2.60490083694458,-1.8477113246917725,-0.0,2.0435726642608643,4.9235820946987054,-0.0009296128991991282,0.2904950976371765,-1.6521261374102991,1.51917442760117e-24,0.006196156609803438,0.7880996465682983,0.0,-0.0004769950173795223,0.7798914909362793,0.0,-0.04451391473412514
407.0,621.0,0.8357,1.1503,9.3721,-0.0231,0.0009,-0.1292,-1.7167746029295863,-0.005254871677607298,2.543168783187866,-1.8477556705474854,-0.0,2.011829137802124,4.923566090851583,-0.0007117260829545557,0.2920770049095154,-1.6521385351764124,4.228678193526042e-28,0.007535004056990147,0.7881357669830322,0.0,-0.0017056588549166918,0.7799033522605896,0.0,-0.032205305993556976
407.0,621.0,0.8357,1.1503,9.3721,-0.0231,0.0009,-0.1292,-1.7167984447874964,-0.008027536794543266,2.56695556640625,-1.8476793766021729,-0.0,2.0448012351989746,4.923550087004461,-0.0004969150759279728,0.2826138138771057,-1.6521261374102991,7.685412922402825e-33,-0.009617360308766365,0.7881438136100769,0.0,0.006174037232995033,0.7799518704414368,0.0,-0.04761800915002823
407.0,621.0,0.8357,1.1503,9.3721,-0.0231,0.0009,-0.1292,-1.7168752155699671,-0.00749304611235857,2.5913736820220947,-1.8476629257202148,-0.0,2.003602981567383,4.923590364843168,-0.00040177637129090726,0.27983638644218445,-1.652153793965475,2.1392628620833434e-36,0.0008184751495718956,0.7881357073783875,0.0,-0.005911701824516058,0.7799277901649475,0.0,-0.016146305948495865
407.0,621.0,0.8357,1.1503,9.3721,-0.0231,0.0009,-0.1292,-1.7169352970519007,-0.006073171738535166,2.6105666160583496,-1.8476951122283936,-0.0,2.0041563510894775,4.923566090851583,-0.00032008919515646994,0.2888050079345703,-1.6521871725665491,3.8880427191156374e-41,0.006231763865798712,0.788131594657898,0.0,-0.0001005812082439661,0.779923677444458,0.0,-0.01751178316771984
407.0,621.0,0.8357,1.1503,9.3721,-0.0231,0.0009,-0.1292,-1.7169467411436976,-0.005093290004879236,2.5974581241607666,-1.8477399349212646,-0.0,2.052492380142212,4.923574003368177,-0.0002777420450001955,0.3018999695777893,-1.6521580854998987,1.1210387714598537e-44,0.009727366268634796,0.7881516814231873,0.0,-0.013792137615382671,0.7799317836761475,0.0,-0.0251222662627697
407.0,621.0,0.8357,1.1503,9.3721,-0.0231,0.0009,-0.1292,-1.7169987163939417,-0.004825658164918423,2.599090814590454,-1.8476834297180176,-0.0,2.053145408630371,4.923593732505598,-0.00023609942581970245,0.288368821144104,-1.6521299521075647,0.0,-0.004881174769252539,0.7881155610084534,0.0,0.014969781041145325,0.7799798846244812,0.0,-0.04264938831329346
407.0,621.0,0.8357,1.1503,9.3721,-0.0231,0.0009,-0.1292,-1.7170874081053675,-0.004912812728434801,2.6277103424072266,-1.8477317094802856,-0.0,2.0647215843200684,4.923554169922628,-0.00021223491057753563,0.28928422927856445,-1.652170483266012,0.0,0.008118337020277977,0.7881636023521423,0.0,-0.0048362030647695065,0.7799477577209473,0.0,0.03759115934371948
407.0,621.0,0.8357,1.1503,9.3721,-0.0231,0.0009,-0.1292,-1.7171155414977015,-0.004796650726348162,2.607170581817627,-1.8477072715759277,-0.0,2.0333571434020996,4.92353783824996,-0.00018702955276239663,0.2801693379878998,-1.6521580854998987,0.0,0.0025104284286499023,0.7881035208702087,0.0,0.006763474550098181,0.7799516320228577,0.0,-0.026361024007201195
407.0,621.0,0.8357,1.1503,9.3721,-0.0231,0.0009,-0.1292,-1.7170788250365199,-0.003532596630975604,2.632363796234131,-1.8476874828338623,-0.0,2.0448577404022217,4.923618215113439,-0.0001789056695997715,0.29359444975852966,-1.6521785894977015,0.0,-0.012099500745534897,0.7881675958633423,0.0,0.014591244049370289,0.7799477577209473,0.0,0.0006869257194921374
407.0,621.0,0.8357,1.1503,9.3721,-0.0231,0.0009,-0.1292,-1.7171431980528773,-0.0027282736264169216,2.573176383972168,-1.8476474285125732,-0.0,2.055063486099243,4.9235903201396845,-0.00017696619033813477,0.2858251631259918,-1.6521261374102991,0.0,-0.01536607090383768,0.788171648979187,0.0,0.01177528128027916,0.7799601554870605,0.0,0.035173844546079636
423.0,662.0,0.8124,1.0391,9.3972,-0.0266,0.0263,-0.1177,-1.7171226940550746,-0.003158135339617729,2.565570831298828,-1.8477113246917725,-0.0,2.037369966506958,4.923530149250784,-0.00014290577382780612,0.27782201766967773,-1.6521061102496546,0.0,-0.007289158180356026,0.7881515622138977,0.0,0.01255633495748043,0.779919445514679,0.0,0.010249650105834007
423.0,662.0,0.8124,1.0391,9.3972,-0.0266,0.0263,-0.1177,-1.7171832523741664,-0.004248348996043205,2.607272148132324,-1.8476629257202148,-0.0,2.0100955963134766,4.923529657512464,-0.00041595130460336804,0.2790995240211487,-1.6521261374102991,0.0,0.002085129264742136,0.7881115674972534,0.0,0.013452067039906979,0.7798991799354553,0.0,0.039507217705249786
423.0,662.0,0.8124,1.0391,9.3972,-0.0266,0.0263,-0.1177,-1.7171908817686976,-0.005468721967190504,2.540256977081299,-1.8477473258972168,-0.0,2.0804190635681152,4.923534172564306,-0.0010969098657369614,0.2777344286441803,-1.652142349873678,0.0,0.00014166324399411678,0.7881556153297424,0.0,0.015447541140019894,0.7799358367919922,6.110426329541951e-05,-0.0022651636973023415
423.0,662.0,0.8124,1.0391,9.3972,-0.0266,0.0263,-0.1177,-1.7172957859435023,-0.0062042358331382275,2.579185962677002,-1.8477277755737305,-0.0,2.041745185852051,4.923578399210729,-0.001145492889918387,0.26422372460365295,-1.6521223227130335,0.0,-0.00732294749468565,0.7882235646247864,0.0,0.008496885187923908,0.7798951268196106,5.5457134294556454e-05,-0.054214902222156525
423.0,662.0,0.8124,1.0391,9.3972,-0.0266,0.0263,-0.1177,-1.7173315487303675,-0.007959380745887756,2.5396525859832764,-1.847686767578125,6.583425715689373e-08,2.097409248352051,4.923530089646139,-0.0013569891452789307,0.2668493986129761,-1.652114216481344,0.0,0.007747148163616657,0.7881715297698975,0.0,0.02740941196680069,0.779951810836792,3.314504283480346e-05,0.0003625611716415733
423.0,662.0,0.8124,1.0391,9.3972,-0.0266,0.0263,-0.1177,-1.7173711262144984,-0.009358605369925499,2.542203426361084,-1.8476948738098145,1.5898198556241194e-13,2.038440704345703,4.923530089646139,-0.0013583340914919972,0.26477327942848206,-1.6521104017840784,0.0,0.006450542714446783,0.7881674766540527,0.0,0.02023307792842388,0.7799477577209473,2.28093376790639e-05,-0.02417668327689171
423.0,662.0,0.8124,1.0391,9.3972,-0.0266,0.0263,-0.1177,-1.717447420159811,-0.010045751929283142,2.460794448852539,-1.8476791381835938,5.150813284689356e-21,2.0210072994232178,4.923530402570524,-0.001854020170867443,0.2541246712207794,-1.6521180311786097,0.0,0.01395534910261631,0.7882238030433655,0.0,0.009667551144957542,0.7799276113510132,2.0709856471512467e-05,-0.07021529227495193
423.0,662.0,0.8124,1.0391,9.3972,-0.0266,0.0263,-0.1177,-1.7175318203368128,-0.011494964361190796,2.497396230697632,-1.847699761390686,0.0003989501856267452,2.0705316066741943,4.923514085799017,-0.0024150253739207983,0.24439679086208344,-1.6521104017840784,0.0,0.028993207961320877,0.7881436347961426,0.0,0.023651771247386932,0.7799278497695923,1.9372509996173903e-05,-0.10971641540527344
423.0,662.0,0.8124,1.0391,9.3972,-0.0266,0.0263,-0.1177,-1.7176395855345667,-0.013307898305356503,2.4298171997070312,-1.8476471900939941,0.00048596650594845414,2.021780490875244,4.923502179771223,-0.00499550998210907,0.23927132785320282,-1.6521146933185022,5.454756319522858e-05,0.012264742515981197,0.7881916761398315,0.00012536891154013574,0.02032727748155594,0.7799518704414368,1.783678453648463e-05,-0.07310615479946136
423.0,662.0,0.8124,1.0391,9.3972,-0.0266,0.0263,-0.1177,-1.7177401981749476,-0.014863613061606884,2.458001136779785,-1.8476111888885498,0.0007947905105538666,2.040804862976074,4.923422577768125,-0.008085065521299839,0.24588340520858765,-1.6520784536944788,6.323970592347905e-05,0.013400009833276272,0.7881877422332764,0.00011581512808334082,0.028774458914995193,0.7798991799354553,1.683578739175573e-05,-0.09112600982189178
423.0,662.0,0.8124,1.0391,9.3972,-0.0266,0.0263,-0.1177,-1.7178722820677699,-0.016991356387734413,2.417314052581787,-1.8476957082748413,0.0007536314078606665,1.9995434284210205,4.923414501338758,-0.006735675502568483,0.23337505757808685,-1.6521185080157679,8.009685552679002e-05,0.04055844247341156,0.7881956696510315,0.0001246016618097201,0.025756828486919403,0.779919445514679,3.070190723519772e-05,-0.14033973217010498
423.0,662.0,0.8124,1.0391,9.3972,-0.0266,0.0263,-0.1177,-1.7179838619627894,-0.019352901726961136,2.3964076042175293,-1.8476552963256836,0.0006465307087637484,2.0295307636260986,4.923334437399664,-0.0029700209852308035,0.2366296947002411,-1.6520503203021448,6.715212634844647e-07,0.03553691506385803,0.7881956100463867,0.00011776122119044885,0.033075831830501556,0.7799757719039917,2.9773031201330014e-05,-0.11585226655006409
423.0,662.0,0.8124,1.0391,9.3972,-0.0266,0.0263,-0.1177,-1.7182289562621058,-0.02339722402393818,2.3642659187316895,-1.847590684890747,0.0005309648113325238,2.054943561553955,4.923374879151144,-0.0008253472624346614,0.23201948404312134,-1.6521428267108362,0.00034105489612556994,0.04830621927976608,0.7881717085838318,0.0001083129973267205,0.038483958691358566,0.7800202369689941,2.7925405447604135e-05,-0.15326304733753204
399.0,700.0,0.5581,0.6927,9.2447,-0.0367,-0.002,-0.121,-1.7183925114073695,-0.02745595946907997,2.391976833343506,-1.847607135772705,0.00046134128933772445,2.0517566204071045,4.923402863531866,-0.0006358824903145432,0.24436022341251373,-1.6520784536944788,0.00033428511233069,0.031288206577301025,0.7881916761398315,0.00010216523514827713,0.022527482360601425,0.779963493347168,4.0025195630732924e-05,-0.13100260496139526
399.0,700.0,0.5581,0.6927,9.2447,-0.0367,-0.002,-0.121,-1.7186657390990199,-0.032228022813797,2.362234592437744,-1.8476192951202393,0.0004630087350960821,1.9966368675231934,4.923322874098577,-0.0006405366584658623,0.21925321221351624,-1.6520584265338343,0.00031512006535194814,0.04355136305093765,0.7882595062255859,9.49774039327167e-05,0.03550589829683304,0.7799593806266785,5.0379738240735605e-05,-0.16894488036632538
399.0,700.0,0.5581,0.6927,9.2447,-0.0367,-0.002,-0.121,-1.718881746331686,-0.03726663812994957,2.360208749771118,-1.8476194143295288,0.0006624458474107087,2.057434558868408,4.923286366253652,-0.0026079497765749693,0.2163122594356537,-1.6520989576922815,0.00032260033185593784,0.04570566862821579,0.7881674766540527,0.00010518696217332035,0.029612379148602486,0.7799996733665466,3.78767799702473e-05,-0.23277373611927032
399.0,700.0,0.5581,0.6927,9.2447,-0.0367,-0.002,-0.121,-1.71917786220693,-0.04307107254862785,2.3148274421691895,-1.8475714921951294,0.0030795398633927107,2.054823398590088,4.9232909558113,-0.004415141884237528,0.23386752605438232,-1.652078930531637,0.0003030244552064687,0.05189727991819382,0.7881916165351868,9.865994070423767e-05,0.038857702165842056,0.7799878716468811,3.4895776479970664e-05,-0.18484827876091003
399.0,700.0,0.5581,0.6927,9.2447,-0.0367,-0.002,-0.121,-1.7195264301695765,-0.05345083028078079,2.316734790802002,-1.847580075263977,0.006603305693715811,2.0281143188476562,4.9232510952051065,-0.005837698001414537,0.21255013346672058,-1.6520422140704554,0.0002858781663235277,0.05635318160057068,0.7881556749343872,9.28441368159838e-05,0.024014238268136978,0.7800119519233704,3.2384530641138554e-05,-0.22384688258171082
399.0,700.0,0.5581,0.6927,9.2447,-0.0367,-0.002,-0.121,-1.7198950252928675,-0.06162164732813835,2.3137624263763428,-1.8474429845809937,0.008914311416447163,2.060795307159424,4.923199105053701,-0.006323620211333036,0.22874808311462402,-1.6520264784442347,0.00029121054103598,0.06325424462556839,0.7881596088409424,8.891312609193847e-05,0.03997501730918884,0.7800399661064148,3.0726110708201304e-05,-0.23792439699172974
399.0,700.0,0.5581,0.6927,9.2447,-0.0367,-0.002,-0.121,-1.7204281292357386,-0.07122526317834854,2.2883148193359375,-1.8474403619766235,0.011581222526729107,2.0550451278686523,4.92321095147685,-0.003487084759399295,0.2156955748796463,-1.6520870367633265,0.0002846202696673572,0.05493314936757088,0.7882115244865417,8.416192576987669e-05,0.020119525492191315,0.7800399661064148,2.8762231522705406e-05,-0.24108657240867615
399.0,700.0,0.5581,0.6927,9.2447,-0.0367,-0.002,-0.121,-1.72084440807485,-0.07834400236606598,2.297189235687256,-1.8472435474395752,0.01335946749895811,2.0877561569213867,4.923187154322424,-0.0015547735383734107,0.2144211232662201,-1.6520946661578577,0.00024134699197020382,0.07104199379682541,0.7881595492362976,8.091898780548945e-05,0.046944186091423035,0.779987633228302,2.744655830611009e-05,-0.2381141483783722
399.0,700.0,0.5581,0.6927,9.2447,-0.0367,-0.002,-0.121,-1.7215773067870082,-0.09175722301006317,2.2923223972320557,-1.8472356796264648,0.011711177416145802,2.086327314376831,4.923203187971868,-0.0002646801294758916,0.238226518034935,-1.6520345846759241,0.0002380835940130055,0.07635315507650375,0.7881278395652771,7.696481043240055e-05,0.04335727170109749,0.7800201773643494,2.5868797820294276e-05,-0.22851495444774628
399.0,700.0,0.5581,0.6927,9.2447,-0.0367,-0.002,-0.121,-1.722166200677389,-0.1017836406826973,2.278533458709717,-1.8471198081970215,0.010365483351051807,2.0607407093048096,4.923207255988874,-0.00018347040168009698,0.22875235974788666,-1.652062718068258,0.00021054963872302324,0.06618483364582062,0.7881795167922974,7.424379145959392e-05,0.026880718767642975,0.7799593806266785,2.4799575840006582e-05,-0.23862667381763458
399.0,700.0,0.5581,0.6927,9.2447,-0.0367,-0.002,-0.121,-1.7230106792845667,-0.1142839565873146,2.2885642051696777,-1.8470515012741089,0.009318402037024498,2.0571541786193848,4.923259275942602,-6.750981992809102e-05,0.21845147013664246,-1.6520546118365687,0.00021248531993478537,0.07297175377607346,0.788227379322052,7.84275252954103e-05,0.028101831674575806,0.7800119519233704,1.3122304153512232e-05,-0.3372494578361511
399.0,700.0,0.5581,0.6927,9.2447,-0.0367,-0.002,-0.121,-1.723764558831686,-0.11378681659698486,2.242216110229492,-1.8469998836517334,0.008010254241526127,2.0571677684783936,4.923255193024435,-5.351830259314738e-05,0.21418845653533936,-1.6520546118365687,0.0001929667341755703,0.07588154077529907,0.7882357239723206,2.622032070576097e-06,0.027501452714204788,0.7799957990646362,1.1309124602121301e-05,-0.2684304714202881
399.0,700.0,0.5581,0.6927,9.2447,-0.0367,-0.002,-0.121,-1.7247339687743128,-0.10965024679899216,2.2355239391326904,-1.8469467163085938,0.004324995446950197,2.0666537284851074,4.923207270890035,-4.323103348724544e-05,0.20927239954471588,-1.652062718068258,0.0001719033607514575,0.06778371334075928,0.788235604763031,4.7654137580455114e-11,0.03203512728214264,0.7800160646438599,1.076790886145318e-05,-0.26119184494018555
435.0,782.0,0.3105,0.7053,9.4068,-0.0455,-0.0991,-0.1045,-1.7253300152220667,-0.11247280985116959,2.24403715133667,-1.846987247467041,0.0019079826306551695,2.0613038539886475,4.923275652318754,-7.522591477027163e-05,0.20951613783836365,-1.6520503203021448,0.0001815885043470189,0.08695622533559799,0.7881595492362976,1.3264704513558847e-14,0.051049258559942245,0.7800119519233704,1.2110104989915271e-06,-0.2769882082939148
435.0,782.0,0.3105,0.7053,9.4068,-0.0455,-0.0991,-0.1045,-1.7262793980040492,-0.1263142079114914,2.2499260902404785,-1.84700345993042,7.064103968446034e-09,2.022953987121582,4.92318311610774,-0.00012828483886551112,0.22850081324577332,-1.6520069281207483,0.00016495288582518697,0.08016736060380936,0.7882035970687866,2.4107943723371297e-19,0.043794773519039154,0.7799878716468811,3.923519969746374e-14,-0.28663429617881775
435.0,782.0,0.3105,0.7053,9.4068,-0.0455,-0.0991,-0.1045,-1.7270199261107386,-0.13923682272434235,2.2527782917022705,-1.8469383716583252,-0.0009145684889517725,2.0405216217041016,4.923199149757185,-0.0001281141012441367,0.2109670490026474,-1.6520221869098108,0.0001416396553395316,0.07722888886928558,0.7881836891174316,6.71053490486137e-23,0.04595512896776199,0.7799395322799683,9.474838867616647e-20,-0.3007568120956421
435.0,782.0,0.3105,0.7053,9.4068,-0.0455,-0.0991,-0.1045,-1.7280293903746546,-0.14183971285820007,2.2615408897399902,-1.8469593524932861,0.0037882213946431875,2.0538489818573,4.923199179559507,-0.00025617488427087665,0.2088945060968399,-1.6520183722125452,0.00015047911438159645,0.07669222354888916,0.7882316708564758,1.219606500269889e-27,0.0410127118229866,0.7799919247627258,-0.000527132477145642,-0.3256916403770447
435.0,782.0,0.3105,0.7053,9.4068,-0.0455,-0.0991,-0.1045,-1.7288791141905726,-0.1361202895641327,2.2591798305511475,-1.8468586206436157,0.008175910450518131,2.058774948120117,4.923243346601286,-0.00019174710905645043,0.22032269835472107,-1.6520584265338343,0.00013924192171543837,0.0796118825674057,0.7881995439529419,3.3948196918131807e-31,0.028072122484445572,0.7799153923988342,-0.0007220757543109357,-0.35794228315353394
435.0,782.0,0.3105,0.7053,9.4068,-0.0455,-0.0991,-0.1045,-1.7300282917418421,-0.12866580486297607,2.257070302963257,-1.8468319177627563,0.011643338948488235,2.067875862121582,4.923243391304769,-0.00013408726954367012,0.2098909467458725,-1.6519988218890589,0.00014725851360708475,0.0794074684381485,0.7881555557250977,6.169917586837678e-36,0.04529087245464325,0.7799959778785706,-0.0005660398746840656,-0.32504352927207947
435.0,782.0,0.3105,0.7053,9.4068,-0.0455,-0.0991,-0.1045,-1.7308007679381312,-0.1324547827243805,2.2460436820983887,-1.8467437028884888,0.009925058111548424,2.049057960510254,4.923247489124098,-0.00016418048471678048,0.21983438730239868,-1.6520150343524378,0.00014727609232068062,0.09140469133853912,0.788155734539032,1.717418786190317e-39,0.05149613320827484,0.7799837589263916,-0.00045799618237651885,-0.3252406120300293
435.0,782.0,0.3105,0.7053,9.4068,-0.0455,-0.0991,-0.1045,-1.731978555718893,-0.14714466035366058,2.1970086097717285,-1.846724033355713,0.005489842500537634,2.03597354888916,4.923239293485441,-0.00015072160749696195,0.21960502862930298,-1.652010742818014,0.00014463075785897672,0.08754444122314453,0.7881754636764526,3.0828566215145976e-44,0.042172808200120926,0.7799837589263916,-0.00031945272348821163,-0.3033461570739746
435.0,782.0,0.3105,0.7053,9.4068,-0.0455,-0.0991,-0.1045,-1.7330957851805628,-0.1598636955022812,2.2013213634490967,-1.8466558456420898,0.004698272794485092,2.03047251701355,4.923223274737158,-9.735453204484656e-05,0.21444272994995117,-1.651994530354635,0.00022507440007757396,0.08745221793651581,0.7881674766540527,0.0,0.03909589722752571,0.7799516320228577,-0.0002655816206242889,-0.3158833384513855
435.0,782.0,0.3105,0.7053,9.4068,-0.0455,-0.0991,-0.1045,-1.7339850864806117,-0.15946955978870392,2.23187255859375,-1.84657883644104,0.0074883438646793365,2.108802318572998,4.923267501383581,-4.1980412788689137e-05,0.22175294160842896,-1.6520307699786585,0.0002581414591986686,0.08055038750171661,0.7881916165351868,0.0,0.02598782256245613,0.779971718788147,-0.00026944311684928834,-0.30817848443984985
435.0,782.0,0.3105,0.7053,9.4068,-0.0455,-0.0991,-0.1045,-1.7352029285826625,-0.15154971182346344,2.198709011077881,-1.8464949131011963,0.012014764361083508,2.0468037128448486,4.923239174276151,-2.3994150524231372e-06,0.2021884024143219,-1.6520069281207483,0.00037440654705278575,0.07829052954912186,0.7882198095321655,0.0,0.031518422067165375,0.7799557447433472,-0.00023436103947460651,-0.36573663353919983
435.0,782.0,0.3105,0.7053,9.4068,-0.0455,-0.0991,-0.1045,-1.7361279926695765,-0.1486230194568634,2.214542865753174,-1.8463869094848633,0.01603991724550724,2.0880179405212402,4.923203247576513,-6.678859687525573e-10,0.22603796422481537,-1.6520150343524378,0.00033356519998051226,0.09873723983764648,0.7882034778594971,0.0,0.023053303360939026,0.7799593806266785,-0.00021351099712774158,-0.33549806475639343
561.0,898.0,0.7184,0.8303,9.7161,-0.0279,-0.0956,-0.1097,-1.7373248539366664,-0.1568581759929657,2.2069754600524902,-1.8462791442871094,0.017426930367946625,2.106940984725952,4.923255193024435,-1.2138498824251949e-14,0.20939967036247253,-1.6519864241229456,0.00025725524756126106,0.08968058228492737,0.7881877422332764,0.0,0.038198962807655334,0.7800238132476807,-0.00016701185086276382,-0.3386383652687073
561.0,898.0,0.7184,0.8303,9.7161,-0.0279,-0.0956,-0.1097,-1.7383138142027796,-0.16424450278282166,2.218545913696289,-1.8461560010910034,0.017063423991203308,2.11021089553833,4.923219176917829,-3.3787960218287747e-18,0.2275218963623047,-1.6520264784442347,0.0002195823471993208,0.06768681108951569,0.7882034778594971,0.0,0.03264278173446655,0.7799999117851257,-0.00015470758080482483,-0.31813621520996094
561.0,898.0,0.7184,0.8303,9.7161,-0.0279,-0.0956,-0.1097,-1.7396041355528773,-0.16833670437335968,2.246450901031494,-1.8460317850112915,0.018482932820916176,2.0951764583587646,4.923239248781957,-6.140795577739237e-23,0.20303335785865784,-1.6520469824420374,0.00021795665088575333,0.08744506537914276,0.7882035970687866,0.0,0.025364195927977562,0.7799755334854126,-0.0001408702228218317,-0.35690900683403015
561.0,898.0,0.7184,0.8303,9.7161,-0.0279,-0.0956,-0.1097,-1.740617414514059,-0.17259669303894043,2.2085723876953125,-1.8458888530731201,0.022073110565543175,2.052095890045166,4.923295411258497,-1.7093133620454125e-26,0.2140522599220276,-1.6520231405841272,0.00019639900710899383,0.08541960269212723,0.7881995439529419,0.0,0.030210677534341812,0.7799515724182129,-0.0001444213412469253,-0.3023051917552948
561.0,898.0,0.7184,0.8303,9.7161,-0.0279,-0.0956,-0.1097,-1.7420274219908656,-0.17683804035186768,2.286540985107422,-1.8456804752349854,0.02820710465312004,2.057715892791748,4.923271196871557,-3.106592708771219e-31,0.2227357029914856,-1.6519864241229456,0.00017145319725386798,0.08559910953044891,0.788211464881897,0.0,0.04090823978185654,0.779979944229126,-0.00013920576020609587,-0.2521536946296692
561.0,898.0,0.7184,0.8303,9.7161,-0.0279,-0.0956,-0.1097,-1.7430602512755335,-0.17223191261291504,2.2457664012908936,-1.8455138206481934,0.034279417246580124,2.1019999980926514,4.923251080303945,0.0006443588063120842,0.21931874752044678,-1.6520150343524378,0.0001322052994510159,0.08437427878379822,0.7881836891174316,4.896502403539671e-08,0.03059471771121025,0.7799717783927917,-0.00013157424109522253,-0.3128538429737091
561.0,898.0,0.7184,0.8303,9.7161,-0.0279,-0.0956,-0.1097,-1.7445107899107875,-0.1702197641134262,2.2767961025238037,-1.8452216386795044,0.04120435193181038,2.1083824634552,4.923255193024435,0.0005116341635584831,0.22595152258872986,-1.6520069281207483,0.00011689501843648031,0.08663108944892883,0.7881995439529419,8.899149321096866e-13,0.04229867830872536,0.7799837589263916,-0.00010728543566074222,-0.30936580896377563
561.0,898.0,0.7184,0.8303,9.7161,-0.0279,-0.0956,-0.1097,-1.7455831966795863,-0.17796091735363007,2.2813262939453125,-1.8449499607086182,0.0410575196146965,2.0842418670654297,4.923267128854551,0.00041134582716040313,0.2261437326669693,-1.6520307699786585,0.00010844351345440373,0.07082153111696243,0.7881836891174316,2.477111061251555e-16,0.04066091775894165,0.7800202369689941,-0.00010207070590695366,-0.31708571314811707
561.0,898.0,0.7184,0.8303,9.7161,-0.0279,-0.0956,-0.1097,-1.747145792047018,-0.19759035110473633,2.266094923019409,-1.8446142673492432,0.04280869662761688,2.096625328063965,4.923238891154089,0.00020138840773142874,0.2363988161087036,-1.6519983450519007,9.890904038911685e-05,0.07073342055082321,0.7882035970687866,4.502027419047887e-21,0.04443182051181793,0.779971718788147,-9.585853695170954e-05,-0.29477643966674805
561.0,898.0,0.7184,0.8303,9.7161,-0.0279,-0.0956,-0.1097,-1.748314996758932,-0.2082814872264862,2.278749704360962,-1.8443063497543335,0.04755276069045067,2.083475112915039,4.9232912985380075,0.00016775395488366485,0.2218451201915741,-1.651994530354635,9.279022924602032e-05,0.056191086769104004,0.7881556153297424,1.2531560350415114e-24,0.03884848207235336,0.7799717783927917,-9.16740027605556e-05,-0.3076018691062927
561.0,898.0,0.7184,0.8303,9.7161,-0.0279,-0.0956,-0.1097,-1.7499968014159144,-0.19236689805984497,2.2944726943969727,-1.8438587188720703,0.060046251863241196,2.122058391571045,4.9232991365487955,0.00034582806983962655,0.2324972152709961,-1.6519988218890589,6.915556150488555e-05,0.066495880484581,0.7882276177406311,2.2775486294300595e-29,0.031360216438770294,0.7799598574638367,-9.900761506287381e-05,-0.29870355129241943
561.0,898.0,0.7184,0.8303,9.7161,-0.0279,-0.0956,-0.1097,-1.7511865101256312,-0.1838730126619339,2.3467493057250977,-1.8434555530548096,0.06974584609270096,2.1741020679473877,4.923279049783506,0.0003462472523096949,0.22517609596252441,-1.6520751158343714,6.4868938352447e-05,0.08339172601699829,0.7881956100463867,6.339640133340267e-33,0.023746062070131302,0.7799757719039917,-9.508510993327945e-05,-0.29496291279792786
561.0,898.0,0.7184,0.8303,9.7161,-0.0279,-0.0956,-0.1097,-1.7528530559935511,-0.20087093114852905,2.3050918579101562,-1.8429417610168457,0.07308008521795273,2.1760997772216797,4.923255193024435,0.0002118584088748321,0.25669991970062256,-1.6520264784442347,6.050756564945914e-05,0.06146843731403351,0.7881477475166321,1.1521983804242117e-37,0.03223803639411926,0.7799755334854126,-1.3561105333792511e-05,-0.2668367922306061
844.0,911.0,0.8046,0.6999,10.8353,-0.0209,-0.0898,-0.11,-1.7540942631163539,-0.21795138716697693,2.294651985168457,-1.842441201210022,0.06985785067081451,2.130931854248047,4.923242929368772,0.0002067301538772881,0.2301858365535736,-1.6520708242999476,4.321057349443436e-05,0.06127408146858215,0.7881636023521423,3.207151795300209e-41,0.03465966880321503,0.7799957990646362,-7.383878508626651e-10,-0.2917012572288513
844.0,911.0,0.8046,0.6999,10.8353,-0.0209,-0.0898,-0.11,-1.7557722530760707,-0.2150089293718338,2.3388638496398926,-1.841830849647522,0.07174023240804672,2.1217329502105713,4.923279049783506,0.000248611846473068,0.24935486912727356,-1.6520183722125452,4.060353239765391e-05,0.05570615828037262,0.7881516814231873,0.0,0.03506401181221008,0.779963493347168,-2.3922829284280784e-17,-0.23949499428272247
844.0,911.0,0.8046,0.6999,10.8353,-0.0209,-0.0898,-0.11,-1.7574345074095667,-0.20133298635482788,2.3816912174224854,-1.8412195444107056,0.07753417640924454,2.1854312419891357,4.923290940910139,0.0002578605490271002,0.24747604131698608,-1.652090851460592,-2.5310788259957917e-05,0.04761062562465668,0.7881476879119873,0.0,0.033766258507966995,0.7799755334854126,-7.750692007112263e-25,-0.23407956957817078
844.0,911.0,0.8046,0.6999,10.8353,-0.0209,-0.0898,-0.11,-1.7586718998351039,-0.20404648780822754,2.355635166168213,-1.8407520055770874,0.07953611016273499,2.1451027393341064,4.923242974072256,0.0002004090929403901,0.24462570250034332,-1.6520584265338343,-2.8416799978003837e-05,0.031423311680555344,0.7881758213043213,0.0,0.02388148568570614,0.7799593806266785,0.0001515547774033621,-0.21683315932750702
844.0,911.0,0.8046,0.6999,10.8353,-0.0209,-0.0898,-0.11,-1.7603017292418421,-0.20388884842395782,2.402031183242798,-1.840060830116272,0.0823737233877182,2.150367259979248,4.923283117800512,0.00015450877253897488,0.24200180172920227,-1.6520584265338343,-4.006520248367451e-05,0.04637634754180908,0.7881836891174316,0.0,0.04015986621379852,0.7799999713897705,0.00012229943240527064,-0.20865938067436218
844.0,911.0,0.8046,0.6999,10.8353,-0.0209,-0.0898,-0.11,-1.761515279809469,-0.20097526907920837,2.3787591457366943,-1.8395625352859497,0.08554863929748535,2.1305088996887207,4.923279034882345,0.00013186286378186196,0.2698453664779663,-1.652067009602682,-3.838498014374636e-05,0.03817901015281677,0.7881758213043213,0.0,0.03406194970011711,0.7800037860870361,0.00010166206629946828,-0.25614985823631287
844.0,911.0,0.8046,0.6999,10.8353,-0.0209,-0.0898,-0.11,-1.7630931339659632,-0.20271995663642883,2.406698226928711,-1.8389008045196533,0.09249603748321533,2.1966683864593506,4.923259275942602,0.00011030855966964737,0.24858863651752472,-1.652038876210348,-3.631961953942664e-05,0.04617336764931679,0.7882035374641418,0.0,0.025302138179540634,0.7800161242485046,8.292571874335408e-05,-0.260303795337677
844.0,911.0,0.8046,0.6999,10.8353,-0.0209,-0.0898,-0.11,-1.7642981014647425,-0.20623043179512024,2.3740692138671875,-1.838284969329834,0.09638262540102005,2.085031509399414,4.923315110593595,6.558545283041894e-05,0.2464519888162613,-1.6520264784442347,-3.491079041850753e-05,0.05685063451528549,0.7881754040718079,0.0,0.02496720850467682,0.7800120115280151,0.00010927634866675362,-0.18901386857032776
844.0,911.0,0.8046,0.6999,10.8353,-0.0209,-0.0898,-0.11,-1.7658764324583949,-0.20175187289714813,2.347848653793335,-1.8375275135040283,0.10012129694223404,2.1508617401123047,4.923286872893133,8.199174044420943e-05,0.2576780319213867,-1.6520751158343714,-4.42555065092165e-05,0.03196672350168228,0.7881836891174316,0.0,0.030411895364522934,0.7799714803695679,0.0001254070084542036,-0.20490416884422302
844.0,911.0,0.8046,0.6999,10.8353,-0.0209,-0.0898,-0.11,-1.767078538934225,-0.19745299220085144,2.4220898151397705,-1.8368157148361206,0.10673882812261581,2.180051803588867,4.923283117800512,7.830943650333211e-05,0.25397229194641113,-1.6520140806781214,-4.268437987775542e-05,0.03731748089194298,0.7881995439529419,0.0,0.027516568079590797,0.7799996733665466,0.00011354098387528211,-0.23048394918441772
844.0,911.0,0.8046,0.6999,10.8353,-0.0209,-0.0898,-0.11,-1.7685872517027796,-0.1933581829071045,2.378385543823242,-1.8359776735305786,0.10897983610630035,2.152541160583496,4.923254895001211,7.016926974756643e-05,0.26243478059768677,-1.6520431677447718,-4.075169636053033e-05,0.0372055359184742,0.7881636023521423,0.0,0.03078884445130825,0.7800078392028809,0.000214715299080126,-0.1861594021320343
844.0,911.0,0.8046,0.6999,10.8353,-0.0209,-0.0898,-0.11,-1.7697450123228968,-0.19360452890396118,2.4202191829681396,-1.835322618484497,0.11150003224611282,2.1649322509765625,4.923274951964178,6.509395461762324e-05,0.2660452723503113,-1.652038876210348,-6.410511559806764e-06,0.03955729678273201,0.7882194519042969,0.0,0.029681064188480377,0.7800114750862122,0.00024528990616090596,-0.2123481184244156
844.0,911.0,0.8046,0.6999,10.8353,-0.0209,-0.0898,-0.11,-1.7712146244444789,-0.18829625844955444,2.4757003784179688,-1.8343877792358398,0.11633145809173584,2.1892106533050537,4.923282804876127,5.9368474467191845e-05,0.25230705738067627,-1.6520431677447718,-1.1650790054940074e-10,0.03326445072889328,0.7881635427474976,0.0,0.024118028581142426,0.7800801396369934,0.00022435995924752206,-0.14374497532844543
905.0,942.0,1.6899,1.0995,9.7214,-0.0293,-0.0542,-0.1223,-1.772344251672262,-0.19392643868923187,2.4669172763824463,-1.833632230758667,0.12304872274398804,2.133132219314575,4.923295038729467,7.425372314173728e-05,0.26566413044929504,-1.6520307699786585,-3.243040466163402e-14,0.03152938187122345,0.788211464881897,0.0,0.030959652736783028,0.7800238728523254,0.0002051789779216051,-0.22961413860321045
905.0,942.0,1.6899,1.0995,9.7214,-0.0293,-0.0542,-0.1223,-1.7738658390440882,-0.19645723700523376,2.3916175365448,-1.8326990604400635,0.1334749460220337,2.180446147918701,4.923322948604383,9.43780250963755e-05,0.25806137919425964,-1.652038876210348,-5.894064598001059e-19,0.0329071506857872,0.7882075309753418,0.0,0.02649824321269989,0.7800279259681702,0.00016117372433654964,-0.2097925841808319
905.0,942.0,1.6899,1.0995,9.7214,-0.0293,-0.0542,-0.1223,-1.775099893609518,-0.1883859783411026,2.490673065185547,-1.831831455230713,0.13730739057064056,2.1956405639648438,4.923351186304846,0.00013639190001413226,0.2658049464225769,-1.6520307699786585,-1.6406342880487407e-22,0.03581725060939789,0.7881797552108765,0.0,0.016735650599002838,0.7800238132476807,9.058642899617553e-05,-0.17661699652671814
905.0,942.0,1.6899,1.0995,9.7214,-0.0293,-0.0542,-0.1223,-1.7765618763365687,-0.1795114427804947,2.5129597187042236,-1.8307150602340698,0.14474107325077057,2.2035329341888428,4.923310625344076,0.0013551715528592467,0.2619188725948334,-1.652038876210348,-2.9817725029629394e-27,0.04627469554543495,0.7882594466209412,0.0,0.014836253598332405,0.7799673080444336,7.485687092412263e-05,-0.2077045738697052
905.0,942.0,1.6899,1.0995,9.7214,-0.0293,-0.0542,-0.1223,-1.7776676617064417,-0.18270650506019592,2.4819679260253906,-1.8298358917236328,0.15674424171447754,2.2519266605377197,4.923294248967924,0.0010701993014663458,0.25914525985717773,-1.6520546118365687,-8.299873148161688e-31,0.030354823917150497,0.788167417049408,0.0,0.02874937281012535,0.7800115346908569,6.65530824335292e-05,-0.25313860177993774
905.0,942.0,1.6899,1.0995,9.7214,-0.0293,-0.0542,-0.1223,-1.7792250118651332,-0.19707606732845306,2.4603846073150635,-1.82854163646698,0.1625942587852478,2.2820351123809814,4.923279019981184,0.0002485254663042724,0.28460878133773804,-1.6520069281207483,-1.5084608743126888e-35,0.039984770119190216,0.7882115840911865,0.0,0.0028384055476635695,0.7800279259681702,5.7978224504040554e-05,-0.18813663721084595
905.0,942.0,1.6899,1.0995,9.7214,-0.0293,-0.0542,-0.1223,-1.7803951702513636,-0.1950802505016327,2.5265183448791504,-1.8274908065795898,0.1692318618297577,2.2659573554992676,4.923358949809828,0.00023979844991117716,0.2760604918003082,-1.651994530354635,-4.198856323696739e-39,0.045653536915779114,0.7881960272789001,0.0,0.022025205194950104,0.7800040245056152,2.6436369807925075e-05,-0.2629473805427551
905.0,942.0,1.6899,1.0995,9.7214,-0.0293,-0.0542,-0.1223,-1.7819129429259242,-0.177853062748909,2.4987173080444336,-1.8260608911514282,0.1793888807296753,2.249403476715088,4.9233388779456995,0.0003340928815305233,0.2799507975578308,-1.652038876210348,-7.567011707354012e-44,0.028612013906240463,0.7881633043289185,0.0,0.016597729176282883,0.7800078392028809,8.565048626937855e-13,-0.2034742683172226
905.0,942.0,1.6899,1.0995,9.7214,-0.0293,-0.0542,-0.1223,-1.7834073505797328,-0.18199390172958374,2.577068328857422,-1.8246556520462036,0.18689368665218353,2.326396942138672,4.923306959658422,0.00032127846498042345,0.28300437331199646,-1.6520469824420374,-0.0,0.04484930261969566,0.7882402539253235,0.0,0.014790404587984085,0.7799796462059021,2.7749667116212236e-20,-0.21664662659168243
905.0,942.0,1.6899,1.0995,9.7214,-0.0293,-0.0542,-0.1223,-1.7845612965025843,-0.19008688628673553,2.5259077548980713,-1.8235368728637695,0.19474191963672638,2.2690670490264893,4.923318850785055,0.00021168601233512163,0.27434858679771423,-1.6520546118365687,-0.0,0.017185349017381668,0.7881919145584106,0.0,0.022613519802689552,0.7800160646438599,6.70121808286178e-26,-0.19812282919883728
905.0,942.0,1.6899,1.0995,9.7214,-0.0293,-0.0542,-0.1223,-1.7861114941039027,-0.19046750664710999,2.5731828212738037,-1.8218671083450317,0.2112516462802887,2.291665554046631,4.923310640245237,0.00017135412781499326,0.27980518341064453,-1.6520345846759241,-0.0,0.038844525814056396,0.7881432175636292,0.0,0.015815213322639465,0.7799916863441467,2.1711092296229714e-33,-0.15036384761333466
905.0,942.0,1.6899,1.0995,9.7214,-0.0293,-0.0542,-0.1223,-1.7872373066344203,-0.17917712032794952,2.5706684589385986,-1.8206225633621216,0.21486422419548035,2.3109817504882812,4.923318880587377,0.00016827593208290637,0.2803407907485962,-1.652010742818014,-0.0,0.02471083216369152,0.788236141204834,0.0,0.012132294476032257,0.7799957990646362,5.2429736185544106e-39,-0.22739925980567932
931.0,920.0,1.4698,0.9212,9.9613,-0.0191,0.0447,-0.131,-1.788647314111227,-0.17075978219509125,2.588878631591797,-1.8188499212265015,0.2290382832288742,2.334798812866211,4.923250812083044,0.00012970723037142307,0.2853553295135498,-1.652038876210348,-0.0,0.030929937958717346,0.7881476879119873,0.0,0.02663627453148365,0.7800238132476807,0.0,-0.19290493428707123
931.0,920.0,1.4698,0.9212,9.9613,-0.0191,0.0447,-0.131,-1.7897006473936976,-0.1809462308883667,2.558821439743042,-1.8175077438354492,0.2350500524044037,2.3355355262756348,4.923247027188101,8.021927442314336e-07,0.2817184329032898,-1.6520221869098108,-0.0,0.016249708831310272,0.7881395220756531,0.0,0.025214657187461853,0.7800197601318359,0.0,-0.21619096398353577
931.0,920.0,1.4698,0.9212,9.9613,-0.0191,0.0447,-0.131,-1.7911306820311488,-0.18898212909698486,2.5421142578125,-1.815579891204834,0.23698239028453827,2.3243749141693115,4.923279034882345,-0.000465247081592679,0.2749830484390259,-1.6520708242999476,-0.0,0.027124691754579544,0.7881919145584106,0.0,0.015337283723056316,0.7800479531288147,0.0,-0.1946716606616974
931.0,920.0,1.4698,0.9212,9.9613,-0.0191,0.0447,-0.131,-1.7921840153136195,-0.18261897563934326,2.561476707458496,-1.8140329122543335,0.24614772200584412,2.337980270385742,4.923310640245237,-3.360756863912684e-06,0.2709013819694519,-1.6520183722125452,-0.0,0.023423917591571808,0.788119375705719,0.0,0.019434018060564995,0.7800238132476807,0.0,-0.2321179211139679
931.0,920.0,1.4698,0.9212,9.9613,-0.0191,0.0447,-0.131,-1.7935739956297816,-0.16732430458068848,2.575564384460449,-1.812029480934143,0.26247090101242065,2.40786075592041,4.923286872893133,-6.108009931171665e-11,0.2662549912929535,-1.6519988218890589,-0.0,0.01843998208642006,0.7881633043289185,0.0,0.018056705594062805,0.7800078392028809,0.0,-0.22088918089866638
931.0,920.0,1.4698,0.9212,9.9613,-0.0191,0.0447,-0.131,-1.7946235142149867,-0.16703329980373383,2.6193225383758545,-1.8104361295700073,0.266936719417572,2.363020420074463,4.923222842603483,-6.180365744512528e-05,0.2569750249385834,-1.6520140806781214,-0.0,0.04074222967028618,0.7881878614425659,0.0,0.009138546884059906,0.7800115346908569,0.0,-0.1692570149898529
931.0,920.0,1.4698,0.9212,9.9613,-0.0191,0.0447,-0.131,-1.7959815464415492,-0.17233692109584808,2.6175639629364014,-1.8082242012023926,0.269837886095047,2.3942008018493652,4.92332703152255,-0.00019248663738835603,0.28366199135780334,-1.6520503203021448,-0.0,0.045867446810007095,0.7881636619567871,0.0,0.015303466469049454,0.7800759673118591,0.0006145194638520479,-0.2029508650302887
931.0,920.0,1.4698,0.9212,9.9613,-0.0191,0.0447,-0.131,-1.797039648095602,-0.17200902104377747,2.599808692932129,-1.8065177202224731,0.28134456276893616,2.3958194255828857,4.923279034882345,-0.000132284258143045,0.2646622359752655,-1.6520431677447718,-0.0,0.021553199738264084,0.788175642490387,0.0,0.0026912037283182144,0.7800518274307251,0.000854095967952162,-0.24612782895565033
931.0,920.0,1.4698,0.9212,9.9613,-0.0191,0.0447,-0.131,-1.7983538113036097,-0.17151598632335663,2.573772430419922,-1.8042981624603271,0.28528329730033875,2.363285779953003,4.923307257681646,-0.00015330502355936915,0.26389452815055847,-1.6520221869098108,-0.0,0.04689792916178703,0.7881312966346741,0.0,0.019071627408266068,0.780083954334259,0.0005121217691339552,-0.18048767745494843
931.0,920.0,1.4698,0.9212,9.9613,-0.0191,0.0447,-0.131,-1.799382825891012,-0.16998609900474548,2.5597362518310547,-1.8025050163269043,0.2904507517814636,2.3907411098480225,4.923335152655401,-0.0001309979270445183,0.25931039452552795,-1.6520183722125452,-0.0,0.0302576944231987,0.7881632447242737,0.0,0.014151721261441708,0.7800718545913696,0.0004116969066672027,-0.18201351165771484
931.0,920.0,1.4698,0.9212,9.9613,-0.0191,0.0447,-0.131,-1.8006850681700648,-0.16519080102443695,2.607516288757324,-1.8001869916915894,0.302442342042923,2.399460792541504,4.923254895001211,-0.00010970277071464807,0.2559460997581482,-1.6520221869098108,-0.0,0.03554493188858032,0.7881997227668762,0.0,0.013836868107318878,0.7800479531288147,0.0003263710532337427,-0.2152574509382248
931.0,920.0,1.4698,0.9212,9.9613,-0.0191,0.0447,-0.131,-1.8016296825804652,-0.1593446433544159,2.6347670555114746,-1.798352837562561,0.3093640208244324,2.388639450073242,4.923295038729467,-9.77818708634004e-05,0.2612870931625366,-1.6520102659808558,-0.0,0.039345089346170425,0.7882120013237,0.0,0.02481883205473423,0.7800636887550354,0.00028246824513189495,-0.24896109104156494
931.0,920.0,1.4698,0.9212,9.9613,-0.0191,0.0447,-0.131,-1.80289949993276,-0.1575762927532196,2.6279942989349365,-1.79587721824646,0.31562545895576477,2.4096639156341553,4.923267099052229,-0.00013470067642629147,0.26816409826278687,-1.6520221869098108,-0.0,0.04906360059976578,0.7881432175636292,0.0,0.011930389329791069,0.7800397872924805,0.00023951049661263824,-0.26751837134361267
945.0,885.0,1.4716,0.883,10.148,-0.0345,0.1907,-0.1376,-1.803840776483053,-0.16873297095298767,2.6273202896118164,-1.793989896774292,0.3148212134838104,2.3788259029388428,4.9232429442699335,-0.00019123648235108703,0.2618888020515442,-1.6520026365863245,-0.0,0.043567441403865814,0.7881796956062317,0.0,0.005622699856758118,0.7800438404083252,0.00021498973364941776,-0.22556445002555847
945.0,885.0,1.4716,0.883,10.148,-0.0345,0.1907,-0.1376,-1.8052712879576625,-0.17292596399784088,2.6003570556640625,-1.7913941144943237,0.3301663398742676,2.439781904220581,4.92330318966464,-0.00016775631229393184,0.2647431194782257,-1.6520469824420374,-0.0,0.03772921860218048,0.7881673574447632,0.0,0.005335833411663771,0.780083954334259,0.00018916718545369804,-0.2652035355567932
945.0,885.0,1.4716,0.883,10.148,-0.0345,0.1907,-0.1376,-1.806573053399557,-0.1632697731256485,2.6120386123657227,-1.7887903451919556,0.3368174433708191,2.406576156616211,4.923287200718679,-0.00014921296678949147,0.25543296337127686,-1.6520221869098108,-0.0,0.05156019330024719,0.7882279753684998,0.0,0.010478982701897621,0.7800479531288147,5.591812077909708e-05,-0.2809782028198242
945.0,885.0,1.4716,0.883,10.148,-0.0345,0.1907,-0.1376,-1.8075744114317835,-0.15899941325187683,2.6296262741088867,-1.7867261171340942,0.34682872891426086,2.4598214626312256,4.923279049783506,-0.00013779030996374786,0.261433482170105,-1.652038876210348,-0.0,0.04829183965921402,0.7881878018379211,0.0,-0.00999543722718954,0.7800235748291016,5.115090971230529e-05,-0.23947468400001526
945.0,885.0,1.4716,0.883,10.148,-0.0345,0.1907,-0.1376,-1.8089362583556117,-0.1708848774433136,2.6310677528381348,-1.784023404121399,0.3466467559337616,2.4672508239746094,4.923255178123274,-0.00016561227675992996,0.2556161880493164,-1.6520221869098108,-0.0,0.043271664530038834,0.7881316542625427,0.0,0.006490807048976421,0.7800277471542358,4.592996629071422e-05,-0.22712601721286774
945.0,885.0,1.4716,0.883,10.148,-0.0345,0.1907,-0.1376,-1.8100625477232875,-0.18356288969516754,2.649829149246216,-1.7818928956985474,0.34776437282562256,2.4505128860473633,4.923235091357984,-0.00026578083634376526,0.261555016040802,-1.6520221869098108,-0.0,0.03835771977901459,0.7881432175636292,0.0,0.0017784644151106477,0.7800235748291016,4.266401447239332e-05,-0.23321038484573364
945.0,885.0,1.4716,0.883,10.148,-0.0345,0.1907,-0.1376,-1.8115688763060511,-0.1898571103811264,2.579883098602295,-1.7790281772613525,0.35223984718322754,2.4637255668640137,4.923291268735685,-0.00022214646742213517,0.24922555685043335,-1.6520150343524378,-0.0,0.04151102900505066,0.7882239818572998,0.0,0.01595928892493248,0.7800235748291016,3.896942871506326e-05,-0.24121224880218506
945.0,885.0,1.4716,0.883,10.148,-0.0345,0.1907,-0.1376,-1.8126827679076136,-0.1804054230451584,2.6544835567474365,-1.7768203020095825,0.3562169075012207,2.4314544200897217,4.9232991365487955,-0.0001691584911895916,0.24928778409957886,-1.6520503203021448,-0.0,0.04174903407692909,0.7881879210472107,0.0,0.007532897870987654,0.7800154685974121,1.830640758271329e-05,-0.2879582941532135
945.0,885.0,1.4716,0.883,10.148,-0.0345,0.1907,-0.1376,-1.8141118488707484,-0.17844417691230774,2.6572937965393066,-1.7739362716674805,0.3615536093711853,2.4683051109313965,4.923263448267736,-0.0001971571909962222,0.26684629917144775,-1.6520379225360315,-0.0,0.052884384989738464,0.7881313562393188,0.0,0.004674133844673634,0.7800480127334595,3.384055526112206e-05,-0.24134796857833862
945.0,885.0,1.4716,0.883,10.148,-0.0345,0.1907,-0.1376,-1.8153139553465785,-0.1890547275543213,2.620457172393799,-1.7717620134353638,0.3595608174800873,2.421647310256958,4.923263448267736,-0.0002097337128361687,0.2525174021720886,-1.6520503203021448,-0.0,0.055069342255592346,0.7881956100463867,0.0,0.013214868493378162,0.7800599932670593,4.7411249397555366e-05,-0.24365681409835815
945.0,885.0,1.4716,0.883,10.148,-0.0345,0.1907,-0.1376,-1.8168884716429652,-0.20366476476192474,2.595970392227173,-1.7689093351364136,0.3616415858268738,2.443934440612793,4.92326711395339,-0.00017297880549449474,0.24399903416633606,-1.6520183722125452,-0.0,0.07135903835296631,0.7882038354873657,0.0,0.014325628988444805,0.7800517678260803,4.485799581743777e-05,-0.24078531563282013
945.0,885.0,1.4716,0.883,10.148,-0.0345,0.1907,-0.1376,-1.8180576763548792,-0.19560717046260834,2.6493618488311768,-1.7667146921157837,0.3667556345462799,2.4241585731506348,4.923271196871557,-0.0001370572135783732,0.2524881362915039,-1.6520546118365687,-0.0,0.04328477382659912,0.7881473302841187,0.0,0.01290953904390335,0.7800718545913696,4.272832302376628e-05,-0.23753584921360016
945.0,885.0,1.4716,0.883,10.148,-0.0345,0.1907,-0.1376,-1.8196598492064417,-0.1873089224100113,2.699552059173584,-1.7638652324676514,0.3678532838821411,2.4908430576324463,4.923223274737158,-0.00016429770039394498,0.24697566032409668,-1.6520503203021448,-0.0,0.038299720734357834,0.788236141204834,0.0,0.012042166665196419,0.7800318598747253,4.0184622775996104e-05,-0.262931764125824
892.0,892.0,0.8596,0.7065,9.7813,-0.0432,0.1854,-0.1217,-1.8207899532713832,-0.19642136991024017,2.644639015197754,-1.7616643905639648,0.364202618598938,2.487466335296631,4.923222872405805,-0.0005309634725563228,0.24796798825263977,-1.6520503203021448,-0.0,0.048401083797216415,0.788227915763855,0.0,0.021232865750789642,0.7800798416137695,4.4535365304909647e-05,-0.19117774069309235
892.0,892.0,0.8596,0.7065,9.7813,-0.0432,0.1854,-0.1217,-1.822460790673727,-0.21247120201587677,2.603851079940796,-1.7588003873825073,0.36402300000190735,2.4611377716064453,4.923199119954862,-0.0006072144024074078,0.23005801439285278,-1.6520431677447718,-0.0,0.039876289665699005,0.788191556930542,0.0,0.006151516921818256,0.7800354361534119,9.947067155735567e-05,-0.15957486629486084
892.0,892.0,0.8596,0.7065,9.7813,-0.0432,0.1854,-0.1217,-1.8236338100829066,-0.20868508517742157,2.6630640029907227,-1.7565771341323853,0.36698585748672485,2.4603943824768066,4.923215108900823,-0.0004863531794399023,0.22682815790176392,-1.6520870367633265,-0.0,0.04599762707948685,0.7881432175636292,0.0,0.0154606644064188,0.7800637483596802,0.000597599137108773,-0.17567726969718933
892.0,892.0,0.8596,0.7065,9.7813,-0.0432,0.1854,-0.1217,-1.8252564869322718,-0.20016756653785706,2.627635955810547,-1.7536612749099731,0.3732035458087921,2.4769744873046875,4.9232273427541635,-0.000383399281417951,0.2303718775510788,-1.6520708242999476,-0.0,0.043973159044981,0.7881473302841187,0.0,0.026740340515971184,0.7801039218902588,0.00031218386720865965,-0.23539480566978455
892.0,892.0,0.8596,0.7065,9.7813,-0.0432,0.1854,-0.1217,-1.8265019855894984,-0.20498281717300415,2.6585211753845215,-1.7513978481292725,0.366703599691391,2.4423775672912598,4.9232113538082025,-0.00048241493641398847,0.22109070420265198,-1.6520140806781214,-0.0,0.0592348538339138,0.7882439494132996,0.0,0.01928652636706829,0.7800554633140564,0.00014923312119208276,-0.22902971506118774
892.0,892.0,0.8596,0.7065,9.7813,-0.0432,0.1854,-0.1217,-1.8281647167601527,-0.2077924907207489,2.651808500289917,-1.7484427690505981,0.3662761151790619,2.462935447692871,4.923223274737158,-0.0003858027048408985,0.24346567690372467,-1.6519988218890589,-0.0,0.03554551303386688,0.7881956696510315,0.0,0.015302490442991257,0.780067503452301,0.00013555993791669607,-0.17237530648708344
892.0,892.0,0.8596,0.7065,9.7813,-0.0432,0.1854,-0.1217,-1.829754491845602,-0.21357321739196777,2.6879239082336426,-1.7454942464828491,0.36226457357406616,2.4723825454711914,4.92319534996108,-0.00031769025372341275,0.2323594093322754,-1.652038876210348,-0.0,0.053507354110479355,0.7882115840911865,0.0,0.01607641763985157,0.7800716161727905,0.00015636259922757745,-0.1290917694568634
892.0,892.0,0.8596,0.7065,9.7813,-0.0432,0.1854,-0.1217,-1.8310405216612757,-0.21572472155094147,2.6138222217559814,-1.7432914972305298,0.3587266802787781,2.4628114700317383,4.923215421825208,-0.0003076806606259197,0.22429054975509644,-1.6520503203021448,-0.0,0.050241775810718536,0.7881555557250977,0.0,0.029352053999900818,0.7801401615142822,0.00015954923583194613,-0.1824333369731903
892.0,892.0,0.8596,0.7065,9.7813,-0.0432,0.1854,-0.1217,-1.8326708279051722,-0.21295687556266785,2.662306785583496,-1.7403795719146729,0.3571404814720154,2.451049327850342,4.923207270890035,-0.00024473079247400165,0.24141299724578857,-1.652038876210348,-0.0,0.053175412118434906,0.7882320284843445,0.0,0.012578383088111877,0.7800875306129456,0.00011850603914353997,-0.21082350611686707
892.0,892.0,0.8596,0.7065,9.7813,-0.0432,0.1854,-0.1217,-1.8338967762389125,-0.20552599430084229,2.7379794120788574,-1.7382255792617798,0.3604687750339508,2.4574522972106934,4.923231112747946,-0.00017119663243647665,0.23351892828941345,-1.6520307699786585,-0.0,0.05686692148447037,0.7882320880889893,0.0,0.004203891847282648,0.7800801992416382,9.895796392811462e-05,-0.22507181763648987
892.0,892.0,0.8596,0.7065,9.7813,-0.0432,0.1854,-0.1217,-1.8356439075865687,-0.21066829562187195,2.670632839202881,-1.7353925704956055,0.3634282350540161,2.4731531143188477,4.92322330453948,-7.716846448602155e-05,0.2417060136795044,-1.6520469824420374,-0.0,0.05964389815926552,0.7881715297698975,0.0,0.008511361666023731,0.7800678014755249,8.11178470030427e-05,-0.20616218447685242
892.0,892.0,0.8596,0.7065,9.7813,-0.0432,0.1854,-0.1217,-1.836836954156393,-0.2132078856229782,2.6801109313964844,-1.7332221269607544,0.3595096170902252,2.422086238861084,4.923215108900823,-0.00012127121590310708,0.23232947289943695,-1.6520150343524378,-0.0,0.04429542273283005,0.7881596088409424,0.0,0.010013934224843979,0.7800999283790588,3.573064168449491e-05,-0.188990518450737
765.0,852.0,0.722,0.8704,9.3206,-0.0276,0.1877,-0.1283,-1.83854403118276,-0.20875246822834015,2.7202348709106445,-1.7302817106246948,0.36191943287849426,2.4785590171813965,4.923223259835996,-4.8141890147235245e-05,0.22587335109710693,-1.6520307699786585,-0.0,0.04286564141511917,0.7881956696510315,0.0,0.009188953787088394,0.7800880074501038,3.083217598032206e-05,-0.2031233310699463
765.0,852.0,0.722,0.8704,9.3206,-0.0276,0.1877,-0.1283,-1.8398314915099085,-0.21340005099773407,2.757059335708618,-1.7282073497772217,0.3657940924167633,2.4647417068481445,4.923263731389799,-4.145984348724596e-05,0.22721439599990845,-1.652010742818014,-0.0,0.06085976958274841,0.7881919145584106,0.0,0.0014007179997861385,0.7800999283790588,1.3280568111895263e-07,-0.22295011579990387
765.0,852.0,0.722,0.8704,9.3206,-0.0276,0.1877,-0.1283,-1.841626306573385,-0.2266341745853424,2.717749834060669,-1.7252861261367798,0.3678065836429596,2.4777581691741943,4.923275652318754,-3.500774619169533e-05,0.2362712323665619,-1.6520193258868616,-0.0,0.056341346353292465,0.788207471370697,0.0,0.000921442755497992,0.7800477147102356,4.302735942605766e-15,-0.2267468422651291
765.0,852.0,0.722,0.8704,9.3206,-0.0276,0.1877,-0.1283,-1.8430139027037562,-0.22187989950180054,2.7414393424987793,-1.7230195999145508,0.3750264644622803,2.500624418258667,4.92321095147685,-3.134895086986944e-05,0.24461224675178528,-1.6520102659808558,-4.084970157691714e-07,0.060190968215465546,0.7881755828857422,0.0,0.0019182371906936169,0.7800880074501038,1.0390600991810014e-20,-0.21441933512687683
765.0,852.0,0.722,0.8704,9.3206,-0.0276,0.1877,-0.1283,-1.8447920284666957,-0.21278952062129974,2.7489614486694336,-1.7200708389282227,0.3725232481956482,2.449181318283081,4.923223289638319,-2.7514941393746994e-05,0.24399028718471527,-1.6520512739764612,-7.42423050120733e-12,0.06265869736671448,0.7882198691368103,0.0,0.006426346488296986,0.780083954334259,3.3664225055368636e-28,-0.1951860785484314
765.0,852.0,0.722,0.8704,9.3206,-0.0276,0.1877,-0.1283,-1.8461510143675746,-0.2238863706588745,2.7419095039367676,-1.717773675918579,0.3750786781311035,2.457183599472046,4.923207270890035,-5.7961774047043946e-08,0.22801992297172546,-1.652010742818014,-2.0665617620743617e-15,0.05470529943704605,0.7881633043289185,0.0,-0.0006489552324637771,0.7800599932670593,8.12951505548547e-34,-0.27978333830833435
765.0,852.0,0.722,0.8704,9.3206,-0.0276,0.1877,-0.1283,-1.848030229608053,-0.2389005869626999,2.731532096862793,-1.7148226499557495,0.3708326518535614,2.480149269104004,4.923239263683119,-1.0534264432982e-12,0.22560666501522064,-1.6520751158343714,-3.755873671138403e-20,0.06780190765857697,0.7882320284843445,0.0,0.0048656826838850975,0.7800477147102356,2.633880593544926e-41,-0.2598971426486969
765.0,852.0,0.722,0.8704,9.3206,-0.0276,0.1877,-0.1283,-1.8494497738280238,-0.23119355738162994,2.7805895805358887,-1.7125462293624878,0.3731173276901245,2.499370574951172,4.923191267042913,-2.9322509805688524e-16,0.23276887834072113,-1.6520264784442347,-1.0454614226991215e-23,0.06278175115585327,0.7881796360015869,0.0,-0.00811842828989029,0.7800438404083252,0.0,-0.20657771825790405
765.0,852.0,0.722,0.8704,9.3206,-0.0276,0.1877,-0.1283,-1.8512560329832972,-0.22127708792686462,2.7635135650634766,-1.7095988988876343,0.37365227937698364,2.469951868057251,4.923215123801985,-5.3292217640915524e-21,0.2502415180206299,-1.6520221869098108,-1.9000745756250803e-28,0.037931330502033234,0.7882320284843445,0.0,0.0024087438359856606,0.7800760269165039,0.0,-0.27445825934410095
765.0,852.0,0.722,0.8704,9.3206,-0.0276,0.1877,-0.1283,-1.852603097955221,-0.22543898224830627,2.7621235847473145,-1.7073334455490112,0.37366893887519836,2.4804792404174805,4.923243361502447,-1.483408558842194e-24,0.24476459622383118,-1.6520546118365687,-5.288927593530436e-32,0.05123445391654968,0.7881836891174316,0.0,0.003409127239137888,0.780083954334259,0.0,-0.2799668610095978
765.0,852.0,0.722,0.8704,9.3206,-0.0276,0.1877,-0.1283,-1.8544146023192347,-0.22532175481319427,2.7991347312927246,-1.7044665813446045,0.3759162724018097,2.487492322921753,4.923215123801985,-2.6960217595205326e-29,0.23811480402946472,-1.6520150343524378,-9.612365779333876e-37,0.06836654990911484,0.7881960272789001,0.0,-0.00011234160047024488,0.7800595760345459,0.0,-0.23586726188659668
765.0,852.0,0.722,0.8704,9.3206,-0.0276,0.1877,-0.1283,-1.8557173214354457,-0.22020980715751648,2.7896454334259033,-1.7021700143814087,0.3764325976371765,2.476850748062134,4.923187169223585,-7.504474954452504e-33,0.221568301320076,-1.6520307699786585,-2.6756392877818057e-40,0.04951311647891998,0.7882239818572998,0.0,-0.006466303486377001,0.7800719141960144,0.0,-0.30642324686050415
765.0,852.0,0.722,0.8704,9.3206,-0.0276,0.1877,-0.1283,-1.8574515781798304,-0.22125202417373657,2.758091449737549,-1.6992181539535522,0.37583044171333313,2.4799249172210693,4.923203173070707,-1.3639015077399335e-37,0.22544893622398376,-1.652038876210348,-4.203895392974451e-45,0.05057539790868759,0.7882038354873657,0.0,-0.0031557148322463036,0.7800917625427246,0.0,-0.2369993031024933
434.0,717.0,1.0241,0.7597,9.8058,-0.0405,0.1846,-0.1295,-1.859239240685934,-0.21835346519947052,2.770850658416748,-1.6961621046066284,0.3773145079612732,2.4469058513641357,4.9231793014104746,-2.4788969833906014e-42,0.24357283115386963,-1.6520264784442347,-0.0,0.06878766417503357,0.7882116436958313,0.0,0.004192730877548456,0.7800678014755249,0.0,-0.25050628185272217
434.0,717.0,1.0241,0.7597,9.8058,-0.0405,0.1846,-0.1295,-1.8605066738524378,-0.21635127067565918,2.837132453918457,-1.6939302682876587,0.3827521502971649,2.5043811798095703,4.9232113538082025,-0.0,0.23150452971458435,-1.6520150343524378,-0.0,0.052661750465631485,0.7881755828857422,0.0,0.004500583279877901,0.780039370059967,0.0,-0.2210274487733841
434.0,717.0,1.0241,0.7597,9.8058,-0.0405,0.1846,-0.1295,-1.8622456989684046,-0.21479372680187225,2.8052072525024414,-1.6909061670303345,0.38133519887924194,2.4954569339752197,4.9231793759162805,-0.0,0.24867036938667297,-1.6520307699786585,-0.0,0.037538520991802216,0.7881878614425659,0.0,0.0005065581062808633,0.780083954334259,0.0,-0.2492930144071579
434.0,717.0,1.0241,0.7597,9.8058,-0.0405,0.1846,-0.1295,-1.863476415673727,-0.21700207889080048,2.8386878967285156,-1.6885861158370972,0.37915903329849243,2.5332565307617188,4.923187541752615,-0.00023650536604691297,0.2386837899684906,-1.6520183722125452,-0.0,0.06707767397165298,0.7881272435188293,0.0,0.0016869092360138893,0.7800315022468567,1.7242095054825768e-05,-0.219529926776886
434.0,717.0,1.0241,0.7597,9.8058,-0.0405,0.1846,-0.1295,-1.8652359447874964,-0.21694260835647583,2.84323787689209,-1.685404658317566,0.3788105845451355,2.476785659790039,4.923203545599737,-0.0001692178484518081,0.2281315177679062,-1.652090851460592,-0.0,0.05135064944624901,0.7881596684455872,0.0,0.005566888488829136,0.7801604866981506,5.324461017153226e-05,-0.2720692455768585
434.0,717.0,1.0241,0.7597,9.8058,-0.0405,0.1846,-0.1295,-1.8665234051146449,-0.22048711776733398,2.862565279006958,-1.6831746101379395,0.3800279200077057,2.4860033988952637,4.923203217774191,-0.00018215965246781707,0.23767578601837158,-1.6520150343524378,-0.0,0.05954224616289139,0.7881677746772766,0.0,0.008113653399050236,0.7801039218902588,6.704795669065788e-05,-0.18835988640785217
434.0,717.0,1.0241,0.7597,9.8058,-0.0405,0.1846,-0.1295,-1.8682056866087855,-0.21842379868030548,2.8351540565490723,-1.6800897121429443,0.37949538230895996,2.4895222187042236,4.923179346113958,-0.00015871552750468254,0.22248101234436035,-1.6520264784442347,-0.0,0.045863665640354156,0.7881715297698975,0.0,0.004892538767307997,0.780083954334259,0.0001595779904164374,-0.2615738809108734
434.0,717.0,1.0241,0.7597,9.8058,-0.0405,0.1846,-0.1295,-1.869521280328268,-0.2062823623418808,2.8369221687316895,-1.6777613162994385,0.38185152411460876,2.485957622528076,4.9232433317001245,-0.00012292010069359094,0.2368469536304474,-1.6520102659808558,-0.0,0.053099118173122406,0.7881596088409424,0.0,-0.0020761287305504084,0.7800716161727905,0.00012604452786035836,-0.2643154263496399
434.0,717.0,1.0241,0.7597,9.8058,-0.0405,0.1846,-0.1295,-1.871228357354635,-0.21113121509552002,2.925225257873535,-1.674749732017517,0.3878670036792755,2.4457848072052,4.923187541752615,-0.00011072215420426801,0.23282355070114136,-1.6520345846759241,-0.0,0.056803375482559204,0.7881633043289185,0.0,0.00496914517134428,0.7800472974777222,0.00014769066183362156,-0.24554038047790527
434.0,717.0,1.0241,0.7597,9.8058,-0.0405,0.1846,-0.1295,-1.8725272617735804,-0.22038359940052032,2.920680522918701,-1.6724042892456055,0.3892638683319092,2.473625659942627,4.923215466528692,-0.0001236859679920599,0.23635032773017883,-1.6520264784442347,-0.0,0.05697387456893921,0.7881636619567871,0.0,0.011458130553364754,0.7801198959350586,0.00016913488798309118,-0.25336453318595886
434.0,717.0,1.0241,0.7597,9.8058,-0.0405,0.1846,-0.1295,-1.8743421039977015,-0.22156590223312378,2.894998073577881,-1.6692557334899902,0.3863217234611511,2.454134702682495,4.923207285791197,-0.00013223450514487922,0.2353198528289795,-1.652010742818014,-0.0,0.06763067096471786,0.7881673574447632,0.0,-0.004537689965218306,0.7801039218902588,0.00014239398296922445,-0.2711528539657593
434.0,717.0,1.0241,0.7597,9.8058,-0.0405,0.1846,-0.1295,-1.8756653271117152,-0.21557803452014923,2.9367337226867676,-1.666875958442688,0.39435818791389465,2.517355442047119,4.923223244934835,-0.00012440116552170366,0.23284398019313812,-1.6520832220660608,-0.0,0.05900317430496216,0.788191556930542,0.0,0.01058895979076624,0.7801080942153931,0.00012728909496217966,-0.23223021626472473
434.0,717.0,1.0241,0.7597,9.8058,-0.0405,0.1846,-0.1295,-1.877488752404684,-0.22624576091766357,2.8991262912750244,-1.6637763977050781,0.3949320912361145,2.468179225921631,4.923167454987325,-0.0001317556743742898,0.2307855486869812,-1.6520503203021448,-0.0,0.06267067790031433,0.7882116436958313,0.0,0.003861181205138564,0.7801039218902588,0.000111516666947864,-0.2680794298648834
303.0,427.0,0.3739,0.6275,9.1609,-0.0472,0.1933,-0.1364,-1.8789359531798304,-0.234857439994812,2.8538460731506348,-1.6614441871643066,0.4024520218372345,2.54024600982666,4.92317150810317,-0.00012490744120441377,0.23563936352729797,-1.6520584265338343,-0.0,0.06189734488725662,0.7882357835769653,0.0,0.0032440454233437777,0.7800917625427246,0.00010203434794675559,-0.22590093314647675
