ramyac6/ROB537/final_project/csv/good/good_94.csv
tof_0,tof_1,accelx,accely,accelz,gyrox,gyroy,gyroz,shoulder_lift_joint_position,shoulder_lift_joint_velocity,shoulder_lift_joint_effort,elbow_joint_position,elbow_joint_velocity,elbow_joint_effort,wrist_1_joint_position,wrist_1_joint_velocity,wrist_1_joint_effort,wrist_2_joint_position,wrist_2_joint_velocity,wrist_2_joint_effort,wrist_3_joint_position,wrist_3_joint_velocity,wrist_3_joint_effort,shoulder_pan_joint_position,shoulder_pan_joint_velocity,shoulder_pan_joint_effort
163.0,141.0,-0.0837,1.1719,9.4241,-0.033,0.0231,-0.1135,-2.228701730767721,0.0,4.839698791503906,-1.1062281131744385,-0.0,2.1686861515045166,4.764354708581724,0.0,0.2871723175048828,-1.5345562140094202,-0.0,-0.008724654093384743,-0.47409278551210576,0.0,-0.0013690480263903737,1.4070172309875488,0.0,0.018870234489440918
163.0,141.0,-0.0837,1.1719,9.4241,-0.033,0.0231,-0.1135,-2.228701253930563,0.0,4.760471820831299,-1.1061832904815674,-0.0,2.143477439880371,4.764298225730219,0.0,0.26915690302848816,-1.5345237890826624,-0.0,-0.023224610835313797,-0.474128548298971,0.0,0.0009415752720087767,1.4070091247558594,0.0,-0.06260419636964798
163.0,141.0,-0.0837,1.1719,9.4241,-0.033,0.0231,-0.1135,-2.2286936245360316,0.0,4.7747883796691895,-1.1061758995056152,-0.0,2.1418418884277344,4.764366629510679,0.0,0.2813958525657654,-1.5344956556903284,-0.0,-0.015407610684633255,-0.4740489164935511,0.0,-0.0027922100853174925,1.407049536705017,0.0,-0.00044893519952893257
163.0,141.0,-0.0837,1.1719,9.4241,-0.033,0.0231,-0.1135,-2.2287260494627894,0.0,4.750812530517578,-1.1062281131744385,-0.0,2.1230998039245605,4.7643383769090555,0.0,0.2639697194099426,-1.5345075766192835,-0.0,0.0010799756273627281,-0.47407275835146123,0.0,-0.0023335767909884453,1.4070333242416382,0.0,0.044846728444099426
163.0,141.0,-0.0837,1.1719,9.4241,-0.033,0.0231,-0.1135,-2.228757997552389,0.0,4.76088809967041,-1.1061553955078125,-0.0,2.1716318130493164,4.764334275364437,0.0,0.2788448929786682,-1.5345562140094202,-0.0,-0.026586033403873444,-0.47412044206728154,0.0,-0.010873842984437943,1.4069972038269043,0.0,-0.031554657965898514
163.0,141.0,-0.0837,1.1719,9.4241,-0.033,0.0231,-0.1135,-2.2287055454649867,0.0,4.773632526397705,-1.1062239408493042,-0.0,2.1465134620666504,4.764358873456278,0.0,0.2737621068954468,-1.5344679991351526,-0.0,-0.008661316707730293,-0.4740689436541956,0.0,0.00029800855554640293,1.4070656299591064,0.0,0.015598081983625889
163.0,141.0,-0.0837,1.1719,9.4241,-0.033,0.0231,-0.1135,-2.2287503681578578,0.0,4.823533058166504,-1.1061997413635254,-0.0,2.1557822227478027,4.764314646809854,0.0,0.2679862678050995,-1.534543816243307,-0.0,-0.015013150870800018,-0.47410470644106084,0.0,0.0038795110303908587,1.4069972038269043,0.0,-0.0020184051245450974
171.0,147.0,-0.1322,1.1539,9.5815,-0.0344,0.0266,-0.1199,-2.2286774120726527,0.0,4.765542507171631,-1.1061718463897705,-0.0,2.1681454181671143,4.764310467034139,0.0,0.2659815847873688,-1.5345075766192835,-0.0,-0.017641615122556686,-0.47405702272524053,0.0,0.00020198867423459888,1.407029151916504,0.0,-0.02201388031244278
171.0,147.0,-0.1322,1.1539,9.5815,-0.0344,0.0266,-0.1199,-2.2287379703917445,0.0,4.761821746826172,-1.1061996221542358,-0.0,2.1593222618103027,4.764306380390682,0.0,0.26902490854263306,-1.5344880262957972,-0.0,-0.014387737028300762,-0.4741008917437952,0.0,0.0023892223834991455,1.407001256942749,0.0,0.020043717697262764
171.0,147.0,-0.1322,1.1539,9.5815,-0.0344,0.0266,-0.1199,-2.228713651696676,0.0,4.769749641418457,-1.1061955690383911,-0.0,2.2021193504333496,4.764334659069338,0.0,0.26851803064346313,-1.5345199743853968,-0.0,-0.014590101316571236,-0.47410470644106084,0.0,0.009544005617499352,1.4069770574569702,0.0,0.04031413048505783
171.0,147.0,-0.1322,1.1539,9.5815,-0.0344,0.0266,-0.1199,-2.228734155694479,0.0,4.761437892913818,-1.106187343597412,-0.0,2.1500627994537354,4.764362937747993,0.0,0.2783168852329254,-1.5345199743853968,-0.0,-0.00737704848870635,-0.47407228151430303,0.0,-0.007704552263021469,1.4069770574569702,0.0,0.004758370108902454
171.0,147.0,-0.1322,1.1539,9.5815,-0.0344,0.0266,-0.1199,-2.2287179432311,0.0,4.7903571128845215,-1.1061553955078125,-0.0,2.182323932647705,4.764338362007894,0.0,0.2807236909866333,-1.5345400015460413,-0.0,-0.014698607847094536,-0.4740489164935511,0.0,-0.0005756095051765442,1.4070091247558594,0.0,-0.03269880637526512
171.0,147.0,-0.1322,1.1539,9.5815,-0.0344,0.0266,-0.1199,-2.2287217579283656,0.0,4.744638919830322,-1.10617995262146,-0.0,2.086052894592285,4.764362986176767,0.0,0.2717944383621216,-1.534515682850973,-0.0,-0.012107597663998604,-0.474036995564596,0.0,-0.005249234847724438,1.407021403312683,0.0,0.0011507226154208183
171.0,147.0,-0.1322,1.1539,9.5815,-0.0344,0.0266,-0.1199,-2.2286936245360316,0.0,4.811378002166748,-1.1061553955078125,-0.0,2.2036359310150146,4.764383069216766,0.0,0.2847905158996582,-1.5345681349383753,-0.0,-0.013229097239673138,-0.47413665453066045,0.0,0.007688452489674091,1.407029151916504,0.0,0.030760210007429123
171.0,147.0,-0.1322,1.1539,9.5815,-0.0344,0.0266,-0.1199,-2.228757997552389,0.0,4.795891761779785,-1.1062160730361938,-0.0,2.1081759929656982,4.764370701252975,0.0,0.2754952907562256,-1.534527603779928,-0.0,-0.018819455057382584,-0.4740689436541956,0.0,-0.00019468870596028864,1.406956672668457,0.0,0.02858857996761799
171.0,147.0,-0.1322,1.1539,9.5815,-0.0344,0.0266,-0.1199,-2.2287384472289027,0.0,4.810469627380371,-1.1061913967132568,-0.0,2.148458480834961,4.764310545265236,0.0,0.27614954113960266,-1.5345318953143519,-0.0,-0.01640618033707142,-0.47408849397768194,0.0,0.0018869922496378422,1.4070372581481934,0.0,-0.029690295457839966
171.0,147.0,-0.1322,1.1539,9.5815,-0.0344,0.0266,-0.1199,-2.228762289086813,0.0,4.829504013061523,-1.1062120199203491,-0.0,2.159597396850586,4.764330177545109,0.0,0.26718658208847046,-1.5345242659198206,-0.0,-0.0069596851244568825,-0.47410899797548467,0.0,-6.9810776039958e-05,1.4070091247558594,0.0,0.05196117237210274
171.0,147.0,-0.1322,1.1539,9.5815,-0.0344,0.0266,-0.1199,-2.2286936245360316,0.0,4.8158860206604,-1.1061553955078125,-0.0,2.143937826156616,4.764350688993492,0.0,0.27552342414855957,-1.5345724264727991,-0.0,-0.01900731772184372,-0.474036995564596,0.0,-0.0027700085192918777,1.4070454835891724,0.0,-0.05649252235889435
171.0,147.0,-0.1322,1.1539,9.5815,-0.0344,0.0266,-0.1199,-2.2287303409972132,0.0,4.792704105377197,-1.1061595678329468,-0.0,2.147677183151245,4.764367043017902,0.0,0.2775532901287079,-1.5345481077777308,-0.0,-0.004473951645195484,-0.4740966002093714,0.0,-0.005379443988204002,1.407020926475525,0.0,-0.00713852746412158
172.0,147.0,-0.1424,1.1689,9.4726,-0.0283,0.0185,-0.1081,-2.228762289086813,0.0,4.7233686447143555,-1.1061677932739258,-0.0,2.1741273403167725,4.764334323793211,0.0,0.27645984292030334,-1.5345400015460413,-0.0,-0.02260282263159752,-0.4741008917437952,0.0,-0.0005886942963115871,1.407013177871704,0.0,0.0029202678706496954
172.0,147.0,-0.1424,1.1689,9.4726,-0.0283,0.0185,-0.1081,-2.2287260494627894,0.0,4.805700302124023,-1.1062321662902832,-0.0,2.1310651302337646,4.764358873456278,0.0,0.27570945024490356,-1.5345400015460413,-0.0,-0.01295940950512886,-0.47412139574159795,0.0,-0.0010671063791960478,1.4069608449935913,0.0,-0.04681626334786415
172.0,147.0,-0.1424,1.1689,9.4726,-0.0283,0.0185,-0.1081,-2.2287303409972132,0.0,4.7937541007995605,-1.1061512231826782,-0.0,2.104975461959839,4.764358873456278,0.0,0.2639693021774292,-1.5344999472247522,-0.0,-0.00851475354284048,-0.4740408102618616,0.0,0.006966538727283478,1.4070454835891724,0.0,0.03237839415669441
172.0,147.0,-0.1424,1.1689,9.4726,-0.0283,0.0185,-0.1081,-2.2286936245360316,0.0,4.787106990814209,-1.1062198877334595,-0.0,2.1376075744628906,4.764370727330007,0.0,0.2666482627391815,-1.534515682850973,-0.0,-0.014320280402898788,-0.4741008917437952,0.0,-0.001468865666538477,1.4070172309875488,0.0,0.044858209788799286
172.0,147.0,-0.1424,1.1689,9.4726,-0.0283,0.0185,-0.1081,-2.228762289086813,0.0,4.794414043426514,-1.106187343597412,-0.0,2.185253143310547,4.76433430889205,0.0,0.2742480933666229,-1.5345318953143519,-0.0,-0.02728637307882309,-0.4740846792804163,0.0,0.0008746669627726078,1.407029151916504,0.0,-0.020172886550426483
172.0,147.0,-0.1424,1.1689,9.4726,-0.0283,0.0185,-0.1081,-2.2287780247130335,0.0,4.772993087768555,-1.1061233282089233,-0.0,2.132693290710449,4.764326523035326,0.0,0.26534831523895264,-1.5345481077777308,-0.0,-0.006621344015002251,-0.4741128126727503,0.0,-0.01578785479068756,1.407013177871704,0.0,0.04461311176419258
172.0,147.0,-0.1424,1.1689,9.4726,-0.0283,0.0185,-0.1081,-2.228746076623434,0.0,4.810734272003174,-1.1062520742416382,-0.0,2.172576665878296,4.7643908625240705,0.0,0.2767100930213928,-1.5345361868487757,-0.0,-0.012411695905029774,-0.47408849397768194,0.0,0.014272993430495262,1.4070333242416382,0.0,0.011837396770715714
172.0,147.0,-0.1424,1.1689,9.4726,-0.0283,0.0185,-0.1081,-2.2287422619261683,0.0,4.808045864105225,-1.106163501739502,-0.0,2.1130595207214355,4.764342519431867,0.0,0.2742462754249573,-1.5345242659198206,-0.0,-0.004156634211540222,-0.4741132895099085,0.0,-0.0037712997291237116,1.4070414304733276,0.0,0.03195269778370857
172.0,147.0,-0.1424,1.1689,9.4726,-0.0283,0.0185,-0.1081,-2.2287260494627894,0.0,4.802358627319336,-1.106179118156433,-0.0,2.135154962539673,4.764290588885107,0.0,0.2773115336894989,-1.5345357100116175,-0.0,-0.005783176049590111,-0.47406036058534795,0.0,0.0039574564434587955,1.4070372581481934,0.0,-0.025243930518627167
172.0,147.0,-0.1424,1.1689,9.4726,-0.0283,0.0185,-0.1081,-2.2286936245360316,0.0,4.772409439086914,-1.1061832904815674,-0.0,2.1544137001037598,4.764391197800197,0.0,0.2879279553890228,-1.5345724264727991,-0.0,-0.01919243298470974,-0.47412139574159795,0.0,-0.0049891103990375996,1.407029151916504,0.0,-0.020073752850294113
172.0,147.0,-0.1424,1.1689,9.4726,-0.0283,0.0185,-0.1081,-2.228697439233297,0.0,4.756100177764893,-1.1061593294143677,-0.0,2.1487042903900146,4.7643666481371305,0.0,0.27755942940711975,-1.5345237890826624,-0.0,-0.018056370317935944,-0.47410470644106084,0.0,-0.0020857625640928745,1.4070454835891724,0.0,-0.031958192586898804
172.0,147.0,-0.1424,1.1689,9.4726,-0.0283,0.0185,-0.1081,-2.2287303409972132,0.0,4.765942096710205,-1.1061997413635254,-0.0,2.151214122772217,4.764342534333029,0.0,0.27020925283432007,-1.5345681349383753,-0.0,-0.009908055886626244,-0.4740646521197718,0.0,-0.005979257170110941,1.4070250988006592,0.0,0.059299249202013016
170.0,147.0,-0.1621,1.1216,9.6473,-0.0463,0.0263,-0.1168,-2.2286893330016078,0.0,4.760631084442139,-1.1062037944793701,-0.0,2.1504993438720703,4.764362960099735,0.0,0.2735539674758911,-1.534571949635641,-0.0,-0.00798746943473816,-0.47408849397768194,0.0,0.00223626010119915,1.4069730043411255,0.0,0.018210217356681824
170.0,147.0,-0.1621,1.1216,9.6473,-0.0463,0.0263,-0.1168,-2.2287260494627894,0.0,4.74460506439209,-1.1061758995056152,-0.0,2.2166614532470703,4.764354682504692,0.0,0.27381011843681335,-1.5345242659198206,-0.0,-0.012700673192739487,-0.4740966002093714,0.0,-0.0076389010064303875,1.4070250988006592,0.0,-0.02123790979385376
170.0,147.0,-0.1621,1.1216,9.6473,-0.0463,0.0263,-0.1168,-2.228701253930563,0.0,4.792172431945801,-1.1061718463897705,-0.0,2.14982008934021,4.76435890698389,0.0,0.2830212712287903,-1.534527603779928,-0.0,-0.00495605543255806,-0.47407275835146123,0.0,0.001965766306966543,1.4070414304733276,0.0,-0.030841080471873283
170.0,147.0,-0.1621,1.1216,9.6473,-0.0463,0.0263,-0.1168,-2.228746076623434,0.0,4.743403911590576,-1.106260061264038,-0.0,2.1582937240600586,4.764326537936487,0.0,0.2776091694831848,-1.5345199743853968,-0.0,-0.012904783710837364,-0.4740656057940882,0.0,-0.008893401362001896,1.4069689512252808,0.0,0.03990955650806427
170.0,147.0,-0.1621,1.1216,9.6473,-0.0463,0.0263,-0.1168,-2.2287179432311,0.0,4.756963729858398,-1.1062078475952148,-0.0,2.1575424671173096,4.764367005764999,0.0,0.27064576745033264,-1.534527603779928,-0.0,-0.008490996435284615,-0.4741008917437952,0.0,0.005336713045835495,1.407049536705017,0.0,0.0305858813226223
170.0,147.0,-0.1621,1.1216,9.6473,-0.0463,0.0263,-0.1168,-2.2286936245360316,0.0,4.787188529968262,-1.1061997413635254,-0.0,2.1514787673950195,4.764342534333029,0.0,0.2793624997138977,-1.5345318953143519,-0.0,-0.01268304418772459,-0.47410899797548467,0.0,-0.00326378270983696,1.40699303150177,0.0,-0.0350879430770874
170.0,147.0,-0.1621,1.1216,9.6473,-0.0463,0.0263,-0.1168,-2.2286654911436976,0.0,4.786919593811035,-1.1061913967132568,-0.0,2.136241912841797,4.764370693802395,0.0,0.28184032440185547,-1.5345481077777308,-0.0,-0.022575397044420242,-0.47410899797548467,0.0,-0.0046052830293774605,1.407001256942749,0.0,0.007172681391239166
170.0,147.0,-0.1621,1.1216,9.6473,-0.0463,0.0263,-0.1168,-2.2286936245360316,0.0,4.770397663116455,-1.1061832904815674,-0.0,2.1475417613983154,4.764378919243374,0.0,0.2714118957519531,-1.5345638434039515,-0.0,-0.01125385332852602,-0.4740365187274378,0.0,0.002895211335271597,1.407004952430725,0.0,-0.028578216210007668
170.0,147.0,-0.1621,1.1216,9.6473,-0.0463,0.0263,-0.1168,-2.228762289086813,0.0,4.80924654006958,-1.106163501739502,-0.0,2.1476194858551025,4.764346647053518,0.0,0.27484285831451416,-1.5345400015460413,-0.0,-0.003991966135799885,-0.4740489164935511,0.0,-0.0012028866913169622,1.4070172309875488,0.0,-0.01839022897183895
170.0,147.0,-0.1621,1.1216,9.6473,-0.0463,0.0263,-0.1168,-2.228701730767721,0.0,4.776220798492432,-1.1062079668045044,-0.0,2.1176540851593018,4.764330628305235,0.0,0.2823883891105652,-1.5345481077777308,-0.0,0.005517990328371525,-0.47408849397768194,0.0,0.006284334696829319,1.4070614576339722,0.0,0.054474227130413055
170.0,147.0,-0.1621,1.1216,9.6473,-0.0463,0.0263,-0.1168,-2.2287303409972132,0.0,4.802371978759766,-1.106220006942749,-0.0,2.155376434326172,4.764386712550678,0.0,0.26490485668182373,-1.5345199743853968,-0.0,-0.005596071481704712,-0.47410470644106084,0.0,-0.010193354450166225,1.4070614576339722,0.0,-0.025517359375953674
170.0,147.0,-0.1621,1.1216,9.6473,-0.0463,0.0263,-0.1168,-2.2287541828551234,0.0,4.772855758666992,-1.1061832904815674,-0.0,2.150722026824951,4.764346613525905,0.0,0.2706327438354492,-1.5345318953143519,-0.0,-0.009750215336680412,-0.4740803877459925,0.0,0.009020395576953888,1.407004952430725,0.0,0.006962144747376442
170.0,147.0,-0.1621,1.1216,9.6473,-0.0463,0.0263,-0.1168,-2.2287336788573207,0.0,4.7570390701293945,-1.1062239408493042,-0.0,2.1994030475616455,4.764342567860641,0.0,0.2668134570121765,-1.5345361868487757,-0.0,-0.025994617491960526,-0.47409230867494756,0.0,8.531869389116764e-05,1.407013177871704,0.0,0.02416880801320076
167.0,146.0,-0.1035,1.1761,9.5037,-0.0312,0.0157,-0.1194,-2.2287379703917445,0.0,4.77712345123291,-1.1061594486236572,-0.0,2.1737327575683594,4.764310556441107,0.0,0.26742294430732727,-1.534527603779928,-0.0,-0.02798500657081604,-0.4740689436541956,0.0,-0.004299552645534277,1.407004952430725,0.0,0.009830649942159653
167.0,146.0,-0.1035,1.1761,9.5037,-0.0312,0.0157,-0.1194,-2.2287179432311,0.0,4.770631790161133,-1.106179118156433,-0.0,2.2111706733703613,4.764378963946857,0.0,0.2843397259712219,-1.5344999472247522,-0.0,-0.026752332225441933,-0.47407657304872686,0.0,0.003170143812894821,1.4070415496826172,0.0,-0.0018913847161456943
167.0,146.0,-0.1035,1.1761,9.5037,-0.0312,0.0157,-0.1194,-2.2287055454649867,0.0,4.768422603607178,-1.1061997413635254,-0.0,2.135685443878174,4.764342500805416,0.0,0.26721739768981934,-1.5344799200641077,-0.0,-0.008659746497869492,-0.4740408102618616,0.0,-0.0027638794854283333,1.4070333242416382,0.0,0.04696277529001236
167.0,146.0,-0.1035,1.1761,9.5037,-0.0312,0.0157,-0.1194,-2.2287384472289027,0.0,4.790306091308594,-1.106187343597412,-0.0,2.169511556625366,4.764318264066734,0.0,0.26951664686203003,-1.5345519224749964,-0.0,-0.009553312323987484,-0.47407657304872686,0.0,-0.0068839360028505325,1.407020926475525,0.0,-0.03644276037812233
167.0,146.0,-0.1035,1.1761,9.5037,-0.0312,0.0157,-0.1194,-2.228713651696676,0.0,4.765543460845947,-1.1062198877334595,-0.0,2.168301582336426,4.764342541783609,0.0,0.27307435870170593,-1.534543816243307,-0.0,-0.002442101016640663,-0.4740646521197718,0.0,0.0011802420485764742,1.4070172309875488,0.0,0.01292769517749548
167.0,146.0,-0.1035,1.1761,9.5037,-0.0312,0.0157,-0.1194,-2.2286936245360316,0.0,4.768519878387451,-1.1062202453613281,-0.0,2.1396570205688477,4.764382588654318,0.0,0.2749197483062744,-1.534515682850973,-0.0,0.0002782874507829547,-0.4740689436541956,0.0,-0.008747190237045288,1.4070172309875488,0.0,0.04026200249791145
167.0,146.0,-0.1035,1.1761,9.5037,-0.0312,0.0157,-0.1194,-2.2287217579283656,0.0,4.769568920135498,-1.1061512231826782,-0.0,2.146913528442383,4.764342526882448,0.0,0.2778305411338806,-1.5345199743853968,-0.0,-0.007298863958567381,-0.47408849397768194,0.0,-8.087093010544777e-05,1.4070372581481934,0.0,0.030807986855506897
167.0,146.0,-0.1035,1.1761,9.5037,-0.0312,0.0157,-0.1194,-2.228746076623434,0.0,4.816521167755127,-1.1061718463897705,-0.0,2.129955768585205,4.764358888357439,0.0,0.2762189209461212,-1.5345361868487757,-0.0,-0.02063511684536934,-0.47407275835146123,0.0,-0.011143201030790806,1.4070172309875488,0.0,0.028561947867274284
167.0,146.0,-0.1035,1.1761,9.5037,-0.0312,0.0157,-0.1194,-2.228697439233297,0.0,4.794154644012451,-1.1062078475952148,-0.0,2.1167430877685547,4.764354693680563,0.0,0.2678842842578888,-1.5345199743853968,-0.0,-0.01911214366555214,-0.4740689436541956,0.0,-0.004116745200008154,1.4070414304733276,0.0,0.02994392439723015
167.0,146.0,-0.1035,1.1761,9.5037,-0.0312,0.0157,-0.1194,-2.2286936245360316,0.0,4.827852725982666,-1.106163501739502,-0.0,2.120176076889038,4.764366614609518,0.0,0.28406625986099243,-1.5345361868487757,-0.0,-0.013994285836815834,-0.4740846792804163,0.0,0.008535100147128105,1.4070172309875488,0.0,0.07653249055147171
167.0,146.0,-0.1035,1.1761,9.5037,-0.0312,0.0157,-0.1194,-2.2287217579283656,0.0,4.8214311599731445,-1.1062119007110596,-0.0,2.1533102989196777,4.764358877181568,0.0,0.283291220664978,-1.5344999472247522,-0.0,-0.004140646196901798,-0.47412139574159795,0.0,0.009680505841970444,1.4069770574569702,0.0,-0.01592998579144478
167.0,146.0,-0.1035,1.1761,9.5037,-0.0312,0.0157,-0.1194,-2.228706022302145,0.0,4.786347389221191,-1.1061474084854126,-0.0,2.164108991622925,4.764342534333029,0.0,0.27689287066459656,-1.5345118681537073,-0.0,-0.015387561172246933,-0.47410470644106084,0.0,0.006191114895045757,1.4069931507110596,0.0,-0.011983116157352924
170.0,142.0,-0.0467,1.1833,9.4522,-0.04,0.026,-0.1129,-2.2287422619261683,0.0,4.795487880706787,-1.106187343597412,-0.0,2.162470817565918,4.764362960099735,0.0,0.272855281829834,-1.5345476309405726,-0.0,-0.004020933993160725,-0.4740689436541956,0.0,0.001501317834481597,1.4070091247558594,0.0,0.034132570028305054
170.0,142.0,-0.0467,1.1833,9.4522,-0.04,0.026,-0.1129,-2.228769918481344,0.0,4.784996509552002,-1.1061874628067017,-0.0,2.1593008041381836,4.7643223879630945,0.0,0.2724733054637909,-1.5345318953143519,-0.0,-0.019638925790786743,-0.4740846792804163,0.0,0.00572428572922945,1.407065510749817,0.0,0.02862890437245369
170.0,142.0,-0.0467,1.1833,9.4522,-0.04,0.026,-0.1129,-2.228769918481344,0.0,4.752216339111328,-1.1061832904815674,-0.0,2.140305995941162,4.764282620489158,0.0,0.2765182554721832,-1.534515682850973,-0.0,-0.011846242472529411,-0.4740408102618616,0.0,0.0043249791488051414,1.4070172309875488,0.0,-0.017788849771022797
170.0,142.0,-0.0467,1.1833,9.4522,-0.04,0.026,-0.1129,-2.2287055454649867,0.0,4.769575119018555,-1.106179118156433,-0.0,2.190504550933838,4.764338365733185,0.0,0.27389323711395264,-1.5345199743853968,-0.0,-0.007207356858998537,-0.474128548298971,0.0,-0.006551284808665514,1.407013177871704,0.0,-0.015218641608953476
170.0,142.0,-0.0467,1.1833,9.4522,-0.04,0.026,-0.1129,-2.228713651696676,0.0,4.77545166015625,-1.1061954498291016,-0.0,2.1393821239471436,4.764346624701776,0.0,0.28727486729621887,-1.5344918409930628,-0.0,-0.009143549017608166,-0.47407704988588506,0.0,-0.010536347515881062,1.407013177871704,0.0,0.02586071938276291
170.0,142.0,-0.0467,1.1833,9.4522,-0.04,0.026,-0.1129,-2.2287260494627894,0.0,4.830347061157227,-1.1061151027679443,-0.0,2.140899658203125,4.76436252424077,0.0,0.2727084457874298,-1.5345318953143519,-0.0,-0.01314864307641983,-0.47408849397768194,0.0,0.01186865009367466,1.4070172309875488,0.0,0.05451035872101784
170.0,142.0,-0.0467,1.1833,9.4522,-0.04,0.026,-0.1129,-2.228673597375387,0.0,4.80175256729126,-1.1061718463897705,-0.0,2.081887722015381,4.764354693680563,0.0,0.27689215540885925,-1.5345118681537073,-0.0,-0.01624407060444355,-0.47407704988588506,0.0,0.011611603200435638,1.4070172309875488,0.0,-0.0019724760204553604
170.0,142.0,-0.0467,1.1833,9.4522,-0.04,0.026,-0.1129,-2.228746076623434,0.0,4.77554988861084,-1.106227993965149,-0.0,2.181796073913574,4.764318301319637,0.0,0.2743525803089142,-1.534515682850973,-0.0,-0.012094732373952866,-0.4741171042071741,0.0,-0.015910813584923744,1.4070614576339722,0.0,0.04455765709280968
170.0,142.0,-0.0467,1.1833,9.4522,-0.04,0.026,-0.1129,-2.2287303409972132,0.0,4.7685041427612305,-1.1061553955078125,-0.0,2.1363937854766846,4.764383050590315,0.0,0.2815903127193451,-1.5344918409930628,-0.0,-0.0013438172172755003,-0.4740803877459925,0.0,0.005239264573901892,1.406981110572815,0.0,0.020327128469944
170.0,142.0,-0.0467,1.1833,9.4522,-0.04,0.026,-0.1129,-2.2287217579283656,0.0,4.789950847625732,-1.1061955690383911,-0.0,2.1684420108795166,4.76436252424077,0.0,0.26771989464759827,-1.5345199743853968,-0.0,-0.013741124421358109,-0.47405702272524053,0.0,-0.007391694467514753,1.407065510749817,0.0,-0.006476482376456261
170.0,142.0,-0.0467,1.1833,9.4522,-0.04,0.026,-0.1129,-2.2287217579283656,0.0,4.751855850219727,-1.1062359809875488,-0.0,2.15836501121521,4.764350688993492,0.0,0.27624765038490295,-1.5344999472247522,-0.0,-0.009439595974981785,-0.4740646521197718,0.0,0.0048970626667141914,1.4070332050323486,0.0,0.029197147116065025
170.0,142.0,-0.0467,1.1833,9.4522,-0.04,0.026,-0.1129,-2.228746076623434,0.0,4.779212951660156,-1.1061718463897705,-0.0,2.1687240600585938,4.764342843532123,0.0,0.26781341433525085,-1.5344999472247522,-0.0,-0.003167482791468501,-0.47408849397768194,0.0,-0.0016842735931277275,1.407013177871704,0.0,-0.01564069837331772
168.0,151.0,-0.1651,1.1348,9.5581,-0.0405,0.0224,-0.1116,-2.2287661037840785,0.0,4.747122764587402,-1.1061352491378784,-0.0,2.0991601943969727,4.764394923090496,0.0,0.26780423521995544,-1.5345118681537073,-0.0,-0.008874805644154549,-0.4740646521197718,0.0,-0.010192074812948704,1.4070332050323486,0.0,-0.009130849502980709
168.0,151.0,-0.1651,1.1348,9.5581,-0.0405,0.0224,-0.1116,-2.2287541828551234,0.0,4.775780200958252,-1.1061594486236572,-0.0,2.1797356605529785,4.764378963946857,0.0,0.2824837267398834,-1.5345080534564417,-0.0,-0.003012978471815586,-0.4741295019732874,0.0,0.003415167797356844,1.4070372581481934,0.0,0.010077066719532013
168.0,151.0,-0.1651,1.1348,9.5581,-0.0405,0.0224,-0.1116,-2.2287823162474574,0.0,4.786479473114014,-1.1061314344406128,-0.0,2.097705125808716,4.764386712550678,0.0,0.28545504808425903,-1.5345318953143519,-0.0,-0.008389247581362724,-0.4740689436541956,0.0,0.0014984039589762688,1.407013177871704,0.0,-0.019500993192195892
168.0,151.0,-0.1651,1.1348,9.5581,-0.0405,0.0224,-0.1116,-2.2287379703917445,0.0,4.777291774749756,-1.1061393022537231,-0.0,2.1662213802337646,4.764330222248592,0.0,0.28027990460395813,-1.534515682850973,-0.0,-0.0034872591495513916,-0.47408849397768194,0.0,0.010461181402206421,1.4070454835891724,0.0,-0.0036980994045734406
168.0,151.0,-0.1651,1.1348,9.5581,-0.0405,0.0224,-0.1116,-2.228786130944723,0.0,4.743387699127197,-1.106163501739502,-0.0,2.0935544967651367,4.7643383769090555,0.0,0.2730185091495514,-1.5345280806170862,-0.0,-0.011362539604306221,-0.47410899797548467,0.0,-0.002175099914893508,1.407013177871704,0.0,-0.009703065268695354
168.0,151.0,-0.1651,1.1348,9.5581,-0.0405,0.0224,-0.1116,-2.2287093601622523,0.0,4.7818498611450195,-1.1061913967132568,-0.0,2.1718552112579346,4.7643830617661855,0.0,0.2818821668624878,-1.5345199743853968,-0.0,-0.011002554558217525,-0.4740489164935511,0.0,0.00540557038038969,1.4070332050323486,0.0,0.013346686027944088
168.0,151.0,-0.1651,1.1348,9.5581,-0.0405,0.0224,-0.1116,-2.2287384472289027,0.0,4.775763511657715,-1.1062318086624146,-0.0,2.121959686279297,4.764406892448225,0.0,0.2801530957221985,-1.5345481077777308,-0.0,-0.015177343040704727,-0.4740689436541956,0.0,-0.006440858356654644,1.407029151916504,0.0,-0.021482007578015327
168.0,151.0,-0.1651,1.1348,9.5581,-0.0405,0.0224,-0.1116,-2.2287055454649867,0.0,4.794432163238525,-1.1061832904815674,-0.0,2.173499584197998,4.764374851226368,0.0,0.27797549962997437,-1.5345318953143519,-0.0,-0.021810173988342285,-0.4741252104388636,0.0,0.0029111006297171116,1.4070172309875488,0.0,-0.004248628858476877
168.0,151.0,-0.1651,1.1348,9.5581,-0.0405,0.0224,-0.1116,-2.2287179432311,0.0,4.778794765472412,-1.1061474084854126,-0.0,2.125296115875244,4.764358851104536,0.0,0.2855533957481384,-1.534515682850973,-0.0,-0.009326077997684479,-0.47404510179628545,0.0,0.003098339308053255,1.4070212841033936,0.0,-0.0015314938500523567
168.0,151.0,-0.1651,1.1348,9.5581,-0.0405,0.0224,-0.1116,-2.2287541828551234,0.0,4.817953586578369,-1.1061636209487915,-0.0,2.1488037109375,4.764346635877647,0.0,0.2658578157424927,-1.5345199743853968,-0.0,-0.02112225629389286,-0.4741571585284632,0.0,0.004727729596197605,1.4070172309875488,0.0,0.02228047512471676
168.0,151.0,-0.1651,1.1348,9.5581,-0.0405,0.0224,-0.1116,-2.228701730767721,0.0,4.7816691398620605,-1.1061676740646362,-0.0,2.1237432956695557,4.764346609800615,0.0,0.27229830622673035,-1.5344961325274866,-0.0,-0.008936823345720768,-0.47407657304872686,0.0,-0.005558495409786701,1.4069770574569702,0.0,-0.0027301509398967028
168.0,151.0,-0.1651,1.1348,9.5581,-0.0405,0.0224,-0.1116,-2.2287541828551234,0.0,4.827993869781494,-1.1061954498291016,-0.0,2.2166101932525635,4.764354693680563,0.0,0.2717137932777405,-1.5345318953143519,-0.0,-0.01936357095837593,-0.47403270403017217,0.0,-0.006460079923272133,1.4070574045181274,0.0,0.005452464800328016
168.0,151.0,-0.1651,1.1348,9.5581,-0.0405,0.0224,-0.1116,-2.2286893330016078,0.0,4.773618698120117,-1.1061677932739258,-0.0,2.15653657913208,4.764346624701776,0.0,0.2836965024471283,-1.5345361868487757,-0.0,-0.008473122492432594,-0.4741008917437952,0.0,0.0024710814468562603,1.4070532321929932,0.0,-0.027573980391025543
168.0,144.0,-0.1406,1.1043,9.6676,-0.0357,0.018,-0.1058,-2.228689809838766,0.0,4.751765251159668,-1.1062158346176147,-0.0,2.152318000793457,4.764394934266367,0.0,0.27812135219573975,-1.5345123449908655,-0.0,-0.014831922017037868,-0.4740532080279749,0.0,0.004321940243244171,1.4069972038269043,0.0,-0.016044244170188904
168.0,144.0,-0.1406,1.1043,9.6676,-0.0357,0.018,-0.1058,-2.2286492786803187,0.0,4.7230024337768555,-1.1062037944793701,-0.0,2.1568214893341064,4.764334297716179,0.0,0.28842663764953613,-1.534515682850973,-0.0,-0.008012878708541393,-0.4740966002093714,0.0,-0.001554196933284402,1.4070172309875488,0.0,-0.012743333354592323
168.0,144.0,-0.1406,1.1043,9.6676,-0.0357,0.018,-0.1058,-2.2287455997862757,0.0,4.807642936706543,-1.1061913967132568,-0.0,2.127495527267456,4.764366614609518,0.0,0.2750922441482544,-1.5345242659198206,-0.0,-0.0017726295627653599,-0.47408849397768194,0.0,0.003176352009177208,1.4070454835891724,0.0,-0.007704370655119419
168.0,144.0,-0.1406,1.1043,9.6676,-0.0357,0.018,-0.1058,-2.228713651696676,0.0,4.780618667602539,-1.1061954498291016,-0.0,2.129930257797241,4.764386712550678,0.0,0.281435489654541,-1.5345400015460413,-0.0,-0.004459095187485218,-0.4741328398333948,0.0,0.005914271809160709,1.407013177871704,0.0,0.009043507277965546
168.0,144.0,-0.1406,1.1043,9.6676,-0.0357,0.018,-0.1058,-2.2286893330016078,0.0,4.790541648864746,-1.1061676740646362,-0.0,2.161428928375244,4.764358836203375,0.0,0.2721782922744751,-1.5344679991351526,-0.0,-0.01862594485282898,-0.4741409460650843,0.0,0.00824226438999176,1.406981110572815,0.0,0.02525055781006813
168.0,144.0,-0.1406,1.1043,9.6676,-0.0357,0.018,-0.1058,-2.228757997552389,0.0,4.785440444946289,-1.1061997413635254,-0.0,2.1807258129119873,4.764342418849029,0.0,0.26695942878723145,-1.5345361868487757,-0.0,-0.00806419551372528,-0.4740489164935511,0.0,-0.007387727499008179,1.4070125818252563,0.0,-0.03199491277337074
168.0,144.0,-0.1406,1.1043,9.6676,-0.0357,0.018,-0.1058,-2.2287217579283656,0.0,4.750822067260742,-1.1061832904815674,-0.0,2.1491739749908447,4.764350640564718,0.0,0.2741333842277527,-1.5345318953143519,-0.0,-0.009920378215610981,-0.4740966002093714,0.0,0.00535051291808486,1.407004952430725,0.0,-0.033009059727191925
168.0,144.0,-0.1406,1.1043,9.6676,-0.0357,0.018,-0.1058,-2.228701730767721,0.0,4.785835266113281,-1.1061553955078125,-0.0,2.1547579765319824,4.7643588473792455,0.0,0.2687910795211792,-1.5345481077777308,-0.0,-0.02394701912999153,-0.4740966002093714,0.0,0.0007479938212782145,1.4070090055465698,0.0,-0.025717642158269882
168.0,144.0,-0.1406,1.1043,9.6676,-0.0357,0.018,-0.1058,-2.2287217579283656,0.0,4.7873921394348145,-1.1062037944793701,-0.0,2.187824010848999,4.764358880906858,0.0,0.2775765657424927,-1.5345118681537073,-0.0,-0.03957005962729454,-0.4741132895099085,0.0,0.009134901687502861,1.4070333242416382,0.0,0.016328562051057816
168.0,144.0,-0.1406,1.1043,9.6676,-0.0357,0.018,-0.1058,-2.228762289086813,0.0,4.769996643066406,-1.1061750650405884,-0.0,2.1409363746643066,4.764334297716179,0.0,0.27570539712905884,-1.5345400015460413,-0.0,-0.008949168026447296,-0.47407657304872686,0.0,0.007571202702820301,1.4069972038269043,0.0,-0.004186427686363459
168.0,144.0,-0.1406,1.1043,9.6676,-0.0357,0.018,-0.1058,-2.2287303409972132,0.0,4.736548900604248,-1.106187343597412,-0.0,2.1876931190490723,4.764362937747993,0.0,0.2663131058216095,-1.534515682850973,-0.0,-0.012156819924712181,-0.4740966002093714,0.0,0.003036939073354006,1.4070372581481934,0.0,0.02954522892832756
168.0,144.0,-0.1406,1.1043,9.6676,-0.0357,0.018,-0.1058,-2.2287055454649867,0.0,4.782587051391602,-1.1061512231826782,-0.0,2.121853828430176,4.764342526882448,0.0,0.2796715497970581,-1.5345199743853968,-0.0,-0.0033499638084322214,-0.4740803877459925,0.0,-0.004187565762549639,1.4070172309875488,0.0,0.05909445881843567
176.0,140.0,-0.1418,1.1533,9.4929,-0.0357,0.0197,-0.1101,-2.2287427387633265,0.0,4.735867023468018,-1.1061677932739258,-0.0,2.1263647079467773,4.764362930297413,0.0,0.281491219997406,-1.5345361868487757,-0.0,-0.010661356151103973,-0.47410470644106084,0.0,0.0016924990341067314,1.4070454835891724,0.0,0.03827885910868645
176.0,140.0,-0.1418,1.1533,9.4929,-0.0357,0.0197,-0.1101,-2.2287217579283656,0.0,4.800605773925781,-1.1062440872192383,-0.0,2.165332555770874,4.764318301319637,0.0,0.2711334824562073,-1.534539524708883,-0.0,-0.022510211914777756,-0.4741247336017054,0.0,0.0007425742223858833,1.4070172309875488,0.0,0.03252529725432396
176.0,140.0,-0.1418,1.1533,9.4929,-0.0357,0.0197,-0.1101,-2.2287422619261683,0.0,4.7864580154418945,-1.1061718463897705,-0.0,2.2197489738464355,4.764322376787224,0.0,0.2867392301559448,-1.5345237890826624,-0.0,-0.012647422961890697,-0.47401267686952764,0.0,0.003950999118387699,1.407037377357483,0.0,-0.02852225862443447
176.0,140.0,-0.1418,1.1533,9.4929,-0.0357,0.0197,-0.1101,-2.2287379703917445,0.0,4.840543746948242,-1.1061676740646362,-0.0,2.11948299407959,4.764350618212976,0.0,0.26934415102005005,-1.5345242659198206,-0.0,-0.02174033597111702,-0.4740489164935511,0.0,0.006845566444098949,1.4070372581481934,0.0,0.019446277990937233
176.0,140.0,-0.1418,1.1533,9.4929,-0.0357,0.0197,-0.1101,-2.2287179432311,0.0,4.775609016418457,-1.1062037944793701,-0.0,2.196535587310791,4.7643383769090555,0.0,0.2741312086582184,-1.5345519224749964,-0.0,-0.008700286969542503,-0.4741128126727503,0.0,-0.001976591069251299,1.4069972038269043,0.0,-0.020116042345762253
176.0,140.0,-0.1418,1.1533,9.4929,-0.0357,0.0197,-0.1101,-2.2287093601622523,0.0,4.796836853027344,-1.1061832904815674,-0.0,2.1613192558288574,4.764330222248592,0.0,0.276904821395874,-1.5345318953143519,-0.0,-0.01161119807511568,-0.4740803877459925,0.0,-0.006259051151573658,1.4069770574569702,0.0,-0.01965736411511898
176.0,140.0,-0.1418,1.1533,9.4929,-0.0357,0.0197,-0.1101,-2.228746076623434,0.0,4.765412330627441,-1.1061955690383911,-0.0,2.1680374145507812,4.764362904220381,0.0,0.2785674035549164,-1.5345318953143519,-0.0,-0.011722102761268616,-0.4740532080279749,0.0,-0.0023377358447760344,1.4070091247558594,0.0,-0.02800131030380726
176.0,140.0,-0.1418,1.1533,9.4929,-0.0357,0.0197,-0.1101,-2.2287055454649867,0.0,4.795323371887207,-1.1061471700668335,-0.0,2.132925033569336,4.76433431634263,0.0,0.26468807458877563,-1.5345199743853968,-0.0,-0.0025095706805586815,-0.4740689436541956,0.0,-0.01493067666888237,1.4070454835891724,0.0,0.020606033504009247
176.0,140.0,-0.1418,1.1533,9.4929,-0.0357,0.0197,-0.1101,-2.228746076623434,0.0,4.794285774230957,-1.1062079668045044,-0.0,2.196376323699951,4.764350618212976,0.0,0.26954540610313416,-1.5345242659198206,-0.0,-0.015281036496162415,-0.4740966002093714,0.0,0.0018495609983801842,1.4070454835891724,0.0,-0.045866459608078
176.0,140.0,-0.1418,1.1533,9.4929,-0.0357,0.0197,-0.1101,-2.228762289086813,0.0,4.763987064361572,-1.1061997413635254,-0.0,2.203040599822998,4.764354693680563,0.0,0.27160802483558655,-1.5345080534564417,-0.0,-0.012388993985950947,-0.47405702272524053,0.0,-0.013228198513388634,1.407029151916504,0.0,-0.0033095101825892925
176.0,140.0,-0.1418,1.1533,9.4929,-0.0357,0.0197,-0.1101,-2.2287503681578578,0.0,4.791243076324463,-1.106179118156433,-0.0,2.1073954105377197,4.764354686229982,0.0,0.2778458297252655,-1.5345075766192835,-0.0,-0.015690091997385025,-0.4740846792804163,0.0,-0.004410326015204191,1.4070168733596802,0.0,-0.03716469183564186
176.0,140.0,-0.1418,1.1533,9.4929,-0.0357,0.0197,-0.1101,-2.2287260494627894,0.0,4.748868942260742,-1.106179118156433,-0.0,2.15000581741333,4.764358873456278,0.0,0.2809135317802429,-1.5345199743853968,-0.0,-0.008739853277802467,-0.47410470644106084,0.0,-0.00334290973842144,1.407001256942749,0.0,0.0271687563508749
169.0,145.0,-0.0897,1.1779,9.408,-0.0385,0.0299,-0.1196,-2.228701730767721,0.0,4.742257118225098,-1.1061594486236572,-0.0,2.155200481414795,4.764370682626524,0.0,0.27560192346572876,-1.5345481077777308,-0.0,-0.02120521105825901,-0.47406036058534795,0.0,-0.0031640976667404175,1.4070372581481934,0.0,0.005717340856790543
169.0,145.0,-0.0897,1.1779,9.408,-0.0385,0.0299,-0.1196,-2.2287303409972132,0.0,4.811183929443359,-1.1061677932739258,-0.0,2.1594560146331787,4.764374460070886,0.0,0.27056586742401123,-1.5345037619220179,-0.0,-0.019084669649600983,-0.47410470644106084,0.0,-0.002075039781630039,1.4069771766662598,0.0,0.011837834492325783
169.0,145.0,-0.0897,1.1779,9.408,-0.0385,0.0299,-0.1196,-2.2287093601622523,0.0,4.798422813415527,-1.1061636209487915,-0.0,2.1319332122802734,4.764346524118938,0.0,0.27379322052001953,-1.5344837347613733,-0.0,-0.012321779504418373,-0.4740966002093714,0.0,0.005232658237218857,1.4070372581481934,0.0,-0.046799466013908386
169.0,145.0,-0.0897,1.1779,9.408,-0.0385,0.0299,-0.1196,-2.2287379703917445,0.0,4.783416748046875,-1.1061955690383911,-0.0,2.206617832183838,4.7643465650971315,0.0,0.2638055682182312,-1.5345075766192835,-0.0,0.0010480498895049095,-0.474008862172262,0.0,0.019485408440232277,1.407029151916504,0.0,-0.01901080831885338
169.0,145.0,-0.0897,1.1779,9.408,-0.0385,0.0299,-0.1196,-2.2287093601622523,0.0,4.7591753005981445,-1.1061677932739258,-0.0,2.139535427093506,4.764358851104536,0.0,0.27198025584220886,-1.534515682850973,-0.0,-0.003415326587855816,-0.47410470644106084,0.0,-0.005499963648617268,1.4069970846176147,0.0,0.016102319583296776
169.0,145.0,-0.0897,1.1779,9.408,-0.0385,0.0299,-0.1196,-2.2287055454649867,0.0,4.7955851554870605,-1.1061997413635254,-0.0,2.1553173065185547,4.764358866005697,0.0,0.28190773725509644,-1.5345481077777308,-0.0,-0.007701215799897909,-0.4740245977984827,0.0,-0.004171686712652445,1.407029151916504,0.0,0.001508553046733141
169.0,145.0,-0.0897,1.1779,9.408,-0.0385,0.0299,-0.1196,-2.2287384472289027,0.0,4.808627605438232,-1.1061676740646362,-0.0,2.153406858444214,4.764386697649517,0.0,0.2745130658149719,-1.5345361868487757,-0.0,-0.011135872453451157,-0.4741295019732874,0.0,-0.0013149948790669441,1.4070250988006592,0.0,0.016186047345399857
169.0,145.0,-0.0897,1.1779,9.408,-0.0385,0.0299,-0.1196,-2.228774210015768,0.0,4.793661594390869,-1.1062359809875488,-0.0,2.1815760135650635,4.764330605953493,0.0,0.2733854651451111,-1.5345400015460413,-0.0,-0.014319216832518578,-0.47412044206728154,0.0,-0.0013838617596775293,1.407020926475525,0.0,0.00828870665282011
169.0,145.0,-0.0897,1.1779,9.408,-0.0385,0.0299,-0.1196,-2.2287336788573207,0.0,4.785107612609863,-1.1062198877334595,-0.0,2.1498448848724365,4.764406844019451,0.0,0.27464619278907776,-1.5345361868487757,-0.0,-0.01221693865954876,-0.4740803877459925,0.0,-0.0040292888879776,1.4070212841033936,0.0,-0.005820418242365122
169.0,145.0,-0.0897,1.1779,9.408,-0.0385,0.0299,-0.1196,-2.228701730767721,0.0,4.747405529022217,-1.1061954498291016,-0.0,2.1642134189605713,4.7643306134040735,0.0,0.27945560216903687,-1.5345519224749964,-0.0,-0.002854392398148775,-0.4741008917437952,0.0,0.010145717300474644,1.4070212841033936,0.0,-0.02129010111093521
169.0,145.0,-0.0897,1.1779,9.408,-0.0385,0.0299,-0.1196,-2.2287303409972132,0.0,4.745573043823242,-1.1061832904815674,-0.0,2.167585849761963,4.764358851104536,0.0,0.26706239581108093,-1.5345681349383753,-0.0,-0.00674072653055191,-0.47406036058534795,0.0,0.002806988777592778,1.4070372581481934,0.0,0.004438625182956457
169.0,145.0,-0.0897,1.1779,9.408,-0.0385,0.0299,-0.1196,-2.2287179432311,0.0,4.843789100646973,-1.1061955690383911,-0.0,2.1159727573394775,4.76431834229783,0.0,0.26661738753318787,-1.5345318953143519,-0.0,-0.01618509739637375,-0.474036995564596,0.0,0.001679286826401949,1.4070250988006592,0.0,0.013624378480017185
169.0,145.0,-0.0897,1.1779,9.408,-0.0385,0.0299,-0.1196,-2.2287093601622523,0.0,4.78469181060791,-1.10617995262146,-0.0,2.1457576751708984,4.7643306134040735,0.0,0.2832150459289551,-1.534539524708883,-0.0,0.005378291942179203,-0.474036995564596,0.0,-0.0010217248927801847,1.407029151916504,0.0,-0.005783594213426113
167.0,141.0,-0.1848,1.1204,9.5719,-0.0359,0.0264,-0.1167,-2.2287217579283656,0.0,4.757866382598877,-1.106260061264038,-0.0,2.127631664276123,4.764350618212976,0.0,0.27257779240608215,-1.534527603779928,-0.0,-0.0150275444611907,-0.47410470644106084,0.0,0.0013516846811398864,1.4070454835891724,0.0,-0.04261024668812752
167.0,141.0,-0.1848,1.1204,9.5719,-0.0359,0.0264,-0.1167,-2.2287179432311,0.0,4.746851444244385,-1.1061832904815674,-0.0,2.141479015350342,4.764358851104536,0.0,0.2774788439273834,-1.534515682850973,-0.0,-0.012492855079472065,-0.47409278551210576,0.0,0.0031224414706230164,1.4069972038269043,0.0,0.008906584233045578
167.0,141.0,-0.1848,1.1204,9.5719,-0.0359,0.0264,-0.1167,-2.2287455997862757,0.0,4.782225608825684,-1.1061832904815674,-0.0,2.1327667236328125,4.764378978848018,0.0,0.266828328371048,-1.5345161596881312,-0.0,-0.013651172630488873,-0.4741171042071741,0.0,-0.0037745186127722263,1.4069972038269043,0.0,-0.021257249638438225
167.0,141.0,-0.1848,1.1204,9.5719,-0.0359,0.0264,-0.1167,-2.2287055454649867,0.0,4.786220073699951,-1.1061718463897705,-0.0,2.1838791370391846,4.764358851104536,0.0,0.27245402336120605,-1.5345400015460413,-0.0,-0.005488554947078228,-0.47410470644106084,0.0,0.0072325184009969234,1.4070574045181274,0.0,-0.002220168709754944
167.0,141.0,-0.1848,1.1204,9.5719,-0.0359,0.0264,-0.1167,-2.2287303409972132,0.0,4.787525177001953,-1.1061114072799683,-0.0,2.117007255554199,4.764342534333029,0.0,0.26409992575645447,-1.5345481077777308,-0.0,-0.007191783748567104,-0.4741132895099085,0.0,-0.004183426033705473,1.4069972038269043,0.0,-0.03688022494316101
167.0,141.0,-0.1848,1.1204,9.5719,-0.0359,0.0264,-0.1167,-2.2287455997862757,0.0,4.78310489654541,-1.1061758995056152,-0.0,2.1754050254821777,4.764358437597313,0.0,0.27135345339775085,-1.5345681349383753,-0.0,-0.020395781844854355,-0.4741171042071741,0.0,0.003928090911358595,1.4070535898208618,0.0,0.018711436539888382
167.0,141.0,-0.1848,1.1204,9.5719,-0.0359,0.0264,-0.1167,-2.2286893330016078,0.0,4.775138854980469,-1.106187343597412,-0.0,2.116248846054077,4.764326537936487,0.0,0.2707812488079071,-1.5345118681537073,-0.0,-0.008977563120424747,-0.47410470644106084,0.0,-0.0029262572061270475,1.407065510749817,0.0,-0.01417603064328432
167.0,141.0,-0.1848,1.1204,9.5719,-0.0359,0.0264,-0.1167,-2.228734155694479,0.0,4.8373332023620605,-1.1062037944793701,-0.0,2.131967067718506,4.764358851104536,0.0,0.26910504698753357,-1.5345357100116175,-0.0,-0.020463546738028526,-0.47407704988588506,0.0,0.0010098130442202091,1.4070454835891724,0.0,0.022081075236201286
167.0,141.0,-0.1848,1.1204,9.5719,-0.0359,0.0264,-0.1167,-2.2287093601622523,0.0,4.807745933532715,-1.1061955690383911,-0.0,2.1500070095062256,4.764326146781006,0.0,0.2669377028942108,-1.534555737172262,-0.0,-0.0015471545048058033,-0.4741171042071741,0.0,-0.011038824915885925,1.407004952430725,0.0,-0.023984935134649277
167.0,141.0,-0.1848,1.1204,9.5719,-0.0359,0.0264,-0.1167,-2.228701253930563,0.0,4.781933307647705,-1.1061512231826782,-0.0,2.1484808921813965,4.764370719879427,0.0,0.27476364374160767,-1.5345318953143519,-0.0,-0.01574564352631569,-0.4740803877459925,0.0,-0.008833037689328194,1.407001256942749,0.0,0.029469747096300125
167.0,141.0,-0.1848,1.1204,9.5719,-0.0359,0.0264,-0.1167,-2.228696962396139,0.0,4.814114093780518,-1.1061954498291016,-0.0,2.144545555114746,4.764374851226368,0.0,0.26976335048675537,-1.534515682850973,-0.0,-0.01023520715534687,-0.47407657304872686,0.0,-0.0034282163251191378,1.407013177871704,0.0,-0.013125766068696976
167.0,141.0,-0.1848,1.1204,9.5719,-0.0359,0.0264,-0.1167,-2.2287422619261683,0.0,4.736833572387695,-1.1061996221542358,-0.0,2.133624792098999,4.764350633114137,0.0,0.26683321595191956,-1.5345161596881312,-0.0,-0.011185201816260815,-0.47413665453066045,0.0,0.004625780042260885,1.407020926475525,0.0,-0.008247044868767262
170.0,146.0,-0.2542,1.1007,9.8178,-0.0388,0.0231,-0.1119,-2.2287661037840785,0.0,4.755728721618652,-1.106163501739502,-0.0,2.1915650367736816,4.764322376787224,0.0,0.2801084518432617,-1.5345037619220179,-0.0,-0.006519344635307789,-0.47410470644106084,0.0,0.002175223547965288,1.4069931507110596,0.0,-0.035113271325826645
170.0,146.0,-0.2542,1.1007,9.8178,-0.0388,0.0231,-0.1119,-2.228729864160055,0.0,4.829488754272461,-1.106163501739502,-0.0,2.177323341369629,4.764314617007532,0.0,0.28240054845809937,-1.5345519224749964,-0.0,-0.009930509142577648,-0.4740966002093714,0.0,-0.018856892362236977,1.407013177871704,0.0,-0.010941976681351662
170.0,146.0,-0.2542,1.1007,9.8178,-0.0388,0.0231,-0.1119,-2.228685041467184,0.0,4.789987564086914,-1.1062079668045044,-0.0,2.207141876220703,4.764394923090496,0.0,0.27414223551750183,-1.5345037619220179,5.57088185360044e-07,-0.008991233073174953,-0.47407275835146123,0.0,-0.0020231674425303936,1.407029151916504,0.0,-0.0026462497189641
170.0,146.0,-0.2542,1.1007,9.8178,-0.0388,0.0231,-0.1119,-2.2287260494627894,0.0,4.785048961639404,-1.1061515808105469,-0.0,2.136650800704956,4.764374851226368,0.0,0.2787397503852844,-1.5344837347613733,1.5506755601801814e-10,-0.022374168038368225,-0.47407275835146123,0.0,-0.0020769305992871523,1.407029151916504,0.0,-0.034555260092020035
170.0,146.0,-0.2542,1.1007,9.8178,-0.0388,0.0231,-0.1119,-2.228713651696676,0.0,4.779024600982666,-1.106187343597412,-0.0,2.155789852142334,4.764338373183765,0.0,0.27336806058883667,-1.5344956556903284,2.8182761859500043e-15,-0.016145464032888412,-0.4740689436541956,0.0,0.009177271276712418,1.4070250988006592,0.0,-0.02441841922700405
170.0,146.0,-0.2542,1.1007,9.8178,-0.0388,0.0231,-0.1119,-2.2287217579283656,0.0,4.814706802368164,-1.1061512231826782,-0.0,2.1248159408569336,4.764390847622909,0.0,0.27829691767692566,-1.5345199743853968,5.1220771594562345e-20,-0.01952167972922325,-0.47407275835146123,0.0,-0.006535295397043228,1.4070295095443726,0.0,0.03302984684705734
170.0,146.0,-0.2542,1.1007,9.8178,-0.0388,0.0231,-0.1119,-2.2287217579283656,0.0,4.819453239440918,-1.1061471700668335,-0.0,2.1893088817596436,4.7643142258520506,0.0,0.2772637605667114,-1.5345361868487757,1.425749019228644e-23,-0.012336350046098232,-0.47410470644106084,0.0,0.0011529105249792337,1.4069889783859253,0.0,-0.009749826043844223
170.0,146.0,-0.2542,1.1007,9.8178,-0.0388,0.0231,-0.1119,-2.228713651696676,0.0,4.776775360107422,-1.1061512231826782,-0.0,2.100893497467041,4.764354693680563,0.0,0.26014503836631775,-1.5345237890826624,2.5912284806837097e-28,-0.006968881469219923,-0.4741247336017054,0.0,0.0024340113159269094,1.4070574045181274,0.0,-0.03758224472403526
170.0,146.0,-0.2542,1.1007,9.8178,-0.0388,0.0231,-0.1119,-2.2287541828551234,0.0,4.766606330871582,-1.1062198877334595,-0.0,2.1605064868927,4.764342843532123,0.0,0.2647172212600708,-1.534515682850973,7.212779851652594e-32,-0.009344709105789661,-0.47407657304872686,0.0,-0.00220373272895813,1.407013177871704,0.0,0.015777289867401123
170.0,146.0,-0.2542,1.1007,9.8178,-0.0388,0.0231,-0.1119,-2.2287093601622523,0.0,4.789595603942871,-1.1061512231826782,-0.0,2.1316847801208496,4.764346539020099,0.0,0.28073015809059143,-1.53453237215151,1.310886956455885e-36,-0.0016960406210273504,-0.47412091890443975,0.0,-0.010122469626367092,1.4070091247558594,0.0,-0.030700672417879105
170.0,146.0,-0.2542,1.1007,9.8178,-0.0388,0.0231,-0.1119,-2.2287303409972132,0.0,4.797067165374756,-1.1061393022537231,-0.0,2.15616512298584,4.764350618212976,0.0,0.2942177653312683,-1.5345123449908655,2.382487649045054e-41,-0.013714645057916641,-0.47407275835146123,0.0,0.0044362652115523815,1.4069812297821045,0.0,-0.00077062874333933
170.0,146.0,-0.2542,1.1007,9.8178,-0.0388,0.0231,-0.1119,-2.2287379703917445,0.0,4.7564005851745605,-1.1062318086624146,-0.0,2.1625430583953857,4.764346609800615,0.0,0.2652095854282379,-1.534515682850973,7.006492321624085e-45,-0.013746378943324089,-0.47404510179628545,0.0,0.0038827569223940372,1.4070414304733276,0.0,0.040486812591552734
172.0,142.0,-0.207,1.1563,9.6401,-0.0319,0.0238,-0.1133,-2.228762289086813,0.0,4.787665843963623,-1.1062318086624146,-0.0,2.150425434112549,4.764346606075325,0.0,0.27984127402305603,-1.5345400015460413,0.0,-0.020412491634488106,-0.4740083853351038,0.0,0.00364504917524755,1.4070250988006592,0.0,-0.018765587359666824
172.0,142.0,-0.207,1.1563,9.6401,-0.0319,0.0238,-0.1133,-2.2287179432311,0.0,4.78006649017334,-1.10624361038208,-0.0,2.171022415161133,4.764346539020099,0.0,0.2689070701599121,-1.5345199743853968,0.0,0.0015152557753026485,-0.47412139574159795,0.0,0.002153536304831505,1.407013177871704,0.0,0.007042881101369858
172.0,142.0,-0.207,1.1563,9.6401,-0.0319,0.0238,-0.1133,-2.2287422619261683,0.0,4.772251605987549,-1.1061832904815674,-0.0,2.094860315322876,4.764298225730219,0.0,0.2698545753955841,-1.534515682850973,0.0,-0.013668094761669636,-0.4740846792804163,0.0,-0.004803082440048456,1.407037377357483,0.0,0.01025828905403614
172.0,142.0,-0.207,1.1563,9.6401,-0.0319,0.0238,-0.1133,-2.2287379703917445,0.0,4.765655517578125,-1.1061513423919678,-0.0,2.1324284076690674,4.764390847622909,0.0,0.2732492685317993,-1.5345199743853968,0.0,-0.020951271057128906,-0.4740803877459925,0.0,-0.0031280149705708027,1.4070250988006592,0.0,0.008346783928573132
172.0,142.0,-0.207,1.1563,9.6401,-0.0319,0.0238,-0.1133,-2.2287217579283656,0.0,4.7350382804870605,-1.1061832904815674,-0.0,2.1740238666534424,4.764346539020099,0.0,0.27208197116851807,-1.534527603779928,0.0,-0.017011957243084908,-0.47410899797548467,0.0,-0.008839771151542664,1.4070414304733276,0.0,0.048231251537799835
172.0,142.0,-0.207,1.1563,9.6401,-0.0319,0.0238,-0.1133,-2.2287503681578578,0.0,4.801626205444336,-1.1061315536499023,-0.0,2.1813127994537354,4.764354693680563,0.0,0.27732113003730774,-1.5345199743853968,0.0,-0.017315596342086792,-0.4740846792804163,0.0,0.0012278095819056034,1.4070535898208618,0.0,-0.03895701467990875
172.0,142.0,-0.207,1.1563,9.6401,-0.0319,0.0238,-0.1133,-2.2287422619261683,0.0,4.780223369598389,-1.1061594486236572,-0.0,2.1354691982269287,4.764342519431867,0.0,0.2687431573867798,-1.5344679991351526,0.0,-0.014455379918217659,-0.4741008917437952,0.0,-0.01441094558686018,1.407013177871704,0.0,-0.01866692677140236
172.0,142.0,-0.207,1.1563,9.6401,-0.0319,0.0238,-0.1133,-2.228774210015768,0.0,4.770891189575195,-1.1061832904815674,-0.0,2.1830368041992188,4.76433431634263,0.0,0.263770192861557,-1.5345361868487757,0.0,-0.008274093270301819,-0.4740565458880823,0.0,-0.004132291302084923,1.407020926475525,0.0,0.012377114966511726
172.0,142.0,-0.207,1.1563,9.6401,-0.0319,0.0238,-0.1133,-2.2287179432311,0.0,4.761138439178467,-1.106171727180481,-0.0,2.1507866382598877,4.76434654647068,0.0,0.27294450998306274,-1.534515682850973,0.0,-0.011828402988612652,-0.4740489164935511,0.0,-0.0026572479400783777,1.4070332050323486,0.0,0.0815906897187233
172.0,142.0,-0.207,1.1563,9.6401,-0.0319,0.0238,-0.1133,-2.2287055454649867,0.0,4.8014140129089355,-1.1061832904815674,-0.0,2.1646857261657715,4.764358851104536,0.0,0.2695396840572357,-1.534515682850973,0.0,-0.006371598225086927,-0.47407275835146123,0.0,0.00047953007742762566,1.4069771766662598,0.0,-0.007536060176789761
172.0,142.0,-0.207,1.1563,9.6401,-0.0319,0.0238,-0.1133,-2.2286979160704554,0.0,4.789196014404297,-1.1061997413635254,-0.0,2.1193130016326904,4.764338358282604,0.0,0.27112311124801636,-1.534515682850973,0.0,-0.017284706234931946,-0.4740966002093714,0.0,0.004169325809925795,1.407004952430725,0.0,-0.00015321699902415276
172.0,142.0,-0.207,1.1563,9.6401,-0.0319,0.0238,-0.1133,-2.2287093601622523,0.0,4.781991958618164,-1.1062318086624146,-0.0,2.1664044857025146,4.764354693680563,0.0,0.26618584990501404,-1.5345519224749964,0.0,-0.014909057877957821,-0.47412091890443975,0.0,0.003528354922309518,1.4069689512252808,0.0,0.04452607035636902
172.0,142.0,-0.207,1.1563,9.6401,-0.0319,0.0238,-0.1133,-2.2287379703917445,0.0,4.756827354431152,-1.1061997413635254,-0.0,2.1381335258483887,4.764346609800615,0.0,0.279136061668396,-1.5345361868487757,0.0,-0.003985084127634764,-0.47408849397768194,0.0,-0.005482241045683622,1.4070372581481934,0.0,-0.019279226660728455
170.0,139.0,-0.259,1.1563,9.7424,-0.0359,0.02,-0.1101,-2.2287217579283656,0.0,4.769589900970459,-1.1062079668045044,-0.0,2.1858482360839844,4.764338391810217,0.0,0.26951152086257935,-1.5345242659198206,2.1119886639553442e-07,-0.0012110122479498386,-0.474036995564596,0.0,-0.005540044512599707,1.407004952430725,0.0,0.015487712807953358
170.0,139.0,-0.259,1.1563,9.7424,-0.0359,0.02,-0.1101,-2.2286774120726527,0.0,4.775623798370361,-1.1061718463897705,-0.0,2.1340413093566895,4.7643506964440725,0.0,0.27317920327186584,-1.534515682850973,5.878797448843898e-11,-0.007350318133831024,-0.4740966002093714,0.0,-0.009396929293870926,1.4070172309875488,0.0,0.02879990264773369
170.0,139.0,-0.259,1.1563,9.7424,-0.0359,0.02,-0.1101,-2.2287055454649867,0.0,4.785737991333008,-1.1061434745788574,-0.0,2.146714925765991,4.764326552837648,0.0,0.2748391330242157,-1.5345361868487757,1.068442277468891e-15,-0.019449610263109207,-0.47401649156679326,0.0,-0.0032108258455991745,1.406981110572815,0.0,0.02325623296201229
170.0,139.0,-0.259,1.1563,9.7424,-0.0359,0.02,-0.1101,-2.2287455997862757,0.0,4.820843696594238,-1.1062240600585938,-0.0,2.119243860244751,4.764314617007532,0.0,0.2827538847923279,-1.5345242659198206,1.9418412230916112e-20,-0.010645555332303047,-0.47407657304872686,0.0,-0.0010912156431004405,1.4070454835891724,0.0,0.011772042140364647
170.0,139.0,-0.259,1.1563,9.7424,-0.0359,0.02,-0.1101,-2.2287217579283656,0.0,4.799274921417236,-1.1061874628067017,-0.0,2.089250087738037,4.764314617007532,0.0,0.27838611602783203,-1.5344756285296839,5.4051861757225355e-24,-0.005042857490479946,-0.4740846792804163,0.0,-0.01146052684634924,1.4070614576339722,0.0,-0.018110457807779312
170.0,139.0,-0.259,1.1563,9.7424,-0.0359,0.02,-0.1101,-2.2287541828551234,0.0,4.763936996459961,-1.1061352491378784,-0.0,2.180781364440918,4.764378986298599,0.0,0.2697731554508209,-1.5345318953143519,9.823660682296458e-29,-0.007407642435282469,-0.4740532080279749,0.0,0.0009679021895863116,1.4070372581481934,0.0,0.04372096806764603
170.0,139.0,-0.259,1.1563,9.7424,-0.0359,0.02,-0.1101,-2.2287303409972132,0.0,4.776795387268066,-1.1061913967132568,-0.0,2.2092185020446777,4.764322376787224,0.0,0.27860933542251587,-1.5345242659198206,2.7344517096773044e-32,-0.011917861178517342,-0.4740646521197718,0.0,-0.0069113438948988914,1.4069972038269043,0.0,0.01297945249825716
170.0,139.0,-0.259,1.1563,9.7424,-0.0359,0.02,-0.1101,-2.228762289086813,0.0,4.791308879852295,-1.1061553955078125,-0.0,2.1882526874542236,4.764378535538473,0.0,0.29002612829208374,-1.5344837347613733,4.969731236035216e-37,-0.008612629026174545,-0.4741008917437952,0.0,0.006294275633990765,1.4069812297821045,0.0,-0.05195949599146843
170.0,139.0,-0.259,1.1563,9.7424,-0.0359,0.02,-0.1101,-2.228762289086813,0.0,4.778709411621094,-1.106163501739502,-0.0,2.166670083999634,4.764330162643947,0.0,0.28065234422683716,-1.5345361868487757,9.032769901037771e-42,-0.015409745275974274,-0.4740803877459925,0.0,-0.008140211924910545,1.4069812297821045,0.0,-0.00898050144314766
170.0,139.0,-0.259,1.1563,9.7424,-0.0359,0.02,-0.1101,-2.2287422619261683,0.0,4.819473743438721,-1.106187343597412,-0.0,2.165428638458252,4.764358858555116,0.0,0.2760569453239441,-1.5345638434039515,2.802596928649634e-45,-0.015650536864995956,-0.4740851561175745,0.0,0.0003016428090631962,1.4070091247558594,0.0,-0.03600618615746498
170.0,139.0,-0.259,1.1563,9.7424,-0.0359,0.02,-0.1101,-2.2287055454649867,0.0,4.780933380126953,-1.1061955690383911,-0.0,2.1315736770629883,4.764354682504692,0.0,0.2834240198135376,-1.5345075766192835,0.0,-0.018520530313253403,-0.47408849397768194,0.0,-0.0020392907317727804,1.407021403312683,0.0,-0.000757906585931778
170.0,139.0,-0.259,1.1563,9.7424,-0.0359,0.02,-0.1101,-2.2287260494627894,0.0,4.79794979095459,-1.1061882972717285,-0.0,2.130258083343506,4.764346654504099,0.0,0.27651411294937134,-1.534527603779928,0.0,-0.010555499233305454,-0.47403270403017217,0.0,-0.0021782279945909977,1.4070091247558594,0.0,-0.012292520143091679
170.0,143.0,-0.0909,1.1085,9.4463,-0.0473,0.0183,-0.1142,-2.2287217579283656,0.0,4.80356502532959,-1.106187343597412,-0.0,2.150036334991455,4.764394923090496,0.0,0.26791030168533325,-1.5345318953143519,0.0,-0.0032662181183695793,-0.4740966002093714,0.0,0.0037835414987057447,1.4069931507110596,0.0,0.016810918226838112
170.0,143.0,-0.0909,1.1085,9.4463,-0.0473,0.0183,-0.1142,-2.2287303409972132,0.0,4.777482986450195,-1.106163501739502,-0.0,2.1135711669921875,4.764358873456278,0.0,0.28728047013282776,-1.5345199743853968,0.0,-0.02548421546816826,-0.4740966002093714,0.0,0.00330827827565372,1.4070332050323486,0.0,-0.01770424284040928
170.0,143.0,-0.0909,1.1085,9.4463,-0.0473,0.0183,-0.1142,-2.228734155694479,0.0,4.803008556365967,-1.1061553955078125,-0.0,2.1321702003479004,4.764310537814655,0.0,0.2688394784927368,-1.5345242659198206,0.0,-0.014073461294174194,-0.474036995564596,0.0,0.006676842458546162,1.4069931507110596,0.0,0.016257235780358315
170.0,143.0,-0.0909,1.1085,9.4463,-0.0473,0.0183,-0.1142,-2.2286693058409632,0.0,4.784702301025391,-1.106155276298523,-0.0,2.142517566680908,4.764370719879427,0.0,0.27479612827301025,-1.5345037619220179,0.0,-0.009638380259275436,-0.4740412870990198,0.0,-0.0012756073847413063,1.407049536705017,0.0,-0.017178509384393692
170.0,143.0,-0.0909,1.1085,9.4463,-0.0473,0.0183,-0.1142,-2.228713651696676,0.0,4.796560287475586,-1.1061913967132568,-0.0,2.1198596954345703,4.764322376787224,0.0,0.2803187966346741,-1.5344679991351526,0.0,-0.019296132028102875,-0.47410470644106084,0.0,-0.0005243512568995357,1.4069935083389282,0.0,-0.005323558580130339
170.0,143.0,-0.0909,1.1085,9.4463,-0.0473,0.0183,-0.1142,-2.2287379703917445,0.0,4.803685665130615,-1.1061758995056152,-0.0,2.151427984237671,4.764370690077104,0.0,0.28345993161201477,-1.534515682850973,0.0,-0.012372540310025215,-0.47406036058534795,0.0,-0.005051280837506056,1.4070332050323486,0.0,-0.023916741833090782
170.0,143.0,-0.0909,1.1085,9.4463,-0.0473,0.0183,-0.1142,-2.2287422619261683,0.0,4.823260307312012,-1.1062198877334595,-0.0,2.133553981781006,4.764358854829826,0.0,0.2783093750476837,-1.534527603779928,0.0,-0.009903790429234505,-0.47407657304872686,0.0,0.0030197007581591606,1.407013177871704,0.0,0.018564868718385696
170.0,143.0,-0.0909,1.1085,9.4463,-0.0473,0.0183,-0.1142,-2.228697439233297,0.0,4.822261810302734,-1.106163501739502,-0.0,2.1514053344726562,4.764302334725418,0.0,0.2720597982406616,-1.5345080534564417,0.0,0.0011606260668486357,-0.4740846792804163,0.0,0.003887719940394163,1.406989336013794,0.0,0.02096625603735447
170.0,143.0,-0.0909,1.1085,9.4463,-0.0473,0.0183,-0.1142,-2.228774210015768,0.0,4.810052394866943,-1.1062078475952148,-0.0,2.101235866546631,4.764322376787224,0.0,0.26426994800567627,-1.5344679991351526,0.0,-0.011872106231749058,-0.4740803877459925,0.0,0.005131383426487446,1.407013177871704,2.692313749719233e-08,0.005327167920768261
170.0,143.0,-0.0909,1.1085,9.4463,-0.0473,0.0183,-0.1142,-2.2287503681578578,0.0,4.78615140914917,-1.1061955690383911,-0.0,2.1754088401794434,4.76436701694087,0.0,0.28577300906181335,-1.5345037619220179,0.0,-0.0063976747915148735,-0.47410470644106084,0.0,-0.0035265106707811356,1.4070212841033936,8.722753231758665e-16,0.026578513905405998
170.0,143.0,-0.0909,1.1085,9.4463,-0.0473,0.0183,-0.1142,-2.228753706017965,0.0,4.809473037719727,-1.106187343597412,-0.0,2.1652987003326416,4.7643023049230955,0.0,0.27486124634742737,-1.5345242659198206,0.0,-0.01842392235994339,-0.4740846792804163,0.0,0.00503559922799468,1.407004952430725,2.106442289002386e-21,0.0008357786573469639
170.0,143.0,-0.0909,1.1085,9.4463,-0.0473,0.0183,-0.1142,-2.228685518304342,0.0,4.793572425842285,-1.1061996221542358,-0.0,2.1456422805786133,4.764334256737985,0.0,0.2769818603992462,-1.5345242659198206,0.0,-0.01699567213654518,-0.4740803877459925,0.0,0.0009510960662737489,1.4070091247558594,6.8246061840153e-29,-0.0147972097620368
170.0,143.0,-0.0909,1.1085,9.4463,-0.0473,0.0183,-0.1142,-2.2287260494627894,0.0,4.777853965759277,-1.106187343597412,-0.0,2.1503686904907227,4.764274298190632,0.0,0.2782955467700958,-1.5345199743853968,0.0,-0.008265135809779167,-0.4741008917437952,0.0,-0.008773795329034328,1.4070372581481934,1.64806225051267e-34,0.014933599159121513
169.0,146.0,-0.1095,1.1533,9.655,-0.0345,0.0177,-0.1087,-2.2287303409972132,0.0,4.803629398345947,-1.1061758995056152,-0.0,2.1455111503601074,4.7643106048698804,0.0,0.27676355838775635,-1.534515682850973,0.0,-0.009959663264453411,-0.4740493933307093,0.0,-0.0051978230476379395,1.4070450067520142,0.0002842020185198635,-0.021123595535755157
169.0,146.0,-0.1095,1.1533,9.655,-0.0345,0.0177,-0.1087,-2.228746076623434,0.0,4.790802955627441,-1.10617995262146,-0.0,2.140605926513672,4.764390847622909,0.0,0.268900990486145,-1.5345519224749964,0.0,-0.01910378225147724,-0.4741008917437952,0.0,-0.006761476863175631,1.4070613384246826,0.000311645824695006,-0.02526124194264412
169.0,146.0,-0.1095,1.1533,9.655,-0.0345,0.0177,-0.1087,-2.2287942371764125,0.0,4.77106237411499,-1.106227993965149,-0.0,2.180737257003784,4.764394908189335,0.0,0.2698873281478882,-1.5345199743853968,0.0,0.0010117649799212813,-0.47413665453066045,0.0,0.0022847517393529415,1.4070450067520142,0.0004431620764080435,-0.009843614883720875
169.0,146.0,-0.1095,1.1533,9.655,-0.0345,0.0177,-0.1087,-2.2287823162474574,0.0,4.82720947265625,-1.106155276298523,-0.0,2.15688157081604,4.764354693680563,0.0,0.2799258828163147,-1.5345519224749964,0.0,-0.0011437080102041364,-0.4741008917437952,0.0,-0.009575740434229374,1.407065510749817,0.0003863276506308466,-0.039785176515579224
169.0,146.0,-0.1095,1.1533,9.655,-0.0345,0.0177,-0.1087,-2.228713651696676,0.0,4.788556098937988,-1.106187343597412,-0.0,2.1656010150909424,4.764354727208175,0.0,0.2809480130672455,-1.5345118681537073,0.0,-0.012789217755198479,-0.4740846792804163,0.0,0.009679212234914303,1.4070367813110352,0.0003703157417476177,-0.027830347418785095
169.0,146.0,-0.1095,1.1533,9.655,-0.0345,0.0177,-0.1087,-2.2287498913206996,0.0,4.790630340576172,-1.1061515808105469,-0.0,2.1497750282287598,4.764310496836462,0.0,0.27501797676086426,-1.5345075766192835,0.0,-0.028734538704156876,-0.47410852113832647,0.0,-0.0029488285072147846,1.407057285308838,0.000343207735568285,0.0016259403200820088
169.0,146.0,-0.1095,1.1533,9.655,-0.0345,0.0177,-0.1087,-2.2287379703917445,0.0,4.787987232208252,-1.1062158346176147,-0.0,2.1507530212402344,4.764390892326393,0.0,0.2755395472049713,-1.5345638434039515,0.0,-0.01622452400624752,-0.4741128126727503,0.0,-0.0010775653645396233,1.4070286750793457,0.0003420863940846175,-0.0012697326019406319
169.0,146.0,-0.1095,1.1533,9.655,-0.0345,0.0177,-0.1087,-2.2286693058409632,0.0,4.78176212310791,-1.1061882972717285,-0.0,2.1480185985565186,4.764350614487686,0.0,0.27874255180358887,-1.5345476309405726,0.0,-0.020931126549839973,-0.47409278551210576,0.0,0.0012176348827779293,1.4071215391159058,0.0006528815138153732,0.019122622907161713
169.0,146.0,-0.1095,1.1533,9.655,-0.0345,0.0177,-0.1087,-2.228701730767721,0.0,4.803076267242432,-1.1061192750930786,-0.0,2.12451171875,4.764386690198936,0.0,0.2757419943809509,-1.5345876852618616,0.0,0.0016445615328848362,-0.474008862172262,0.0,0.004552737809717655,1.4071415662765503,0.0023218735586851835,0.04104037210345268
169.0,146.0,-0.1095,1.1533,9.655,-0.0345,0.0177,-0.1087,-2.2287179432311,0.0,4.771145820617676,-1.1061515808105469,-1.5358605012782967e-11,2.1146974563598633,4.764366629510679,4.7575602479810186e-07,0.2664429843425751,-1.5345876852618616,0.0,-0.020741723477840424,-0.4740689436541956,0.0,-0.003939613699913025,1.407165288925171,0.006042608991265297,-0.038604751229286194
169.0,146.0,-0.1095,1.1533,9.655,-0.0345,0.0177,-0.1087,-2.2287093601622523,0.0,4.7884721755981445,-1.1061474084854126,-4.975992862752822e-19,2.103240489959717,4.764362598746576,8.64663202149174e-12,0.2805247902870178,-1.5345514456378382,0.0,-0.008018502034246922,-0.4740532080279749,0.0,0.006615388207137585,1.4072611331939697,0.012036535888910294,0.011658025905489922
169.0,146.0,-0.1095,1.1533,9.655,-0.0345,0.0177,-0.1087,-2.228713651696676,0.0,4.7648210525512695,-1.106187343597412,-1.6121583622940407e-26,2.169266700744629,4.764402731298961,1.5714824922885703e-16,0.28401145339012146,-1.5345357100116175,0.0,-0.01812739297747612,-0.47410470644106084,0.0,0.0032549602910876274,1.4073011875152588,0.008426057174801826,-0.020669683814048767
170.0,146.0,-0.1274,1.2162,10.0756,-0.0379,0.0177,-0.1093,-2.228713651696676,0.0,4.781520843505859,-1.1062242984771729,-3.8931723438605333e-32,2.1397738456726074,4.764362509339609,4.374279066961875e-20,0.2748984694480896,-1.534543816243307,0.0,-0.006061851512640715,-0.47407657304872686,0.0,-0.00043494487181305885,1.4073894023895264,0.005315685179084539,0.047195836901664734
170.0,146.0,-0.1274,1.2162,10.0756,-0.0379,0.0177,-0.1093,-2.228774210015768,0.0,4.814831733703613,-1.1061676740646362,-1.2613381750065187e-39,2.2053117752075195,4.7643748735781095,7.950035678747415e-25,0.2755647599697113,-1.5345514456378382,0.0,-0.011572984047234058,-0.47407275835146123,0.0,0.00741239869967103,1.407404899597168,0.003220784245058894,-0.040272269397974014
170.0,146.0,-0.1274,1.2162,10.0756,-0.0379,0.0177,-0.1093,-2.228786130944723,0.0,4.764906883239746,-1.1062440872192383,-2.802596928649634e-45,2.128378391265869,4.764334297716179,2.2129219135676137e-28,0.2704905569553375,-1.534555737172262,0.0,-0.014960243366658688,-0.47408849397768194,0.0,0.0020833578892052174,1.4074208736419678,0.003020340343937278,-0.030493782833218575
170.0,146.0,-0.1274,1.2162,10.0756,-0.0379,0.0177,-0.1093,-2.2287899456419886,0.0,4.768255233764648,-1.106188178062439,-0.0,2.206770181655884,4.764346505492487,7.933857705211267e-05,0.27648842334747314,-1.5345638434039515,0.0,-0.008919875137507915,-0.4740689436541956,0.0,-0.004295745864510536,1.407433032989502,0.003005716949701309,0.0036724056117236614
170.0,146.0,-0.1274,1.2162,10.0756,-0.0379,0.0177,-0.1093,-2.2287737331786097,-0.0004010737466160208,4.762011528015137,-1.1061913967132568,-0.0,2.1493470668792725,4.7642981735761545,6.845129246357828e-05,0.28115084767341614,-1.5345876852618616,0.0,-0.022779516875743866,-0.47407657304872686,0.0,-0.01601260155439377,1.4074811935424805,0.003312639659270644,-0.03526963293552399
170.0,146.0,-0.1274,1.2162,10.0756,-0.0379,0.0177,-0.1093,-2.228757520715231,-0.00031644399859942496,4.753454685211182,-1.1061515808105469,-0.0,2.1955041885375977,4.764394982695141,6.144076178316027e-05,0.270427942276001,-1.534600083027975,0.0,-0.013150990940630436,-0.4741447607623499,0.0,0.0064072213135659695,1.4075250625610352,0.003472805256024003,0.033464983105659485
170.0,146.0,-0.1274,1.2162,10.0756,-0.0379,0.0177,-0.1093,-2.2287541828551234,-0.0002469641622155905,4.774980545043945,-1.1061314344406128,-0.0,2.114619255065918,4.764338399260797,5.405906995292753e-05,0.27569901943206787,-1.534555737172262,0.0,-0.01651180535554886,-0.47408897081484014,0.0,0.011134142056107521,1.4075045585632324,0.003186057088896632,0.023318355903029442
170.0,146.0,-0.1274,1.2162,10.0756,-0.0379,0.0177,-0.1093,-2.228769918481344,-0.00016963858797680587,4.7757487297058105,-1.1061351299285889,-0.0,2.125702381134033,4.764334297716179,7.416622975142673e-05,0.2803850471973419,-1.5345919767962855,0.0,-0.010274294763803482,-0.47408849397768194,0.0,-0.0036424563731998205,1.407541036605835,0.0033641138579696417,-0.0016328115016222
170.0,146.0,-0.1274,1.2162,10.0756,-0.0379,0.0177,-0.1093,-2.228809972802633,-0.00014273339184001088,4.788639545440674,-1.1061594486236572,-0.0,2.1354970932006836,4.764354693680563,6.700182711938396e-05,0.2751806974411011,-1.5345724264727991,0.0,-0.0009477739222347736,-0.47407275835146123,0.0,0.008082335814833641,1.40755295753479,0.0031679021194577217,-0.006862115580588579
170.0,146.0,-0.1274,1.2162,10.0756,-0.0379,0.0177,-0.1093,-2.22874178508901,-4.4093711039749905e-05,4.754366874694824,-1.1062120199203491,-0.0,2.141568183898926,4.764362539141931,6.0951366322115064e-05,0.28248465061187744,-1.5345805327044886,0.0,-0.023878876119852066,-0.47405749956239873,0.0,-0.01303867157548666,1.4075849056243896,0.00403064489364624,-0.0018769530579447746
170.0,146.0,-0.1274,1.2162,10.0756,-0.0379,0.0177,-0.1093,-2.2287899456419886,-7.612709305249155e-05,4.804876327514648,-1.1061996221542358,-0.0,2.1242194175720215,4.764378971397438,-3.364239455549978e-05,0.2708290219306946,-1.5345357100116175,0.0,0.0016175678465515375,-0.4740803877459925,0.0,-0.003126264549791813,1.407632827758789,0.005022530443966389,-0.013450108468532562
170.0,146.0,-0.1274,1.2162,10.0756,-0.0379,0.0177,-0.1093,-2.2287613354124964,-0.0008271149126812816,4.799008846282959,-1.1061915159225464,-0.0,2.1844136714935303,4.764338373183765,-2.9576793167507276e-05,0.27228569984436035,-1.5345237890826624,0.0,-0.006797706242650747,-0.47410470644106084,0.0,0.020588623359799385,1.4076441526412964,0.007266255095601082,0.004535253159701824
169.0,148.0,-0.4588,1.0475,9.5952,-0.0528,0.0215,-0.0935,-2.2288218937315882,-0.001950355595909059,4.7465410232543945,-1.1061913967132568,-0.0,2.127134323120117,4.764338388084926,-2.6140291083720513e-05,0.28242743015289307,-1.5345481077777308,0.0,-0.005963446572422981,-0.4740532080279749,0.0,0.005518285091966391,1.407768726348877,0.008854118175804615,0.04231810197234154
169.0,148.0,-0.4588,1.0475,9.5952,-0.0528,0.0215,-0.0935,-2.2288218937315882,-0.0017391080036759377,4.774423122406006,-1.1062076091766357,-0.0,2.177217483520508,4.764362937747993,-4.8034813517006114e-05,0.26995089650154114,-1.5345638434039515,0.0,-0.012469910085201263,-0.47407275835146123,0.0,0.008794814348220825,1.4077646732330322,0.010047710500657558,0.0419798344373703
169.0,148.0,-0.4588,1.0475,9.5952,-0.0528,0.0215,-0.0935,-2.2288700542845667,-0.0012207073159515858,4.8306097984313965,-1.1062120199203491,-9.370032785227522e-05,2.1387927532196045,4.764334703772821,-4.344666740507819e-05,0.27449658513069153,-1.5345600287066858,0.0,-0.02744431607425213,-0.4741008917437952,0.0,-0.008689973503351212,1.407904863357544,0.011263648979365826,0.009041378274559975
169.0,148.0,-0.4588,1.0475,9.5952,-0.0528,0.0215,-0.0935,-2.2288295231261195,-0.0009557899902574718,4.827923774719238,-1.1061391830444336,-4.3731874029617757e-05,2.143726348876953,4.764302263944902,-4.051294308737852e-05,0.2726239860057831,-1.5345361868487757,0.0,-0.012947771698236465,-0.4741008917437952,0.0,-0.004858170635998249,1.40800940990448,0.010000883601605892,0.012077659368515015
169.0,148.0,-0.4588,1.0475,9.5952,-0.0528,0.0215,-0.0935,-2.2288338146605433,-0.0006305570714175701,4.805785655975342,-1.1061153411865234,-1.1799830210157403e-11,2.169532299041748,4.7643383769090555,-3.716677019838244e-05,0.26758408546447754,-1.5345724264727991,0.0,-0.013725937344133854,-0.47407657304872686,0.0,0.005140049383044243,1.4080491065979004,0.010100438259541988,0.04626581817865372
169.0,148.0,-0.4588,1.0475,9.5952,-0.0528,0.0215,-0.0935,-2.2288295231261195,-0.0004085727850906551,4.783027648925781,-1.1061596870422363,-3.8229951126970477e-19,2.1345577239990234,4.764374858676948,-3.433118399698287e-05,0.2645288407802582,-1.5345519224749964,0.0,-0.0020150740165263414,-0.47409278551210576,0.0,0.010566305369138718,1.4080604314804077,0.007907475344836712,0.01550088357180357
169.0,148.0,-0.4588,1.0475,9.5952,-0.0528,0.0215,-0.0935,-2.228793283502096,-0.00034201794187538326,4.753059387207031,-1.1061437129974365,-9.23208354722742e-25,2.178748607635498,4.764314620732822,-1.6255069567705505e-05,0.2633383572101593,-1.534555737172262,0.0,-0.01760999485850334,-0.4741128126727503,0.0,-0.007108436431735754,1.408104419708252,0.006064263172447681,0.0006759455427527428
169.0,148.0,-0.4588,1.0475,9.5952,-0.0528,0.0215,-0.0935,-2.2287732563414515,-0.0002809931174851954,4.764560699462891,-1.106123685836792,-2.9910774078883705e-32,2.170992374420166,4.764346632152357,-1.5143733435252216e-05,0.26525652408599854,-1.5345400015460413,0.0,-0.015971528366208076,-0.4741409460650843,0.0,0.002630323637276888,1.4081448316574097,0.002533160848543048,-0.021858224645256996
169.0,148.0,-0.4588,1.0475,9.5952,-0.0528,0.0215,-0.0935,-2.228826185266012,-0.00024782956461422145,4.760603427886963,-1.1061556339263916,-7.223099993564944e-38,2.1587812900543213,4.7643306134040735,-2.8815664336434565e-05,0.2817363739013672,-1.5345237890826624,0.0,0.004245210904628038,-0.4740493933307093,0.0,0.0016034373547881842,1.4080965518951416,0.0011586633045226336,0.052018534392118454
169.0,148.0,-0.4588,1.0475,9.5952,-0.0528,0.0215,-0.0935,-2.228878160516256,-0.00024348715669475496,4.737371444702148,-1.1061077117919922,-2.802596928649634e-45,2.159914493560791,4.764314617007532,-3.974582432419993e-05,0.2680785655975342,-1.5345681349383753,0.0,-0.004600147251039743,-0.4741128126727503,0.0,2.8949405532330275e-05,1.4080884456634521,0.00010630692850099877,-0.009309041313827038
169.0,148.0,-0.4588,1.0475,9.5952,-0.0528,0.0215,-0.0935,-2.2288576565184535,-0.00019444113422650844,4.780579566955566,-1.106091022491455,-0.0,2.154568672180176,4.764314643084564,-9.490501543041319e-05,0.2721392810344696,-1.534543816243307,0.0,0.0017472653416916728,-0.4740493933307093,0.0,-0.0037831871304661036,1.408076524734497,9.734040830322588e-12,-0.004656895995140076
169.0,148.0,-0.4588,1.0475,9.5952,-0.0528,0.0215,-0.0935,-2.2289020023741664,-0.001380239031277597,4.781309604644775,-1.106115460395813,-0.0,2.152853012084961,4.764346937626161,-0.00012854576925747097,0.2740347683429718,-1.5345848242389124,0.0,-0.009659934788942337,-0.4740803877459925,0.0,-0.00456033181399107,1.4080606698989868,-0.0024349456652998924,0.035708263516426086
169.0,148.0,-0.4588,1.0475,9.5952,-0.0528,0.0215,-0.0935,-2.228865762750143,-0.0020519443787634373,4.781559467315674,-1.1061474084854126,-0.0,2.1860194206237793,4.7643111673887155,-0.00034573348239064217,0.28255948424339294,-1.5345876852618616,0.0,-0.003336680121719837,-0.4740532080279749,0.0,-0.00756109319627285,1.4080564975738525,-0.0022015783470124006,0.04202432557940483
169.0,144.0,-0.8453,1.2975,9.4917,-0.0455,0.0133,-0.1223,-2.2288981876769007,-0.001594300614669919,4.726579666137695,-1.1061474084854126,-0.0,2.1394975185394287,4.764290700643816,-0.00041722855530679226,0.2607589364051819,-1.5345681349383753,0.0,-0.016622018069028854,-0.4741728941546839,0.0,0.005457833409309387,1.4079684019088745,-0.0019263996509835124,0.0296658705919981
169.0,144.0,-0.8453,1.2975,9.4917,-0.0455,0.0133,-0.1223,-2.2288814983763636,-0.0007979472866281867,4.792272567749023,-1.1061841249465942,0.00012428007903508842,2.1567118167877197,4.764322697162189,-0.0003043135511688888,0.2697737514972687,-1.5345876852618616,0.0,-0.018968632444739342,-0.4741323629962366,0.0,-0.008422128856182098,1.408041000366211,-0.0021108288783580065,0.004110376350581646
169.0,144.0,-0.8453,1.2975,9.4917,-0.0455,0.0133,-0.1223,-2.228905817071432,-0.0005013810005038977,4.777316570281982,-1.1061034202575684,0.00017139676492661238,2.1301286220550537,4.764330646931686,-0.00023949872411321849,0.2769995331764221,-1.5345075766192835,0.0,-0.029315512627363205,-0.47409278551210576,0.0,-0.010766184888780117,1.4079245328903198,-0.003089562989771366,-0.06987272948026657
169.0,144.0,-0.8453,1.2975,9.4917,-0.0455,0.0133,-0.1223,-2.22884525875234,-0.0003921195457223803,4.799654006958008,-1.106152057647705,0.00045426853466778994,2.152712821960449,4.764298918634214,-0.00020651478553190827,0.2821088433265686,-1.5345595518695276,0.0,-0.014298304915428162,-0.47407657304872686,0.0,-0.014762303791940212,1.407920479774475,-0.003925818018615246,-0.0641106590628624
169.0,144.0,-0.8453,1.2975,9.4917,-0.0455,0.0133,-0.1223,-2.228877683679098,-0.00030384788988158107,4.803281784057617,-1.106135606765747,0.0003962646587751806,2.176888942718506,4.76425056436614,-0.00017447874415665865,0.26863425970077515,-1.5345476309405726,0.0,-0.008574136532843113,-0.4740408102618616,0.0,-0.0016844834899529815,1.4078725576400757,-0.004669354762881994,-0.011340578086674213
169.0,144.0,-0.8453,1.2975,9.4917,-0.0455,0.0133,-0.1223,-2.228878160516256,-0.00025996085605584085,4.773586750030518,-1.106119990348816,0.00032478265347890556,2.138747215270996,4.764290693193235,-0.00015629595145583153,0.2619577944278717,-1.5345724264727991,0.0,-0.006219708360731602,-0.4740966002093714,0.0,0.005839497782289982,1.4078447818756104,-0.004888136405497789,-0.016910996288061142
169.0,144.0,-0.8453,1.2975,9.4917,-0.0455,0.0133,-0.1223,-2.228910108605856,-0.00021798184025101364,4.802955627441406,-1.1060951948165894,0.0002617928257677704,2.1706759929656982,4.764298981964149,-0.00016466590750496835,0.27276894450187683,-1.5346081892596644,0.0,0.0009738733060657978,-0.47413713136781865,0.0,0.0036071285139769316,1.407808780670166,-0.005434495862573385,-0.05268922075629234
169.0,144.0,-0.8453,1.2975,9.4917,-0.0455,0.0133,-0.1223,-2.2289182148375453,-0.00024654774460941553,4.735192775726318,-1.1060631275177002,0.00021926888439338654,2.1276018619537354,4.7642867034073255,-0.00017080579709727317,0.2781457006931305,-1.5345481077777308,0.0,-0.007273062132298946,-0.47410470644106084,0.0,-0.001951473532244563,1.4078006744384766,-0.006409017834812403,0.001099887304008007
169.0,144.0,-0.8453,1.2975,9.4917,-0.0455,0.0133,-0.1223,-2.228877683679098,-0.00018548233492765576,4.78085470199585,-1.1060951948165894,0.00019545824034139514,2.1621179580688477,4.764270669757881,-0.0001805462670745328,0.2724177837371826,-1.5345514456378382,0.0,-0.012268757447600365,-0.4740408102618616,0.0,-0.0011318951146677136,1.407776951789856,-0.006752099841833115,-0.04145167022943497
169.0,144.0,-0.8453,1.2975,9.4917,-0.0455,0.0133,-0.1223,-2.228917738000387,-0.001229595160111785,4.791399002075195,-1.1061359643936157,0.0001707372721284628,2.138056755065918,4.764287016331711,-0.00014579288836102933,0.2625473141670227,-1.5345118681537073,0.0,-0.013538824394345284,-0.4740646521197718,0.0,0.003162222448736429,1.4076365232467651,-0.007043615449219942,0.010396297089755535
169.0,144.0,-0.8453,1.2975,9.4917,-0.0455,0.0133,-0.1223,-2.228945871392721,-0.0016098103951662779,4.7548723220825195,-1.1061882972717285,0.00015156794688664377,2.1399052143096924,4.7642550123627565,-0.00015639991033822298,0.2705795466899872,-1.5345514456378382,0.0,-0.003764897119253874,-0.47407657304872686,0.0,-0.005054265260696411,1.4076414108276367,-0.007283555809408426,0.03372420370578766
169.0,144.0,-0.8453,1.2975,9.4917,-0.0455,0.0133,-0.1223,-2.2289582691588343,-0.0017175311222672462,4.781827449798584,-1.1061638593673706,0.00011681778414640576,2.115645408630371,4.764282929688253,-0.0001651565107749775,0.2714652419090271,-1.5345476309405726,0.0,-0.007154159713536501,-0.47407275835146123,0.0,0.02192191407084465,1.4075648784637451,-0.007094678469002247,-0.01585860177874565
168.0,142.0,-0.0185,1.1509,9.4995,-0.0267,0.0038,-0.1229,-2.2289897404112757,-0.0017618645215407014,4.7456793785095215,-1.1061517000198364,0.00010556530469330028,2.175844430923462,4.764294850617208,-0.0001524427207186818,0.27788010239601135,-1.5345843474017542,0.0,-0.003678658977150917,-0.4740408102618616,0.0,-0.005717604421079159,1.4074968099594116,-0.0058796401135623455,-0.00011828169226646423
168.0,142.0,-0.0185,1.1509,9.4995,-0.0267,0.0038,-0.1229,-2.228985448876852,-0.0014839813811704516,4.807868957519531,-1.1061561107635498,9.862447768682614e-05,2.1536741256713867,4.7642263797815225,-0.0002660103782545775,0.27663755416870117,-1.5345237890826624,0.0,-0.014105644077062607,-0.4740808645831507,0.0,0.0046811033971607685,1.4075090885162354,-0.004350660368800163,0.005216022953391075
168.0,142.0,-0.0185,1.1509,9.4995,-0.0267,0.0038,-0.1229,-2.228985448876852,-0.0015680502401664853,4.799923896789551,-1.1061679124832153,9.06753703020513e-05,2.1408770084381104,4.764259087830343,-0.00021825869043823332,0.2628985643386841,-1.534527603779928,0.0,-0.018778715282678604,-0.47410470644106084,0.0,0.011545483022928238,1.4074894189834595,-0.002365154679864645,-0.014435673132538795
168.0,142.0,-0.0185,1.1509,9.4995,-0.0267,0.0038,-0.1229,-2.2290622196593226,-0.0014327079989016056,4.768655300140381,-1.1061437129974365,8.391209848923609e-05,2.108759641647339,4.764222676842966,-0.00018278737843502313,0.2714795470237732,-1.534543816243307,0.0,-0.0002462579868733883,-0.47407275835146123,0.0,0.009318273514509201,1.4075255393981934,-0.0011541403364390135,0.05785854160785675
168.0,142.0,-0.0185,1.1509,9.4995,-0.0267,0.0038,-0.1229,-2.2290741405882777,-0.0018322281539440155,4.763498306274414,-1.1061196327209473,7.946671394165605e-05,2.1321139335632324,4.764263304858961,-0.00019118934869766235,0.27735835313796997,-1.5345600287066858,0.0,-0.015542445704340935,-0.4740493933307093,0.0,0.005505389533936977,1.4074931144714355,-0.000779113732278347,-0.010807927697896957
168.0,142.0,-0.0185,1.1509,9.4995,-0.0267,0.0038,-0.1229,-2.2290617428221644,-0.0019825247582048178,4.839191436767578,-1.106119990348816,8.90682204044424e-05,2.209542989730835,4.764238650887766,-0.00019732290820684284,0.2791862189769745,-1.534555737172262,0.0,-0.002510389080271125,-0.47400123277773076,0.0,0.021175388246774673,1.4074689149856567,-0.0005436887149699032,0.022390814498066902
168.0,142.0,-0.0185,1.1509,9.4995,-0.0267,0.0038,-0.1229,-2.229033132592672,-0.00262057245709002,4.784950256347656,-1.1061158180236816,8.486910519422963e-05,2.183504104614258,4.764250951796331,-0.0002062235289486125,0.28061428666114807,-1.534555737172262,0.0,-0.011035642586648464,-0.4740808645831507,0.0,0.025576962158083916,1.407473087310791,-0.00038787946687079966,-0.02070222795009613
168.0,142.0,-0.0185,1.1509,9.4995,-0.0267,0.0038,-0.1229,-2.2290412388243617,-0.003088818397372961,4.794734477996826,-1.1061317920684814,7.984931289684027e-05,2.110535144805908,4.764214958041467,-0.00023366468667518348,0.26681435108184814,-1.534527603779928,0.0,-0.02096400037407875,-0.4740646521197718,0.0,0.010200770571827888,1.4075013399124146,-4.80465023429133e-05,0.04076234623789787
168.0,142.0,-0.0185,1.1509,9.4995,-0.0267,0.0038,-0.1229,-2.229126115838522,-0.004027837421745062,4.794404983520508,-1.106135606765747,7.53903150325641e-05,2.168672561645508,4.764230928360977,-0.00025727212778292596,0.2656082510948181,-1.534543816243307,0.0,-0.01816052943468094,-0.4740489164935511,0.0,0.02958613634109497,1.4074971675872803,-3.958462184527889e-05,-0.020881706848740578
168.0,142.0,-0.0185,1.1509,9.4995,-0.0267,0.0038,-0.1229,-2.229149957696432,-0.004453636705875397,4.755827903747559,-1.1061034202575684,7.235968223540112e-05,2.152909517288208,4.764230932086267,-0.0003945780044887215,0.27778202295303345,-1.5345681349383753,0.0,-0.038624659180641174,-0.47405702272524053,0.0,0.017268814146518707,1.4075173139572144,-3.4970114938914776e-05,0.02458537369966507
168.0,142.0,-0.0185,1.1509,9.4995,-0.0267,0.0038,-0.1229,-2.2292381725706996,-0.004289691336452961,4.727025985717773,-1.1061158180236816,6.867862248327583e-05,2.122014045715332,4.764275542437591,-0.0003795347874984145,0.27085810899734497,-1.5345037619220179,0.0,-0.021237416192889214,-0.474036995564596,0.0,0.027207890525460243,1.4075090885162354,-3.0265886380220763e-05,0.00450799148529768
168.0,142.0,-0.0185,1.1509,9.4995,-0.0267,0.0038,-0.1229,-2.2291814289488734,-0.0040465351194143295,4.731030464172363,-1.1060837507247925,7.71802879171446e-05,2.1403865814208984,4.764250981598654,-0.0003194125893060118,0.2641339898109436,-1.534527603779928,0.0,-0.019616372883319855,-0.47402888933290654,0.0,0.032117005437612534,1.407500982284546,-2.7492247681948356e-05,0.02596191316843033
169.0,145.0,-0.2483,1.2311,9.4403,-0.0186,0.0356,-0.122,-2.229217668572897,-0.0037750466726720333,4.732488632202148,-1.1061598062515259,7.357493450399488e-05,2.1465141773223877,4.764271016209879,-0.0002582816523499787,0.2622276246547699,-1.5345237890826624,0.0,-0.021279506385326385,-0.47401315370668584,0.00021070068760309368,0.03920220211148262,1.4074971675872803,-2.4498744096490555e-05,0.008554274216294289
169.0,145.0,-0.2483,1.2311,9.4403,-0.0186,0.0356,-0.122,-2.229245801965231,-0.004612010437995195,4.64855432510376,-1.106067180633545,7.029137486824766e-05,2.1215085983276367,4.764218973904409,-0.0002528420591261238,0.26580435037612915,-1.5345481077777308,0.0,-0.0339624397456646,-0.4740532080279749,0.0002158814895665273,0.03640737384557724,1.4074890613555908,-2.209313606726937e-05,-0.010157525539398193
169.0,145.0,-0.2483,1.2311,9.4403,-0.0186,0.0356,-0.122,-2.22930969814443,-0.004950489848852158,4.714694976806641,-1.1061280965805054,1.4091912525771022e-08,2.0752341747283936,4.764246928482809,-0.00022573508613277227,0.2545582354068756,-1.534527603779928,0.0,-0.018128545954823494,-0.47399694124330694,0.00022490024275612086,0.03404243662953377,1.4075090885162354,-7.043062851153081e-06,-0.002424857346341014
169.0,145.0,-0.2483,1.2311,9.4403,-0.0186,0.0356,-0.122,-2.229337831536764,-0.005327867344021797,4.694948673248291,-1.1061400175094604,4.565600229929285e-16,2.156904458999634,4.764254997461595,-0.00019743457960430533,0.26793599128723145,-1.5345762411700647,0.0,-0.014986999332904816,-0.4740331808673304,0.0002251579426229,0.02980448305606842,1.4074690341949463,-2.2818628497150995e-13,7.04391859471798e-05
169.0,145.0,-0.2483,1.2311,9.4403,-0.0186,0.0356,-0.122,-2.2293902836241664,-0.006117335520684719,4.730970859527588,-1.1060879230499268,4.7661680582677945e-05,2.1384263038635254,4.764222702919998,-0.00018046594050247222,0.2531713545322418,-1.534543816243307,0.0,-0.016593798995018005,-0.47404510179628545,0.0003473498218227178,0.03763291984796524,1.4074890613555908,-5.51043012062027e-19,-0.006850701291114092
169.0,145.0,-0.2483,1.2311,9.4403,-0.0186,0.0356,-0.122,-2.2293979130186976,-0.006378569174557924,4.678738594055176,-1.106107473373413,1.5441779799285626e-12,2.200817823410034,4.764254971384563,-6.134175055194646e-05,0.2608608305454254,-1.5345481077777308,0.0,-0.01585586741566658,-0.4740331808673304,0.00032370814005844295,0.047170490026474,1.407501220703125,-1.7853090169069774e-26,-0.02322256751358509
169.0,145.0,-0.2483,1.2311,9.4403,-0.0186,0.0356,-0.122,-2.229457517663473,-0.006836478132754564,4.69990873336792,-1.106091856956482,5.0029398867938705e-20,2.0955252647399902,4.764250910818138,-5.38927415618673e-05,0.25489962100982666,-1.534499470387594,0.0,-0.025540350005030632,-0.4740250746356409,0.0003081067115999758,0.03747788071632385,1.4075050354003906,-5.784174236854611e-34,-0.053734488785266876
169.0,145.0,-0.2483,1.2311,9.4403,-0.0186,0.0356,-0.122,-2.2295056782164515,-0.007448022253811359,4.633590221405029,-1.1060795783996582,1.20815119992391e-25,2.1799120903015137,4.764271023660459,-4.945064210915007e-05,0.27160581946372986,-1.5345237890826624,0.0,-0.044251699000597,-0.47398072877992803,0.0003302795230410993,0.05185370892286301,1.407545566558838,-1.3968101053435847e-39,-0.01438518613576889
169.0,145.0,-0.2483,1.2311,9.4403,-0.0186,0.0356,-0.122,-2.229553361932272,-0.008504768833518028,4.686797142028809,-1.106111764907837,3.9142562309420726e-33,2.141571521759033,4.764275084226885,-4.455424641491845e-05,0.2579466998577118,-1.5345075766192835,0.0,-0.03200938552618027,-0.47400123277773076,0.00035403986112214625,0.05311041697859764,1.4075292348861694,-0.0,-0.022747427225112915
169.0,145.0,-0.2483,1.2311,9.4403,-0.0186,0.0356,-0.122,-2.2296139202513636,-0.009188241325318813,4.684321403503418,-1.1060755252838135,9.452468600192304e-39,2.174614906311035,4.764235022455015,-4.147435902268626e-05,0.2596769332885742,-1.534600083027975,0.0,-0.0412190780043602,-0.4739931265460413,0.00033774887560866773,0.03344700485467911,1.4074931144714355,0.0,0.00474146194756031
169.0,145.0,-0.2483,1.2311,9.4403,-0.0186,0.0356,-0.122,-2.229705949822897,-0.010296555235981941,4.653801441192627,-1.1060919761657715,0.0002040065301116556,2.0962374210357666,4.764267324447193,-3.797431054408662e-05,0.2644204795360565,-1.5345481077777308,0.0,-0.019778290763497353,-0.47406083742250615,0.00033996489946730435,0.057572413235902786,1.4074931144714355,0.0,0.0006735017523169518
169.0,145.0,-0.2483,1.2311,9.4403,-0.0186,0.0356,-0.122,-2.229809900323385,-0.0116325868293643,4.63223934173584,-1.1060960292816162,0.00017326015222351998,2.161266565322876,4.764246928482809,-3.501904211589135e-05,0.24561747908592224,-1.534527603779928,0.0,-0.03342060744762421,-0.47401315370668584,0.0003112138365395367,0.054830074310302734,1.4074848890304565,0.0,-0.037151411175727844
169.0,145.0,-0.2483,1.2311,9.4403,-0.0186,0.0356,-0.122,-2.22982182125234,-0.012685924768447876,4.671123504638672,-1.1060919761657715,0.00018637682660482824,2.10343861579895,4.764267339348354,-3.3087835618061945e-05,0.25075027346611023,-1.534527603779928,0.0,-0.04255428910255432,-0.4739773909198206,0.0002679623430594802,0.049260854721069336,1.4074971675872803,0.0,-0.053787507116794586
170.0,142.0,-0.2794,1.008,9.6915,-0.0363,0.0131,-0.1234,-2.2299820385374964,-0.0139419324696064,4.677660942077637,-1.106052041053772,0.00019106626859866083,2.1317739486694336,4.76429524177269,-3.082155672018416e-05,0.2631908655166626,-1.534555737172262,0.0,-0.03311898186802864,-0.47398072877992803,0.000260825123405084,0.058930911123752594,1.4075132608413696,0.0,-0.027936097234487534
170.0,142.0,-0.2794,1.008,9.6915,-0.0363,0.0131,-0.1234,-2.230069776574606,-0.015143437311053276,4.644678115844727,-1.1060600280761719,0.00017039546219166368,2.1132984161376953,4.764287396311321,-2.8845821361755952e-05,0.25152894854545593,-1.5345638434039515,0.0,-0.03680375963449478,-0.47396928468813115,0.0002554511884227395,0.053176477551460266,1.407473087310791,0.0,0.029000045731663704
170.0,142.0,-0.2794,1.008,9.6915,-0.0363,0.0131,-0.1234,-2.2301374874510707,-0.01650180295109749,4.6443986892700195,-1.1060755252838135,0.00015760716632939875,2.1081795692443848,4.764219033509054,-2.7522624804987572e-05,0.24979382753372192,-1.5345481077777308,0.0,-0.043888308107852936,-0.47400123277773076,0.00023110900656320155,0.040742140263319016,1.4075374603271484,0.0,-0.0510404147207737
170.0,142.0,-0.2794,1.008,9.6915,-0.0363,0.0131,-0.1234,-2.230309625665182,-0.01772201806306839,4.621932506561279,-1.1060878038406372,0.00016291665087919682,2.1296167373657227,4.764263230353155,-3.5566707083489746e-05,0.2465602457523346,-1.5344918409930628,0.0,-0.03624274581670761,-0.473973576222555,0.00019438228628132492,0.06333085894584656,1.407476782798767,0.0,-0.006349734030663967
170.0,142.0,-0.2794,1.008,9.6915,-0.0363,0.0131,-0.1234,-2.2304259739317835,-0.019617514684796333,4.611026287078857,-1.106080412864685,0.00015328031440731138,2.111910581588745,4.764266903489389,-3.729151649167761e-05,0.2520599663257599,-1.534539524708883,0.0,-0.02491382695734501,-0.473973576222555,0.0002053015778074041,0.06451307982206345,1.4075169563293457,0.0,-0.024623200297355652
170.0,142.0,-0.2794,1.008,9.6915,-0.0363,0.0131,-0.1234,-2.2306257687010707,-0.02222742699086666,4.603569984436035,-1.1060515642166138,0.00014125197776593268,2.12160587310791,4.76425093316988,-3.534000279614702e-05,0.23822656273841858,-1.5345318953143519,0.0,-0.028621189296245575,-0.4739888350116175,0.0001790959358913824,0.04465746134519577,1.4074890613555908,0.0,-0.016545668244361877
170.0,142.0,-0.2794,1.008,9.6915,-0.0363,0.0131,-0.1234,-2.2307616672911585,-0.02566344663500786,4.589627265930176,-1.1061002016067505,0.00013128524005878717,2.133579730987549,4.764315369516172,-3.3581804018467665e-05,0.23987652361392975,-1.5345237890826624,0.0,-0.0287119559943676,-0.4739893118487757,0.00018443938461132348,0.05792523920536041,1.4074608087539673,-2.1593774363282137e-05,-0.032362427562475204
170.0,142.0,-0.2794,1.008,9.6915,-0.0363,0.0131,-0.1234,-2.230962415734762,-0.02712925896048546,4.523682117462158,-1.1060713529586792,0.0001367086370009929,2.149442672729492,4.764259080379762,-3.237385317333974e-05,0.24191132187843323,-1.5345161596881312,0.0,-0.022100884467363358,-0.47402888933290654,0.00016957329353317618,0.04512979835271835,1.4074890613555908,-2.0163444787613116e-05,-0.010399208404123783
170.0,142.0,-0.2794,1.008,9.6915,-0.0363,0.0131,-0.1234,-2.231133600274557,-0.02787655033171177,4.5462751388549805,-1.1060315370559692,0.000152743945363909,2.1332361698150635,4.764275084226885,-3.089223901042715e-05,0.24439141154289246,-1.5345600287066858,0.0,-0.0386800542473793,-0.47398120561708623,0.00017208237841259688,0.04093180596828461,1.4075697660446167,-1.8505110347177833e-05,-0.015315256081521511
170.0,142.0,-0.2794,1.008,9.6915,-0.0363,0.0131,-0.1234,-2.2313457928099574,-0.027494078502058983,4.534928321838379,-1.1060763597488403,0.00016273219080176204,2.155883550643921,4.76425106355504,-3.9653852581977844e-05,0.24950650334358215,-1.5345118681537073,0.0,-0.04848666489124298,-0.47396928468813115,0.00016307066834997386,0.03859679400920868,1.4074971675872803,-1.7429967556381598e-05,-0.06677520275115967
170.0,142.0,-0.2794,1.008,9.6915,-0.0363,0.0131,-0.1234,-2.231541772881979,-0.02684180811047554,4.538802146911621,-1.106100082397461,0.0003116097650490701,2.1140809059143066,4.76423908302144,-7.206892305156032e-10,0.2509387731552124,-1.5345199743853968,0.0,-0.034629084169864655,-0.47396546999086553,0.00014952461060602218,0.0664864182472229,1.4075050354003906,-1.6176816643564962e-05,-0.029787523671984673
170.0,142.0,-0.2794,1.008,9.6915,-0.0363,0.0131,-0.1234,-2.231773992578024,-0.0269467756152153,4.564487457275391,-1.106055736541748,0.00024401127302553505,2.16603422164917,4.7642793012555025,-1.3098169365799179e-14,0.24267223477363586,-1.5345037619220179,0.0,-0.030395764857530594,-0.47398502031435186,0.00013805618800688535,0.04760194569826126,1.4074931144714355,-1.5091777640918735e-05,0.009899846278131008
169.0,145.0,-0.1723,0.8901,9.5563,-0.0195,0.0075,-0.119,-2.231913229028219,-0.027544602751731873,4.584418296813965,-1.106091856956482,0.0002098681143252179,2.1322834491729736,4.764259125083246,-3.645923040509659e-18,0.24227917194366455,-1.5344598929034632,0.0,-0.021432586014270782,-0.4740250746356409,0.00013054652663413435,0.049423836171627045,1.407517433166504,-1.436894126527477e-05,-0.021131854504346848
169.0,145.0,-0.1723,0.8901,9.5563,-0.0195,0.0075,-0.119,-2.2321859798827113,-0.028202464804053307,4.554512023925781,-1.1061034202575684,0.00017687080253381282,2.108386993408203,4.764242771058836,-2.299246443726588e-05,0.24527379870414734,-1.5345600287066858,0.0,-0.03617853671312332,-0.4740093390094202,0.00011373276356607676,0.041413769125938416,1.4075210094451904,-1.3506401955964975e-05,-0.07718788832426071
169.0,145.0,-0.1723,0.8901,9.5563,-0.0195,0.0075,-0.119,-2.2323337994017542,-0.026615912094712257,4.5116190910339355,-1.106083631515503,0.00015821418492123485,2.147167682647705,4.764234631299534,-2.2147227355162613e-05,0.24534675478935242,-1.5345724264727991,0.0,-0.03280266001820564,-0.47396546999086553,0.0001055097091011703,0.054096441715955734,1.407500982284546,-2.1434691007016227e-05,-0.01888119801878929
169.0,145.0,-0.1723,0.8901,9.5563,-0.0195,0.0075,-0.119,-2.2325459919371546,-0.02785477787256241,4.518073558807373,-1.1060600280761719,0.0001387069933116436,2.1122024059295654,4.764218620001831,-2.1108371583977714e-05,0.2278306484222412,-1.5345638434039515,0.0,-0.027580898255109787,-0.4739888350116175,9.646252146922052e-05,0.043021026998758316,1.4075055122375488,-3.618061964516528e-05,0.01158076710999012
169.0,145.0,-0.1723,0.8901,9.5563,-0.0195,0.0075,-0.119,-2.2327171764769496,-0.027712887153029442,4.530791759490967,-1.10599946975708,0.00014527782332152128,2.1154227256774902,4.764279245376148,-2.016260077652987e-05,0.24656927585601807,-1.534555737172262,0.0,-0.02844136580824852,-0.47401315370668584,8.884428825695068e-05,0.03187128156423569,1.4075292348861694,-3.4778178815031424e-05,-0.03683116286993027
169.0,145.0,-0.1723,0.8901,9.5563,-0.0195,0.0075,-0.119,-2.232934137383932,-0.028448764234781265,4.546444416046143,-1.106043815612793,0.000158808717969805,2.1219329833984375,4.764218571573057,-1.6769190835930203e-07,0.23811441659927368,-1.5345361868487757,0.0,-0.040605682879686356,-0.473973576222555,8.387629350181669e-05,0.05641987919807434,1.4075053930282593,-4.3344811274437234e-05,-0.034378357231616974
169.0,145.0,-0.1723,0.8901,9.5563,-0.0195,0.0075,-0.119,-2.23311771968984,-0.02939128875732422,4.519526481628418,-1.1060763597488403,0.00016511589637957513,2.120581865310669,4.764275099128046,-3.0477183277088926e-12,0.23433572053909302,-1.5345037619220179,0.0,-0.030970292165875435,-0.473973576222555,9.359887189930305e-05,0.046800367534160614,1.4074525833129883,-0.00010003629722632468,-0.02761514112353325
169.0,145.0,-0.1723,0.8901,9.5563,-0.0195,0.0075,-0.119,-2.233309885064596,-0.02913179062306881,4.504569053649902,-1.1060038805007935,0.0012159630423411727,2.1644744873046875,4.764267324447193,-8.483437307401764e-16,0.23519641160964966,-1.534515682850973,0.0,-0.023705454543232918,-0.47399646440614873,8.903465641196817e-05,0.06003676354885101,1.407473087310791,-0.00011312872811686248,-0.01660097762942314
169.0,145.0,-0.1723,0.8901,9.5563,-0.0195,0.0075,-0.119,-2.233537336389059,-0.028575511649250984,4.519915580749512,-1.106052041053772,0.0026681723538786173,2.103847026824951,4.764246928482809,-1.541822494974649e-20,0.22860556840896606,-1.5345681349383753,0.0,-0.05207223817706108,-0.4740250746356409,8.35259779705666e-05,0.049628667533397675,1.4074811935424805,-0.0001374299608869478,-0.014086032286286354
169.0,145.0,-0.1723,0.8901,9.5563,-0.0195,0.0075,-0.119,-2.2338019810118617,-0.030104387551546097,4.491700172424316,-1.1059718132019043,0.007587033323943615,2.1846506595611572,4.764226770937004,-2.8021862841073547e-25,0.24380138516426086,-1.5345876852618616,0.0,-0.03932669758796692,-0.47396928468813115,9.175427112495527e-05,0.057023756206035614,1.407473087310791,-0.000375317846192047,-0.05513876676559448
169.0,145.0,-0.1723,0.8901,9.5563,-0.0195,0.0075,-0.119,-2.2339498005309046,-0.03040914051234722,4.526516914367676,-1.1059681177139282,0.007063847966492176,2.144627332687378,4.764239112823763,-7.799988589525355e-29,0.22232317924499512,-1.534527603779928,0.0,-0.041025880724191666,-0.4740212599383753,8.792668086243793e-05,0.060989584773778915,1.4074931144714355,-0.00036024441942572594,-0.07059431076049805
169.0,145.0,-0.1723,0.8901,9.5563,-0.0195,0.0075,-0.119,-2.234217783013815,-0.03036612831056118,4.501359462738037,-1.1058599948883057,0.003970124758780003,2.1939752101898193,4.764206713974037,-1.4176095447287117e-33,0.22737906873226166,-1.5345519224749964,0.0,-0.04289289563894272,-0.473973576222555,8.32776931929402e-05,0.042813871055841446,1.4074164628982544,-0.0003261807723902166,-0.04570446535944939
168.0,149.0,-0.1172,1.1444,9.5767,-0.0163,0.0168,-0.137,-2.2344542942442835,-0.028058892115950584,4.525889873504639,-1.105851650238037,0.002134602051228285,2.082174777984619,4.764259087830343,-2.576435203779009e-38,0.2454720437526703,-1.534539524708883,0.0,-0.03841719031333923,-0.47401696840395147,9.039159340318292e-05,0.06275123357772827,1.407473087310791,-0.00031316178501583636,-0.04638016223907471
168.0,149.0,-0.1172,1.1444,9.5767,-0.0163,0.0168,-0.137,-2.234610219995016,-0.025779953226447105,4.498049736022949,-1.105827808380127,0.0014062048867344856,2.078187942504883,4.764299317240276,-7.171845540414414e-42,0.22572065889835358,-1.534527603779928,0.0,-0.03184457868337631,-0.4740093390094202,8.711384725756943e-05,0.058566976338624954,1.4074530601501465,-0.0002850914897862822,-0.05359448492527008
168.0,149.0,-0.1172,1.1444,9.5767,-0.0163,0.0168,-0.137,-2.234826227227682,-0.02454364486038685,4.494926452636719,-1.105851650238037,0.0006383709842339158,2.1370723247528076,4.764263252704897,-0.0,0.2374151051044464,-1.5345118681537073,0.0,-0.04267444461584091,-0.4739926497088831,8.816624176688492e-05,0.0702267587184906,1.4074288606643677,-0.00027293554740026593,-0.022871829569339752
168.0,149.0,-0.1172,1.1444,9.5767,-0.0163,0.0168,-0.137,-2.2349702320494593,-0.023260418325662613,4.5322265625,-1.1058640480041504,0.00044769488158635795,2.126434803009033,4.764259095280924,-0.0,0.23299366235733032,-1.5345481077777308,0.0,-0.044444747269153595,-0.4739773909198206,8.809068822301924e-05,0.07550126314163208,1.407473087310791,-0.00023699822486378253,-0.06432713568210602
168.0,149.0,-0.1172,1.1444,9.5767,-0.0163,0.0168,-0.137,-2.235129495660299,-0.02207249402999878,4.564603328704834,-1.1058361530303955,0.00038426247192546725,2.0922555923461914,4.764255105495014,-0.0,0.2279873788356781,-1.5345519224749964,0.0,-0.04759734123945236,-0.47396928468813115,8.169512148015201e-05,0.05660758167505264,1.407509446144104,-0.00020160386338829994,-0.06891806423664093
168.0,149.0,-0.1172,1.1444,9.5767,-0.0163,0.0168,-0.137,-2.235321184197897,-0.021155130118131638,4.517989158630371,-1.1059002876281738,0.0003489610680844635,2.08221435546875,4.764251007675686,-0.0,0.2324570119380951,-1.534527603779928,0.0,-0.050748325884342194,-0.47395354906191045,9.139634494204074e-05,0.051031146198511124,1.4074370861053467,-0.0001754080003593117,-0.10385224223136902
168.0,149.0,-0.1172,1.1444,9.5767,-0.0163,0.0168,-0.137,-2.2353974781432093,-0.020620478317141533,4.487722396850586,-1.1058803796768188,0.0003417722473386675,2.099968433380127,4.764230954438009,-0.0,0.2247850000858307,-1.534539524708883,0.0,-0.04598823934793472,-0.4739416281329554,0.00010098885104525834,0.05165676027536392,1.4074690341949463,-0.0001598322851350531,-0.09773431718349457
168.0,149.0,-0.1172,1.1444,9.5767,-0.0163,0.0168,-0.137,-2.2356015644469203,-0.020164692774415016,4.557275295257568,-1.1058763265609741,0.00028737768298015,2.119426965713501,4.764235015004434,-7.809796079527587e-05,0.22703823447227478,-1.5345361868487757,0.0,-0.048779502511024475,-0.4739888350116175,0.00010872143320739269,0.06571667641401291,1.407464861869812,-0.00014291204570326954,-0.08802561461925507
