ramyac6/ROB537/final_project/csv/good/good_33.csv
tof_0,tof_1,accelx,accely,accelz,gyrox,gyroy,gyroz,shoulder_lift_joint_position,shoulder_lift_joint_velocity,shoulder_lift_joint_effort,elbow_joint_position,elbow_joint_velocity,elbow_joint_effort,wrist_1_joint_position,wrist_1_joint_velocity,wrist_1_joint_effort,wrist_2_joint_position,wrist_2_joint_velocity,wrist_2_joint_effort,wrist_3_joint_position,wrist_3_joint_velocity,wrist_3_joint_effort,shoulder_pan_joint_position,shoulder_pan_joint_velocity,shoulder_pan_joint_effort
279.0,487.0,-3.2177,0.652,9.402,-0.0402,0.0162,-0.1087,-2.2037250004210414,0.0,4.477929592132568,-1.418663740158081,-0.0,1.9522862434387207,5.4162659523780725,0.0,0.23809093236923218,-1.7210419813739222,-0.0,0.009423520416021347,0.43556952476501465,0.0,-0.002546293893828988,1.2559586763381958,0.0,0.016028258949518204
279.0,487.0,-3.2177,0.652,9.402,-0.0402,0.0162,-0.1087,-2.2036973438658656,0.0,4.504753112792969,-1.4186556339263916,-0.0,1.9751317501068115,5.416257846146383,0.0,0.24144849181175232,-1.7210858503924769,-0.0,0.0021017505787312984,0.4355735182762146,0.0,-0.00447253929451108,1.2559945583343506,0.0,0.019709482789039612
279.0,487.0,-3.2177,0.652,9.402,-0.0402,0.0162,-0.1087,-2.203745027581686,0.0,4.531068325042725,-1.4186596870422363,-0.0,1.9200514554977417,5.416306245117941,0.0,0.2461310625076294,-1.7209695021258753,-0.0,0.00749750854447484,0.43556535243988037,0.0,-0.002966894768178463,1.255910038948059,0.0,0.03720609471201897
279.0,487.0,-3.2177,0.652,9.402,-0.0402,0.0162,-0.1087,-2.203701158563131,0.0,4.495884895324707,-1.4186596870422363,-0.0,1.9207524061203003,5.416217970639028,0.0,0.23675809800624847,-1.7210419813739222,-0.0,0.007588836830109358,0.4356342554092407,0.0,-0.005566293839365244,1.255954623222351,0.0,0.008858508430421352
279.0,487.0,-3.2177,0.652,9.402,-0.0402,0.0162,-0.1087,-2.203729291955465,0.0,4.502858638763428,-1.4186716079711914,-0.0,1.9172828197479248,5.416294264584341,0.0,0.2359108030796051,-1.7210338751422327,-0.0,-0.0003991013509221375,0.4356219172477722,0.0,-0.0016451743431389332,1.2559863328933716,0.0,-0.006042191293090582
279.0,487.0,-3.2177,0.652,9.402,-0.0402,0.0162,-0.1087,-2.2037130794920863,0.0,4.515559196472168,-1.418647289276123,-0.0,1.9304776191711426,5.416281926422872,0.0,0.24915698170661926,-1.7209818998919886,-0.0,0.009262151084840298,0.4355935752391815,0.0,0.006864431779831648,1.2559504508972168,0.0,-0.0001301155425608158
279.0,487.0,-3.2177,0.652,9.402,-0.0402,0.0162,-0.1087,-2.203733106652731,0.0,4.534836292266846,-1.4186596870422363,-0.0,1.9122732877731323,5.416249620705404,0.0,0.23015429079532623,-1.7210100332843226,-0.0,0.006076538469642401,0.43561360239982605,0.0,-0.005216575227677822,1.255954623222351,0.0,-0.030665425583720207
279.0,487.0,-3.2177,0.652,9.402,-0.0402,0.0162,-0.1087,-2.2037130794920863,0.0,4.522436141967773,-1.4186354875564575,-0.0,1.9225118160247803,5.416269826679983,0.0,0.2392764389514923,-1.7210338751422327,-0.0,0.001779207494109869,0.4356136918067932,0.0,0.007022666744887829,1.2559586763381958,0.0,-0.033123478293418884
279.0,487.0,-3.2177,0.652,9.402,-0.0402,0.0162,-0.1087,-2.203701158563131,0.0,4.480132102966309,-1.4186596870422363,-0.0,1.8953568935394287,5.416298019676962,0.0,0.23211348056793213,-1.7210262457477015,-0.0,0.0009192854631692171,0.43559399247169495,0.0,0.008419472724199295,1.255946397781372,0.0,-0.04828442633152008
279.0,487.0,-3.2177,0.652,9.402,-0.0402,0.0162,-0.1087,-2.2037130794920863,0.0,4.485261917114258,-1.418699860572815,-0.0,1.9256336688995361,5.416273879795828,0.0,0.24223022162914276,-1.7210338751422327,-0.0,0.009999198839068413,0.43556126952171326,0.0,-0.0005447269650176167,1.255954623222351,0.0,0.021627463400363922
279.0,487.0,-3.2177,0.652,9.402,-0.0402,0.0162,-0.1087,-2.2037211857237757,0.0,4.483512878417969,-1.4186313152313232,-0.0,1.9501824378967285,5.416306245117941,0.0,0.23191934823989868,-1.7210658232318323,-0.0,0.004761505872011185,0.4355776011943817,0.0,-0.014485647901892662,1.2560068368911743,0.0,-0.05579365789890289
287.0,505.0,-3.1633,0.6694,9.1986,-0.0374,0.0281,-0.1106,-2.2037211857237757,0.0,4.468542098999023,-1.4186556339263916,-0.0,1.9239821434020996,5.416261899262228,0.0,0.24586257338523865,-1.7210138479815882,-0.0,-0.0007250793278217316,0.43557360768318176,0.0,0.013759173452854156,1.2559062242507935,0.0,0.047013647854328156
287.0,505.0,-3.1633,0.6694,9.1986,-0.0374,0.0281,-0.1106,-2.2037092647948207,0.0,4.446954250335693,-1.4186313152313232,-0.0,1.9122729301452637,5.416249620705404,0.0,0.23885473608970642,-1.721018139516012,-0.0,0.007648277096450329,0.4355858564376831,0.0,-0.008924921043217182,1.255954623222351,0.0,-0.012798858806490898
287.0,505.0,-3.1633,0.6694,9.1986,-0.0374,0.0281,-0.1106,-2.20371737102651,0.0,4.489569664001465,-1.4186679124832153,-0.0,1.9625531435012817,5.416261541634359,0.0,0.23596689105033875,-1.7210539023028772,-0.0,-0.017389025539159775,0.4356299936771393,0.0,0.0012053668033331633,1.2559341192245483,0.0,-0.029531583189964294
287.0,505.0,-3.1633,0.6694,9.1986,-0.0374,0.0281,-0.1106,-2.203701158563131,0.0,4.474915981292725,-1.4186675548553467,-0.0,1.9570560455322266,5.416290211468496,0.0,0.24571330845355988,-1.7210138479815882,-0.0,0.0075350236147642136,0.4355895221233368,0.0,0.0010217427043244243,1.2559341192245483,0.0,-0.0042566172778606415
287.0,505.0,-3.1633,0.6694,9.1986,-0.0374,0.0281,-0.1106,-2.203681608239645,0.0,4.451694011688232,-1.4186152219772339,-0.0,1.9695117473602295,5.416273820191183,0.0,0.25117772817611694,-1.7210539023028772,-0.0,0.010083375498652458,0.4355858564376831,0.0,0.004436848219484091,1.2559263706207275,0.0,0.02632562816143036
287.0,505.0,-3.1633,0.6694,9.1986,-0.0374,0.0281,-0.1106,-2.2036935291686,0.0,4.5061163902282715,-1.4186596870422363,-0.0,1.939167857170105,5.416265654354849,0.0,0.23625656962394714,-1.7210577170001429,-0.0,0.0002775266766548157,0.435597687959671,0.0,0.012098006904125214,1.2559863328933716,0.0,0.012108738534152508
287.0,505.0,-3.1633,0.6694,9.1986,-0.0374,0.0281,-0.1106,-2.203681608239645,0.0,4.494632720947266,-1.4186917543411255,-0.0,1.9210530519485474,5.416306245117941,0.0,0.2357034683227539,-1.7209976355182093,-0.0,0.002457187045365572,0.4355858564376831,0.0,0.013573900796473026,1.2559341192245483,0.0,0.029253939166665077
287.0,505.0,-3.1633,0.6694,9.1986,-0.0374,0.0281,-0.1106,-2.20371737102651,0.0,4.478389739990234,-1.4186999797821045,-0.0,1.944031834602356,5.416249561100759,0.0,0.23377180099487305,-1.7210138479815882,-0.0,0.003083900548517704,0.43556126952171326,0.0,-0.006759989075362682,1.2559301853179932,0.0,0.039873939007520676
287.0,505.0,-3.1633,0.6694,9.1986,-0.0374,0.0281,-0.1106,-2.203701158563131,0.0,4.515911102294922,-1.4186793565750122,-0.0,1.9197075366973877,5.416286158352651,0.0,0.2345445156097412,-1.7210338751422327,-0.0,0.0038472553715109825,0.4355858564376831,0.0,-0.0007132850005291402,1.2559465169906616,0.0,-0.00534054497256875
287.0,505.0,-3.1633,0.6694,9.1986,-0.0374,0.0281,-0.1106,-2.2037250004210414,0.0,4.484368324279785,-1.4186958074569702,-0.0,1.9569501876831055,5.416269767075338,0.0,0.22303995490074158,-1.7210262457477015,-0.0,0.006120218895375729,0.4355735182762146,0.0,0.0019035106524825096,1.2559263706207275,0.0,-0.016150619834661484
287.0,505.0,-3.1633,0.6694,9.1986,-0.0374,0.0281,-0.1106,-2.2036735020079554,0.0,4.486324787139893,-1.4186675548553467,-0.0,1.9339038133621216,5.416261899262228,0.0,0.23281466960906982,-1.7210500876056116,-0.0,0.004376119934022427,0.43563422560691833,0.0,0.0014155145036056638,1.2559586763381958,0.0,-0.004294758662581444
287.0,505.0,-3.1633,0.6694,9.1986,-0.0374,0.0281,-0.1106,-2.203745027581686,0.0,4.496408462524414,-1.4186798334121704,-0.0,1.9453694820404053,5.4162659523780725,0.0,0.25445735454559326,-1.7210419813739222,-0.0,0.014120828360319138,0.4355858564376831,0.0,0.01429913379251957,1.2559586763381958,0.0,-0.016764763742685318
287.0,505.0,-3.1633,0.6694,9.1986,-0.0374,0.0281,-0.1106,-2.2037536106505335,0.0,4.492522239685059,-1.418623447418213,-0.0,1.9395794868469238,5.416253793030538,0.0,0.24026434123516083,-1.7209818998919886,-0.0,0.005267303436994553,0.4355292320251465,0.0,0.0007148088770918548,1.2559504508972168,0.0,0.006497439928352833
287.0,505.0,-3.1633,0.6694,9.1986,-0.0374,0.0281,-0.1106,-2.2037250004210414,0.0,4.460074424743652,-1.4186756610870361,-0.0,1.9400110244750977,5.4162455079849146,0.0,0.2475425899028778,-1.7210219542132776,-0.0,0.005033046007156372,0.4355776906013489,0.0,0.002569678472355008,1.2559863328933716,0.0,0.0143758375197649
287.0,505.0,-3.1633,0.6694,9.1986,-0.0374,0.0281,-0.1106,-2.20371737102651,0.0,4.4896135330200195,-1.4186716079711914,-0.0,1.9272193908691406,5.416257488518514,0.0,0.23781463503837585,-1.7210381666766565,-0.0,0.004134981893002987,0.43556535243988037,0.0,0.002941944170743227,1.255910038948059,0.0,0.054570846259593964
287.0,505.0,-3.1633,0.6694,9.1986,-0.0374,0.0281,-0.1106,-2.2036854229369105,0.0,4.487456321716309,-1.4186592102050781,-0.0,1.9458777904510498,5.416269767075338,0.0,0.23519358038902283,-1.721001927052633,-0.0,0.019078519195318222,0.4356013536453247,0.0,-0.003966784570366144,1.2559744119644165,0.0,-0.025726912543177605
287.0,505.0,-3.1633,0.6694,9.1986,-0.0374,0.0281,-0.1106,-2.2036973438658656,0.0,4.49738883972168,-1.4186793565750122,-0.0,1.9371545314788818,5.416302430420675,0.0,0.2351967692375183,-1.7210539023028772,-0.0,-0.0015751998871564865,0.4356100559234619,0.0,-0.007697048131376505,1.2559341192245483,0.0,-0.02120072953402996
287.0,505.0,-3.1633,0.6694,9.1986,-0.0374,0.0281,-0.1106,-2.20366968731069,0.0,4.491450309753418,-1.4186959266662598,-0.0,1.9761099815368652,5.416293906956472,0.0,0.23348698019981384,-1.7210500876056116,-0.0,0.01148398220539093,0.43554529547691345,0.0,-0.00040187034755945206,1.2559703588485718,0.0,0.03227262198925018
287.0,505.0,-3.1633,0.6694,9.1986,-0.0374,0.0281,-0.1106,-2.203689237634176,0.0,4.5468339920043945,-1.4186556339263916,-0.0,1.913248062133789,5.416265594750204,0.0,0.25059184432029724,-1.7210176626788538,-0.0,0.002335537225008011,0.4355493485927582,0.0,-0.011623146012425423,1.255954623222351,0.0,0.024358101189136505
287.0,505.0,-3.1633,0.6694,9.1986,-0.0374,0.0281,-0.1106,-2.2037130794920863,0.0,4.441352367401123,-1.4187321662902832,-0.0,1.950104832649231,5.416286098748007,0.0,0.23275557160377502,-1.7210219542132776,-0.0,0.0037298393435776234,0.4356260299682617,0.0,0.002976618241518736,1.2559863328933716,0.0,0.0137319415807724
287.0,505.0,-3.1633,0.6694,9.1986,-0.0374,0.0281,-0.1106,-2.2037250004210414,0.0,4.503126621246338,-1.4186679124832153,-0.0,1.954260230064392,5.416261899262228,0.0,0.2290870100259781,-1.7210295836078089,-0.0,0.004646556451916695,0.4356260597705841,0.0,-0.005659718066453934,1.2559821605682373,0.0,-0.026228930801153183
286.0,505.0,-3.1567,0.6933,9.186,-0.0371,0.0226,-0.1145,-2.203745027581686,0.0,4.4207916259765625,-1.4187123775482178,-0.0,1.944932460784912,5.416310298233785,0.0,0.2350953370332718,-1.7210419813739222,-0.0,0.004307725001126528,0.435597687959671,0.0,0.0015826229937374592,1.2559341192245483,0.0,-0.04193694144487381
286.0,505.0,-3.1567,0.6933,9.186,-0.0371,0.0226,-0.1145,-2.2037092647948207,0.0,4.47605037689209,-1.4187320470809937,-0.0,1.9755940437316895,5.4162418124969385,0.0,0.2470446676015854,-1.7210138479815882,-0.0,0.018714725971221924,0.43552151322364807,0.0,-0.007641118951141834,1.2559341192245483,0.0,-0.025587692856788635
286.0,505.0,-3.1567,0.6933,9.186,-0.0371,0.0226,-0.1145,-2.203757425347799,0.0,4.461353778839111,-1.418708324432373,-0.0,1.9507858753204346,5.416249620705404,0.0,0.24359247088432312,-1.7210658232318323,-0.0,0.008818409405648708,0.4355894923210144,0.0,0.005823283456265926,1.255946397781372,0.0,-0.015238190069794655
286.0,505.0,-3.1567,0.6933,9.186,-0.0371,0.0226,-0.1145,-2.203729291955465,0.0,4.519136428833008,-1.4186675548553467,-0.0,1.925415277481079,5.416269826679983,0.0,0.2435307800769806,-1.7210419813739222,-0.0,0.006618928164243698,0.43555352091789246,0.0,0.007574001327157021,1.2559504508972168,0.0,0.0016727999318391085
286.0,505.0,-3.1567,0.6933,9.186,-0.0371,0.0226,-0.1145,-2.2037130794920863,0.0,4.515638828277588,-1.4187238216400146,-0.0,1.9485576152801514,5.416277873307028,0.0,0.24798856675624847,-1.7210381666766565,-0.0,0.01987229660153389,0.43555760383605957,0.0,-0.0006387807661667466,1.2559341192245483,0.0,0.01700468361377716
286.0,505.0,-3.1567,0.6933,9.186,-0.0371,0.0226,-0.1145,-2.203701158563131,0.0,4.495209693908691,-1.4186958074569702,-0.0,1.9620518684387207,5.416245865612783,0.0,0.23047661781311035,-1.7209938208209437,-0.0,0.0027907220646739006,0.43555721640586853,0.0,0.0013564169639721513,1.2559661865234375,0.0,0.00508123729377985
286.0,505.0,-3.1567,0.6933,9.186,-0.0371,0.0226,-0.1145,-2.2037250004210414,0.0,4.485255718231201,-1.418647289276123,-0.0,1.9719810485839844,5.416261958866873,0.0,0.247798889875412,-1.7210658232318323,-0.0,0.00743032107129693,0.4355296790599823,0.0,-0.004269369412213564,1.2559504508972168,0.0,0.04304340481758118
286.0,505.0,-3.1567,0.6933,9.186,-0.0371,0.0226,-0.1145,-2.2037130794920863,0.0,4.472255706787109,-1.4186675548553467,-0.0,1.9341456890106201,5.416269767075338,0.0,0.2368568480014801,-1.7210500876056116,-0.0,-0.001087498851120472,0.4356178641319275,0.0,0.004086953122168779,1.2559382915496826,0.0,-0.005093773826956749
286.0,505.0,-3.1567,0.6933,9.186,-0.0371,0.0226,-0.1145,-2.2036854229369105,0.0,4.4723052978515625,-1.418663740158081,-0.0,1.9243361949920654,5.416277932911672,0.0,0.22118118405342102,-1.7210658232318323,-0.0,0.007103637792170048,0.43554937839508057,0.0,0.01296733133494854,1.2559863328933716,0.0,-0.07718079537153244
286.0,505.0,-3.1567,0.6933,9.186,-0.0371,0.0226,-0.1145,-2.2037250004210414,0.0,4.46296501159668,-1.4187114238739014,-0.0,1.9328482151031494,5.416297960072317,0.0,0.2427338808774948,-1.7210620085345667,-0.0,0.0009913454996421933,0.43559402227401733,0.0,-0.009129426442086697,1.25600266456604,2.497448349458864e-06,-0.0498032420873642
286.0,505.0,-3.1567,0.6933,9.186,-0.0371,0.0226,-0.1145,-2.2037211857237757,0.0,4.502398490905762,-1.4186835289001465,-0.0,1.930838704109192,5.416261958866873,0.0,0.24177053570747375,-1.7210457960711878,-0.0,0.003844577819108963,0.43559402227401733,0.0,-6.995366857154295e-05,1.2560063600540161,4.495318561836825e-10,-0.02400628849864006
286.0,505.0,-3.1567,0.6933,9.186,-0.0371,0.0226,-0.1145,-2.2036935291686,0.0,4.4694647789001465,-1.4186029434204102,-0.0,1.9587783813476562,5.416265594750204,0.0,0.23922714591026306,-1.7210095564471644,-0.0,0.009561597369611263,0.43556126952171326,0.0,0.007372074760496616,1.2560265064239502,0.001461593434214592,-0.021459519863128662
286.0,505.0,-3.1567,0.6933,9.186,-0.0371,0.0226,-0.1145,-2.2037250004210414,0.0,4.495474338531494,-1.4186875820159912,-0.0,1.9587998390197754,5.416234242707052,0.0,0.24438899755477905,-1.7210496107684534,-0.0,0.012209443375468254,0.4355493485927582,0.0,0.0075681195594370365,1.2560302019119263,0.0024723070673644543,-0.011811790987849236
286.0,505.0,-3.1567,0.6933,9.186,-0.0371,0.0226,-0.1145,-2.203677316705221,0.0,4.497524738311768,-1.4186716079711914,-0.0,1.9563759565353394,5.416249561100759,0.0,0.2423241138458252,-1.7210577170001429,-1.108166003405131e-07,0.006659362465143204,0.43549323081970215,0.0,6.317690713331103e-05,1.255998134613037,0.0033398878294974566,0.007964207790791988
286.0,505.0,-3.1567,0.6933,9.186,-0.0371,0.0226,-0.1145,-2.20371737102651,0.0,4.520279407501221,-1.4186675548553467,-0.0,1.950866460800171,5.416253733425894,0.0,0.2550193667411804,-1.7210777441607874,-4.724285407320394e-10,0.007650389336049557,0.4355292320251465,0.0,-0.005030830390751362,1.2560460567474365,0.0039604040794074535,2.0701438188552856e-05
286.0,505.0,-3.1567,0.6933,9.186,-0.0371,0.0226,-0.1145,-2.2036935291686,0.0,4.446573257446289,-1.4187123775482178,-0.0,1.9338080883026123,5.416237759381094,0.0,0.2373160719871521,-1.7210658232318323,-2.0140369406951297e-12,0.010889772325754166,0.4356096088886261,0.0,-0.001420181943103671,1.2560420036315918,0.004330687690526247,-0.03467391058802605
286.0,505.0,-3.1567,0.6933,9.186,-0.0371,0.0226,-0.1145,-2.2037211857237757,0.0,4.48527717590332,-1.4186835289001465,-0.0,1.909838318824768,5.416238415032186,0.0,0.2333492934703827,-1.7210777441607874,-5.606146324313303e-16,0.006949536502361298,0.4355091452598572,0.0,0.004024272318929434,1.2560497522354126,0.0050480724312365055,-0.014639860019087791
286.0,505.0,-3.1567,0.6933,9.186,-0.0371,0.0226,-0.1145,-2.2037488422789515,0.0,4.446609020233154,-1.418631672859192,-0.0,1.947571039199829,5.416265594750204,0.0,0.23349902033805847,-1.7210777441607874,-2.389987833100489e-18,0.01825464516878128,0.43553751707077026,0.0,-0.0013007181696593761,1.2560899257659912,0.004897046834230423,0.0008968710899353027
286.0,505.0,-3.1567,0.6933,9.186,-0.0371,0.0226,-0.1145,-2.2037250004210414,0.0,4.498180389404297,-1.4186716079711914,-0.0,1.906043291091919,5.416277932911672,0.0,0.2444840669631958,-1.7210658232318323,-1.0188892514762818e-20,0.0005175973055884242,0.43548497557640076,0.0,0.01362120546400547,1.256117820739746,0.004649017937481403,-0.0011104829609394073
286.0,505.0,-3.1567,0.6933,9.186,-0.0371,0.0226,-0.1145,-2.203681608239645,0.0,4.451041221618652,-1.418691635131836,-0.0,1.9338016510009766,5.416241872101583,0.0,0.24505001306533813,-1.7210620085345667,-4.3436842920349216e-23,0.009734033606946468,0.43554526567459106,0.0,0.015884386375546455,1.256109595298767,0.004288282245397568,-0.027955440804362297
286.0,505.0,-3.1567,0.6933,9.186,-0.0371,0.0226,-0.1145,-2.2037092647948207,0.0,4.4675068855285645,-1.4187196493148804,-0.0,1.9162899255752563,5.416253733425894,0.0,0.24411849677562714,-1.7210939566241663,-1.8517808403414704e-25,5.360692739486694e-06,0.43561413884162903,0.0,-0.004617611411958933,1.2561779022216797,0.004271617624908686,-0.035226594656705856
286.0,511.0,-3.1496,0.5719,9.3278,-0.0461,0.0177,-0.1006,-2.203677316705221,0.0,4.46824836730957,-1.4186958074569702,-0.0,1.9518442153930664,5.416237759381094,0.0,0.23590916395187378,-1.7210620085345667,-7.894432101396973e-28,0.005944484379142523,0.43556952476501465,0.0,-0.0052887629717588425,1.2561825513839722,0.003982702270150185,0.01305023767054081
286.0,511.0,-3.1496,0.5719,9.3278,-0.0461,0.0177,-0.1006,-2.2036854229369105,0.0,4.474350452423096,-1.4186593294143677,-0.0,1.9629428386688232,5.416230249195852,0.0,0.24192065000534058,-1.7210333983050745,-3.365520071940969e-30,0.009936325252056122,0.4355617165565491,0.0,-0.009544777683913708,1.2561619281768799,0.003945615608245134,0.0049927206709980965
286.0,511.0,-3.1496,0.5719,9.3278,-0.0461,0.0177,-0.1006,-2.20377316097402,0.0,4.486839771270752,-1.4186675548553467,-0.0,1.9627082347869873,5.416245925217428,0.0,0.24857410788536072,-1.7210739294635218,-9.368048964290449e-34,0.008620170876383781,0.43557363748550415,0.0,-0.0012200175551697612,1.2562099695205688,0.003196453209966421,0.018539560958743095
286.0,511.0,-3.1496,0.5719,9.3278,-0.0461,0.0177,-0.1006,-2.2037092647948207,0.0,4.47035026550293,-1.4186756610870361,-0.0,1.915432095527649,5.416257846146383,0.0,0.2315746247768402,-1.7210939566241663,-3.9937456442427905e-36,-0.0008948888862505555,0.43555760383605957,0.0,0.007719925604760647,1.2562017440795898,0.0025836166460067034,-0.010005148127675056
286.0,511.0,-3.1496,0.5719,9.3278,-0.0461,0.0177,-0.1006,-2.203689237634176,0.0,4.489324569702148,-1.4186875820159912,-0.0,1.9171950817108154,5.416269767075338,0.0,0.24664068222045898,-1.7210734526263636,-1.7025964115540747e-38,0.005602466408163309,0.43556129932403564,0.0,-0.0022632076870650053,1.2562098503112793,0.0015980065800249577,-0.033134885132312775
286.0,511.0,-3.1496,0.5719,9.3278,-0.0461,0.0177,-0.1006,-2.2037092647948207,0.0,4.492040157318115,-1.4186716079711914,-0.0,1.9195058345794678,5.416265594750204,0.0,0.23013681173324585,-1.7210257689105433,-7.258445785509687e-41,0.003969243727624416,0.43559420108795166,0.0,0.015305059030652046,1.2562180757522583,0.001121176523156464,0.00516766682267189
286.0,511.0,-3.1496,0.5719,9.3278,-0.0461,0.0177,-0.1006,-2.203729291955465,0.0,4.456015586853027,-1.4186358451843262,-0.0,1.9161295890808105,5.416269767075338,0.0,0.2374197393655777,-1.7210739294635218,-3.0968696061578457e-43,0.01069160271435976,0.435597687959671,0.0,-0.004902333952486515,1.2562180757522583,0.0007918294286355376,-0.023205667734146118
286.0,511.0,-3.1496,0.5719,9.3278,-0.0461,0.0177,-0.1006,-2.2036973438658656,0.0,4.506789207458496,-1.4186437129974365,-0.0,1.935927152633667,5.416253733425894,0.0,0.24442677199840546,-1.7209938208209437,-1.401298464324817e-45,0.00522609893232584,0.43555763363838196,0.0,0.011059802956879139,1.2561697959899902,0.000612141564488411,0.009409915655851364
286.0,511.0,-3.1496,0.5719,9.3278,-0.0461,0.0177,-0.1006,-2.203701158563131,0.0,4.456778049468994,-1.418652057647705,-0.0,1.9612892866134644,5.416273820191183,0.0,0.22749146819114685,-1.7210095564471644,-0.0,-0.0016761498991400003,0.43555355072021484,0.0,0.009463207796216011,1.2562098503112793,0.00045673802378587425,-0.046963538974523544
286.0,511.0,-3.1496,0.5719,9.3278,-0.0461,0.0177,-0.1006,-2.2037130794920863,0.0,4.482422828674316,-1.4186756610870361,-0.0,1.9153153896331787,5.416265594750204,0.0,0.2461799830198288,-1.72101337114443,-0.0,0.011446826159954071,0.4356096088886261,0.0,0.00636961217969656,1.2561454772949219,0.0003906379279214889,0.01596599631011486
286.0,511.0,-3.1496,0.5719,9.3278,-0.0461,0.0177,-0.1006,-2.203745504418844,0.0,4.451586723327637,-1.4186029434204102,-0.0,1.9192776679992676,5.416273820191183,0.0,0.2279556542634964,-1.721041504536764,-0.0,0.004617270547896624,0.43554532527923584,0.0,-9.862461593002081e-05,1.2561619281768799,0.00028441305039450526,0.014787471853196621
286.0,511.0,-3.1496,0.5719,9.3278,-0.0461,0.0177,-0.1006,-2.2037412128844203,0.0,4.526676654815674,-1.4186477661132812,-0.0,1.9454445838928223,5.416290151863851,0.0,0.24428170919418335,-1.721097771321432,-0.0,-0.001072068465873599,0.435597687959671,0.0,-0.0015198338078334928,1.2561819553375244,0.0002193958789575845,0.019648700952529907
286.0,511.0,-3.1496,0.5719,9.3278,-0.0461,0.0177,-0.1006,-2.203729291955465,0.0,4.512617588043213,-1.418691873550415,-0.0,1.9627556800842285,5.4162179110343835,0.0,0.22374944388866425,-1.7210500876056116,-0.0,-0.005987468641251326,0.4355858862400055,0.0,-0.008441083133220673,1.2561819553375244,0.00018159653700422496,0.023450694978237152
286.0,511.0,-3.1496,0.5719,9.3278,-0.0461,0.0177,-0.1006,-2.2037250004210414,0.0,4.4800920486450195,-1.4186840057373047,-0.0,1.9422781467437744,5.416277932911672,0.0,0.24455693364143372,-1.7210338751422327,-0.0,0.011308376677334309,0.43555352091789246,0.0,0.0085506122559309,1.2561938762664795,-6.582880450878292e-05,0.012220793403685093
286.0,511.0,-3.1496,0.5719,9.3278,-0.0461,0.0177,-0.1006,-2.203705450097555,0.0,4.481616973876953,-1.4186556339263916,-0.0,1.9075891971588135,5.416253793030538,0.0,0.2529478073120117,-1.7210500876056116,-0.0,0.00505391089245677,0.4356096088886261,0.0,0.0005997976404614747,1.2561619281768799,-0.00016537944611627609,-0.036807283759117126
286.0,511.0,-3.1496,0.5719,9.3278,-0.0461,0.0177,-0.1006,-2.203689237634176,0.0,4.516515254974365,-1.418663740158081,-0.0,1.9348878860473633,5.416245925217428,0.0,0.23691785335540771,-1.7210138479815882,-0.0,0.005020161159336567,0.43558990955352783,0.0,-0.004278253763914108,1.2561054229736328,-0.0009612154681235552,-0.016884198412299156
286.0,511.0,-3.1496,0.5719,9.3278,-0.0461,0.0177,-0.1006,-2.203689237634176,0.0,4.512975692749023,-1.4186437129974365,-0.0,1.9104928970336914,5.416249620705404,0.0,0.22900456190109253,-1.7210219542132776,-0.0,0.005986714269965887,0.4355693757534027,0.0,0.01156674511730671,1.256117582321167,-0.0007201668340712786,-0.032929740846157074
286.0,511.0,-3.1496,0.5719,9.3278,-0.0461,0.0177,-0.1006,-2.2037369213499964,0.0,4.440516948699951,-1.4186875820159912,-0.0,1.983785629272461,5.416281986027517,0.0,0.24367254972457886,-1.721041504536764,-0.0,0.008461077697575092,0.43555352091789246,0.0,0.01119592972099781,1.2561620473861694,-0.0005684367497451603,0.011934984475374222
286.0,511.0,-3.1496,0.5719,9.3278,-0.0461,0.0177,-0.1006,-2.2037250004210414,0.0,4.439177513122559,-1.4186756610870361,-0.0,1.9514703750610352,5.416257786541738,0.0,0.24989689886569977,-1.7210257689105433,-0.0,-0.004385444801300764,0.4355858564376831,0.0,-0.0012361961416900158,1.2561619281768799,-0.0004695377720054239,0.010373151861131191
286.0,511.0,-3.1496,0.5719,9.3278,-0.0461,0.0177,-0.1006,-2.20366968731069,0.0,4.481639862060547,-1.4186396598815918,-0.0,1.9404480457305908,5.4162335870559595,0.0,0.2405054271221161,-1.7210138479815882,-0.0,0.0085374116897583,0.43554168939590454,0.0,-0.0037480900064110756,1.2561659812927246,-0.00039996279519982636,0.012685847468674183
278.0,520.0,-3.2351,0.4929,9.3218,-0.0444,0.0254,-0.1173,-2.2037092647948207,0.0,4.489335060119629,-1.4186354875564575,-0.0,1.9839019775390625,5.416281926422872,0.0,0.2412065863609314,-1.7210500876056116,-0.0,0.015356235206127167,0.43553298711776733,0.0,0.004048245493322611,1.2561254501342773,-0.0003483480541035533,-0.051786474883556366
278.0,520.0,-3.2351,0.4929,9.3218,-0.0444,0.0254,-0.1173,-2.2037369213499964,0.0,4.484231948852539,-1.4186514616012573,-0.0,1.9222607612609863,5.416269767075338,0.0,0.24150101840496063,-1.7210500876056116,-0.0,0.0013558391947299242,0.4355853497982025,0.0,0.002184546086937189,1.256154179573059,-0.0003597053582780063,-0.011229068040847778
278.0,520.0,-3.2351,0.4929,9.3218,-0.0444,0.0254,-0.1173,-2.20366968731069,0.0,4.50201940536499,-1.4186880588531494,-0.0,1.928781270980835,5.416318106442251,0.0,0.23279708623886108,-1.7210338751422327,-0.0,0.01023421622812748,0.43555760383605957,0.0,-0.002528106328099966,1.2561336755752563,-0.0003072809486184269,-0.024687711149454117
278.0,520.0,-3.2351,0.4929,9.3218,-0.0444,0.0254,-0.1173,-2.203701158563131,0.0,4.537215232849121,-1.4186395406723022,-0.0,1.9467806816101074,5.416281926422872,0.0,0.24883757531642914,-1.721041504536764,-0.0,-0.00015097437426447868,0.435597687959671,0.0,0.007641764357686043,1.2561419010162354,-0.00027996787684969604,-0.016155822202563286
278.0,520.0,-3.2351,0.4929,9.3218,-0.0444,0.0254,-0.1173,-2.2037092647948207,0.0,4.482312202453613,-1.4186515808105469,-0.0,1.9086201190948486,5.416281926422872,0.0,0.23730796575546265,-1.7210419813739222,-0.0,0.0029544648714363575,0.4356096088886261,0.0,0.0039436062797904015,1.2561378479003906,-0.0002571148215793073,0.0027897031977772713
278.0,520.0,-3.2351,0.4929,9.3218,-0.0444,0.0254,-0.1173,-2.20371737102651,0.0,4.484747886657715,-1.4186716079711914,-0.0,1.9198575019836426,5.416273820191183,0.0,0.23969346284866333,-1.7210295836078089,-0.0,0.004146532621234655,0.43555352091789246,0.0,0.0034270405303686857,1.2561578750610352,-0.00023771073028910905,0.008862163871526718
278.0,520.0,-3.2351,0.4929,9.3218,-0.0444,0.0254,-0.1173,-2.2037250004210414,0.0,4.4716081619262695,-1.4186596870422363,-0.0,1.9395695924758911,5.416294264584341,0.0,0.2465844750404358,-1.7210701147662562,-0.0,0.01617729477584362,0.43556126952171326,0.0,0.003591852728277445,1.2561336755752563,-0.00022103065566625446,-0.004772435873746872
278.0,520.0,-3.2351,0.4929,9.3218,-0.0444,0.0254,-0.1173,-2.2037092647948207,0.0,4.503688812255859,-1.4186514616012573,-0.0,1.9537112712860107,5.416241872101583,0.0,0.23428195714950562,-1.7210095564471644,-0.0,0.0054332236759364605,0.4356100559234619,0.0,0.0045267315581440926,1.2561742067337036,-0.00020653732644859701,-0.014031680300831795
278.0,520.0,-3.2351,0.4929,9.3218,-0.0444,0.0254,-0.1173,-2.20366968731069,0.0,4.479696273803711,-1.4186679124832153,-0.0,1.9178540706634521,5.416241872101583,0.0,0.2394249439239502,-1.7210295836078089,-0.0,0.00813717395067215,0.4355853497982025,0.0,0.01358046941459179,1.2561259269714355,-0.000193828294868581,0.007353894878178835
278.0,520.0,-3.2351,0.4929,9.3218,-0.0444,0.0254,-0.1173,-2.203729291955465,0.0,4.496163845062256,-1.4186756610870361,-0.0,1.926804542541504,5.416318166046896,0.0,0.24768763780593872,-1.7209938208209437,-0.0,0.008527339436113834,0.43562594056129456,0.0,0.0004060365026816726,1.2561217546463013,-0.00017744959041010588,-0.008476538583636284
278.0,520.0,-3.2351,0.4929,9.3218,-0.0444,0.0254,-0.1173,-2.203733106652731,0.0,4.513568878173828,-1.418708324432373,-0.0,1.9266432523727417,5.4162418124969385,0.0,0.23586052656173706,-1.7210381666766565,-0.0,0.01429804228246212,0.43555760383605957,0.0,-0.007525132969021797,1.256178379058838,-0.00016798637807369232,-0.022551659494638443
278.0,520.0,-3.2351,0.4929,9.3218,-0.0444,0.0254,-0.1173,-2.2037250004210414,0.0,4.439732074737549,-1.4186314344406128,-0.0,1.9316449165344238,5.416302132397451,0.0,0.23445668816566467,-1.7210295836078089,-0.0,-0.006940142251551151,0.4355936050415039,0.0,0.008500454016029835,1.2561578750610352,-0.00015948132204357535,-0.00729390699416399
278.0,520.0,-3.2351,0.4929,9.3218,-0.0444,0.0254,-0.1173,-2.2036973438658656,0.0,4.483669281005859,-1.4186716079711914,-0.0,1.9614531993865967,5.416286098748007,0.0,0.23475736379623413,-1.7210419813739222,-0.0,0.0008414131007157266,0.4356096088886261,0.0,0.010426534339785576,1.2561378479003906,-0.00015179594629444182,0.010220209136605263
278.0,520.0,-3.2351,0.4929,9.3218,-0.0444,0.0254,-0.1173,-2.203705450097555,0.0,4.483254432678223,-1.418723702430725,-0.0,1.9465596675872803,5.4162335870559595,0.0,0.23772577941417694,-1.7210176626788538,-0.0,0.015378179028630257,0.43551331758499146,0.0,0.0030536497943103313,1.2561861276626587,-0.0001448174734832719,-0.023932402953505516
278.0,520.0,-3.2351,0.4929,9.3218,-0.0444,0.0254,-0.1173,-2.2037369213499964,0.0,4.50257682800293,-1.4186477661132812,-0.0,1.9322450160980225,5.416261958866873,0.0,0.24076785147190094,-1.7210577170001429,-0.0,0.00457832682877779,0.43552106618881226,0.0,-0.004552511032670736,1.2561659812927246,-4.3476065911818296e-05,-0.03176359087228775
278.0,520.0,-3.2351,0.4929,9.3218,-0.0444,0.0254,-0.1173,-2.203705450097555,0.0,4.50407600402832,-1.4186276197433472,-0.0,1.9623913764953613,5.416281926422872,0.0,0.23893652856349945,-1.7210295836078089,-0.0,0.0005120228743180633,0.435489296913147,0.0,-0.008743159472942352,1.2561538219451904,-2.087926804961171e-05,-0.04300960525870323
278.0,520.0,-3.2351,0.4929,9.3218,-0.0444,0.0254,-0.1173,-2.203745027581686,0.0,4.482322692871094,-1.4186793565750122,-0.0,1.939473271369934,5.416286098748007,0.0,0.23606160283088684,-1.7210376898394983,-0.0,0.01246107928454876,0.4355858564376831,0.0,0.0015127421356737614,1.2561819553375244,-7.699766797486518e-07,0.019794007763266563
278.0,520.0,-3.2351,0.4929,9.3218,-0.0444,0.0254,-0.1173,-2.203745027581686,0.0,4.511924743652344,-1.4186152219772339,-0.0,1.9134548902511597,5.416321801930227,0.0,0.23889335989952087,-1.7210653463946741,-0.0,-0.001310011837631464,0.4355936050415039,0.0,0.0033543265890330076,1.2561779022216797,-1.3859309533348352e-10,-0.03529149293899536
278.0,520.0,-3.2351,0.4929,9.3218,-0.0444,0.0254,-0.1173,-2.203665395776266,2.1957902163194376e-07,4.4984450340271,-1.4186519384384155,-0.0,1.9625942707061768,5.416285741120138,9.227878194906225e-08,0.23449765145778656,-1.721053425465719,-0.0,0.000508550088852644,0.4355652332305908,0.0,0.0015197544125840068,1.2562541961669922,-2.4946268873315622e-14,0.009445207193493843
278.0,520.0,-3.2351,0.4929,9.3218,-0.0444,0.0254,-0.1173,-2.2036496601500453,3.9523447015188395e-11,4.486804485321045,-1.4186679124832153,-0.0,1.9387645721435547,5.41624145486907,3.933989245474834e-10,0.2446606457233429,-1.7210376898394983,-0.0,0.008341100066900253,0.4356136918067932,0.0,-0.0033261245116591454,1.256205677986145,0.0018248931737616658,-0.03520849347114563
278.0,520.0,-3.2351,0.4929,9.3218,-0.0444,0.0254,-0.1173,-2.2036735020079554,7.114081493223099e-15,4.493232727050781,-1.4186633825302124,3.1645055464935012e-09,1.9494717121124268,5.416289794235983,1.6771213324356937e-12,0.23841601610183716,-1.7210333983050745,-0.0,0.0248430073261261,0.4355734884738922,0.0,0.0033388184383511543,1.2562216520309448,0.0025694393552839756,-0.015166619792580605
280.0,499.0,-3.3996,0.6251,9.195,-0.0345,0.0347,-0.1003,-2.2036496601500453,0.0008285434450954199,4.511146068572998,-1.4186396598815918,5.695998685738279e-13,1.9394257068634033,5.416257488518514,7.149831365794914e-15,0.23881790041923523,-1.7210376898394983,-0.0,0.00735012162476778,0.43553754687309265,0.0,0.008015422150492668,1.2562578916549683,0.0026705004274845123,0.014384442940354347
280.0,499.0,-3.3996,0.6251,9.195,-0.0345,0.0347,-0.1003,-2.2036334476866664,0.0010580001398921013,4.4919939041137695,-1.418716549873352,1.375516882855628e-18,1.911271333694458,5.416269707470693,1.9901818713467118e-18,0.2458646446466446,-1.7210577170001429,-0.0,0.006327230017632246,0.4355858862400055,0.0,-0.004449380561709404,1.256225347518921,0.0017478427616879344,-0.007041252218186855
280.0,499.0,-3.3996,0.6251,9.195,-0.0345,0.0347,-0.1003,-2.2036577663817347,0.0010048949625343084,4.455743789672852,-1.4186069965362549,2.475881729109686e-22,1.9279401302337646,5.416286098748007,8.484458589822461e-21,0.23439344763755798,-1.721053425465719,-0.0,0.009569589048624039,0.43556126952171326,0.0,0.012624729424715042,1.2562578916549683,0.0010154645424336195,0.00846891850233078
280.0,499.0,-3.3996,0.6251,9.195,-0.0345,0.0347,-0.1003,-2.2036854229369105,0.0008612500969320536,4.489892482757568,-1.418663740158081,4.456499894062209e-26,1.9264613389968872,5.416281926422872,3.617058201348606e-23,0.2376967966556549,-1.7210496107684534,-0.0,-2.0086299628019333e-05,0.4356299638748169,0.0,0.0007275178795680404,1.2562661170959473,0.0008387671550735831,0.04395895451307297
280.0,499.0,-3.3996,0.6251,9.195,-0.0345,0.0347,-0.1003,-2.2036577663817347,0.0007036526221781969,4.435896873474121,-1.4186396598815918,8.02154185272314e-30,1.9051098823547363,5.416281926422872,1.5420085981484711e-25,0.23849448561668396,-1.7210496107684534,-0.0,0.0013129995204508305,0.43556952476501465,0.0,0.0015435167588293552,1.2561854124069214,0.0007420115871354938,-0.003094547428190708
280.0,499.0,-3.3996,0.6251,9.195,-0.0345,0.0347,-0.1003,-2.20371737102651,0.0005885649006813765,4.492389678955078,-1.4186556339263916,1.4438492418684537e-33,1.9391493797302246,5.416277873307028,6.573824827425562e-28,0.2464238703250885,-1.7210939566241663,-0.0,-0.0019388655200600624,0.4355695843696594,0.0,0.004078754223883152,1.2562336921691895,0.0006596504244953394,0.0012894999235868454
280.0,499.0,-3.3996,0.6251,9.195,-0.0345,0.0347,-0.1003,-2.2036854229369105,0.0005058406386524439,4.468379497528076,-1.4186358451843262,2.598877503152618e-37,1.923588514328003,5.416290211468496,2.8025248578971238e-30,0.23593536019325256,-1.7210496107684534,-0.0,0.004447647836059332,0.43554529547691345,0.0,0.015231666155159473,1.2562700510025024,0.0005421717069111764,0.029630178585648537
280.0,499.0,-3.3996,0.6251,9.195,-0.0345,0.0347,-0.1003,-2.2036935291686,0.0004435120790731162,4.518515110015869,-1.4186354875564575,4.677954663455537e-41,1.9045929908752441,5.416273879795828,1.1947603358902802e-32,0.2481321394443512,-1.7210376898394983,-0.0,0.008898026309907436,0.43558168411254883,0.0,0.007455490995198488,1.2563021183013916,0.0006279749213717878,-0.00329299527220428
280.0,499.0,-3.3996,0.6251,9.195,-0.0345,0.0347,-0.1003,-2.2037092647948207,0.0003743273264262825,4.480949878692627,-1.4186756610870361,0.0,1.9150688648223877,5.416245925217428,3.32565891138412e-36,0.23248127102851868,-1.720985237752096,-0.0,0.005579158663749695,0.4355776906013489,0.0,0.004381225910037756,1.256245493888855,0.001834360184147954,-0.013368161395192146
280.0,499.0,-3.3996,0.6251,9.195,-0.0345,0.0347,-0.1003,-2.203701158563131,0.0003017109993379563,4.44954252243042,-1.4186679124832153,7.348108192672953e-05,1.9418590068817139,5.416286039143362,1.417780676992052e-38,0.24478746950626373,-1.7210858503924769,-0.0,-0.002589161042124033,0.43564194440841675,0.0,0.012180869467556477,1.2562696933746338,0.0019804921466857195,-0.0108833909034729
280.0,499.0,-3.3996,0.6251,9.195,-0.0345,0.0347,-0.1003,-2.203733106652731,0.000271145545411855,4.452383041381836,-1.4186596870422363,7.051253487588838e-05,1.9647477865219116,5.416286098748007,6.044220666172233e-41,0.23487165570259094,-1.7210739294635218,-0.0,0.005978154018521309,0.4355858564376831,0.0,0.017260968685150146,1.2563056945800781,0.00221545179374516,-0.011790411546826363
280.0,499.0,-3.3996,0.6251,9.195,-0.0345,0.0347,-0.1003,-2.203681608239645,0.0002496536762919277,4.495668411254883,-1.4186477661132812,6.538958405144513e-05,1.9217382669448853,5.416261541634359,2.5783891743576634e-43,0.23888202011585236,-1.7210577170001429,-0.0,-0.0006878988351672888,0.4356096088886261,0.0,-0.004777017515152693,1.2563220262527466,0.002070323098450899,-0.002885236404836178
280.0,499.0,-3.3996,0.6251,9.195,-0.0345,0.0347,-0.1003,-2.2036496601500453,0.00023131928173825145,4.475563049316406,-1.4186633825302124,6.096047582104802e-05,1.974564552307129,5.416281926422872,1.401298464324817e-45,0.24279575049877167,-1.7210653463946741,-0.0,0.004599158652126789,0.435597687959671,0.0,0.007149427197873592,1.2563179731369019,0.0016214554198086262,0.03832676261663437
280.0,499.0,-3.3996,0.6251,9.195,-0.0345,0.0347,-0.1003,-2.203701158563131,0.00021549445227719843,4.485581398010254,-1.4186679124832153,5.709330071113072e-05,1.939290165901184,5.416298258095541,0.0,0.24361199140548706,-1.721109692250387,-0.0,-7.214653305709362e-05,0.435597687959671,0.0,0.0008679355960339308,1.256285309791565,0.0013079186901450157,0.029311809688806534
280.0,499.0,-3.3996,0.6251,9.195,-0.0345,0.0347,-0.1003,-2.203689237634176,0.00020169609342701733,4.469512462615967,-1.4186235666275024,5.368751590140164e-05,1.9017082452774048,5.416281926422872,0.0,0.23642902076244354,-1.721041504536764,-0.0,-0.006612228229641914,0.4356219172477722,0.0,-0.011827507056295872,1.2563097476959229,0.0009916601702570915,-0.0032393671572208405
280.0,499.0,-3.3996,0.6251,9.195,-0.0345,0.0347,-0.1003,-2.203701158563131,0.00018402117711957544,4.425302982330322,-1.4186556339263916,7.391234976239502e-05,1.9400608539581299,5.416297960072317,0.0,0.25030726194381714,-1.7210772673236292,-0.0,0.0012293764157220721,0.43555718660354614,0.0,0.011479347944259644,1.2562892436981201,0.0007015753071755171,-0.021639997139573097
280.0,499.0,-3.3996,0.6251,9.195,-0.0345,0.0347,-0.1003,-2.203701158563131,0.00017386378021910787,4.480686664581299,-1.4186838865280151,7.007992098806426e-05,1.9404375553131104,5.416290151863851,0.0,0.23657101392745972,-1.721053425465719,-0.0,0.014957217499613762,0.43554940819740295,0.0,-0.003737286664545536,1.2562893629074097,0.0005871139583177865,0.04280788078904152
280.0,499.0,-3.3996,0.6251,9.195,-0.0345,0.0347,-0.1003,-2.203705450097555,0.00016476931341458112,4.540704727172852,-1.4187123775482178,6.662155647063628e-05,1.942582607269287,5.416310298233785,0.0,0.25017249584198,-1.7210500876056116,-0.0,-0.008653998374938965,0.4356096088886261,0.0,0.012070341035723686,1.2562979459762573,0.000504770316183567,0.07294794172048569
280.0,499.0,-3.3996,0.6251,9.195,-0.0345,0.0347,-0.1003,-2.2036577663817347,0.0001788419613149017,4.519075393676758,-1.4186235666275024,6.348841270664707e-05,1.9791513681411743,5.416286098748007,0.0,0.2425912320613861,-1.721041504536764,-0.0,0.01152701023966074,0.4355493485927582,0.0,0.006245946511626244,1.2562897205352783,0.0004426873056218028,0.028317486867308617
280.0,499.0,-3.3996,0.6251,9.195,-0.0345,0.0347,-0.1003,-2.203701158563131,0.00017047357687260956,4.504874229431152,-1.4186152219772339,6.0636761190835387e-05,1.9261722564697266,5.416289794235983,0.0,0.21869602799415588,-1.7210939566241663,-0.0,-0.00012060115113854408,0.4355735182762146,0.0,0.004249880090355873,1.2562332153320312,0.00034695450449362397,0.02268475666642189
280.0,499.0,-3.3996,0.6251,9.195,-0.0345,0.0347,-0.1003,-2.2037130794920863,0.00016276586393360049,4.476868152618408,-1.4186354875564575,7.659872790100053e-05,1.9484630823135376,5.416269767075338,0.0,0.2445240020751953,-1.7210496107684534,-0.0,0.009576324373483658,0.43556535243988037,0.0,-0.001185850938782096,1.2562413215637207,0.00031088414834812284,0.020455896854400635
284.0,511.0,-3.2824,0.6634,9.2967,-0.0469,0.0211,-0.1167,-2.2036496601500453,0.00015242863446474075,4.458214282989502,-1.4186437129974365,7.268706394825131e-05,1.9593555927276611,5.416297960072317,0.0,0.24086180329322815,-1.7210295836078089,-0.0,3.1625095289200544e-05,0.4355895221233368,0.0,0.002597709419205785,1.2563098669052124,0.0002707929816097021,-0.009463656693696976
284.0,511.0,-3.2824,0.6634,9.2967,-0.0469,0.0211,-0.1167,-2.2036215267577113,0.00014623675087932497,4.475708961486816,-1.4186716079711914,6.986589869484305e-05,1.902429461479187,5.416269767075338,0.0,0.24253088235855103,-1.7210457960711878,-0.0,-0.014397034421563148,0.43561360239982605,0.0,0.011784075759351254,1.2562413215637207,0.0002493549254722893,-0.01126856543123722
284.0,511.0,-3.2824,0.6634,9.2967,-0.0469,0.0211,-0.1167,-2.20366968731069,0.0001405282673658803,4.464093208312988,-1.418691635131836,6.725539424223825e-05,1.927959680557251,5.416269767075338,0.0,0.24652957916259766,-1.7209938208209437,-0.0,0.005678297020494938,0.43558529019355774,0.0,-0.004787769168615341,1.2562737464904785,0.00023106331354938447,-0.021993746981024742
284.0,511.0,-3.2824,0.6634,9.2967,-0.0469,0.0211,-0.1167,-2.20366968731069,0.00013524878886528313,4.47758674621582,-1.4186519384384155,5.5407836043741554e-05,1.9185516834259033,5.416281926422872,0.0,0.23468533158302307,-1.7210295836078089,-0.0,0.0017290236428380013,0.43552929162979126,0.0,0.009958606213331223,1.2563097476959229,0.00024478035629726946,-0.04475061595439911
284.0,511.0,-3.2824,0.6634,9.2967,-0.0469,0.0211,-0.1167,-2.203677316705221,0.00011428028665250167,4.471585750579834,-1.4186029434204102,5.186042108107358e-05,1.9460535049438477,5.4162418124969385,0.0,0.24646928906440735,-1.7210295836078089,-1.8141274438221444e-07,0.00881692674010992,0.4355093240737915,0.0,-0.003983342554420233,1.2562893629074097,0.00016417210281360894,-0.053293243050575256
284.0,511.0,-3.2824,0.6634,9.2967,-0.0469,0.0211,-0.1167,-2.203625341454977,0.00011007221473846585,4.515872478485107,-1.418663740158081,7.35390349291265e-05,1.9360411167144775,5.416302132397451,0.0,0.2359398603439331,-1.7210257689105433,-7.733910178941983e-10,0.008198659867048264,0.4355776906013489,0.0,-0.0011390746803954244,1.2563139200210571,0.00019321197760291398,0.021160338073968887
284.0,511.0,-3.2824,0.6634,9.2967,-0.0469,0.0211,-0.1167,-2.2036735020079554,0.00010635578655637801,4.518077850341797,-1.4187320470809937,6.975226278882474e-05,1.8861002922058105,5.416318166046896,0.0,0.25333502888679504,-1.7210539023028772,-3.297087212625338e-12,0.011193149723112583,0.435525119304657,0.0,0.006001902278512716,1.2563016414642334,0.00021890447533223778,0.015512806363403797
284.0,511.0,-3.2824,0.6634,9.2967,-0.0469,0.0211,-0.1167,-2.203689237634176,0.0001012291104416363,4.485259056091309,-1.4186556339263916,6.47348933853209e-05,1.9175159931182861,5.416273879795828,0.0,0.22582247853279114,-1.7210138479815882,-9.177562808226534e-16,0.0037912444677203894,0.43555760383605957,0.0,0.0055056847631931305,1.2562774419784546,0.0007134832558222115,0.00521397590637207
284.0,511.0,-3.2824,0.6634,9.2967,-0.0469,0.0211,-0.1167,-2.2037211857237757,9.807734022615477e-05,4.4851603507995605,-1.4186559915542603,6.177309842314571e-05,1.9946399927139282,5.416269767075338,0.0,0.23459847271442413,-1.7210295836078089,-3.912538654776832e-18,0.0043877894058823586,0.43559765815734863,0.0,0.00620333943516016,1.2562774419784546,0.0005642689648084342,0.025174010545015335
284.0,511.0,-3.2824,0.6634,9.2967,-0.0469,0.0211,-0.1167,-2.203677316705221,9.511579992249608e-05,4.479990005493164,-1.4186519384384155,5.9069898270536214e-05,1.9456593990325928,5.416290211468496,0.0,0.2455371618270874,-1.7210338751422327,-1.6679765856769355e-20,-0.0007527004927396774,0.43556952476501465,0.0,-0.004512702114880085,1.2562856674194336,0.0003205910325050354,0.031171077862381935
284.0,511.0,-3.2824,0.6634,9.2967,-0.0469,0.0211,-0.1167,-2.2036615810790003,9.23279658309184e-05,4.462047576904297,-1.4186069965362549,5.659359158016741e-05,1.9464507102966309,5.416261482029714,0.0,0.23555229604244232,-1.7210500876056116,-7.110844580026307e-23,0.008317419327795506,0.43556535243988037,0.0,0.006747505161911249,1.256237268447876,0.00019990882719866931,0.0594400018453598
284.0,511.0,-3.2824,0.6634,9.2967,-0.0469,0.0211,-0.1167,-2.203733106652731,8.969884947873652e-05,4.425133228302002,-1.4186110496520996,5.431660611066036e-05,1.9037773609161377,5.416269767075338,0.0,0.23303502798080444,-1.7210214773761194,-3.03146426886725e-25,0.011044599115848541,0.43556952476501465,0.0,0.007271122187376022,1.256245493888855,-0.0003142940695397556,0.046685367822647095
284.0,511.0,-3.2824,0.6634,9.2967,-0.0469,0.0211,-0.1167,-2.203705450097555,8.721539779799059e-05,4.459389686584473,-1.4186193943023682,5.221594619797543e-05,1.9582152366638184,5.416269767075338,0.0,0.25543275475502014,-1.7210381666766565,-1.29236081503505e-27,0.005030367523431778,0.43553751707077026,0.0,-0.002976267132908106,1.2562618255615234,-0.0017064367420971394,0.011310585774481297
284.0,511.0,-3.2824,0.6634,9.2967,-0.0469,0.0211,-0.1167,-2.2036577663817347,8.486575825372711e-05,4.474903106689453,-1.4186559915542603,5.0271399231860414e-05,1.9154832363128662,5.416265594750204,0.0,0.22625061869621277,-1.7210176626788538,-5.5095375084057544e-30,0.009003233164548874,0.43560221791267395,0.0,0.012794796377420425,1.2562496662139893,-0.0018856421811506152,0.04552745819091797
284.0,511.0,-3.2824,0.6634,9.2967,-0.0469,0.0211,-0.1167,-2.2036935291686,8.156942931236699e-05,4.481688022613525,-1.4186679124832153,4.76121531391982e-05,1.910510540008545,5.416261482029714,0.0,0.232293963432312,-1.7210138479815882,-1.5335999804281624e-33,0.015249360352754593,0.43556174635887146,0.0,8.462693949695677e-05,1.2562177181243896,-0.0010411376133561134,-0.01655948907136917
284.0,511.0,-3.2824,0.6634,9.2967,-0.0469,0.0211,-0.1167,-2.2036215267577113,9.086300269700587e-05,4.471734523773193,-1.4186559915542603,6.131184636615217e-05,1.9617946147918701,5.41625742891387,0.0,0.24756091833114624,-1.7210376898394983,-6.537977036283377e-36,0.007878824137151241,0.4355296790599823,0.0,0.0014512508641928434,1.256241798400879,-0.0004605250433087349,-0.0037291788030415773
284.0,511.0,-3.2824,0.6634,9.2967,-0.0469,0.0211,-0.1167,-2.203689237634176,8.863199764164165e-05,4.457930564880371,-1.4186559915542603,0.00014647854550275952,1.9304875135421753,5.416265594750204,0.0,0.2401277720928192,-1.7210820356952112,-2.7872423408566414e-38,0.0016314273234456778,0.4355776906013489,0.0,-0.0018526599742472172,1.2562295198440552,-0.00021743934485130012,-0.022498592734336853
284.0,511.0,-3.2824,0.6634,9.2967,-0.0469,0.0211,-0.1167,-2.2036735020079554,6.386064342223108e-05,4.48513126373291,-1.418623447418213,0.00020103130373172462,1.9836134910583496,5.416313934117117,0.0,0.23609384894371033,-1.7210176626788538,-1.1882450458088719e-40,0.010881263762712479,0.4356136918067932,0.0,0.002960809739306569,1.2562175989151,-0.0002626131463330239,0.022201314568519592
284.0,511.0,-3.2824,0.6634,9.2967,-0.0469,0.0211,-0.1167,-2.2035933933653773,8.65555921336636e-05,4.513054847717285,-1.4186601638793945,0.00022013415582478046,1.9723634719848633,5.416286098748007,4.717306637758156e-06,0.23963892459869385,-1.7210701147662562,-5.05868745621259e-43,0.007666995748877525,0.4355936050415039,0.0,-0.004735977854579687,1.256245493888855,-0.0002198458678321913,0.0027331430464982986
284.0,511.0,-3.2824,0.6634,9.2967,-0.0469,0.0211,-0.1167,-2.20366968731069,0.001311824657022953,4.477664470672607,-1.4186440706253052,0.000957692158408463,1.938681960105896,5.416290211468496,2.0110615395196874e-08,0.23900029063224792,-1.7210176626788538,-2.802596928649634e-45,0.016240209341049194,0.4355292320251465,0.0,-0.005523404572159052,1.2562295198440552,-0.00018905039178207517,-0.010424548760056496
284.0,511.0,-3.2824,0.6634,9.2967,-0.0469,0.0211,-0.1167,-2.2036248646178187,0.0020454428158700466,4.518767356872559,-1.4185473918914795,0.001072665210813284,1.950786828994751,5.416285681515493,8.573470405837114e-11,0.24213947355747223,-1.7210539023028772,-0.0,0.0025395811535418034,0.43556952476501465,0.0,0.00524442782625556,1.2562377452850342,-0.00021449288760777563,-0.005797401536256075
276.0,506.0,-3.6467,0.9601,9.2267,-0.016,0.0313,-0.1185,-2.2036172352232875,0.003840199438855052,4.475389003753662,-1.4186439514160156,0.0010205238359048963,1.9265315532684326,5.416261541634359,2.3864568836156307e-14,0.23364773392677307,-1.7210295836078089,-0.0,-0.012400105595588684,0.4356260597705841,0.0,-0.001964923460036516,1.256225824356079,-0.00019492689170874655,0.0007854998111724854
276.0,506.0,-3.6467,0.9601,9.2267,-0.016,0.0313,-0.1185,-2.2036739788451136,0.00420138705521822,4.4685750007629395,-1.4185917377471924,0.0009924875339493155,1.8989341259002686,5.416277813702383,1.017384176964696e-16,0.24191421270370483,-1.7210176626788538,-0.0,-0.0034088362008333206,0.43563419580459595,0.0,0.007692418992519379,1.2561938762664795,-0.00028673946508206427,-0.05007654428482056
276.0,506.0,-3.6467,0.9601,9.2267,-0.016,0.0313,-0.1185,-2.203569551507467,0.003962299320846796,4.553131103515625,-1.4185633659362793,0.0007296060211956501,1.9163665771484375,5.416290151863851,4.33726880915775e-19,0.25521060824394226,-1.7209976355182093,-0.0,-0.0028481390327215195,0.43565019965171814,0.0,-0.013689317740499973,1.2561777830123901,-0.0011573117226362228,-0.04057987034320831
276.0,506.0,-3.6467,0.9601,9.2267,-0.016,0.0313,-0.1185,-2.203536649743551,0.0028423978947103024,4.44565486907959,-1.4186358451843262,0.0005742944194935262,1.9311044216156006,5.416257846146383,1.849045331243478e-21,0.236680805683136,-1.7210219542132776,-0.0,0.005743523593991995,0.43554118275642395,0.0,-0.011315638199448586,1.2561975717544556,-0.0016577753704041243,0.028916340321302414
276.0,506.0,-3.6467,0.9601,9.2267,-0.016,0.0313,-0.1185,-2.2036291561522425,0.0017619277350604534,4.48214054107666,-1.4185794591903687,0.00047352895489893854,1.929531455039978,5.41632633188323,7.882769903789672e-24,0.23724813759326935,-1.7210419813739222,-0.0,-0.00871642678976059,0.4355776011943817,0.0,0.001989066833630204,1.2561415433883667,-0.001743835280649364,-0.03261742740869522
276.0,506.0,-3.6467,0.9601,9.2267,-0.016,0.0313,-0.1185,-2.2036453686156214,0.0011822310043498874,4.50060510635376,-1.4185514450073242,0.00040285266004502773,1.9401668310165405,5.416269767075338,3.3605486888366747e-26,0.24498698115348816,-1.7209938208209437,-0.0,0.00910700112581253,0.4355693459510803,0.0,-3.767211455851793e-05,1.2561898231506348,-0.0018312543397769332,0.015325370244681835
276.0,506.0,-3.6467,0.9601,9.2267,-0.016,0.0313,-0.1185,-2.2035533390440882,0.0005703533533960581,4.477545261383057,-1.418612003326416,0.0003291684261057526,1.9344450235366821,5.416265594750204,9.354210142600654e-30,0.23978659510612488,-1.7209814230548304,-0.0,0.009041054174304008,0.43556952476501465,0.0,0.004328510258346796,1.2561701536178589,-0.0024860824923962355,0.03158825635910034
276.0,506.0,-3.6467,0.9601,9.2267,-0.016,0.0313,-0.1185,-2.2036014995970667,0.0005339643103070557,4.471869945526123,-1.418595552444458,0.000293394346954301,1.9367958307266235,5.416281926422872,3.987846952749348e-32,0.245500847697258,-1.7209938208209437,-0.0,0.018400240689516068,0.4355895221233368,0.0,0.010097416117787361,1.2561702728271484,-0.0029619853012263775,-0.04354403540492058
276.0,506.0,-3.6467,0.9601,9.2267,-0.016,0.0313,-0.1185,-2.2035376034178675,0.0005279386532492936,4.455899715423584,-1.4185876846313477,0.00030693557346239686,1.959789752960205,5.416269767075338,1.7000818933395132e-34,0.231661856174469,-1.7210262457477015,-0.0,0.011649522930383682,0.4355776906013489,0.0,0.0078660286962986,1.2561662197113037,-0.0034206355921924114,-0.023194018751382828
276.0,506.0,-3.6467,0.9601,9.2267,-0.016,0.0313,-0.1185,-2.2035895786681117,0.000723953009583056,4.449553966522217,-1.4185675382614136,0.000268013245658949,1.949678897857666,5.416265594750204,7.247714753973765e-37,0.24214623868465424,-1.7209776083575647,-0.0,0.003204608801752329,0.43558168411254883,0.0,0.011832235381007195,1.256105899810791,-0.003923387732356787,-0.029252992942929268
276.0,506.0,-3.6467,0.9601,9.2267,-0.016,0.0313,-0.1185,-2.203557153741354,0.0012370945187285542,4.534481048583984,-1.4185996055603027,0.000347680615959689,1.9267151355743408,5.416257846146383,3.08981406838997e-39,0.23636958003044128,-1.720990006123678,-0.0,0.016293184831738472,0.4355734586715698,0.0,0.005962129682302475,1.256093978881836,-0.003978031221777201,0.028479406610131264
276.0,506.0,-3.6467,0.9601,9.2267,-0.016,0.0313,-0.1185,-2.2035895786681117,0.001433663535863161,4.448105335235596,-1.4184991121292114,0.003183485008776188,1.8953595161437988,5.416286039143362,1.317220556465328e-41,0.23722581565380096,-1.7210024038897913,-0.0,0.014523237943649292,0.43556129932403564,0.0,0.0012197302421554923,1.2560780048370361,-0.0031009018421173096,0.009517468512058258
276.0,506.0,-3.6467,0.9601,9.2267,-0.016,0.0313,-0.1185,-2.2035256824889125,0.0014749085530638695,4.504938125610352,-1.4185477495193481,0.006050402764230967,1.989197015762329,5.416293847351827,5.605193857299268e-44,0.24679456651210785,-1.7210024038897913,-0.0,0.016146261245012283,0.4355173110961914,0.0,0.0003668509889394045,1.2560456991195679,-0.002762428019195795,-0.0050193797796964645
276.0,506.0,-3.6467,0.9601,9.2267,-0.016,0.0313,-0.1185,-2.2034813366331996,0.0011560390703380108,4.525322914123535,-1.4184597730636597,0.011092699132859707,1.9298653602600098,5.416265594750204,0.0,0.24952490627765656,-1.7209537664996546,-0.0,0.006460849661380053,0.43558579683303833,0.0,0.0023308624513447285,1.2561062574386597,-0.0022643543779850006,-0.007420837879180908
276.0,506.0,-3.6467,0.9601,9.2267,-0.016,0.0313,-0.1185,-2.203541418115133,0.0009470295626670122,4.522523880004883,-1.4184354543685913,0.012062552385032177,1.9519846439361572,5.416241872101583,0.0,0.24924927949905396,-1.7209742704974573,-0.0,0.004618905484676361,0.43559399247169495,0.0,0.003050269326195121,1.2560300827026367,-0.00220579095184803,0.04745693504810333
276.0,506.0,-3.6467,0.9601,9.2267,-0.016,0.0313,-0.1185,-2.2035333118834437,0.0007292262162081897,4.516246318817139,-1.418363332748413,0.013069992884993553,1.9605730772018433,5.416302132397451,0.0,0.24713249504566193,-1.7209699789630335,-0.0,0.011944455094635487,0.4356018304824829,0.0,-0.0022721802815794945,1.2560300827026367,-0.0025406114291399717,-0.00033517833799123764
276.0,506.0,-3.6467,0.9601,9.2267,-0.016,0.0313,-0.1185,-2.2035256824889125,0.000675411312840879,4.483542442321777,-1.4183359146118164,0.013837147504091263,1.9700555801391602,5.416277932911672,0.0,0.252899706363678,-1.720990006123678,-0.0,0.011501673609018326,0.43558165431022644,0.0,0.008412356488406658,1.2560383081436157,-0.002851824276149273,-0.010766231454908848
276.0,506.0,-3.6467,0.9601,9.2267,-0.016,0.0313,-0.1185,-2.203569074670309,0.00048544007586315274,4.529224395751953,-1.4182919263839722,0.014756971970200539,2.0133752822875977,5.416257846146383,0.0,0.2522081136703491,-1.7209938208209437,-0.0,0.0028911898843944073,0.43555352091789246,0.0,-0.00398715864866972,1.2559617757797241,-0.0031274862121790648,-0.003951856400817633
276.0,506.0,-3.6467,0.9601,9.2267,-0.016,0.0313,-0.1185,-2.2035495243468226,0.0005386032862588763,4.475898265838623,-1.4181716442108154,0.015320648439228535,1.9643030166625977,5.416269767075338,0.0,0.2502889633178711,-1.7209938208209437,-0.0,0.006911891512572765,0.4356018006801605,0.0,-0.008771173655986786,1.2559657096862793,-0.0035759054590016603,-0.03578022122383118
276.0,506.0,-3.6467,0.9601,9.2267,-0.016,0.0313,-0.1185,-2.203541418115133,0.0011455027852207422,4.48254919052124,-1.4181194305419922,0.01451356802135706,1.9706339836120605,5.416273820191183,0.0,0.2564206123352051,-1.720961872731344,-0.0,0.017721332609653473,0.43558990955352783,0.0,-0.0017251339741051197,1.2559821605682373,-0.003776472294703126,-0.009124779142439365
276.0,506.0,-3.6467,0.9601,9.2267,-0.016,0.0313,-0.1185,-2.2034856281676234,0.0017805509269237518,4.499648094177246,-1.4180681705474854,0.01338551938533783,2.014894962310791,5.416273879795828,0.0,0.2634276747703552,-1.720949951802389,0.00032276674755848944,0.024428602308034897,0.4355493485927582,0.0,0.0014482352416962385,1.2559781074523926,-0.0036956509575247765,-0.06143726035952568
283.0,495.0,-3.0191,0.7675,8.8875,-0.0457,0.0287,-0.1277,-2.2035094700255335,0.0020188442431390285,4.505090713500977,-1.417995572090149,0.012142306193709373,1.9754865169525146,5.416277932911672,0.0,0.25041404366493225,-1.7209742704974573,0.00036728548002429307,0.012962646782398224,0.4355529844760895,0.0,-0.007863408885896206,1.255886197090149,-0.004236907232552767,-0.04761508107185364
283.0,495.0,-3.0191,0.7675,8.8875,-0.0457,0.0287,-0.1277,-2.2035094700255335,0.0020388637203723192,4.4873199462890625,-1.417950987815857,0.011218597181141376,2.0030887126922607,5.41620563247756,0.0,0.2442333996295929,-1.720961872731344,0.0003892610839102417,0.03436781466007233,0.4355333745479584,0.0,-0.0030458844266831875,1.2559223175048828,-0.004082195460796356,-0.11089745908975601
283.0,495.0,-3.0191,0.7675,8.8875,-0.0457,0.0287,-0.1277,-2.203513284722799,0.0018316786736249924,4.51620626449585,-1.417915940284729,0.01064214576035738,1.9818181991577148,5.416237759381094,0.0,0.23672917485237122,-1.7209661642657679,0.00036204789648763835,0.03501354530453682,0.43558168411254883,0.0,0.003910960629582405,1.2559221982955933,-0.00525118550285697,-0.11191065609455109
283.0,495.0,-3.0191,0.7675,8.8875,-0.0457,0.0287,-0.1277,-2.2034417591490687,0.0013394581619650126,4.511478900909424,-1.4178557395935059,0.010290839709341526,2.040679931640625,5.416306185513296,0.0,0.25871771574020386,-1.7209542433368128,0.000456882145954296,0.036546509712934494,0.435597687959671,0.0,0.023068904876708984,1.2558504343032837,-0.007089244667440653,-0.1347396820783615
283.0,495.0,-3.0191,0.7675,8.8875,-0.0457,0.0287,-0.1277,-2.2034574947752894,0.0011883984552696347,4.501391410827637,-1.4178117513656616,0.010039580054581165,2.008293628692627,5.416261899262228,0.0,0.26434147357940674,-1.720881764088766,0.00038083517574705184,0.03146512433886528,0.4355493485927582,0.0,0.010611699894070625,1.2558305263519287,-0.00864664651453495,-0.14871254563331604
283.0,495.0,-3.0191,0.7675,8.8875,-0.0457,0.0287,-0.1277,-2.2034493885436,0.0008023975533433259,4.542843818664551,-1.4177924394607544,0.01062031090259552,1.9500302076339722,5.416238415032186,0.0,0.2574819028377533,-1.7209661642657679,0.0003895852423738688,0.049942757934331894,0.43556129932403564,0.0,-0.006776627153158188,1.2558026313781738,-0.009758389554917812,-0.1828194558620453
283.0,495.0,-3.0191,0.7675,8.8875,-0.0457,0.0287,-0.1277,-2.2034813366331996,0.0005179661093279719,4.497578144073486,-1.4177360534667969,0.009628506377339363,2.0751328468322754,5.416234242707052,0.0,0.24811199307441711,-1.720949951802389,0.0003673311148304492,0.047918763011693954,0.4355735778808594,0.0,0.008509359322488308,1.255794882774353,-0.010131638497114182,-0.1757507026195526
283.0,495.0,-3.0191,0.7675,8.8875,-0.0457,0.0287,-0.1277,-2.203437467614645,0.0004209963954053819,4.504337787628174,-1.4177117347717285,0.009302700869739056,2.004624605178833,5.416238415032186,0.0,0.25564318895339966,-1.7208860556231897,0.0003761005646083504,0.05493136867880821,0.43555760383605957,0.0,-0.0013163491385057569,1.2556827068328857,-0.01056578103452921,-0.15386971831321716
283.0,495.0,-3.0191,0.7675,8.8875,-0.0457,0.0287,-0.1277,-2.203485151330465,0.0003546185325831175,4.499250411987305,-1.4176278114318848,0.008358382619917393,2.012112855911255,5.416209864407339,0.0,0.24706777930259705,-1.7208898703204554,0.00035289014340378344,0.05396364629268646,0.435597687959671,0.0,-0.0068451715633273125,1.2556908130645752,-0.011210400611162186,-0.20554646849632263
283.0,495.0,-3.0191,0.7675,8.8875,-0.0457,0.0287,-0.1277,-2.203501363793844,0.0003463774046394974,4.556829452514648,-1.417648434638977,0.0086777089163661,2.060725450515747,5.416254091053762,0.0,0.2522246837615967,-1.7209504286395472,0.000366454100003466,0.0533602274954319,0.43560591340065,0.0,0.00545062031596899,1.2556307315826416,-0.012056929990649223,-0.23630860447883606
283.0,495.0,-3.0191,0.7675,8.8875,-0.0457,0.0287,-0.1277,-2.203489442864889,0.00032353238202631474,4.538244724273682,-1.4175879955291748,0.007887868210673332,2.0117156505584717,5.4162659523780725,0.0,0.24999696016311646,-1.7209098974811,0.00037642745883204043,0.05864650011062622,0.43556535243988037,0.0,-0.0007819088641554117,1.2555785179138184,-0.012588060460984707,-0.17664387822151184
283.0,495.0,-3.0191,0.7675,8.8875,-0.0457,0.0287,-0.1277,-2.2034813366331996,0.0003204511303920299,4.516039848327637,-1.4175841808319092,0.007753925863653421,1.988228440284729,5.416222083359518,0.0,0.2538931369781494,-1.7209098974811,0.000383628997951746,0.05686727166175842,0.4355616569519043,0.0,-0.00723141198977828,1.2554826736450195,-0.013660736382007599,-0.2575315833091736
283.0,495.0,-3.0191,0.7675,8.8875,-0.0457,0.0287,-0.1277,-2.203461309472555,0.0003302382829133421,4.533587455749512,-1.4175283908843994,0.006893105339258909,2.0249671936035156,5.416234302311697,0.0,0.24877852201461792,-1.7209184805499476,0.00044954841723665595,0.057964593172073364,0.43552520871162415,0.0,0.0011853885371237993,1.2554872035980225,-0.01532432809472084,-0.3136558532714844
283.0,495.0,-3.0191,0.7675,8.8875,-0.0457,0.0287,-0.1277,-2.2034293613829554,0.00030531964148394763,4.539881229400635,-1.4175159931182861,0.006239672191441059,2.0322093963623047,5.416201936989584,0.0,0.24733588099479675,-1.7209022680865687,0.00044899500790052116,0.06406068801879883,0.4355776309967041,0.0,-0.005601966753602028,1.2553750276565552,-0.01625003293156624,-0.3296838104724884
283.0,495.0,-3.0191,0.7675,8.8875,-0.0457,0.0287,-0.1277,-2.2034694157042445,0.00022036356676835567,4.5286173820495605,-1.417480707168579,0.006199256516993046,2.0604915618896484,5.416290271073141,0.0,0.25712862610816956,-1.720842186604635,0.00044851534767076373,0.07741699367761612,0.43560999631881714,0.0,0.0008281149202957749,1.2553353309631348,-0.016956159844994545,-0.3394131660461426
283.0,495.0,-3.0191,0.7675,8.8875,-0.0457,0.0287,-0.1277,-2.203421731988424,0.0002006959548452869,4.50296688079834,-1.4174805879592896,0.006181824952363968,2.015324354171753,5.416198301106252,0.0,0.23737388849258423,-1.7209184805499476,0.00044579795212484896,0.06849576532840729,0.43557360768318176,0.0,-0.00857504177838564,1.2552955150604248,-0.018238777294754982,-0.33014988899230957
283.0,495.0,-3.0191,0.7675,8.8875,-0.0457,0.0287,-0.1277,-2.2034694157042445,0.00022110376448836178,4.552114009857178,-1.417424201965332,0.006303134374320507,2.0387673377990723,5.4162179110343835,0.0,0.24572941660881042,-1.7208946386920374,0.0003997405292466283,0.08400245755910873,0.4355858564376831,0.0,-0.00945060420781374,1.2552075386047363,-0.019780060276389122,-0.3649997413158417
283.0,495.0,-3.0191,0.7675,8.8875,-0.0457,0.0287,-0.1277,-2.203485151330465,0.00020437384955585003,4.5315704345703125,-1.417395830154419,0.006597513798624277,2.058697462081909,5.416249918728628,0.0,0.24243097007274628,-1.7208660284625452,0.0003635228204075247,0.0867062360048294,0.43561407923698425,0.0,-0.0014422247186303139,1.255159854888916,-0.02057424560189247,-0.36304691433906555
283.0,495.0,-3.0191,0.7675,8.8875,-0.0457,0.0287,-0.1277,-2.2034932575621546,0.00018999150779563934,4.462337017059326,-1.4173802137374878,0.006801576819270849,1.9802155494689941,5.416222083359518,0.0,0.25316134095191956,-1.7209342161761683,0.0003153424186166376,0.08612971007823944,0.4355297088623047,0.0,0.004941804334521294,1.2550196647644043,-0.02225920930504799,-0.3503586947917938
283.0,495.0,-3.0191,0.7675,8.8875,-0.0457,0.0287,-0.1277,-2.2034493885436,0.00017185213800985366,4.537108421325684,-1.4173362255096436,0.00678526284173131,2.0381109714508057,5.416230249195852,0.0,0.24126330018043518,-1.7208979765521448,0.0002605498593766242,0.08320261538028717,0.4355858564376831,0.0,-0.0055336616933345795,1.25491201877594,-0.02362915128469467,-0.3610854744911194
283.0,495.0,-3.0191,0.7675,8.8875,-0.0457,0.0287,-0.1277,-2.2034455738463343,0.00016156811034306884,4.5375189781188965,-1.4172838926315308,0.007049741689115763,2.0719032287597656,5.416190135269918,0.0,0.24582922458648682,-1.7209461371051233,0.00023349949333351105,0.0720021203160286,0.4356018304824829,0.0,-0.012644407339394093,1.2548280954360962,-0.024522969499230385,-0.3559970557689667
282.0,477.0,-3.0407,0.8094,9.2752,-0.0154,0.0151,-0.1332,-2.2034813366331996,0.0001524457475170493,4.535322189331055,-1.4172321557998657,0.006890104617923498,2.036419630050659,5.416242468148031,0.0,0.24767327308654785,-1.7209184805499476,0.0002534593513701111,0.07886069267988205,0.43558165431022644,0.0,-0.001457457896322012,1.254704236984253,-0.02484656311571598,-0.3912361264228821
282.0,477.0,-3.0407,0.8094,9.2752,-0.0154,0.0151,-0.1332,-2.203453680078024,0.00014429834845941514,4.570560455322266,-1.4172123670578003,0.006845618598163128,2.0450966358184814,5.416174101620474,0.0,0.2525545656681061,-1.7209022680865687,0.0002320257917745039,0.08109099417924881,0.43558990955352783,0.0,-0.00534767284989357,1.254616618156433,-0.02681550569832325,-0.36344900727272034
282.0,477.0,-3.0407,0.8094,9.2752,-0.0154,0.0151,-0.1332,-2.2034493885436,0.0001369776582578197,4.5639214515686035,-1.4172123670578003,0.00653275940567255,2.034808874130249,5.416242527752676,0.0,0.2528001368045807,-1.7209184805499476,0.00024453195510432124,0.09093260020017624,0.43556955456733704,0.0,-0.01117037981748581,1.2544888257980347,-0.027214031666517258,-0.3804810643196106
282.0,477.0,-3.0407,0.8094,9.2752,-0.0154,0.0151,-0.1332,-2.203465601006979,0.00013036404561717063,4.527959823608398,-1.4171842336654663,0.00643580500036478,2.054359197616577,5.4162261364753626,0.0,0.24803704023361206,-1.7208622137652796,0.0002309702686034143,0.08848584443330765,0.43555721640586853,0.0,-0.0152447409927845,1.2543805837631226,-0.028402701020240784,-0.3857104480266571
282.0,477.0,-3.0407,0.8094,9.2752,-0.0154,0.0151,-0.1332,-2.203485151330465,0.00012435961980372667,4.567081451416016,-1.4171278476715088,0.006012770347297192,2.095137119293213,5.416270184307852,0.0,0.24013569951057434,-1.720886532460348,0.00021520668815355748,0.08866230398416519,0.43555760383605957,0.0,-0.0056446632370352745,1.254289150238037,-0.029322722926735878,-0.4406069219112396
282.0,477.0,-3.0407,0.8094,9.2752,-0.0154,0.0151,-0.1332,-2.203489442864889,0.00011632301902864128,4.552809715270996,-1.4171522855758667,0.005640892311930656,2.0320725440979004,5.416197943478384,0.0,0.24750497937202454,-1.7209022680865687,0.00019520071509759873,0.0845487117767334,0.43552160263061523,0.0,-0.0014032847248017788,1.2541053295135498,-0.03141859546303749,-0.42638495564460754
282.0,477.0,-3.0407,0.8094,9.2752,-0.0154,0.0151,-0.1332,-2.203437467614645,0.00011151848593726754,4.518790245056152,-1.4171205759048462,0.006069221068173647,2.0604350566864014,5.416206109314718,0.0,0.2505813241004944,-1.720910374318258,0.00018380901019554585,0.09312683343887329,0.43555358052253723,0.0,0.007730378769338131,1.253989815711975,-0.032370589673519135,-0.4164094626903534
282.0,477.0,-3.0407,0.8094,9.2752,-0.0154,0.0151,-0.1332,-2.2034932575621546,0.00012494107068050653,4.527964115142822,-1.4170756340026855,0.006002900656312704,2.0554840564727783,5.416185903340139,0.0,0.25130197405815125,-1.7208660284625452,0.00017367422697134316,0.08538816124200821,0.43554937839508057,0.0,-0.0025383741594851017,1.253858208656311,-0.032876938581466675,-0.4469680190086365
282.0,477.0,-3.0407,0.8094,9.2752,-0.0154,0.0151,-0.1332,-2.2034336529173792,0.00012017766130156815,4.564164161682129,-1.4170559644699097,0.005683645140379667,2.034356117248535,5.416209804802694,0.0,0.2634976804256439,-1.7208979765521448,0.00018790451576933265,0.09951477497816086,0.43553751707077026,0.0,-0.004405280575156212,1.2536903619766235,-0.03332309052348137,-0.44146180152893066
282.0,477.0,-3.0407,0.8094,9.2752,-0.0154,0.0151,-0.1332,-2.2034417591490687,0.00011576114047784358,4.5469183921813965,-1.4170641899108887,0.005815064534544945,2.0623483657836914,5.416209864407339,0.0,0.2575635313987732,-1.720870319996969,0.00017876959464047104,0.08529003709554672,0.43560221791267395,0.0,-0.010512255132198334,1.2535948753356934,-0.03389272093772888,-0.41037774085998535
282.0,477.0,-3.0407,0.8094,9.2752,-0.0154,0.0151,-0.1332,-2.2034493885436,0.0001116577914217487,4.57594633102417,-1.4169844388961792,0.005692853592336178,2.030061721801758,5.416258203774252,0.0,0.24314579367637634,-1.7209222952472132,0.00017031234165187925,0.0957617461681366,0.4355776607990265,0.0,-0.007011697627604008,1.2534347772598267,-0.034786634147167206,-0.4020373225212097
282.0,477.0,-3.0407,0.8094,9.2752,-0.0154,0.0151,-0.1332,-2.2034493885436,0.0001232321374118328,4.595333099365234,-1.417020559310913,0.005584919825196266,2.065582752227783,5.416174042015829,0.0,0.24837443232536316,-1.7209060827838343,0.00016261891869362444,0.07270173728466034,0.43551740050315857,0.0,-0.005801924504339695,1.2533268928527832,-0.03716461360454559,-0.44365811347961426
282.0,477.0,-3.0407,0.8094,9.2752,-0.0154,0.0151,-0.1332,-2.203461309472555,0.00011722133785951883,4.564831733703613,-1.4169683456420898,0.005799288395792246,2.0988850593566895,5.416185903340139,-1.791879185475409e-05,0.25083398818969727,-1.7208784262286585,0.00012829725164920092,0.09685908257961273,0.43561404943466187,0.0,-0.005595650058239698,1.253063440322876,-0.03858933970332146,-0.4016551971435547
282.0,477.0,-3.0407,0.8094,9.2752,-0.0154,0.0151,-0.1332,-2.203437467614645,0.00011352480942150578,4.546175003051758,-1.4169564247131348,0.005852583795785904,2.071049690246582,5.416201877384939,-7.134073530323803e-05,0.2458844780921936,-1.7209060827838343,0.0001206548695336096,0.09113021939992905,0.435565322637558,0.0,-0.004773808643221855,1.252923846244812,-0.04226832836866379,-0.44812440872192383
282.0,477.0,-3.0407,0.8094,9.2752,-0.0154,0.0151,-0.1332,-2.20342554668569,0.0001100542867789045,4.540081977844238,-1.4169812202453613,0.006071207579225302,2.1022133827209473,5.416206466942587,-6.937153375474736e-05,0.2663177251815796,-1.7208383719073694,0.00013701537682209164,0.08963203430175781,0.43553340435028076,0.0,-0.002310236217454076,1.2527722120285034,-0.042806655168533325,-0.49729275703430176
282.0,477.0,-3.0407,0.8094,9.2752,-0.0154,0.0151,-0.1332,-2.2034574947752894,9.183607471641153e-05,4.5782880783081055,-1.416916012763977,0.006180640310049057,2.096998691558838,5.416226196080007,-6.729760934831575e-05,0.2486412674188614,-1.720858399068014,0.00013075578317511827,0.09829868376255035,0.43558987975120544,0.0,0.0038349071983247995,1.2525403499603271,-0.04529700428247452,-0.4843120574951172
282.0,477.0,-3.0407,0.8094,9.2752,-0.0154,0.0151,-0.1332,-2.20347323040151,8.817255729809403e-05,4.528081893920898,-1.4168362617492676,0.0072965724393725395,2.031052350997925,5.416206109314718,-7.818896847311407e-05,0.25101161003112793,-1.7208903471576136,0.00014541050768457353,0.10315600037574768,0.43558168411254883,0.0,-0.005135025829076767,1.2523607015609741,-0.04637579247355461,-0.47365671396255493
282.0,477.0,-3.0407,0.8094,9.2752,-0.0154,0.0151,-0.1332,-2.203465601006979,8.484761929139495e-05,4.5429792404174805,-1.4167959690093994,0.007710329256951809,2.106382131576538,5.416194128781118,-8.805668767308816e-05,0.24892564117908478,-1.7209027449237269,0.00015761905524414033,0.10390201210975647,0.4356299638748169,0.0,0.002170711290091276,1.2521849870681763,-0.04754054546356201,-0.4658239483833313
282.0,477.0,-3.0407,0.8094,9.2752,-0.0154,0.0151,-0.1332,-2.203465601006979,8.030518802115694e-05,4.530810356140137,-1.416776180267334,0.009733688086271286,2.105609893798828,5.416186320572653,-0.00028109995764680207,0.24783656001091003,-1.7208908239947718,0.000149073704960756,0.10191315412521362,0.4356136620044708,0.0,0.006569932214915752,1.2519139051437378,-0.04797818884253502,-0.46831589937210083
282.0,477.0,-3.0407,0.8094,9.2752,-0.0154,0.0151,-0.1332,-2.203465601006979,7.753780664643273e-05,4.616001605987549,-1.4167160987854004,0.010406454093754292,2.0494871139526367,5.416202354222097,-0.0003016301488969475,0.24982476234436035,-1.7208908239947718,0.0002689436078071594,0.11667956411838531,0.43556129932403564,0.0,0.009636165574193,1.2516943216323853,-0.04743729904294014,-0.4973878264427185
277.0,465.0,-3.4283,1.0917,9.3805,-0.0102,0.0195,-0.1503,-2.2034813366331996,7.49547834857367e-05,4.560993194580078,-1.4166560173034668,0.011270865797996521,2.119180202484131,5.416202831059255,-0.00031891517573967576,0.2488078474998474,-1.7208622137652796,0.0002942044229712337,0.10814951360225677,0.43558168411254883,0.0,0.008030116558074951,1.2515103816986084,-0.047436054795980453,-0.5245030522346497
277.0,465.0,-3.4283,1.0917,9.3805,-0.0102,0.0195,-0.1503,-2.203485151330465,7.25382924429141e-05,4.552474498748779,-1.4166244268417358,0.012241682037711143,2.0491180419921875,5.416218268662252,-0.00028561247745528817,0.2602840065956116,-1.7208502928363245,0.00031196975032798946,0.11290878057479858,0.4356095790863037,0.0,0.00884011946618557,1.2513190507888794,-0.047516483813524246,-0.5541807413101196
277.0,465.0,-3.4283,1.0917,9.3805,-0.0102,0.0195,-0.1503,-2.2034455738463343,7.02728284522891e-05,4.5289998054504395,-1.4165880680084229,0.013036309741437435,2.1628191471099854,5.416186320572653,-0.00025828389334492385,0.2482849359512329,-1.720858399068014,0.0005693786079064012,0.10731209069490433,0.4355936050415039,0.0,-0.0049113198183476925,1.2510825395584106,-0.04805061221122742,-0.5113136768341064
277.0,465.0,-3.4283,1.0917,9.3805,-0.0102,0.0195,-0.1503,-2.203501363793844,6.814455264247954e-05,4.544558048248291,-1.4166046380996704,0.014249639585614204,2.086205005645752,5.416194188385763,-0.0002647522196639329,0.25246545672416687,-1.7208622137652796,0.0006105818902142346,0.11619267612695694,0.4356018006801605,0.0,-0.005491339601576328,1.2508877515792847,-0.048941951245069504,-0.5472285747528076
277.0,465.0,-3.4283,1.0917,9.3805,-0.0102,0.0195,-0.1503,-2.203453680078024,6.614138692384586e-05,4.570280075073242,-1.4164478778839111,0.015629123896360397,2.123396158218384,5.416186320572653,-0.0002528853074181825,0.24601586163043976,-1.7208426634417933,0.0005809309077449143,0.13312658667564392,0.4355936050415039,0.0,-0.001273022498935461,1.250715970993042,-0.05016392469406128,-0.5456029176712036
277.0,465.0,-3.4283,1.0917,9.3805,-0.0102,0.0195,-0.1503,-2.20347323040151,6.334813951980323e-05,4.586643218994141,-1.4163649082183838,0.019080601632595062,2.097172498703003,5.416190492897787,-0.00025580008514225483,0.23981410264968872,-1.7208669821368616,0.0005195944686420262,0.12256687134504318,0.4355858266353607,0.0,0.0017996781971305609,1.2504124641418457,-0.0526629239320755,-0.5472984313964844
277.0,465.0,-3.4283,1.0917,9.3805,-0.0102,0.0195,-0.1503,-2.2034493885436,6.161347846500576e-05,4.574580192565918,-1.416292428970337,0.022358478978276253,2.1179590225219727,5.416190492897787,-0.0002541412541177124,0.2507457137107849,-1.720898453389303,0.0004575225175358355,0.12184107303619385,0.43556129932403564,0.0,0.007250508293509483,1.2501448392868042,-0.05330279469490051,-0.5808522701263428
277.0,465.0,-3.4283,1.0917,9.3805,-0.0102,0.0195,-0.1503,-2.203465601006979,5.997126208967529e-05,4.537389755249023,-1.4162209033966064,0.02526460960507393,2.148097515106201,5.416194188385763,-0.0002733871806412935,0.24031925201416016,-1.7208707968341272,0.00039901910349726677,0.11352603137493134,0.43556952476501465,0.0,-0.0027115207631140947,1.2500215768814087,-0.05516435578465462,-0.6080310344696045
277.0,465.0,-3.4283,1.0917,9.3805,-0.0102,0.0195,-0.1503,-2.203453680078024,5.841435995534994e-05,4.56173038482666,-1.4160964488983154,0.028971180319786072,2.1192898750305176,5.416125821858206,-0.0003260532976128161,0.25264686346054077,-1.7208707968341272,0.0003391074133105576,0.11560569703578949,0.43555349111557007,0.0,-0.006183815188705921,1.2498176097869873,-0.05503277853131294,-0.6033565402030945
277.0,465.0,-3.4283,1.0917,9.3805,-0.0102,0.0195,-0.1503,-2.203477521935934,5.69361582165584e-05,4.5548577308654785,-1.41599702835083,0.032973770052194595,2.192579507827759,5.416150319367208,-0.000827095762360841,0.24561971426010132,-1.7208388487445276,0.00029466685373336077,0.12651695311069489,0.4356018602848053,0.0,0.008402541279792786,1.2495660781860352,-0.05425992235541344,-0.5852504968643188
277.0,465.0,-3.4283,1.0917,9.3805,-0.0102,0.0195,-0.1503,-2.2034574947752894,5.5530999816255644e-05,4.574869155883789,-1.4157723188400269,0.038617197424173355,2.1601200103759766,5.41612987497405,-0.0008758412441238761,0.2493528574705124,-1.7208622137652796,0.00026052983594127,0.11590209603309631,0.4355936050415039,0.0,0.00351551896892488,1.2493706941604614,-0.05279645696282387,-0.5893113017082214
277.0,465.0,-3.4283,1.0917,9.3805,-0.0102,0.0195,-0.1503,-2.203461309472555,5.419348963187076e-05,4.535950660705566,-1.415656328201294,0.041928913444280624,2.1444754600524902,5.416150378971853,-0.0011913678608834743,0.24686557054519653,-1.7208545843707483,0.000233483558986336,0.1177714616060257,0.43559399247169495,0.0,0.005984190385788679,1.249182939529419,-0.052259661257267,-0.5829179286956787
277.0,465.0,-3.4283,1.0917,9.3805,-0.0102,0.0195,-0.1503,-2.2035333118834437,4.184500721748918e-05,4.540848731994629,-1.4153889417648315,0.05078866332769394,2.151650905609131,5.4161502597625635,-0.0013937657931819558,0.24724864959716797,-1.7208622137652796,0.00020202764426358044,0.11897410452365875,0.43556126952171326,0.0,-0.002254430204629898,1.2488555908203125,-0.04990217834711075,-0.5792829990386963
277.0,465.0,-3.4283,1.0917,9.3805,-0.0102,0.0195,-0.1503,-2.2034932575621546,4.089251524419524e-05,4.58431339263916,-1.4152050018310547,0.054763708263635635,2.1841564178466797,5.416106867581167,-0.0015124105848371983,0.22576028108596802,-1.7208383719073694,0.00018537872529122978,0.11737915128469467,0.4356059730052948,0.0,0.010570245794951916,1.248599886894226,-0.05070033296942711,-0.5464304089546204
277.0,465.0,-3.4283,1.0917,9.3805,-0.0102,0.0195,-0.1503,-2.2035051784911097,3.9984177419682965e-05,4.568747043609619,-1.4149532318115234,0.06129726395010948,2.2051262855529785,5.4161221263702295,-0.0017702678451314569,0.2477703094482422,-1.720818821583883,0.00017126527382060885,0.1166454404592514,0.4355936050415039,0.0,-0.004350103437900543,1.2483758926391602,-0.05060509964823723,-0.5356742739677429
277.0,465.0,-3.4283,1.0917,9.3805,-0.0102,0.0195,-0.1503,-2.203485151330465,6.179181610832529e-08,4.560291767120361,-1.4146808385849,0.06780726462602615,2.24068021774292,5.416106807976522,-0.0021028672344982624,0.23867644369602203,-1.720886532460348,0.00015914943651296198,0.12392254173755646,0.4355858564376831,0.0,-0.00784862507134676,1.2482571601867676,-0.05151398479938507,-0.5834047794342041
277.0,465.0,-3.4283,1.0917,9.3805,-0.0102,0.0195,-0.1503,-2.203465601006979,1.1122307935762521e-11,4.5606689453125,-1.4143644571304321,0.07522299140691757,2.234990119934082,5.416078555374899,-0.0021959689911454916,0.23670293390750885,-1.7209108511554163,0.00014863435353618115,0.10047903656959534,0.43562591075897217,0.0,0.005957180168479681,1.2479969263076782,-0.05256391316652298,-0.589101254940033
277.0,465.0,-3.4283,1.0917,9.3805,-0.0102,0.0195,-0.1503,-2.203529497186178,2.0019761351209317e-15,4.545868873596191,-1.4140442609786987,0.08334384858608246,2.2338340282440186,5.416090476303854,-0.0024116842541843653,0.24077415466308594,-1.7208464781390589,0.00013942310761194676,0.10853248834609985,0.4356018602848053,0.0,0.0005767656257376075,1.2478457689285278,-0.05410246178507805,-0.6198463439941406
277.0,465.0,-3.4283,1.0917,9.3805,-0.0102,0.0195,-0.1503,-2.2035256824889125,3.603486969025675e-19,4.586470127105713,-1.4136766195297241,0.09184473752975464,2.238862991333008,5.416086780815878,-0.00225000805221498,0.24391549825668335,-1.7208707968341272,0.0001312868989771232,0.11865318566560745,0.43558168411254883,0.0,0.018083155155181885,1.2476056814193726,-0.055120788514614105,-0.5608786940574646
277.0,465.0,-3.4283,1.0917,9.3805,-0.0102,0.0195,-0.1503,-2.2034813366331996,-4.875313243246637e-05,4.582026481628418,-1.4131128787994385,0.103708416223526,2.2858705520629883,5.416050660401144,-0.0016419949242845178,0.23663952946662903,-1.7208622137652796,0.00012072030222043395,0.10977265238761902,0.43556541204452515,0.0,0.0018409441690891981,1.247258186340332,-0.05712682753801346,-0.5318781137466431
277.0,465.0,-3.4283,1.0917,9.3805,-0.0102,0.0195,-0.1503,-2.2035256824889125,-5.961967326584272e-05,4.546683311462402,-1.4126768112182617,0.1090771034359932,2.32989501953125,5.416066634445944,-0.0012965621426701546,0.23760761320590973,-1.720886532460348,0.00011457262735348195,0.1116366982460022,0.4355735182762146,0.0,-0.006140063051134348,1.2470629215240479,-0.05718224495649338,-0.5617230534553528
264.0,449.0,-3.6132,1.282,10.2808,0.0035,0.1208,-0.1759,-2.203517576257223,-6.291268073255196e-05,4.5413289070129395,-1.4122494459152222,0.11351698637008667,2.2687880992889404,5.416098642140188,-0.0008299120818264782,0.2355133593082428,-1.7208784262286585,0.0001090209698304534,0.10151156783103943,0.4355818033218384,0.0,-0.008097117766737938,1.246839165687561,-0.05696861445903778,-0.552104115486145
264.0,449.0,-3.6132,1.282,10.2808,0.0035,0.1208,-0.1759,-2.203545232812399,-6.078901787986979e-05,4.581388473510742,-1.41172456741333,0.1154303252696991,2.328984260559082,5.416095006256857,-0.0006054208497516811,0.22704413533210754,-1.7208541075335901,0.00010398223821539432,0.10470527410507202,0.4355817139148712,0.0,-0.006969510577619076,1.2466678619384766,-0.05508168041706085,-0.5499857068061829
264.0,449.0,-3.6132,1.282,10.2808,0.0035,0.1208,-0.1759,-2.203529497186178,-5.891813998459838e-05,4.6064348220825195,-1.4113463163375854,0.11809761077165604,2.2399396896362305,5.416054296284475,-0.00047682708827778697,0.2373497635126114,-1.7208746115313929,9.938874427461997e-05,0.12263546139001846,0.4355853199958801,0.0,0.0014912299811840057,1.2463759183883667,-0.05442557856440544,-0.5592845678329468
264.0,449.0,-3.6132,1.282,10.2808,0.0035,0.1208,-0.1759,-2.203477521935934,-0.0001430395059287548,4.543837070465088,-1.4108068943023682,0.12151941657066345,2.303767204284668,5.4160547135169885,-0.0003933536645490676,0.22586414217948914,-1.7208908239947718,9.518412116449326e-05,0.1034645140171051,0.4355652928352356,0.0,0.008988010697066784,1.2462007999420166,-0.051829177886247635,-0.5559014678001404
264.0,449.0,-3.6132,1.282,10.2808,0.0035,0.1208,-0.1759,-2.2034970722594203,-5.785486428067088e-05,4.539999008178711,-1.4100373983383179,0.13207295536994934,2.305718183517456,5.416094589024343,-0.00031157536432147026,0.22804789245128632,-1.720886532460348,8.95043631317094e-05,0.0936027467250824,0.4355972707271576,0.0,-0.005206962116062641,1.2458653450012207,-0.047683507204055786,-0.5132521390914917
264.0,449.0,-3.6132,1.282,10.2808,0.0035,0.1208,-0.1759,-2.203485151330465,-6.102273346186848e-06,4.583303451538086,-1.409563422203064,0.13662301003932953,2.32671856880188,5.416058468609609,-0.00027365927235223353,0.23850136995315552,-1.7208665052997034,8.608007919974625e-05,0.10940847545862198,0.4355936646461487,0.0,0.0025496352463960648,1.2456454038619995,-0.044862426817417145,-0.4968397617340088
264.0,449.0,-3.6132,1.282,10.2808,0.0035,0.1208,-0.1759,-2.2034813366331996,-1.0983876030934425e-09,4.549633979797363,-1.4089421033859253,0.14553561806678772,2.3707451820373535,5.416062998562612,-0.00028939847834408283,0.2320130616426468,-1.7208059469806116,8.290810364997014e-05,0.11010275781154633,0.43562960624694824,0.0,0.004265693016350269,1.245510220527649,-0.04157887399196625,-0.548358678817749
264.0,449.0,-3.6132,1.282,10.2808,0.0035,0.1208,-0.1759,-2.2035490475096644,-1.9770586535093615e-13,4.562804222106934,-1.4083517789840698,0.15348130464553833,2.3584160804748535,5.416086721211233,-0.0002641039900481701,0.23043084144592285,-1.7208665052997034,7.996158819878474e-05,0.10471400618553162,0.43556535243988037,0.0,0.004011874087154865,1.245326280593872,-0.03876772150397301,-0.48743945360183716
264.0,449.0,-3.6132,1.282,10.2808,0.0035,0.1208,-0.1759,-2.2034493885436,-3.558635881704797e-17,4.551525115966797,-1.4077061414718628,0.1615532636642456,2.3882851600646973,5.41603838184432,-0.0002753167354967445,0.22956225275993347,-1.7208502928363245,7.7217431680765e-05,0.09955305606126785,0.4355895221233368,0.0,0.008386578410863876,1.2452309131622314,-0.035593196749687195,-0.5078943967819214
264.0,449.0,-3.6132,1.282,10.2808,0.0035,0.1208,-0.1759,-2.203545232812399,-6.4054188800432036e-21,4.547149181365967,-1.406996250152588,0.16852419078350067,2.402405261993408,5.41603838184432,-0.0002936378587037325,0.23876720666885376,-1.720842186604635,7.465529051842168e-05,0.08334192633628845,0.4356137216091156,0.0,0.0015404733130708337,1.2450668811798096,-0.03354288637638092,-0.4712804853916168
264.0,449.0,-3.6132,1.282,10.2808,0.0035,0.1208,-0.1759,-2.2035051784911097,-1.1529527534928491e-24,4.614216327667236,-1.4062947034835815,0.1712915599346161,2.380213737487793,5.41603838184432,-0.0002661921316757798,0.248331218957901,-1.7208746115313929,7.225769513752311e-05,0.09640991687774658,0.43561768531799316,0.0,0.0025973645970225334,1.2449592351913452,-0.03228422626852989,-0.4650763273239136
264.0,449.0,-3.6132,1.282,10.2808,0.0035,0.1208,-0.1759,-2.2035376034178675,-2.7842452624650007e-30,4.567296028137207,-1.405267596244812,0.17497074604034424,2.3777923583984375,5.4160387990768335,-0.0012443186715245247,0.23982292413711548,-1.720846954976217,6.893696991028264e-05,0.09973921626806259,0.4356575310230255,7.662481760206674e-10,0.0018584912177175283,1.244800090789795,-0.02738386020064354,-0.4742031693458557
264.0,449.0,-3.6132,1.282,10.2808,0.0035,0.1208,-0.1759,-2.203501363793844,-5.011543381400719e-34,4.534943103790283,-1.4044742584228516,0.18109935522079468,2.3979029655456543,5.4160265801246545,-0.0015408698236569762,0.23128902912139893,-1.7208541075335901,6.688755820505321e-05,0.09311086684465408,0.43560123443603516,3.2666360935684757e-12,0.006521351169794798,1.244676113128662,-0.0250667966902256,-0.473000168800354
264.0,449.0,-3.6132,1.282,10.2808,0.0035,0.1208,-0.1759,-2.2034932575621546,-9.020599904134803e-38,4.55580472946167,-1.4037165641784668,0.18661974370479584,2.4006435871124268,5.416059064656057,-0.0019237266387790442,0.22675609588623047,-1.7208746115313929,6.495654815807939e-05,0.0883760079741478,0.43563368916511536,1.3926182188222884e-14,0.005917859263718128,1.2445683479309082,-0.02380521222949028,-0.4160802960395813
264.0,449.0,-3.6132,1.282,10.2808,0.0035,0.1208,-0.1759,-2.203501363793844,-1.6236845306131655e-41,4.518067359924316,-1.4029680490493774,0.19240924715995789,2.3701343536376953,5.416010963707723,-0.0030978634022176266,0.22236624360084534,-1.7208545843707483,6.313388439593837e-05,0.08225814998149872,0.4356656074523926,5.936949880256447e-17,0.012160937301814556,1.2444844245910645,-0.02230253256857395,-0.4640979468822479
264.0,449.0,-3.6132,1.282,10.2808,0.0035,0.1208,-0.1759,-2.20347323040151,-2.802596928649634e-45,4.5656890869140625,-1.4021867513656616,0.20024898648262024,2.402629852294922,5.415979313641348,-0.004068445879966021,0.23039939999580383,-1.7208622137652796,6.141073390608653e-05,0.10122495889663696,0.4356538653373718,2.531014993107997e-19,0.014878536574542522,1.244368314743042,-0.020967211574316025,-0.4316740930080414
264.0,449.0,-3.6132,1.282,10.2808,0.0035,0.1208,-0.1759,-2.203426023522848,0.0,4.551079750061035,-1.4013742208480835,0.20718532800674438,2.4290311336517334,5.415967392712393,-0.004963228479027748,0.2295655459165573,-1.720886532460348,5.977914770483039e-05,0.10121524333953857,0.4356575310230255,1.0790112667905004e-21,0.030645981431007385,1.244296669960022,-0.02051311358809471,-0.4247611165046692
264.0,449.0,-3.6132,1.282,10.2808,0.0035,0.1208,-0.1759,-2.2034493885436,0.0,4.551675796508789,-1.4005573987960815,0.21112819015979767,2.4385056495666504,5.415971445828237,-0.004769311286509037,0.22432535886764526,-1.720858399068014,5.823198443977162e-05,0.10101933777332306,0.4356013834476471,1.417137013959291e-06,0.004681403748691082,1.244240641593933,-0.019336679950356483,-0.4222524166107178
264.0,449.0,-3.6132,1.282,10.2808,0.0035,0.1208,-0.1759,-2.20347323040151,0.0,4.523408889770508,-1.3991739749908447,0.22172030806541443,2.45369029045105,5.415890741139211,-0.0043931808322668076,0.21877531707286835,-1.7208426634417933,5.6055891036521643e-05,0.09938134998083115,0.43560948967933655,0.0002589119249023497,0.022140948101878166,1.2441128492355347,-0.01684519276022911,-0.4218442440032959
264.0,449.0,-3.6132,1.282,10.2808,0.0035,0.1208,-0.1759,-2.203485151330465,0.0,4.514541149139404,-1.3982454538345337,0.22702360153198242,2.4667410850524902,5.415858852654257,-0.004490245599299669,0.22472620010375977,-1.7208665052997034,5.4693282436346635e-05,0.08436985313892365,0.43563327193260193,0.0002724620862863958,0.029080376029014587,1.2440812587738037,-0.014459927566349506,-0.45867830514907837
264.0,449.0,-3.6132,1.282,10.2808,0.0035,0.1208,-0.1759,-2.203489442864889,-2.4119563022395596e-05,4.549497127532959,-1.3973575830459595,0.2334994673728943,2.473080635070801,5.415879356652059,-0.005700981244444847,0.21324092149734497,-1.7208665052997034,5.339533163351007e-05,0.09592269361019135,0.43561360239982605,0.0002525928430259228,0.019993793219327927,1.2440012693405151,-0.012061052024364471,-0.3721199035644531
235.0,311.0,-3.7837,0.058,9.7035,-0.1086,0.2398,-0.1631,-2.2035051784911097,-3.111407204414718e-05,4.51206636428833,-1.3964651823043823,0.23832422494888306,2.472736358642578,5.41581945398406,-0.006958204321563244,0.21283459663391113,-1.7208426634417933,5.2157567552058026e-05,0.08688347041606903,0.4356898069381714,0.00023100068210624158,0.02033085748553276,1.2440135478973389,-0.009584891609847546,-0.41233909130096436
235.0,311.0,-3.7837,0.058,9.7035,-0.1086,0.2398,-0.1631,-2.203529497186178,-5.8159039326710626e-05,4.507262706756592,-1.3954846858978271,0.24064749479293823,2.491137742996216,5.415754961758413,-0.00803724117577076,0.21905283629894257,-1.7208669821368616,5.097591201774776e-05,0.1059584841132164,0.43561774492263794,0.00023901145323179662,0.021833397448062897,1.2439292669296265,-0.00710243871435523,-0.3782123327255249
235.0,311.0,-3.7837,0.058,9.7035,-0.1086,0.2398,-0.1631,-2.203477521935934,-8.187643106793985e-05,4.529259204864502,-1.3944802284240723,0.2475658804178238,2.49568772315979,5.4157272455985925,-0.00985423382371664,0.20272374153137207,-1.720898453389303,4.9846603360492736e-05,0.09293615818023682,0.4356415271759033,0.00023007809068076313,0.019577931612730026,1.2439496517181396,-0.005163704510778189,-0.41499072313308716
235.0,311.0,-3.7837,0.058,9.7035,-0.1086,0.2398,-0.1631,-2.203545232812399,-0.00037623406387865543,4.544956207275391,-1.393532156944275,0.2542153298854828,2.5715367794036865,5.415655779629507,-0.012361609376966953,0.19888004660606384,-1.7208545843707483,4.192253300061566e-07,0.09747228026390076,0.4357134997844696,0.00021444866433739662,0.02104136347770691,1.2439215183258057,-0.003288534004241228,-0.41581109166145325
235.0,311.0,-3.7837,0.058,9.7035,-0.1086,0.2398,-0.1631,-2.203557153741354,-0.0005347656551748514,4.539815902709961,-1.39191734790802,0.26449882984161377,2.496605157852173,5.415568458824911,-0.015516096726059914,0.18791967630386353,-1.7208264509784144,1.1669291921645453e-10,0.09296057373285294,0.4356415271759033,0.00019457637972664088,0.018816396594047546,1.2439661026000977,-0.0016810259548947215,-0.41875168681144714
235.0,311.0,-3.7837,0.058,9.7035,-0.1086,0.2398,-0.1631,-2.2035333118834437,-0.0004639987018890679,4.547928810119629,-1.3909095525741577,0.2649713158607483,2.5259146690368652,5.415444242745199,-0.017867757007479668,0.19388887286186218,-1.720858399068014,4.97480203733025e-13,0.10271359980106354,0.4356492757797241,0.0002089783811243251,0.03636965900659561,1.2439415454864502,-0.0011001109378412366,-0.45878443121910095
235.0,311.0,-3.7837,0.058,9.7035,-0.1086,0.2398,-0.1631,-2.203545232812399,-0.00046217761700972915,4.5387678146362305,-1.3899016380310059,0.26632481813430786,2.5012221336364746,5.4154207585151575,-0.0197981595993042,0.1885959357023239,-1.7208622137652796,2.1208362452026282e-15,0.08577387779951096,0.4356492757797241,0.00019791763043031096,0.021609950810670853,1.2439136505126953,-0.0004798727168235928,-0.4085359573364258
235.0,311.0,-3.7837,0.058,9.7035,-0.1086,0.2398,-0.1631,-2.2035376034178675,-0.00048512141802348197,4.511831283569336,-1.3887981176376343,0.274198442697525,2.525170087814331,5.415256368904867,-0.02067967690527439,0.1914478838443756,-1.720886532460348,9.041457153660854e-18,0.10443095117807388,0.4356374442577362,0.00018760478997137398,0.026163805276155472,1.2439215183258057,-0.0002225607167929411,-0.3747442662715912
235.0,311.0,-3.7837,0.058,9.7035,-0.1086,0.2398,-0.1631,-2.203545232812399,-0.0003991767589468509,4.55833625793457,-1.3876819610595703,0.2819683849811554,2.5719664096832275,5.415197717934408,-0.023566193878650665,0.190148264169693,-1.7208626906024378,3.854515605420205e-20,0.11320038139820099,0.4356451630592346,0.00017424901307094842,0.02323012426495552,1.243985891342163,-0.00010006537195295095,-0.36720967292785645
235.0,311.0,-3.7837,0.058,9.7035,-0.1086,0.2398,-0.1631,-2.2036172352232875,-0.0004068008274771273,4.53924560546875,-1.3865898847579956,0.2877322733402252,2.580585479736328,5.4150776145751855,-0.02510630339384079,0.18887987732887268,-1.720842186604635,1.6432401796086116e-22,0.09101887047290802,0.43564561009407043,0.00016082098591141403,0.032255806028842926,1.2439656257629395,-7.44376884540543e-05,-0.31760266423225403
235.0,311.0,-3.7837,0.058,9.7035,-0.1086,0.2398,-0.1631,-2.203609605828756,-0.0004946077242493629,4.538579940795898,-1.3847968578338623,0.2842778265476227,2.537461042404175,5.414913999825277,-0.027946021407842636,0.18649721145629883,-1.7208707968341272,4.574020139268718e-26,0.09299937635660172,0.4356656074523926,0.0001452428405173123,0.0181729756295681,1.2439815998077393,-5.1732818029393e-10,-0.40395134687423706
235.0,311.0,-3.7837,0.058,9.7035,-0.1086,0.2398,-0.1631,-2.203545232812399,-0.0005107109900563955,4.514580726623535,-1.3836613893508911,0.29133304953575134,2.62004017829895,5.414774226933279,-0.02839682810008526,0.1920146346092224,-1.7208622137652796,1.9499765038197473e-28,0.11018282175064087,0.43564561009407043,0.00013643460988532752,0.038794614374637604,1.243945598602295,-9.311724568500379e-14,-0.41480201482772827
235.0,311.0,-3.7837,0.058,9.7035,-0.1086,0.2398,-0.1631,-2.2036291561522425,-0.000429563078796491,4.56408166885376,-1.3824653625488281,0.30131182074546814,2.5797061920166016,5.414674925595083,-0.02830776385962963,0.18899884819984436,-1.7208145300494593,8.31305655240503e-31,0.10025359690189362,0.43566572666168213,0.00012863385200034827,0.04280126839876175,1.2439615726470947,-1.6760776940357775e-17,-0.32529252767562866
235.0,311.0,-3.7837,0.058,9.7035,-0.1086,0.2398,-0.1631,-2.2035614452757777,-0.00037058728048577905,4.5677947998046875,-1.3812823295593262,0.3107130229473114,2.6193437576293945,5.414571511536398,-0.028929907828569412,0.17788314819335938,-1.7208264509784144,3.5439861633506064e-33,0.09763036668300629,0.43567386269569397,0.00012167693785158917,0.01839473471045494,1.2440217733383179,0.0007911989814601839,-0.3408030867576599
235.0,311.0,-3.7837,0.058,9.7035,-0.1086,0.2398,-0.1631,-2.203545232812399,-0.00032585414010100067,4.548561096191406,-1.3801066875457764,0.31006065011024475,2.6562986373901367,5.4143956182296655,-0.03002711571753025,0.1765175759792328,-1.7209027449237269,1.5108569198046359e-35,0.08833669871091843,0.435589075088501,0.00011543392611201853,0.03246130421757698,1.2439980506896973,0.00062452198471874,-0.36131638288497925
235.0,311.0,-3.7837,0.058,9.7035,-0.1086,0.2398,-0.1631,-2.203569551507467,-0.00033344828989356756,4.534273147583008,-1.3788238763809204,0.3116336762905121,2.612966775894165,5.414316105633535,-0.0307648703455925,0.16431277990341187,-1.7208226362811487,6.441019626082463e-38,0.09752152860164642,0.435621440410614,0.00010980044316966087,0.03052423894405365,1.243985652923584,0.0004887616378255188,-0.3644452691078186
235.0,311.0,-3.7837,0.058,9.7035,-0.1086,0.2398,-0.1631,-2.203609605828756,-0.00030623615020886064,4.512523174285889,-1.3775080442428589,0.31732118129730225,2.6337780952453613,5.414188611298361,-0.031782254576683044,0.16279225051403046,-1.720858399068014,2.7459144057676953e-40,0.10056168586015701,0.43563002347946167,0.00010469114931765944,0.03003830462694168,1.2439734935760498,0.0004720620345324278,-0.3832835555076599
235.0,311.0,-3.7837,0.058,9.7035,-0.1086,0.2398,-0.1631,-2.2036014995970667,-0.00026725998031906784,4.544451713562012,-1.3756078481674194,0.3235291838645935,2.6286072731018066,5.41394470909194,-0.03499036654829979,0.16138219833374023,-1.7208746115313929,7.707141553786494e-44,0.11389584094285965,0.43561726808547974,9.786085865925997e-05,0.02970243990421295,1.244005799293518,0.000380045676138252,-0.419619619846344
235.0,311.0,-3.7837,0.058,9.7035,-0.1086,0.2398,-0.1631,-2.2035652599730433,-0.00028012096299789846,4.5491557121276855,-1.3742886781692505,0.3210586607456207,2.666159152984619,5.413789617806234,-0.041181530803442,0.15604960918426514,-1.7208665052997034,0.0,0.09308905899524689,0.435605525970459,9.378158574691042e-05,0.02982456050813198,1.2439734935760498,0.00033314310712739825,-0.406596839427948
235.0,311.0,-3.7837,0.058,9.7035,-0.1086,0.2398,-0.1631,-2.2036334476866664,-0.0002370755246374756,4.529676914215088,-1.3729413747787476,0.3206823468208313,2.674448251724243,5.413589584618368,-0.049549274146556854,0.16663986444473267,-1.720858399068014,0.0,0.10386861115694046,0.4356820583343506,9.002901788335294e-05,0.02704213559627533,1.2440016269683838,0.0002965471358038485,-0.43073582649230957
235.0,311.0,-3.7837,0.058,9.7035,-0.1086,0.2398,-0.1631,-2.2036014995970667,-0.00021191424457356334,4.516232013702393,-1.371658444404602,0.3246487081050873,2.6550650596618652,5.413414466172018,-0.061284273862838745,0.16404226422309875,-1.7208827177630823,0.0,0.10949182510375977,0.4355528950691223,8.656519639771432e-05,0.026562515646219254,1.2439491748809814,0.00026719740708358586,-0.3982561528682709
186.0,200.0,-4.3615,0.5946,9.5635,-0.1287,0.3109,-0.1516,-2.2035533390440882,-0.00019367130880709738,4.563678741455078,-1.3703557252883911,0.32812076807022095,2.639937162399292,5.413119542389669,-0.0782139003276825,0.14639803767204285,-1.7208622137652796,0.0,0.10097736865282059,0.4356013238430023,8.335796883329749e-05,0.03217398747801781,1.2440016269683838,0.0002074129442917183,-0.4290875792503357
186.0,200.0,-4.3615,0.5946,9.5635,-0.1287,0.3109,-0.1516,-2.203569551507467,-0.00017832103185355663,4.5376763343811035,-1.3690731525421143,0.32844680547714233,2.617194175720215,5.412728416710653,-0.09625893086194992,0.13406327366828918,-1.7208545843707483,0.0,0.09710031747817993,0.4356534481048584,8.038018131628633e-05,0.03213019669055939,1.2439815998077393,0.00018587411614134908,-0.4283539056777954
186.0,200.0,-4.3615,0.5946,9.5635,-0.1287,0.3109,-0.1516,-2.203505655328268,-0.00016522609803359956,4.547427654266357,-1.3677300214767456,0.32999926805496216,2.6473779678344727,5.412305283337393,-0.11817781627178192,0.13962356746196747,-1.72083026567568,0.0,0.10583725571632385,0.4356534481048584,7.760755397612229e-05,0.029492653906345367,1.244005799293518,0.0001716890837997198,-0.38563472032546997
186.0,200.0,-4.3615,0.5946,9.5635,-0.1287,0.3109,-0.1516,-2.203613420526022,-0.00014883150288369507,4.523950576782227,-1.3657417297363281,0.3352048397064209,2.672513008117676,5.411535429745474,-0.14312505722045898,0.1125907450914383,-1.720818821583883,0.0,0.11496851593255997,0.43564966320991516,7.378969894489273e-05,0.01661366969347,1.2439496517181396,0.0001540554512757808,-0.4087664484977722
