ramyac6/ROB537/final_project/csv/good/good_203.csv
tof_0,tof_1,accelx,accely,accelz,gyrox,gyroy,gyroz,shoulder_lift_joint_position,shoulder_lift_joint_velocity,shoulder_lift_joint_effort,elbow_joint_position,elbow_joint_velocity,elbow_joint_effort,wrist_1_joint_position,wrist_1_joint_velocity,wrist_1_joint_effort,wrist_2_joint_position,wrist_2_joint_velocity,wrist_2_joint_effort,wrist_3_joint_position,wrist_3_joint_velocity,wrist_3_joint_effort,shoulder_pan_joint_position,shoulder_pan_joint_velocity,shoulder_pan_joint_effort
158.0,225.0,5.251,-3.2943,6.9757,-0.038,0.0334,-0.1248,-1.7983514271178187,0.0,3.14351224899292,-1.2608052492141724,-0.0,2.1971774101257324,3.871424837703369,-0.0,0.28216925263404846,-1.672976318989889,-0.0,0.002865503542125225,1.3546826839447021,0.0,0.006786481477320194,0.7853723168373108,0.0,0.027597062289714813
158.0,225.0,5.251,-3.2943,6.9757,-0.038,0.0334,-0.1248,-1.7984239063658656,0.0,3.1618564128875732,-1.26076078414917,-0.0,2.1692686080932617,3.8714448648640136,-0.0,0.29507362842559814,-1.6729443709002894,-0.0,0.0029149088077247143,1.3546581268310547,0.0,-0.007903358899056911,0.7853520512580872,0.0,0.016031501814723015
158.0,225.0,5.251,-3.2943,6.9757,-0.038,0.0334,-0.1248,-1.7983552418150843,0.0,3.168306827545166,-1.260777235031128,-0.0,2.197108268737793,3.871417208308838,-0.0,0.27832677960395813,-1.6729562918292444,-0.0,0.004462006036192179,1.3546825647354126,0.0,-0.012285051867365837,0.7853521108627319,0.0,-0.008533797226846218
158.0,225.0,5.251,-3.2943,6.9757,-0.038,0.0334,-0.1248,-1.7983957729735316,0.0,3.1361374855041504,-1.2607933282852173,-0.0,2.2145590782165527,3.871424837703369,-0.0,0.2858737111091614,-1.6729562918292444,-0.0,0.015215475112199783,1.3547265529632568,0.0,-0.0022663394920527935,0.7852874994277954,0.0,0.06383424252271652
158.0,225.0,5.251,-3.2943,6.9757,-0.038,0.0334,-0.1248,-1.7983671627440394,0.0,3.190845489501953,-1.260797381401062,-0.0,2.1450939178466797,3.871424837703369,-0.0,0.2840234637260437,-1.672988239918844,-0.0,0.00127111142501235,1.3546702861785889,0.0,0.006860281340777874,0.785311758518219,0.0,0.002682123566046357
158.0,225.0,5.251,-3.2943,6.9757,-0.038,0.0334,-0.1248,-1.7983514271178187,0.0,3.1509127616882324,-1.2607810497283936,-0.0,2.2205965518951416,3.871424837703369,-0.0,0.2758183181285858,-1.6729682127581995,-0.0,-0.0009304219274781644,1.3546581268310547,0.0,-0.0034469077363610268,0.7853196859359741,0.0,0.023317070677876472
158.0,225.0,5.251,-3.2943,6.9757,-0.038,0.0334,-0.1248,-1.7983957729735316,0.0,3.150557518005371,-1.2608133554458618,-0.0,2.230823516845703,3.8714725214191894,-0.0,0.2725723385810852,-1.6729925314532679,-0.0,0.016620606184005737,1.3547183275222778,0.0,-0.014553820714354515,0.7852916717529297,0.0,-0.011121400631964207
158.0,225.0,5.251,-3.2943,6.9757,-0.038,0.0334,-0.1248,-1.7983671627440394,0.0,3.1977508068084717,-1.2607648372650146,-0.0,2.1916511058807373,3.8714606004902343,-0.0,0.2790858745574951,-1.6729639212237757,-0.0,0.002383406739681959,1.3547383546829224,0.0,0.0013520154170691967,0.7853279113769531,0.0,-0.002661295235157013
153.0,226.0,5.3049,-3.3147,6.8776,-0.0305,0.0209,-0.1232,-1.7983833752074183,0.0,3.16225528717041,-1.2608215808868408,-0.0,2.1352248191833496,3.8713881212421875,-0.0,0.2728894352912903,-1.672931973134176,-0.0,-0.008346480317413807,1.3546867370605469,0.0,0.00683292793110013,0.7853039503097534,0.0,0.018565883859992027
153.0,226.0,5.3049,-3.3147,6.8776,-0.0305,0.0209,-0.1232,-1.7983995876707972,0.0,3.1635186672210693,-1.2607288360595703,-0.0,2.1468396186828613,3.8714448648640136,-0.0,0.27510055899620056,-1.672988239918844,-0.0,0.004765246529132128,1.354654312133789,0.0,-0.007106753997504711,0.785384476184845,0.0,-0.028693903237581253
153.0,226.0,5.3049,-3.3147,6.8776,-0.0305,0.0209,-0.1232,-1.7983833752074183,0.0,3.1590521335601807,-1.260749340057373,-0.0,2.1965115070343018,3.8714167314716796,-0.0,0.2867337465286255,-1.6728962103473108,-0.0,0.004831879399716854,1.35464608669281,0.0,-0.0034641451202332973,0.7853643298149109,0.0,0.034420985728502274
153.0,226.0,5.3049,-3.3147,6.8776,-0.0305,0.0209,-0.1232,-1.7983514271178187,0.0,3.1409006118774414,-1.2606889009475708,-0.0,2.218142509460449,3.8714048105427246,-0.0,0.2722698450088501,-1.6729639212237757,-0.0,-0.00459267059341073,1.3546501398086548,0.0,-0.003488037269562483,0.7853077054023743,0.0,0.0451197624206543
153.0,226.0,5.3049,-3.3147,6.8776,-0.0305,0.0209,-0.1232,-1.7984000645079554,0.0,3.18479585647583,-1.2607370615005493,-0.0,2.187023639678955,3.8714448648640136,-0.0,0.27010810375213623,-1.6729443709002894,-0.0,-0.0010766921332105994,1.354654312133789,0.0,-0.00151346018537879,0.7853039503097534,0.0,0.04831097275018692
153.0,226.0,5.3049,-3.3147,6.8776,-0.0305,0.0209,-0.1232,-1.7983790836729945,0.0,3.1627702713012695,-1.260769009590149,-0.0,2.1644082069396973,3.8714329439350585,-0.0,0.2664210796356201,-1.6729562918292444,-0.0,0.010845053009688854,1.35464608669281,0.0,-0.009650340303778648,0.7853320240974426,0.0,-0.021622374653816223
153.0,226.0,5.3049,-3.3147,6.8776,-0.0305,0.0209,-0.1232,-1.7983790836729945,0.0,3.1477394104003906,-1.260785460472107,-0.0,2.2131850719451904,3.87144057332959,-0.0,0.27528315782546997,-1.6729400793658655,-0.0,0.013656624592840672,1.3546016216278076,0.0,0.004206581506878138,0.7853519916534424,0.0,0.025581082329154015
153.0,226.0,5.3049,-3.3147,6.8776,-0.0305,0.0209,-0.1232,-1.7983671627440394,0.0,3.181459903717041,-1.2607327699661255,-0.0,2.191176176071167,3.87140862523999,-0.0,0.28061842918395996,-1.6729682127581995,-0.0,0.0007858003955334425,1.3546743392944336,0.0,-0.013725308701395988,0.7853238582611084,0.0,0.04461655765771866
153.0,226.0,5.3049,-3.3147,6.8776,-0.0305,0.0209,-0.1232,-1.7983232937254847,0.0,3.177476167678833,-1.2607485055923462,-0.0,2.2013092041015625,3.871441050166748,-0.0,0.27080249786376953,-1.6729243437396448,-0.0,0.014933034777641296,1.354698657989502,0.0,-0.0035066590644419193,0.7853076457977295,0.0,0.018705427646636963
153.0,226.0,5.3049,-3.3147,6.8776,-0.0305,0.0209,-0.1232,-1.798375745812887,0.0,3.1537492275238037,-1.260769009590149,-0.0,2.1715962886810303,3.871441050166748,-0.0,0.2894013524055481,-1.6729520002948206,-0.0,-0.002919962164014578,1.354682207107544,0.0,-0.01378975436091423,0.7853684425354004,0.0,0.007010183297097683
153.0,226.0,5.3049,-3.3147,6.8776,-0.0305,0.0209,-0.1232,-1.7983595333495082,0.0,3.1579556465148926,-1.2607483863830566,-0.0,2.203810214996338,3.8714644151875,-0.0,0.2893659472465515,-1.672976318989889,-0.0,0.00658598355948925,1.3546583652496338,0.0,0.004127107094973326,0.7853439450263977,0.0,-0.0038572046905755997
153.0,226.0,5.3049,-3.3147,6.8776,-0.0305,0.0209,-0.1232,-1.7983552418150843,0.0,3.1595797538757324,-1.2607933282852173,-0.0,2.1576919555664062,3.8714887338825683,-0.0,0.2835560142993927,-1.673004452382223,-0.0,-0.0018665591487661004,1.3546743392944336,0.0,-0.01661377213895321,0.7853238582611084,0.0,0.03448580205440521
153.0,226.0,5.3049,-3.3147,6.8776,-0.0305,0.0209,-0.1232,-1.798363824883932,0.0,3.1454415321350098,-1.260809302330017,-0.0,2.1487395763397217,3.8714520174213867,-0.0,0.2693118453025818,-1.672948185597555,-0.0,0.002386920154094696,1.3546903133392334,0.0,-0.014150279574096203,0.7853197455406189,0.0,0.00823073461651802
153.0,226.0,5.3049,-3.3147,6.8776,-0.0305,0.0209,-0.1232,-1.7983671627440394,0.0,3.1986048221588135,-1.2607204914093018,-0.0,2.1819515228271484,3.8714329439350585,-0.0,0.27838218212127686,-1.6729562918292444,-0.0,0.009213585406541824,1.3546860218048096,0.0,-0.0006519567687064409,0.7853039503097534,0.0,-0.031613752245903015
153.0,226.0,5.3049,-3.3147,6.8776,-0.0305,0.0209,-0.1232,-1.7983671627440394,0.0,3.1315433979034424,-1.2608176469802856,-0.0,2.1753039360046387,3.87140862523999,-0.0,0.27243030071258545,-1.6730006376849573,-0.0,-0.0043679275549948215,1.354694128036499,0.0,-0.001239454373717308,0.7853437662124634,0.0,-0.0019116704352200031
155.0,221.0,5.3306,-3.3009,6.99,-0.0368,0.0202,-0.1193,-1.7983514271178187,0.0,3.179814338684082,-1.2607452869415283,-0.0,2.169416904449463,3.8714768129536132,-0.0,0.2830371856689453,-1.672976318989889,-0.0,0.009824777022004128,1.3546781539916992,0.0,-0.015578549355268478,0.7853076457977295,0.0,0.00501369871199131
155.0,221.0,5.3306,-3.3009,6.99,-0.0368,0.0202,-0.1193,-1.7983957729735316,0.0,3.19388747215271,-1.2607330083847046,-0.0,2.1859183311462402,3.8714520174213867,-0.0,0.27978813648223877,-1.672976318989889,-0.0,-0.0021436004899442196,1.3547146320343018,0.0,0.011509292759001255,0.7853561639785767,0.0,0.02815917134284973
155.0,221.0,5.3306,-3.3009,6.99,-0.0368,0.0202,-0.1193,-1.7983876667418421,0.0,3.146799087524414,-1.2608094215393066,-0.0,2.2305548191070557,3.871424360866211,-0.0,0.2798495888710022,-1.6729520002948206,-0.0,-0.0006268355064094067,1.354662537574768,0.0,-0.00871846079826355,0.7853398323059082,0.0,-0.0014386652037501335
155.0,221.0,5.3306,-3.3009,6.99,-0.0368,0.0202,-0.1193,-1.7983671627440394,0.0,3.1664958000183105,-1.2607412338256836,-0.0,2.151826858520508,3.8714768129536132,-0.0,0.2749725580215454,-1.6729562918292444,-0.0,-0.001948304707184434,1.3546581268310547,0.0,-0.003066624514758587,0.78530353307724,0.0,-0.017795611172914505
155.0,221.0,5.3306,-3.3009,6.99,-0.0368,0.0202,-0.1193,-1.7983514271178187,0.0,3.1181087493896484,-1.2607609033584595,-0.0,2.1936874389648438,3.871396227473877,-0.0,0.27517420053482056,-1.6729520002948206,-0.0,0.007088035345077515,1.3546501398086548,0.0,0.000378643162548542,0.7853601574897766,0.0,-0.012507488019764423
155.0,221.0,5.3306,-3.3009,6.99,-0.0368,0.0202,-0.1193,-1.7983633480467738,0.0,3.1922290325164795,-1.2607731819152832,-0.0,2.194516181945801,3.8714448648640136,-0.0,0.27378013730049133,-1.6729725042926233,-0.0,-0.005801541730761528,1.3546702861785889,0.0,-0.014176469296216965,0.7852917313575745,0.0,-0.014084132388234138
155.0,221.0,5.3306,-3.3009,6.99,-0.0368,0.0202,-0.1193,-1.7983395061888636,0.0,3.169820547103882,-1.260749340057373,-0.0,2.180032253265381,3.87140862523999,-0.0,0.27904370427131653,-1.6729438940631312,-0.0,0.008350392803549767,1.3546903133392334,0.0,0.0004767368081957102,0.7853238582611084,0.0,-0.00978884007781744
155.0,221.0,5.3306,-3.3009,6.99,-0.0368,0.0202,-0.1193,-1.7983633480467738,0.0,3.152184009552002,-1.2607970237731934,-0.0,2.2126059532165527,3.8714448648640136,-0.0,0.27297163009643555,-1.672931973134176,-0.0,-0.0038192407228052616,1.354637622833252,0.0,-0.0046040089800953865,0.7853561639785767,0.0,-0.05108451843261719
155.0,221.0,5.3306,-3.3009,6.99,-0.0368,0.0202,-0.1193,-1.7983957729735316,0.0,3.1508655548095703,-1.2607892751693726,-0.0,2.1904919147491455,3.8714048105427246,-0.0,0.27860698103904724,-1.672976318989889,-0.0,-1.562642864882946e-05,1.3546743392944336,0.0,-0.0005510991904884577,0.7853237986564636,0.0,0.011079047806560993
155.0,221.0,5.3306,-3.3009,6.99,-0.0368,0.0202,-0.1193,-1.7983471355833949,0.0,3.1649160385131836,-1.2607370615005493,-0.0,2.178218364715576,3.8714887338825683,-0.0,0.2819841504096985,-1.6729639212237757,-0.0,-0.00015347450971603394,1.3546502590179443,0.0,0.0036584697663784027,0.7852755188941956,0.0,-0.015588412061333656
155.0,221.0,5.3306,-3.3009,6.99,-0.0368,0.0202,-0.1193,-1.7983833752074183,0.0,3.192554235458374,-1.2607731819152832,-0.0,2.2250280380249023,3.8714329439350585,-0.0,0.2793983519077301,-1.6729682127581995,-0.0,0.004155752714723349,1.3546621799468994,0.0,-0.003949448931962252,0.7853398323059082,0.0,0.0075690168887376785
155.0,221.0,5.3306,-3.3009,6.99,-0.0368,0.0202,-0.1193,-1.798403879205221,0.0,3.185800075531006,-1.2608052492141724,-0.0,2.1577601432800293,3.8713881212421875,-0.0,0.28850027918815613,-1.672988239918844,-0.0,0.001139353378675878,1.3546621799468994,0.0,-0.001218114630319178,0.7853519916534424,0.0,-0.020791878923773766
155.0,221.0,5.3306,-3.3009,6.99,-0.0368,0.0202,-0.1193,-1.7983957729735316,0.0,3.171013593673706,-1.260797381401062,-0.0,2.188775062561035,3.8714048105427246,-0.0,0.2811972200870514,-1.672948185597555,-0.0,0.01668311096727848,1.3546946048736572,0.0,-0.002052071038633585,0.7853356599807739,0.0,0.03878987580537796
155.0,221.0,5.3306,-3.3009,6.99,-0.0368,0.0202,-0.1193,-1.7983552418150843,0.0,3.1830027103424072,-1.260741114616394,-0.0,2.1612446308135986,3.8714644151875,-0.0,0.2676777243614197,-1.672976318989889,-0.0,0.009616754949092865,1.3546420335769653,0.0,0.00038813939318060875,0.7853562235832214,0.0,-0.009036468341946602
155.0,221.0,5.3306,-3.3009,6.99,-0.0368,0.0202,-0.1193,-1.7984158001341761,0.0,3.149975299835205,-1.2607812881469727,-0.0,2.1472244262695312,3.871424837703369,-0.0,0.2668241560459137,-1.672948185597555,-0.0,0.004785450175404549,1.3546175956726074,0.0,-0.002664807252585888,0.785311758518219,0.0,0.0323118232190609
160.0,233.0,5.1685,-3.3123,7.0714,-0.0342,0.027,-0.1171,-1.7983957729735316,0.0,3.1765127182006836,-1.2607370615005493,-0.0,2.1825058460235596,3.871441050166748,-0.0,0.27190980315208435,-1.6729844252215784,-0.0,0.0013139932416379452,1.3546702861785889,0.0,-0.013882442377507687,0.7853519916534424,0.0,0.040620408952236176
160.0,233.0,5.1685,-3.3123,7.0714,-0.0342,0.027,-0.1171,-1.7983957729735316,0.0,3.164835214614868,-1.2607412338256836,-0.0,2.1627156734466553,3.8714210230061035,-0.0,0.278581440448761,-1.6729443709002894,-0.0,0.008957228623330593,1.3546781539916992,0.0,-0.007189152762293816,0.7853279113769531,0.0,0.023970942944288254
160.0,233.0,5.1685,-3.3123,7.0714,-0.0342,0.027,-0.1171,-1.7983633480467738,0.0,3.1685292720794678,-1.2607851028442383,-0.0,2.177177906036377,3.8714167314716796,-0.0,0.27650129795074463,-1.6729682127581995,-0.0,-0.012665258720517159,1.3546583652496338,0.0,0.0009251300944015384,0.7853438854217529,0.0,-0.020767144858837128
160.0,233.0,5.1685,-3.3123,7.0714,-0.0342,0.027,-0.1171,-1.7983514271178187,0.0,3.1710596084594727,-1.2607412338256836,-0.0,2.144028902053833,3.871448202724121,-0.0,0.28000155091285706,-1.6729562918292444,-0.0,0.001177207101136446,1.3546539545059204,0.0,-0.0064852358773350716,0.78530353307724,0.0,-0.012056592851877213
160.0,233.0,5.1685,-3.3123,7.0714,-0.0342,0.027,-0.1171,-1.7984119854369105,0.0,3.170311450958252,-1.2607485055923462,-0.0,2.1726455688476562,3.8714329439350585,-0.0,0.281781405210495,-1.6730082670794886,-0.0,0.011571389622986317,1.354730248451233,0.0,-0.0022352351807057858,0.7852833867073059,0.0,-0.03955987095832825
160.0,233.0,5.1685,-3.3123,7.0714,-0.0342,0.027,-0.1171,-1.798375745812887,0.0,3.1663875579833984,-1.2607567310333252,-0.0,2.1739606857299805,3.871436758632324,-0.0,0.26860690116882324,-1.6729725042926233,-0.0,-0.0040495507419109344,1.3546985387802124,0.0,-0.01004823949187994,0.7853561639785767,0.0,-0.003424303140491247
160.0,233.0,5.1685,-3.3123,7.0714,-0.0342,0.027,-0.1171,-1.7983433208861292,0.0,3.15741229057312,-1.260752558708191,-0.0,2.207674503326416,3.871429129237793,-0.0,0.2810763716697693,-1.6729801336871546,-0.0,0.004729574546217918,1.354654312133789,0.0,-0.005155742168426514,0.7853356599807739,0.0,-0.020779116079211235
160.0,233.0,5.1685,-3.3123,7.0714,-0.0342,0.027,-0.1171,-1.7983914814391078,0.0,3.1725049018859863,-1.2608052492141724,-0.0,2.2111873626708984,3.8714205461689453,-0.0,0.2749309837818146,-1.6729682127581995,-0.0,-0.0014306020457297564,1.35464608669281,0.0,-0.0006489825900644064,0.7852837443351746,0.0,0.04414211958646774
160.0,233.0,5.1685,-3.3123,7.0714,-0.0342,0.027,-0.1171,-1.7983914814391078,0.0,3.147491455078125,-1.260769009590149,-0.0,2.184140205383301,3.8714329439350585,-0.0,0.26903438568115234,-1.6729443709002894,-0.0,-0.0007120840018615127,1.3546335697174072,0.0,0.0034870943054556847,0.7853519916534424,0.0,-0.021813731640577316
160.0,233.0,5.1685,-3.3123,7.0714,-0.0342,0.027,-0.1171,-1.7983833752074183,0.0,3.1679024696350098,-1.2607452869415283,-0.0,2.1730029582977295,3.871448202724121,-0.0,0.27132827043533325,-1.6729520002948206,-0.0,0.007331507746130228,1.3546621799468994,0.0,0.0026213559322059155,0.7853279113769531,0.0,-0.0011246835347265005
160.0,233.0,5.1685,-3.3123,7.0714,-0.0342,0.027,-0.1171,-1.7983914814391078,0.0,3.1696465015411377,-1.2608329057693481,-0.0,2.1347262859344482,3.8714768129536132,-0.0,0.2835586667060852,-1.6729520002948206,-0.0,-8.106837049126625e-05,1.3546826839447021,0.0,-0.012862419709563255,0.785339891910553,0.0,-0.014013368636369705
160.0,233.0,5.1685,-3.3123,7.0714,-0.0342,0.027,-0.1171,-1.7983876667418421,0.0,3.131765365600586,-1.260777235031128,-0.0,2.1944899559020996,3.871441050166748,-0.0,0.2803913652896881,-1.6730006376849573,-0.0,0.0028827660717070103,1.354694128036499,0.0,-0.013606822118163109,0.7853439450263977,0.0,0.028477594256401062
160.0,233.0,5.1685,-3.3123,7.0714,-0.0342,0.027,-0.1171,-1.7983833752074183,0.0,3.145862579345703,-1.2607731819152832,-0.0,2.1519060134887695,3.8714205461689453,-0.0,0.26911962032318115,-1.6729682127581995,-0.0,0.001634994987398386,1.3546862602233887,0.0,0.006251668557524681,0.7853561639785767,0.0,-0.016067273914813995
160.0,233.0,5.1685,-3.3123,7.0714,-0.0342,0.027,-0.1171,-1.7983671627440394,0.0,3.169421434402466,-1.2608052492141724,-0.0,2.1744325160980225,3.871412916774414,-0.0,0.2733316719532013,-1.6729806105243128,-0.0,0.008670639246702194,1.3547347784042358,0.0,-0.0062202587723731995,0.7852755188941956,0.0,0.0002347063273191452
160.0,233.0,5.1685,-3.3123,7.0714,-0.0342,0.027,-0.1171,-1.798319479028219,0.0,3.1564550399780273,-1.2607731819152832,-0.0,2.1456689834594727,3.871412916774414,-0.0,0.2756084203720093,-1.6729362646686,-0.0,0.007197391241788864,1.3546743392944336,0.0,-0.01332383044064045,0.785319983959198,0.0,-0.006179578602313995
160.0,233.0,5.1685,-3.3123,7.0714,-0.0342,0.027,-0.1171,-1.7983795605101527,0.0,3.1664419174194336,-1.2608052492141724,-0.0,2.1573917865753174,3.8714606004902343,-0.0,0.28026387095451355,-1.672948185597555,-0.0,0.008571242913603783,1.3546500205993652,0.0,-0.010170495137572289,0.7853356599807739,0.0,0.016124302521348
163.0,219.0,5.269,-3.3338,6.9924,-0.0406,0.0264,-0.1231,-1.7983876667418421,0.0,3.1185638904571533,-1.2607330083847046,-0.0,2.1743650436401367,3.8714167314716796,-0.0,0.27083009481430054,-1.6729643980609339,-0.0,0.006996816955506802,1.354654312133789,0.0,-0.0047650644555687904,0.7852998375892639,0.0,0.03569493815302849
163.0,219.0,5.269,-3.3338,6.9924,-0.0406,0.0264,-0.1231,-1.7983714542784632,0.0,3.157625198364258,-1.2607731819152832,-0.0,2.192927837371826,3.8714520174213867,-0.0,0.2782440185546875,-1.6729725042926233,-0.0,0.010020419023931026,1.3546981811523438,0.0,-0.028564000502228737,0.7852916717529297,0.0,-0.001908204983919859
163.0,219.0,5.269,-3.3338,6.9924,-0.0406,0.0264,-0.1231,-1.7983833752074183,0.0,3.13594913482666,-1.2607892751693726,-0.0,2.186575412750244,3.871412439937256,-0.0,0.2804567515850067,-1.6730001608477991,-0.0,-0.00445810379460454,1.3546785116195679,0.0,0.0012040375731885433,0.785311758518219,0.0,0.03743339329957962
163.0,219.0,5.269,-3.3338,6.9924,-0.0406,0.0264,-0.1231,-1.7983595333495082,0.0,3.193004608154297,-1.2607812881469727,-0.0,2.198809862136841,3.871441050166748,-0.0,0.2687692940235138,-1.6729400793658655,-0.0,0.0019646326545625925,1.3546826839447021,0.0,-0.00391808245331049,0.7853602170944214,0.0,0.01728619448840618
163.0,219.0,5.269,-3.3338,6.9924,-0.0406,0.0264,-0.1231,-1.7983070812621058,0.0,3.177309513092041,-1.260757565498352,-0.0,2.193199872970581,3.8714210230061035,-0.0,0.2828774154186249,-1.6729281584369105,-0.0,-0.009550388902425766,1.3546981811523438,0.0,-0.0015711671439930797,0.7853196859359741,0.0,0.03232189267873764
163.0,219.0,5.269,-3.3338,6.9924,-0.0406,0.0264,-0.1231,-1.7983433208861292,0.0,3.1476078033447266,-1.2607370615005493,-0.0,2.1801271438598633,3.8714205461689453,-0.0,0.2859608829021454,-1.672948185597555,-0.0,0.022732913494110107,1.3546826839447021,0.0,-0.01518669817596674,0.7853723168373108,0.0,-0.0313473679125309
163.0,219.0,5.269,-3.3338,6.9924,-0.0406,0.0264,-0.1231,-1.7983876667418421,0.0,3.189303398132324,-1.2607206106185913,-0.0,2.1596622467041016,3.871424837703369,-0.0,0.27285897731781006,-1.672948185597555,-0.0,0.0001260950230062008,1.3546744585037231,0.0,-0.0005089808255434036,0.7853602170944214,0.0,0.008086283691227436
163.0,219.0,5.269,-3.3338,6.9924,-0.0406,0.0264,-0.1231,-1.7984081707396449,0.0,3.153250217437744,-1.2607812881469727,-0.0,2.1890671253204346,3.8713881212421875,-0.0,0.29068538546562195,-1.6729639212237757,-0.0,0.0024197418242692947,1.354654312133789,0.0,-0.0076080672442913055,0.7853561639785767,0.0,-0.02125846967101097
163.0,219.0,5.269,-3.3338,6.9924,-0.0406,0.0264,-0.1231,-1.798403879205221,0.0,3.177640199661255,-1.2607568502426147,-0.0,2.204669713973999,3.8714372354694824,-0.0,0.2801801562309265,-1.6729686895953577,-0.0,0.009913956746459007,1.3546583652496338,0.0,0.001438133418560028,0.7853196859359741,0.0,0.03617633879184723
163.0,219.0,5.269,-3.3338,6.9924,-0.0406,0.0264,-0.1231,-1.7983313999571742,0.0,3.129619598388672,-1.26076078414917,-0.0,2.170341968536377,3.871441050166748,-0.0,0.2906769812107086,-1.6729605833636683,-0.0,0.010652346536517143,1.354654312133789,0.0,-0.004892153665423393,0.7853196859359741,0.0,-0.03762710466980934
163.0,219.0,5.269,-3.3338,6.9924,-0.0406,0.0264,-0.1231,-1.7983714542784632,0.0,3.1351730823516846,-1.260732889175415,-0.0,2.2207067012786865,3.8714448648640136,-0.0,0.27947625517845154,-1.6729400793658655,-0.0,0.0037770799826830626,1.3545974493026733,0.0,-0.005013736896216869,0.7853360772132874,0.0,0.03136491775512695
163.0,219.0,5.269,-3.3338,6.9924,-0.0406,0.0264,-0.1231,-1.7983714542784632,0.0,3.115872621536255,-1.260749340057373,-0.0,2.2094390392303467,3.871424837703369,-0.0,0.2702500820159912,-1.672976318989889,-0.0,0.010523660108447075,1.3546743392944336,0.0,-0.013152903877198696,0.7853561639785767,0.0,0.02633706107735634
163.0,219.0,5.269,-3.3338,6.9924,-0.0406,0.0264,-0.1231,-1.7983633480467738,0.0,3.153771162033081,-1.2608247995376587,-0.0,2.165126085281372,3.8714563089558105,-0.0,0.2803344428539276,-1.6729682127581995,-0.0,-0.009264407679438591,1.354682207107544,0.0,-0.020279910415410995,0.7853437662124634,0.0,-0.0025619470980018377
163.0,219.0,5.269,-3.3338,6.9924,-0.0406,0.0264,-0.1231,-1.7983395061888636,0.0,3.1458468437194824,-1.260777235031128,-0.0,2.1719541549682617,3.8715130525776367,-0.0,0.28160181641578674,-1.672920052205221,-0.0,0.0013738512061536312,1.3547223806381226,0.0,-0.013278220780193806,0.7852916717529297,0.0,0.005716585088521242
163.0,219.0,5.269,-3.3338,6.9924,-0.0406,0.0264,-0.1231,-1.7983714542784632,0.0,3.1231720447540283,-1.260809302330017,-0.0,2.195457696914673,3.8714520174213867,-0.0,0.27047333121299744,-1.6729562918292444,-0.0,-0.007680075708776712,1.3546016216278076,0.0,0.006727060303092003,0.7854006886482239,0.0,0.007961689494550228
158.0,222.0,5.2307,-3.3081,6.9846,-0.0359,0.0208,-0.1093,-1.7983714542784632,0.0,3.1480464935302734,-1.2607452869415283,-0.0,2.1885292530059814,3.871384306544922,-0.0,0.2686549425125122,-1.6729844252215784,-0.0,0.009943264536559582,1.3546748161315918,0.0,-0.010516632348299026,0.7852754592895508,0.0,0.019649764522910118
158.0,222.0,5.2307,-3.3081,6.9846,-0.0359,0.0208,-0.1093,-1.7983795605101527,0.0,3.1677300930023193,-1.260749340057373,-0.0,2.1494128704071045,3.8714205461689453,-0.0,0.2846056818962097,-1.6729520002948206,-0.0,0.010189841501414776,1.3547182083129883,0.0,-0.0032511691097170115,0.7853356599807739,0.0,0.006589575670659542
158.0,222.0,5.2307,-3.3081,6.9846,-0.0359,0.0208,-0.1093,-1.798403879205221,0.0,3.2134671211242676,-1.2607851028442383,-0.0,2.214259386062622,3.871424837703369,-0.0,0.29045525193214417,-1.6729443709002894,-0.0,0.0004420791519805789,1.3546335697174072,0.0,0.003782845102250576,0.7852957844734192,0.0,-0.023201487958431244
158.0,222.0,5.2307,-3.3081,6.9846,-0.0359,0.0208,-0.1093,-1.7983795605101527,0.0,3.1578054428100586,-1.2607444524765015,-0.0,2.1595804691314697,3.871424837703369,-0.0,0.2803151607513428,-1.6729520002948206,-0.0,0.005023650825023651,1.3546743392944336,0.0,0.0035857311449944973,0.7852957844734192,0.0,-0.001784937223419547
158.0,222.0,5.2307,-3.3081,6.9846,-0.0359,0.0208,-0.1093,-1.7983876667418421,0.0,3.173166036605835,-1.260749340057373,-0.0,2.212289571762085,3.8714329439350585,-0.0,0.277972936630249,-1.6729243437396448,-0.0,0.006463936995714903,1.354742169380188,0.0,0.0015535936690866947,0.7853034734725952,0.0,0.05256200209259987
158.0,222.0,5.2307,-3.3081,6.9846,-0.0359,0.0208,-0.1093,-1.7983671627440394,0.0,3.2074575424194336,-1.2607649564743042,-0.0,2.1766178607940674,3.871412439937256,-0.0,0.2740034759044647,-1.6730001608477991,-0.0,0.0030671542044728994,1.354698657989502,0.0,-0.0007519564824178815,0.7853398323059082,0.0,0.017722154036164284
158.0,222.0,5.2307,-3.3081,6.9846,-0.0359,0.0208,-0.1093,-1.7983714542784632,0.0,3.170541763305664,-1.260777235031128,-0.0,2.2029402256011963,3.8714205461689453,-0.0,0.2868347465991974,-1.6729920546161097,-0.0,-0.001960830530151725,1.3546781539916992,0.0,-0.01204642653465271,0.7853438854217529,0.0,0.0229218527674675
158.0,222.0,5.2307,-3.3081,6.9846,-0.0359,0.0208,-0.1093,-1.7983595333495082,0.0,3.1485984325408936,-1.260749340057373,-0.0,2.164553642272949,3.8714563089558105,-0.0,0.273480087518692,-1.6729562918292444,-0.0,0.006163530983030796,1.3547022342681885,0.0,-0.01611640304327011,0.785364031791687,0.0,-0.008595805615186691
158.0,222.0,5.2307,-3.3081,6.9846,-0.0359,0.0208,-0.1093,-1.7983313999571742,0.0,3.1583688259124756,-1.2607933282852173,-0.0,2.1848325729370117,3.871412439937256,-0.0,0.27934029698371887,-1.6729725042926233,-0.0,0.007145938463509083,1.3547265529632568,0.0,-0.0006442253943532705,0.7853077054023743,0.0,0.01730375736951828
158.0,222.0,5.2307,-3.3081,6.9846,-0.0359,0.0208,-0.1093,-1.7983914814391078,0.0,3.1746764183044434,-1.2607771158218384,-0.0,2.206315755844116,3.871396704311035,-0.0,0.2773580849170685,-1.673004452382223,-0.0,-0.0025615068152546883,1.3546862602233887,0.0,0.008680474944412708,0.7852755188941956,0.0,-0.006558831315487623
158.0,222.0,5.2307,-3.3081,6.9846,-0.0359,0.0208,-0.1093,-1.7983795605101527,0.0,3.195117950439453,-1.260749340057373,-0.0,2.216649055480957,3.87140862523999,-0.0,0.27554750442504883,-1.6729801336871546,-0.0,0.012220884673297405,1.3547260761260986,0.0,-0.015254777856171131,0.7853199243545532,0.0,-0.030939936637878418
158.0,222.0,5.2307,-3.3081,6.9846,-0.0359,0.0208,-0.1093,-1.7983838520445765,0.0,3.183305263519287,-1.2608052492141724,-0.0,2.1758289337158203,3.8714563089558105,-0.0,0.2844582200050354,-1.672976318989889,-0.0,-0.007617740426212549,1.3546946048736572,0.0,-0.009806605987250805,0.7853155732154846,0.0,0.06602673977613449
158.0,222.0,5.2307,-3.3081,6.9846,-0.0359,0.0208,-0.1093,-1.7983471355833949,0.0,3.119414806365967,-1.260749340057373,-0.0,2.1390798091888428,3.8714768129536132,-0.0,0.2824287712574005,-1.6729324499713343,-0.0,0.01038065180182457,1.3546541929244995,0.0,-0.007389064412564039,0.7853602170944214,0.0,0.031531475484371185
158.0,222.0,5.2307,-3.3081,6.9846,-0.0359,0.0208,-0.1093,-1.7984158001341761,0.0,3.160878896713257,-1.260797381401062,-0.0,2.1843605041503906,3.8714725214191894,-0.0,0.2806909382343292,-1.6729562918292444,-0.0,0.00104736746288836,1.354629635810852,0.0,-0.00965675339102745,0.7853279113769531,0.0,0.016320791095495224
158.0,222.0,5.2307,-3.3081,6.9846,-0.0359,0.0208,-0.1093,-1.7983795605101527,0.0,3.175185203552246,-1.260812520980835,-0.0,2.149808645248413,3.871441050166748,-0.0,0.27286413311958313,-1.672920052205221,-0.0,0.010003184899687767,1.3547062873840332,0.0,0.0012641714420169592,0.7853196859359741,0.0,-0.011500230059027672
153.0,225.0,5.3545,-3.2548,6.6592,-0.0221,0.0318,-0.1199,-1.7983833752074183,0.0,3.145599842071533,-1.2607814073562622,-0.0,2.1978158950805664,3.8714167314716796,-0.0,0.2816903591156006,-1.6729043165790003,-0.0,0.01192304864525795,1.3546944856643677,0.0,-0.01086708065122366,0.7853279113769531,0.0,-0.016961921006441116
153.0,225.0,5.3545,-3.2548,6.6592,-0.0221,0.0318,-0.1199,-1.7983714542784632,0.0,3.1775925159454346,-1.2607731819152832,-0.0,2.181962728500366,3.871441050166748,-0.0,0.27141812443733215,-1.6729844252215784,-0.0,-0.0032244829926639795,1.3546786308288574,0.0,0.01160555612295866,0.785311758518219,0.0,-0.006112610921263695
153.0,225.0,5.3545,-3.2548,6.6592,-0.0221,0.0318,-0.1199,-1.7983790836729945,0.0,3.135735034942627,-1.2607731819152832,-0.0,2.1881895065307617,3.871441527003906,-0.0,0.28255975246429443,-1.6729562918292444,-0.0,0.012932845391333103,1.3546502590179443,0.0,-0.014591226354241371,0.7853398323059082,0.0,-0.0017388276755809784
153.0,225.0,5.3545,-3.2548,6.6592,-0.0221,0.0318,-0.1199,-1.7983595333495082,0.0,3.1818175315856934,-1.2607892751693726,-0.0,2.202305316925049,3.8714210230061035,-0.0,0.2880290150642395,-1.672948185597555,-0.0,-0.0007605944410897791,1.3546786308288574,0.0,0.00013323267921805382,0.7854005694389343,0.0,-0.008281774818897247
153.0,225.0,5.3545,-3.2548,6.6592,-0.0221,0.0318,-0.1199,-1.7983552418150843,0.0,3.189307451248169,-1.2607970237731934,-0.0,2.1810483932495117,3.8714005190083007,-0.0,0.27651453018188477,-1.6729562918292444,-0.0,0.0003897749411407858,1.3546502590179443,0.0,-0.015718065202236176,0.7853602170944214,0.0,0.053783807903528214
153.0,225.0,5.3545,-3.2548,6.6592,-0.0221,0.0318,-0.1199,-1.7983790836729945,0.0,3.1301403045654297,-1.2607810497283936,-0.0,2.175199031829834,3.8714205461689453,-0.0,0.26774656772613525,-1.6729562918292444,-0.0,0.005812713876366615,1.3546699285507202,0.0,-0.0016374584520235658,0.7853643298149109,0.0,-0.005335389170795679
153.0,225.0,5.3545,-3.2548,6.6592,-0.0221,0.0318,-0.1199,-1.7983433208861292,0.0,3.150592803955078,-1.2607369422912598,-0.0,2.163337230682373,3.871468706721924,-0.0,0.2741307020187378,-1.6729925314532679,-0.0,0.016023410484194756,1.354682207107544,0.0,0.00282228528521955,0.7853237986564636,0.0,-0.03840259835124016
153.0,225.0,5.3545,-3.2548,6.6592,-0.0221,0.0318,-0.1199,-1.7983595333495082,0.0,3.15985107421875,-1.260785460472107,-0.0,2.200159788131714,3.8714205461689453,-0.0,0.27896812558174133,-1.6729639212237757,-0.0,0.004379775375127792,1.3547064065933228,0.0,-0.00465343426913023,0.7853398323059082,0.0,-0.03135811537504196
153.0,225.0,5.3545,-3.2548,6.6592,-0.0221,0.0318,-0.1199,-1.7984158001341761,0.0,3.129936695098877,-1.2608288526535034,-0.0,2.1617684364318848,3.8714286524006347,-0.0,0.27542081475257874,-1.672931973134176,-0.0,0.0041866544634103775,1.3547019958496094,0.0,-0.004267481155693531,0.7853398323059082,0.0,-0.012068437412381172
153.0,225.0,5.3545,-3.2548,6.6592,-0.0221,0.0318,-0.1199,-1.7983595333495082,0.0,3.158729076385498,-1.260809302330017,-0.0,2.2463037967681885,3.8714286524006347,-0.0,0.27016735076904297,-1.6729562918292444,-0.0,0.010730927810072899,1.3547148704528809,0.0,-0.00043318956159055233,0.7853683829307556,0.0,0.009762034751474857
153.0,225.0,5.3545,-3.2548,6.6592,-0.0221,0.0318,-0.1199,-1.7983833752074183,-8.427937814303732e-08,3.1491830348968506,-1.2607567310333252,-0.0,2.196685791015625,3.8714644151875,-0.0,0.2868266701698303,-1.6729643980609339,-0.0,0.004677752498537302,1.354654312133789,0.0,-0.007138686254620552,0.7853519916534424,0.0,0.04493517428636551
153.0,225.0,5.3545,-3.2548,6.6592,-0.0221,0.0318,-0.1199,-1.7983433208861292,-2.0352477841066585e-13,3.1611104011535645,-1.2607730627059937,-0.0,2.1717493534088135,3.871424837703369,-0.0,0.27912917733192444,-1.6729725042926233,-0.0,0.0034475275315344334,1.354694128036499,0.0,-0.001980246277526021,0.7853320240974426,0.0,0.06514878571033478
153.0,225.0,5.3545,-3.2548,6.6592,-0.0221,0.0318,-0.1199,-1.7983714542784632,-4.914884378012584e-19,3.17964768409729,-1.2607567310333252,-0.0,2.206861972808838,3.8713881212421875,-0.0,0.2881814241409302,-1.672908131276266,-0.0,0.004413518123328686,1.354682207107544,0.0,-0.004473169334232807,0.7853519916534424,0.0,0.002347456058487296
153.0,225.0,5.3545,-3.2548,6.6592,-0.0221,0.0318,-0.1199,-1.7983313999571742,-1.186886985837515e-24,3.1590237617492676,-1.260801076889038,-0.0,2.1672921180725098,3.8714286524006347,-0.0,0.28408369421958923,-1.672931973134176,-0.0,0.00951947458088398,1.3546421527862549,0.0,-0.001620731083676219,0.7853398323059082,0.0,0.01631251536309719
153.0,225.0,5.3545,-3.2548,6.6592,-0.0221,0.0318,-0.1199,-1.7983838520445765,-2.866192453124101e-30,3.186412811279297,-1.2607206106185913,-0.0,2.2063279151916504,3.8714048105427246,-0.0,0.27577918767929077,-1.6729725042926233,-0.0,-0.004435654729604721,1.3547662496566772,0.0,0.002199627459049225,0.7853561639785767,0.0,-0.010518413037061691
161.0,229.0,5.388,-3.2997,6.795,-0.0342,0.0203,-0.1258,-1.7983433208861292,-6.921516506550208e-36,3.149807929992676,-1.260716438293457,-0.0,2.170154571533203,3.8714210230061035,-0.0,0.2762063145637512,-1.6729243437396448,-0.0,0.008547184057533741,1.3546706438064575,0.0,-0.003241018857806921,0.7853561639785767,0.0,0.017040135338902473
161.0,229.0,5.388,-3.2997,6.795,-0.0342,0.0203,-0.1258,-1.798363824883932,-1.6714688082466418e-41,3.1337966918945312,-1.2607167959213257,-0.0,2.1661195755004883,3.871436758632324,-0.0,0.2886735200881958,-1.6729362646686,-0.0,0.0011700118193402886,1.3546702861785889,0.0,0.0052323476411402225,0.7853279113769531,0.0,0.030034370720386505
161.0,229.0,5.388,-3.2997,6.795,-0.0342,0.0203,-0.1258,-1.7984119854369105,-0.0,3.135866165161133,-1.2607412338256836,-0.0,2.195003032684326,3.8714448648640136,-0.0,0.2822814881801605,-1.6729362646686,-0.0,-0.0026867652777582407,1.3547022342681885,0.0,0.014459451660513878,0.7853643894195557,0.0,-0.016274724155664444
161.0,229.0,5.388,-3.2997,6.795,-0.0342,0.0203,-0.1258,-1.7983714542784632,0.0,3.1459908485412598,-1.26076078414917,-0.0,2.1341121196746826,3.8714329439350585,-0.0,0.25770413875579834,-1.6729286352740687,-0.0,0.024156291037797928,1.354682207107544,0.0,-0.0016585132107138634,0.7853438258171082,0.0,0.015235991217195988
161.0,229.0,5.388,-3.2997,6.795,-0.0342,0.0203,-0.1258,-1.7983471355833949,0.0,3.166499137878418,-1.2606966495513916,-1.7198563000420108e-06,2.2345988750457764,3.871441050166748,-0.0,0.2806723415851593,-1.6729520002948206,-0.0,0.012636705301702023,1.3547420501708984,0.0,-0.0004516661574598402,0.7853155732154846,0.0,0.020030207931995392
161.0,229.0,5.388,-3.2997,6.795,-0.0342,0.0203,-0.1258,-1.7984076939024867,0.0,3.175421714782715,-1.2607008218765259,-4.153249359012401e-12,2.141991138458252,3.871441050166748,-0.0,0.27117714285850525,-1.6729324499713343,-0.0,0.005231459159404039,1.3546862602233887,0.0,-0.0178498737514019,0.7853838801383972,0.0,-0.01994650438427925
161.0,229.0,5.388,-3.2997,6.795,-0.0342,0.0203,-0.1258,-1.7983595333495082,0.0,3.1503958702087402,-1.2608014345169067,-1.0029608767777926e-17,2.197554588317871,3.871448202724121,-0.0,0.2797126770019531,-1.6729725042926233,-0.0,0.00250535411760211,1.354654312133789,0.0,-0.009081194177269936,0.785355806350708,0.0,0.002900030929595232
161.0,229.0,5.388,-3.2997,6.795,-0.0342,0.0203,-0.1258,-1.7983313999571742,0.0,3.133056640625,-1.2607008218765259,-2.4220323797797445e-23,2.1686031818389893,3.8714563089558105,-0.0,0.29165685176849365,-1.6729682127581995,-0.0,0.004126344807446003,1.3547101020812988,0.0,-0.005302442703396082,0.785408079624176,0.0,-0.005267476197332144
161.0,229.0,5.388,-3.2997,6.795,-0.0342,0.0203,-0.1258,-1.798347612420553,0.0,3.1499929428100586,-1.2607567310333252,-5.848923453804542e-29,2.2222325801849365,3.87140862523999,-0.0,0.2825968265533447,-1.673004452382223,-0.0,0.01267201453447342,1.3546781539916992,0.0,-0.0011285236105322838,0.7853076457977295,0.0,0.026022274047136307
161.0,229.0,5.388,-3.2997,6.795,-0.0342,0.0203,-0.1258,-1.7983676395811976,0.0,3.1691246032714844,-1.2607370615005493,-1.4124462317104729e-34,2.1977310180664062,3.87144057332959,-0.0,0.27293479442596436,-1.6729963461505335,-0.0,0.012257900089025497,1.3546900749206543,0.0,0.005656827241182327,0.7853478789329529,0.0,-0.03222847729921341
161.0,229.0,5.388,-3.2997,6.795,-0.0342,0.0203,-0.1258,-1.798363824883932,0.0,3.1544952392578125,-1.2607567310333252,-3.410886579028394e-40,2.17615008354187,3.8714286524006347,-0.0,0.2775143086910248,-1.6729520002948206,-0.0,0.00411606440320611,1.3546462059020996,0.0,-0.006139617878943682,0.7853034138679504,0.00010696611570892856,-0.010921889916062355
161.0,229.0,5.388,-3.2997,6.795,-0.0342,0.0203,-0.1258,-1.7983313999571742,0.0,3.160522699356079,-1.260749340057373,-1.401298464324817e-45,2.211594581604004,3.8714005190083007,-0.0,0.2843002676963806,-1.6730001608477991,-0.0,0.0033711642026901245,1.3546462059020996,0.0,-0.008943730033934116,0.785372257232666,6.45211173377902e-07,0.015206828713417053
161.0,229.0,5.388,-3.2997,6.795,-0.0342,0.0203,-0.1258,-1.7983595333495082,0.0,3.2063684463500977,-1.2607810497283936,-0.0,2.1933281421661377,3.871417208308838,-0.0,0.2829848527908325,-1.6729725042926233,-0.0,0.008561302907764912,1.3547062873840332,0.0,-0.015085923485457897,0.7853438854217529,1.5581090020630461e-12,0.06497646868228912
161.0,229.0,5.388,-3.2997,6.795,-0.0342,0.0203,-0.1258,-1.7983790836729945,0.0,3.173832654953003,-1.260769009590149,-0.0,2.215120553970337,3.8714048105427246,-0.0,0.28981781005859375,-1.672920052205221,-0.0,0.001995635684579611,1.3546500205993652,0.0,-0.008359611965715885,0.7852998375892639,2.8045409114355654e-16,-0.005068488419055939
161.0,229.0,5.388,-3.2997,6.795,-0.0342,0.0203,-0.1258,-1.7983957729735316,0.0,3.1159982681274414,-1.2607412338256836,-0.0,2.173860549926758,3.871396704311035,-0.0,0.28325796127319336,-1.6729682127581995,-0.0,0.007278658449649811,1.3546862602233887,0.0,-0.01065199263393879,0.7853561639785767,6.77263618102203e-22,0.025552568957209587
156.0,231.0,5.4712,-2.2008,6.8112,0.0131,0.0142,-0.1202,-1.7983671627440394,0.0,3.141343593597412,-1.260749340057373,-0.0,2.2165746688842773,3.8713642793842773,-0.0,0.271800696849823,-1.673016373311178,-0.0,0.0006109479581937194,1.3546462059020996,0.0,0.004535582847893238,0.7853279113769531,1.6355120347252848e-27,0.04851400479674339
156.0,231.0,5.4712,-2.2008,6.8112,0.0131,0.0142,-0.1202,-1.79835905651235,0.0,3.1496222019195557,-1.2607688903808594,2.462440352246631e-05,2.152273416519165,3.8713924127766113,-0.0,0.2830752432346344,-1.6729682127581995,-0.0,0.0040989769622683525,1.354682207107544,0.0,-0.01337775681167841,0.7853199243545532,3.949570285292682e-33,0.028562769293785095
156.0,231.0,5.4712,-2.2008,6.8112,0.0131,0.0142,-0.1202,-1.7983633480467738,0.0,3.1606554985046387,-1.2607250213623047,7.094778266036883e-05,2.1933043003082275,3.8714329439350585,-1.0636139080588691e-08,0.28043609857559204,-1.672988239918844,-0.0,-0.012579752132296562,1.3546862602233887,0.0,-0.0057265302166342735,0.7852714657783508,9.537748822134184e-39,0.017333943396806717
156.0,231.0,5.4712,-2.2008,6.8112,0.0131,0.0142,-0.1202,-1.7984000645079554,0.0,3.1581716537475586,-1.260724663734436,0.00019299650739412755,2.223356008529663,3.8714048105427246,-2.9606083210009793e-12,0.28836241364479065,-1.6729839483844202,-0.0,-0.011214250698685646,1.3546417951583862,0.0,-0.010947729460895061,0.7853238582611084,2.2420775429197073e-44,-0.019252119585871696
156.0,231.0,5.4712,-2.2008,6.8112,0.0131,0.0142,-0.1202,-1.7983833752074183,0.0,3.170238494873047,-1.2607412338256836,4.855994575336808e-07,2.155555248260498,3.871441050166748,-8.240962479547195e-16,0.28198564052581787,-1.6729119459735315,-0.0,0.009337340481579304,1.3546380996704102,0.0,-0.0017610243521630764,0.7853039503097534,-0.00046708673471584916,0.01530363503843546
156.0,231.0,5.4712,-2.2008,6.8112,0.0131,0.0142,-0.1202,-1.7984239063658656,0.0,3.1910905838012695,-1.260741114616394,1.1726654803451142e-12,2.198223114013672,3.871429129237793,-2.293902119556023e-19,0.28606265783309937,-1.6730201880084437,-0.0,0.003291402943432331,1.3546985387802124,0.0,-0.005028409417718649,0.7852675914764404,-0.000436686648754403,-0.02034628577530384
156.0,231.0,5.4712,-2.2008,6.8112,0.0131,0.0142,-0.1202,-1.7984115085997523,-0.0007348707295022905,3.175964832305908,-1.2607208490371704,2.8318488979673806e-18,2.181629180908203,3.8714048105427246,-6.385161335893912e-23,0.27242544293403625,-1.6729844252215784,-0.0,-0.0032159893307834864,1.3547146320343018,0.0,-0.0046570212580263615,0.7852998971939087,-0.0004100141522940248,-0.025357935577630997
156.0,231.0,5.4712,-2.2008,6.8112,0.0131,0.0142,-0.1202,-1.7983952961363734,-0.0006100009777583182,3.1548824310302734,-1.26076078414917,6.838582333680302e-24,2.2010910511016846,3.871429129237793,-1.7773330476724898e-26,0.27363061904907227,-1.6729758421527308,-0.0,-0.008602997288107872,1.3546583652496338,0.0,0.006771929562091827,0.7852878570556641,-0.00034302868880331516,-0.021009422838687897
156.0,231.0,5.4712,-2.2008,6.8112,0.0131,0.0142,-0.1202,-1.7984196148314417,-0.000472657528007403,3.163989543914795,-1.2607247829437256,1.6514372304532758e-29,2.1606640815734863,3.871339960689209,-7.92492282926105e-05,0.26860934495925903,-1.6729758421527308,-0.0,0.004588174633681774,1.3546900749206543,0.0,-0.013670352287590504,0.785319983959198,-0.00029485952109098434,0.009292734786868095
156.0,231.0,5.4712,-2.2008,6.8112,0.0131,0.0142,-0.1202,-1.7984324894347132,-0.00011321299098199233,3.1450753211975098,-1.260785460472107,3.9880261582406633e-35,2.218745470046997,3.871452971095703,-7.933592132758349e-05,0.27003729343414307,-1.6730001608477991,-0.0,0.005648506805300713,1.3547183275222778,0.0,-0.010835523717105389,0.7852754592895508,-0.00025855301646515727,-0.02511448971927166
156.0,231.0,5.4712,-2.2008,6.8112,0.0131,0.0142,-0.1202,-1.7983714542784632,-9.492095500718278e-07,3.166905403137207,-1.2607131004333496,9.630563825918738e-41,2.2274985313415527,3.8714563089558105,-7.007156091276556e-05,0.2904125154018402,-1.6729682127581995,-0.0,0.009666320867836475,1.3546299934387207,0.0,0.0020339118782430887,0.7853402495384216,-0.00026309554232284427,0.02381165698170662
156.0,231.0,5.4712,-2.2008,6.8112,0.0131,0.0142,-0.1202,-1.7983914814391078,-2.292229123526668e-12,3.1456704139709473,-1.2606929540634155,0.0,2.171668291091919,3.871424360866211,-3.140895569231361e-05,0.2774936258792877,-1.6729725042926233,-0.0,-4.4727756176143885e-05,1.3546180725097656,0.0,-0.0010666000889614224,0.7853323817253113,-0.0002082689170492813,-0.013376493006944656
156.0,231.0,5.4712,-2.2008,6.8112,0.0131,0.0142,-0.1202,-1.7983552418150843,-5.535464121473728e-18,3.132694721221924,-1.2607250213623047,-0.0,2.1892824172973633,3.8714520174213867,-2.8401271265465766e-05,0.2731333076953888,-1.673004452382223,-0.0,0.0015008272603154182,1.3546702861785889,0.0,-0.017333917319774628,0.7853162884712219,-0.00024306758132297546,-0.051385246217250824
156.0,231.0,5.4712,-2.2008,6.8112,0.0131,0.0142,-0.1202,-1.7984000645079554,-1.3367495741294284e-23,3.1297292709350586,-1.2607688903808594,-0.0,2.1554336547851562,3.8714563089558105,-2.594475881778635e-05,0.28079473972320557,-1.6729725042926233,-0.0,0.0027634138241410255,1.3546702861785889,0.0,0.003724368754774332,0.7852957844734192,-0.0002565976174082607,-0.07027862966060638
156.0,231.0,5.4712,-2.2008,6.8112,0.0131,0.0142,-0.1202,-1.7984000645079554,-3.2280930085784257e-29,3.2084689140319824,-1.260785460472107,-0.0,2.1881604194641113,3.871441050166748,-2.3879461878095753e-05,0.2774398624897003,-1.67296010652651,-0.0,0.005916738882660866,1.354694128036499,0.0,-0.004210611805319786,0.7853080630302429,-0.00023494272318203002,0.026883279904723167
162.0,223.0,5.9121,-3.9739,6.3733,-0.0224,0.0334,-0.1258,-1.798370977441305,-7.7954652749207e-35,3.1346137523651123,-1.26076078414917,-0.0,2.170322895050049,3.871429129237793,-2.2118763808975928e-05,0.27581602334976196,-1.6729243437396448,-0.0,0.010254956781864166,1.3546583652496338,0.0,-0.004707572981715202,0.7852877974510193,-0.0003470129449851811,0.0582917183637619
162.0,223.0,5.9121,-3.9739,6.3733,-0.0224,0.0334,-0.1258,-1.7984034023680628,-1.8825183699586025e-40,3.1246843338012695,-1.260749340057373,-0.0,2.1497883796691895,3.8713766771503906,-3.232386370655149e-05,0.26450735330581665,-1.6729725042926233,-0.0,-0.012031462043523788,1.354682207107544,0.0,-0.0160688366740942,0.785328209400177,-0.0002818055800162256,0.0445210225880146
162.0,223.0,5.9121,-3.9739,6.3733,-0.0224,0.0334,-0.1258,-1.7984076939024867,-0.00010225787264062092,3.146472454071045,-1.2607649564743042,-0.0,2.191786050796509,3.871368570918701,-3.255339470342733e-05,0.2801132798194885,-1.6729725042926233,-0.0,0.009293049573898315,1.3546826839447021,0.0,-0.025607457384467125,0.7853241562843323,-0.0002840046363417059,-0.0021459702402353287
162.0,223.0,5.9121,-3.9739,6.3733,-0.0224,0.0334,-0.1258,-1.7984158001341761,-8.736929157748818e-05,3.1245248317718506,-1.260741114616394,-0.0,2.1667051315307617,3.871429129237793,-2.936733108072076e-05,0.27023759484291077,-1.672988239918844,-0.0,0.011005271226167679,1.3546702861785889,0.0,-0.006198105402290821,0.7852760553359985,-0.0002865672286134213,-0.01413578912615776
162.0,223.0,5.9121,-3.9739,6.3733,-0.0224,0.0334,-0.1258,-1.79844393352651,-7.626345177413896e-05,3.1772801876068115,-1.2607533931732178,-0.0,2.1958489418029785,3.8714329439350585,-2.6748635718831792e-05,0.2822573781013489,-1.6729725042926233,-0.0,0.0039001761469990015,1.3546662330627441,0.0,-0.008116615936160088,0.7852839827537537,-0.0003033216926269233,-0.023464862257242203
162.0,223.0,5.9121,-3.9739,6.3733,-0.0224,0.0334,-0.1258,-1.79835905651235,-3.383158036740497e-05,3.1469879150390625,-1.260741114616394,-0.0,2.2060139179229736,3.871417208308838,-2.4558714358136058e-05,0.26316988468170166,-1.6729758421527308,-0.0,0.008907020092010498,1.3546903133392334,0.0,0.0010097301565110683,0.7852559089660645,-0.0012775786453858018,0.0006308599840849638
162.0,223.0,5.9121,-3.9739,6.3733,-0.0224,0.0334,-0.1258,-1.7983752689757289,-8.169928622514533e-11,3.1783969402313232,-1.2607731819152832,-0.0,2.1406028270721436,3.8714372354694824,-4.388007437228225e-05,0.2792920768260956,-1.6730001608477991,-0.0,-0.0070113311521708965,1.3547101020812988,0.0,0.0028826454654335976,0.7852396965026855,-0.0017213821411132812,0.024452298879623413
162.0,223.0,5.9121,-3.9739,6.3733,-0.0224,0.0334,-0.1258,-1.7983914814391078,-1.9729416985736264e-16,3.1150498390197754,-1.2607090473175049,-0.0,2.177095890045166,3.871396227473877,-4.2206414946122095e-05,0.2756200432777405,-1.6730039755450647,-0.0,0.007900095544755459,1.3546133041381836,0.0,-0.011426225304603577,0.7852683067321777,-0.0014593872474506497,-0.008492011576890945
162.0,223.0,5.9121,-3.9739,6.3733,-0.0224,0.0334,-0.1258,-1.7983313999571742,-4.764420983915141e-22,3.208888530731201,-1.2607090473175049,8.358201739611104e-05,2.1545348167419434,3.871412916774414,-3.9432816265616566e-05,0.2818754315376282,-1.6729844252215784,-0.0,0.015181871131062508,1.3547101020812988,0.0,-0.015629857778549194,0.7852718830108643,-0.0008701739134266973,-0.01807737722992897
162.0,223.0,5.9121,-3.9739,6.3733,-0.0224,0.0334,-0.1258,-1.7983466587462367,-1.1505517043349013e-27,3.1590499877929688,-1.2607208490371704,0.0001835982402553782,2.1474342346191406,3.871417208308838,-3.700098750414327e-05,0.2778047025203705,-1.6729963461505335,-0.0,0.017095377668738365,1.3546665906906128,0.0,-0.004664909094572067,0.785243570804596,-0.0002299432671861723,-0.014700331725180149
162.0,223.0,5.9121,-3.9739,6.3733,-0.0224,0.0334,-0.1258,-1.7984119854369105,0.00012088321818737313,3.205090045928955,-1.260765790939331,0.0006369863403961062,2.189870595932007,3.871452971095703,-1.7445798221160658e-05,0.2794594466686249,-1.6729639212237757,-0.0,0.013781220652163029,1.3547064065933228,0.0,0.0023382804356515408,0.7852919101715088,-3.5015432331420016e-06,-0.017543310299515724
162.0,223.0,5.9121,-3.9739,6.3733,-0.0224,0.0334,-0.1258,-1.7984076939024867,6.752228728146292e-06,3.1870555877685547,-1.2606929540634155,0.00044703666935674846,2.157681941986084,3.871424837703369,-1.6469191905343905e-05,0.272381454706192,-1.673028294240133,-0.0,0.0030453738290816545,1.3546335697174072,0.0,-0.0039533586241304874,0.7853240370750427,-8.455815041219505e-12,-0.006222100928425789
162.0,223.0,5.9121,-3.9739,6.3733,-0.0224,0.0334,-0.1258,-1.798415323297018,1.630583862377577e-11,3.139775276184082,-1.2607171535491943,0.00034436731948517263,2.220498561859131,3.871452494258545,-1.7777932015405895e-08,0.27782702445983887,-1.6729725042926233,-0.0,-0.007604419253766537,1.35464608669281,0.0,0.00281299720518291,0.7852957844734192,0.001434606034308672,-0.030954789370298386
162.0,223.0,5.9121,-3.9739,6.3733,-0.0224,0.0334,-0.1258,-1.798427244225973,3.937667905477825e-17,3.175940990447998,-1.260741114616394,0.0002800583024509251,2.1843717098236084,3.871424360866211,-4.948552418532204e-12,0.2695963680744171,-1.6729963461505335,-0.0,0.0013206347357481718,1.3546502590179443,0.0,0.008783943951129913,0.7853356599807739,0.0014367335243150592,-0.07234687358140945
162.0,223.0,5.9121,-3.9739,6.3733,-0.0224,0.0334,-0.1258,-1.7984682522215785,-0.0007491785800084472,3.177706480026245,-1.260757565498352,0.00023599113046657294,2.1945013999938965,3.8714768129536132,-1.3774477316820218e-15,0.2841646075248718,-1.6730039755450647,-0.0,0.0033311299048364162,1.3547146320343018,0.0,-0.01051449216902256,0.7853279113769531,0.001360617927275598,0.026810869574546814
153.0,230.0,4.1874,-3.6299,7.2838,-0.053,0.0556,-0.1113,-1.798443456689352,-0.0007015966693870723,3.1526660919189453,-1.2607213258743286,0.00020390843565110117,2.144846200942993,3.8714606004902343,-3.8341767851211747e-19,0.283988356590271,-1.672999684010641,-0.0,0.0022814550902694464,1.35468590259552,0.0,-0.014785706996917725,0.7853558659553528,0.0020060292445123196,-0.004726068582385778
153.0,230.0,4.1874,-3.6299,7.2838,-0.053,0.0556,-0.1113,-1.798460145989889,-0.0005450910539366305,3.2083053588867188,-1.260664463043213,0.000213947772863321,2.1920008659362793,3.8714563089558105,-1.0672572393027073e-22,0.28525564074516296,-1.6730316321002405,1.5368236461199558e-07,0.010946455411612988,1.3546502590179443,0.0,-0.006532466039061546,0.785412073135376,0.0032220580615103245,-0.06216643005609512
153.0,230.0,4.1874,-3.6299,7.2838,-0.053,0.0556,-0.1113,-1.7984191379942835,-0.0004441852797754109,3.188880443572998,-1.2607053518295288,0.00022429336968343705,2.1369199752807617,3.8714920717426757,-2.970749712556431e-26,0.2811596393585205,-1.672999684010641,4.277804846464228e-11,0.00810606312006712,1.3546135425567627,0.0,-0.007890239357948303,0.785431981086731,0.0040633962489664555,0.027809128165245056
153.0,230.0,4.1874,-3.6299,7.2838,-0.053,0.0556,-0.1113,-1.798472066918844,-0.0003748072194866836,3.168532371520996,-1.2607533931732178,0.00023160362616181374,2.2053515911102295,3.8714844423481445,-8.269190864814264e-30,0.2779996693134308,-1.6730240027057093,1.1907426542175081e-14,-0.0003044189652428031,1.354682207107544,0.0,-0.004956088028848171,0.7854641079902649,0.005372151732444763,0.02706802263855934
153.0,230.0,4.1874,-3.6299,7.2838,-0.053,0.0556,-0.1113,-1.7983952961363734,-0.00032417650800198317,3.175661563873291,-1.2607372999191284,0.00021133472910150886,2.183154582977295,3.871520681972168,-2.3017595492451146e-33,0.2675972878932953,-1.6730077902423304,3.3144761117578764e-18,-0.01101301982998848,1.354750394821167,0.0,0.017732664942741394,0.7855042219161987,0.0058513423427939415,0.00910269096493721
153.0,230.0,4.1874,-3.6299,7.2838,-0.053,0.0556,-0.1113,-1.798443456689352,-0.0002276728191645816,3.1452388763427734,-1.2606852054595947,0.00019961617363151163,2.211651563644409,3.871516390437744,3.9430651668226346e-05,0.2839208245277405,-1.67303973833193,1.4130130252590965e-20,0.007322026416659355,1.3546981811523438,0.0,-0.004720310214906931,0.785520076751709,0.004753314424306154,-0.002827730029821396
153.0,230.0,4.1874,-3.6299,7.2838,-0.053,0.0556,-0.1113,-1.7984115085997523,-0.00019692559726536274,3.1572768688201904,-1.2606971263885498,0.00018428845214657485,2.1717145442962646,3.8715125757404785,0.00024756049970164895,0.27920687198638916,-1.6730158964740198,3.9331736987323906e-24,0.003480312880128622,1.3546339273452759,0.0,-0.011926013976335526,0.7855280041694641,0.0031981803476810455,-0.012341372668743134
153.0,230.0,4.1874,-3.6299,7.2838,-0.053,0.0556,-0.1113,-1.7984878025450648,-0.00024353327171411365,3.1656670570373535,-1.2607094049453735,0.0001711468939902261,2.154444694519043,3.8715402322956542,0.0002493492211215198,0.2827114760875702,-1.6730039755450647,1.0948132695178931e-27,0.008290591649711132,1.3547179698944092,0.0,-0.0013457594905048609,0.7856287360191345,0.0020378849003463984,0.010755644179880619
153.0,230.0,4.1874,-3.6299,7.2838,-0.053,0.0556,-0.1113,-1.7984839878477992,-0.0005308625986799598,3.165422201156616,-1.2606887817382812,0.00015975447604432702,2.153062343597412,3.871532126063965,0.00022338020789902657,0.28841477632522583,-1.6730478445636194,3.047452882684739e-31,0.008810320869088173,1.3546981811523438,0.0,-0.004380065947771072,0.7855519652366638,0.00158762838691473,0.04236676171422005
153.0,230.0,4.1874,-3.6299,7.2838,-0.053,0.0556,-0.1113,-1.7984873257079066,-0.0012272101594135165,3.194730520248413,-1.2607094049453735,0.00014978431863710284,2.176419258117676,3.871503992671631,0.00019871661788783967,0.26854097843170166,-1.6730478445636194,8.482696695376093e-35,0.004346766509115696,1.354730248451233,0.0,-0.009129351004958153,0.7855842709541321,0.0013656184310093522,-0.03690749406814575
153.0,230.0,4.1874,-3.6299,7.2838,-0.053,0.0556,-0.1113,-1.7985359630980433,-0.0014970193151384592,3.192350387573242,-1.2607131004333496,0.0001409853430232033,2.1500682830810547,3.8714958864399414,0.00020676961867138743,0.27587783336639404,-1.6730683485614222,2.361189874205167e-38,0.005646253935992718,1.3546862602233887,0.0,0.0027405251748859882,0.7856041193008423,0.0017091907793655992,0.01798216439783573
153.0,230.0,4.1874,-3.6299,7.2838,-0.053,0.0556,-0.1113,-1.7985035381712855,-0.0020728386007249355,3.1765480041503906,-1.2607090473175049,0.0001331630046479404,2.2285311222076416,3.871503992671631,0.00021707543055526912,0.26734012365341187,-1.6730273405658167,6.572089797683392e-42,0.00361516117118299,1.3546860218048096,0.0,-0.011629768647253513,0.7856164574623108,0.0014855917543172836,-0.010850051417946815
153.0,230.0,4.1874,-3.6299,7.2838,-0.053,0.0556,-0.1113,-1.7985440693297328,-0.0027678655460476875,3.1513569355010986,-1.2607090473175049,0.00012616308231372386,2.1552257537841797,3.8715125757404785,0.0002526272728573531,0.27814704179763794,-1.6730120817767542,1.401298464324817e-45,0.0026720473542809486,1.3546786308288574,0.0,-0.0017205779440701008,0.7855881452560425,0.0012700684601441026,0.006557938177138567
153.0,230.0,4.1874,-3.6299,7.2838,-0.053,0.0556,-0.1113,-1.7985931835570277,-0.00448805745691061,3.1700663566589355,-1.260721206665039,0.00011986239405814558,2.1588497161865234,3.8714920717426757,0.000225958923692815,0.28039002418518066,-1.6730201880084437,0.0,0.0003850432112812996,1.3546981811523438,0.0,-0.009397332556545734,0.7856122851371765,0.0008798502967692912,-0.041054617613554
153.0,230.0,4.1874,-3.6299,7.2838,-0.053,0.0556,-0.1113,-1.7986084423460902,-0.006935744546353817,3.1373820304870605,-1.260680913925171,9.989330283133313e-05,2.2240169048309326,3.8715125757404785,0.00023417339252773672,0.27308565378189087,-1.67303973833193,0.0,0.009730266407132149,1.3546862602233887,0.0,-0.009099694900214672,0.7856041193008423,0.0006199681083671749,0.024591051042079926
153.0,230.0,4.1874,-3.6299,7.2838,-0.053,0.0556,-0.1113,-1.7986489735045375,-0.006250207312405109,3.119774341583252,-1.2606889009475708,9.53550697886385e-05,2.1803979873657227,3.8715683656879882,0.00023877744388300925,0.28729933500289917,-1.6730077902423304,0.0,0.008080095052719116,1.354682207107544,0.0,-0.010353402234613895,0.7855881452560425,0.0004786187200807035,-0.024370364844799042
154.0,224.0,5.8995,-3.5492,6.5204,-0.0536,-0.0043,-0.1197,-1.798648019830221,-0.003074357518926263,3.1902923583984375,-1.2607011795043945,9.121337643591687e-05,2.179866313934326,3.8715240198322753,0.0003000946016982198,0.2812404930591583,-1.672999684010641,0.0,-0.0026276500429958105,1.3546620607376099,0.0,-0.007767285220324993,0.7856202721595764,0.00038976542418822646,0.03197937831282616
154.0,224.0,5.8995,-3.5492,6.5204,-0.0536,-0.0043,-0.1197,-1.7986718616881312,-0.0015507572097703815,3.1122984886169434,-1.2606686353683472,8.741657075006515e-05,2.1479873657226562,3.871555967921875,0.00025240640388801694,0.28410273790359497,-1.6730158964740198,0.0,0.010765811428427696,1.3546580076217651,0.0,-0.011662877164781094,0.7855719923973083,0.0003287427534814924,0.024477951228618622
154.0,224.0,5.8995,-3.5492,6.5204,-0.0536,-0.0043,-0.1197,-1.7986718616881312,-0.0009414994856342673,3.2023682594299316,-1.2606892585754395,8.392316522076726e-05,2.156670093536377,3.871548815364502,0.00021604105131700635,0.27452126145362854,-1.673027817402975,0.0,0.0065766265615820885,1.3547379970550537,0.0,-0.01332586444914341,0.7856122851371765,0.00011674421693896875,0.011156029999256134
154.0,224.0,5.8995,-3.5492,6.5204,-0.0536,-0.0043,-0.1197,-1.7986518345274867,-0.0004772912652697414,3.1690120697021484,-1.2607131004333496,8.069832983892411e-05,2.164369583129883,3.871532126063965,0.00018883703160099685,0.27281808853149414,-1.6730478445636194,0.0,-0.004958003759384155,1.3547383546829224,0.0,-0.009852598421275616,0.7855842709541321,8.1403020885773e-05,-0.0256662555038929
154.0,224.0,5.8995,-3.5492,6.5204,-0.0536,-0.0043,-0.1197,-1.7986437282957972,-0.00043441879097372293,3.1659646034240723,-1.2607052326202393,7.771202945150435e-05,2.1755919456481934,3.8715407091328125,0.00016771839000284672,0.29101264476776123,-1.6730316321002405,0.0,0.0013864804059267044,1.3546820878982544,0.0,-0.009735772386193275,0.7855437994003296,4.81571551063098e-05,-0.018115730956196785
154.0,224.0,5.8995,-3.5492,6.5204,-0.0536,-0.0043,-0.1197,-1.7986918888487757,-0.0003499436716083437,3.135000228881836,-1.2607451677322388,7.493894372601062e-05,2.157663583755493,3.8715364175983886,0.00015084930055309087,0.2795390784740448,-1.6730120817767542,0.0,0.004962264094501734,1.354714274406433,0.0,-0.004720705561339855,0.785608172416687,3.775342747758259e-06,-0.017874740064144135
154.0,224.0,5.8995,-3.5492,6.5204,-0.0536,-0.0043,-0.1197,-1.7986918888487757,-0.00029297592118382454,3.1532721519470215,-1.2607131004333496,7.23569028195925e-05,2.2047207355499268,3.871516390437744,0.0001370639365632087,0.27449387311935425,-1.6730039755450647,0.0,0.009160798043012619,1.3546741008758545,0.0,-0.010815219022333622,0.7855963110923767,9.117009230896755e-12,-0.020792653784155846
154.0,224.0,5.8995,-3.5492,6.5204,-0.0536,-0.0043,-0.1197,-1.7986561260619105,-0.00025196184287779033,3.1712679862976074,-1.2607492208480835,6.994695286266506e-05,2.164578437805176,3.871555967921875,0.0001255876268260181,0.2750627398490906,-1.6730082670794886,0.0,0.004809919744729996,1.354706048965454,0.0,-0.007613672409206629,0.7855358719825745,2.2016505535868627e-17,0.06009253114461899
154.0,224.0,5.8995,-3.5492,6.5204,-0.0536,-0.0043,-0.1197,-1.7987047634520472,-0.00025768065825104713,3.1884047985076904,-1.260757565498352,1.4502558043361091e-09,2.230195999145508,3.8714801508137207,0.0001158842642325908,0.2779470682144165,-1.6729720274554651,0.0,0.0041146911680698395,1.3546340465545654,0.0,-0.01962731033563614,0.7855722308158875,5.316726863685125e-23,0.08924335241317749
154.0,224.0,5.8995,-3.5492,6.5204,-0.0536,-0.0043,-0.1197,-1.7986794910826625,-0.00022897112648934126,3.144676446914673,-1.2606971263885498,3.5021976926174385e-15,2.1556499004364014,3.871544523830078,0.00010757303243735805,0.27231401205062866,-1.6730120817767542,0.0,0.006295216269791126,1.354682207107544,0.0,-0.007208635564893484,0.7855842709541321,1.283926975215584e-28,0.04362429678440094
154.0,224.0,5.8995,-3.5492,6.5204,-0.0536,-0.0043,-0.1197,-1.7987200222411097,-0.0013724995078518987,3.1475582122802734,-1.2606850862503052,2.6316679946347676e-09,2.190056800842285,3.8714920717426757,0.00010037447646027431,0.277204304933548,-1.6729877630816858,0.0,0.016069108620285988,1.3547183275222778,0.0,-0.00517054321244359,0.7855560779571533,3.1005325725418293e-34,0.01400250568985939
154.0,224.0,5.8995,-3.5492,6.5204,-0.0536,-0.0043,-0.1197,-1.798699518243307,-0.002028808929026127,3.1562206745147705,-1.2607250213623047,6.3551687716034526e-15,2.1910672187805176,3.871508761043213,9.40789032028988e-05,0.2787878215312958,-1.6730039755450647,0.0,0.022852923721075058,1.354682207107544,0.0,-0.004872205667197704,0.7855965495109558,7.487417954580363e-40,0.008752234280109406
154.0,224.0,5.8995,-3.5492,6.5204,-0.0536,-0.0043,-0.1197,-1.7987319431700648,-0.003044307930395007,3.14346981048584,-1.260741114616394,1.5346985635077494e-20,2.163397789001465,3.871532126063965,8.852647442836314e-05,0.27607589960098267,-1.6730120817767542,0.0,0.0014373182784765959,1.3546662330627441,0.0,-0.006565831135958433,0.785568118095398,-0.00029182477737776935,-0.02337009087204933
154.0,224.0,5.8995,-3.5492,6.5204,-0.0536,-0.0043,-0.1197,-1.7987476787962855,-0.0035754728596657515,3.1695377826690674,-1.260741114616394,3.706115679493352e-26,2.1990787982940674,3.8715006548115234,8.359288040082902e-05,0.2633575201034546,-1.6730077902423304,0.0,2.3870263248682022e-05,1.3546741008758545,0.0,-0.002793191932141781,0.7855601906776428,-0.0002442984259687364,0.009085298515856266
154.0,224.0,5.8995,-3.5492,6.5204,-0.0536,-0.0043,-0.1197,-1.798800607720846,-0.003643874078989029,3.1152374744415283,-1.2607771158218384,8.949833714738406e-32,2.1569840908050537,3.871532126063965,7.91802303865552e-05,0.27424347400665283,-1.6729520002948206,0.0,-0.0010026951786130667,1.354654312133789,0.0,0.0008581196889281273,0.7855722308158875,-0.00021008000476285815,0.040736060589551926
155.0,227.0,5.0901,-3.1525,6.9649,-0.0446,0.0228,-0.1161,-1.7987834415831507,-0.003510099835693836,3.1725668907165527,-1.2607452869415283,2.1612795702977555e-37,2.211311101913452,3.8715125757404785,7.521008956246078e-05,0.2691745162010193,-1.6729725042926233,0.0,0.009427288547158241,1.3546937704086304,0.0,-0.0071409111842513084,0.7855601906776428,-0.00018427040777169168,-0.005318431183695793
155.0,227.0,5.0901,-3.1525,6.9649,-0.0446,0.0228,-0.1161,-1.7988606892027796,-0.003530345857143402,3.1094861030578613,-1.2607853412628174,5.2128302872883195e-43,2.1620893478393555,3.8715526300617675,7.161915709730238e-05,0.29469141364097595,-1.6730001608477991,0.0,0.006166832987219095,1.3546781539916992,0.0,-0.014588412828743458,0.7855280637741089,-0.00019691266061272472,-0.010113948956131935
155.0,227.0,5.0901,-3.1525,6.9649,-0.0446,0.0228,-0.1161,-1.7988606892027796,-0.003766410518437624,3.1692113876342773,-1.2607287168502808,-0.0,2.1966936588287354,3.871516390437744,6.835538079030812e-05,0.28824853897094727,-1.6729877630816858,0.0,0.0046647703275084496,1.3547022342681885,0.0,-0.005628278013318777,0.7855519652366638,-0.00017750980623532087,0.01668631285429001
155.0,227.0,5.0901,-3.1525,6.9649,-0.0446,0.0228,-0.1161,-1.7988511524596156,-0.00447293883189559,3.158538341522217,-1.2607126235961914,-0.0,2.1867361068725586,3.8715764719196777,6.537619628943503e-05,0.2866489589214325,-1.6729839483844202,0.0,7.516471669077873e-05,1.3546867370605469,0.0,-0.004706652835011482,0.7855280637741089,-0.00018850456399377435,0.010173967108130455
155.0,227.0,5.0901,-3.1525,6.9649,-0.0446,0.0228,-0.1161,-1.7989121876158656,-0.0040980055928230286,3.1604814529418945,-1.2607648372650146,-0.0,2.1748054027557373,3.8714839655109863,6.264579860726371e-05,0.26978373527526855,-1.6729639212237757,0.0,-0.0016342552844434977,1.3546741008758545,0.0,-0.003154415637254715,0.7855480909347534,-0.00017297727754339576,-0.06355340778827667
155.0,227.0,5.0901,-3.1525,6.9649,-0.0446,0.0228,-0.1161,-1.7989450893797816,-0.0027258889749646187,3.127959728240967,-1.260817527770996,-0.0,2.194838523864746,3.871584101314209,7.175753853516653e-05,0.2791748046875,-1.6729758421527308,0.0,0.01781478151679039,1.3547141551971436,0.0,-0.014966847375035286,0.7855320572853088,-0.00015981336764525622,-0.0011645525228232145
155.0,227.0,5.0901,-3.1525,6.9649,-0.0446,0.0228,-0.1161,-1.798936506310934,-0.001266772043891251,3.1755480766296387,-1.2607370615005493,-0.0,2.2301344871520996,3.871544523830078,7.943495438667014e-05,0.27599281072616577,-1.6730359236346644,0.0,-0.008320936933159828,1.3546979427337646,0.0,0.003883525263518095,0.7855884432792664,-0.0001485114626120776,-0.023669248446822166
155.0,227.0,5.0901,-3.1525,6.9649,-0.0446,0.0228,-0.1161,-1.7988959751524867,-0.0007429377874359488,3.1266274452209473,-1.2607451677322388,-4.5079948904458433e-05,2.195767641067505,3.871584101314209,8.66750197019428e-05,0.27360856533050537,-1.6730077902423304,0.0,0.006494299042969942,1.3547101020812988,0.0,-0.006153484806418419,0.7855522632598877,-5.5627569963689893e-05,0.0036853179335594177
155.0,227.0,5.0901,-3.1525,6.9649,-0.0446,0.0228,-0.1161,-1.7989078960814417,-0.00043814710807055235,3.1592893600463867,-1.2606769800186157,-1.69814846628924e-08,2.169057846069336,3.871579809779785,0.0031583644449710846,0.2742977738380432,-1.67303973833193,0.0,-0.01030031032860279,1.354682207107544,0.0,-0.0034763002768158913,0.7855801582336426,-1.0249949582430418e-06,-0.03734748438000679
155.0,227.0,5.0901,-3.1525,6.9649,-0.0446,0.0228,-0.1161,-1.7988721332945765,-0.0002116167452186346,3.156618118286133,-1.2606852054595947,-4.1008286989687587e-14,2.2160274982452393,3.87162367879834,0.004198084585368633,0.2703518867492676,-1.6730273405658167,0.0,0.00551220215857029,1.3547379970550537,0.0,-0.011103082448244095,0.785568118095398,-2.4752422334017865e-12,-0.004719213582575321
155.0,227.0,5.0901,-3.1525,6.9649,-0.0446,0.0228,-0.1161,-1.7988635502257289,0.00017807680706027895,3.141737461090088,-1.260672688484192,0.0006797517416998744,2.176196575164795,3.871663733119629,0.004870875272899866,0.2888951003551483,-1.6730354467975062,0.0,0.004640947561711073,1.354722023010254,0.0,0.0018081545131281018,0.7855958938598633,0.0016904682852327824,0.05949097126722336
155.0,227.0,5.0901,-3.1525,6.9649,-0.0446,0.0228,-0.1161,-1.7988559208311976,0.00021112819376867265,3.1538665294647217,-1.2607332468032837,0.0006060179439373314,2.211019992828369,3.8716956812092285,0.0058565824292600155,0.2842618525028229,-1.6731203238116663,0.0,0.016400404274463654,1.354654312133789,0.0,-0.003217054530978203,0.7856202721595764,0.002509583253413439,0.03608035296201706
155.0,227.0,5.0901,-3.1525,6.9649,-0.0446,0.0228,-0.1161,-1.7988964519896449,0.00022961794456932694,3.1877799034118652,-1.260680913925171,0.0006029054056853056,2.185382843017578,3.8717476564594726,0.006958726793527603,0.2949913442134857,-1.673096005116598,0.0,-0.009316829964518547,1.35464608669281,0.0,-0.015322800725698471,0.7856525778770447,0.003715320024639368,0.05252106115221977
155.0,227.0,5.0901,-3.1525,6.9649,-0.0446,0.0228,-0.1161,-1.7988883457579554,0.00019962238729931414,3.1336522102355957,-1.2606852054595947,0.0004691592475865036,2.1837563514709473,3.8717519479938964,0.005561950616538525,0.2795618176460266,-1.6730602423297327,0.0,-0.01760440692305565,1.3546981811523438,0.0,-0.00853672157973051,0.7856481075286865,0.004956357646733522,0.08285650610923767
155.0,227.0,5.0901,-3.1525,6.9649,-0.0446,0.0228,-0.1161,-1.7989045582213343,0.000142371078254655,3.109233856201172,-1.2606769800186157,0.00038347102236002684,2.162139415740967,3.871779604549072,0.0026901550590991974,0.2724718749523163,-1.6731002966510218,0.0,-0.011542128399014473,1.3546699285507202,0.0,0.007466096431016922,0.7856840491294861,0.0052664801478385925,0.10687071084976196
155.0,231.0,4.9149,-3.7149,6.9326,-0.0347,0.0447,-0.1255,-1.7989083729186,6.426892650779337e-05,3.1517796516418457,-1.2607698440551758,6.366687011905015e-05,2.1108949184417725,3.8717519479938964,0.00026452794554643333,0.27237313985824585,-1.67303973833193,0.0,-0.017359184101223946,1.3547141551971436,0.0,-0.012239329516887665,0.785692036151886,0.005248948000371456,0.19665175676345825
155.0,231.0,4.9149,-3.7149,6.9326,-0.0347,0.0447,-0.1255,-1.7989241085448207,4.173311418664838e-10,3.132284164428711,-1.2607327699661255,4.397265052080712e-10,2.139559268951416,3.8716956812092285,7.363232157331367e-08,0.2746002972126007,-1.6730440298663538,0.0,-0.03714147210121155,1.3546781539916992,0.0,-0.006764646619558334,0.7857483625411987,0.004161455202847719,0.1739354133605957
155.0,231.0,4.9149,-3.7149,6.9326,-0.0347,0.0447,-0.1255,-1.7989808521666468,-0.0033513871021568775,3.1092939376831055,-1.260732889175415,-0.0011460569221526384,2.159743070602417,3.871687574977539,-0.0015223855152726173,0.27528712153434753,-1.6730640570269983,0.0,-0.023885682225227356,1.3547183275222778,0.0,-0.003771252930164337,0.7857602834701538,0.0017554005607962608,0.12640389800071716
155.0,231.0,4.9149,-3.7149,6.9326,-0.0347,0.0447,-0.1255,-1.7990042171873988,-0.0071578421629965305,3.1606128215789795,-1.2607167959213257,-0.0012618053006008267,2.1535186767578125,3.8716632562824707,-0.0010572143364697695,0.27916258573532104,-1.6730316321002405,0.0,-0.024716947227716446,1.354706048965454,0.0,0.0033251671120524406,0.7857643365859985,0.0008072314667515457,0.18094304203987122
155.0,231.0,4.9149,-3.7149,6.9326,-0.0347,0.0447,-0.1255,-1.7990523777403773,-0.010875169187784195,3.1105122566223145,-1.2607851028442383,-0.0009646386024542153,2.1772122383117676,3.871704264278076,-0.0007620842079631984,0.2577136158943176,-1.6730197111712855,0.0,-0.022800952196121216,1.354730248451233,0.0,-0.013473538681864738,0.7856999039649963,-0.00019526777032297105,0.1635552942752838
155.0,231.0,4.9149,-3.7149,6.9326,-0.0347,0.0447,-0.1255,-1.7991405926146449,-0.013758745975792408,3.0304105281829834,-1.2607812881469727,-0.0006608371622860432,2.176828384399414,3.8716675478168945,-0.0005673679988831282,0.26012325286865234,-1.67303973833193,0.0,-0.013553548604249954,1.3547183275222778,0.0,-0.006579606793820858,0.7857002019882202,-0.00045917200623080134,0.15751458704471588
155.0,231.0,4.9149,-3.7149,6.9326,-0.0347,0.0447,-0.1255,-1.799236913720602,-0.015842562541365623,3.0712738037109375,-1.2608258724212646,-0.0005026110447943211,2.13564395904541,3.8717238146015625,-0.00044660447747446597,0.2717943489551544,-1.6730120817767542,0.0,-0.03091052919626236,1.3546053171157837,0.0,-0.007988279685378075,0.7857084274291992,-0.0009613445727154613,0.13732139766216278
155.0,231.0,4.9149,-3.7149,6.9326,-0.0347,0.0447,-0.1255,-1.7993294201292933,-0.016789866611361504,3.1221795082092285,-1.2607412338256836,-0.00040552980499342084,2.156217575073242,3.8717080789753417,-0.0003682449460029602,0.26514551043510437,-1.6730034987079065,0.0,-0.03728441894054413,1.3546781539916992,0.0,-0.010428313165903091,0.7857364416122437,-0.0009747205767780542,0.10286363959312439
155.0,231.0,4.9149,-3.7149,6.9326,-0.0347,0.0447,-0.1255,-1.7994290790953578,-0.01758955419063568,3.101853370666504,-1.2607452869415283,-0.000339884078130126,2.155660629272461,3.871715708369873,-0.0003132869896944612,0.2727062404155731,-1.6730120817767542,0.0,-0.02203517220914364,1.3546699285507202,0.0,-0.0032476966734975576,0.7856881618499756,-0.0005423962720669806,0.20353147387504578
155.0,231.0,4.9149,-3.7149,6.9326,-0.0347,0.0447,-0.1255,-1.7995697460570277,-0.01953364536166191,3.068209409713745,-1.2607485055923462,-0.0002925339213106781,2.147969961166382,3.871711416835449,-0.000136752802063711,0.27146121859550476,-1.6730440298663538,0.0,-0.038830023258924484,1.3546826839447021,0.0,0.015339135192334652,0.785667896270752,-0.0002619963779579848,0.1480197310447693
155.0,231.0,4.9149,-3.7149,6.9326,-0.0347,0.0447,-0.1255,-1.7997342548766078,-0.022423362359404564,3.04597806930542,-1.2607085704803467,-0.0002567633055150509,2.1507320404052734,3.871659441585205,-7.705351890763268e-05,0.2678363025188446,-1.6730683485614222,0.0,-0.027588360011577606,1.3546580076217651,0.0,0.0005701533518731594,0.7857163548469543,0.0003032686945516616,0.15167167782783508
155.0,231.0,4.9149,-3.7149,6.9326,-0.0347,0.0447,-0.1255,-1.799849649468893,-0.026140015572309494,3.064631938934326,-1.260749340057373,-0.00022878892195876688,2.093864917755127,3.8717514711567382,-6.82723184581846e-05,0.265283465385437,-1.673023525868551,0.0,-0.031911738216876984,1.354682207107544,0.0,-0.010954953730106354,0.7857081294059753,0.0014349458506330848,0.24520179629325867
155.0,231.0,4.9149,-3.7149,6.9326,-0.0347,0.0447,-0.1255,-1.8000070057311,-0.02993989735841751,3.063502788543701,-1.2607533931732178,-0.0002063110441667959,2.162870168685913,3.8717281061359863,-6.12963704043068e-05,0.27583518624305725,-1.673023525868551,0.0,-0.04722811281681061,1.3546621799468994,0.0,-0.02162073366343975,0.7857887744903564,0.0023792129941284657,0.21902984380722046
155.0,231.0,4.9149,-3.7149,6.9326,-0.0347,0.0447,-0.1255,-1.8001700840392054,-0.03233771026134491,3.0098953247070312,-1.260712742805481,-0.00018785533029586077,2.179129123687744,3.8716961580463867,-5.5614222219446674e-05,0.2507486343383789,-1.6730764547931116,0.0,-0.043990202248096466,1.35464608669281,0.0,-0.012872100807726383,0.7857924103736877,0.004060967359691858,0.23396436870098114
155.0,231.0,4.9149,-3.7149,6.9326,-0.0347,0.0447,-0.1255,-1.8004442654051722,-0.03652772679924965,3.0346322059631348,-1.2607126235961914,-0.00017243025649804622,2.09674072265625,3.8716670709797363,-5.0896298489533365e-05,0.2632681131362915,-1.673027817402975,0.0,-0.04056280106306076,1.3546981811523438,0.0,-0.003432616824284196,0.7858124375343323,0.005424137227237225,0.26134324073791504
157.0,226.0,4.1605,-3.3619,7.5757,-0.0486,0.0215,-0.1159,-1.8006154499449671,-0.03691087290644646,3.072178840637207,-1.260785460472107,-4.9132591811940074e-05,2.130666971206665,3.871711416835449,-4.69161786895711e-05,0.2634305953979492,-1.6730521360980433,0.0,-0.05500791221857071,1.3546583652496338,0.0,-0.0026017366908490658,0.7858203649520874,0.007374929264187813,0.3265940546989441
157.0,226.0,4.1605,-3.3619,7.5757,-0.0486,0.0215,-0.1159,-1.8008066616454066,-0.03978048637509346,3.004114866256714,-1.2607167959213257,-4.539590736385435e-05,2.1237740516662598,3.871715708369873,-4.351354800746776e-05,0.27350127696990967,-1.6730120817767542,0.0,-0.05826186016201973,1.3546900749206543,0.0,-0.0014777956530451775,0.7858766317367554,0.009096113033592701,0.3553283214569092
157.0,226.0,4.1605,-3.3619,7.5757,-0.0486,0.0215,-0.1159,-1.8011161289610804,-0.04116514325141907,2.967566967010498,-1.260741114616394,-4.220283153699711e-05,2.0841426849365234,3.871739550227783,-4.057106707477942e-05,0.2620082199573517,-1.672999684010641,0.0,-0.043125949800014496,1.354654312133789,0.0,0.0023329344112426043,0.785940408706665,0.01058875024318695,0.327521413564682
157.0,226.0,4.1605,-3.3619,7.5757,-0.0486,0.0215,-0.1159,-1.8013364277281703,-0.043016593903303146,3.012627124786377,-1.2607896327972412,-3.942946204915643e-05,2.1659159660339355,3.8716837602802734,-3.800144259002991e-05,0.2680612802505493,-1.6730201880084437,0.0,-0.04972633719444275,1.354662537574768,0.0,0.00011125928722321987,0.7860046029090881,0.011878265999257565,0.3753264546394348
157.0,226.0,4.1605,-3.3619,7.5757,-0.0486,0.0215,-0.1159,-1.8016535244383753,-0.043865252286195755,2.9568088054656982,-1.260769009590149,-3.6998128052800894e-05,2.1180343627929688,3.8717362123676757,-3.5737870348384604e-05,0.2630673050880432,-1.6729958693133753,0.0,-0.05166427791118622,1.3546981811523438,0.0,0.0020499054808169603,0.7861129641532898,0.012692739255726337,0.34054088592529297
157.0,226.0,4.1605,-3.3619,7.5757,-0.0486,0.0215,-0.1159,-1.8019210300841273,-0.04564971104264259,3.0136284828186035,-1.2607567310333252,-3.4849217627197504e-05,2.1136014461517334,3.8717514711567382,-3.37288438458927e-05,0.2554953694343567,-1.6730039755450647,0.0,-0.05939752981066704,1.3547183275222778,0.0,0.002780269831418991,0.7861567735671997,0.013013959862291813,0.3666380047798157
157.0,226.0,4.1605,-3.3619,7.5757,-0.0486,0.0215,-0.1159,-1.802218576470846,-0.049190931022167206,3.056037187576294,-1.2607485055923462,-3.293624467914924e-05,2.1452293395996094,3.8716675478168945,-4.789125159732066e-05,0.2559211850166321,-1.6730158964740198,0.0,-0.04312579333782196,1.3547061681747437,0.0,-0.002610796596854925,0.786268949508667,0.015344580635428429,0.32700440287590027
157.0,226.0,4.1605,-3.3619,7.5757,-0.0486,0.0215,-0.1159,-1.8025227985777796,-0.0522381067276001,2.999129056930542,-1.260777235031128,-3.1222341931425035e-05,2.108649969100952,3.8717071253010253,2.277498788316734e-05,0.25387635827064514,-1.673027817402975,0.0,-0.054189927875995636,1.3546860218048096,0.0,-0.014147257432341576,0.7863613963127136,0.015655625611543655,0.35036903619766235
157.0,226.0,4.1605,-3.3619,7.5757,-0.0486,0.0215,-0.1159,-1.802746912042135,-0.057634904980659485,2.9751148223876953,-1.260732889175415,-2.9678010832867585e-05,2.146343946456909,3.8717071253010253,2.1202291463850997e-05,0.27300605177879333,-1.672999684010641,0.0,-0.05373254418373108,1.3546216487884521,0.0,-0.014282301999628544,0.7864247560501099,0.01697155274450779,0.33315151929855347
157.0,226.0,4.1605,-3.3619,7.5757,-0.0486,0.0215,-0.1159,-1.803082128564352,-0.06286454945802689,2.996530532836914,-1.2607048749923706,-1.4703617125633173e-05,2.0585110187530518,3.8717519479938964,3.893326720572077e-05,0.26779884099960327,-1.6729958693133753,0.0,-0.04792005941271782,1.3546501398086548,0.0,-0.006082009058445692,0.7865490913391113,0.019347146153450012,0.3433552086353302
157.0,226.0,4.1605,-3.3619,7.5757,-0.0486,0.0215,-0.1159,-1.803455492059225,-0.0661884993314743,3.0237832069396973,-1.2607008218765259,-8.57413862132006e-10,2.161712884902954,3.8717147546955566,5.564651291933842e-05,0.2617194652557373,-1.6729958693133753,0.0,-0.055226270109415054,1.354690432548523,0.0,-0.008785853162407875,0.7866328954696655,0.02137344889342785,0.3639441728591919
157.0,226.0,4.1605,-3.3619,7.5757,-0.0486,0.0215,-0.1159,-1.8039332828917445,-0.06675155460834503,3.0258922576904297,-1.2607250213623047,-2.0705538283547712e-15,2.108994483947754,3.871771975154541,0.0002737367176450789,0.2662751078605652,-1.6730683485614222,0.0,-0.06539937853813171,1.3546981811523438,0.0,0.0040059806779026985,0.7867893576622009,0.023738615214824677,0.35331428050994873
157.0,226.0,4.1605,-3.3619,7.5757,-0.0486,0.0215,-0.1159,-1.8043385944762171,-0.06561679393053055,2.9851584434509277,-1.2606563568115234,0.0009982917690649629,2.1537232398986816,3.871755285854004,0.0003798116522375494,0.27014684677124023,-1.6730478445636194,0.0,-0.048678942024707794,1.3546781539916992,0.0,-0.0042546880431473255,0.7869896292686462,0.02714448794722557,0.3384750187397003
157.0,226.0,4.1605,-3.3619,7.5757,-0.0486,0.0215,-0.1159,-1.804713865319723,-0.06544175744056702,3.0103769302368164,-1.2606971263885498,0.0006848026532679796,2.1392478942871094,3.8717915254780273,0.0007904807571321726,0.2540847361087799,-1.6730039755450647,0.0,-0.05113045126199722,1.3546420335769653,0.0,-0.006580272223800421,0.7871574759483337,0.030713727697730064,0.3117848336696625
157.0,226.0,4.1605,-3.3619,7.5757,-0.0486,0.0215,-0.1159,-1.8051873646178187,-0.06882312148809433,3.012843132019043,-1.2607052326202393,0.0002424399135634303,2.164126396179199,3.8717638689228515,0.0005549514316953719,0.28158408403396606,-1.6730077902423304,0.0,-0.052918627858161926,1.3547101020812988,0.0,-0.013993175700306892,0.7873136401176453,0.034505948424339294,0.36005550622940063
155.0,227.0,4.8263,-3.3775,6.6574,-0.0396,-0.0093,-0.1153,-1.80560364345693,-0.07313858717679977,3.0174593925476074,-1.2607011795043945,0.00015260653162840754,2.11789608001709,3.871739550227783,0.0004240589332766831,0.28069156408309937,-1.6730683485614222,0.0,-0.048341646790504456,1.354694128036499,0.0,-0.0035857115872204304,0.7875297665596008,0.038061223924160004,0.39461860060691833
155.0,227.0,4.8263,-3.3775,6.6574,-0.0396,-0.0093,-0.1153,-1.8060323200621546,-0.0751141831278801,2.996011972427368,-1.2607213258743286,0.00012165532825747505,2.1312344074249268,3.871755285854004,0.00034315825905650854,0.2762836813926697,-1.6730359236346644,0.0,-0.03190905973315239,1.3546379804611206,0.0,-0.0011696172878146172,0.7878062725067139,0.040832482278347015,0.3759540319442749
155.0,227.0,4.8263,-3.3775,6.6574,-0.0396,-0.0093,-0.1153,-1.806455751458639,-0.07462315261363983,3.0043795108795166,-1.2607213258743286,0.00010114443284692243,2.1402626037597656,3.87172715246167,0.0003329114115331322,0.28233587741851807,-1.6730559507953089,0.0,-0.039161667227745056,1.3546621799468994,0.0,-0.005110192112624645,0.7880663275718689,0.04407976195216179,0.34301483631134033
155.0,227.0,4.8263,-3.3775,6.6574,-0.0396,-0.0093,-0.1153,-1.8067933521666468,-0.07329567521810532,3.0304036140441895,-1.260721206665039,9.092496475204825e-05,2.0999858379364014,3.871739073390625,0.0003037737333215773,0.2742959260940552,-1.6729877630816858,0.0,-0.05407637730240822,1.3546862602233887,0.0,-0.009966657496988773,0.7882710099220276,0.043491534888744354,0.3628300130367279
155.0,227.0,4.8263,-3.3775,6.6574,-0.0396,-0.0093,-0.1153,-1.8071819744505824,-0.07393043488264084,3.0134615898132324,-1.2606934309005737,7.895853923400864e-05,2.120370864868164,3.871711416835449,0.00026538653764873743,0.26832515001296997,-1.6729796568499964,0.0,-0.03979518637061119,1.3546580076217651,0.0,-0.007256276905536652,0.7885024547576904,0.046086907386779785,0.3596147894859314
155.0,227.0,4.8263,-3.3775,6.6574,-0.0396,-0.0093,-0.1153,-1.807657857934469,-0.07826419174671173,2.9857101440429688,-1.2606490850448608,6.977557495702058e-05,2.1731631755828857,3.871779127711914,0.0002686702355276793,0.2882498502731323,-1.6729958693133753,0.0,-0.041226305067539215,1.354682207107544,0.0,-0.010328501462936401,0.7887910604476929,0.04667006805539131,0.3242218494415283
155.0,227.0,4.8263,-3.3775,6.6574,-0.0396,-0.0093,-0.1153,-1.8081470928587855,-0.0806710347533226,3.0226030349731445,-1.2607171535491943,9.332514309789985e-05,2.1064929962158203,3.871783419246338,0.0002435310452710837,0.27186906337738037,-1.6729920546161097,0.0,-0.043706584721803665,1.354662537574768,0.0,-3.2247044146060944e-06,0.7890872359275818,0.04866211861371994,0.31173616647720337
155.0,227.0,4.8263,-3.3775,6.6574,-0.0396,-0.0093,-0.1153,-1.8086277447142542,-0.0822664201259613,3.0465450286865234,-1.2606974840164185,0.0001385166251566261,2.1783552169799805,3.871823473567627,0.0017792313592508435,0.27682894468307495,-1.6729677359210413,0.0,-0.02324787527322769,1.3546539545059204,0.0,-0.003550873603671789,0.7894073128700256,0.05115767568349838,0.32585716247558594
155.0,227.0,4.8263,-3.3775,6.6574,-0.0396,-0.0093,-0.1153,-1.809108396569723,-0.08162553608417511,3.0634987354278564,-1.2606325149536133,0.0014493056805804372,2.1730668544769287,3.87183587133374,0.0032292522955685854,0.2732502818107605,-1.6729920546161097,0.0,-0.03273758292198181,1.3546583652496338,0.0,-0.011612003669142723,0.7897197604179382,0.054332517087459564,0.2999144196510315
155.0,227.0,4.8263,-3.3775,6.6574,-0.0396,-0.0093,-0.1153,-1.8096500835814417,-0.08610574156045914,3.0235109329223633,-1.2606974840164185,0.001474319607950747,2.155721426010132,3.87186781942334,0.004521851893514395,0.280139297246933,-1.6729758421527308,0.0,-0.03814435005187988,1.3546702861785889,0.0,0.0031823404133319855,0.7900800704956055,0.05786565691232681,0.3004612326622009
155.0,227.0,4.8263,-3.3775,6.6574,-0.0396,-0.0093,-0.1153,-1.8101455173888148,-0.0900912880897522,3.0416553020477295,-1.2606974840164185,0.0013373371912166476,2.133538246154785,3.8719112116047363,0.006715476978570223,0.292949378490448,-1.6730201880084437,0.0,-0.03758248686790466,1.3547062873840332,0.0,-0.004236053675413132,0.7904201745986938,0.05775855854153633,0.31040769815444946
155.0,227.0,4.8263,-3.3775,6.6574,-0.0396,-0.0093,-0.1153,-1.8106948337950648,-0.08999995142221451,3.0236353874206543,-1.2606332302093506,0.0013216022634878755,2.198751211166382,3.87191025793042,0.009819619357585907,0.2935892343521118,-1.6729920546161097,0.0,-0.03633866459131241,1.3546416759490967,0.0,-0.019131869077682495,0.7908086180686951,0.06037237122654915,0.23902422189712524
155.0,227.0,4.8263,-3.3775,6.6574,-0.0396,-0.0093,-0.1153,-1.8112641773619593,-0.08780553191900253,3.074071168899536,-1.260613203048706,0.0011865022825077176,2.1620728969573975,3.8720833498188476,0.012694369070231915,0.3075181245803833,-1.6729758421527308,0.0,-0.040306322276592255,1.3547102212905884,0.0,-0.014896548353135586,0.7911447882652283,0.06284911930561066,0.26656821370124817
155.0,227.0,4.8263,-3.3775,6.6574,-0.0396,-0.0093,-0.1153,-1.8118006191649378,-0.08213694393634796,3.0360379219055176,-1.2606858015060425,0.0008697657031007111,2.1868293285369873,3.872110529536865,0.01539597287774086,0.306456059217453,-1.6730082670794886,0.0,-0.03173084184527397,1.3546743392944336,0.0,0.0024909554049372673,0.7916093468666077,0.06696277856826782,0.27068111300468445
155.0,227.0,4.8263,-3.3775,6.6574,-0.0396,-0.0093,-0.1153,-1.8123299084105433,-0.07755918055772781,3.084688186645508,-1.260653018951416,0.0005597026902250946,2.2069945335388184,3.87220208227124,0.017657961696386337,0.2909349799156189,-1.673027817402975,0.0,-0.0267342459410429,1.3546781539916992,0.0,-0.002903179032728076,0.7920055389404297,0.07221740484237671,0.2552993595600128
149.0,222.0,4.4686,-3.2698,6.9075,-0.0348,-0.037,-0.0826,-1.8128262958922328,-0.0806722566485405,3.001863479614258,-1.260717511177063,9.873811904981267e-06,2.177741527557373,3.87228171407666,0.01990504562854767,0.3067029118537903,-1.6729796568499964,0.0,-0.02822037786245346,1.3546900749206543,0.0,-0.012650366872549057,0.7924780249595642,0.07484104484319687,0.2413768768310547
149.0,222.0,4.4686,-3.2698,6.9075,-0.0348,-0.037,-0.0826,-1.8133307896056117,-0.08673432469367981,3.080477714538574,-1.2606613636016846,2.3844093366420793e-11,2.162684202194214,3.8723813730427246,0.022590432316064835,0.3045172691345215,-1.6730201880084437,0.0,-0.028211284428834915,1.3546862602233887,0.0,-0.004351830575615168,0.7929425239562988,0.07521826773881912,0.21453092992305756
149.0,222.0,4.4686,-3.2698,6.9075,-0.0348,-0.037,-0.0826,-1.8138233623900355,-0.09689786285161972,3.0408949851989746,-1.2606209516525269,5.75806777145267e-17,2.169768810272217,3.8725167947956542,0.02805626206099987,0.3087138533592224,-1.6729558149920862,0.0,-0.015916507691144943,1.3546626567840576,0.0,0.003705407027155161,0.7934029698371887,0.07228247821331024,0.26866188645362854
149.0,222.0,4.4686,-3.2698,6.9075,-0.0348,-0.037,-0.0826,-1.8144246540465296,-0.10307280719280243,3.048190116882324,-1.2606369256973267,0.0003180241910740733,2.2053496837615967,3.8728086191364746,0.04009474813938141,0.29776522517204285,-1.6729758421527308,0.0,-0.014472144655883312,1.3546862602233887,0.0,-0.010590209625661373,0.7937788963317871,0.066789411008358,0.22225260734558105
149.0,222.0,4.4686,-3.2698,6.9075,-0.0348,-0.037,-0.0826,-1.8150178394713343,-0.10178209096193314,3.0542068481445312,-1.26064932346344,0.002726479899138212,2.1486124992370605,3.873115225429199,0.06008439138531685,0.3157910406589508,-1.6729639212237757,0.0,-0.03117898851633072,1.3546662330627441,0.0,-0.0008396776393055916,0.7941470146179199,0.06102105975151062,0.19678881764411926
149.0,222.0,4.4686,-3.2698,6.9075,-0.0348,-0.037,-0.0826,-1.8156100712218226,-0.10099601000547409,3.0356273651123047,-1.260521411895752,0.0052435798570513725,2.1602213382720947,3.8736187654682617,0.08317579329013824,0.331878662109375,-1.6730316321002405,0.0,-0.02632046490907669,1.3546257019042969,0.0,0.005818534176796675,0.7945834398269653,0.06015779450535774,0.21101364493370056
149.0,222.0,4.4686,-3.2698,6.9075,-0.0348,-0.037,-0.0826,-1.816259046594137,-0.09874081611633301,3.0521998405456543,-1.2605494260787964,0.006441719830036163,2.191319465637207,3.8740603166767578,0.09762731939554214,0.34315401315689087,-1.6730640570269983,0.0,-0.027362041175365448,1.354626178741455,0.0,-0.005659460090100765,0.7949759364128113,0.062309108674526215,0.24566370248794556
149.0,222.0,4.4686,-3.2698,6.9075,-0.0348,-0.037,-0.0826,-1.8169332943358363,-0.09493856132030487,3.067157745361328,-1.260501742362976,0.0068709105253219604,2.1563785076141357,3.8746864038654785,0.09966893494129181,0.34552228450775146,-1.672971550618307,0.0,-0.04969596117734909,1.3546903133392334,0.0,-0.011819777078926563,0.7953524589538574,0.06522832810878754,0.2752678394317627
149.0,222.0,4.4686,-3.2698,6.9075,-0.0348,-0.037,-0.0826,-1.8174520931639613,-0.08938691020011902,3.02063250541687,-1.2604374885559082,0.006470998749136925,2.2231786251068115,3.87519280492749,0.08078984171152115,0.3405820429325104,-1.6729877630816858,0.0,-0.04760181903839111,1.354730248451233,0.0,-0.013228747993707657,0.7957363128662109,0.06694402545690536,0.19411474466323853
149.0,222.0,4.4686,-3.2698,6.9075,-0.0348,-0.037,-0.0826,-1.8180819950499476,-0.09196244925260544,3.056121587753296,-1.2604539394378662,0.002659951103851199,2.14694881439209,3.87559096395459,0.05305321514606476,0.3283179998397827,-1.673028294240133,0.0,-0.0407620370388031,1.3546907901763916,0.0,-0.002355491276830435,0.7961774468421936,0.0680268183350563,0.28848639130592346
149.0,222.0,4.4686,-3.2698,6.9075,-0.0348,-0.037,-0.0826,-1.8186184368529261,-0.09629408270120621,3.016122817993164,-1.2605098485946655,0.0006030456279404461,2.17203426361084,3.875793142909668,0.03014696203172207,0.3217553496360779,-1.6729920546161097,0.0,-0.0415743924677372,1.3546743392944336,0.0,-0.0053166914731264114,0.7965652942657471,0.07213835418224335,0.2840324640274048
149.0,222.0,4.4686,-3.2698,6.9075,-0.0348,-0.037,-0.0826,-1.819191118279928,-0.10012105107307434,3.0397086143493652,-1.2604897022247314,-0.000558264902792871,2.1738295555114746,3.8759218889423828,0.012739578261971474,0.30365610122680664,-1.672999684010641,0.0,-0.03898094967007637,1.3546175956726074,0.0,-0.012333611026406288,0.7968968749046326,0.07607405632734299,0.3069459795951843
149.0,222.0,4.4686,-3.2698,6.9075,-0.0348,-0.037,-0.0826,-1.8197561703123988,-0.0975278913974762,3.003765106201172,-1.260457158088684,-0.0003254965413361788,2.1501126289367676,3.875929041499756,0.0026722559705376625,0.31139230728149414,-1.6729920546161097,0.0,-0.03247576579451561,1.3546459674835205,0.0,0.0005719732725992799,0.7973935008049011,0.08025528490543365,0.2807864546775818
149.0,222.0,4.4686,-3.2698,6.9075,-0.0348,-0.037,-0.0826,-1.8203174076476039,-0.0998363047838211,2.9619603157043457,-1.2604498863220215,-7.117839118109259e-08,2.117098331451416,3.8759333330341796,-0.0033041678834706545,0.28646156191825867,-1.6729963461505335,0.0,-0.02923998236656189,1.3546180725097656,0.0,-0.0003481997409835458,0.7978460192680359,0.0822317972779274,0.27245795726776123
149.0,222.0,4.4686,-3.2698,6.9075,-0.0348,-0.037,-0.0826,-1.820885797540182,-0.10129328072071075,3.0047550201416016,-1.2603939771652222,-1.718874608619414e-13,2.0723278522491455,3.8759614664265136,-0.001048408099450171,0.28048962354660034,-1.67296010652651,0.0,-0.026757288724184036,1.3546380996704102,0.0,-0.02258153259754181,0.798370361328125,0.08169625699520111,0.2811875641345978
149.0,222.0,4.4686,-3.2698,6.9075,-0.0348,-0.037,-0.0826,-1.8214746914305628,-0.09977053850889206,2.9712867736816406,-1.2603981494903564,0.0023894605692476034,2.18375301361084,3.875952883357666,0.0007642774726264179,0.2953563928604126,-1.6729920546161097,0.0,-0.03681665286421776,1.3546421527862549,0.0,-0.009983394294977188,0.7989033460617065,0.07532460987567902,0.28452062606811523
142.0,227.0,5.3049,-2.9701,6.9362,-0.0483,-0.0362,-0.064,-1.8220511875548304,-0.09703681617975235,2.9655189514160156,-1.2603857517242432,0.0036183360498398542,2.0983355045318604,3.875985308284424,0.0012569613754749298,0.2938910722732544,-1.6729720274554651,0.0,-0.02388938143849373,1.3546257019042969,0.0,-0.01504870131611824,0.7992709875106812,0.06815589219331741,0.2552708685398102
142.0,227.0,5.3049,-2.9701,6.9362,-0.0483,-0.0362,-0.064,-1.822639604608053,-0.09334095567464828,2.991826295852661,-1.260421872138977,0.0030357541982084513,2.10829496383667,3.8759566980549316,0.001009994768537581,0.3047995865345001,-1.6729558149920862,0.0,-0.03098953887820244,1.354626178741455,0.0,-0.015413275919854641,0.7997477650642395,0.06485871225595474,0.27606236934661865
142.0,227.0,5.3049,-2.9701,6.9362,-0.0483,-0.0362,-0.064,-1.8232575855650843,-0.08964832127094269,3.018192768096924,-1.2603617906570435,0.002053627511486411,2.1764845848083496,3.8759934145161132,0.0007605390273965895,0.2962421178817749,-1.6729920546161097,0.0,-0.03313333913683891,1.354626178741455,0.0,-0.03481940180063248,0.8000757694244385,0.06372732669115067,0.23453396558761597
142.0,227.0,5.3049,-2.9701,6.9362,-0.0483,-0.0362,-0.064,-1.8238221607603968,-0.09165481477975845,2.969170570373535,-1.2603700160980225,0.0010476764291524887,2.1417839527130127,3.8759371477314453,0.00040236476343125105,0.2939138412475586,-1.67296010652651,0.0,-0.02493368089199066,1.3546340465545654,0.0,-0.019253410398960114,0.8004758954048157,0.06440760940313339,0.3256363570690155
142.0,227.0,5.3049,-2.9701,6.9362,-0.0483,-0.0362,-0.064,-1.8243876896300257,-0.09500246495008469,2.954836368560791,-1.260378360748291,0.00024192477576434612,2.131115198135376,3.8759376245686035,0.0001681561698205769,0.30477309226989746,-1.6729920546161097,0.0,-0.03434641659259796,1.3546299934387207,0.0,-0.028048649430274963,0.8008844256401062,0.06397122889757156,0.28586888313293457
142.0,227.0,5.3049,-2.9701,6.9362,-0.0483,-0.0362,-0.064,-1.824984689752096,-0.09600594639778137,2.9913692474365234,-1.260398030281067,0.00017236782878171653,2.121245861053467,3.8759729105183105,6.597154424525797e-05,0.29771119356155396,-1.6729920546161097,0.0,-0.042748987674713135,1.3546380996704102,0.0,-0.029170216992497444,0.8012208342552185,0.062468964606523514,0.3212687075138092
142.0,227.0,5.3049,-2.9701,6.9362,-0.0483,-0.0362,-0.064,-1.8254558048644007,-0.09937170892953873,2.9088687896728516,-1.2603297233581543,0.00025960791390389204,2.1170122623443604,3.8759171205708007,5.3853265853831545e-05,0.28784579038619995,-1.6730158964740198,0.0,-0.040329236537218094,1.354602336883545,2.2960887235967675e-07,-0.030216913670301437,0.8015407919883728,0.05954650044441223,0.27772918343544006
142.0,227.0,5.3049,-2.9701,6.9362,-0.0483,-0.0362,-0.064,-1.825968404809469,-0.09641124308109283,2.935633659362793,-1.2603421211242676,0.00189372175373137,2.1297006607055664,3.875976725215576,9.12522737053223e-05,0.2924386262893677,-1.6730082670794886,0.0,-0.041683971881866455,1.3545947074890137,6.391247253656474e-11,-0.021805288270115852,0.8019093871116638,0.05867741256952286,0.28916066884994507
142.0,227.0,5.3049,-2.9701,6.9362,-0.0483,-0.0362,-0.064,-1.8265696964659632,-0.0929889902472496,2.922579765319824,-1.2603219747543335,0.004674032796174288,2.0937418937683105,3.8759490686604003,7.924598321551457e-05,0.28823620080947876,-1.6729920546161097,0.0,-0.04068075120449066,1.3545904159545898,1.779027026063175e-14,-0.03798668831586838,0.8022699952125549,0.05973667651414871,0.2959180474281311
142.0,227.0,5.3049,-2.9701,6.9362,-0.0483,-0.0362,-0.064,-1.8269301853575648,-0.08934841305017471,2.944366455078125,-1.2602986097335815,0.0059481775388121605,2.1037802696228027,3.8759729105183105,0.00010860062320716679,0.2892022728919983,-1.6730001608477991,0.0,-0.042159028351306915,1.3546708822250366,7.584271467477431e-17,-0.027470720931887627,0.8024977445602417,0.06344644725322723,0.2801245152950287
142.0,227.0,5.3049,-2.9701,6.9362,-0.0483,-0.0362,-0.064,-1.8274713955321253,-0.08487521857023239,2.924250602722168,-1.260254144668579,0.007128369063138962,2.160597085952759,3.875997706050537,9.975435386877507e-05,0.30438676476478577,-1.6729801336871546,0.0,-0.03647046163678169,1.3546421527862549,2.1111096798425234e-20,-0.03132699802517891,0.8028862476348877,0.06701840460300446,0.27260980010032654
142.0,227.0,5.3049,-2.9701,6.9362,-0.0483,-0.0362,-0.064,-1.827968259850973,-0.0800950825214386,2.9716105461120605,-1.2601780891418457,0.006675900891423225,2.0997729301452637,3.8759891229816894,0.0001527309650555253,0.2934325635433197,-1.6729801336871546,0.0,-0.02737107127904892,1.3546463251113892,5.87635228402751e-24,-0.04282047599554062,0.8032625317573547,0.06626880168914795,0.27361518144607544
142.0,227.0,5.3049,-2.9701,6.9362,-0.0483,-0.0362,-0.064,-1.8283711872496546,-0.08504612743854523,2.960503101348877,-1.2601866722106934,0.004344566259533167,2.1354172229766846,3.875964804286621,0.00017080840189009905,0.2831965684890747,-1.6729562918292444,0.0,-0.0374213308095932,1.3546302318572998,1.635704435126729e-27,-0.03968872129917145,0.8035941123962402,0.06387323141098022,0.25076597929000854
142.0,227.0,5.3049,-2.9701,6.9362,-0.0483,-0.0362,-0.064,-1.8289452991881312,-0.08765605092048645,2.966416835784912,-1.260218858718872,0.002484772354364395,2.114499568939209,3.87598101675,0.00015430463827215135,0.29413333535194397,-1.672931973134176,0.0,-0.02542390301823616,1.3546302318572998,4.553043679633187e-31,-0.04443735629320145,0.8039907813072205,0.05802080035209656,0.2303028702735901
142.0,227.0,5.3049,-2.9701,6.9362,-0.0483,-0.0362,-0.064,-1.829437871972555,-0.08486338704824448,2.978421688079834,-1.2601463794708252,0.0015556979924440384,2.1336216926574707,3.875985308284424,0.00042879462125711143,0.2861378490924835,-1.672976318989889,-8.115958571863757e-09,-0.022729553282260895,1.3546020984649658,1.2673563644797943e-34,-0.037948861718177795,0.8043793439865112,0.051693134009838104,0.2467886358499527
141.0,231.0,5.2696,-3.1543,6.8363,-0.0418,-0.0211,-0.0748,-1.8299390278258265,-0.07994326949119568,2.9387145042419434,-1.260190725326538,0.0021282867528498173,2.1471943855285645,3.876049204463623,0.0013680779375135899,0.300676554441452,-1.6729844252215784,-2.25910696399767e-12,-0.010389000177383423,1.3545942306518555,3.527731889658269e-38,-0.03266296535730362,0.8046313524246216,0.045648809522390366,0.17045795917510986
141.0,231.0,5.2696,-3.1543,6.8363,-0.0418,-0.0211,-0.0748,-1.830362936059469,-0.07497620582580566,2.969999074935913,-1.2601265907287598,0.004076856654137373,2.13139271736145,3.8760854440876464,0.0042004212737083435,0.306109756231308,-1.6729520002948206,-6.288306955362514e-16,-0.02043982408940792,1.3546340465545654,9.818898339523993e-42,-0.02551930584013462,0.8048913478851318,0.04327907785773277,0.18466435372829437
141.0,231.0,5.2696,-3.1543,6.8363,-0.0418,-0.0211,-0.0748,-1.8307744465269984,-0.06977391242980957,2.9493906497955322,-1.2600862979888916,0.006215936504304409,2.165621757507324,3.87610833227124,0.008609823882579803,0.30633416771888733,-1.6729801336871546,-1.7503733712747924e-19,-0.03644537180662155,1.3546142578125,2.802596928649634e-45,-0.05178719758987427,0.805111289024353,0.039800975471735,0.2113306224346161
141.0,231.0,5.2696,-3.1543,6.8363,-0.0418,-0.0211,-0.0748,-1.8312527141966761,-0.06739558279514313,3.017422676086426,-1.2601191997528076,0.006679798476397991,2.1151697635650635,3.876180811519287,0.014067314565181732,0.3005932569503784,-1.672948185597555,-4.8722283560533275e-23,-0.03387504816055298,1.3546582460403442,0.0,-0.04084181785583496,0.8053756952285767,0.03964779153466225,0.170728862285614
141.0,231.0,5.2696,-3.1543,6.8363,-0.0418,-0.0211,-0.0748,-1.83168425182485,-0.0704571083188057,2.9748873710632324,-1.260042667388916,0.007051447872072458,2.1139752864837646,3.876260443324707,0.023681966587901115,0.31031885743141174,-1.6729877630816858,-1.3562028889825593e-26,-0.03166184201836586,1.3546180725097656,0.0,-0.03599525988101959,0.8056480884552002,0.03684906288981438,0.20020230114459991
141.0,231.0,5.2696,-3.1543,6.8363,-0.0418,-0.0211,-0.0748,-1.832073827783102,-0.07282606512308121,2.992079496383667,-1.2599670886993408,0.007178494241088629,2.1451902389526367,3.876459761256836,0.0376729853451252,0.3099183440208435,-1.6730321089373987,-3.775040862750495e-30,-0.022851012647151947,1.3546020984649658,0.0,-0.05155806243419647,0.8058522939682007,0.03390006348490715,0.2131328582763672
141.0,231.0,5.2696,-3.1543,6.8363,-0.0418,-0.0211,-0.0748,-1.8324738941588343,-0.07132865488529205,2.878058910369873,-1.2599316835403442,0.00807085633277893,2.1404144763946533,3.87675063192334,0.058217450976371765,0.3224554657936096,-1.6729639212237757,-1.0507964407191207e-33,-0.030330896377563477,1.3546340465545654,0.0,-0.042422376573085785,0.8060120940208435,0.02935616858303547,0.1954711675643921
141.0,231.0,5.2696,-3.1543,6.8363,-0.0418,-0.0211,-0.0748,-1.8329278431334437,-0.06628219038248062,3.0253546237945557,-1.2598909139633179,0.007899368181824684,2.1569793224334717,3.877185507411621,0.08202031254768372,0.33477336168289185,-1.6729682127581995,-2.9249309572084535e-37,-0.026949994266033173,1.3546223640441895,0.0,-0.039114128798246384,0.806164026260376,0.025736523792147636,0.21553128957748413
