ramyac6/ROB537/final_project/csv/good/good_225.csv
tof_0,tof_1,accelx,accely,accelz,gyrox,gyroy,gyroz,shoulder_lift_joint_position,shoulder_lift_joint_velocity,shoulder_lift_joint_effort,elbow_joint_position,elbow_joint_velocity,elbow_joint_effort,wrist_1_joint_position,wrist_1_joint_velocity,wrist_1_joint_effort,wrist_2_joint_position,wrist_2_joint_velocity,wrist_2_joint_effort,wrist_3_joint_position,wrist_3_joint_velocity,wrist_3_joint_effort,shoulder_pan_joint_position,shoulder_pan_joint_velocity,shoulder_pan_joint_effort
173.0,206.0,-0.7167,0.7908,9.7083,-0.0258,0.0254,-0.1129,-2.1415325603880824,0.0,4.445006847381592,-1.294231653213501,-0.0,2.1215734481811523,4.955492961197653,-5.384563554760132e-34,0.27798235416412354,-1.6312153975116175,0.0,-0.006856159772723913,0.2765442132949829,0.0,-0.008603891357779503,1.3562721014022827,0.0,0.013149778358638287
173.0,206.0,-0.7167,0.7908,9.7083,-0.0258,0.0254,-0.1129,-2.141560216943258,0.0,4.412621021270752,-1.294187307357788,-0.0,2.1403253078460693,4.955437037139692,-2.295524008021624e-36,0.2753978371620178,-1.6312554518329065,0.0,-0.018473384901881218,0.27656471729278564,0.0,-0.0015887115150690079,1.3563040494918823,0.0,0.02199527435004711
173.0,206.0,-0.7167,0.7908,9.7083,-0.0258,0.0254,-0.1129,-2.1415444813170375,0.0,4.422691345214844,-1.2942479848861694,-0.0,2.0905797481536865,4.955505090742864,-6.389682776582231e-40,0.27009451389312744,-1.631251637135641,0.0,0.00871563982218504,0.2765282392501831,0.0,-0.008793619461357594,1.356287956237793,0.0,0.01386135071516037
173.0,206.0,-0.7167,0.7908,9.7083,-0.0258,0.0254,-0.1129,-2.141508241693014,0.0,4.401577949523926,-1.2942360639572144,-0.0,2.0979485511779785,4.955529349833288,-1.7796490496925177e-43,0.26879367232322693,-1.631195370350973,0.0,-0.0025724475271999836,0.2765565514564514,0.0,-0.002286359667778015,1.356268048286438,0.0,0.034886233508586884
173.0,206.0,-0.7167,0.7908,9.7083,-0.0258,0.0254,-0.1129,-2.141564031640524,0.0,4.398743152618408,-1.2941995859146118,-0.0,2.0650904178619385,4.955468731909551,-0.0,0.2752503752708435,-1.631223503743307,0.0,-0.00425663311034441,0.2765769958496094,0.0,-0.002459094161167741,1.356287956237793,0.0,0.004462883807718754
173.0,206.0,-0.7167,0.7908,9.7083,-0.0258,0.0254,-0.1129,-2.141532083550924,0.0,4.457402229309082,-1.2942076921463013,-0.0,2.1012954711914062,4.95548107007102,-0.0,0.2712027132511139,-1.6312153975116175,0.0,-0.01024903915822506,0.27656829357147217,0.0,-0.012800820171833038,1.3562841415405273,0.0,-0.005523281171917915
173.0,206.0,-0.7167,0.7908,9.7083,-0.0258,0.0254,-0.1129,-2.1415401897826136,0.0,4.475926399230957,-1.2941752672195435,-0.0,2.045022964477539,4.9554806528385065,-0.0,0.2765328586101532,-1.6312034765826624,0.0,0.0016297062393277884,0.2765565514564514,0.0,0.004835858475416899,1.3563039302825928,0.0,0.006079542450606823
173.0,206.0,-0.7167,0.7908,9.7083,-0.0258,0.0254,-0.1129,-2.1415521107115687,0.0,4.402026653289795,-1.2942557334899902,-0.0,2.082127571105957,4.95549704411582,-0.0,0.28399819135665894,-1.6311910788165491,0.0,-0.0013788864016532898,0.27656468749046326,0.0,-0.003990324214100838,1.3563120365142822,0.0,-0.0038176875095814466
175.0,205.0,-0.9326,0.6532,10.0343,-0.0334,0.0212,-0.11,-2.1415564022459925,0.0,4.446298122406006,-1.2942397594451904,-0.0,2.0930063724517822,4.955472799926557,-0.0,0.27549511194229126,-1.631251637135641,0.0,0.002392125315964222,0.27658072113990784,0.0,-7.221836131066084e-05,1.3562800884246826,0.0,-0.015931950882077217
175.0,205.0,-0.9326,0.6532,10.0343,-0.0334,0.0212,-0.11,-2.141576429406637,0.0,4.449116230010986,-1.294268012046814,-0.0,2.095496654510498,4.9554574368293665,-0.0,0.2673923075199127,-1.631195370350973,0.0,-0.0031154463067650795,0.27656880021095276,0.0,-0.010846435092389584,1.3562960624694824,0.0,0.02460862696170807
175.0,205.0,-0.9326,0.6532,10.0343,-0.0334,0.0212,-0.11,-2.1415001354613246,0.0,4.4310760498046875,-1.294219732284546,-0.0,2.1115057468414307,4.955485108285703,-0.0,0.27150434255599976,-1.6312111059771937,0.0,-0.00531381368637085,0.27658072113990784,0.0,-0.005100296810269356,1.356307864189148,0.0,0.020007114857435226
175.0,205.0,-0.9326,0.6532,10.0343,-0.0334,0.0212,-0.11,-2.1415683231749476,0.0,4.4430108070373535,-1.2942156791687012,-0.0,2.0843887329101562,4.955484720855512,-0.0,0.26549696922302246,-1.6312320868121546,0.0,0.006538674235343933,0.27648812532424927,0.0,-0.006394975818693638,1.3562920093536377,0.0,-0.027832990512251854
175.0,205.0,-0.9326,0.6532,10.0343,-0.0334,0.0212,-0.11,-2.1415564022459925,0.0,4.395604133605957,-1.2942357063293457,-0.0,2.0855562686920166,4.9554810402686975,-0.0,0.27274957299232483,-1.631179157887594,0.0,-0.005922597832977772,0.27656054496765137,0.0,-0.0012544980272650719,1.356259822845459,0.0,-0.02142186276614666
175.0,205.0,-0.9326,0.6532,10.0343,-0.0334,0.0212,-0.11,-2.141560216943258,0.0,4.40218448638916,-1.2941954135894775,-0.0,2.0927228927612305,4.955505105644026,-0.0,0.2773319482803345,-1.631207291279928,0.0,-0.007663808297365904,0.27656471729278564,0.0,-0.007767913863062859,1.3562320470809937,0.0,0.0029973085038363934
175.0,205.0,-0.9326,0.6532,10.0343,-0.0334,0.0212,-0.11,-2.141548296014303,0.0,4.4474568367004395,-1.2942036390304565,-0.0,2.135158061981201,4.955492961197653,-0.0,0.2703188359737396,-1.6312430540667933,0.0,-0.006259465590119362,0.2765364646911621,0.0,-0.008544355630874634,1.3563278913497925,0.0,0.03586415573954582
175.0,205.0,-0.9326,0.6532,10.0343,-0.0334,0.0212,-0.11,-2.141508241693014,0.0,4.425658702850342,-1.2942036390304565,-0.0,2.094668388366699,4.955492976098814,-0.0,0.27953457832336426,-1.6312430540667933,0.0,-0.003323131939396262,0.2765359580516815,0.0,-0.003877811599522829,1.3563319444656372,0.0,0.01666318066418171
175.0,205.0,-0.9326,0.6532,10.0343,-0.0334,0.0212,-0.11,-2.141560216943258,0.0,4.3986382484436035,-1.2942237854003906,-0.0,2.113783836364746,4.955452757864752,-0.0,0.26480090618133545,-1.6312320868121546,0.0,-0.005561958998441696,0.27655646204948425,0.0,0.0076111843809485435,1.3562517166137695,0.0,0.00657299067825079
175.0,205.0,-0.9326,0.6532,10.0343,-0.0334,0.0212,-0.11,-2.14153589824819,0.0,4.449276924133301,-1.2941912412643433,-0.0,2.0968048572540283,4.955449360399999,-0.0,0.28126174211502075,-1.6312359015094202,0.0,-0.011604300700128078,0.2765282392501831,0.0,0.0011171008227393031,1.3562638759613037,0.0,-0.019386257976293564
175.0,205.0,-0.9326,0.6532,10.0343,-0.0334,0.0212,-0.11,-2.1415239773192347,0.0,4.4562811851501465,-1.2942036390304565,-0.0,2.0811848640441895,4.9554810402686975,-0.0,0.28345343470573425,-1.6312239805804651,0.0,0.00966833345592022,0.2765483856201172,0.0,0.007031116634607315,1.356299877166748,0.0,0.026904132217168808
175.0,205.0,-0.9326,0.6532,10.0343,-0.0334,0.0212,-0.11,-2.1415325603880824,0.0,4.467120170593262,-1.2942798137664795,-0.0,2.070436477661133,4.9554568258817575,-0.0,0.27473148703575134,-1.6312196890460413,0.0,-0.01840406283736229,0.27656060457229614,0.0,0.013033753260970116,1.356287956237793,0.0,0.0002180752344429493
175.0,205.0,-0.9326,0.6532,10.0343,-0.0334,0.0212,-0.11,-2.141560216943258,0.0,4.4659552574157715,-1.2941995859146118,-0.0,2.1098220348358154,4.955433043628492,-0.0,0.27499526739120483,-1.6312359015094202,0.0,-0.0004701699363067746,0.27654463052749634,0.0,0.01351555809378624,1.3562719821929932,0.0,0.02160421572625637
175.0,205.0,-0.9326,0.6532,10.0343,-0.0334,0.0212,-0.11,-2.1415120563902796,0.0,4.447279453277588,-1.2942078113555908,-0.0,2.0923454761505127,4.955468731909551,-0.0,0.2764062285423279,-1.6311910788165491,0.0,-0.005936560221016407,0.2765204608440399,0.0,0.011011764407157898,1.356307864189148,0.0,0.02343512885272503
175.0,205.0,-0.9326,0.6532,10.0343,-0.0334,0.0212,-0.11,-2.1415721378722132,0.0,4.391698837280273,-1.2942237854003906,-0.0,2.1342742443084717,4.955424818187513,-0.0,0.26230567693710327,-1.631195370350973,0.0,0.0043509905226528645,0.27656877040863037,0.0,0.0018890493083745241,1.356276035308838,0.0,-0.004669005982577801
175.0,205.0,-0.7561,0.7376,9.7286,-0.0327,0.0237,-0.1126,-2.1415282688536585,0.0,4.422522068023682,-1.294183373451233,-0.0,2.1417016983032227,4.955472799926557,-0.0,0.2820294499397278,-1.631167236958639,0.0,-0.01718616485595703,0.2765364646911621,0.0,0.006258196663111448,1.356276035308838,0.0,0.057386837899684906
175.0,205.0,-0.7561,0.7376,9.7286,-0.0327,0.0237,-0.1126,-2.1415401897826136,0.0,4.464469909667969,-1.2942397594451904,-0.0,2.0906176567077637,4.955449360399999,-0.0,0.26951566338539124,-1.631240193043844,0.0,-0.006856467574834824,0.2765524685382843,0.0,0.0043732281774282455,1.3562519550323486,0.0,-0.012894682586193085
175.0,205.0,-0.7561,0.7376,9.7286,-0.0327,0.0237,-0.1126,-2.1415444813170375,0.0,4.434632301330566,-1.2942237854003906,-0.0,2.1206750869750977,4.955481025367536,-0.0,0.26571112871170044,-1.6312554518329065,0.0,0.00345934578217566,0.2765483558177948,0.0,-0.01680905930697918,1.356276035308838,0.0,0.006264719180762768
175.0,205.0,-0.7561,0.7376,9.7286,-0.0327,0.0237,-0.1126,-2.141508241693014,0.0,4.424866199493408,-1.2942036390304565,-0.0,2.1159467697143555,4.955513360887327,-0.0,0.2632468640804291,-1.6312111059771937,0.0,0.0015019618440419436,0.27655228972435,0.0,-0.029200032353401184,1.356287956237793,0.0,0.005135557148605585
175.0,205.0,-0.7561,0.7376,9.7286,-0.0327,0.0237,-0.1126,-2.1415239773192347,0.0,4.426380634307861,-1.2942479848861694,-0.0,2.048966884613037,4.955488818674841,-0.0,0.28277093172073364,-1.6312359015094202,0.0,-0.011552859097719193,0.2765483856201172,0.0,-0.002499244175851345,1.3562639951705933,0.0,0.010000394657254219
175.0,205.0,-0.7561,0.7376,9.7286,-0.0327,0.0237,-0.1126,-2.141532083550924,0.0,4.424233436584473,-1.2942036390304565,-0.0,2.0677385330200195,4.955513390689649,-0.0,0.25934699177742004,-1.6311991850482386,0.0,0.010195472277700901,0.27660882472991943,0.0,-0.000786064425483346,1.3562839031219482,0.0,-0.0010089059360325336
175.0,205.0,-0.7561,0.7376,9.7286,-0.0327,0.0237,-0.1126,-2.1415001354613246,0.0,4.431450843811035,-1.2942156791687012,-0.0,2.1227753162384033,4.9555211690957925,-0.0,0.2713721990585327,-1.6311715284930628,0.0,-0.006036256905645132,0.2765241265296936,0.0,0.0005003559635952115,1.3562120199203491,0.0,-0.025063320994377136
175.0,205.0,-0.7561,0.7376,9.7286,-0.0327,0.0237,-0.1126,-2.141564508477682,0.0,4.425018787384033,-1.2941792011260986,-0.0,2.115298271179199,4.955465036421575,-0.0,0.2787419259548187,-1.6312196890460413,0.0,-0.005862280260771513,0.27659696340560913,0.0,0.00254529039375484,1.3562719821929932,0.0,-0.003726593218743801
175.0,205.0,-0.7561,0.7376,9.7286,-0.0327,0.0237,-0.1126,-2.1415120563902796,0.0,4.399100303649902,-1.2942357063293457,-0.0,2.1219329833984375,4.9555134800966165,-0.0,0.2829006314277649,-1.6311872641192835,0.0,-0.003335912013426423,0.27658113837242126,0.0,-0.0017014648765325546,1.3562841415405273,0.0,0.011711389757692814
175.0,205.0,-0.7561,0.7376,9.7286,-0.0327,0.0237,-0.1126,-2.1415158710875453,0.0,4.441417217254639,-1.2942557334899902,-0.0,2.0997419357299805,4.955484735756674,-0.0,0.2750125825405121,-1.6312430540667933,0.0,-0.012711084447801113,0.2765524685382843,0.0,0.009289097040891647,1.3562719821929932,0.0,0.006491544656455517
175.0,205.0,-0.7561,0.7376,9.7286,-0.0327,0.0237,-0.1126,-2.1415325603880824,0.0,4.431344509124756,-1.2942758798599243,-0.0,2.108242988586426,4.955472799926557,-0.0,0.26864054799079895,-1.6312359015094202,0.0,-0.0007442746427841485,0.2765163779258728,0.0,-0.004986377898603678,1.3562438488006592,0.0,-0.01953163370490074
175.0,205.0,-0.7561,0.7376,9.7286,-0.0327,0.0237,-0.1126,-2.1415158710875453,0.0,4.439427852630615,-1.294219732284546,-0.0,2.0983920097351074,4.955472785025396,-0.0,0.2712762951850891,-1.6311991850482386,0.0,-0.005593561567366123,0.2765401005744934,0.0,0.0002629370428621769,1.3562719821929932,0.0,-0.006901189684867859
175.0,205.0,-0.7561,0.7376,9.7286,-0.0327,0.0237,-0.1126,-2.141520162621969,0.0,4.452755451202393,-1.2942360639572144,-0.0,2.0662975311279297,4.955449345498838,-0.0,0.2708107531070709,-1.631195370350973,0.0,-0.0031103992369025946,0.2765524685382843,0.0,0.014844619669020176,1.356247901916504,0.0,-0.007728986442089081
175.0,205.0,-0.7561,0.7376,9.7286,-0.0327,0.0237,-0.1126,-2.141508241693014,0.0,4.455849647521973,-1.2942357063293457,-0.0,2.0607047080993652,4.95549704411582,-0.0,0.2759760320186615,-1.6312034765826624,0.0,0.001372880069538951,0.27659279108047485,0.0,0.005099152214825153,1.356307864189148,0.0,-0.01987111195921898
175.0,205.0,-0.7561,0.7376,9.7286,-0.0327,0.0237,-0.1126,-2.1415163479247035,0.0,4.425225257873535,-1.2942283153533936,-0.0,2.109933376312256,4.955509322672643,-0.0,0.26167014241218567,-1.631251637135641,0.0,-0.003244732040911913,0.2765442132949829,0.0,-0.0025967522524297237,1.3562320470809937,0.0,0.023809345439076424
176.0,206.0,-0.8668,0.7059,9.8357,-0.0377,0.0278,-0.1188,-2.14150395015859,0.0,4.424472332000732,-1.2942638397216797,-0.0,2.072049617767334,4.955465021520414,-0.0,0.2690444588661194,-1.631195370350973,0.0,-0.015234431251883507,0.27661341428756714,0.0,-0.009575802832841873,1.3562721014022827,0.0,0.027813397347927094
176.0,206.0,-0.8668,0.7059,9.8357,-0.0377,0.0278,-0.1188,-2.141508241693014,0.0,4.4144697189331055,-1.2942036390304565,-0.0,2.1020336151123047,4.955492976098814,-0.0,0.27737388014793396,-1.631195370350973,0.0,-0.00631854310631752,0.27656424045562744,0.0,0.00432835565879941,1.3562800884246826,0.0,-0.03040407970547676
176.0,206.0,-0.8668,0.7059,9.8357,-0.0377,0.0278,-0.1188,-2.1415564022459925,0.0,4.414398193359375,-1.2942439317703247,-0.0,2.1115942001342773,4.955509292870321,-0.0,0.27528196573257446,-1.6311834494220179,0.0,0.008324838243424892,0.2765442132949829,0.0,0.002334785647690296,1.3562920093536377,0.0,0.0024999063462018967
176.0,206.0,-0.8668,0.7059,9.8357,-0.0377,0.0278,-0.1188,-2.1414877376952113,0.0,4.477132797241211,-1.2942156791687012,-0.0,2.1076319217681885,4.955472799926557,-0.0,0.26789212226867676,-1.6311515013324183,0.0,-0.019737353548407555,0.27654460072517395,0.0,0.004917781334370375,1.3562719821929932,0.0,-0.02386658266186714
176.0,206.0,-0.8668,0.7059,9.8357,-0.0377,0.0278,-0.1188,-2.141520162621969,0.0,4.472509860992432,-1.2941994667053223,-0.0,2.0933618545532227,4.955537426262655,-0.0,0.2765495181083679,-1.631167236958639,0.0,0.006949692033231258,0.27657654881477356,0.0,-0.006818294990807772,1.3562597036361694,0.0,-0.04454812407493591
176.0,206.0,-0.8668,0.7059,9.8357,-0.0377,0.0278,-0.1188,-2.141520162621969,0.0,4.414003849029541,-1.2941831350326538,-0.0,2.079885721206665,4.955476972251692,-0.0,0.2593505382537842,-1.6312554518329065,0.0,0.007019200827926397,0.2765125632286072,0.0,-0.0036836571525782347,1.3562920093536377,0.0,-0.04058012738823891
176.0,206.0,-0.8668,0.7059,9.8357,-0.0377,0.0278,-0.1188,-2.141560216943258,0.0,4.4107513427734375,-1.294219732284546,-0.0,2.124328851699829,4.9554568258817575,-0.0,0.2837013006210327,-1.6312111059771937,0.0,-0.014027725905179977,0.2764921486377716,0.0,-0.002130750101059675,1.3562679290771484,0.0,-0.01571878045797348
176.0,206.0,-0.8668,0.7059,9.8357,-0.0377,0.0278,-0.1188,-2.14153589824819,0.0,4.442998886108398,-1.2942439317703247,-0.0,2.1396567821502686,4.955513345986166,-0.0,0.2816082835197449,-1.6311758200274866,0.0,-0.002982957288622856,0.2765483558177948,0.0,0.00299009308218956,1.3562841415405273,0.0,-0.03632039949297905
176.0,206.0,-0.8668,0.7059,9.8357,-0.0377,0.0278,-0.1188,-2.1415282688536585,0.0,4.408827781677246,-1.2942439317703247,-0.0,2.1330277919769287,4.955465021520414,-0.0,0.2916741371154785,-1.6312444845782679,0.0,0.0022563200909644365,0.27656468749046326,0.0,-0.010282746516168118,1.356227993965149,0.0,-0.014338010922074318
176.0,206.0,-0.8668,0.7059,9.8357,-0.0377,0.0278,-0.1188,-2.1415158710875453,0.0,4.392580986022949,-1.2941954135894775,-0.0,2.1168572902679443,4.955460938602247,-0.0,0.27833980321884155,-1.6311872641192835,0.0,0.0074010202661156654,0.27652817964553833,0.0,-0.008114108815789223,1.3562721014022827,0.0,-0.024964481592178345
176.0,206.0,-0.8668,0.7059,9.8357,-0.0377,0.0278,-0.1188,-2.1415158710875453,0.0,4.410149097442627,-1.2942276000976562,-0.0,2.104262113571167,4.955476987152853,-0.0,0.27626699209213257,-1.6312153975116175,0.0,-0.006031122524291277,0.2765483856201172,0.0,-0.0029452096205204725,1.356239914894104,0.0,-0.044937919825315475
176.0,206.0,-0.8668,0.7059,9.8357,-0.0377,0.0278,-0.1188,-2.141508241693014,0.0,4.415883541107178,-1.2942320108413696,-0.0,2.0819289684295654,4.955465036421575,-0.0,0.26448196172714233,-1.6311629454242151,0.0,0.005262370686978102,0.2765282392501831,0.0,-0.008721718564629555,1.3562920093536377,0.0,0.017006609588861465
176.0,206.0,-0.8668,0.7059,9.8357,-0.0377,0.0278,-0.1188,-2.1415564022459925,0.0,4.450842380523682,-1.2942599058151245,-0.0,2.1042823791503906,4.955468746810713,-0.0,0.27744489908218384,-1.6311910788165491,0.0,-0.010551013052463531,0.276532381772995,0.0,-0.0003368845209479332,1.356247901916504,0.0,-0.03550887852907181
176.0,206.0,-0.8668,0.7059,9.8357,-0.0377,0.0278,-0.1188,-2.141548296014303,0.0,4.426106929779053,-1.2942599058151245,-0.0,2.0528643131256104,4.955441075354376,-0.0,0.27112847566604614,-1.6312277952777308,0.0,-0.002191176638007164,0.2765524685382843,0.0,-0.0024173674173653126,1.3562557697296143,0.0,-0.0013338318094611168
176.0,206.0,-0.8668,0.7059,9.8357,-0.0377,0.0278,-0.1188,-2.141491552392477,0.0,4.428684234619141,-1.2943003177642822,-0.0,2.097069501876831,4.955488818674841,-0.0,0.2716199457645416,-1.6311991850482386,0.0,-0.010015586391091347,0.27656465768814087,0.0,0.010156084783375263,1.3562278747558594,0.0,-0.01964534819126129
176.0,206.0,-0.8668,0.7059,9.8357,-0.0377,0.0278,-0.1188,-2.1415239773192347,0.0,4.456822872161865,-1.294268012046814,-0.0,2.0988502502441406,4.95549704411582,-0.0,0.26612457633018494,-1.6311834494220179,0.0,-0.0017892667092382908,0.2765525281429291,0.0,-0.003824870102107525,1.3562519550323486,0.0,-0.012816368602216244
175.0,207.0,-0.6688,0.7472,9.6293,-0.0396,0.0231,-0.1196,-2.141508241693014,0.0,4.457463264465332,-1.294195532798767,-0.0,2.0606141090393066,4.955505120545187,-0.0,0.2722412645816803,-1.6312111059771937,0.0,-0.010296596214175224,0.27656054496765137,0.0,-0.0004894929006695747,1.3563158512115479,0.0,0.0025014409329742193
175.0,207.0,-0.6688,0.7472,9.6293,-0.0396,0.0231,-0.1196,-2.141508241693014,0.0,4.446092128753662,-1.2942521572113037,-0.0,2.130593776702881,4.95552937963561,-0.0,0.27353358268737793,-1.6312034765826624,0.0,0.0004838618915528059,0.27654460072517395,0.0,-0.0037434727419167757,1.3562920093536377,0.0,0.029201462864875793
175.0,207.0,-0.6688,0.7472,9.6293,-0.0396,0.0231,-0.1196,-2.1414834461607875,0.0,4.412601470947266,-1.2942237854003906,-0.0,2.122745990753174,4.95547282972888,-0.0,0.26567864418029785,-1.6312111059771937,0.0,-0.006244164891541004,0.276500403881073,0.0,-0.009387622587382793,1.3563039302825928,0.0,0.016919514164328575
175.0,207.0,-0.6688,0.7472,9.6293,-0.0396,0.0231,-0.1196,-2.141576429406637,0.0,4.415607452392578,-1.2942639589309692,-0.0,2.0809566974639893,4.955492961197653,-0.0,0.2773391306400299,-1.6311753431903284,0.0,0.002350964117795229,0.27646806836128235,0.0,-0.011117557063698769,1.3562639951705933,0.0,0.033139586448669434
175.0,207.0,-0.6688,0.7472,9.6293,-0.0396,0.0231,-0.1196,-2.1415282688536585,0.0,4.387152194976807,-1.2942237854003906,-0.0,2.135878324508667,4.955468746810713,-0.0,0.2805764079093933,-1.631223503743307,0.0,0.00627153180539608,0.27656054496765137,0.0,-0.00726246926933527,1.3562841415405273,0.0,0.005078144837170839
175.0,207.0,-0.6688,0.7472,9.6293,-0.0396,0.0231,-0.1196,-2.1415158710875453,0.0,4.398369789123535,-1.2942357063293457,-0.0,2.155148506164551,4.955484720855512,-0.0,0.26849424839019775,-1.631207291279928,0.0,-0.0003191616851836443,0.2765768766403198,0.0,-0.0013710359344258904,1.3563159704208374,0.0,0.014589382335543633
175.0,207.0,-0.6688,0.7472,9.6293,-0.0396,0.0231,-0.1196,-2.1415721378722132,0.0,4.42482852935791,-1.2942839860916138,-0.0,2.0756866931915283,4.9554650513227365,-0.0,0.27598321437835693,-1.6312153975116175,0.0,0.003248924156650901,0.27650395035743713,0.0,0.0018168019596487284,1.3563039302825928,0.0,-0.006731696426868439
175.0,207.0,-0.6688,0.7472,9.6293,-0.0396,0.0231,-0.1196,-2.14159693340444,0.0,4.403966426849365,-1.2942159175872803,-0.0,2.0683841705322266,4.955460983305731,-0.0,0.26330989599227905,-1.6312077681170862,0.0,-0.0015100050950422883,0.27656877040863037,0.0,0.007705198600888252,1.3563522100448608,0.0,0.013114053755998611
175.0,207.0,-0.6688,0.7472,9.6293,-0.0396,0.0231,-0.1196,-2.141519685784811,0.0,4.446353912353516,-1.2942397594451904,-0.0,2.124467372894287,4.9554650513227365,-0.0,0.27831190824508667,-1.6312878767596644,0.0,9.124306961894035e-05,0.27659285068511963,0.0,0.007745875045657158,1.3562960624694824,0.0,-0.02011571265757084
175.0,207.0,-0.6688,0.7472,9.6293,-0.0396,0.0231,-0.1196,-2.1415239773192347,0.0,4.447513580322266,-1.2942320108413696,-0.0,2.1174707412719727,4.955501112132826,-0.0,0.28390026092529297,-1.631207291279928,0.0,-0.006686522625386715,0.2765442132949829,0.0,0.001635747728869319,1.3562557697296143,0.0,-0.012172874063253403
175.0,207.0,-0.6688,0.7472,9.6293,-0.0396,0.0231,-0.1196,-2.141508241693014,0.0,4.470971584320068,-1.294227957725525,-0.0,2.077951669692993,4.9554888037736795,-0.0,0.2608785927295685,-1.6312111059771937,0.0,0.00875871442258358,0.27658480405807495,0.0,-0.0023809573613107204,1.3562920093536377,0.0,0.0476820133626461
175.0,207.0,-0.6688,0.7472,9.6293,-0.0396,0.0231,-0.1196,-2.141568800012106,0.0,4.448623180389404,-1.294203281402588,-0.0,2.103780746459961,4.95549704411582,-0.0,0.2927250266075134,-1.6311958471881312,0.0,0.0026156611274927855,0.2765204608440399,0.0,0.000719055999070406,1.3562920093536377,0.0,-0.04105061665177345
175.0,207.0,-0.6688,0.7472,9.6293,-0.0396,0.0231,-0.1196,-2.14159693340444,0.0,4.437224388122559,-1.2942439317703247,-0.0,2.1232104301452637,4.95549704411582,-0.0,0.27629050612449646,-1.6312430540667933,0.0,0.003988451324403286,0.2765488028526306,0.0,0.007447691168636084,1.3562480211257935,0.0,0.0029355697333812714
175.0,207.0,-0.6688,0.7472,9.6293,-0.0396,0.0231,-0.1196,-2.1415282688536585,0.0,4.396484851837158,-1.2942118644714355,-0.0,2.0828099250793457,4.955521124392309,-0.0,0.275367796421051,-1.6312153975116175,0.0,-0.005708504002541304,0.27654463052749634,0.0,-0.005461541004478931,1.356268048286438,0.0,-0.011354148387908936
175.0,207.0,-0.6688,0.7472,9.6293,-0.0396,0.0231,-0.1196,-2.1415401897826136,0.0,4.448899745941162,-1.294227957725525,-0.0,2.1427435874938965,4.95547695735053,-0.0,0.2809297442436218,-1.6311629454242151,0.0,-0.013030022382736206,0.2765648365020752,0.0,-0.004021106753498316,1.3561758995056152,0.0,-0.053365565836429596
180.0,211.0,-0.7214,0.7603,9.5647,-0.0356,0.0231,-0.1165,-2.1415564022459925,0.0,4.3799214363098145,-1.2941995859146118,-0.0,2.12101149559021,4.95549704411582,-0.0,0.27067530155181885,-1.6311715284930628,0.0,-0.006369366310536861,0.27656880021095276,0.0,-0.0025929263792932034,1.3562721014022827,0.0,-0.029180685058236122
180.0,211.0,-0.7214,0.7603,9.5647,-0.0356,0.0231,-0.1165,-2.1414958439269007,0.0,4.426218509674072,-1.2942557334899902,-0.0,2.0499563217163086,4.955456810980596,-0.0,0.267686128616333,-1.631207291279928,0.0,0.005266051273792982,0.2766011655330658,0.0,-0.0036899996921420097,1.356307864189148,0.0,-0.0029098503291606903
180.0,211.0,-0.7214,0.7603,9.5647,-0.0356,0.0231,-0.1165,-2.1415282688536585,0.0,4.444590091705322,-1.2942159175872803,-0.0,2.0651609897613525,4.95550927796916,-0.0,0.27605122327804565,-1.6312320868121546,0.0,0.0012558982707560062,0.276516318321228,0.0,0.0033408720046281815,1.356247901916504,0.0,0.005589967593550682
180.0,211.0,-0.7214,0.7603,9.5647,-0.0356,0.0231,-0.1165,-2.1415282688536585,0.0,4.431795120239258,-1.2942118644714355,-0.0,2.1440608501434326,4.955517056375303,-0.0,0.26876938343048096,-1.6312392393695276,0.0,-0.0031347412150353193,0.27649205923080444,0.0,-0.004398393910378218,1.3562800884246826,0.0,0.0413067452609539
180.0,211.0,-0.7214,0.7603,9.5647,-0.0356,0.0231,-0.1165,-2.1415325603880824,0.0,4.4242844581604,-1.2942357063293457,-0.0,2.0596566200256348,4.95547695735053,-0.0,0.2723864018917084,-1.6312034765826624,0.0,0.0050518871285021305,0.2765364646911621,0.0,-0.002298657549545169,1.3562920093536377,0.0,-0.021875206381082535
180.0,211.0,-0.7214,0.7603,9.5647,-0.0356,0.0231,-0.1165,-2.1415401897826136,0.0,4.491453170776367,-1.2941831350326538,-0.0,2.1233649253845215,4.955525281816282,-0.0,0.2850991487503052,-1.6312320868121546,0.0,-0.006797003094106913,0.27658477425575256,0.0,-0.004609051626175642,1.3562438488006592,0.0,0.012768395245075226
180.0,211.0,-0.7214,0.7603,9.5647,-0.0356,0.0231,-0.1165,-2.14150395015859,0.0,4.440634727478027,-1.294227957725525,-0.0,2.088973045349121,4.95547695735053,-0.0,0.27039530873298645,-1.631251637135641,0.0,0.004625874571502209,0.27657654881477356,0.0,-0.0024788114242255688,1.3562721014022827,0.0,-0.013504729606211185
180.0,211.0,-0.7214,0.7603,9.5647,-0.0356,0.0231,-0.1165,-2.14150395015859,0.0,4.435548782348633,-1.2942276000976562,-0.0,2.080648183822632,4.955449360399999,-0.0,0.2758810818195343,-1.6312153975116175,0.0,0.0021541183814406395,0.27656054496765137,0.0,-0.012802859768271446,1.3562841415405273,0.0,0.03572281450033188
180.0,211.0,-0.7214,0.7603,9.5647,-0.0356,0.0231,-0.1165,-2.1415401897826136,0.0,4.441479206085205,-1.29427170753479,-0.0,2.083437442779541,4.955492961197653,-0.0,0.2816164493560791,-1.631223503743307,0.0,-0.011949988082051277,0.2765359878540039,0.0,0.0003519938327372074,1.3563358783721924,0.0,-0.013104666024446487
180.0,211.0,-0.7214,0.7603,9.5647,-0.0356,0.0231,-0.1165,-2.14153589824819,0.0,4.409352779388428,-1.294183373451233,-0.0,2.1039910316467285,4.95549704411582,-0.0,0.2799401581287384,-1.6312196890460413,0.0,-0.0016682244604453444,0.27655231952667236,0.0,-0.002359437756240368,1.3562841415405273,0.0,0.017524797469377518
180.0,211.0,-0.7214,0.7603,9.5647,-0.0356,0.0231,-0.1165,-2.1415206394591273,0.0,4.44242000579834,-1.294227957725525,-0.0,2.1072537899017334,4.955497073918142,-0.0,0.2571539282798767,-1.6312111059771937,0.0,-0.012854734435677528,0.2765442132949829,0.0,0.008683394640684128,1.356319785118103,0.0,-0.03859163075685501
180.0,211.0,-0.7214,0.7603,9.5647,-0.0356,0.0231,-0.1165,-2.141520162621969,0.0,4.431842803955078,-1.2942439317703247,-0.0,2.1297738552093506,4.955533507257261,-0.0,0.2779354453086853,-1.6312111059771937,0.0,-0.002754585351794958,0.2765442132949829,0.0,-0.004266616888344288,1.356276035308838,0.0,-0.026000581681728363
180.0,211.0,-0.7214,0.7603,9.5647,-0.0356,0.0231,-0.1165,-2.141560216943258,0.0,4.412959098815918,-1.2941871881484985,-0.0,2.076911211013794,4.955529349833288,-0.0,0.2802480459213257,-1.631240193043844,0.0,-0.006381739396601915,0.2765359580516815,0.0,0.00047200429253280163,1.356268048286438,0.0,-0.06975853443145752
180.0,211.0,-0.7214,0.7603,9.5647,-0.0356,0.0231,-0.1165,-2.1415120563902796,0.0,4.417248249053955,-1.2942397594451904,-0.0,2.1245269775390625,4.9554970292146585,-0.0,0.2704962491989136,-1.6312359015094202,0.0,-0.0005065348232164979,0.27651992440223694,0.0,-0.005285104736685753,1.3562438488006592,0.0,0.011585498228669167
180.0,211.0,-0.7214,0.7603,9.5647,-0.0356,0.0231,-0.1165,-2.1415163479247035,0.0,4.4396820068359375,-1.2942237854003906,-0.0,2.1268792152404785,4.95549704411582,-0.0,0.2726650536060333,-1.6312277952777308,0.0,0.00443001976236701,0.2765324115753174,0.0,0.004995969124138355,1.3563159704208374,0.0,-0.03763192147016525
177.0,207.0,-0.6323,0.7735,9.4816,-0.0426,0.0243,-0.1135,-2.141520162621969,0.0,4.388486385345459,-1.2942439317703247,-0.0,2.080014705657959,4.955465036421575,-0.0,0.26475220918655396,-1.6312392393695276,0.0,-0.003224352840334177,0.2765285074710846,0.0,0.0028273933567106724,1.356239914894104,0.0,-0.0004443284124135971
177.0,207.0,-0.6323,0.7735,9.4816,-0.0426,0.0243,-0.1135,-2.1415163479247035,0.0,4.459427356719971,-1.2941994667053223,-0.0,2.1034224033355713,4.955513360887327,-0.0,0.2732742428779602,-1.6312153975116175,0.0,-0.003791067050769925,0.2765483856201172,0.0,-0.011998816393315792,1.356259822845459,0.0,0.05187902972102165
177.0,207.0,-0.6323,0.7735,9.4816,-0.0426,0.0243,-0.1135,-2.1415239773192347,0.0,4.445505142211914,-1.2942357063293457,-0.0,2.07676362991333,4.955492976098814,-0.0,0.28184694051742554,-1.6312640349017542,0.0,-0.009196915663778782,0.2765728831291199,0.0,0.005904792807996273,1.3563238382339478,0.0,0.008201099932193756
177.0,207.0,-0.6323,0.7735,9.4816,-0.0426,0.0243,-0.1135,-2.14159693340444,0.0,4.414815902709961,-1.2941995859146118,-0.0,2.023672580718994,4.955492976098814,-0.0,0.2750910222530365,-1.6312111059771937,0.0,-0.01127929612994194,0.27658072113990784,0.0,0.005117807071655989,1.356319785118103,0.0,0.011962778866291046
177.0,207.0,-0.6323,0.7735,9.4816,-0.0426,0.0243,-0.1135,-2.1415282688536585,0.0,4.422783374786377,-1.2942397594451904,-0.0,2.092479944229126,4.9555174736078165,-0.0,0.2621620297431946,-1.6312597433673304,0.0,-0.011322361417114735,0.2765282392501831,0.0,-0.009877088479697704,1.3562557697296143,0.0,0.019220730289816856
177.0,207.0,-0.6323,0.7735,9.4816,-0.0426,0.0243,-0.1135,-2.14150395015859,0.0,4.41579532623291,-1.2942116260528564,-0.0,2.086831569671631,4.955492976098814,-0.0,0.2680719494819641,-1.6312153975116175,0.0,-0.01724720373749733,0.2765204608440399,0.0,0.018025029450654984,1.3562920093536377,0.0,0.04865134507417679
177.0,207.0,-0.6323,0.7735,9.4816,-0.0426,0.0243,-0.1135,-2.1415282688536585,0.0,4.429109573364258,-1.294219732284546,-0.0,2.115394115447998,4.9555174736078165,-0.0,0.28544849157333374,-1.631240193043844,0.0,-0.006226128898561001,0.2765484154224396,0.0,-0.001366825308650732,1.3562638759613037,0.0,0.0034902282059192657
177.0,207.0,-0.6323,0.7735,9.4816,-0.0426,0.0243,-0.1135,-2.1415239773192347,0.0,4.4327850341796875,-1.2941995859146118,-0.0,2.1122500896453857,4.955501112132826,-0.0,0.27694541215896606,-1.6312034765826624,0.0,-0.0007831632974557579,0.2765044569969177,0.0,-0.009494563564658165,1.3563038110733032,0.0,-0.011033579707145691
177.0,207.0,-0.6323,0.7735,9.4816,-0.0426,0.0243,-0.1135,-2.141547819177145,0.0,4.385226249694824,-1.2942595481872559,-0.0,2.097499370574951,4.9554810402686975,-0.0,0.2788488268852234,-1.6312153975116175,0.0,0.005580909550189972,0.27658069133758545,0.0,0.009619681164622307,1.356259822845459,0.0,-0.014663669280707836
177.0,207.0,-0.6323,0.7735,9.4816,-0.0426,0.0243,-0.1135,-2.1415239773192347,0.0,4.393125057220459,-1.2942118644714355,-0.0,2.1388373374938965,4.955501052528181,-0.0,0.2803881764411926,-1.6312359015094202,0.0,-0.003806841094046831,0.27656054496765137,0.0,-0.007274685427546501,1.356287956237793,0.0,0.00605188962072134
177.0,207.0,-0.6323,0.7735,9.4816,-0.0426,0.0243,-0.1135,-2.1415239773192347,0.0,4.419628143310547,-1.2942357063293457,-0.0,2.1396989822387695,4.955465021520414,-0.0,0.27472537755966187,-1.631195370350973,0.0,-0.0016900231130421162,0.276532381772995,0.0,0.006204607896506786,1.3562040328979492,0.0,-0.0028225057758390903
177.0,207.0,-0.6323,0.7735,9.4816,-0.0426,0.0243,-0.1135,-2.1415239773192347,0.0,4.418550491333008,-1.294219732284546,-0.0,2.1259026527404785,4.95549704411582,-0.0,0.278696745634079,-1.6311910788165491,0.0,0.0024960264563560486,0.2765442132949829,0.0,0.008263187482953072,1.356251835823059,0.0,-0.03123210370540619
177.0,207.0,-0.6323,0.7735,9.4816,-0.0426,0.0243,-0.1135,-2.1415282688536585,0.0,4.482270240783691,-1.2942320108413696,-0.0,2.0624258518218994,4.955448660045423,-0.0,0.2816556692123413,-1.6312111059771937,0.0,-0.0027642403729259968,0.27655646204948425,0.0,0.002936998615041375,1.3562721014022827,0.0,-0.004775502718985081
177.0,207.0,-0.6323,0.7735,9.4816,-0.0426,0.0243,-0.1135,-2.14150395015859,0.0,4.412384986877441,-1.2942357063293457,-0.0,2.101705312728882,4.955525296717443,-0.0,0.2782919406890869,-1.6312196890460413,0.0,-0.0005287835374474525,0.27659285068511963,0.0,-0.0005302475765347481,1.3562639951705933,0.0,0.0059334877878427505
177.0,207.0,-0.6323,0.7735,9.4816,-0.0426,0.0243,-0.1135,-2.1415163479247035,0.0,4.41323184967041,-1.2941912412643433,-0.0,2.087358236312866,4.955509337573805,-0.0,0.2629362940788269,-1.6311915556537073,0.0,-0.0075013888999819756,0.2765445411205292,0.0,-0.010014479979872704,1.356287956237793,0.0,-0.02036377042531967
175.0,209.0,-0.6855,0.7735,9.5354,-0.0391,0.0205,-0.1176,-2.141552587548727,0.0,4.41264533996582,-1.2942076921463013,-0.0,2.150087594985962,4.95552113929347,-0.0,0.2759973704814911,-1.6311991850482386,0.0,-0.004785982426255941,0.2765401601791382,0.0,0.005729204043745995,1.3562800884246826,0.0,-0.03230050206184387
175.0,209.0,-0.6855,0.7735,9.5354,-0.0391,0.0205,-0.1176,-2.1415282688536585,0.0,4.4336090087890625,-1.2942076921463013,-0.0,2.062870740890503,4.9554810402686975,-0.0,0.2859704792499542,-1.6312597433673304,0.0,-0.009037096984684467,0.2766374945640564,0.0,0.0030107181519269943,1.3562840223312378,0.0,0.02226134017109871
175.0,209.0,-0.6855,0.7735,9.5354,-0.0391,0.0205,-0.1176,-2.1415564022459925,0.0,4.403083801269531,-1.2942721843719482,-0.0,2.093337297439575,4.955481025367536,-0.0,0.2806723713874817,-1.6311834494220179,0.0,0.004223580937832594,0.27652040123939514,0.0,0.0031968189869076014,1.3562960624694824,0.0,-0.022919338196516037
175.0,209.0,-0.6855,0.7735,9.5354,-0.0391,0.0205,-0.1176,-2.141548296014303,0.0,4.441915512084961,-1.2942320108413696,-0.0,2.1275343894958496,4.9554810402686975,-0.0,0.2792039215564728,-1.6311991850482386,0.0,0.005955622997134924,0.2765405774116516,0.0,-0.006004658527672291,1.356239914894104,0.0,-0.011056043207645416
175.0,209.0,-0.6855,0.7735,9.5354,-0.0391,0.0205,-0.1176,-2.141508241693014,0.0,4.435439586639404,-1.2942439317703247,-0.0,2.118618965148926,4.955549511104383,-0.0,0.2772735357284546,-1.6312359015094202,0.0,0.008215531706809998,0.27656060457229614,0.0,-0.005041643977165222,1.3562480211257935,0.0,0.03224001079797745
175.0,209.0,-0.6855,0.7735,9.5354,-0.0391,0.0205,-0.1176,-2.1415282688536585,0.0,4.4728779792785645,-1.29427170753479,-0.0,2.1239116191864014,4.955460968404569,-0.0,0.2733950912952423,-1.6311991850482386,0.0,-0.009063227102160454,0.2765282392501831,0.0,-0.0002965794992633164,1.3562480211257935,0.0,0.0413208082318306
175.0,209.0,-0.6855,0.7735,9.5354,-0.0391,0.0205,-0.1176,-2.1415401897826136,0.0,4.452642440795898,-1.294231653213501,-0.0,2.1090149879455566,4.955489116698065,-0.0,0.2777559161186218,-1.6311991850482386,0.0,-0.003722572000697255,0.2765282392501831,0.0,-0.003801401238888502,1.356239914894104,0.0,-0.006402879953384399
175.0,209.0,-0.6855,0.7735,9.5354,-0.0391,0.0205,-0.1176,-2.1415683231749476,0.0,4.406024932861328,-1.2942521572113037,-0.0,2.1340441703796387,4.955492961197653,-0.0,0.27264827489852905,-1.6312597433673304,0.0,-0.003714980324730277,0.2765364646911621,0.0,-0.0003265654668211937,1.3562918901443481,0.0,0.028202997520565987
175.0,209.0,-0.6855,0.7735,9.5354,-0.0391,0.0205,-0.1176,-2.1414958439269007,0.0,4.397058486938477,-1.2942159175872803,-0.0,2.089651584625244,4.955505105644026,-0.0,0.2734389305114746,-1.6312320868121546,0.0,0.009923702105879784,0.2765483856201172,0.0,-0.008315237239003181,1.3562557697296143,0.0,-0.031619854271411896
175.0,209.0,-0.6855,0.7735,9.5354,-0.0391,0.0205,-0.1176,-2.1415239773192347,0.0,4.418766498565674,-1.2942156791687012,-0.0,2.0933802127838135,4.955517428904333,-0.0,0.2562766671180725,-1.6311991850482386,0.0,-0.005883181933313608,0.27659285068511963,0.0,-0.006839454639703035,1.3562439680099487,0.0,0.02891305647790432
175.0,209.0,-0.6855,0.7735,9.5354,-0.0391,0.0205,-0.1176,-2.1415239773192347,0.0,4.420961380004883,-1.294227957725525,-0.0,2.0871920585632324,4.955468731909551,-0.0,0.2931990623474121,-1.6311872641192835,0.0,-0.010004991665482521,0.27656057476997375,0.0,0.00864671915769577,1.356287956237793,0.0,0.028779570013284683
175.0,209.0,-0.6855,0.7735,9.5354,-0.0391,0.0205,-0.1176,-2.1415721378722132,0.0,4.41055965423584,-1.2942237854003906,-0.0,2.0769407749176025,4.955472799926557,-0.0,0.27271586656570435,-1.631247345601217,0.0,-0.008070257492363453,0.2765524387359619,0.0,-0.0024641945492476225,1.3562841415405273,0.0,0.015209559351205826
175.0,209.0,-0.6855,0.7735,9.5354,-0.0391,0.0205,-0.1176,-2.141548296014303,0.0,4.42453145980835,-1.2942516803741455,-0.0,2.0672643184661865,4.955492976098814,-0.0,0.26518216729164124,-1.6311991850482386,0.0,-0.008541296236217022,0.2765122652053833,0.0,0.003669405821710825,1.3562999963760376,0.0,-0.014078641310334206
175.0,209.0,-0.6855,0.7735,9.5354,-0.0391,0.0205,-0.1176,-2.141532083550924,0.0,4.381926536560059,-1.2942357063293457,-0.0,2.1052465438842773,4.955476927548208,-0.0,0.2784504294395447,-1.6312034765826624,0.0,-0.00864777434617281,0.27656468749046326,0.0,-0.0012980469036847353,1.3562840223312378,0.0,0.01650923117995262
175.0,209.0,-0.6855,0.7735,9.5354,-0.0391,0.0205,-0.1176,-2.1415564022459925,0.0,4.411448955535889,-1.2941954135894775,-0.0,2.0842173099517822,4.9554452923829935,-0.0,0.2737441062927246,-1.6311991850482386,0.0,-0.005777912214398384,0.2765044867992401,0.0,0.006206715479493141,1.356259822845459,0.0,0.014513697475194931
175.0,213.0,-0.6389,0.7472,9.3009,-0.036,0.0226,-0.1145,-2.14150395015859,0.0,4.444788455963135,-1.2942841053009033,-0.0,2.1074893474578857,4.955513360887327,-0.0,0.27326828241348267,-1.6312435309039515,0.0,-0.008345786482095718,0.27660509943962097,0.0,-0.0034634526818990707,1.3562800884246826,0.0,-0.026266224682331085
175.0,213.0,-0.6389,0.7472,9.3009,-0.036,0.0226,-0.1145,-2.1415325603880824,0.0,4.4613237380981445,-1.2942320108413696,-0.0,2.102085590362549,4.9554810402686975,-0.0,0.2761951982975006,-1.631195370350973,0.0,0.002787144621834159,0.2765282392501831,0.0,0.003621363081037998,1.3562960624694824,0.0,0.007882218807935715
175.0,213.0,-0.6389,0.7472,9.3009,-0.036,0.0226,-0.1145,-2.1415444813170375,0.0,4.459827423095703,-1.2942118644714355,-0.0,2.0994272232055664,4.95547695735053,-0.0,0.27186769247055054,-1.6311991850482386,0.0,-0.0035875546745955944,0.27656468749046326,0.0,0.0012246102560311556,1.3562718629837036,0.0,0.030262205749750137
175.0,213.0,-0.6389,0.7472,9.3009,-0.036,0.0226,-0.1145,-2.1415277920165003,0.0,4.459850788116455,-1.294219732284546,-0.0,2.0746312141418457,4.955533432751455,-0.0,0.26795703172683716,-1.6312111059771937,0.0,-0.0032480789814144373,0.2765364646911621,0.0,-0.011308383196592331,1.3562960624694824,0.0,0.013340710662305355
175.0,213.0,-0.6389,0.7472,9.3009,-0.036,0.0226,-0.1145,-2.1415721378722132,0.0,4.395893573760986,-1.294227957725525,-0.0,2.126690626144409,4.955465036421575,-0.0,0.26960277557373047,-1.6312077681170862,0.0,0.003014544490724802,0.27656468749046326,0.0,-0.0032493011094629765,1.3563039302825928,0.0,0.007392941974103451
175.0,213.0,-0.6389,0.7472,9.3009,-0.036,0.0226,-0.1145,-2.14153589824819,0.0,4.408541202545166,-1.2942156791687012,-0.0,2.094301462173462,4.9554888037736795,-0.0,0.2687695622444153,-1.631207291279928,0.0,0.001579170348122716,0.27655237913131714,0.0,0.0007059782510623336,1.356239914894104,0.0,-0.016538938507437706
175.0,213.0,-0.6389,0.7472,9.3009,-0.036,0.0226,-0.1145,-2.1415444813170375,0.0,4.4025983810424805,-1.2942516803741455,-0.0,2.0917625427246094,4.95554535368041,-0.0,0.2769845128059387,-1.6312320868121546,0.0,-0.006740444805473089,0.2765524387359619,0.0,0.004795587621629238,1.3562361001968384,0.0,-0.009342478588223457
175.0,213.0,-0.6389,0.7472,9.3009,-0.036,0.0226,-0.1145,-2.1415401897826136,0.0,4.390532493591309,-1.2942036390304565,-0.0,2.1247823238372803,4.95549704411582,-0.0,0.2854735255241394,-1.631207291279928,0.0,-0.022204594686627388,0.27652010321617126,0.0,-0.005538267083466053,1.3563119173049927,0.0,0.02076755091547966
175.0,213.0,-0.6389,0.7472,9.3009,-0.036,0.0226,-0.1145,-2.141552587548727,0.0,4.406857490539551,-1.2942118644714355,-0.0,2.0709550380706787,4.955529349833288,-0.0,0.27110427618026733,-1.6312597433673304,0.0,-0.006838780362159014,0.2766050398349762,0.0,-0.0036509986966848373,1.3562840223312378,0.0,-0.022602669894695282
175.0,213.0,-0.6389,0.7472,9.3009,-0.036,0.0226,-0.1145,-2.1415239773192347,0.0,4.441746711730957,-1.2941954135894775,-0.0,2.11696720123291,4.955460968404569,-0.0,0.27275994420051575,-1.6311991850482386,0.0,0.0018791933543980122,0.2765924334526062,0.0,-0.0051789782010018826,1.3562840223312378,0.0,-0.026499364525079727
175.0,213.0,-0.6389,0.7472,9.3009,-0.036,0.0226,-0.1145,-2.141532083550924,0.0,4.4476213455200195,-1.2942237854003906,-0.0,2.080939292907715,4.95550927796916,-0.0,0.28874048590660095,-1.6312111059771937,0.0,0.004578625317662954,0.27652421593666077,0.0,0.0036263365764170885,1.3562918901443481,0.0,-0.04075006768107414
175.0,213.0,-0.6389,0.7472,9.3009,-0.036,0.0226,-0.1145,-2.1415163479247035,0.0,4.439640522003174,-1.2942479848861694,-0.0,2.1026206016540527,4.95550927796916,-0.0,0.26886895298957825,-1.631240193043844,0.0,-0.001794107723981142,0.27654051780700684,0.0,-0.0019008573144674301,1.356307864189148,0.0,0.016052817925810814
175.0,213.0,-0.6389,0.7472,9.3009,-0.036,0.0226,-0.1145,-2.1415239773192347,0.0,4.4166693687438965,-1.2941954135894775,-0.0,2.123279094696045,4.955476927548208,-0.0,0.27923500537872314,-1.6312759558307093,0.0,-0.006744865328073502,0.27652859687805176,0.0,-9.745650459080935e-05,1.3562999963760376,0.0,-0.016494261100888252
175.0,213.0,-0.6389,0.7472,9.3009,-0.036,0.0226,-0.1145,-2.141520162621969,0.0,4.391687393188477,-1.294219732284546,-0.0,2.088808536529541,4.955472799926557,-0.0,0.2703670859336853,-1.6311834494220179,0.0,-0.013503005728125572,0.2765483856201172,0.0,-0.005753071513026953,1.356287956237793,0.0,-0.021482639014720917
175.0,213.0,-0.6389,0.7472,9.3009,-0.036,0.0226,-0.1145,-2.141548296014303,0.0,4.403280258178711,-1.2942397594451904,-0.0,2.0981926918029785,4.9554810402686975,-0.0,0.2846941351890564,-1.631207291279928,0.0,-0.007174080237746239,0.27656829357147217,0.0,0.0037842406891286373,1.356307864189148,0.0,-0.03474518656730652
175.0,208.0,-0.6347,0.7436,9.5486,-0.0334,0.0208,-0.1103,-2.1415564022459925,0.0,4.444392681121826,-1.2942276000976562,-0.0,2.0841546058654785,4.9554452923829935,-0.0,0.2812366485595703,-1.6312277952777308,0.0,-0.003185135079547763,0.2765728235244751,0.0,-0.005462796427309513,1.3562840223312378,0.0,-0.018005749210715294
175.0,208.0,-0.6347,0.7436,9.5486,-0.0334,0.0208,-0.1103,-2.14150395015859,0.0,4.495368957519531,-1.2942036390304565,-0.0,2.1371030807495117,4.955452728062429,-0.0,0.2855778634548187,-1.6312196890460413,0.0,-0.004323978908360004,0.27656829357147217,0.0,0.012436090037226677,1.3562041521072388,0.0,0.006336327642202377
175.0,208.0,-0.6347,0.7436,9.5486,-0.0334,0.0208,-0.1103,-2.14153589824819,0.0,4.404932498931885,-1.2942397594451904,-0.0,2.1084649562835693,4.955497073918142,-0.0,0.2745213210582733,-1.631207291279928,0.0,-0.008892512880265713,0.27655649185180664,0.0,0.008700764738023281,1.3562959432601929,0.0,0.009831203147768974
175.0,208.0,-0.6347,0.7436,9.5486,-0.0334,0.0208,-0.1103,-2.1415401897826136,0.0,4.4267096519470215,-1.2942156791687012,-0.0,2.089024066925049,4.955492961197653,-0.0,0.29351282119750977,-1.6312153975116175,0.0,-0.0013040294870734215,0.27652859687805176,0.0,0.012279460206627846,1.356276035308838,0.0,0.053997013717889786
175.0,208.0,-0.6347,0.7436,9.5486,-0.0334,0.0208,-0.1103,-2.1415239773192347,0.0,4.449225425720215,-1.2942439317703247,-0.0,2.072096824645996,4.955484720855512,-0.0,0.27510368824005127,-1.6311629454242151,0.0,-0.0025716996751725674,0.2765727937221527,0.0,-0.0008699237369000912,1.356299877166748,0.0,-0.03152775391936302
175.0,208.0,-0.6347,0.7436,9.5486,-0.0334,0.0208,-0.1103,-2.1415120563902796,0.0,4.469280242919922,-1.2942159175872803,-0.0,2.110323667526245,4.955465036421575,-0.0,0.27707138657569885,-1.6311991850482386,0.0,-0.018871843814849854,0.27656468749046326,0.0,0.005545923486351967,1.356287956237793,0.0,0.017185872420668602
175.0,208.0,-0.6347,0.7436,9.5486,-0.0334,0.0208,-0.1103,-2.141548296014303,0.0,4.419980049133301,-1.2942842245101929,-0.0,2.08538818359375,4.9554888037736795,-0.0,0.2692486345767975,-1.6312111059771937,0.0,-0.0004103480314370245,0.2765442430973053,0.0,-0.004171350970864296,1.3563001155853271,0.0,-0.0008988203480839729
175.0,208.0,-0.6347,0.7436,9.5486,-0.0334,0.0208,-0.1103,-2.1415163479247035,0.0,4.410285472869873,-1.2941793203353882,-0.0,2.11503267288208,4.955465036421575,-0.0,0.2689514756202698,-1.631167236958639,0.0,0.004901017993688583,0.2765442430973053,0.0,0.0001405840739607811,1.356276035308838,0.0,-0.03347087278962135
175.0,208.0,-0.6347,0.7436,9.5486,-0.0334,0.0208,-0.1103,-2.1415401897826136,0.0,4.446398735046387,-1.2942320108413696,-0.0,2.131807804107666,4.955460953503408,-0.0,0.27278459072113037,-1.6311910788165491,0.0,-0.0005565736209973693,0.2765483856201172,0.0,-0.006042074877768755,1.3562800884246826,0.0,0.024984236806631088
175.0,208.0,-0.6347,0.7436,9.5486,-0.0334,0.0208,-0.1103,-2.14150395015859,0.0,4.429437637329102,-1.2942521572113037,-0.0,2.0928590297698975,4.955469119339742,-0.0,0.271681547164917,-1.6312077681170862,0.0,-0.004296367522329092,0.27652454376220703,0.0,-0.011219106614589691,1.3562841415405273,0.0,-0.004884964786469936
175.0,208.0,-0.6347,0.7436,9.5486,-0.0334,0.0208,-0.1103,-2.1415444813170375,0.0,4.436603546142578,-1.2941629886627197,-0.0,2.1034133434295654,4.955505120545187,-0.0,0.26587533950805664,-1.6312640349017542,0.0,-0.0081582460552454,0.2765204906463623,0.0,-0.004281911998987198,1.3562320470809937,0.0,0.00816346239298582
175.0,208.0,-0.6347,0.7436,9.5486,-0.0334,0.0208,-0.1103,-2.1414958439269007,0.0,4.426154613494873,-1.2942118644714355,-0.0,2.1084983348846436,4.955469119339742,-0.0,0.280853271484375,-1.6312196890460413,0.0,-0.001145111513324082,0.27658072113990784,0.0,-0.002724466612562537,1.3562558889389038,0.0,0.02719193883240223
175.0,208.0,-0.6347,0.7436,9.5486,-0.0334,0.0208,-0.1103,-2.1415239773192347,0.0,4.411419868469238,-1.294227957725525,-0.0,2.134260654449463,4.955472785025396,-0.0,0.2741263806819916,-1.631247345601217,0.0,-0.004403014667332172,0.27655231952667236,0.0,-0.005063351709395647,1.356276035308838,0.0,-0.0371660515666008
175.0,208.0,-0.6347,0.7436,9.5486,-0.0334,0.0208,-0.1103,-2.1415206394591273,0.0,4.444935321807861,-1.2942116260528564,-0.0,2.1170854568481445,4.955449360399999,-0.0,0.272823691368103,-1.6311753431903284,0.0,-0.0054704174399375916,0.27657249569892883,0.0,0.006538819056004286,1.356307864189148,0.0,0.01567130535840988
175.0,208.0,-0.6347,0.7436,9.5486,-0.0334,0.0208,-0.1103,-2.1415120563902796,0.0,4.4211626052856445,-1.2942681312561035,-0.0,2.101841449737549,4.955460923701086,-0.0,0.27159827947616577,-1.6312277952777308,0.0,-0.0016930324491113424,0.2765725255012512,0.0,0.0038165850564837456,1.3562477827072144,0.0,0.038464032113552094
173.0,207.0,-0.7352,0.7053,9.664,-0.0421,0.0185,-0.1153,-2.1414958439269007,0.0,4.448110580444336,-1.2942076921463013,-0.0,2.1042637825012207,4.955517414003172,-0.0,0.27051669359207153,-1.6312153975116175,0.0,-0.014671089127659798,0.2765163779258728,0.0,-0.0006682302337139845,1.3563119173049927,0.0,0.020395826548337936
173.0,207.0,-0.7352,0.7053,9.664,-0.0421,0.0185,-0.1153,-2.14150395015859,0.0,4.397764205932617,-1.2942479848861694,-0.0,2.0919272899627686,4.9554888037736795,-0.0,0.27459049224853516,-1.631223503743307,0.0,-0.006958972662687302,0.27658069133758545,0.0,-0.013934405520558357,1.356276035308838,0.0,0.03545394912362099
173.0,207.0,-0.7352,0.7053,9.664,-0.0421,0.0185,-0.1153,-2.1415444813170375,0.0,4.416153907775879,-1.2942718267440796,-0.0,2.084080219268799,4.955469119339742,-0.0,0.2755764424800873,-1.6312153975116175,0.0,0.013181610032916069,0.27656832337379456,0.0,-0.011114631779491901,1.3562719821929932,0.0,0.005085519514977932
173.0,207.0,-0.7352,0.7053,9.664,-0.0421,0.0185,-0.1153,-2.1415282688536585,0.0,4.40767240524292,-1.2941995859146118,-0.0,2.122641086578369,4.955481055169859,-0.0,0.26365548372268677,-1.6311910788165491,0.0,-0.008948841132223606,0.27655652165412903,0.0,0.007795589976012707,1.3562721014022827,0.0,0.0660059005022049
173.0,207.0,-0.7352,0.7053,9.664,-0.0421,0.0185,-0.1153,-2.1415564022459925,0.0,4.4671149253845215,-1.2941995859146118,-0.0,2.0796618461608887,4.955513360887327,-0.0,0.26982223987579346,-1.6312111059771937,0.0,-0.007393084466457367,0.2765364646911621,0.0,0.014760979451239109,1.3562438488006592,0.0,-0.02509458176791668
173.0,207.0,-0.7352,0.7053,9.664,-0.0421,0.0185,-0.1153,-2.1415564022459925,0.0,4.428747653961182,-1.294279932975769,-0.0,2.10776948928833,4.955492946296491,-0.0,0.28046852350234985,-1.631240193043844,0.0,-0.005753722507506609,0.2765040099620819,0.0,0.004440974444150925,1.356259822845459,0.0,-0.0031494249124079943
173.0,207.0,-0.7352,0.7053,9.664,-0.0421,0.0185,-0.1153,-2.1415444813170375,0.0,4.429922103881836,-1.294183373451233,-0.0,2.0729663372039795,4.955481010466375,-0.0,0.27789628505706787,-1.6311715284930628,0.0,-0.003961110487580299,0.27657654881477356,0.0,0.006083543878048658,1.3562721014022827,0.0,-0.010087146423757076
173.0,207.0,-0.7352,0.7053,9.664,-0.0421,0.0185,-0.1153,-2.1415239773192347,0.0,4.469263553619385,-1.2942924499511719,-0.0,2.1133174896240234,4.955481025367536,-0.0,0.26726406812667847,-1.6312115828143519,0.0,-0.0007411523256450891,0.27659285068511963,0.0,-0.002166660036891699,1.356220006942749,0.0,-0.024355603381991386
173.0,207.0,-0.7352,0.7053,9.664,-0.0421,0.0185,-0.1153,-2.1415721378722132,0.0,4.453726768493652,-1.2942557334899902,-0.0,2.099940776824951,4.955484705954351,-0.0,0.2770386040210724,-1.6312034765826624,0.0,-0.005840599071234465,0.2765442132949829,0.0,0.005379664711654186,1.356251835823059,0.0,0.012362388893961906
173.0,207.0,-0.7352,0.7053,9.664,-0.0421,0.0185,-0.1153,-2.1415282688536585,0.0,4.4723286628723145,-1.2942476272583008,-0.0,2.0960774421691895,4.955505135446348,-0.0,0.2702731788158417,-1.6312111059771937,0.0,-0.00709502212703228,0.2765487730503082,0.0,0.005227142479270697,1.3562841415405273,0.0,-0.003778037615120411
173.0,207.0,-0.7352,0.7053,9.664,-0.0421,0.0185,-0.1153,-2.1415282688536585,0.0,4.408429145812988,-1.2942557334899902,-0.0,2.0846097469329834,4.955488788872518,-0.0,0.2713148593902588,-1.6312359015094202,0.0,-0.0009643876692280173,0.2765442132949829,0.0,0.012622002512216568,1.356227993965149,0.0,-0.004988613538444042
173.0,207.0,-0.7352,0.7053,9.664,-0.0421,0.0185,-0.1153,-2.14150395015859,1.376175077894004e-06,4.409703254699707,-1.2942118644714355,-0.0,2.0770416259765625,4.955488818674841,-0.0,0.2631474733352661,-1.6311991850482386,0.0,-0.001488175941631198,0.2765204608440399,0.0,0.008425809442996979,1.356299877166748,0.0,-0.024450009688735008
173.0,207.0,-0.7352,0.7053,9.664,-0.0421,0.0185,-0.1153,-2.141491552392477,3.323301269592127e-12,4.447002410888672,-1.2942276000976562,-0.0,2.1099541187286377,4.95547695735053,-0.0,0.28740131855010986,-1.631195370350973,0.0,-0.0047187586314976215,0.27657246589660645,0.0,0.008231263607740402,1.3562721014022827,0.0,-0.01181916706264019
173.0,207.0,-0.7352,0.7053,9.664,-0.0421,0.0185,-0.1153,-2.141520162621969,8.025381576425217e-18,4.4018449783325195,-1.2942562103271484,-0.0,2.0739831924438477,4.955476942449369,-0.0,0.2770845592021942,-1.6312111059771937,0.0,-0.0008800426148809493,0.2764999270439148,0.0,0.005752406548708677,1.356227993965149,0.0,-0.059319835156202316
173.0,207.0,-0.7352,0.7053,9.664,-0.0421,0.0185,-0.1153,-2.1415568790831507,1.938035291079169e-23,4.390268802642822,-1.2942397594451904,-0.0,2.055427312850952,4.955472785025396,-0.0,0.2653360664844513,-1.6312359015094202,0.0,0.0021378928795456886,0.27655646204948425,0.0,0.002419206779450178,1.356276035308838,0.0,-0.00820365734398365
173.0,207.0,-0.7352,0.7053,9.664,-0.0421,0.0185,-0.1153,-2.1415163479247035,4.6801268252904154e-29,4.443062782287598,-1.2941871881484985,-0.0,2.135759115219116,4.955497073918142,-0.0,0.27626365423202515,-1.6312115828143519,0.0,0.00032994593493640423,0.27656471729278564,0.0,-0.005954388529062271,1.3562239408493042,0.0,0.0019557392224669456
180.0,205.0,-0.7298,0.7418,9.7304,-0.0308,0.0221,-0.1176,-2.1415802441039027,1.1301955739873968e-34,4.454456329345703,-1.2942036390304565,-0.0,2.093763589859009,4.955465036421575,-0.0,0.2783578038215637,-1.6312034765826624,0.0,-0.012205767445266247,0.27655643224716187,0.0,-0.01147596724331379,1.3562959432601929,0.0,0.007929950952529907
180.0,205.0,-0.7298,0.7418,9.7304,-0.0308,0.0221,-0.1176,-2.1415401897826136,2.729295005980803e-40,4.4588623046875,-1.294183373451233,-0.0,2.10137939453125,4.95549704411582,-0.0,0.2584707736968994,-1.6311991850482386,0.0,-0.0016922644572332501,0.2765442132949829,0.0,-0.006655244156718254,1.356259822845459,0.0,0.022922351956367493
180.0,205.0,-0.7298,0.7418,9.7304,-0.0308,0.0221,-0.1176,-2.1415325603880824,0.0,4.440030574798584,-1.2942476272583008,-0.0,2.186946153640747,4.955505120545187,-0.0,0.27329471707344055,-1.631251637135641,0.0,-0.017987288534641266,0.27656877040863037,0.0,0.00544060068204999,1.3563199043273926,0.0,-0.054944444447755814
180.0,205.0,-0.7298,0.7418,9.7304,-0.0308,0.0221,-0.1176,-2.1415444813170375,0.0,4.482828617095947,-1.294183373451233,-0.0,2.1511969566345215,4.9554810402686975,-0.0,0.27629730105400085,-1.6311910788165491,0.0,-0.0008591820951551199,0.2765199840068817,0.0,0.0026943515986204147,1.3562400341033936,0.0,-0.02302534505724907
180.0,205.0,-0.7298,0.7418,9.7304,-0.0308,0.0221,-0.1176,-2.1415521107115687,0.0,4.423093318939209,-1.294183373451233,-0.0,2.1141109466552734,4.955501141935148,-0.0,0.2703826427459717,-1.6312239805804651,0.0,0.005532579496502876,0.2765524387359619,0.0,0.0013553658500313759,1.3562361001968384,0.0,-0.026431964710354805
180.0,205.0,-0.7298,0.7418,9.7304,-0.0308,0.0221,-0.1176,-2.1415444813170375,0.0,4.440995693206787,-1.294183373451233,-0.0,2.0871975421905518,4.955505105644026,-0.0,0.2749421000480652,-1.6312320868121546,0.0,-0.012337548658251762,0.27658477425575256,0.0,-0.018310796469449997,1.3562721014022827,0.0,0.029919354245066643
180.0,205.0,-0.7298,0.7418,9.7304,-0.0308,0.0221,-0.1176,-2.1415206394591273,0.0,4.415622234344482,-1.2942200899124146,-0.0,2.0943915843963623,4.955456810980596,-0.0,0.2785244882106781,-1.6312196890460413,0.0,-0.012198839336633682,0.27652043104171753,0.0,0.002346782712265849,1.3562999963760376,0.0,-0.02322791889309883
180.0,205.0,-0.7298,0.7418,9.7304,-0.0308,0.0221,-0.1176,-2.1414958439269007,0.0,4.366779804229736,-1.294231653213501,6.796129631281289e-11,2.0931193828582764,4.95547695735053,-0.0,0.27305668592453003,-1.6311834494220179,0.0,-0.018404893577098846,0.27658072113990784,0.0,0.0021352958865463734,1.356276035308838,0.0,0.004434879869222641
180.0,205.0,-0.7298,0.7418,9.7304,-0.0308,0.0221,-0.1176,-2.141491552392477,0.0,4.422728538513184,-1.2942076921463013,1.6411852305648207e-16,2.137086868286133,4.955492961197653,-0.0,0.26861950755119324,-1.6312111059771937,0.0,0.004056084901094437,0.27656471729278564,0.0,-0.00821230374276638,1.356268048286438,0.0,0.06554710865020752
180.0,205.0,-0.7298,0.7418,9.7304,-0.0308,0.0221,-0.1176,-2.1415564022459925,0.0,4.434671401977539,-1.2942639589309692,3.963268742266572e-22,2.1003317832946777,4.95549704411582,-0.0,0.2744327783584595,-1.631195370350973,0.0,0.004458341747522354,0.27652043104171753,0.0,-0.012774859555065632,1.3562880754470825,0.0,-0.014636504463851452
180.0,205.0,-0.7298,0.7418,9.7304,-0.0308,0.0221,-0.1176,-2.1415239773192347,0.0,4.419399261474609,-1.2942036390304565,9.570827006609732e-28,2.0556883811950684,4.9554810402686975,-0.0,0.2785128355026245,-1.631280247365133,0.0,-0.006826198659837246,0.2765728533267975,0.0,0.006323941517621279,1.3562841415405273,0.0,-0.021760474890470505
180.0,205.0,-0.7298,0.7418,9.7304,-0.0308,0.0221,-0.1176,-2.141548296014303,0.0,4.425589561462402,-1.2942076921463013,2.3112422989073964e-33,2.1243746280670166,4.95547695735053,-0.0,0.27808237075805664,-1.6312153975116175,0.0,-0.009452649392187595,0.276560515165329,0.0,-0.00970123428851366,1.3562841415405273,0.0,-0.025244038552045822
180.0,205.0,-0.7298,0.7418,9.7304,-0.0308,0.0221,-0.1176,-2.141520162621969,0.0,4.437878608703613,-1.2942076921463013,5.581378789898068e-39,2.1097073554992676,4.9554452923829935,-0.0,0.27004408836364746,-1.6311991850482386,0.0,-0.00385353178717196,0.2765163779258728,0.0,0.00023920938838273287,1.3562840223312378,0.0,-0.007814562879502773
180.0,205.0,-0.7298,0.7418,9.7304,-0.0308,0.0221,-0.1176,-2.14153589824819,0.0,4.441768169403076,-1.2942479848861694,1.401298464324817e-44,2.11531662940979,4.955521422415533,-0.0,0.2651984691619873,-1.6312597433673304,0.0,-0.008602495305240154,0.27648410201072693,0.0,-0.0009543325286358595,1.3562840223312378,0.0,-0.0018730014562606812
180.0,205.0,-0.7298,0.7418,9.7304,-0.0308,0.0221,-0.1176,-2.1415521107115687,0.0,4.444047927856445,-1.294219732284546,-0.0,2.1199252605438232,4.955428975611486,-0.0,0.2739979326725006,-1.6312277952777308,0.0,-0.01104579959064722,0.276532381772995,0.0,-0.004837499000132084,1.3563239574432373,0.0,0.0011410359293222427
174.0,204.0,-0.4624,-0.1675,9.5444,-0.0753,0.0127,-0.0892,-2.1415401897826136,0.0,4.414752006530762,-1.2942397594451904,-0.0,2.0917930603027344,4.955472799926557,-0.0,0.2830233573913574,-1.6312392393695276,0.0,-0.011623881757259369,0.27657654881477356,0.0,0.009585995227098465,1.3562959432601929,0.0,-0.044921305030584335
174.0,204.0,-0.4624,-0.1675,9.5444,-0.0753,0.0127,-0.0892,-2.141564031640524,0.0,4.446930885314941,-1.2941752672195435,-0.0,2.0719547271728516,4.9554772702749155,-0.0,0.2757467031478882,-1.6312792936908167,-0.001323562115430832,-0.019508836790919304,0.2765769362449646,0.0,-5.173240788280964e-05,1.3563398122787476,0.0006944608176127076,-0.04113335534930229
174.0,204.0,-0.4624,-0.1675,9.5444,-0.0753,0.0127,-0.0892,-2.1415964565672816,0.0,4.40867805480957,-1.2941995859146118,-0.0,2.105403184890747,4.955405133753576,-0.0,0.2798836827278137,-1.6313031355487269,-0.001907950732856989,0.005924426019191742,0.27656877040863037,0.0,-0.008212421089410782,1.356387734413147,0.004988414701074362,-0.00990656204521656
174.0,204.0,-0.4624,-0.1675,9.5444,-0.0753,0.0127,-0.0892,-2.1415521107115687,0.0,4.406678676605225,-1.294191598892212,-0.0,2.071531295776367,4.9554772702749155,-0.0,0.2615163028240204,-1.6313274542437952,-0.0012200624914839864,-0.008412718772888184,0.2765163779258728,0.0,-0.012116704136133194,1.3564354181289673,0.012636016122996807,0.03152739629149437
174.0,204.0,-0.4624,-0.1675,9.5444,-0.0753,0.0127,-0.0892,-2.141547819177145,0.0,4.442058086395264,-1.2941954135894775,-0.0,2.063995361328125,4.955505105644026,-0.0,0.2694649398326874,-1.631303612385885,-0.0007722829468548298,0.009926761500537395,0.276524156332016,0.0,0.007956797257065773,1.3566275835037231,0.02128658816218376,-0.026361215859651566
174.0,204.0,-0.4624,-0.1675,9.5444,-0.0753,0.0127,-0.0892,-2.1415888271727503,0.0,4.4571685791015625,-1.2941954135894775,0.00015231464931275696,2.124159336090088,4.95542927363471,-0.0,0.2819012403488159,-1.631303612385885,-0.0005643800250254571,-0.00630433252081275,0.2765524387359619,0.0,-0.004217090550810099,1.3567146062850952,0.025291718542575836,0.04767069220542908
174.0,204.0,-0.4624,-0.1675,9.5444,-0.0753,0.0127,-0.0892,-2.1415564022459925,0.0,4.4573493003845215,-1.2941550016403198,0.0001422791974619031,2.123039960861206,4.955465066223898,-0.0,0.2848457098007202,-1.6312993208514612,-0.0004447466635610908,-0.004482935182750225,0.27657291293144226,0.0,-0.006855483166873455,1.3568265438079834,0.02945851720869541,0.02900378406047821
174.0,204.0,-0.4624,-0.1675,9.5444,-0.0753,0.0127,-0.0892,-2.141592641870016,7.85233532951679e-06,4.41705322265625,-1.2942036390304565,0.0001361304457532242,2.0858426094055176,4.955449360399999,-0.0,0.27110058069229126,-1.6312711874591272,-0.0003896916750818491,0.0026343632489442825,0.2765728831291199,0.0,-0.009884175844490528,1.3569622039794922,0.032786231487989426,0.042678527534008026
174.0,204.0,-0.4624,-0.1675,9.5444,-0.0753,0.0127,-0.0892,-2.1415277920165003,1.0840448339877184e-05,4.456006050109863,-1.2941912412643433,0.00012784321734216064,2.1052699089050293,4.95544113495902,-0.0,0.2657335102558136,-1.6312792936908167,-0.0003286746214143932,-0.008765680715441704,0.27654048800468445,0.0,0.003867382649332285,1.357161521911621,0.03557991236448288,0.038489069789648056
174.0,204.0,-0.4624,-0.1675,9.5444,-0.0753,0.0127,-0.0892,-2.1415163479247035,1.0462414138601162e-05,4.421554088592529,-1.2941633462905884,0.00012050705845467746,2.0616321563720703,4.955472770124235,-0.0,0.27099257707595825,-1.6312831083880823,-0.00028418379952199757,0.003746954957023263,0.2765405476093292,0.0,-0.003993704449385405,1.3574053049087524,0.03673819452524185,0.0319267138838768
174.0,204.0,-0.4624,-0.1675,9.5444,-0.0753,0.0127,-0.0892,-2.1415444813170375,1.0109843060490675e-05,4.451756954193115,-1.2942237854003906,0.00011396720947232097,2.0945522785186768,4.955541270762243,-0.0,0.2786499559879303,-1.6312792936908167,-0.00025030362303368747,-0.019088931381702423,0.2765848934650421,0.0,-0.00529046356678009,1.3576533794403076,0.035775136202573776,0.04129374772310257
174.0,204.0,-0.4624,-0.1675,9.5444,-0.0753,0.0127,-0.0892,-2.1415239773192347,1.5450249080117828e-08,4.47111177444458,-1.2942200899124146,9.156652959063649e-05,2.1076865196228027,4.955472799926557,-0.0,0.28800535202026367,-1.6312792936908167,-0.00010955784819088876,-0.003347317688167095,0.27655652165412903,0.0,0.006181838922202587,1.3577677011489868,0.03367501124739647,0.039791520684957504
174.0,204.0,-0.4624,-0.1675,9.5444,-0.0753,0.0127,-0.0892,-2.1415282688536585,3.7310540941526416e-14,4.458632469177246,-1.294183373451233,7.944038952700794e-05,2.1083710193634033,4.955521124392309,-0.0,0.2754974067211151,-1.63129169145693,-6.209407729329541e-05,-0.008544720709323883,0.2765647768974304,0.0,0.008640684187412262,1.3580111265182495,0.029566524550318718,0.01742112822830677
174.0,204.0,-0.4624,-0.1675,9.5444,-0.0753,0.0127,-0.0892,-2.1415521107115687,9.010057713650465e-20,4.431424617767334,-1.2941793203353882,7.015166193014011e-05,2.0706138610839844,4.955505120545187,-0.0,0.2776992917060852,-1.631275478993551,-5.626065103569999e-05,0.0016964469105005264,0.27656471729278564,0.0,0.011165560223162174,1.3581187725067139,0.024880150333046913,0.038087427616119385
174.0,204.0,-0.4624,-0.1675,9.5444,-0.0753,0.0127,-0.0892,-2.141576429406637,2.175822836752819e-25,4.415536880493164,-1.2942076921463013,6.280795787461102e-05,2.1294729709625244,4.9555293945367715,-0.0,0.2759370803833008,-1.631275478993551,-4.4886321120429784e-05,-0.01012679748237133,0.27656474709510803,0.0,0.006278002168983221,1.3582864999771118,0.01819155178964138,-0.006214007269591093
177.0,207.0,-1.1934,1.7539,9.7496,-0.0224,0.031,-0.1254,-2.141547819177145,5.254356774870493e-31,4.419994354248047,-1.2942036390304565,2.842864705598913e-05,2.1154706478118896,4.955492990999975,-0.0,0.2852709889411926,-1.6312835852252405,-2.4097309506032616e-05,-0.011991748586297035,0.2764880061149597,0.0,-0.0038872037548571825,1.3583780527114868,0.01134166307747364,-0.01296995859593153
177.0,207.0,-1.1934,1.7539,9.7496,-0.0224,0.031,-0.1254,-2.1415397129454554,1.2688654907309753e-36,4.389820098876953,-1.2942076921463013,2.5967307010432705e-05,2.0689444541931152,4.95549704411582,-0.0,0.2738187909126282,-1.631303612385885,-2.195422894146759e-05,-0.0028129026759415865,0.2765405476093292,0.0,-0.0015431782230734825,1.3583941459655762,0.00493223313242197,-0.019255848601460457
177.0,207.0,-1.1934,1.7539,9.7496,-0.0224,0.031,-0.1254,-2.1415721378722132,3.064639741478375e-42,4.434746742248535,-1.2941714525222778,2.3898708604974672e-05,2.0845541954040527,4.955445277481832,-0.0,0.27504363656044006,-1.631279770527975,-2.0457002392504364e-05,0.004369405563920736,0.27658066153526306,0.0,0.0009170715347863734,1.3583860397338867,0.0010784477926790714,0.011083640158176422
177.0,207.0,-1.1934,1.7539,9.7496,-0.0224,0.031,-0.1254,-2.1415964565672816,0.0,4.402102470397949,-1.2942237854003906,2.2135338440421037e-05,2.078031539916992,4.9554772702749155,-0.0,0.27253633737564087,-1.6312554518329065,-1.915103530336637e-05,-0.011901801452040672,0.276532381772995,0.0,-0.0008563157171010971,1.3583900928497314,-0.0008007985888980329,0.022996483370661736
177.0,207.0,-1.1934,1.7539,9.7496,-0.0224,0.031,-0.1254,-2.141532083550924,0.0,4.421554088592529,-1.2942237854003906,4.1131705074803904e-05,2.092411994934082,4.955472799926557,-0.0,0.27561691403388977,-1.6312592665301722,-1.800181416911073e-05,-0.0018119944725185633,0.27654463052749634,0.0,-0.0031664306297898293,1.3583462238311768,-0.0013732219813391566,0.043799351900815964
177.0,207.0,-1.1934,1.7539,9.7496,-0.0224,0.031,-0.1254,-2.1415683231749476,0.0,4.433887004852295,-1.2941874265670776,5.77761820750311e-05,2.0965404510498047,4.955465036421575,-0.0,0.2695634663105011,-1.6312153975116175,-1.6982727174763568e-05,0.003454437479376793,0.2765483856201172,0.0,0.005332783795893192,1.358362078666687,-0.004086511675268412,-0.05630752444267273
177.0,207.0,-1.1934,1.7539,9.7496,-0.0224,0.031,-0.1254,-2.1415277920165003,0.0,4.46502685546875,-1.2942159175872803,5.437084109871648e-05,2.0244393348693848,4.955489131599226,-0.0,0.28160804510116577,-1.631263558064596,-1.6072855942184106e-05,-0.012416025623679161,0.2765364646911621,0.0,-0.004269854631274939,1.3582983016967773,-0.004934356547892094,-0.010646268725395203
177.0,207.0,-1.1934,1.7539,9.7496,-0.0224,0.031,-0.1254,-2.1415239773192347,0.0,4.436546325683594,-1.2942118644714355,6.835506792413071e-05,2.1134872436523438,4.955465036421575,-0.0,0.2670767605304718,-1.6312430540667933,-1.5255509424605407e-05,-0.010353325866162777,0.27656054496765137,0.0,-0.001339905895292759,1.3582384586334229,-0.004768680781126022,0.006228522397577763
177.0,207.0,-1.1934,1.7539,9.7496,-0.0224,0.031,-0.1254,-2.1415397129454554,0.0,4.438053131103516,-1.294191598892212,9.209613199345767e-05,2.1009159088134766,4.95548107007102,-0.0,0.2621448040008545,-1.631247345601217,-2.4821093802529504e-07,-0.007292631082236767,0.27656877040863037,0.0,0.0032060793600976467,1.3582104444503784,-0.004490741528570652,0.004425874911248684
177.0,207.0,-1.1934,1.7539,9.7496,-0.0224,0.031,-0.1254,-2.1415683231749476,0.0,4.4468278884887695,-1.2942242622375488,0.00076301209628582,2.1096482276916504,4.955460938602247,-0.0,0.26873844861984253,-1.6312592665301722,-6.90904347622201e-11,-0.00793297030031681,0.27654463052749634,0.0,-0.004138274118304253,1.358182430267334,-0.0045602028258144855,-0.0061085838824510574
177.0,207.0,-1.1934,1.7539,9.7496,-0.0224,0.031,-0.1254,-2.141580720941061,0.0,4.363907814025879,-1.294127106666565,0.0006124547799117863,2.052415370941162,4.955493274122038,-0.0,0.2823031544685364,-1.631275478993551,-1.9231576441481983e-14,5.9604644775390625e-06,0.27648815512657166,0.0,-0.0030575115233659744,1.3582065105438232,-0.004454353358596563,-0.00614106934517622
177.0,207.0,-1.1934,1.7539,9.7496,-0.0224,0.031,-0.1254,-2.141576429406637,0.0,4.377326965332031,-1.2941631078720093,0.0004569141601677984,2.091618537902832,4.955449360399999,-0.0,0.27035239338874817,-1.631263558064596,-5.3531799842466425e-18,-0.009521114639937878,0.2765929102897644,0.0,0.010759256780147552,1.3581269979476929,-0.0032372528221458197,-0.049405571073293686
177.0,207.0,-1.1934,1.7539,9.7496,-0.0224,0.031,-0.1254,-2.141564031640524,0.0,4.388038635253906,-1.2941426038742065,0.0003643907839432359,2.1258230209350586,4.955509322672643,-0.0,0.28277212381362915,-1.6312835852252405,-1.4900773191445029e-21,-0.010908437892794609,0.2765125632286072,0.0,-0.009258660487830639,1.358122706413269,-0.0024219676852226257,0.000886663154233247
177.0,207.0,-1.1934,1.7539,9.7496,-0.0224,0.031,-0.1254,-2.1415559254088343,0.0,4.39802360534668,-1.2941632270812988,0.00035329340607859194,2.0402421951293945,4.955409127264776,-0.0,0.2868848145008087,-1.631247345601217,-4.147684207346548e-25,-0.0034671039320528507,0.2765324115753174,0.0,0.005222752224653959,1.3581029176712036,-0.0022090983111411333,0.035187650471925735
177.0,207.0,-1.1934,1.7539,9.7496,-0.0224,0.031,-0.1254,-2.141532083550924,0.0,4.4283447265625,-1.2941550016403198,0.00030259258346632123,2.1140589714050293,4.955437126546659,-0.0,0.28334203362464905,-1.631251637135641,-1.154523140399098e-28,-0.0008060623076744378,0.276592880487442,0.0,-0.00876702181994915,1.3581148386001587,-0.0021256175823509693,-0.002806298900395632
173.0,209.0,-0.6179,0.53,9.7765,-0.0402,0.0234,-0.1248,-2.141592641870016,0.0,4.432414531707764,-1.2941838502883911,0.00026448015705682337,2.087136745452881,4.955457421928205,-0.0,0.27507585287094116,-1.6312311331378382,-3.2136572632165706e-32,-0.004157034680247307,0.2765769362449646,0.0,0.0164481308311224,1.3581030368804932,-0.0022477111779153347,-0.02073982171714306
173.0,209.0,-0.6179,0.53,9.7765,-0.0402,0.0234,-0.1248,-2.1415683231749476,0.0,4.46708345413208,-1.2941999435424805,0.00026829104172065854,2.0729384422302246,4.955437409668722,-0.0,0.2607669234275818,-1.6312993208514612,-8.94533192608936e-36,-0.01239822804927826,0.2765240967273712,0.0,0.008762765675783157,1.3580468893051147,-0.00205898261629045,0.004813003353774548
173.0,209.0,-0.6179,0.53,9.7765,-0.0402,0.0234,-0.1248,-2.141592641870016,0.0,4.448844909667969,-1.2941393852233887,0.00020347880490589887,2.079962730407715,4.955501499563017,-0.0,0.2721394896507263,-1.631251637135641,-2.489965839960303e-39,-0.0034012682735919952,0.2765163779258728,0.0,-0.016794316470623016,1.3580189943313599,-0.001700586755760014,-0.010822417214512825
173.0,209.0,-0.6179,0.53,9.7765,-0.0402,0.0234,-0.1248,-2.1415683231749476,0.0,4.424213409423828,-1.2941027879714966,0.0002579576976131648,2.093506336212158,4.955457421928205,-0.0,0.26671087741851807,-1.6312392393695276,-6.9364273984078445e-43,-0.005664752796292305,0.27656880021095276,0.0,0.009652344509959221,1.358070969581604,-0.0015389586333185434,0.015112385153770447
173.0,209.0,-0.6179,0.53,9.7765,-0.0402,0.0234,-0.1248,-2.1415683231749476,0.0,4.4322638511657715,-1.294094204902649,0.0016258169198408723,2.129802942276001,4.955409097462454,-0.0,0.27741098403930664,-1.6312392393695276,-0.0,0.00479426933452487,0.2765970826148987,0.0,-0.006283762864768505,1.3580470085144043,-0.001279739779420197,0.018476761877536774
173.0,209.0,-0.6179,0.53,9.7765,-0.0402,0.0234,-0.1248,-2.1415683231749476,0.0,4.428774833679199,-1.2941879034042358,0.002787242643535137,2.1235313415527344,4.955445262580671,-0.0,0.2827686071395874,-1.631263558064596,-0.0,0.0013779392465949059,0.276532381772995,0.0,0.003959610126912594,1.3580509424209595,-0.0009850292699411511,-0.013154877349734306
173.0,209.0,-0.6179,0.53,9.7765,-0.0402,0.0234,-0.1248,-2.1415120563902796,0.0,4.426034450531006,-1.2940751314163208,0.003908385522663593,2.1095097064971924,4.955449360399999,-0.0,0.2696596384048462,-1.631247345601217,-0.0,-0.006070243194699287,0.2765524685382843,0.0,0.00046315492363646626,1.358031153678894,-0.0007705059833824635,0.02449408546090126
173.0,209.0,-0.6179,0.53,9.7765,-0.0402,0.0234,-0.1248,-2.1415559254088343,0.0,4.437435626983643,-1.2940751314163208,0.004559917841106653,2.117286205291748,4.955457451730528,-0.0,0.2773679792881012,-1.6313079039203089,-0.0,-0.0033681937493383884,0.2765282690525055,0.0,0.011349637992680073,1.3580350875854492,-0.00059459765907377,-0.025306835770606995
173.0,209.0,-0.6179,0.53,9.7765,-0.0402,0.0234,-0.1248,-2.141564031640524,0.0,4.451186180114746,-1.294030785560608,0.004415823612362146,2.112281322479248,4.955409127264776,-0.0,0.27454981207847595,-1.6312153975116175,-0.0,0.003484831191599369,0.27658477425575256,0.0,0.006898767780512571,1.358039140701294,-0.0006694538751617074,0.01770058274269104
173.0,209.0,-0.6179,0.53,9.7765,-0.0402,0.0234,-0.1248,-2.1415721378722132,0.0,4.471677780151367,-1.2939789295196533,0.0030590156093239784,2.126155138015747,4.955465692072668,-0.00010116649355040863,0.27747803926467896,-1.6312239805804651,5.901804979657754e-05,-0.010674340650439262,0.2765728533267975,0.0,-0.0005097212269902229,1.35801100730896,-0.0007897273171693087,-0.026341788470745087
173.0,209.0,-0.6179,0.53,9.7765,-0.0402,0.0234,-0.1248,-2.141588350335592,0.0,4.4485979080200195,-1.2940032482147217,0.0014847794082015753,2.139287233352661,4.955441537290373,-0.00011923450801987201,0.274733304977417,-1.6312716642962855,5.486904410645366e-05,0.006502160802483559,0.2765044569969177,0.0,-0.009551824070513248,1.3580188751220703,-0.0007316316477954388,0.01249625626951456
173.0,209.0,-0.6179,0.53,9.7765,-0.0402,0.0234,-0.1248,-2.1415683231749476,0.0,4.396380424499512,-1.2940274477005005,0.0008692719275131822,2.105834484100342,4.955425101309576,-0.00013042939826846123,0.2631082534790039,-1.631179157887594,7.371896936092526e-05,-0.004466596525162458,0.2765163779258728,0.0,0.008485241793096066,1.3580188751220703,-0.0005629561492241919,-0.004583368077874184
173.0,209.0,-0.6179,0.53,9.7765,-0.0402,0.0234,-0.1248,-2.1416083774962367,0.0,4.433884620666504,-1.2940311431884766,0.0006146589294075966,2.0823440551757812,4.9554296908672235,-0.00012287557183299214,0.2634853422641754,-1.6312359015094202,6.95770067977719e-05,0.005992880556732416,0.2765122354030609,0.0,-0.0014280902687460184,1.3580471277236938,-0.00045597419375553727,0.014836135320365429
173.0,209.0,-0.6179,0.53,9.7765,-0.0402,0.0234,-0.1248,-2.141564031640524,-0.0002300268824910745,4.395805358886719,-1.2940229177474976,0.0004754458204843104,2.1002490520477295,4.955441537290373,-0.00013259310799185187,0.26660650968551636,-1.6312320868121546,6.457992276409641e-05,-0.014819087460637093,0.27656877040863037,0.0,-0.003963237628340721,1.3580108880996704,-0.0003831656649708748,0.041195329278707504
173.0,209.0,-0.6179,0.53,9.7765,-0.0402,0.0234,-0.1248,-2.141588350335592,-0.00026547207380644977,4.40920352935791,-1.2939748764038086,0.0004422477213665843,2.107496738433838,4.955442043929853,-0.00012571702245622873,0.2722916007041931,-1.631195370350973,6.0255075368331745e-05,-0.0010629745665937662,0.2765483856201172,0.0,-0.0033364854753017426,1.35801100730896,-0.00028930860571563244,-0.014676390215754509
174.0,212.0,-0.9242,0.8315,9.6269,-0.0279,0.0363,-0.1205,-2.1415516338744105,-0.00018044000898953527,4.439774513244629,-1.294027328491211,0.00035006768302991986,2.0731210708618164,4.955417352705755,-0.00011945948062930256,0.2711922228336334,-1.631167236958639,7.044275116641074e-05,-0.010141322389245033,0.2765524685382843,0.0,0.005317122675478458,1.3580431938171387,-0.0002541214053053409,-0.035359565168619156
174.0,212.0,-0.9242,0.8315,9.6269,-0.0279,0.0363,-0.1205,-2.1415683231749476,-0.00015685246034990996,4.424656867980957,-1.2940155267715454,0.0026761735789477825,2.1264455318450928,4.9553571222122095,-0.00015872255607973784,0.2767184376716614,-1.631247345601217,7.08518928149715e-05,-0.012566959485411644,0.2765040397644043,0.0,0.005592833738774061,1.3580029010772705,-7.90387493907474e-05,0.003062589094042778
174.0,212.0,-0.9242,0.8315,9.6269,-0.0279,0.0363,-0.1205,-2.141576429406637,-0.00013871933333575726,4.45847225189209,-1.2938783168792725,0.0051424019038677216,2.1430275440216064,4.9554296908672235,-0.00018154471763409674,0.27227309346199036,-1.631195370350973,6.690652662655339e-05,-0.003935743123292923,0.27651259303092957,0.0,0.004030918702483177,1.3580509424209595,-3.4922104532597587e-05,-0.004015074577182531
174.0,212.0,-0.9242,0.8315,9.6269,-0.0279,0.0363,-0.1205,-2.1415840588011683,-0.00012434483505785465,4.4458746910095215,-1.2938745021820068,0.006409578025341034,2.113672971725464,4.955385002284803,-0.00016195235366467386,0.2682313621044159,-1.6311834494220179,6.336908700177446e-05,-0.01156013086438179,0.27660074830055237,0.0,-0.0067877816036343575,1.3580470085144043,-7.141051083792149e-10,0.04916834458708763
174.0,212.0,-0.9242,0.8315,9.6269,-0.0279,0.0363,-0.1205,-2.1416083774962367,-0.0001126693096011877,4.4221510887146,-1.293858528137207,0.007190421689301729,2.1175568103790283,4.9553891001041315,-0.00017342949286103249,0.2766019403934479,-1.6312034765826624,7.473087316611782e-05,-0.001711118035018444,0.27655646204948425,0.0,0.003959566354751587,1.3580708503723145,-1.7244798830291872e-15,0.01496894285082817
174.0,212.0,-0.9242,0.8315,9.6269,-0.0279,0.0363,-0.1205,-2.1415959797301234,-4.2464638681849465e-05,4.389261722564697,-1.2938389778137207,0.007700739894062281,2.164703607559204,4.955377685814657,-0.00018294509209226817,0.2695741057395935,-1.6312034765826624,7.164462294895202e-05,-0.010940637439489365,0.2765728235244751,0.0,-0.010284953750669956,1.3580667972564697,-4.164416156194426e-21,-0.005950374528765678
174.0,212.0,-0.9242,0.8315,9.6269,-0.0279,0.0363,-0.1205,-2.1416121921935023,-0.00010718090197769925,4.441133499145508,-1.2937830686569214,0.00715847872197628,2.0917980670928955,4.955361205130377,-0.00019407892250455916,0.2651505470275879,-1.631179157887594,6.838166882516816e-05,-0.0023904612753540277,0.27651217579841614,0.0,0.0033787116408348083,1.3580669164657593,-1.0056575234940364e-26,0.017915191128849983
174.0,212.0,-0.9242,0.8315,9.6269,-0.0279,0.0363,-0.1205,-2.141575952569479,-0.0006458847783505917,4.405498504638672,-1.293674349784851,0.0060403961688280106,2.0833582878112793,4.9554054317768,-0.0002733025758061558,0.279329776763916,-1.6311796347247522,6.539814785355702e-05,-0.002408243715763092,0.2765524685382843,0.0,-0.0028305419255048037,1.3580909967422485,-2.4285445863023648e-32,-0.0035104909911751747
174.0,212.0,-0.9242,0.8315,9.6269,-0.0279,0.0363,-0.1205,-2.1416527233519496,-0.0006170350825414062,4.399131774902344,-1.2936381101608276,0.004725394304841757,2.104412078857422,4.95541379132823,-0.0002565723261795938,0.2725497782230377,-1.631167236958639,0.00010418891906738281,-0.005667925346642733,0.2765282392501831,0.0,0.0009459900902584195,1.3580549955368042,-5.864648752124094e-38,-0.007518212776631117
174.0,212.0,-0.9242,0.8315,9.6269,-0.0279,0.0363,-0.1205,-2.1416198215880335,-0.0005084147560410202,4.421505451202393,-1.2936867475509644,0.003524401690810919,2.115253210067749,4.955377715616979,-0.0002616482088342309,0.2724434733390808,-1.6311958471881312,9.758949454408139e-05,-0.01082667801529169,0.27654406428337097,0.0,0.008958803489804268,1.358087182044983,-1.4153114489680652e-43,0.008789482526481152
174.0,212.0,-0.9242,0.8315,9.6269,-0.0279,0.0363,-0.1205,-2.1416198215880335,-0.0004195256333332509,4.457478046417236,-1.293634057044983,0.0029084740672260523,2.109863758087158,4.95539319792346,-0.000232924401643686,0.27054959535598755,-1.6311715284930628,0.00010987203131662682,0.0035150274634361267,0.2765442430973053,0.0,-0.006428505294024944,1.3580470085144043,0.0,-0.03535609692335129
174.0,212.0,-0.9242,0.8315,9.6269,-0.0279,0.0363,-0.1205,-2.1416121921935023,-0.00035709733492694795,4.401801109313965,-1.2936509847640991,0.002681947546079755,2.08676815032959,4.95536536255435,-0.0002395485935267061,0.27602413296699524,-1.6311796347247522,0.00012081931345164776,-0.01360863447189331,0.27656471729278564,0.0,-0.0026051923632621765,1.3580870628356934,8.334688027389348e-05,-0.09050358086824417
174.0,212.0,-0.9242,0.8315,9.6269,-0.0279,0.0363,-0.1205,-2.141628404656881,-0.0003108428791165352,4.403563499450684,-1.2936019897460938,0.002987123327329755,2.1461102962493896,4.955377670913496,-0.00024103336909320205,0.26381349563598633,-1.631127659474508,0.00013050355482846498,-0.002267157658934593,0.27656057476997375,0.0,-0.0011423288378864527,1.3580390214920044,3.6413119232747704e-05,-0.1040908694267273
174.0,212.0,-0.9242,0.8315,9.6269,-0.0279,0.0363,-0.1205,-2.1416241131224574,-0.00027519805007614195,4.430063247680664,-1.2936105728149414,0.0036863188724964857,2.124666213989258,4.955409604101934,-0.00022634337074123323,0.2794409990310669,-1.631183926259176,0.00022972766601014882,-0.008731195703148842,0.276532381772995,0.0,-0.00024155620485544205,1.3580950498580933,2.1615729206558854e-09,-0.14581450819969177
174.0,212.0,-0.9242,0.8315,9.6269,-0.0279,0.0363,-0.1205,-2.1416365108885707,-0.00024688735720701516,4.389523983001709,-1.2935991287231445,0.004879307467490435,2.129000663757324,4.955365451961317,-0.00019666524895001203,0.27855244278907776,-1.6312115828143519,0.00022768248163629323,0.00834051612764597,0.27660515904426575,0.0,0.0068414341658353806,1.3580150604248047,5.2199442989906645e-15,-0.17255379259586334
175.0,207.0,-0.7992,0.9817,9.6287,-0.0232,0.0224,-0.135,-2.1416241131224574,-0.00022385854390449822,4.42194938659668,-1.2935872077941895,0.0051893917843699455,2.147900104522705,4.955349045782842,-0.00020855646289419383,0.2745245695114136,-1.6311920324908655,0.00022690603509545326,0.010045845061540604,0.276532381772995,0.0,0.006857379339635372,1.3580390214920044,1.2605549949744072e-20,-0.18292269110679626
175.0,207.0,-0.7992,0.9817,9.6287,-0.0232,0.0224,-0.135,-2.141644140283102,-0.00020475918427109718,4.423942565917969,-1.2935467958450317,0.00531713105738163,2.152212142944336,4.9553571967180154,-0.0001869641273515299,0.26325273513793945,-1.6311476866351526,0.00024389740428887308,0.015727490186691284,0.2765442132949829,0.0,-0.007612045854330063,1.3580788373947144,-0.0005698027089238167,-0.16864536702632904
175.0,207.0,-0.7992,0.9817,9.6287,-0.0232,0.0224,-0.135,-2.141616006890768,-0.00014420543448068202,4.396934986114502,-1.2935233116149902,0.005222672130912542,2.1060776710510254,4.955409648805418,-0.00016936977044679224,0.275930255651474,-1.6311433951007288,0.0002502210845705122,0.018031787127256393,0.2766130268573761,0.0,-0.009481897577643394,1.3580827713012695,-0.000767646764870733,-0.25621533393859863
175.0,207.0,-0.7992,0.9817,9.6287,-0.0232,0.0224,-0.135,-2.1416365108885707,-0.0001310426596319303,4.419249534606934,-1.2935187816619873,0.005010474938899279,2.1376824378967285,4.955369505077162,-0.0001548023719806224,0.27803847193717957,-1.6311877409564417,0.0002904343418776989,0.028057655319571495,0.2765442132949829,0.0,-0.009757114574313164,1.3580070734024048,-0.0017720042960718274,-0.26018956303596497
175.0,207.0,-0.7992,0.9817,9.6287,-0.0232,0.0224,-0.135,-2.141628404656881,-0.00012051424710080028,4.425896167755127,-1.2934023141860962,0.0048293168656528,2.1514668464660645,4.955430063396253,-0.00016628562298137695,0.2809360921382904,-1.631155792866842,0.00029267941135913134,0.005199533421546221,0.2765117883682251,0.0,-0.005543381441384554,1.3580470085144043,-0.002851194702088833,-0.2771645188331604
175.0,207.0,-0.7992,0.9817,9.6287,-0.0232,0.0224,-0.135,-2.141700883904928,-0.00013386194768827409,4.4314775466918945,-1.2934021949768066,0.004711381159722805,2.1179847717285156,4.9553613541419885,-0.00017463658878114074,0.26030075550079346,-1.6311638990985315,0.0002912052150350064,0.02267852984368801,0.2765401303768158,0.0,-0.0032923254184424877,1.35797917842865,-0.0034223394468426704,-0.30896201729774475
175.0,207.0,-0.7992,0.9817,9.6287,-0.0232,0.0224,-0.135,-2.1416079006590785,-0.00012459630670491606,4.413157939910889,-1.2933335304260254,0.004726399201899767,2.1676836013793945,4.955377715616979,-0.00016406962822657079,0.2676727771759033,-1.6311357657061976,0.0002579505671747029,0.0186748206615448,0.27656883001327515,0.0,0.00036850571632385254,1.3579990863800049,-0.0046370187774300575,-0.31066420674324036
175.0,207.0,-0.7992,0.9817,9.6287,-0.0232,0.0224,-0.135,-2.1416803799071253,-0.00012930596130900085,4.383082389831543,-1.2933541536331177,0.0048600975424051285,2.160104274749756,4.955337512284078,-0.00015357127995230258,0.2670693099498749,-1.6311519781695765,0.00026254283147864044,0.013169480487704277,0.27655646204948425,0.0,-0.006648254580795765,1.3579554557800293,-0.00517744105309248,-0.35766780376434326
175.0,207.0,-0.7992,0.9817,9.6287,-0.0232,0.0224,-0.135,-2.1416684589781703,-0.00012768548913300037,4.45047664642334,-1.2933013439178467,0.004388162400573492,2.129006862640381,4.9553293762500665,-0.00013585510896518826,0.27284717559814453,-1.6311076323138636,0.0002538080152589828,0.030651859939098358,0.27657654881477356,0.0,0.009813468903303146,1.3579154014587402,-0.005486932583153248,-0.3989284634590149
175.0,207.0,-0.7992,0.9817,9.6287,-0.0232,0.0224,-0.135,-2.1416408024229945,-0.00012036695261485875,4.386723041534424,-1.2932578325271606,0.004201405216008425,2.1415960788726807,4.955365451961317,-0.00013675563968718052,0.2653422951698303,-1.6311362425433558,0.0002312949363840744,0.022585589438676834,0.2765199542045593,0.0,0.0038866493850946426,1.3578872680664062,-0.005882249213755131,-0.4024736285209656
175.0,207.0,-0.7992,0.9817,9.6287,-0.0232,0.0224,-0.135,-2.141604085961813,-0.00011384190293028951,4.376480579376221,-1.2932898998260498,0.004038483835756779,2.162843704223633,4.955357152014532,-0.00014927075244486332,0.26044613122940063,-1.6311481634723108,0.00020039090304635465,0.03271296247839928,0.2765970230102539,0.0,0.007073738146573305,1.3578674793243408,-0.006127574015408754,-0.39867329597473145
175.0,207.0,-0.7992,0.9817,9.6287,-0.0232,0.0224,-0.135,-2.1416484318175257,-0.00010798787843668833,4.377440452575684,-1.2932422161102295,0.00430638063699007,2.103660821914673,4.955381768732824,-0.00014950905460864305,0.27364373207092285,-1.6311519781695765,0.00021196072339080274,0.04349213093519211,0.2765360176563263,0.0,-0.0024127440992742777,1.3578596115112305,-0.006314586848020554,-0.3958834409713745
175.0,207.0,-0.7992,0.9817,9.6287,-0.0232,0.0224,-0.135,-2.141656538049215,-0.00010270648635923862,4.423888206481934,-1.2932138442993164,0.0038468698039650917,2.199695110321045,4.955349418311872,-0.00013957469491288066,0.26115089654922485,-1.6311519781695765,0.00018975813873112202,0.028257330879569054,0.27660107612609863,0.0,-0.005687357857823372,1.3577758073806763,-0.005957068409770727,-0.43726128339767456
175.0,207.0,-0.7992,0.9817,9.6287,-0.0232,0.0224,-0.135,-2.14164461712026,-9.791764023248106e-05,4.389540195465088,-1.2932143211364746,0.003711127443239093,2.157545566558838,4.95533752718524,-0.00014925035065971315,0.2674199342727661,-1.6311195532428187,0.00017165917961392552,0.032911404967308044,0.2765524685382843,0.0,-0.0014067341107875109,1.357771873474121,-0.005750924814492464,-0.44381874799728394
175.0,207.0,-0.7992,0.9817,9.6287,-0.0232,0.0224,-0.135,-2.1416923008360804,-9.355551446788013e-05,4.364843368530273,-1.2931532859802246,0.003345878329128027,2.1084866523742676,4.9553613541419885,-0.0002295175363542512,0.26559656858444214,-1.6310871283160608,0.0001567130966577679,0.03145543858408928,0.27655231952667236,1.9522477856526166e-08,-0.0026479382067918777,1.357779860496521,-0.005056595429778099,-0.4526752531528473
172.0,200.0,-0.6628,0.6742,9.6784,-0.0385,0.0185,-0.1326,-2.141644140283102,-9.7990247013513e-05,4.429705619812012,-1.2931780815124512,0.00235559674911201,2.130282402038574,4.955353516131201,-0.00023828214034438133,0.26982712745666504,-1.631127659474508,0.00014416126941796392,0.04354539513587952,0.27655646204948425,5.4341531274815225e-12,-0.0017992847133427858,1.3576878309249878,-0.004348243121057749,-0.4201868176460266
172.0,200.0,-0.6628,0.6742,9.6784,-0.0385,0.0185,-0.1326,-2.1416527233519496,-9.817336831474677e-05,4.4050374031066895,-1.2931698560714722,0.0016534707974642515,2.145141124725342,4.955341565399923,-0.0002795321343000978,0.2733035981655121,-1.6310995260821741,0.00013347053027246147,0.03427121788263321,0.27655649185180664,1.5126162964927974e-15,-0.01014417503029108,1.3577277660369873,-0.003864309284836054,-0.47769397497177124
172.0,200.0,-0.6628,0.6742,9.6784,-0.0385,0.0185,-0.1326,-2.1416241131224574,-0.00011643267498584464,4.401561260223389,-1.2931129932403564,0.0010681310668587685,2.0920910835266113,4.9552932409341715,-0.0006706066778860986,0.2625166177749634,-1.631127659474508,0.0001242566213477403,0.034071579575538635,0.2765401601791382,4.210423247162158e-19,0.0016337367706000805,1.3576558828353882,-0.0038695265538990498,-0.43727797269821167
172.0,200.0,-0.6628,0.6742,9.6784,-0.0385,0.0185,-0.1326,-2.141632219354147,-0.0001283615711145103,4.422199249267578,-1.2931660413742065,0.0005860228557139635,2.104189395904541,4.955333861499586,-0.0012773842317983508,0.2669300138950348,-1.6311238447772425,0.00011623265163507313,0.034135717898607254,0.27657654881477356,1.1719867917330834e-22,-0.010156790725886822,1.3576363325119019,-0.003649734426289797,-0.43586230278015137
172.0,200.0,-0.6628,0.6742,9.6784,-0.0385,0.0185,-0.1326,-2.141660352746481,-0.00013819753075949848,4.442532062530518,-1.2931212186813354,0.0004213015199638903,2.1401028633117676,4.955293673067846,-0.001406341791152954,0.2648055851459503,-1.6311362425433558,0.0001261668949155137,0.03397360444068909,0.2766130268573761,3.2622683297001985e-26,0.0033439993858337402,1.357580304145813,-0.0038670774083584547,-0.42428451776504517
172.0,200.0,-0.6628,0.6742,9.6784,-0.0385,0.0185,-0.1326,-2.1416360340514125,-0.00038769340608268976,4.411149024963379,-1.2931170463562012,0.00032889487920328975,2.1518197059631348,4.955257567554273,-0.0012275825720280409,0.27892470359802246,-1.631131951008932,0.00012009400961687788,0.019022975116968155,0.27659285068511963,9.080643078746215e-30,-0.008614934980869293,1.3576003313064575,-0.003117614658549428,-0.4666253328323364
172.0,200.0,-0.6628,0.6742,9.6784,-0.0385,0.0185,-0.1326,-2.141660352746481,-0.0003700229281093925,4.414185047149658,-1.2931418418884277,0.0002697384625207633,2.1368136405944824,4.955281752138891,-0.0008839559159241617,0.27080434560775757,-1.6311596075641077,0.00011359790369169787,0.03202550858259201,0.27656465768814087,2.5276309724266094e-33,-0.0006463776808232069,1.3575923442840576,-0.002504817908629775,-0.44913244247436523
172.0,200.0,-0.6628,0.6742,9.6784,-0.0385,0.0185,-0.1326,-2.1416484318175257,-0.0003580750781111419,4.412934303283691,-1.2931537628173828,0.0002286219532834366,2.1410725116729736,4.955253484636106,-0.0006921752938069403,0.26433074474334717,-1.631115738545553,0.0001221409474965185,0.030906394124031067,0.27658069133758545,7.035755020883256e-37,-0.01255575381219387,1.3575724363327026,-0.001920522190630436,-0.42106300592422485
172.0,200.0,-0.6628,0.6742,9.6784,-0.0385,0.0185,-0.1326,-2.1416641674437464,-0.00034961075289174914,4.39381742477417,-1.2931578159332275,0.00019838289881590754,2.109847068786621,4.955249744444647,-0.0005207179929129779,0.27259352803230286,-1.6311400572406214,0.00011715136497514322,0.024568060413002968,0.276601105928421,1.958426707771078e-40,0.0003848975757136941,1.3575685024261475,-0.0015027887420728803,-0.4850426912307739
172.0,200.0,-0.6628,0.6742,9.6784,-0.0385,0.0185,-0.1326,-2.1416598759093226,-0.0003324451972730458,4.378539085388184,-1.2931056022644043,0.00017520888650324196,2.1640477180480957,4.955285507231512,-0.00041719109867699444,0.26388439536094666,-1.6311243216144007,0.00011179941066075116,0.04572790488600731,0.2765846252441406,5.465064010866787e-44,0.004539365414530039,1.3575804233551025,-0.0012805291917175055,-0.522867739200592
172.0,200.0,-0.6628,0.6742,9.6784,-0.0385,0.0185,-0.1326,-2.141684194604391,-0.00032432045554742217,4.381730556488037,-1.2931537628173828,0.0001568831503391266,2.0919318199157715,4.955253484636106,-0.00034801935544237494,0.26188918948173523,-1.631131951008932,8.818735659588128e-05,0.02487076073884964,0.2765442132949829,0.0,0.0022023722995072603,1.3575804233551025,-0.0012179105542600155,-0.49845463037490845
172.0,200.0,-0.6628,0.6742,9.6784,-0.0385,0.0185,-0.1326,-2.1416923008360804,-0.0002764136006589979,4.403539657592773,-1.2930974960327148,0.00017041843966580927,2.1297011375427246,4.955289932876386,-0.0002985295432154089,0.273012638092041,-1.6311076323138636,8.329042611876503e-05,0.03567899763584137,0.27659696340560913,0.0,-0.0012939645675942302,1.3575563430786133,-0.0011277232551947236,-0.5268852710723877
172.0,200.0,-0.6628,0.6742,9.6784,-0.0385,0.0185,-0.1326,-2.141688486138815,-0.0002658054872881621,4.404597282409668,-1.293137788772583,0.0001812820992199704,2.1769399642944336,4.955277669220724,-0.0002613652322907001,0.24986770749092102,-1.6311243216144007,9.41533362492919e-05,0.05602740868926048,0.2765970230102539,0.0,-0.007796787656843662,1.3575602769851685,-0.0011405214900150895,-0.5119096636772156
172.0,200.0,-0.6628,0.6742,9.6784,-0.0385,0.0185,-0.1326,-2.1417085132994593,-0.00024670641869306564,4.378983497619629,-1.2931057214736938,0.00019102453370578587,2.1031687259674072,4.955293673067846,-0.0002324320375919342,0.2723965644836426,-1.6311643759356897,8.995371899800375e-05,0.05512265861034393,0.27652406692504883,0.0,0.0044518280774354935,1.3575643301010132,-0.0011373595334589481,-0.5412740707397461
172.0,200.0,-0.6628,0.6742,9.6784,-0.0385,0.0185,-0.1326,-2.1416765652098597,-0.00022076914319768548,4.371930122375488,-1.293137788772583,0.00014553281653206795,2.11846923828125,4.955297770887174,-0.00020926645083818585,0.26095372438430786,-1.6311076323138636,9.982732444768772e-05,0.04068310558795929,0.27661314606666565,0.0,0.008997473865747452,1.3574885129928589,-0.0014352489961311221,-0.5174384713172913
172.0,200.0,-0.6628,0.6742,9.6784,-0.0385,0.0185,-0.1326,-2.1416598759093226,-0.0002283051871927455,4.418111801147461,-1.2931578159332275,0.00018140669271815568,2.161141872406006,4.95530595162467,-0.00021389422181528062,0.2717258930206299,-1.631127659474508,9.540999599266797e-05,0.043676525354385376,0.2765728831291199,0.0,-0.0002655049320310354,1.3575643301010132,-0.001708293566480279,-0.5812263488769531
168.0,204.0,-0.5372,0.6257,9.7119,-0.0266,0.0124,-0.1223,-2.141667982141012,-0.00020847366249654442,4.397943496704102,-1.293146014213562,0.0005632925895042717,2.1525673866271973,4.955233725696363,-0.00014008439029566944,0.26501303911209106,-1.6311076323138636,9.126361692324281e-05,0.052164215594530106,0.2766048312187195,0.0,0.011684338562190533,1.357532262802124,-0.0017349693225696683,-0.5821207761764526
168.0,204.0,-0.5372,0.6257,9.7119,-0.0266,0.0124,-0.1223,-2.141656061212057,-0.0001752469252096489,4.384031772613525,-1.2931139469146729,0.0004927450208924711,2.128570795059204,4.955221819668569,-0.00019519374473020434,0.26535773277282715,-1.6311519781695765,9.984929056372494e-05,0.055847279727458954,0.2765846252441406,0.0,-0.003972425125539303,1.357532262802124,-0.0017112382920458913,-0.5644018054008484
168.0,204.0,-0.5372,0.6257,9.7119,-0.0266,0.0124,-0.1223,-2.1416760883727015,-0.0001569081359775737,4.426704406738281,-1.2931500673294067,0.0004512784071266651,2.1087300777435303,4.955294045596876,-0.0009493716643191874,0.26655012369155884,-1.631115738545553,9.596058225724846e-05,0.04971243441104889,0.27657246589660645,0.0,0.0034877141006290913,1.357544183731079,-0.0014506364241242409,-0.5379042029380798
168.0,204.0,-0.5372,0.6257,9.7119,-0.0266,0.0124,-0.1223,-2.1416765652098597,-0.00014204865146894008,4.358750343322754,-1.2931334972381592,0.0004316417034715414,2.095503568649292,4.955257954984464,-0.0013157989596948028,0.27924707531929016,-1.6311076323138636,9.227133705280721e-05,0.04053924232721329,0.27663344144821167,0.0,0.0035276757553219795,1.3575164079666138,-0.0011200514854863286,-0.5542198419570923
168.0,204.0,-0.5372,0.6257,9.7119,-0.0266,0.0124,-0.1223,-2.141684194604391,-0.00015571228868793696,4.382925987243652,-1.2931417226791382,0.00047204754082486033,2.096548318862915,4.95523780861453,-0.0012322989059612155,0.269709050655365,-1.6310995260821741,8.885520219337195e-05,0.05669494718313217,0.2765401303768158,0.0,-0.010840490460395813,1.357520341873169,-0.0010256723035126925,-0.5579030513763428
168.0,204.0,-0.5372,0.6257,9.7119,-0.0266,0.0124,-0.1223,-2.1417161426939906,-0.00014331449347082525,4.3910956382751465,-1.2931376695632935,0.000984239624813199,2.158066749572754,4.955217721849241,-0.0008548626792617142,0.2603806257247925,-1.6311200300799769,8.568296470912173e-05,0.04258441925048828,0.27662110328674316,0.0,0.00532373646274209,1.357500433921814,-0.0009510284289717674,-0.6050804257392883
168.0,204.0,-0.5372,0.6257,9.7119,-0.0266,0.0124,-0.1223,-2.14170040706777,-0.00013274532102514058,4.360719680786133,-1.2930984497070312,0.00151716242544353,2.1339240074157715,4.955273943930425,-0.0005444721900857985,0.26166120171546936,-1.631115738545553,8.272942795883864e-05,0.04967636615037918,0.27657654881477356,0.0,-0.0006402019062079489,1.3575084209442139,-0.001122903311625123,-0.5444112420082092
168.0,204.0,-0.5372,0.6257,9.7119,-0.0266,0.0124,-0.1223,-2.141679903069967,-0.00012652478471864015,4.398236274719238,-1.2930610179901123,0.002261748071759939,2.122300148010254,4.955241906433859,-0.00043823759187944233,0.27252718806266785,-1.6311281363116663,8.087363676168025e-05,0.03655824437737465,0.2765524685382843,0.0,0.003057172056287527,1.3574804067611694,-0.0014018442016094923,-0.5520962476730347
168.0,204.0,-0.5372,0.6257,9.7119,-0.0266,0.0124,-0.1223,-2.141691823998922,-0.00011821535736089572,4.389373779296875,-1.2930858135223389,0.0030195440631359816,2.149949073791504,4.955278011947431,-0.0003390693455003202,0.2736772894859314,-1.6310995260821741,0.00010173644113820046,0.04564984515309334,0.2765887975692749,0.0,0.011170808225870132,1.3575047254562378,-0.0018288899445906281,-0.5009061694145203
168.0,204.0,-0.5372,0.6257,9.7119,-0.0266,0.0124,-0.1223,-2.141696115533346,-0.00011092999920947477,4.3718342781066895,-1.293049693107605,0.004107867367565632,2.1544482707977295,4.955281752138891,-0.0002765220997389406,0.2745266854763031,-1.6311562697040003,9.603382204659283e-05,0.060229361057281494,0.2765483856201172,0.0,-3.310630563646555e-05,1.3574448823928833,-0.0022669287864118814,-0.5429108738899231
168.0,204.0,-0.5372,0.6257,9.7119,-0.0266,0.0124,-0.1223,-2.141696115533346,-0.00010449049295857549,4.4131598472595215,-1.2930216789245605,0.004290690645575523,2.1305618286132812,4.9552378235156915,-0.000233464888879098,0.2754068970680237,-1.6310918966876429,9.025537292473018e-05,0.03845210745930672,0.2766169309616089,0.0,-0.0014542925637215376,1.357408881187439,-0.0028685934375971556,-0.5678708553314209
168.0,204.0,-0.5372,0.6257,9.7119,-0.0266,0.0124,-0.1223,-2.1417161426939906,-9.875768591882661e-05,4.370298385620117,-1.2930335998535156,0.00466659152880311,2.161461591720581,4.955277982145109,-0.00020201441657263786,0.2684450149536133,-1.6310837904559534,8.51374861667864e-05,0.048841215670108795,0.27656829357147217,0.0,-0.012835506349802017,1.357408881187439,-0.0037055346183478832,-0.5861287713050842
168.0,204.0,-0.5372,0.6257,9.7119,-0.0266,0.0124,-0.1223,-2.1416360340514125,-9.362119453726336e-05,4.383388042449951,-1.2929694652557373,0.004795682150870562,2.117115020751953,4.955238240748205,-0.00017803216178435832,0.2811102867126465,-1.6311200300799769,8.056047227000818e-05,0.05219731107354164,0.2765805423259735,0.0,0.005524194799363613,1.3574447631835938,-0.0042285737581551075,-0.6142469644546509
168.0,204.0,-0.5372,0.6257,9.7119,-0.0266,0.0124,-0.1223,-2.14170040706777,-8.899252861738205e-05,4.3836774826049805,-1.292908787727356,0.005479366518557072,2.1427624225616455,4.955241906433859,-0.0001888148399302736,0.2813318073749542,-1.6311362425433558,7.645436562597752e-05,0.03909730166196823,0.2765888273715973,0.0,-0.0037267233710736036,1.3573648929595947,-0.0048712678253650665,-0.6085389852523804
168.0,204.0,-0.5372,0.6257,9.7119,-0.0266,0.0124,-0.1223,-2.1416760883727015,-8.480008546030149e-05,4.312942028045654,-1.292958378791809,0.00531230540946126,2.1859679222106934,4.9552259025867365,-0.00020091985061299056,0.27318328619003296,-1.6311362425433558,8.727921522222459e-05,0.06553612649440765,0.2765970528125763,0.0,-0.013494778424501419,1.3573132753372192,-0.005399301648139954,-0.6241634488105774
171.0,201.0,-0.609,0.868,9.4768,-0.0322,0.0238,-0.1222,-2.1416803799071253,-8.098490798147395e-05,4.387577533721924,-1.29286527633667,0.0055530802346765995,2.109276533126831,4.9552259025867365,-0.00017217465210705996,0.26053497195243835,-1.6310837904559534,8.325795351993293e-05,0.05246015638113022,0.2765970528125763,0.0,0.0024458565749228,1.3572973012924194,-0.005868739448487759,-0.5992680788040161
171.0,201.0,-0.609,0.868,9.4768,-0.0322,0.0238,-0.1222,-2.141656061212057,-7.749821816105396e-05,4.406911849975586,-1.2928531169891357,0.00551533093675971,2.0925824642181396,4.955225977092542,-0.0006014725076965988,0.2754870057106018,-1.6311400572406214,7.95804662629962e-05,0.06365478038787842,0.2766251862049103,0.0,-0.01861932873725891,1.3572931289672852,-0.005650421138852835,-0.61582350730896
