ramyac6/ROB537/final_project/csv/good/good_10.csv
tof_0,tof_1,accelx,accely,accelz,gyrox,gyroy,gyroz,shoulder_lift_joint_position,shoulder_lift_joint_velocity,shoulder_lift_joint_effort,elbow_joint_position,elbow_joint_velocity,elbow_joint_effort,wrist_1_joint_position,wrist_1_joint_velocity,wrist_1_joint_effort,wrist_2_joint_position,wrist_2_joint_velocity,wrist_2_joint_effort,wrist_3_joint_position,wrist_3_joint_velocity,wrist_3_joint_effort,shoulder_pan_joint_position,shoulder_pan_joint_velocity,shoulder_pan_joint_effort
265.0,305.0,6.3476,-0.3984,6.4122,-0.044,0.0208,-0.1138,-1.5874515972533167,-5.669560465548784e-08,2.1827077865600586,-1.278914213180542,-0.0,2.1330485343933105,-2.626794000665182,0.0,0.25336846709251404,-1.327141586934225,0.0,-0.0264861062169075,0.5564900636672974,-0.0,-0.006824619136750698,1.2589408159255981,-7.795306737534702e-05,-0.018222805112600327
265.0,305.0,6.3476,-0.3984,6.4122,-0.044,0.0208,-0.1138,-1.5874315700926722,-1.0205008713071173e-11,2.184279203414917,-1.2789301872253418,-0.0,2.0867528915405273,-2.6268140278258265,0.0,0.26164788007736206,-1.3271573225604456,0.0,-0.015270965173840523,0.5565146207809448,-0.0,-0.009399695321917534,1.2589526176452637,-7.607057341374457e-05,-0.01135924644768238
265.0,305.0,6.3476,-0.3984,6.4122,-0.044,0.0208,-0.1138,-1.5874721012511195,-2.4643897513494285e-17,2.1853396892547607,-1.2789424657821655,-0.0,2.099524736404419,-2.626749654809469,0.0,0.253066748380661,-1.3271740118609827,0.0,-0.01433091051876545,0.5565584301948547,-0.0,-0.010712197050452232,1.2589362859725952,-7.341134187299758e-05,-0.012346996925771236
265.0,305.0,6.3476,-0.3984,6.4122,-0.044,0.0208,-0.1138,-1.5874353847899378,-5.951210845198005e-23,2.150623321533203,-1.2789582014083862,-0.0,2.1076951026916504,-2.626709123651022,0.0,0.26642906665802,-1.3271778265582483,0.0,-0.0216057188808918,0.5565546751022339,-0.0,-0.014599179849028587,1.2589646577835083,-7.09318119334057e-05,0.02445840649306774
265.0,305.0,6.3476,-0.3984,6.4122,-0.044,0.0208,-0.1138,-1.5874763927855433,-1.0711971506131274e-26,2.183424949645996,-1.2789667844772339,-0.0,2.13777232170105,-2.6267858944334925,0.0,0.2596106231212616,-1.3271945158587855,0.0,-0.03545119985938072,0.5565465688705444,-0.0,-0.009731036610901356,1.2589166164398193,-2.3674065232626162e-05,-0.0006653978489339352
265.0,305.0,6.3476,-0.3984,6.4122,-0.044,0.0208,-0.1138,-1.5873877010741175,-2.586814615065016e-32,2.1733789443969727,-1.2789585590362549,-0.0,2.083401679992676,-2.626753946343893,0.0,0.25986528396606445,-1.327198330556051,0.0,-0.017042595893144608,0.5565183162689209,-0.0,-0.007217511534690857,1.2589285373687744,-5.717008810801616e-11,-0.0522027350962162
265.0,305.0,6.3476,-0.3984,6.4122,-0.044,0.0208,-0.1138,-1.5873996220030726,-6.246854029307459e-38,2.2044942378997803,-1.278914213180542,-0.0,2.0949418544769287,-2.6267453632750453,0.0,0.262658953666687,-1.32715350786318,0.0,-0.02060847170650959,0.5565060377120972,-0.0,-0.018527325242757797,1.2589285373687744,-1.3805903827350129e-16,-0.015221651643514633
265.0,305.0,6.3476,-0.3984,6.4122,-0.044,0.0208,-0.1138,-1.58746399501943,-1.5134023414708024e-43,2.1928598880767822,-1.2789382934570312,-0.0,2.1315975189208984,-2.626805921594137,0.0,0.267782598733902,-1.3271458784686487,0.0,-0.009841796942055225,0.556606650352478,-0.0,0.0016481734346598387,1.259005069732666,-3.333963727259776e-22,0.018661018460989
265.0,305.0,6.3476,-0.3984,6.4122,-0.044,0.0208,-0.1138,-1.5874396763243617,-0.0,2.2003495693206787,-1.2789461612701416,-0.0,2.0865259170532227,-2.6268183193602503,0.0,0.2665480673313141,-1.3271697203265589,0.0,-0.02462122216820717,0.5565584301948547,-0.0,0.0055295806378126144,1.2589002847671509,-6.001017747816623e-26,0.027984099462628365
284.0,299.0,6.1143,-0.2219,6.5773,-0.0324,0.0429,-0.1173,-1.5874721012511195,0.0,2.1626195907592773,-1.278905987739563,-0.0,2.099811315536499,-2.626794000665182,0.0,0.2704530954360962,-1.3272021452533167,0.0,-0.039176419377326965,0.5564944744110107,-0.0,-0.007998064160346985,1.2589043378829956,-1.449175179019999e-31,0.004682356957346201
284.0,299.0,6.1143,-0.2219,6.5773,-0.0324,0.0429,-0.1173,-1.5874682865538539,0.0,2.1933016777038574,-1.2789582014083862,-0.0,2.0933985710144043,-2.626737257043356,0.0,0.26561081409454346,-1.3271821180926722,0.0,-0.010992499068379402,0.5565100908279419,-0.0,-0.0010756247211247683,1.2589285373687744,-3.4995870902619977e-37,-0.033617209643125534
284.0,299.0,6.1143,-0.2219,6.5773,-0.0324,0.0429,-0.1173,-1.587492128411764,0.0,2.1604232788085938,-1.2789342403411865,-0.0,2.1378166675567627,-2.626709123651022,0.0,0.2670859694480896,-1.3271778265582483,0.0,-0.025365591049194336,0.5565547347068787,-0.0,0.0016930624842643738,1.2588683366775513,-8.449829739878647e-43,0.010930823162198067
284.0,299.0,6.1143,-0.2219,6.5773,-0.0324,0.0429,-0.1173,-1.5874883137144984,0.0,2.1803760528564453,-1.2789342403411865,-0.0,2.076643466949463,-2.6267453632750453,0.0,0.2695881426334381,-1.3271454016314905,0.0,-0.02026980370283127,0.55655837059021,-0.0,-0.0015984147321432829,1.2589448690414429,-0.0,-0.000849439762532711
284.0,299.0,6.1143,-0.2219,6.5773,-0.0324,0.0429,-0.1173,-1.587447305718893,0.0,2.194490432739258,-1.278910517692566,-0.0,2.102388381958008,-2.6267734966673792,0.0,0.2646883428096771,-1.3271740118609827,0.0,-0.020064931362867355,0.5565546751022339,-0.0,-0.009326130151748657,1.258956789970398,0.0,-0.024752303957939148
284.0,299.0,6.1143,-0.2219,6.5773,-0.0324,0.0429,-0.1173,-1.587475915948385,0.0,2.1737213134765625,-1.278942584991455,-0.0,2.0824718475341797,-2.6267620525755824,0.0,0.2758326530456543,-1.3271015326129358,0.0,-0.023601502180099487,0.5565424561500549,-0.0,-0.0035875970497727394,1.2589606046676636,0.0,-0.04823196679353714
284.0,299.0,6.1143,-0.2219,6.5773,-0.0324,0.0429,-0.1173,-1.5874558887877406,0.0,2.207314968109131,-1.2789219617843628,-0.0,2.1012208461761475,-2.6267620525755824,0.0,0.2632311284542084,-1.3271945158587855,0.0,-0.023242201656103134,0.5564699769020081,-0.0,-0.0026128096505999565,1.2589166164398193,0.0,0.051783233880996704
284.0,299.0,6.1143,-0.2219,6.5773,-0.0324,0.0429,-0.1173,-1.5874515972533167,0.0,2.161437511444092,-1.2789582014083862,-0.0,2.085142135620117,-2.626749654809469,0.0,0.26877203583717346,-1.3271496931659144,0.0,-0.03505248203873634,0.5565666556358337,-0.0,-0.013495736755430698,1.2589285373687744,0.0,0.0697144865989685
284.0,299.0,6.1143,-0.2219,6.5773,-0.0324,0.0429,-0.1173,-1.5874840221800746,0.0,2.178104877471924,-1.2789301872253418,-0.0,2.0955920219421387,-2.626705308953756,0.0,0.2690168619155884,-1.3271697203265589,0.0,-0.0335114523768425,0.5565063953399658,-0.0,-0.009437480010092258,1.2589408159255981,0.0,0.012801487930119038
284.0,299.0,6.1143,-0.2219,6.5773,-0.0324,0.0429,-0.1173,-1.5874597034850062,0.0,2.1560750007629395,-1.2789585590362549,-0.0,2.1191399097442627,-2.626770158807272,0.0,0.26511654257774353,-1.3271740118609827,0.0,-0.029707398265600204,0.5565264821052551,-0.0,-0.01145246997475624,1.2589768171310425,0.0,-0.020398957654833794
284.0,299.0,6.1143,-0.2219,6.5773,-0.0324,0.0429,-0.1173,-1.5874678097166957,0.0,2.14460825920105,-1.2788981199264526,-0.0,2.1394505500793457,-2.626777788201803,0.0,0.2549879550933838,-1.3271620909320276,0.0,-0.027938980609178543,0.5565183162689209,-0.0,-0.002509369747713208,1.2589085102081299,0.0,-0.018545085564255714
284.0,299.0,6.1143,-0.2219,6.5773,-0.0324,0.0429,-0.1173,-1.587447305718893,-7.327642379095778e-05,2.2143328189849854,-1.2788898944854736,-0.0,2.1182548999786377,-2.6267734966673792,0.0,0.2729281187057495,-1.3271258513080042,0.0,-0.02989872545003891,0.5565260648727417,-0.0,-0.006506794132292271,1.2589164972305298,0.0,-0.027663862332701683
284.0,299.0,6.1143,-0.2219,6.5773,-0.0324,0.0429,-0.1173,-1.5875078640379847,-9.268122812500224e-05,2.1667449474334717,-1.2789301872253418,-0.0,2.0755057334899902,-2.626766344110006,0.0,0.26838958263397217,-1.32715350786318,0.0,-0.03307976573705673,0.5565220713615417,-0.0,-0.003649332793429494,1.2589166164398193,0.0,0.02514989674091339
284.0,299.0,6.1143,-0.2219,6.5773,-0.0324,0.0429,-0.1173,-1.5874835453429164,-8.833401079755276e-05,2.1846187114715576,-1.2789219617843628,-0.0,2.0844218730926514,-2.6267291508116664,0.0,0.2600662112236023,-1.3271377722369593,0.0,-0.017567582428455353,0.5565183162689209,-0.0,0.004678653087466955,1.2589043378829956,-6.163339616449548e-09,-0.0047054290771484375
284.0,299.0,6.1143,-0.2219,6.5773,-0.0324,0.0429,-0.1173,-1.5874840221800746,-9.823297295952216e-05,2.1955714225769043,-1.2789911031723022,-0.0,2.1066396236419678,-2.6267816028990687,0.0,0.26648005843162537,-1.3271620909320276,0.0,-0.016568271443247795,0.5565302968025208,-0.0,-0.007419245317578316,1.2589366436004639,-1.488374107663261e-14,0.018731888383626938
284.0,299.0,6.1143,-0.2219,6.5773,-0.0324,0.0429,-0.1173,-1.5874959431090296,-9.526473877485842e-05,2.1537089347839355,-1.278954029083252,-0.0,2.093782901763916,-2.6267415485777796,0.0,0.27036052942276,-1.3271620909320276,0.0,-0.028467118740081787,0.5564940571784973,-0.0,0.007560499012470245,1.2589646577835083,-2.6790208691484615e-18,-0.019060490652918816
283.0,306.0,6.478,-0.2991,6.3852,-0.0489,0.0115,-0.1161,-1.587504049340719,-9.113070700550452e-05,2.1510727405548096,-1.278885841369629,-0.0,2.0791125297546387,-2.6267734966673792,0.0,0.26610904932022095,-1.3271015326129358,0.0,-0.022513121366500854,0.5565629601478577,-0.0,-0.010504418984055519,1.2589043378829956,-6.4695216477817034e-24,0.03852064162492752
283.0,306.0,6.478,-0.2991,6.3852,-0.0489,0.0115,-0.1161,-1.587471147576803,-8.734063158044592e-05,2.2009968757629395,-1.2789182662963867,-0.0,2.1403002738952637,-2.6267415485777796,0.0,0.2658475935459137,-1.327165428792135,0.0,-0.01627052202820778,0.556530237197876,-0.0,-0.01303822547197342,1.2589404582977295,-6.868037598906085e-05,-0.027363233268260956
283.0,306.0,6.478,-0.2991,6.3852,-0.0489,0.0115,-0.1161,-1.5874597034850062,-8.498423267155886e-05,2.181957960128784,-1.278914213180542,-0.0,2.146397829055786,-2.626753946343893,0.0,0.260323166847229,-1.3271458784686487,0.0,-0.03932967782020569,0.5565060973167419,-0.0,0.00228098314255476,1.2589325904846191,-5.9584606788121164e-05,-0.03946591168642044
283.0,306.0,6.478,-0.2991,6.3852,-0.0489,0.0115,-0.1161,-1.5874716244139613,-9.33288101805374e-05,2.165189504623413,-1.2788941860198975,-0.0,2.107924461364746,-2.6267816028990687,0.0,0.25828108191490173,-1.3271296660052698,0.0,-0.02918446809053421,0.5565142631530762,-0.0,-0.007129184901714325,1.2589366436004639,-4.970991358277388e-05,0.01775967888534069
283.0,306.0,6.478,-0.2991,6.3852,-0.0489,0.0115,-0.1161,-1.5874558887877406,-0.00014640865265391767,2.187483549118042,-1.2789101600646973,-0.0,2.070892572402954,-2.6267453632750453,0.0,0.2713342308998108,-1.3271577993976038,0.0,-0.030749626457691193,0.55655837059021,-0.0,-0.004499597474932671,1.2589285373687744,-8.479221769164269e-09,0.009532696567475796
283.0,306.0,6.478,-0.2991,6.3852,-0.0489,0.0115,-0.1161,-1.5875441036620082,-0.0001888274564407766,2.2039597034454346,-1.278902292251587,-0.0,2.1221799850463867,-2.626766344110006,0.0,0.27347511053085327,-1.3271577993976038,0.0,-0.023962296545505524,0.5565547347068787,-0.0,-0.012953261844813824,1.258956789970398,-2.0476323544724173e-14,0.005813149735331535
283.0,306.0,6.478,-0.2991,6.3852,-0.0489,0.0115,-0.1161,-1.5874878368773402,-0.00020287399820517749,2.1805553436279297,-1.2789705991744995,-0.0,2.1067800521850586,-2.626798292199606,0.0,0.2582089900970459,-1.327198330556051,0.0,-0.03198092058300972,0.5565584301948547,-0.0,-0.006336085498332977,1.2589404582977295,-3.685665346630075e-18,-0.022041965276002884
283.0,306.0,6.478,-0.2991,6.3852,-0.0489,0.0115,-0.1161,-1.5874878368773402,-0.00021435316011775285,2.176731586456299,-1.2789461612701416,-0.0,2.0840063095092773,-2.626721044579977,0.0,0.26165705919265747,-1.3271258513080042,0.0,-0.02769044041633606,0.5565587282180786,-0.0,-0.016937151551246643,1.2589325904846191,-8.90044780317909e-24,-0.03501087427139282
283.0,306.0,6.478,-0.2991,6.3852,-0.0489,0.0115,-0.1161,-1.587475439111227,-0.00037210682057775557,2.166536331176758,-1.278962254524231,-0.0,2.1085777282714844,-2.626749654809469,0.0,0.2696766257286072,-1.3271697203265589,0.0,-0.02159246616065502,0.5564863681793213,-0.0,-0.015686484053730965,1.2589366436004639,-2.1493533156536765e-29,-0.040237270295619965
283.0,306.0,6.478,-0.2991,6.3852,-0.0489,0.0115,-0.1161,-1.587487360040182,-0.00031390367075800896,2.168030261993408,-1.278902292251587,-0.0,2.149867057800293,-2.6267620525755824,0.0,0.26890912652015686,-1.3271501700030726,0.0,-0.02957059070467949,0.5565100908279419,-0.0,-0.005735327024012804,1.258948564529419,-5.190434910113529e-35,-0.015329625457525253
283.0,306.0,6.478,-0.2991,6.3852,-0.0489,0.0115,-0.1161,-1.587504049340719,-0.00033054655068553984,2.1710917949676514,-1.278914213180542,-0.0,2.0951342582702637,-2.626737257043356,0.0,0.26533448696136475,-1.3271778265582483,0.0,-0.0209654588252306,0.5565100908279419,-0.0,-0.010995304211974144,1.2589285373687744,-9.342599794096917e-39,0.02408880926668644
283.0,306.0,6.478,-0.2991,6.3852,-0.0489,0.0115,-0.1161,-1.5874997578062953,-0.0002792653103824705,2.1946797370910645,-1.2789664268493652,-0.0,2.1110501289367676,-2.6267453632750453,0.0,0.2585635185241699,-1.327141586934225,0.0,-0.02699558436870575,0.5565261244773865,-0.0,-0.002301633358001709,1.2589083909988403,-2.2420775429197073e-44,0.029123736545443535
283.0,306.0,6.478,-0.2991,6.3852,-0.0489,0.0115,-0.1161,-1.5874835453429164,-0.00024175462021958083,2.2181396484375,-1.2789301872253418,-0.0,2.1294031143188477,-2.626794000665182,0.0,0.26548629999160767,-1.327186409627096,0.0,-0.022167373448610306,0.5565261244773865,-0.0,-0.0007828981033526361,1.2589166164398193,0.0,0.007533899508416653
283.0,306.0,6.478,-0.2991,6.3852,-0.0489,0.0115,-0.1161,-1.5875359974303187,-0.00021312771423254162,2.2148752212524414,-1.278962254524231,-0.0,2.106566905975342,-2.626777788201803,0.0,0.26708123087882996,-1.3271496931659144,0.0,-0.030199304223060608,0.5564982891082764,-0.0,0.005208578426390886,1.2589325904846191,0.0,0.029674386605620384
283.0,306.0,6.478,-0.2991,6.3852,-0.0489,0.0115,-0.1161,-1.5874916515746058,-0.00019753478409256786,2.1981565952301025,-1.2789421081542969,-0.0,2.1025242805480957,-2.6267415485777796,0.0,0.26444974541664124,-1.3271496931659144,0.0,-0.031610164791345596,0.55655837059021,-0.0,-0.016020163893699646,1.2589448690414429,0.0,-0.0017094933427870274
283.0,306.0,6.478,-0.2991,6.3852,-0.0489,0.0115,-0.1161,-1.587475439111227,-0.00017800023488234729,2.1848812103271484,-1.278962254524231,-0.0,2.089021921157837,-2.6267415485777796,0.0,0.26614952087402344,-1.3271620909320276,0.0,-0.03777126967906952,0.5565505623817444,-0.0,-0.00874403491616249,1.258920669555664,0.0,0.0268879234790802
275.0,314.0,6.3763,-0.1155,6.5402,-0.029,0.0302,-0.1225,-1.5874597034850062,-0.0001619815593585372,2.184441328048706,-1.278881549835205,-0.0,2.1340126991271973,-2.626737733880514,0.0,0.2613862156867981,-1.3271458784686487,0.0,-0.018659621477127075,0.556566596031189,-0.0,-0.005754161160439253,1.2589362859725952,0.0,0.026691902428865433
275.0,314.0,6.3763,-0.1155,6.5402,-0.029,0.0302,-0.1225,-1.5875526867308558,-0.0001648877514526248,2.2160263061523438,-1.2789223194122314,-0.0,2.143733024597168,-2.626777788201803,0.0,0.27734363079071045,-1.3271897474872034,0.0,-0.009815841913223267,0.5565100908279419,-0.0,0.00015354203060269356,1.2589808702468872,0.0,0.020182648673653603
275.0,314.0,6.3763,-0.1155,6.5402,-0.029,0.0302,-0.1225,-1.5875235996642054,-0.00016432978736702353,2.141008138656616,-1.278914213180542,-0.0,2.1096105575561523,-2.6267692051329554,0.0,0.25969207286834717,-1.327186409627096,0.0,-0.031018245965242386,0.556522011756897,-0.0,-0.010845781303942204,1.2589445114135742,0.0,-0.04032841697335243
275.0,314.0,6.3763,-0.1155,6.5402,-0.029,0.0302,-0.1225,-1.587475439111227,-0.00015240508946590126,2.143249750137329,-1.2789379358291626,-0.0,2.093236207962036,-2.626753946343893,0.0,0.2567351460456848,-1.3271740118609827,0.0,-0.036178939044475555,0.5565587282180786,-0.0,-0.012238774448633194,1.2589325904846191,0.0,0.03111248090863228
275.0,314.0,6.3763,-0.1155,6.5402,-0.029,0.0302,-0.1225,-1.5874678097166957,-0.00014209284563548863,2.202583074569702,-1.2789421081542969,-0.0,2.1258716583251953,-2.6267901859679164,0.0,0.2554906904697418,-1.3271821180926722,0.0,-0.022362733259797096,0.5565503239631653,-0.0,0.00039836770156398416,1.2589808702468872,0.0,0.04621819406747818
275.0,314.0,6.3763,-0.1155,6.5402,-0.029,0.0302,-0.1225,-1.5874916515746058,-0.00013308778579812497,2.175381898880005,-1.278926134109497,-0.0,2.100677013397217,-2.6267620525755824,0.0,0.2727823555469513,-1.3271740118609827,0.0,-0.028622524812817574,0.5565342307090759,-0.0,-0.0034123938530683517,1.2588883638381958,0.0,-0.01607009395956993
275.0,314.0,6.3763,-0.1155,6.5402,-0.029,0.0302,-0.1225,-1.5875479183592738,-0.00012769282329827547,2.190201759338379,-1.278942584991455,-0.0,2.101996898651123,-2.626766344110006,0.0,0.2691744863986969,-1.3272064367877405,0.0,-0.020096328109502792,0.556522011756897,-0.0,-0.004634614568203688,1.258920669555664,0.0,0.00035640818532556295
275.0,314.0,6.3763,-0.1155,6.5402,-0.029,0.0302,-0.1225,-1.5875193081297816,-0.00012037340638926253,2.16703724861145,-1.2789182662963867,-0.0,2.1308319568634033,-2.626770158807272,0.0,0.26160138845443726,-1.3271291891681116,0.0,-0.025006752461194992,0.5564741492271423,-0.0,-0.009663891047239304,1.2589244842529297,0.0,0.03666013479232788
275.0,314.0,6.3763,-0.1155,6.5402,-0.029,0.0302,-0.1225,-1.5874835453429164,-0.0001138476436608471,2.149275302886963,-1.2789342403411865,-0.0,2.121328115463257,-2.626770158807272,0.0,0.2594422698020935,-1.3271577993976038,0.0,-0.015344489365816116,0.5565342903137207,-0.0,-0.0003389518242329359,1.2588683366775513,0.0,-0.006505025550723076
275.0,314.0,6.3763,-0.1155,6.5402,-0.029,0.0302,-0.1225,-1.587504049340719,-0.00010987652785843238,2.1617727279663086,-1.2789342403411865,-0.0,2.1229686737060547,-2.6267734966673792,0.0,0.27802544832229614,-1.3271454016314905,0.0,-0.022712962701916695,0.5565543174743652,-0.0,-0.006632538978010416,1.258984923362732,0.0,0.024583725258708
275.0,314.0,6.3763,-0.1155,6.5402,-0.029,0.0302,-0.1225,-1.5875317058958949,-0.00010441348422318697,2.133070468902588,-1.2789100408554077,-0.0,2.1167447566986084,-2.626737733880514,0.0,0.2799678146839142,-1.3272102514850062,0.0,-0.04224926605820656,0.5564537644386292,-0.0,-0.0016981998924165964,1.2589608430862427,0.0,-0.009469420649111271
275.0,314.0,6.3763,-0.1155,6.5402,-0.029,0.0302,-0.1225,-1.5875398121275843,-9.946790669346228e-05,2.1976776123046875,-1.2788981199264526,-0.0,2.096881628036499,-2.626721521417135,0.0,0.2628214955329895,-1.3271740118609827,0.0,-0.020995818078517914,0.556518018245697,-0.0,-0.007826628163456917,1.2589325904846191,0.0,0.05563061311841011
275.0,314.0,6.3763,-0.1155,6.5402,-0.029,0.0302,-0.1225,-1.5874554119505824,-9.496964048594236e-05,2.171531915664673,-1.2789384126663208,-0.0,2.102677583694458,-2.6267816028990687,0.0,0.2596204876899719,-1.3271577993976038,0.0,-0.03138893470168114,0.5565142631530762,-0.0,-0.001801226637326181,1.258928894996643,0.0,0.003572024405002594
275.0,314.0,6.3763,-0.1155,6.5402,-0.029,0.0302,-0.1225,-1.5874716244139613,-9.21902756090276e-05,2.1981778144836426,-1.2789466381072998,-0.0,2.1069281101226807,-2.626753946343893,0.0,0.2698970139026642,-1.3271616140948694,0.0,-0.03142014890909195,0.556530237197876,-0.0,-0.01568073220551014,1.258948564529419,0.0,-0.048318132758140564
275.0,314.0,6.3763,-0.1155,6.5402,-0.029,0.0302,-0.1225,-1.5874434910216273,-8.831339073367417e-05,2.16347599029541,-1.2789788246154785,-0.0,2.1087076663970947,-2.626766344110006,0.0,0.2713615894317627,-1.3271577993976038,0.0,-0.02560649812221527,0.556530237197876,-0.0,-0.007235558237880468,1.2589244842529297,0.0,-0.027270063757896423
275.0,314.0,6.3763,-0.1155,6.5402,-0.029,0.0302,-0.1225,-1.5875560245909632,-8.474939386360347e-05,2.134364366531372,-1.2789182662963867,-0.0,2.0896153450012207,-2.6267177067198695,0.0,0.2752050757408142,-1.3271740118609827,0.0,-0.025532744824886322,0.5565306544303894,-0.0,0.0005094666848890483,1.2589166164398193,0.0,0.004738920368254185
275.0,314.0,6.3763,-0.1155,6.5402,-0.029,0.0302,-0.1225,-1.5875684223570765,-8.146193431457505e-05,2.2537288665771484,-1.2789301872253418,-0.0,2.1114277839660645,-2.6267253361144007,0.0,0.27205324172973633,-1.3272183577166956,0.0,-0.023433178663253784,0.5565423965454102,-0.0,-0.008879871107637882,1.2589325904846191,0.0,0.019545631483197212
292.0,303.0,6.3003,-0.1525,6.5216,-0.031,0.0287,-0.1197,-1.5875398121275843,-8.687928493600339e-05,2.1655240058898926,-1.2789145708084106,-0.0,2.1204419136047363,-2.6267620525755824,0.0,0.2666955590248108,-1.3272064367877405,0.0,-0.023626521229743958,0.5564659833908081,-0.0,-0.008776663802564144,1.2588962316513062,0.0,0.0033337196800857782
292.0,303.0,6.3003,-0.1525,6.5216,-0.031,0.0287,-0.1197,-1.5874630413451136,-8.744584192754701e-05,2.160005569458008,-1.2789461612701416,-0.0,2.079599618911743,-2.626721521417135,0.0,0.2578759789466858,-1.3271902243243616,0.0,-0.028434090316295624,0.5565666556358337,-0.0,0.0014289115788415074,1.2589002847671509,0.0,-0.049855928868055344
292.0,303.0,6.3003,-0.1525,6.5216,-0.031,0.0287,-0.1197,-1.587515493432516,-8.437182259513065e-05,2.186020851135254,-1.2789182662963867,-0.0,2.1094021797180176,-2.626753946343893,0.0,0.2566934823989868,-1.3271258513080042,0.0,-0.005794719327241182,0.5565342903137207,-0.0,-0.005531778559088707,1.2588962316513062,0.0,-0.02370769903063774
292.0,303.0,6.3003,-0.1525,6.5216,-0.031,0.0287,-0.1197,-1.587515493432516,-5.805801265523769e-05,2.167173385620117,-1.278954029083252,-0.0,2.1465673446655273,-2.6267620525755824,0.0,0.2736307382583618,-1.3272226492511194,0.0,-0.030352234840393066,0.5565223693847656,-0.0,-0.010556910187005997,1.2589002847671509,0.0,0.011460360139608383
292.0,303.0,6.3003,-0.1525,6.5216,-0.031,0.0287,-0.1197,-1.5875359974303187,-5.659746966557577e-05,2.187138557434082,-1.2789342403411865,-0.0,2.0765676498413086,-2.6267620525755824,0.0,0.2649626135826111,-1.3271821180926722,0.0,-0.021490348502993584,0.5565383434295654,-0.0,0.0050029149278998375,1.258956789970398,0.0,-0.006422963924705982
292.0,303.0,6.3003,-0.1525,6.5216,-0.031,0.0287,-0.1197,-1.587475439111227,-6.54303512419574e-05,2.1944656372070312,-1.2789461612701416,-0.0,2.078312397003174,-2.626749654809469,0.0,0.26266923546791077,-1.327186409627096,0.0,-0.023779449984431267,0.5565100908279419,-0.0,-0.01600482128560543,1.258884310722351,0.0,0.01637720689177513
292.0,303.0,6.3003,-0.1525,6.5216,-0.031,0.0287,-0.1197,-1.5875069103636683,-6.315145583357662e-05,2.1799466609954834,-1.278926134109497,-0.0,2.086158514022827,-2.626777788201803,0.0,0.251198947429657,-1.3271940390216272,0.0,-0.028782086446881294,0.5565023422241211,-0.0,0.004104583989828825,1.2588720321655273,0.0,0.012247167527675629
292.0,303.0,6.3003,-0.1525,6.5216,-0.031,0.0287,-0.1197,-1.5875355205931605,-7.116340566426516e-05,2.1772098541259766,-1.278914213180542,-0.0,2.1143383979797363,-2.626737733880514,0.0,0.2597202658653259,-1.3271740118609827,0.0,-0.015105532482266426,0.556530237197876,-0.0,0.001936852466315031,1.2589285373687744,0.0,-0.04328582435846329
292.0,303.0,6.3003,-0.1525,6.5216,-0.031,0.0287,-0.1197,-1.5875560245909632,-6.960664177313447e-05,2.1672580242156982,-1.2789058685302734,-0.0,2.1087381839752197,-2.6268140278258265,0.0,0.27337175607681274,-1.3271778265582483,0.0,-0.02430199831724167,0.5565183162689209,-0.0,-0.008798747323453426,1.258928894996643,0.0,-0.0005657672882080078
292.0,303.0,6.3003,-0.1525,6.5216,-0.031,0.0287,-0.1197,-1.5875235996642054,-4.92536345042538e-10,2.1702797412872314,-1.2788692712783813,-0.0,2.099789619445801,-2.626737257043356,0.0,0.26913687586784363,-1.327165428792135,0.0,-0.03389166295528412,0.5565625429153442,-0.0,-0.007839466445147991,1.2589645385742188,0.0,0.0047464086674153805
292.0,303.0,6.3003,-0.1525,6.5216,-0.031,0.0287,-0.1197,-1.5875312290587367,-1.189417322940763e-15,2.1788716316223145,-1.2789342403411865,-0.0,2.12454891204834,-2.6267453632750453,0.0,0.26535651087760925,-1.3271778265582483,0.0,-0.025864847004413605,0.5565142035484314,-0.0,-0.01183094922453165,1.2589366436004639,0.0,0.014950410462915897
292.0,303.0,6.3003,-0.1525,6.5216,-0.031,0.0287,-0.1197,-1.587527414361471,-2.8723026860433435e-21,2.1743388175964355,-1.2789902687072754,-0.0,2.1685404777526855,-2.6267620525755824,0.0,0.266840398311615,-1.3271697203265589,0.0,-0.024126315489411354,0.5565260648727417,-0.0,-0.022989200428128242,1.2589325904846191,0.0,-0.01964935101568699
292.0,303.0,6.3003,-0.1525,6.5216,-0.031,0.0287,-0.1197,-1.5874749622740687,-5.170043996208454e-25,2.1489486694335938,-1.2789301872253418,-0.0,2.139766216278076,-2.6267577610411585,0.0,0.24875077605247498,-1.3271740118609827,0.0,-0.02477988973259926,0.5564863085746765,-0.0,-0.0067624845542013645,1.2589366436004639,0.0,-0.029131725430488586
292.0,303.0,6.3003,-0.1525,6.5216,-0.031,0.0287,-0.1197,-1.5875641308226527,-1.2485049632286962e-30,2.1680870056152344,-1.2789301872253418,-0.0,2.0992813110351562,-2.6266967258849085,0.0,0.2728140950202942,-1.32715350786318,0.0,-0.025984857231378555,0.5564781427383423,-0.0,-0.0062171113677322865,1.2589448690414429,0.0,-0.03053552657365799
292.0,303.0,6.3003,-0.1525,6.5216,-0.031,0.0287,-0.1197,-1.5875312290587367,-3.014992342248283e-36,2.175309658050537,-1.2789943218231201,-0.0,2.129835367202759,-2.626777788201803,0.0,0.272622287273407,-1.3271697203265589,0.0,-0.02295163832604885,0.5565584301948547,-0.0,-0.020268484950065613,1.2589043378829956,0.0,0.0021646439563483
292.0,303.0,6.3003,-0.1525,6.5216,-0.031,0.0287,-0.1197,-1.5875398121275843,-0.00012629256525542587,2.2002580165863037,-1.2788898944854736,-0.0,2.083538055419922,-2.626737257043356,0.0,0.2638855576515198,-1.327186409627096,0.0,-0.013847548514604568,0.556530237197876,-0.0,0.002743558958172798,1.2589166164398193,0.0,0.00879555195569992
276.0,311.0,6.2495,-0.1854,6.5444,-0.0267,0.0258,-0.1135,-1.587555547753805,-0.00014348913100548089,2.2078404426574707,-1.2789421081542969,-0.0,2.121314287185669,-2.6267901859679164,0.0,0.2650693953037262,-1.3272064367877405,0.0,-0.015831846743822098,0.5565183162689209,-0.0,-0.0038142141420394182,1.258956789970398,0.0,0.04076128453016281
276.0,311.0,6.2495,-0.1854,6.5444,-0.0267,0.0258,-0.1135,-1.5875846348204554,-0.00017710421525407583,2.2240793704986572,-1.2789223194122314,-0.0,2.052622079849243,-2.6267816028990687,0.0,0.2731863558292389,-1.3271496931659144,0.0,-0.021147994324564934,0.5565142631530762,-0.0,-0.0024209432303905487,1.2588883638381958,0.0,-0.008095926605165005
276.0,311.0,6.2495,-0.1854,6.5444,-0.0267,0.0258,-0.1135,-1.58756746868276,-0.0005212528049014509,2.1783933639526367,-1.2788898944854736,-0.0,2.0982608795166016,-2.626737733880514,0.0,0.26329463720321655,-1.32715350786318,0.0,-0.026547929272055626,0.5565424561500549,-0.0,-0.0027798842638731003,1.2589325904846191,0.0,0.0038692839443683624
276.0,311.0,6.2495,-0.1854,6.5444,-0.0267,0.0258,-0.1135,-1.587583681146139,-0.0005124176386743784,2.210628032684326,-1.2790107727050781,-0.0,2.122419595718384,-2.626721044579977,0.0,0.27392756938934326,-1.3271620909320276,0.0,-0.01807708665728569,0.5565666556358337,-0.0,-0.005829485133290291,1.2589125633239746,0.0,0.02282201126217842
276.0,311.0,6.2495,-0.1854,6.5444,-0.0267,0.0258,-0.1135,-1.5875398121275843,-0.0006306212744675577,2.1963021755218506,-1.2789983749389648,-0.0,2.127232551574707,-2.62673344234609,0.0,0.2624320983886719,-1.3271339575396937,0.0,-0.02353913150727749,0.5565383434295654,-0.0,-0.005739154294133186,1.258948802947998,-0.00011183111200807616,0.07104949653148651
276.0,311.0,6.2495,-0.1854,6.5444,-0.0267,0.0258,-0.1135,-1.5875636539854945,-0.0005376258632168174,2.2108612060546875,-1.2789664268493652,-0.0,2.102959632873535,-2.626770158807272,0.0,0.25084245204925537,-1.3271821180926722,0.0,-0.02911848947405815,0.5565543174743652,-0.0,-0.004077658522874117,1.258928894996643,-0.00012500306183937937,-0.0018652919679880142
276.0,311.0,6.2495,-0.1854,6.5444,-0.0267,0.0258,-0.1135,-1.587583681146139,-0.0005509371985681355,2.185727834701538,-1.2789421081542969,-0.0,2.1257989406585693,-2.6267734966673792,0.0,0.2583252191543579,-1.3271172682391565,0.0,-0.03035382367670536,0.5565261244773865,-0.0,-0.010667853057384491,1.2588844299316406,-0.00011689586244756356,0.006053767632693052
276.0,311.0,6.2495,-0.1854,6.5444,-0.0267,0.0258,-0.1135,-1.5875755749144496,-0.0004956392804160714,2.1732072830200195,-1.278945803642273,-0.0,2.1203224658966064,-2.6267577610411585,0.0,0.2677088975906372,-1.3271697203265589,0.0,-0.017928946763277054,0.556590735912323,-0.0,-0.005845339968800545,1.25889253616333,-0.00013068897533230484,-0.03383415564894676
276.0,311.0,6.2495,-0.1854,6.5444,-0.0267,0.0258,-0.1135,-1.5876079998412074,-0.00045468061580322683,2.1757795810699463,-1.27897047996521,-0.0,2.0589523315429688,-2.626794000665182,0.0,0.26362913846969604,-1.3271577993976038,0.0,-0.03078998625278473,0.5565948486328125,-0.0,-0.0073664840310812,1.2588883638381958,-0.0001230591005878523,-0.005919286049902439
276.0,311.0,6.2495,-0.1854,6.5444,-0.0267,0.0258,-0.1135,-1.587571760217184,-0.000477027875604108,2.2056639194488525,-1.2789421081542969,-0.0,2.127202272415161,-2.6268302402892054,0.0,0.2716430425643921,-1.3271740118609827,0.0,-0.030161052942276,0.5565260648727417,-0.0,-0.014274301938712597,1.2589043378829956,-0.00011624709441093728,-0.0033939043059945107
276.0,311.0,6.2495,-0.1854,6.5444,-0.0267,0.0258,-0.1135,-1.587628027001852,-0.0005562419537454844,2.184828996658325,-1.2789461612701416,-0.0,2.106682777404785,-2.626709123651022,0.0,0.2705051600933075,-1.3271735350238245,0.0,-0.024822507053613663,0.5565261244773865,-0.0,-0.004029508680105209,1.2589125633239746,-0.00011014966003131121,-0.010290000587701797
276.0,311.0,6.2495,-0.1854,6.5444,-0.0267,0.0258,-0.1135,-1.5875712833800257,-0.0005621628370136023,2.1841626167297363,-1.27897047996521,-0.0,2.0850701332092285,-2.626749654809469,0.0,0.2732156217098236,-1.3271740118609827,0.0,-0.02928602695465088,0.556530237197876,-0.0,-0.00027211569249629974,1.2589043378829956,-0.00010642820416251197,-0.041700445115566254
276.0,311.0,6.2495,-0.1854,6.5444,-0.0267,0.0258,-0.1135,-1.5875750980772914,-0.0007935463800095022,2.1823785305023193,-1.2789819240570068,-0.0,2.116194248199463,-2.6267415485777796,0.0,0.26920560002326965,-1.327165428792135,0.0,-0.03095974214375019,0.556522011756897,-0.0,-0.0028844845946878195,1.2588846683502197,-0.00011569786875043064,-0.02426578849554062
276.0,311.0,6.2495,-0.1854,6.5444,-0.0267,0.0258,-0.1135,-1.5875712833800257,-0.0012898548739030957,2.1980321407318115,-1.2789901494979858,-0.0,2.1546730995178223,-2.626742025414938,0.0,0.2764343023300171,-1.327165428792135,0.0,-0.012813248671591282,0.5565826296806335,-0.0,-0.001927502453327179,1.2589125633239746,-0.00011043833364965394,0.02596428617835045
276.0,311.0,6.2495,-0.1854,6.5444,-0.0267,0.0258,-0.1135,-1.587656637231344,-0.002753067994490266,2.1746983528137207,-1.2789379358291626,-1.2122796988478513e-06,2.075061321258545,-2.6267172298827113,0.0,0.27379369735717773,-1.32715350786318,0.0,-0.02501450479030609,0.5565383434295654,-0.0,-0.013209150172770023,1.2588887214660645,-0.00015239934145938605,-0.002129115629941225
276.0,311.0,6.2495,-0.1854,6.5444,-0.0267,0.0258,-0.1135,-1.5876513920226039,-0.005335621535778046,2.173245906829834,-1.2789379358291626,-2.1820605045075325e-10,2.0896358489990234,-2.626749654809469,0.0,0.27279460430145264,-1.3271740118609827,0.0,-0.02531309798359871,0.5565584301948547,-0.0,-0.00587586360052228,1.2589329481124878,-0.00016149383736774325,-0.02907285839319229
276.0,311.0,6.2495,-0.1854,6.5444,-0.0267,0.0258,-0.1135,-1.5877119503416957,-0.013479975052177906,2.1672916412353516,-1.27897047996521,-5.269419493439788e-16,2.1205432415008545,-2.6267415485777796,0.0,0.27415236830711365,-1.3271620909320276,0.0,-0.031600628048181534,0.5564900040626526,-0.0,-0.009617387317121029,1.2589046955108643,-0.00017353460134472698,0.018902314826846123
266.0,299.0,6.1705,0.0502,6.5186,-0.0214,0.0321,-0.1193,-1.587754865685934,-0.01076910737901926,2.1961936950683594,-1.2789539098739624,-1.2725026657263267e-21,2.0683395862579346,-2.626749654809469,0.0,0.27587321400642395,-1.327165428792135,0.0,-0.031386733055114746,0.5565866827964783,-0.0,-0.002117639873176813,1.2588965892791748,-0.0001909024576889351,-0.03617432713508606
266.0,299.0,6.1705,0.0502,6.5186,-0.0214,0.0321,-0.1193,-1.58787264446401,-0.004914212506264448,2.1834158897399902,-1.2789582014083862,-3.0729441006002867e-27,2.10492205619812,-2.626709123651022,0.0,0.2720966637134552,-1.327141586934225,0.0,-0.029312247410416603,0.5565907955169678,-0.0,-0.0007227796595543623,1.2588928937911987,-0.00034338911063969135,0.023702621459960938
266.0,299.0,6.1705,0.0502,6.5186,-0.0214,0.0321,-0.1193,-1.587855955163473,-0.0031372045632451773,2.2062737941741943,-1.2789499759674072,-5.5311908666642855e-31,2.121464967727661,-2.6267415485777796,0.0,0.2769847512245178,-1.3271296660052698,0.0,-0.02097386308014393,0.5565019249916077,-0.0,-0.004983158316463232,1.2589247226715088,-0.0002998488489538431,-0.04194479435682297
266.0,299.0,6.1705,0.0502,6.5186,-0.0214,0.0321,-0.1193,-1.5878626308836878,-0.0026190634816884995,2.1894335746765137,-1.2789902687072754,-0.00015694231842644513,2.158433198928833,-2.626766344110006,0.0,0.26922231912612915,-1.32715350786318,0.0,-0.02796262316405773,0.5564780831336975,-0.0,-0.0026619669515639544,1.258920669555664,-0.0002978099510073662,0.023125391453504562
266.0,299.0,6.1705,0.0502,6.5186,-0.0214,0.0321,-0.1193,-1.5878945789732875,-0.004499808885157108,2.236172914505005,-1.2789943218231201,-0.0007949320715852082,2.1231496334075928,-2.626794000665182,0.0,0.2680242657661438,-1.3271377722369593,0.0,-0.016545351594686508,0.5566108822822571,-0.0,-0.018296226859092712,1.2589088678359985,-0.0002570406359154731,-0.025219501927495003
266.0,299.0,6.1705,0.0502,6.5186,-0.0214,0.0321,-0.1193,-1.5879508457579554,-0.006183995399624109,2.1875243186950684,-1.2789695262908936,-0.0005209874361753464,2.0901732444763184,-2.626766344110006,0.0,0.27726951241493225,-1.3271377722369593,0.0,-0.014149636030197144,0.5565423965454102,-0.0,-0.0056299688294529915,1.2588365077972412,-0.0002624051703605801,0.012676380574703217
266.0,299.0,6.1705,0.0502,6.5186,-0.0214,0.0321,-0.1193,-1.5879394016661585,-0.006099672056734562,2.1800246238708496,-1.2789257764816284,-0.0004229899786878377,2.1141726970672607,-2.6267744503416957,0.0,0.26942700147628784,-1.327186409627096,0.0,-0.028847232460975647,0.5565142631530762,-0.0,0.012866598553955555,1.2588523626327515,-0.00027682416839525104,-0.02365545555949211
266.0,299.0,6.1705,0.0502,6.5186,-0.0214,0.0321,-0.1193,-1.5880280933775843,-0.005297373048961163,2.13791561126709,-1.2790265083312988,-0.00026668902137316763,2.128840923309326,-2.626753946343893,0.0,0.2651780843734741,-1.3271778265582483,0.0,-0.02449445240199566,0.55655837059021,-0.0,-0.007547575049102306,1.25886070728302,-0.00029826394165866077,-0.023695582523941994
266.0,299.0,6.1705,0.0502,6.5186,-0.0214,0.0321,-0.1193,-1.587982793847555,-0.0033632421400398016,2.2243127822875977,-1.2789819240570068,-0.0002163432218367234,2.104916572570801,-2.6267172298827113,0.0,0.2647155821323395,-1.3271897474872034,0.0,-0.01720517873764038,0.556461751461029,-0.0,-0.0061650704592466354,1.2588365077972412,-0.0003133818681817502,0.015069356188178062
266.0,299.0,6.1705,0.0502,6.5186,-0.0214,0.0321,-0.1193,-1.5880104504027308,-0.00220121699385345,2.16005539894104,-1.2789417505264282,-0.00018329420709051192,2.0857229232788086,-2.6267782650389613,0.0,0.26032835245132446,-1.3271821180926722,0.0,-0.024206016212701797,0.5565744042396545,-0.0,-0.0029138459358364344,1.2588446140289307,-0.00045819830847904086,-0.015525286085903645
266.0,299.0,6.1705,0.0502,6.5186,-0.0214,0.0321,-0.1193,-1.5880590877928675,-0.0017566251335665584,2.184101104736328,-1.278926134109497,-5.7229110097978264e-05,2.1175618171691895,-2.6267296276488246,0.0,0.286399245262146,-1.3271697203265589,0.0,-0.0260172002017498,0.5565707087516785,-0.0,-0.010464353486895561,1.2588404417037964,-0.0005214873235672712,-0.03472448140382767
266.0,299.0,6.1705,0.0502,6.5186,-0.0214,0.0321,-0.1193,-1.5880633793272914,-0.0014369059354066849,2.181565046310425,-1.2789623737335205,-4.471552529139444e-05,2.138401746749878,-2.6267453632750453,0.0,0.2696346640586853,-1.3271778265582483,0.0,-0.023608079180121422,0.5565625429153442,-0.0,-0.006619063206017017,1.2588727474212646,-0.000539789441972971,-0.00491677038371563
266.0,299.0,6.1705,0.0502,6.5186,-0.0214,0.0321,-0.1193,-1.5880676708617152,-0.002176389330998063,2.1664981842041016,-1.2789746522903442,-3.891477899742313e-05,2.1037817001342773,-2.6267577610411585,0.0,0.2753024101257324,-1.3271859327899378,0.0,-0.0383513942360878,0.5565423965454102,-0.0,-0.007221398409456015,1.2588446140289307,-0.0006627597031183541,0.025987867265939713
266.0,299.0,6.1705,0.0502,6.5186,-0.0214,0.0321,-0.1193,-1.588046213189596,-0.002464904449880123,2.19230580329895,-1.2790025472640991,-3.581728378776461e-05,2.0927016735076904,-2.6267453632750453,0.0,0.27469950914382935,-1.327198330556051,0.0,-0.01909007504582405,0.55655837059021,-0.0,-0.01639711484313011,1.2588082551956177,-0.0007070473511703312,0.01927221193909645
266.0,299.0,6.1705,0.0502,6.5186,-0.0214,0.0321,-0.1193,-1.5881158314146937,-0.0030743537936359644,2.2025485038757324,-1.2790265083312988,-3.199690763722174e-05,2.144747257232666,-2.626777788201803,0.0,0.2783571183681488,-1.327198330556051,0.0,-0.023057959973812103,0.5565063953399658,-0.0,0.004631577990949154,1.258812427520752,-0.0009444363531656563,-0.015253588557243347
266.0,299.0,6.1705,0.0502,6.5186,-0.0214,0.0321,-0.1193,-1.588090559045309,-0.0032826405949890614,2.194638252258301,-1.279026985168457,-2.8913043934153393e-05,2.100182056427002,-2.626721044579977,0.0,0.2715357840061188,-1.3272021452533167,0.0,-0.026178857311606407,0.5565506219863892,-0.0,-0.005209214985370636,1.2588444948196411,-0.002202427014708519,0.022244688123464584
272.0,293.0,6.1059,-0.061,6.6849,-0.0195,0.0307,-0.1229,-1.58813538173818,-0.0032671864610165358,2.24008846282959,-1.2789499759674072,-2.6371426429250278e-05,2.0574889183044434,-2.626766344110006,0.0,0.2741038203239441,-1.327141586934225,0.0,-0.029156263917684555,0.5565342903137207,-0.0,0.0012105593923479319,1.258780598640442,-0.0030249988194555044,0.03270254284143448
272.0,293.0,6.1059,-0.061,6.6849,-0.0195,0.0307,-0.1229,-1.5881506405272425,-0.0036273396108299494,2.1932053565979004,-1.2789984941482544,-2.4911527361837216e-05,2.1255719661712646,-2.6267010174193324,0.0,0.26983022689819336,-1.3271859327899378,0.0,-0.04826619103550911,0.5565260648727417,-0.0,0.012455230578780174,1.2587807178497314,-0.003674360690638423,-0.05483872443437576
272.0,293.0,6.1059,-0.061,6.6849,-0.0195,0.0307,-0.1229,-1.588175436059469,-0.004185180179774761,2.186136484146118,-1.2789417505264282,-2.3001501176622696e-05,2.126692056655884,-2.6267253361144007,0.0,0.28440403938293457,-1.3271139303790491,0.0,-0.03681252524256706,0.5565629005432129,-0.0,-0.01335269957780838,1.258744716644287,-0.004105713684111834,-0.0336773581802845
272.0,293.0,6.1059,-0.061,6.6849,-0.0195,0.0307,-0.1229,-1.5881825886168421,-0.003985910676419735,2.2015812397003174,-1.2789738178253174,-2.1363497580750845e-05,2.1296987533569336,-2.6267577610411585,0.0,0.2828143835067749,-1.3270891348468226,0.0,-0.03380221873521805,0.5565342903137207,-0.0,0.0015006019966676831,1.2587487697601318,-0.0036582513712346554,0.020963426679372787
272.0,293.0,6.1059,-0.061,6.6849,-0.0195,0.0307,-0.1229,-1.5882474384703578,-0.003940230701118708,2.1947269439697266,-1.2789664268493652,-1.994331796595361e-05,2.0849485397338867,-2.626798292199606,0.0,0.27922770380973816,-1.3271620909320276,0.0,-0.03805147111415863,0.5564821362495422,-0.0,-0.0008256995351985097,1.2587045431137085,-0.00327483587898314,-0.000751726794987917
272.0,293.0,6.1059,-0.061,6.6849,-0.0195,0.0307,-0.1229,-1.5882636509337367,-0.00436254171654582,2.177316904067993,-1.2790145874023438,-1.9096973119303584e-05,2.1173105239868164,-2.6267296276488246,0.0,0.2823939323425293,-1.3271139303790491,0.0,-0.044331930577754974,0.5565506219863892,-0.0,-0.004057793878018856,1.2587368488311768,-0.003042645286768675,0.013918902724981308
272.0,293.0,6.1059,-0.061,6.6849,-0.0195,0.0307,-0.1229,-1.5883118114867152,-0.0042870226316154,2.171255588531494,-1.2789981365203857,-3.5898345231544226e-05,2.157435178756714,-2.6267577610411585,0.0,0.2836820185184479,-1.327141586934225,0.0,-0.033683016896247864,0.556643009185791,-0.0,-0.010016455315053463,1.2587089538574219,-0.0025625762064009905,-0.03727554529905319
272.0,293.0,6.1059,-0.061,6.6849,-0.0195,0.0307,-0.1229,-1.5883432827391566,-0.004702192731201649,2.1929428577423096,-1.2789499759674072,-4.883998190052807e-05,2.076911449432373,-2.626766344110006,0.0,0.2804594039916992,-1.3271382490741175,0.0,-0.038890063762664795,0.5565301775932312,-0.0,-0.013981766067445278,1.2587372064590454,-0.00249851169064641,0.004489874001592398
272.0,293.0,6.1059,-0.061,6.6849,-0.0195,0.0307,-0.1229,-1.588356157342428,-0.004527658689767122,2.17073917388916,-1.2789334058761597,-4.810447717318311e-05,2.1221203804016113,-2.626732965508932,0.0,0.28704220056533813,-1.3271296660052698,0.0,-0.038744017481803894,0.5565342307090759,-0.0,-0.005365476943552494,1.258692979812622,-0.0023856305051594973,0.04971654713153839
272.0,293.0,6.1059,-0.061,6.6849,-0.0195,0.0307,-0.1229,-1.5884205303587855,-0.004701675847172737,2.1449766159057617,-1.2789902687072754,-4.644936780096032e-05,2.1243772506713867,-2.6267858944334925,0.0,0.288598895072937,-1.3271496931659144,0.0,-0.022899210453033447,0.5565744638442993,-0.0,-0.0039900923147797585,1.258669137954712,-0.002320691244676709,0.004931070376187563
272.0,293.0,6.1059,-0.061,6.6849,-0.0195,0.0307,-0.1229,-1.588407655755514,-0.004655074328184128,2.1957054138183594,-1.2789738178253174,-4.416983210830949e-05,2.1211960315704346,-2.6267787418761195,0.0,0.28220897912979126,-1.327170197163717,0.0,-0.04294911026954651,0.5565743446350098,-0.0,-1.0768184438347816e-05,1.2586212158203125,-0.0019947390537708998,-0.03692936897277832
272.0,293.0,6.1059,-0.061,6.6849,-0.0195,0.0307,-0.1229,-1.5883871517577113,-0.0037805461324751377,2.2115912437438965,-1.278977870941162,-4.210352199152112e-05,2.1115713119506836,-2.6267453632750453,0.0,0.27614104747772217,-1.3271501700030726,0.0,-0.03268180415034294,0.5565179586410522,-0.0,-0.005399137269705534,1.2586650848388672,-0.001576393493451178,-0.004250547848641872
272.0,293.0,6.1059,-0.061,6.6849,-0.0195,0.0307,-0.1229,-1.5884601078429164,-0.003408373100683093,2.1777842044830322,-1.2789582014083862,-4.0221886592917144e-05,2.105036497116089,-2.626766344110006,0.0,0.2855067849159241,-1.3271501700030726,0.0,-0.02203531377017498,0.5565872192382812,-1.8420245329053841e-09,-0.006495319306850433,1.258653163909912,-0.0011382184457033873,-0.0038196025416254997
272.0,293.0,6.1059,-0.061,6.6849,-0.0195,0.0307,-0.1229,-1.588442941705221,-0.003613562323153019,2.2152860164642334,-1.278977870941162,-3.905820267391391e-05,2.076906442642212,-2.6267620525755824,0.0,0.29988613724708557,-1.327198330556051,0.0,-0.04173053428530693,0.5565423965454102,-7.852838171396037e-12,0.0050935205072164536,1.2586171627044678,-0.0008955459925346076,-0.0006765378639101982
272.0,293.0,6.1059,-0.061,6.6849,-0.0195,0.0307,-0.1229,-1.588442941705221,-0.003867426421493292,2.1663401126861572,-1.2789417505264282,-3.74336595996283e-05,2.1318938732147217,-2.626749654809469,0.0,0.28662675619125366,-1.3271458784686487,0.0,-0.03737463057041168,0.5565703511238098,-2.18586635269513e-15,0.00179464987013489,1.2585729360580444,-0.0007072168518789113,-0.02547878585755825
272.0,293.0,6.1059,-0.061,6.6849,-0.0195,0.0307,-0.1229,-1.5884787044920863,-0.00484337005764246,2.206846237182617,-1.278962254524231,-3.5938912333222106e-05,2.164762496948242,-2.626766344110006,5.040100950282067e-05,0.29839959740638733,-1.3271659056292933,0.0,-0.04163800925016403,0.5565502643585205,-6.084439182004373e-19,0.00030342902755364776,1.2586654424667358,-0.0005290911649353802,0.01194740179926157
246.0,310.0,6.2632,-0.5288,6.4845,-0.0426,0.027,-0.1199,-1.5885311565794886,-0.00524577172473073,2.1925201416015625,-1.2790342569351196,-3.4558932384243235e-05,2.1430459022521973,-2.6267577610411585,3.890205334755592e-06,0.29881206154823303,-1.3271096388446253,0.0,-0.04723748564720154,0.5565506815910339,-1.6936260509113984e-22,-0.0063643064349889755,1.2586212158203125,-0.00048296275781467557,0.016244053840637207
246.0,310.0,6.2632,-0.5288,6.4845,-0.0426,0.027,-0.1199,-1.5885430775084437,-0.00493036350235343,2.1792428493499756,-1.279050588607788,-3.3696349419187754e-05,2.099614143371582,-2.626753946343893,1.6584554174414734e-08,0.2937090992927551,-1.3271620909320276,0.0,-0.035517334938049316,0.556522011756897,-7.220194388226645e-25,-0.0022949697449803352,1.2586331367492676,-0.0004258248663973063,0.027388587594032288
246.0,310.0,6.2632,-0.5288,6.4845,-0.0426,0.027,-0.1199,-1.5886279545226039,-0.004965117666870356,2.174741506576538,-1.2790063619613647,-3.2480296795256436e-05,2.141441822052002,-2.6267134151854457,4.616371521160012e-12,0.29310256242752075,-1.3271821180926722,0.0,-0.04141940921545029,0.556522011756897,-2.0097676007963566e-28,0.006816108711063862,1.258641242980957,-0.00027840203256346285,0.018041113391518593
246.0,310.0,6.2632,-0.5288,6.4845,-0.0426,0.027,-0.1199,-1.5886312923827113,-0.005052738357335329,2.216808319091797,-1.2790063619613647,-3.134896178380586e-05,2.193101167678833,-2.626753946343893,1.284984238731203e-15,0.31222468614578247,-1.327141586934225,0.0,-0.045760881155729294,0.5566145777702332,-5.59426166340935e-32,-0.010762312449514866,1.2586252689361572,-0.00027983757900074124,-0.008015978150069714
246.0,310.0,6.2632,-0.5288,6.4845,-0.0426,0.027,-0.1199,-1.588614126245016,-0.005174692254513502,2.214231491088867,-1.2790265083312988,-4.07114603149239e-05,2.1306471824645996,-2.6267415485777796,5.478088806235519e-18,0.3054008185863495,-1.3271058241473597,0.0,-0.058205217123031616,0.5565465688705444,-2.3849216878862124e-34,0.012986868619918823,1.2586171627044678,-0.00025513593573123217,0.0014774827286601067
246.0,310.0,6.2632,-0.5288,6.4845,-0.0426,0.027,-0.1199,-1.5887438259520472,-0.006062204949557781,2.2484772205352783,-1.2790063619613647,-4.601082764565945e-06,2.113760232925415,-2.6267172298827113,1.5248461679046145e-21,0.3039133846759796,-1.3271377722369593,0.0,-0.05527763068675995,0.5565064549446106,-6.63851638956686e-38,-0.006310036405920982,1.2586052417755127,-0.0002601818705443293,0.026556560769677162
246.0,310.0,6.2632,-0.5288,6.4845,-0.0426,0.027,-0.1199,-1.58872713665151,-0.006572800688445568,2.230959177017212,-1.2789820432662964,-1.1111073866532095e-11,2.196763038635254,-2.6267816028990687,4.244465607503588e-25,0.3190326988697052,-1.3272069136248987,0.0,-0.05672231316566467,0.5565785765647888,-1.8478922849051363e-41,0.007880555465817451,1.2586212158203125,-0.00023191185027826577,0.017578251659870148
246.0,310.0,6.2632,-0.5288,6.4845,-0.0426,0.027,-0.1199,-1.5887509785094203,-0.006616539321839809,2.24971866607666,-1.279006004333496,-2.6831935817484852e-17,2.193476676940918,-2.626749654809469,1.1814625669787005e-28,0.32040050625801086,-1.327141586934225,0.0,-0.04888765141367912,0.5565621256828308,-5.605193857299268e-45,0.0025796592235565186,1.2586294412612915,-0.00023867678828537464,0.0413229875266552
246.0,310.0,6.2632,-0.5288,6.4845,-0.0426,0.027,-0.1199,-1.588750501672262,-0.00671541690826416,2.240675449371338,-1.2789981365203857,-5.309561674948782e-05,2.135902166366577,-2.626749654809469,5.036760075194299e-31,0.30029094219207764,-1.3271177450763147,0.0,-0.04466481879353523,0.5565342903137207,-0.0,-0.004750698804855347,1.2586572170257568,-0.00022384116891771555,-0.02926057018339634
246.0,310.0,6.2632,-0.5288,6.4845,-0.0426,0.027,-0.1199,-1.5888110599913539,-0.007821121253073215,2.2320516109466553,-1.2789981365203857,-5.240788959781639e-05,2.1486053466796875,-2.6267577610411585,1.4020005179943524e-34,0.30830323696136475,-1.3271220366107386,0.0,-0.04360026866197586,0.5565986037254333,-0.0,0.007357679773122072,1.2586933374404907,-0.00021514536638278514,-0.008090198040008545
246.0,310.0,6.2632,-0.5288,6.4845,-0.0426,0.027,-0.1199,-1.5888549290099085,-0.008763882331550121,2.2379093170166016,-1.2790104150772095,-5.06386422784999e-05,2.1831984519958496,-2.626766344110006,3.9025206545893486e-38,0.31145215034484863,-1.327097241078512,0.0,-0.06568080186843872,0.5565019249916077,-0.0,0.01552502065896988,1.2586252689361572,-0.00022135932522360235,0.015523236244916916
246.0,310.0,6.2632,-0.5288,6.4845,-0.0426,0.027,-0.1199,-1.5889231167235316,-0.009014178067445755,2.2404110431671143,-1.279006004333496,-2.267445893266995e-07,2.147308826446533,-2.6267010174193324,1.0862865695445982e-41,0.3121222257614136,-1.327142063771383,0.0,-0.06026072800159454,0.5564935803413391,-0.0,0.005518128629773855,1.258649468421936,-0.00023272466205526143,-0.013409166596829891
246.0,310.0,6.2632,-0.5288,6.4845,-0.0426,0.027,-0.1199,-1.58897127727651,-0.010162997990846634,2.1813530921936035,-1.2789738178253174,-4.081322432791801e-11,2.113534927368164,-2.6267744503416957,4.624284932271896e-44,0.3162635564804077,-1.3271177450763147,0.0,-0.06908313184976578,0.5564899444580078,-0.0,-0.003989808727055788,1.258601188659668,-0.0002485821023583412,-0.01153565850108862
246.0,310.0,6.2632,-0.5288,6.4845,-0.0426,0.027,-0.1199,-1.5890552006163539,-0.010276176035404205,2.1899704933166504,-1.2790300846099854,-9.855914570339958e-17,2.13836669921875,-2.62673344234609,0.0,0.3120807111263275,-1.3271539847003382,0.0,-0.044874005019664764,0.556513786315918,-0.0,0.008572611957788467,1.258637547492981,-0.0004216741363052279,0.01512062270194292
246.0,310.0,6.2632,-0.5288,6.4845,-0.0426,0.027,-0.1199,-1.5891314945616664,-0.011600926518440247,2.232792615890503,-1.2789981365203857,-2.38008750948944e-22,2.1960010528564453,-2.6267620525755824,0.0,0.3119191527366638,-1.3271501700030726,0.0,-0.05211225524544716,0.5565300583839417,-0.0,0.0004991186433471739,1.2586175203323364,-0.00046223902609199286,0.015061874873936176
246.0,310.0,6.2632,-0.5288,6.4845,-0.0426,0.027,-0.1199,-1.589203496972555,-0.01335892453789711,2.1940665245056152,-1.2790100574493408,-5.747630733197576e-28,2.1419382095336914,-2.626770158807272,9.827529720496386e-05,0.3117363750934601,-1.3271339575396937,0.0,-0.06760123372077942,0.55655837059021,-0.0,0.003703990951180458,1.2585852146148682,-0.0006662884843535721,0.04456869140267372
246.0,310.0,6.2632,-0.5288,6.4845,-0.0426,0.027,-0.1199,-1.58921541790151,-0.0138563746586442,2.1396937370300293,-1.2789459228515625,-1.0345532834553057e-31,2.1348912715911865,-2.626709123651022,9.431249054614455e-05,0.3142150342464447,-1.3271339575396937,0.0,-0.05497683584690094,0.5565825700759888,-0.0,0.006213668268173933,1.2585651874542236,-0.0006233903695829213,0.0007485784590244293
281.0,301.0,6.2943,-0.262,6.4594,-0.0367,0.0255,-0.124,-1.5893637142577113,-0.01529598981142044,2.1706414222717285,-1.2790181636810303,-2.498324136884492e-37,2.1552915573120117,-2.626737733880514,0.0001064405805664137,0.31893861293792725,-1.3271382490741175,0.0,-0.057444073259830475,0.5565744042396545,-0.0,0.004983090795576572,1.258601188659668,-0.0006759320385754108,-0.01341811753809452
281.0,301.0,6.2943,-0.262,6.4594,-0.0367,0.0255,-0.124,-1.5894061527647914,-0.017790168523788452,2.189148426055908,-1.2790709733963013,-6.0395963812399616e-43,2.130836248397827,-2.6267301044859828,0.00011726964294211939,0.32899534702301025,-1.3271296660052698,0.0,-0.05736272409558296,0.5565383434295654,-0.0,0.01236595120280981,1.2586175203323364,-0.000683342048432678,0.019106369465589523
281.0,301.0,6.2943,-0.262,6.4594,-0.0367,0.0255,-0.124,-1.5895348987975062,-0.020119253545999527,2.181391716003418,-1.2789981365203857,-0.0,2.145695686340332,-2.626742025414938,0.00012694908946286887,0.31744495034217834,-1.3271382490741175,0.0,-0.05916152894496918,0.5565383434295654,-0.0,0.003497735597193241,1.258573293685913,-0.0007501195650547743,-0.006776607129722834
281.0,301.0,6.2943,-0.262,6.4594,-0.0367,0.0255,-0.124,-1.5895945034422816,-0.02086828462779522,2.220142364501953,-1.279042363166809,-0.0,2.1549298763275146,-2.626705308953756,0.00029482273384928703,0.31465041637420654,-1.3271015326129358,0.0,-0.05659887194633484,0.5565342307090759,-0.0,-0.012176211923360825,1.2585692405700684,-0.0007785456837154925,0.019826868548989296
281.0,301.0,6.2943,-0.262,6.4594,-0.0367,0.0255,-0.124,-1.5897757015623988,-0.02398824505507946,2.143040657043457,-1.2789902687072754,-4.9115140427602455e-05,2.166455030441284,-2.626721521417135,0.00028543680673465133,0.3181341290473938,-1.3271458784686487,0.0,-0.05288373678922653,0.55655837059021,-0.0,0.014955217018723488,1.2585532665252686,-0.000846362323500216,0.022711120545864105
281.0,301.0,6.2943,-0.262,6.4594,-0.0367,0.0255,-0.124,-1.5898987255492152,-0.025745240971446037,2.1743831634521484,-1.2790141105651855,-4.53997818112839e-05,2.163630962371826,-2.626677175561422,0.0002560342545621097,0.3305374085903168,-1.3271859327899378,0.0,-0.053866803646087646,0.55655837059021,-0.0,0.0018249989952892065,1.2585736513137817,-0.0009469831711612642,-0.015346650965511799
281.0,301.0,6.2943,-0.262,6.4594,-0.0367,0.0255,-0.124,-1.59006991008901,-0.0287844929844141,2.17390513420105,-1.2789981365203857,-4.220615664962679e-05,2.1602776050567627,-2.626725812951559,0.00022414665727410465,0.32830554246902466,-1.3271501700030726,0.0,-0.06789567321538925,0.5566186308860779,-0.0,0.019202256575226784,1.2585492134094238,-0.0009544159984216094,-0.007984681986272335
281.0,301.0,6.2943,-0.262,6.4594,-0.0367,0.0255,-0.124,-1.59021057705068,-0.032118696719408035,2.194403648376465,-1.2789860963821411,-4.031552089145407e-05,2.132028818130493,-2.6267296276488246,0.00020696189312729985,0.31682583689689636,-1.3271659056292933,0.0,-0.06861118227243423,0.5565460920333862,-0.0,0.015407552942633629,1.258561372756958,-0.0010780008742585778,0.008538582362234592
281.0,301.0,6.2943,-0.262,6.4594,-0.0367,0.0255,-0.124,-1.590365549127096,-0.03549911454319954,2.2061331272125244,-1.2790300846099854,-3.777717211050913e-05,2.1656322479248047,-2.626742025414938,0.00018561664910521358,0.32426080107688904,-1.3271139303790491,0.0,-0.0591069757938385,0.5565178990364075,-0.0,0.01630707085132599,1.2585532665252686,-0.0013785397168248892,0.021084049716591835
281.0,301.0,6.2943,-0.262,6.4594,-0.0367,0.0255,-0.124,-1.5906464062132777,-0.04167437180876732,2.14383602142334,-1.2789939641952515,-3.553956776158884e-05,2.146099090576172,-2.6267858944334925,0.00016826324281282723,0.3031708300113678,-1.3271220366107386,0.0,-0.06401974707841873,0.5565423369407654,-0.0,0.009817840531468391,1.2584730386734009,-0.001870910171419382,0.021274596452713013
281.0,301.0,6.2943,-0.262,6.4594,-0.0367,0.0255,-0.124,-1.5908657513060511,-0.04630030319094658,2.1623010635375977,-1.2789746522903442,-3.355223452672362e-05,2.1080455780029297,-2.626742025414938,0.00015387788880616426,0.31592175364494324,-1.3271096388446253,0.0,-0.05361208692193031,0.5565178990364075,-0.0,0.008143718354403973,1.2584811449050903,-0.002562259789556265,0.00368390791118145
281.0,301.0,6.2943,-0.262,6.4594,-0.0367,0.0255,-0.124,-1.591074129144186,-0.05045609921216965,2.166332483291626,-1.2789939641952515,-3.2346364605473354e-05,2.1622371673583984,-2.6267296276488246,0.00014558022667188197,0.3250570297241211,-1.3271053473102015,0.0,-0.061236314475536346,0.5565625429153442,-0.0,0.021316934376955032,1.258457064628601,-0.002868879586458206,-0.03717798367142677
281.0,301.0,6.2943,-0.262,6.4594,-0.0367,0.0255,-0.124,-1.591393610040182,-0.05720082297921181,2.1033191680908203,-1.2789582014083862,-3.06917390844319e-05,2.098747491836548,-2.6267010174193324,0.00013468657562043518,0.3163541555404663,-1.327142063771383,0.0,-0.07486766576766968,0.5565505623817444,-0.0,0.010976610705256462,1.258453369140625,-0.003929753787815571,-0.005028403364121914
281.0,301.0,6.2943,-0.262,6.4594,-0.0367,0.0255,-0.124,-1.5917498073973597,-0.06323166191577911,2.0887374877929688,-1.2790305614471436,-2.9198206902947277e-05,2.10385799407959,-2.626749654809469,0.00012530967069324106,0.3280690610408783,-1.3271382490741175,0.0,-0.04659273102879524,0.5565460920333862,-0.0,0.0064789787866175175,1.2583891153335571,-0.004625051282346249,-0.06414082646369934
281.0,301.0,6.2943,-0.262,6.4594,-0.0367,0.0255,-0.124,-1.5920096836485804,-0.06588275730609894,2.101332426071167,-1.2789819240570068,-1.8971521058119833e-05,2.123046636581421,-2.626749654809469,0.00011975169036304578,0.3226695656776428,-1.3271139303790491,0.0,-0.04308140277862549,0.5565383434295654,-0.0,0.007700505666434765,1.2584173679351807,-0.004651807714253664,0.007096150889992714
281.0,301.0,6.2943,-0.262,6.4594,-0.0367,0.0255,-0.124,-1.592449804345602,-0.0678124949336052,2.1113100051879883,-1.2789820432662964,-1.3503888112609275e-05,2.1034984588623047,-2.6267010174193324,0.00011228129733353853,0.3185465335845947,-1.3271139303790491,0.0,-0.0619528591632843,0.5565948486328125,-0.0,0.017343981191515923,1.2583935260772705,-0.0059497361071407795,-0.07664858549833298
281.0,302.0,5.4347,-0.2979,6.4893,-0.0188,-0.0017,-0.1283,-1.5928927860655726,-0.06799492985010147,2.0957837104797363,-1.2789256572723389,-1.2922226233058609e-05,2.0745723247528076,-2.626737733880514,0.00010568866127869114,0.32291179895401,-1.3271177450763147,0.0,-0.0469905287027359,0.5565584897994995,-0.0,0.013849667273461819,1.2583575248718262,-0.009122349321842194,-0.08639021217823029
281.0,302.0,5.4347,-0.2979,6.4893,-0.0188,-0.0017,-0.1283,-1.5933286152281703,-0.06801626086235046,2.1412971019744873,-1.2790584564208984,-2.477717316651251e-05,2.1042072772979736,-2.6267177067198695,9.982715710066259e-05,0.32582661509513855,-1.3271458784686487,0.0,-0.04569157958030701,0.5565383434295654,-0.0,0.005629934836179018,1.2583215236663818,-0.009337170049548149,-0.0777207612991333
281.0,302.0,5.4347,-0.2979,6.4893,-0.0188,-0.0017,-0.1283,-1.5936371288695277,-0.06770438700914383,2.1299257278442383,-1.2790018320083618,-3.568997635738924e-05,2.137941598892212,-2.626766344110006,9.626778773963451e-05,0.31576457619667053,-1.3271382490741175,0.0,-0.05262242257595062,0.5565423965454102,-0.0,0.0034313553478568792,1.2582619190216064,-0.009570475667715073,-0.05786287784576416
281.0,302.0,5.4347,-0.2979,6.4893,-0.0188,-0.0017,-0.1283,-1.594020505944723,-0.06529984623193741,2.0989768505096436,-1.2789860963821411,-4.620595427695662e-05,2.0653254985809326,-2.6267010174193324,9.138046152656898e-05,0.31630533933639526,-1.3271382490741175,0.0,-0.05881200730800629,0.5565460920333862,-0.0,0.006026171147823334,1.2581980228424072,-0.010667636059224606,-0.06755943596363068
281.0,302.0,5.4347,-0.2979,6.4893,-0.0188,-0.0017,-0.1283,-1.5944158039488734,-0.06321705877780914,2.127202033996582,-1.2789981365203857,-7.688489858992398e-05,2.0707685947418213,-2.6266895733275355,8.696548320585862e-05,0.322848916053772,-1.3271139303790491,0.0,-0.050742991268634796,0.5565543174743652,-0.0,0.009128266014158726,1.258146047592163,-0.011403409764170647,-0.06165524572134018
281.0,302.0,5.4347,-0.2979,6.4893,-0.0188,-0.0017,-0.1283,-1.5948273144164027,-0.06538722664117813,2.1291158199310303,-1.2790700197219849,-0.0013181944377720356,2.080448865890503,-2.6267577610411585,7.269148773048073e-05,0.32675886154174805,-1.3271382490741175,0.0,-0.05720458924770355,0.556598961353302,-0.0,0.00490838848054409,1.2580621242523193,-0.01194879598915577,-0.13068075478076935
281.0,302.0,5.4347,-0.2979,6.4893,-0.0188,-0.0017,-0.1283,-1.5950995884337367,-0.06675773113965988,2.1217286586761475,-1.2790380716323853,-0.0017522865673527122,2.092083215713501,-2.6267453632750453,6.708563887514174e-05,0.31722962856292725,-1.327170197163717,0.0,-0.06247251480817795,0.5565826296806335,-0.0,0.007546727545559406,1.2580019235610962,-0.012513351626694202,-0.08747921884059906
281.0,302.0,5.4347,-0.2979,6.4893,-0.0188,-0.0017,-0.1283,-1.5955192051329554,-0.07326927036046982,2.0659453868865967,-1.2790100574493408,-0.0017133525107055902,2.059432029724121,-2.626692911187643,6.419988494599238e-05,0.309989869594574,-1.3271053473102015,0.0,-0.07015234231948853,0.5565744042396545,-0.0,-0.0016048585530370474,1.257926106452942,-0.014663885347545147,-0.09524408727884293
281.0,302.0,5.4347,-0.2979,6.4893,-0.0188,-0.0017,-0.1283,-1.5959545574583949,-0.0795019194483757,2.095089912414551,-1.2790379524230957,-0.0010597793152555823,2.1056532859802246,-2.626749654809469,6.156494782771915e-05,0.3261840045452118,-1.3271539847003382,0.0,-0.04633386433124542,0.5565423965454102,-0.0,-0.013018514961004257,1.2577983140945435,-0.016508489847183228,-0.11671283096075058
281.0,302.0,5.4347,-0.2979,6.4893,-0.0188,-0.0017,-0.1283,-1.5964633427061976,-0.08295662701129913,2.0732946395874023,-1.2790979146957397,-1.7187978301080875e-05,2.082749843597412,-2.6267134151854457,5.9137772041140124e-05,0.32014453411102295,-1.3271053473102015,0.0,-0.04945717751979828,0.556590735912323,-0.0,0.013482430949807167,1.257698655128479,-0.019174469634890556,-0.16732002794742584
281.0,302.0,5.4347,-0.2979,6.4893,-0.0188,-0.0017,-0.1283,-1.5967990360655726,-0.08541405200958252,2.078052043914795,-1.2790058851242065,-3.0937754580406818e-09,2.1013715267181396,-2.626697679559225,6.895187107147649e-05,0.32145851850509644,-1.327142063771383,0.0,-0.0439746156334877,0.55655837059021,-0.0,0.003143792040646076,1.2576589584350586,-0.021018972620368004,-0.12348105758428574
281.0,302.0,5.4347,-0.2979,6.4893,-0.0188,-0.0017,-0.1283,-1.5973226032652796,-0.08794663101434708,2.083214521408081,-1.2789899110794067,0.0014048587763682008,2.097339153289795,-2.6267010174193324,6.658972415607423e-05,0.31077176332473755,-1.3271177450763147,0.0,-0.05655001848936081,0.5565178990364075,-0.0,0.006214391440153122,1.25754714012146,-0.02302500233054161,-0.12611809372901917
281.0,302.0,5.4347,-0.2979,6.4893,-0.0188,-0.0017,-0.1283,-1.5978743038573207,-0.09173541516065598,2.0393452644348145,-1.2790141105651855,0.0009356557857245207,2.09420108795166,-2.626709123651022,6.421425496228039e-05,0.3178282380104065,-1.3271296660052698,0.0,-0.056268639862537384,0.5565744042396545,-0.0,0.0008999991696327925,1.2574074268341064,-0.026408856734633446,-0.15504702925682068
281.0,302.0,5.4347,-0.2979,6.4893,-0.0188,-0.0017,-0.1283,-1.5984212360777796,-0.09252525866031647,2.0616345405578613,-1.2790141105651855,0.0006471090600825846,2.0554983615875244,-2.62673344234609,6.200239295139909e-05,0.3141089677810669,-1.3271220366107386,0.0,-0.048434533178806305,0.5564740300178528,-0.0,0.004723106976598501,1.2572238445281982,-0.028681598603725433,-0.1800101101398468
281.0,302.0,5.4347,-0.2979,6.4893,-0.0188,-0.0017,-0.1283,-1.5987736187376917,-0.08762578666210175,2.07267165184021,-1.2790545225143433,0.0005367876146920025,2.071415662765503,-2.6267177067198695,7.054088928271085e-05,0.3146670460700989,-1.3271053473102015,0.0,-0.048850227147340775,0.5566149353981018,-0.0,0.0031416339334100485,1.2570953369140625,-0.031003795564174652,-0.14738699793815613
281.0,302.0,5.4347,-0.2979,6.4893,-0.0188,-0.0017,-0.1283,-1.599316259423727,-0.0806240439414978,2.0640320777893066,-1.2790545225143433,7.537808414781466e-05,2.048360824584961,-2.626705308953756,2.307554314029403e-05,0.317986398935318,-1.3271339575396937,0.0,-0.030333682894706726,0.5565662384033203,-0.0,-0.011594258248806,1.2568720579147339,-0.034491121768951416,-0.181726336479187
281.0,302.0,5.4347,-0.2979,6.4893,-0.0188,-0.0017,-0.1283,-1.5998116932311,-0.0768120065331459,2.0720419883728027,-1.2790379524230957,1.820292111487376e-10,2.1020946502685547,-2.6267172298827113,2.212810068158433e-05,0.3091679811477661,-1.3271053473102015,0.0,-0.046851422637701035,0.5565301179885864,-0.0,0.0033664051443338394,1.2566686868667603,-0.038568757474422455,-0.18249106407165527
269.0,298.0,5.4407,0.3147,6.731,0.0102,-0.0067,-0.1605,-1.6002265415587367,-0.07865502685308456,2.0877623558044434,-1.2790297269821167,-0.0027146381326019764,2.057539224624634,-2.6267901859679164,1.0851766091946047e-05,0.30131515860557556,-1.327142063771383,0.0,-0.052905768156051636,0.5565543174743652,-0.0,0.0074668037705123425,1.2564291954040527,-0.04122694954276085,-0.13400082290172577
269.0,298.0,5.4407,0.3147,6.731,0.0102,-0.0067,-0.1605,-1.6006366215147914,-0.08111288398504257,2.0547423362731934,-1.2790700197219849,-0.0035852028522640467,2.062973976135254,-2.626725812951559,1.0424124411656521e-05,0.31771424412727356,-1.3271177450763147,0.0,-0.042249925434589386,0.5565502643585205,-0.0,0.00215565855614841,1.2562696933746338,-0.04264170676469803,-0.17997859418392181
269.0,298.0,5.4407,0.3147,6.731,0.0102,-0.0067,-0.1605,-1.6010309658446253,-0.0853167325258255,2.0841245651245117,-1.279085636138916,-0.0034995770547538996,2.060236930847168,-2.626721521417135,1.883460208773613e-05,0.3074934184551239,-1.3271015326129358,0.0,-0.04223128408193588,0.5564977526664734,-0.0,-0.012619726359844208,1.2559977769851685,-0.04421631991863251,-0.18438735604286194
269.0,298.0,5.4407,0.3147,6.731,0.0102,-0.0067,-0.1605,-1.6015588245787562,-0.08824144303798676,2.0062434673309326,-1.2790980339050293,-0.002295884769409895,2.061431407928467,-2.626701971093649,1.6719650375307538e-07,0.3083448112010956,-1.3271382490741175,0.0,-0.051017213612794876,0.556570291519165,-0.0,-0.007358444854617119,1.2556860446929932,-0.046252306550741196,-0.19361528754234314
269.0,298.0,5.4407,0.3147,6.731,0.0102,-0.0067,-0.1605,-1.6018902264037074,-0.08944191038608551,2.077470302581787,-1.279093861579895,-0.0011737911263480783,2.0689449310302734,-2.626701971093649,7.127848311583307e-10,0.30863720178604126,-1.3271263281451624,0.0,-0.042927086353302,0.5565625429153442,-0.0,-0.005008484236896038,1.255570888519287,-0.04783911257982254,-0.18099187314510345
269.0,298.0,5.4407,0.3147,6.731,0.0102,-0.0067,-0.1605,-1.6024590931334437,-0.09118447452783585,2.0527191162109375,-1.2790577411651611,0.0007358884322457016,2.0290346145629883,-2.6266733608641566,0.00011240495223319158,0.3047599196434021,-1.3271339575396937,0.0,-0.0446123443543911,0.5565142035484314,-0.0,-0.016543546691536903,1.2553155422210693,-0.05001230537891388,-0.15065988898277283
269.0,298.0,5.4407,0.3147,6.731,0.0102,-0.0067,-0.1605,-1.602969308892721,-0.09101633727550507,2.0660400390625,-1.2790379524230957,0.0016591447638347745,2.0711636543273926,-2.626657625237936,0.0014684944180771708,0.31979042291641235,-1.3271458784686487,0.0,-0.04511108994483948,0.5565383434295654,-0.0,0.00994258001446724,1.254943609237671,-0.0519372820854187,-0.2100098431110382
269.0,298.0,5.4407,0.3147,6.731,0.0102,-0.0067,-0.1605,-1.6035095653929652,-0.08942683041095734,2.069584608078003,-1.2790899276733398,0.0011937516974285245,2.0966501235961914,-2.6267100773253382,0.0021878068801015615,0.3184286952018738,-1.3271058241473597,0.0,-0.052176088094711304,0.5565866231918335,-0.0,0.013826529495418072,1.2546204328536987,-0.05210798233747482,-0.16180448234081268
269.0,298.0,5.4407,0.3147,6.731,0.0102,-0.0067,-0.1605,-1.6038290462889613,-0.08848663419485092,2.1145246028900146,-1.2790777683258057,0.0008655247511342168,2.075355052947998,-2.626673837701315,0.001860589487478137,0.3242560029029846,-1.3271577993976038,0.0,-0.06213605776429176,0.5565744638442993,-0.0,-0.004312179982662201,1.254424810409546,-0.0526622012257576,-0.1510547250509262
269.0,298.0,5.4407,0.3147,6.731,0.0102,-0.0067,-0.1605,-1.6043969593443812,-0.08558420836925507,2.102379560470581,-1.2790898084640503,0.0006127843516878784,2.0561959743499756,-2.626646181146139,0.001585868070833385,0.3234289884567261,-1.3271458784686487,0.0,-0.04610712081193924,0.5565825700759888,-0.0,-0.003903310978785157,1.2541052103042603,-0.05411098152399063,-0.1574312150478363
269.0,298.0,5.4407,0.3147,6.731,0.0102,-0.0067,-0.1605,-1.604927202264303,-0.08003287762403488,2.224364757537842,-1.2790699005126953,0.000474327098345384,2.0967206954956055,-2.626670023004049,0.0011691198451444507,0.3295024633407593,-1.3271821180926722,0.0,-0.06977511197328568,0.5565219521522522,-0.0,0.006423106417059898,1.253793716430664,-0.051955562084913254,-0.14379553496837616
269.0,298.0,5.4407,0.3147,6.731,0.0102,-0.0067,-0.1605,-1.6054030857481898,-0.0790652185678482,2.1210992336273193,-1.279102087020874,6.489921361207962e-05,2.135859727859497,-2.6266170940794886,0.0008040558896027505,0.32578206062316895,-1.3271139303790491,0.0,-0.06793501228094101,0.5565260648727417,-0.0,-0.004558080807328224,1.2535306215286255,-0.05103648453950882,-0.11223071813583374
269.0,298.0,5.4407,0.3147,6.731,0.0102,-0.0067,-0.1605,-1.6057402096190394,-0.07790707051753998,2.1512980461120605,-1.2790979146957397,9.692362823443545e-08,2.134380340576172,-2.6266170940794886,0.0006208684062585235,0.33275073766708374,-1.3271501700030726,0.0,-0.07119614630937576,0.5565703511238098,-0.0,0.004951142240315676,1.253331184387207,-0.05110109597444534,-0.15886220335960388
269.0,298.0,5.4407,0.3147,6.731,0.0102,-0.0067,-0.1605,-1.6061951122679652,-0.079468734562397,2.2026119232177734,-1.2790380716323853,2.340591370893208e-13,2.12416410446167,-2.6266538105406703,0.00046147045213729143,0.3260599970817566,-1.3271616140948694,0.0,-0.0715799629688263,0.5565460920333862,-0.0,0.005006692372262478,1.2530475854873657,-0.04909691959619522,-0.1342635303735733
269.0,298.0,5.4407,0.3147,6.731,0.0102,-0.0067,-0.1605,-1.606682916680807,-0.08055116981267929,2.1382248401641846,-1.279085636138916,5.652253855557667e-19,2.142961025238037,-2.626625200311178,0.0003672422026284039,0.3289867043495178,-1.3271296660052698,0.0,-0.07738540321588516,0.5565300583839417,-0.0,0.010073265060782433,1.2526919841766357,-0.049940016120672226,-0.09328793734312057
269.0,298.0,5.4407,0.3147,6.731,0.0102,-0.0067,-0.1605,-1.607105394402975,-0.08019199967384338,2.1604175567626953,-1.2790495157241821,1.3649528108837543e-24,2.134723663330078,-2.626646181146139,0.0003930361126549542,0.33561357855796814,-1.327141586934225,0.0,-0.07006680965423584,0.5566149353981018,-0.0,-0.005708194337785244,1.2523967027664185,-0.05149002745747566,-0.11571910977363586
269.0,284.0,7.4172,0.2495,6.3739,-0.1074,-0.1449,-0.1862,-1.6074420414366664,-0.07936803996562958,2.168891429901123,-1.279093861579895,2.4568671818197494e-28,2.098374366760254,-2.626641889611715,0.00041621553828008473,0.34334999322891235,-1.3271778265582483,-2.8874006602563895e-05,-0.07329712808132172,0.55655837059021,-0.0,-0.004740092437714338,1.2522011995315552,-0.05214103311300278,-0.10509800165891647
269.0,284.0,7.4172,0.2495,6.3739,-0.1074,-0.1449,-0.1862,-1.6078969440855921,-0.07999399304389954,2.189079999923706,-1.2790859937667847,0.0001154707424575463,2.1390979290008545,-2.626617570916647,0.0035472416784614325,0.3275967538356781,-1.3271539847003382,-0.0001559503871249035,-0.07173489779233932,0.556570291519165,-0.0,0.0036543342284858227,1.2518653869628906,-0.051409490406513214,-0.0947871133685112
269.0,284.0,7.4172,0.2495,6.3739,-0.1074,-0.1449,-0.1862,-1.6083322964110316,-0.08042078465223312,2.1773386001586914,-1.2790577411651611,0.00021249651035759598,2.159139633178711,-2.626557012597555,0.0053821466863155365,0.32566243410110474,-1.3272107283221644,-0.00016953748126979917,-0.07483114302158356,0.556590735912323,-0.0,0.017245464026927948,1.2515466213226318,-0.048723023384809494,-0.04857441782951355
269.0,284.0,7.4172,0.2495,6.3739,-0.1074,-0.1449,-0.1862,-1.6088081798949183,-0.07648588716983795,2.232410430908203,-1.2790740728378296,0.00024404878786299378,2.158733606338501,-2.6265093288817347,0.006030861288309097,0.3419709801673889,-1.3271697203265589,-0.00018072301463689655,-0.07368398457765579,0.5565019249916077,-0.0,0.009074170142412186,1.2513272762298584,-0.044394154101610184,-0.1005871444940567
269.0,284.0,7.4172,0.2495,6.3739,-0.1074,-0.1449,-0.1862,-1.6090876064696253,-0.07212196290493011,2.2087597846984863,-1.279066801071167,0.0005334054003469646,2.173638105392456,-2.626521726647848,0.00513958465307951,0.359572172164917,-1.3271496931659144,-0.00017096969531849027,-0.06433676928281784,0.5565502643585205,-0.0,0.020423687994480133,1.2511110305786133,-0.0409461110830307,-0.09173586964607239
269.0,284.0,7.4172,0.2495,6.3739,-0.1074,-0.1449,-0.1862,-1.6095324955382289,-0.06663188338279724,2.2043001651763916,-1.2790617942810059,0.00047216485836543143,2.190009832382202,-2.6265536747374476,0.0035879481583833694,0.3459038734436035,-1.3272021452533167,-0.00018067621567752212,-0.0844544917345047,0.5565019249916077,-0.0,0.0029491307213902473,1.2509160041809082,-0.03629555180668831,-0.03490270674228668
269.0,284.0,7.4172,0.2495,6.3739,-0.1074,-0.1449,-0.1862,-1.6099239788451136,-0.06202240660786629,2.232677459716797,-1.279146432876587,0.00025194164481945336,2.185039758682251,-2.6265341244139613,0.00156224868260324,0.35683268308639526,-1.327186409627096,-0.00021568802185356617,-0.08381415903568268,0.5565543174743652,-0.0,0.005548869259655476,1.2507164478302002,-0.03169388696551323,-0.0537719763815403
269.0,284.0,7.4172,0.2495,6.3739,-0.1074,-0.1449,-0.1862,-1.610279222527975,-0.06202618405222893,2.2462997436523438,-1.279093861579895,-0.00012628022523131222,2.136934280395508,-2.6264730892577113,0.00033795437775552273,0.3410335183143616,-1.3271339575396937,-0.000226985925110057,-0.08796434104442596,0.556513786315918,-0.0,0.015504272654652596,1.250496745109558,-0.02910148911178112,-0.07872284948825836
269.0,284.0,7.4172,0.2495,6.3739,-0.1074,-0.1449,-0.1862,-1.6105319462218226,-0.06426756083965302,2.279232978820801,-1.2791423797607422,-0.0002543552836868912,2.126769781112671,-2.6265746555724085,0.00023301882902160287,0.33771461248397827,-1.3271496931659144,-0.00020619109272956848,-0.08305484056472778,0.55655837059021,-0.0,0.0018636914901435375,1.250368356704712,-0.02768890932202339,-0.029649857431650162
269.0,284.0,7.4172,0.2495,6.3739,-0.1074,-0.1449,-0.1862,-1.610943456689352,-0.06683599203824997,2.253087282180786,-1.2790297269821167,-0.00022613562759943306,2.1468214988708496,-2.626549860040182,8.698178135091439e-05,0.3379819989204407,-1.3271015326129358,-0.00018126833310816437,-0.09053057432174683,0.5565783977508545,-0.0,0.003874407382681966,1.2502363920211792,-0.027059130370616913,-0.07469261437654495
269.0,284.0,7.4172,0.2495,6.3739,-0.1074,-0.1449,-0.1862,-1.6112991772093714,-0.06948850303888321,2.2409677505493164,-1.2791062593460083,-0.0002034904173342511,2.126810312271118,-2.6265818081297816,6.552007107529789e-05,0.35495811700820923,-1.32715350786318,-0.0001617216330487281,-0.07735849171876907,0.5564656853675842,-0.0,0.009697195142507553,1.2500736713409424,-0.027915753424167633,-0.08985698223114014
269.0,284.0,7.4172,0.2495,6.3739,-0.1074,-0.1449,-0.1862,-1.6116820774474085,-0.06879156082868576,2.241887331008911,-1.2790617942810059,-9.485296686762013e-06,2.1220803260803223,-2.62648930172109,0.0001070317011908628,0.3503953218460083,-1.3271258513080042,-0.00014598082634620368,-0.08589556813240051,0.5565865635871887,-0.0,0.014066997915506363,1.2499293088912964,-0.02792145311832428,-0.09730264544487
269.0,284.0,7.4172,0.2495,6.3739,-0.1074,-0.1449,-0.1862,-1.6119381390013636,-0.06778959184885025,2.1908316612243652,-1.2790617942810059,-1.7073196190153794e-09,2.1241345405578613,-2.6265579662718714,9.605385275790468e-05,0.33468687534332275,-1.3271215597735804,-0.0001370855898130685,-0.07548157125711441,0.5566067695617676,-0.0,0.010095242410898209,1.2497940063476562,-0.02864290401339531,-0.0383797213435173
269.0,284.0,7.4172,0.2495,6.3739,-0.1074,-0.1449,-0.1862,-1.6124030552306117,-0.0661146268248558,2.2020556926727295,-1.2790379524230957,-4.122976069440617e-15,2.155810594558716,-2.6265093288817347,8.27968106023036e-05,0.3312132954597473,-1.3271577993976038,-0.0001256055838894099,-0.0750659704208374,0.5565219521522522,-0.0,0.006785551086068153,1.2496222257614136,-0.02848130837082863,-0.08908513188362122
269.0,284.0,7.4172,0.2495,6.3739,-0.1074,-0.1449,-0.1862,-1.6127578220763148,-0.06397499889135361,2.22690486907959,-1.2790462970733643,-9.9565016146623e-21,2.0914554595947266,-2.62648930172109,7.275461393874139e-05,0.3446444272994995,-1.3271377722369593,-5.426494317362085e-05,-0.07017556577920914,0.5565866231918335,-0.0,0.014926711097359657,1.2494343519210815,-0.02889432944357395,-0.12126626074314117
269.0,284.0,7.4172,0.2495,6.3739,-0.1074,-0.1449,-0.1862,-1.6130577526488246,-0.06280869990587234,2.18912935256958,-1.2790260314941406,-1.792135190557226e-24,2.161191463470459,-2.626493116418356,6.731236499035731e-05,0.34098440408706665,-1.3271015326129358,-1.3633091384690488e-06,-0.07375676929950714,0.55655837059021,-0.0,0.020022403448820114,1.249322772026062,-0.029073290526866913,-0.05529176443815231
263.0,282.0,6.1113,-0.6437,6.3811,-0.0347,0.02,-0.1443,-1.613413473168844,-0.06189028173685074,2.2441773414611816,-1.279065728187561,-4.327795170009976e-30,2.1689538955688477,-2.62646545986318,6.0521553677972406e-05,0.3421075940132141,-1.3271015326129358,-3.794820568892021e-10,-0.07480192929506302,0.5565178990364075,-0.0,0.003884719219058752,1.2492072582244873,-0.029461456462740898,-0.11484110355377197
263.0,282.0,6.1113,-0.6437,6.3811,-0.0347,0.02,-0.1443,-1.6137892208495082,-0.06362304091453552,2.1935038566589355,-1.2790700197219849,-1.0451118378562373e-35,2.1168723106384277,-2.626505514184469,8.23386653792113e-05,0.34649091958999634,-1.3271620909320276,-1.0563022624556634e-13,-0.06868225336074829,0.5565301179885864,-0.0,0.02281530760228634,1.2490031719207764,-0.02987808734178543,-0.11141369491815567
263.0,282.0,6.1113,-0.6437,6.3811,-0.0347,0.02,-0.1443,-1.6141368351378382,-0.06373178958892822,2.246925115585327,-1.2790695428848267,-2.523878664095428e-41,2.0987143516540527,-2.626537939111227,8.184158650692552e-05,0.3344687819480896,-1.3271382490741175,-2.9402558389670996e-17,-0.0700758546590805,0.5565460920333862,-0.0,0.007594996131956577,1.2488278150558472,-0.029423914849758148,-0.07925772666931152
263.0,282.0,6.1113,-0.6437,6.3811,-0.0347,0.02,-0.1443,-1.614408632318014,-0.06420718878507614,2.2165284156799316,-1.279093861579895,-4.203895392974451e-45,2.1222829818725586,-2.6264172993102015,0.001358676701784134,0.34349533915519714,-1.3271620909320276,-1.2534771885201803e-19,-0.0915289968252182,0.5565097332000732,-0.0,0.019497329369187355,1.2486718893051147,-0.0297138262540102,-0.13941487669944763
263.0,282.0,6.1113,-0.6437,6.3811,-0.0347,0.02,-0.1443,-1.6148120365538539,-0.06253396719694138,2.2065587043762207,-1.2790658473968506,-0.0,2.1242032051086426,-2.626408716241354,0.004069644957780838,0.3594552278518677,-1.3271778265582483,-3.489099598267602e-23,-0.07425729185342789,0.5565341711044312,-0.0,0.020042339339852333,1.2485564947128296,-0.02722885087132454,-0.08371587842702866
263.0,282.0,6.1113,-0.6437,6.3811,-0.0347,0.02,-0.1443,-1.6152087650694789,-0.06215430796146393,2.206357955932617,-1.2790858745574951,-0.0,2.1315412521362305,-2.626369615594381,0.00621420331299305,0.35701051354408264,-1.3272021452533167,-9.712035612353221e-27,-0.07835658639669418,0.556582510471344,-0.0,0.021583039313554764,1.2484251260757446,-0.024896418675780296,-0.07929886877536774
263.0,282.0,6.1113,-0.6437,6.3811,-0.0347,0.02,-0.1443,-1.6155597172179164,-0.06462868303060532,2.2189900875091553,-1.2790337800979614,-0.0,2.159905433654785,-2.6263534031310023,0.009055748581886292,0.36038973927497864,-1.3271940390216272,-2.70338084316233e-30,-0.0820002555847168,0.5565498471260071,-0.0,0.0027121729217469692,1.2482531070709229,-0.02214980125427246,-0.04709561914205551
263.0,282.0,6.1113,-0.6437,6.3811,-0.0347,0.02,-0.1443,-1.6158281765379847,-0.06670676171779633,2.251622200012207,-1.2791175842285156,-0.0,2.1484670639038086,-2.626284738580221,0.009949502535164356,0.35070323944091797,-1.327186409627096,-1.1524935997965417e-32,-0.09677106142044067,0.556582510471344,-0.0,6.523274350911379e-05,1.24813711643219,-0.021914921700954437,-0.09282854944467545
263.0,282.0,6.1113,-0.6437,6.3811,-0.0347,0.02,-0.1443,-1.61621155361318,-0.07068206369876862,2.242337942123413,-1.279050350189209,2.7773361580329947e-05,2.2021734714508057,-2.6262575588622035,0.012197957374155521,0.3623247742652893,-1.3271821180926722,-0.0002592812234070152,-0.10211463272571564,0.5565744042396545,-0.0,0.011069556698203087,1.248029351234436,-0.02192898839712143,-0.02711883932352066
263.0,282.0,6.1113,-0.6437,6.3811,-0.0347,0.02,-0.1443,-1.616643568078512,-0.07511746138334274,2.251091718673706,-1.2790658473968506,7.55026558181271e-05,2.176128387451172,-2.6261688671507777,0.014824305661022663,0.3660286068916321,-1.3271945158587855,-0.00026559570687823,-0.0925845354795456,0.5565943717956543,-0.0,0.01572534441947937,1.2479138374328613,-0.02363918535411358,-0.02017340064048767
263.0,282.0,6.1113,-0.6437,6.3811,-0.0347,0.02,-0.1443,-1.617075105706686,-0.07699739187955856,2.330840587615967,-1.2790658473968506,0.0008414830081164837,2.1707725524902344,-2.6260248623290003,0.01761992648243904,0.3689281940460205,-1.3271496931659144,-0.00026968339807353914,-0.0932878702878952,0.5565783977508545,-0.0,0.013456229120492935,1.2476848363876343,-0.026739826425909996,-0.0298622939735651
263.0,282.0,6.1113,-0.6437,6.3811,-0.0347,0.02,-0.1443,-1.6173907719054164,-0.07722392678260803,2.300199270248413,-1.279006004333496,0.001445972127839923,2.2098593711853027,-2.6259805164732875,0.020279401913285255,0.3907046318054199,-1.327186409627096,-0.00024899333948269486,-0.1111835166811943,0.5565502643585205,-0.0,0.010463060811161995,1.247630000114441,-0.029098421335220337,0.02798117697238922
263.0,282.0,6.1113,-0.6437,6.3811,-0.0347,0.02,-0.1443,-1.617861887017721,-0.07777439802885056,2.3258306980133057,-1.2790141105651855,0.001598973642103374,2.1985533237457275,-2.6258565388121546,0.021769212558865547,0.39326369762420654,-1.327186409627096,-0.00025425254716537893,-0.12014473229646683,0.5565543174743652,-0.0,0.01952160894870758,1.2473984956741333,-0.03237142786383629,0.039853572845458984
263.0,282.0,6.1113,-0.6437,6.3811,-0.0347,0.02,-0.1443,-1.618399282495016,-0.08020839840173721,2.2583577632904053,-1.2789939641952515,0.0015841085696592927,2.186246395111084,-2.6257487736144007,0.024069001898169518,0.3904499411582947,-1.3272503058062952,-0.00028441581525839865,-0.10136866569519043,0.5565502643585205,-0.0,0.029190819710493088,1.2472025156021118,-0.03591613098978996,-0.03583104908466339
263.0,282.0,6.1113,-0.6437,6.3811,-0.0347,0.02,-0.1443,-1.6188088856139125,-0.08032619953155518,2.3009440898895264,-1.2789860963821411,0.0017321946797892451,2.215827226638794,-2.62559237102651,0.026494698598980904,0.3890477418899536,-1.3272102514850062,-0.00028786598704755306,-0.11054173111915588,0.5565456748008728,-0.0,0.01576661691069603,1.2470030784606934,-0.03876200318336487,-0.07070927321910858
263.0,282.0,6.1113,-0.6437,6.3811,-0.0347,0.02,-0.1443,-1.6191450558104457,-0.08007130026817322,2.294027805328369,-1.2790263891220093,0.001642756862565875,2.2127182483673096,-2.6254598102965296,0.029547639191150665,0.3933030366897583,-1.3271573225604456,-0.00029772412381134927,-0.10712428390979767,0.5565783977508545,-0.0,0.012488793581724167,1.2468394041061401,-0.03954531252384186,-0.018962278962135315
263.0,282.0,6.1113,-0.6437,6.3811,-0.0347,0.02,-0.1443,-1.6197101078429164,-0.07509864121675491,2.318539619445801,-1.2789738178253174,0.0014173383824527264,2.231062173843384,-2.6252886257567347,0.03714481741189957,0.40507128834724426,-1.3271573225604456,-0.0002651921531651169,-0.10455939173698425,0.5565543174743652,-0.0,0.026989929378032684,1.2466238737106323,-0.04082919657230377,-0.04411369562149048
255.0,295.0,6.0814,-0.2052,6.5354,-0.0483,-0.0173,-0.1512,-1.6201282940306605,-0.07251384109258652,2.3522605895996094,-1.2789654731750488,0.0008775938767939806,2.2633957862854004,-2.625047346154684,0.047503311187028885,0.4247339963912964,-1.327186409627096,-0.0002690509136300534,-0.12344551831483841,0.5565580129623413,-0.0,0.013382873497903347,1.2463808059692383,-0.041626106947660446,-0.03215214982628822
255.0,295.0,6.0814,-0.2052,6.5354,-0.0483,-0.0173,-0.1512,-1.6205679378905238,-0.0751030221581459,2.3220009803771973,-1.2790260314941406,0.00029928877484053373,2.191150188446045,-2.624691148797506,0.059728387743234634,0.39775311946868896,-1.327186409627096,-0.00024195871083065867,-0.11255364120006561,0.5565985441207886,-0.0,0.02640683203935623,1.246148943901062,-0.038699496537446976,-0.04551241174340248
255.0,295.0,6.0814,-0.2052,6.5354,-0.0483,-0.0173,-0.1512,-1.6208793125548304,-0.07946617901325226,2.3158035278320312,-1.279006004333496,-0.0003051557287108153,2.1620519161224365,-2.6244427166380824,0.0684436485171318,0.4178012013435364,-1.3271454016314905,-0.00022671854821965098,-0.10471872985363007,0.5565825700759888,-0.0,0.02839856967329979,1.245949149131775,-0.038137756288051605,0.01788332499563694
255.0,295.0,6.0814,-0.2052,6.5354,-0.0483,-0.0173,-0.1512,-1.6213962040343226,-0.08551470935344696,2.3018598556518555,-1.2789418697357178,-0.00030772233731113374,2.184457778930664,-2.624002595941061,0.08180274814367294,0.42625004053115845,-1.3272107283221644,-0.00020714817219413817,-0.10914085805416107,0.5565460324287415,-0.0,0.014730563387274742,1.245773434638977,-0.033521346747875214,0.019683830440044403
255.0,295.0,6.0814,-0.2052,6.5354,-0.0483,-0.0173,-0.1512,-1.621932169000143,-0.0905088484287262,2.304180860519409,-1.2790141105651855,-0.00016228703316301107,2.198141098022461,-2.6234895191588343,0.08603646606206894,0.4200611114501953,-1.3271740118609827,-0.00016685995797161013,-0.11937651038169861,0.5565543174743652,-0.0,0.0063858600333333015,1.2455822229385376,-0.031461622565984726,-0.027781395241618156
255.0,295.0,6.0814,-0.2052,6.5354,-0.0483,-0.0173,-0.1512,-1.6222430668272914,-0.09475881606340408,2.3051681518554688,-1.2790063619613647,-5.056630811850482e-07,2.1494140625,-2.623181482354635,0.08714228123426437,0.42428916692733765,-1.3271821180926722,-0.00015845851157791913,-0.11612315475940704,0.5565783977508545,-0.0,0.01634753681719303,1.245409607887268,-0.02988363243639469,-0.05680321902036667
255.0,295.0,6.0814,-0.2052,6.5354,-0.0483,-0.0173,-0.1512,-1.6228109798827113,-0.09720329195261002,2.2616679668426514,-1.2789981365203857,-1.2211167407100154e-12,2.2062268257141113,-2.6226045093932093,0.08119411021471024,0.41247254610061646,-1.3271940390216272,-0.00014734026626683772,-0.10924085974693298,0.5565667152404785,-0.0,0.027117950841784477,1.245262861251831,-0.028002886101603508,-0.045210178941488266
255.0,295.0,6.0814,-0.2052,6.5354,-0.0483,-0.0173,-0.1512,-1.6234318218626917,-0.09709792584180832,2.3021903038024902,-1.2790025472640991,0.002209457103163004,2.1850385665893555,-2.6221848926939906,0.06673480570316315,0.4135361611843109,-1.3271697203265589,-0.000137679890030995,-0.10530900955200195,0.5565465688705444,-0.0,0.01509503647685051,1.245139479637146,-0.02607061341404915,-0.050329796969890594
255.0,295.0,6.0814,-0.2052,6.5354,-0.0483,-0.0173,-0.1512,-1.6239620647826136,-0.09071533381938934,2.3137311935424805,-1.2789582014083862,0.0019181222887709737,2.1918070316314697,-2.6218487224974574,0.055387675762176514,0.4001152813434601,-1.327198330556051,-0.00012920853623654693,-0.11305685341358185,0.5565948486328125,-0.0,0.01336714532226324,1.244950532913208,-0.02461564727127552,-0.031164610758423805
255.0,295.0,6.0814,-0.2052,6.5354,-0.0483,-0.0173,-0.1512,-1.624362131158346,-0.08702468127012253,2.3101563453674316,-1.2788935899734497,0.0010799836600199342,2.1433753967285156,-2.6215435467162074,0.05310399830341339,0.4099748730659485,-1.3271821180926722,-0.00013727234909310937,-0.10063253343105316,0.5565460324287415,-0.0,0.016738971695303917,1.2448792457580566,-0.02464868500828743,0.01008653361350298
255.0,295.0,6.0814,-0.2052,6.5354,-0.0483,-0.0173,-0.1512,-1.6248766384520472,-0.08033505082130432,2.3454349040985107,-1.2789859771728516,-0.0003768255119211972,2.1553497314453125,-2.621312280694479,0.06421805173158646,0.413867712020874,-1.3272183577166956,-0.0001254665112355724,-0.111337810754776,0.5565383434295654,-0.0,0.015633776783943176,1.2447841167449951,-0.020386192947626114,-0.009661654010415077
255.0,295.0,6.0814,-0.2052,6.5354,-0.0483,-0.0173,-0.1512,-1.625420709649557,-0.07620707899332047,2.347594738006592,-1.2789376974105835,-0.0017290149116888642,2.1709036827087402,-2.620859285394186,0.09072913974523544,0.42968323826789856,-1.3271940390216272,-0.00011508167517604306,-0.1049300879240036,0.5565743446350098,-0.0,0.010034002363681793,1.2446199655532837,-0.017945071682333946,0.015526141971349716
255.0,295.0,6.0814,-0.2052,6.5354,-0.0483,-0.0173,-0.1512,-1.6259404621519984,-0.07776377350091934,2.3840384483337402,-1.2790260314941406,-0.001442371285520494,2.214850902557373,-2.620246549645895,0.11381666362285614,0.44269371032714844,-1.32715350786318,-0.00012046877236571163,-0.1099206730723381,0.5565460920333862,-0.0,0.04413791373372078,1.2445405721664429,-0.01700546033680439,-0.013754170387983322
255.0,295.0,6.0814,-0.2052,6.5354,-0.0483,-0.0173,-0.1512,-1.6262318096556605,-0.08102121204137802,2.3431997299194336,-1.2790298461914062,-0.0011545232264325023,2.233971357345581,-2.6197296581664027,0.1184217557311058,0.44533318281173706,-1.3271778265582483,-0.00010250078776152804,-0.11014027893543243,0.5565383434295654,-0.0,0.01688910461962223,1.2444484233856201,-0.016555607318878174,-0.004173830151557922
255.0,295.0,6.0814,-0.2052,6.5354,-0.0483,-0.0173,-0.1512,-1.6267601452269496,-0.09031924605369568,2.3660545349121094,-1.2790141105651855,-0.000538376159965992,2.2169835567474365,-2.6190372906126917,0.11954452842473984,0.44747573137283325,-1.327198330556051,-0.00011117417307104915,-0.10178263485431671,0.556566596031189,-0.0,7.722387090325356e-05,1.2443245649337769,-0.017389489337801933,-0.0061282869428396225
255.0,295.0,6.0814,-0.2052,6.5354,-0.0483,-0.0173,-0.1512,-1.6272789440550746,-0.0980307012796402,2.3459510803222656,-1.2790021896362305,0.00046280850074253976,2.2021448612213135,-2.618300577203268,0.12353120744228363,0.4383561909198761,-1.3271940390216272,-0.00010625956929288805,-0.10186819732189178,0.5565986037254333,-0.0,0.023740248754620552,1.2442004680633545,-0.018992777913808823,-0.017947135493159294
246.0,277.0,7.9549,0.74,6.5282,-0.0203,-0.1017,-0.1819,-1.6278759441771449,-0.10068519413471222,2.3571107387542725,-1.279030442237854,0.001437111641280353,2.176825761795044,-2.617410799066061,0.14362329244613647,0.4467483460903168,-1.327186409627096,-0.0001017543108901009,-0.10987313091754913,0.5565903186798096,-0.0,0.024933211505413055,1.244064450263977,-0.021068254485726357,-0.03290202468633652
246.0,277.0,7.9549,0.74,6.5282,-0.0203,-0.1017,-0.1819,-1.6282507381834925,-0.10177355259656906,2.3632726669311523,-1.278978705406189,0.0011905404971912503,2.1782338619232178,-2.6168185673155726,0.16182595491409302,0.46737807989120483,-1.3271778265582483,-9.895722905639559e-05,-0.11237597465515137,0.5565300583839417,-0.0,0.022789426147937775,1.244017243385315,-0.021971190348267555,-0.01850939728319645
246.0,277.0,7.9549,0.74,6.5282,-0.0203,-0.1017,-0.1819,-1.628883501092428,-0.10183050483465195,2.341890335083008,-1.2789499759674072,0.0006773204077035189,2.1973836421966553,-2.6158253155150355,0.17370620369911194,0.4824686050415039,-1.3271940390216272,-9.503868204774335e-05,-0.11840523779392242,0.5565502047538757,-0.0,0.017879996448755264,1.2438488006591797,-0.022762048989534378,-0.00961200799793005
246.0,277.0,7.9549,0.74,6.5282,-0.0203,-0.1017,-0.1819,-1.6294661960997523,-0.09987037628889084,2.3506364822387695,-1.278962254524231,0.0005597888957709074,2.232470750808716,-2.614771982232565,0.162868931889534,0.463939368724823,-1.327165428792135,-9.141855116467923e-05,-0.11314995586872101,0.5565743446350098,-0.0,0.01270404551178217,1.2437658309936523,-0.022235207259655,-0.013433403335511684
246.0,277.0,7.9549,0.74,6.5282,-0.0203,-0.1017,-0.1819,-1.6300412617125453,-0.09139858931303024,2.3426530361175537,-1.2789499759674072,0.0004981188103556633,2.202307939529419,-2.613876005212301,0.17981047928333282,0.47127580642700195,-1.3271577993976038,-8.80641455296427e-05,-0.10232459008693695,0.5565502643585205,-0.0,0.017084039747714996,1.243610143661499,-0.021091729402542114,0.009825654327869415
246.0,277.0,7.9549,0.74,6.5282,-0.0203,-0.1017,-0.1819,-1.63043274501943,-0.08323375135660172,2.374695301055908,-1.2789338827133179,0.00025611865567043424,2.204637289047241,-2.613094469110006,0.1921996921300888,0.46939802169799805,-1.3271697203265589,-8.596131374360994e-05,-0.10905678570270538,0.5565460920333862,-0.0,0.03343082591891289,1.2434699535369873,-0.021122993901371956,-0.013847487047314644
246.0,277.0,7.9549,0.74,6.5282,-0.0203,-0.1017,-0.1819,-1.6309362850584925,-0.0750800296664238,2.36643648147583,-1.2789860963821411,2.0379695708783174e-09,2.232562780380249,-2.6119734249510707,0.18966242671012878,0.48196858167648315,-1.3271940390216272,-8.298891771119088e-05,-0.0965585708618164,0.55655837059021,-0.0,0.007705663796514273,1.2434221506118774,-0.020956840366125107,0.0017542222049087286
246.0,277.0,7.9549,0.74,6.5282,-0.0203,-0.1017,-0.1819,-1.6314202747740687,-0.07644954323768616,2.3444771766662598,-1.279090404510498,-0.0017748132813721895,2.196824789047241,-2.6108557186522425,0.19442254304885864,0.47233104705810547,-1.3271577993976038,-8.021518442546949e-05,-0.11800131946802139,0.556522011756897,-0.0,0.011967355385422707,1.2433393001556396,-0.021575992926955223,-0.028397895395755768
246.0,277.0,7.9549,0.74,6.5282,-0.0203,-0.1017,-0.1819,-1.631899972955221,-0.08344487845897675,2.3491621017456055,-1.279073715209961,-0.0013207612792029977,2.2154815196990967,-2.6096869907774867,0.20891360938549042,0.4872742295265198,-1.3271015326129358,-1.7142730257546646e-07,-0.1105652004480362,0.5565301775932312,-0.0,0.014633816666901112,1.2431230545043945,-0.024267449975013733,-0.04544176161289215
246.0,277.0,7.9549,0.74,6.5282,-0.0203,-0.1017,-0.1819,-1.6321584186949671,-0.08627138286828995,2.349689483642578,-1.279013752937317,-0.000848923868034035,2.1664788722991943,-2.608847280541891,0.20506370067596436,0.49265867471694946,-1.3272102514850062,-7.308214033940885e-10,-0.11380182206630707,0.55655837059021,-0.0,-3.452281089266762e-05,1.2430309057235718,-0.02699391171336174,-0.09293679893016815
246.0,277.0,7.9549,0.74,6.5282,-0.0203,-0.1017,-0.1819,-1.632712026635641,-0.09111083298921585,2.3467812538146973,-1.2789820432662964,0.00012353224155958742,2.1841540336608887,-2.6076370678343714,0.1898086816072464,0.475303590297699,-1.3271902243243616,-2.0342683429690894e-13,-0.11155332624912262,0.5564858317375183,-0.0,0.013001026585698128,1.2428953647613525,-0.0321970209479332,-0.09164414554834366
246.0,277.0,7.9549,0.74,6.5282,-0.0203,-0.1017,-0.1819,-1.633214613000387,-0.09229788184165955,2.2681312561035156,-1.2789623737335205,0.0027834477368742228,2.202711582183838,-2.6063958607115687,0.20575691759586334,0.4672859311103821,-1.32715350786318,-5.662460251020321e-17,-0.10052229464054108,0.5566227436065674,-0.0,-0.005766310263425112,1.2426475286483765,-0.03843330219388008,-0.10001146793365479
246.0,277.0,7.9549,0.74,6.5282,-0.0203,-0.1017,-0.1819,-1.633752008477682,-0.08825463801622391,2.34325909614563,-1.2790145874023438,0.0015497428830713034,2.157158136367798,-2.6050950489439906,0.20631423592567444,0.46716129779815674,-1.327186409627096,-1.576166807825652e-20,-0.10476762056350708,0.5565502643585205,-0.0,0.012029258534312248,1.2423921823501587,-0.044640298932790756,-0.12466861307621002
246.0,277.0,7.9549,0.74,6.5282,-0.0203,-0.1017,-0.1819,-1.6340180836119593,-0.08613996207714081,2.372826337814331,-1.2789461612701416,0.001296836300753057,2.2009150981903076,-2.6042257748045863,0.20401747524738312,0.45439618825912476,-1.3272383848773401,-6.719445877646747e-23,-0.09065867215394974,0.5565866231918335,-0.0,0.0034891292452812195,1.242199420928955,-0.049795255064964294,-0.08006851375102997
246.0,277.0,7.9549,0.74,6.5282,-0.0203,-0.1017,-0.1819,-1.634533544579977,-0.08072888851165771,2.3089334964752197,-1.2789788246154785,0.0009593775030225515,2.155611038208008,-2.602912565270895,0.21997353434562683,0.4683231711387634,-1.3272021452533167,-1.8703825810800103e-26,-0.11664821952581406,0.5565543174743652,-0.0,0.0029621608555316925,1.241880178451538,-0.05768916755914688,-0.09747011214494705
246.0,277.0,7.9549,0.74,6.5282,-0.0203,-0.1017,-0.1819,-1.635017534295553,-0.07520086318254471,2.3185811042785645,-1.278962254524231,0.00018890017236117274,2.2304489612579346,-2.6015387974181117,0.21666762232780457,0.47591352462768555,-1.3272421995746058,-5.2062787738032174e-30,-0.11039742082357407,0.5565460920333862,-0.0,0.010612093843519688,1.2415772676467896,-0.06328818947076797,-0.14129547774791718
246.0,277.0,7.9549,0.74,6.5282,-0.0203,-0.1017,-0.1819,-1.6353570423521937,-0.0735074132680893,2.320927381515503,-1.2789819240570068,2.4045519353421696e-07,2.2137715816497803,-2.6007424793639125,0.20713496208190918,0.4674302339553833,-1.3271697203265589,-2.2195184747127333e-32,-0.11441148817539215,0.5565744042396545,-0.0,0.0022480895277112722,1.241286277770996,-0.06679056584835052,-0.12979444861412048
249.0,262.0,6.0562,-0.5372,5.7942,-0.111,0.2382,-0.0861,-1.6357599697508753,-0.0720510482788086,2.3697681427001953,-1.2789459228515625,5.806709822177292e-13,2.1540427207946777,-2.5995050869383753,0.2227426916360855,0.4725028872489929,-1.3271778265582483,-6.178111752475338e-36,-0.10573025792837143,0.5565059185028076,-0.0,0.010306528769433498,1.240898609161377,-0.06925177574157715,-0.12296112626791
249.0,262.0,6.0562,-0.5372,5.7942,-0.111,0.2382,-0.0861,-1.6362525425352992,-0.07063103467226028,2.364523410797119,-1.2790186405181885,1.4022520840363779e-18,2.1304469108581543,-2.5981794796385707,0.21987125277519226,0.48396235704421997,-1.3271778265582483,-1.7197001000902377e-39,-0.11655233800411224,0.5565382838249207,-0.0,-0.0036307433620095253,1.24049973487854,-0.06978189945220947,-0.12901122868061066
249.0,262.0,6.0562,-0.5372,5.7942,-0.111,0.2382,-0.0861,-1.636667867700094,-0.0713593065738678,2.3960366249084473,-1.2790181636810303,-0.0011102325515821576,2.188624858856201,-2.596950670281881,0.21307888627052307,0.48895183205604553,-1.3271454016314905,-4.792440747990874e-43,-0.10139275342226028,0.5565343499183655,-0.0,0.005089863203465939,1.2400034666061401,-0.06968891620635986,-0.12954701483249664
249.0,262.0,6.0562,-0.5372,5.7942,-0.111,0.2382,-0.0861,-1.6369558773436488,-0.07309861481189728,2.3504769802093506,-1.2789902687072754,-0.0006574254366569221,2.1932883262634277,-2.5960174999632777,0.21644194424152374,0.48098355531692505,-1.3272021452533167,-1.401298464324817e-45,-0.09691646695137024,0.5564978122711182,-0.0,-0.0037770909257233143,1.2397253513336182,-0.06960706412792206,-0.04404237121343613
249.0,262.0,6.0562,-0.5372,5.7942,-0.111,0.2382,-0.0861,-1.6374203167357386,-0.07584793865680695,2.3751955032348633,-1.2790063619613647,-0.0004559867375064641,2.1633710861206055,-2.5948406658568324,0.19806213676929474,0.4711400270462036,-1.3271573225604456,-0.0,-0.1082935780286789,0.5565100312232971,-0.0,0.005113142542541027,1.2393169403076172,-0.06888160854578018,-0.10380370914936066
249.0,262.0,6.0562,-0.5372,5.7942,-0.111,0.2382,-0.0861,-1.6378594837584437,-0.07649780809879303,2.32853364944458,-1.2789983749389648,-0.00028814852703362703,2.177309513092041,-2.5937444172301234,0.16302816569805145,0.4413049817085266,-1.3271735350238245,-0.0,-0.09655928611755371,0.5566388368606567,-0.0,-0.0019262777641415596,1.2389053106307983,-0.06556449830532074,-0.10420063138008118
249.0,262.0,6.0562,-0.5372,5.7942,-0.111,0.2382,-0.0861,-1.6382466755309046,-0.07568009942770004,2.3893470764160156,-1.2790025472640991,0.00012228272680658847,2.1939172744750977,-2.592802663842672,0.16138677299022675,0.44818979501724243,-1.3271496931659144,-0.0,-0.09488257765769958,0.5565219521522522,-0.0,-0.0017650887602940202,1.2385141849517822,-0.06160109490156174,-0.1209208220243454
249.0,262.0,6.0562,-0.5372,5.7942,-0.111,0.2382,-0.0861,-1.638583322564596,-0.07855206727981567,2.3469386100769043,-1.2789623737335205,0.00012433217489160597,2.2107770442962646,-2.5921341381468714,0.15141591429710388,0.44463539123535156,-1.3271496931659144,-0.0,-0.08397744596004486,0.5565423965454102,-0.0,-0.0027638161554932594,1.2382999658584595,-0.0585838183760643,-0.09717752039432526
