ramyac6/ROB537/final_project/csv/good/good_166.csv
tof_0,tof_1,accelx,accely,accelz,gyrox,gyroy,gyroz,shoulder_lift_joint_position,shoulder_lift_joint_velocity,shoulder_lift_joint_effort,elbow_joint_position,elbow_joint_velocity,elbow_joint_effort,wrist_1_joint_position,wrist_1_joint_velocity,wrist_1_joint_effort,wrist_2_joint_position,wrist_2_joint_velocity,wrist_2_joint_effort,wrist_3_joint_position,wrist_3_joint_velocity,wrist_3_joint_effort,shoulder_pan_joint_position,shoulder_pan_joint_velocity,shoulder_pan_joint_effort
8190.0,8190.0,2.5567,-0.3452,9.1292,-0.0339,0.0144,-0.113,-1.405380592947342,0.0,1.2375075817108154,-1.226086139678955,-0.0,1.9113516807556152,3.842578573817871,0.0,0.3056458532810211,-1.583062473927633,-0.0,-0.004482911434024572,0.8805122375488281,0.0,-0.00345048401504755,0.7781142592430115,0.0,0.004514638334512711
8190.0,8190.0,2.5567,-0.3452,9.1292,-0.0339,0.0144,-0.113,-1.4054331195405503,0.0,1.2674212455749512,-1.2261021137237549,-0.0,1.9114378690719604,3.842595263118408,0.0,0.29668372869491577,-1.5830543676959437,-0.0,-0.002318399492651224,0.8805406093597412,0.0,-0.0030837347730994225,0.7781343460083008,0.0,-0.004073455464094877
8190.0,8190.0,2.5567,-0.3452,9.1292,-0.0339,0.0144,-0.113,-1.405404494409897,0.0,1.2328557968139648,-1.2260980606079102,-0.0,1.9535540342330933,3.842595263118408,0.0,0.2989463806152344,-1.5830662886248987,-0.0,-0.014112898148596287,0.8805205821990967,0.0,0.00452750688418746,0.7781502604484558,0.0,0.028893262147903442
8190.0,8190.0,2.5567,-0.3452,9.1292,-0.0339,0.0144,-0.113,-1.4054127496531983,0.0,1.259972333908081,-1.22610604763031,-0.0,1.9356355667114258,3.842571421260498,0.0,0.3039487600326538,-1.5830581823932093,-0.0,-0.013935824856162071,0.880601167678833,0.0,0.003460806794464588,0.7781502604484558,0.0,-0.01047921646386385
8190.0,8190.0,2.5567,-0.3452,9.1292,-0.0339,0.0144,-0.113,-1.4053522658399125,0.0,1.281120777130127,-1.226086139678955,-0.0,1.915149211883545,3.842595263118408,0.0,0.2934075891971588,-1.5830662886248987,-0.0,-0.005229474510997534,0.88056480884552,0.0,-0.012240409851074219,0.7781303524971008,0.0,0.05095863342285156
8190.0,8190.0,2.5567,-0.3452,9.1292,-0.0339,0.0144,-0.113,-1.405396745806076,0.0,1.2337559461593628,-1.2261180877685547,-0.0,1.9264936447143555,3.842646761531494,0.0,0.28620052337646484,-1.5829976240741175,-0.0,-0.0005929587641730905,0.8805446624755859,0.0,-0.0036952579393982887,0.7781542539596558,0.0,-0.012805098667740822
8190.0,8190.0,2.5567,-0.3452,9.1292,-0.0339,0.0144,-0.113,-1.4054049861482163,0.0,1.2335724830627441,-1.2261220216751099,-0.0,1.9362086057662964,3.8425590234943847,0.0,0.2997681498527527,-1.5830581823932093,-0.0,-0.006050168536603451,0.8805365562438965,0.0,0.000570214819163084,0.7781343460083008,0.0,-0.008072206750512123
8190.0,8190.0,2.6489,-0.3344,9.0838,-0.0354,0.0238,-0.1121,-1.4053884905627747,0.0,1.2303392887115479,-1.2261179685592651,-0.0,1.9689302444458008,3.842595263118408,0.0,0.3054484724998474,-1.5830424467669886,-0.0,-0.002547954209148884,0.880556583404541,0.0,-0.009664423763751984,0.7781422734260559,0.0,0.005270699970424175
8190.0,8190.0,2.6489,-0.3344,9.0838,-0.0354,0.0238,-0.1121,-1.4053727251342316,0.0,1.2720797061920166,-1.2260899543762207,-0.0,1.950605869293213,3.8425423341938476,0.0,0.3054545819759369,-1.5831063429461878,-0.0,-0.003554412629455328,0.8805406093597412,0.0,0.0015265168622136116,0.778098464012146,0.0,-0.022431857883930206
8190.0,8190.0,2.6489,-0.3344,9.0838,-0.0354,0.0238,-0.1121,-1.4053805780461808,0.0,1.2766706943511963,-1.2260942459106445,-0.0,1.973454475402832,3.8425184923359375,0.0,0.29241815209388733,-1.5830538908587855,-0.0,-0.004224078729748726,0.8805282115936279,0.0,-0.00014715534052811563,0.7781263589859009,0.0,-0.0028216037899255753
8190.0,8190.0,2.6489,-0.3344,9.0838,-0.0354,0.0238,-0.1121,-1.405425028210022,0.0,1.2123587131500244,-1.2260581254959106,-0.0,1.9757370948791504,3.8425590234943847,0.0,0.2969318926334381,-1.5830586592303675,-0.0,-0.004395724274218082,0.8805368542671204,0.0,-0.00392532953992486,0.7781143188476562,0.0,0.01652306504547596
8190.0,8190.0,2.6489,-0.3344,9.0838,-0.0354,0.0238,-0.1121,-1.4054249239018937,0.0,1.2315714359283447,-1.2261260747909546,-0.0,1.9137825965881348,3.842554731959961,0.0,0.30389150977134705,-1.5830586592303675,-0.0,-0.0031117445323616266,0.8805205821990967,0.0,-0.0027916268445551395,0.7781462669372559,0.0,-0.012014143168926239
8190.0,8190.0,2.6489,-0.3344,9.0838,-0.0354,0.0238,-0.1121,-1.4053887885859986,0.0,1.2140871286392212,-1.2260621786117554,-0.0,1.944772481918335,3.842599077815674,0.0,0.2803451418876648,-1.5830825010882776,-0.0,-0.022135812789201736,0.8806211352348328,0.0,-0.0019516656175255775,0.7781623601913452,0.0,-0.034537624567747116
8190.0,8190.0,2.6489,-0.3344,9.0838,-0.0354,0.0238,-0.1121,-1.405437247162201,0.0,1.2114816904067993,-1.2261220216751099,-0.0,1.965741515159607,3.842550440425537,0.0,0.29911643266677856,-1.5830581823932093,-0.0,-0.006541786715388298,0.8805928230285645,0.0,-0.0052728839218616486,0.7781823873519897,0.0,-0.05485213175415993
8190.0,8190.0,2.6489,-0.3344,9.0838,-0.0354,0.0238,-0.1121,-1.4054085475257416,0.0,1.2076820135116577,-1.2260980606079102,-0.0,2.002872943878174,3.842567129726074,0.0,0.29368966817855835,-1.583033863698141,-0.0,-0.002313961973413825,0.8805246353149414,0.0,-0.004233147948980331,0.7781462669372559,0.0,-0.006952788680791855
8190.0,8190.0,2.6489,-0.3344,9.0838,-0.0354,0.0238,-0.1121,-1.4054049414447327,0.0,1.2691987752914429,-1.2260780334472656,-0.0,1.9264593124389648,3.842571421260498,0.0,0.2985261082649231,-1.583062473927633,-0.0,-0.0036055014934390783,0.880540668964386,0.0,-0.013930374756455421,0.7781863212585449,0.0,-0.015741977840662003
8190.0,8190.0,2.6489,-0.3344,9.0838,-0.0354,0.0238,-0.1121,-1.4054049414447327,0.0,1.2624794244766235,-1.2261344194412231,-0.0,1.936884880065918,3.8425304132648925,0.0,0.2918260395526886,-1.5830581823932093,-0.0,-0.006200299132615328,0.8805528283119202,0.0,0.004532957915216684,0.778114378452301,0.0,-0.003293147310614586
8190.0,8190.0,2.6489,-0.3344,9.0838,-0.0354,0.0238,-0.1121,-1.4053888779929657,0.0,1.2299416065216064,-1.2260662317276,-0.0,1.9618175029754639,3.8425466257282714,0.0,0.2985038459300995,-1.583062473927633,-0.0,-0.007255951873958111,0.8805046081542969,0.0,-0.010717899538576603,0.7781623005867004,0.0,-0.017388271167874336
8190.0,8190.0,2.6489,-0.3344,9.0838,-0.0354,0.0238,-0.1121,-1.4054167878678818,0.0,1.2083200216293335,-1.2260541915893555,-0.0,1.9679903984069824,3.8425909715839843,0.0,0.29066962003707886,-1.5830381552325647,-0.0,-0.0029007873963564634,0.8805525898933411,0.0,-0.01180658582597971,0.7781223058700562,0.0,-0.005812474992126226
8190.0,8190.0,2.6489,-0.3344,9.0838,-0.0354,0.0238,-0.1121,-1.4053967756083985,0.0,1.217486023902893,-1.226086139678955,-0.0,1.9261269569396973,3.8425590234943847,0.0,0.2943817973136902,-1.5830586592303675,-0.0,-0.008330447599291801,0.8805606961250305,0.0,-0.008538338355720043,0.7781623005867004,0.0,0.00032148323953151703
8190.0,8190.0,2.6207,-0.2991,9.0574,-0.0359,0.0192,-0.1147,-1.4053686720183869,0.0,1.2438647747039795,-1.2260822057724,-0.0,1.986492395401001,3.842574282283447,0.0,0.3037838935852051,-1.583050552998678,-0.0,-0.009235136210918427,0.8806011080741882,0.0,-0.005843593738973141,0.7781263589859009,0.0,-0.04836675524711609
8190.0,8190.0,2.6207,-0.2991,9.0574,-0.0359,0.0192,-0.1147,-1.4054290813258667,0.0,1.261734127998352,-1.2260899543762207,-0.0,1.9540159702301025,3.8425590234943847,0.0,0.30798834562301636,-1.583050552998678,-0.0,-0.008850825019180775,0.8805286884307861,0.0,-0.007884267717599869,0.7780982255935669,0.0,-0.013324746862053871
8190.0,8190.0,2.6207,-0.2991,9.0574,-0.0359,0.0192,-0.1147,-1.4053887885859986,0.0,1.259033441543579,-1.226037859916687,-0.0,1.99977445602417,3.84259478628125,0.0,0.2937188744544983,-1.583062473927633,-0.0,-0.009349069558084011,0.8806087970733643,0.0,-0.003147668670862913,0.7781502604484558,0.0,-0.038763627409935
8190.0,8190.0,2.6207,-0.2991,9.0574,-0.0359,0.0192,-0.1147,-1.405376912360527,0.0,1.2559473514556885,-1.2260345220565796,-0.0,1.9937764406204224,3.8425590234943847,0.0,0.3041936159133911,-1.5830138365374964,-0.0,0.007398090325295925,0.8806051015853882,0.0,-0.02895389124751091,0.7781303524971008,0.0,0.030378296971321106
8190.0,8190.0,2.6207,-0.2991,9.0574,-0.0359,0.0192,-0.1147,-1.40542487919841,0.0,1.2158141136169434,-1.2260780334472656,-0.0,1.9611201286315918,3.8425628381916503,0.0,0.2932546138763428,-1.5830419699298304,-0.0,-0.025375375524163246,0.8805525302886963,0.0,0.0033883745782077312,0.7781623005867004,0.0,-0.0052290307357907295
8190.0,8190.0,2.6207,-0.2991,9.0574,-0.0359,0.0192,-0.1147,-1.4053645592978974,0.0,1.2594690322875977,-1.22607421875,-0.0,1.9437263011932373,3.842571421260498,0.0,0.29940712451934814,-1.583102051411764,-0.0,-0.008558956906199455,0.8805932402610779,0.0,-0.0020398995839059353,0.7781303524971008,0.0,0.04398787394165993
8190.0,8190.0,2.6207,-0.2991,9.0574,-0.0359,0.0192,-0.1147,-1.4053887885859986,0.0,1.284340739250183,-1.2261019945144653,-0.0,1.944758415222168,3.842554731959961,0.0,0.3010794222354889,-1.583050552998678,-0.0,-0.013238654471933842,0.8805205821990967,0.0,-0.026465585455298424,0.7780944108963013,0.0,0.01898655854165554
8190.0,8190.0,2.6207,-0.2991,9.0574,-0.0359,0.0192,-0.1147,-1.4053928715041657,0.0,1.2449182271957397,-1.2260541915893555,-0.0,1.955184817314148,3.8426272112080078,0.0,0.2997157573699951,-1.5830381552325647,-0.0,-0.00466180220246315,0.8805286884307861,0.0,-0.0016328447964042425,0.7781502604484558,0.0,0.006631580647081137
8190.0,8190.0,2.6207,-0.2991,9.0574,-0.0359,0.0192,-0.1147,-1.4054168474725266,0.0,1.2643284797668457,-1.2260541915893555,-0.0,1.9568698406219482,3.8425308901020507,0.0,0.29142215847969055,-1.5830743948565882,-0.0,-0.013511892408132553,0.8805286884307861,0.0,0.007137031760066748,0.7781223654747009,0.0,0.004952938295900822
8190.0,8190.0,2.6207,-0.2991,9.0574,-0.0359,0.0192,-0.1147,-1.405368686919548,0.0,1.2478525638580322,-1.2260940074920654,-0.0,1.9363610744476318,3.8425304132648925,0.0,0.28717470169067383,-1.583062473927633,-0.0,-0.004934140481054783,0.8805566430091858,0.0,0.0010949693387374282,0.7781423330307007,0.0,-0.026970602571964264
8190.0,8190.0,2.6207,-0.2991,9.0574,-0.0359,0.0192,-0.1147,-1.405408577328064,0.0,1.239814281463623,-1.2260459661483765,-0.0,1.944967269897461,3.8425423341938476,0.0,0.29259970784187317,-1.583033863698141,-0.0,-0.011030730791389942,0.8805401921272278,0.0,-0.009280642494559288,0.7781422734260559,0.0,-0.02564135380089283
8190.0,8190.0,2.6207,-0.2991,9.0574,-0.0359,0.0192,-0.1147,-1.405392588382103,0.0,1.2900536060333252,-1.2260900735855103,-0.0,1.9209051132202148,3.8425027567097167,0.0,0.29003098607063293,-1.5830462614642542,-0.0,-0.014245880767703056,0.8805973529815674,0.0,-0.00895346887409687,0.7781343460083008,0.0,0.006321819499135017
8190.0,8190.0,2.6207,-0.2991,9.0574,-0.0359,0.0192,-0.1147,-1.4054331493428727,0.0,1.254387378692627,-1.2260822057724,-0.0,1.917670726776123,3.8426033693500976,0.0,0.29163992404937744,-1.5830743948565882,-0.0,0.007836315780878067,0.8805851936340332,0.0,0.003672598395496607,0.778182327747345,0.0,0.04496239870786667
8190.0,8190.0,2.6399,-0.3194,9.0664,-0.0356,0.0214,-0.1202,-1.4053926181844254,0.0,1.280702829360962,-1.2261099815368652,-0.0,1.935600996017456,3.8426033693500976,0.0,0.2942541539669037,-1.5830214659320276,-0.0,0.005611542612314224,0.8805891871452332,0.0,-0.005036300979554653,0.7781422734260559,0.0,0.03695705533027649
8190.0,8190.0,2.6399,-0.3194,9.0664,-0.0356,0.0214,-0.1202,-1.4054168176702042,0.0,1.2285727262496948,-1.2260582447052002,-0.0,1.9204177856445312,3.8425628381916503,0.0,0.3014453053474426,-1.583029572163717,-0.0,-0.0059042274951934814,0.8805201649665833,0.0,-0.003367040306329727,0.7781502604484558,0.0,0.024332838132977486
8190.0,8190.0,2.6399,-0.3194,9.0664,-0.0356,0.0214,-0.1202,-1.4053764057210465,0.0,1.2588540315628052,-1.2260702848434448,-0.0,1.9502166509628296,3.8425590234943847,0.0,0.2908935546875,-1.583029572163717,-0.0,0.00017677104915492237,0.8805127143859863,0.0,-0.010293342173099518,0.7781462669372559,0.0,0.0040993415750563145
8190.0,8190.0,2.6399,-0.3194,9.0664,-0.0356,0.0214,-0.1202,-1.4053967607072373,0.0,1.2143150568008423,-1.2260900735855103,-0.0,1.9738298654556274,3.842622919673584,0.0,0.3051862120628357,-1.583050552998678,-0.0,-0.011549473740160465,0.8805932998657227,0.0,0.018941525369882584,0.778118371963501,0.0,-0.0024385147262364626
8190.0,8190.0,2.6399,-0.3194,9.0664,-0.0356,0.0214,-0.1202,-1.405437247162201,0.0,1.2535061836242676,-1.226086139678955,-0.0,1.9820771217346191,3.8425909715839843,0.0,0.29700684547424316,-1.5830581823932093,-0.0,-0.008718893863260746,0.880617082118988,0.0,-0.006408389657735825,0.7781543135643005,0.0,0.011130033992230892
8190.0,8190.0,2.6399,-0.3194,9.0664,-0.0356,0.0214,-0.1202,-1.405440868144371,0.0,1.2097808122634888,-1.2261301279067993,-0.0,1.955150842666626,3.842595263118408,0.0,0.300162136554718,-1.5830462614642542,-0.0,-0.006219126284122467,0.8805241584777832,0.0,-0.012754235416650772,0.7781263589859009,0.0,-0.05384138226509094
8190.0,8190.0,2.6399,-0.3194,9.0664,-0.0356,0.0214,-0.1202,-1.4054450702718277,0.0,1.312076449394226,-1.226062297821045,-0.0,1.9951088428497314,3.8425909715839843,0.0,0.29773759841918945,-1.5830538908587855,-0.0,0.005558655597269535,0.8805242776870728,0.0,-0.004740470554679632,0.7781502604484558,0.0,-0.0424073226749897
8190.0,8190.0,2.6399,-0.3194,9.0664,-0.0356,0.0214,-0.1202,-1.405384675865509,0.0,1.248589277267456,-1.2260942459106445,-0.0,1.9532204866409302,3.8425909715839843,0.0,0.30573052167892456,-1.583062473927633,-0.0,-0.016485299915075302,0.8805646896362305,0.0,-0.004336905665695667,0.7781623005867004,0.0,-0.0015787025913596153
8190.0,8190.0,2.6399,-0.3194,9.0664,-0.0356,0.0214,-0.1202,-1.4054168325713654,0.0,1.2536215782165527,-1.22610604763031,-0.0,1.9187524318695068,3.842554731959961,0.0,0.29671964049339294,-1.5830381552325647,-0.0,-0.003049226710572839,0.8806087970733643,0.0,-0.02121749147772789,0.7781662940979004,0.0,0.001958973705768585
8190.0,8190.0,2.6399,-0.3194,9.0664,-0.0356,0.0214,-0.1202,-1.4053846460631867,0.0,1.2446680068969727,-1.226086139678955,-0.0,1.971282958984375,3.842595263118408,0.0,0.3048383593559265,-1.583033863698141,-0.0,0.013118734583258629,0.8805282711982727,0.0,-0.0009681901428848505,0.7780944108963013,0.0,0.0025613929610699415
8190.0,8190.0,2.6399,-0.3194,9.0664,-0.0356,0.0214,-0.1202,-1.4053442788175126,0.0,1.24538254737854,-1.226086139678955,-0.0,1.9562053680419922,3.842582865352295,0.0,0.2927750051021576,-1.583050552998678,-0.0,-0.016257885843515396,0.8805525302886963,0.0,-0.00577134732156992,0.7781863212585449,0.0,0.020848184823989868
8190.0,8190.0,2.6399,-0.3194,9.0664,-0.0356,0.0214,-0.1202,-1.4053805631450196,0.0,1.2080793380737305,-1.2260662317276,-0.0,1.9544415473937988,3.8425909715839843,0.0,0.2991904318332672,-1.583062473927633,-0.0,-0.012636067345738411,0.8805246353149414,0.0,-0.004658670164644718,0.7781103253364563,0.0,0.01589653454720974
8190.0,8190.0,2.6219,-0.2704,9.0718,-0.0418,0.0197,-0.1216,-1.40537645042453,0.0,1.2355859279632568,-1.2260823249816895,-0.0,1.9518752098083496,3.8425704675861816,0.0,0.2963973581790924,-1.5830095450030726,-0.0,-0.010046079754829407,0.8805525302886963,0.0,-0.004948254209011793,0.7781343460083008,0.0,-0.023015648126602173
8190.0,8190.0,2.6219,-0.2704,9.0718,-0.0418,0.0197,-0.1216,-1.40542487919841,0.0,1.1862661838531494,-1.2261344194412231,-0.0,1.9415977001190186,3.8426071840473632,0.0,0.2857334613800049,-1.5830214659320276,-0.0,-0.007864439859986305,0.880556583404541,0.0,0.0063262395560741425,0.7781422734260559,0.0,0.018043648451566696
8190.0,8190.0,2.6219,-0.2704,9.0718,-0.0418,0.0197,-0.1216,-1.4053887736848374,0.0,1.303661584854126,-1.2260980606079102,-0.0,1.9678771495819092,3.842582865352295,0.0,0.2860386371612549,-1.5830462614642542,-0.0,-0.008840721100568771,0.8805365562438965,0.0,0.0032545598223805428,0.7781502604484558,0.0,-0.03505381941795349
8190.0,8190.0,2.6219,-0.2704,9.0718,-0.0418,0.0197,-0.1216,-1.4053805631450196,0.0,1.1980807781219482,-1.2261019945144653,-0.0,1.930757761001587,3.842582865352295,0.0,0.28930455446243286,-1.5830538908587855,-0.0,-0.010755818337202072,0.8805525302886963,0.0,-0.008515753783285618,0.7780944108963013,0.0,0.04612109810113907
8190.0,8190.0,2.6219,-0.2704,9.0718,-0.0418,0.0197,-0.1216,-1.405437247162201,0.0,1.255676507949829,-1.22611403465271,-0.0,1.9630131721496582,3.842554731959961,0.0,0.29433974623680115,-1.5830743948565882,-0.0,-0.010073620826005936,0.8805851340293884,0.0,-0.01593167893588543,0.7781223058700562,0.0,0.0393964983522892
8190.0,8190.0,2.6219,-0.2704,9.0718,-0.0418,0.0197,-0.1216,-1.4053888034871598,0.0,1.2850764989852905,-1.2260662317276,-0.0,1.9759440422058105,3.8425347047993164,0.0,0.2983848452568054,-1.5830419699298304,-0.0,-0.009874926880002022,0.8805283308029175,0.0,0.0061165872029960155,0.7781702876091003,0.0,-0.023513201624155045
8190.0,8190.0,2.6219,-0.2704,9.0718,-0.0418,0.0197,-0.1216,-1.4054290515235444,0.0,1.247490406036377,-1.2260901927947998,-0.0,1.9886338710784912,3.842567129726074,0.0,0.30159473419189453,-1.5830381552325647,-0.0,-0.01923610270023346,0.8805525302886963,0.0,-0.000766220036894083,0.7781063318252563,0.0,0.015791073441505432
8190.0,8190.0,2.6219,-0.2704,9.0718,-0.0418,0.0197,-0.1216,-1.4054168325713654,0.0,1.2724950313568115,-1.22611403465271,-0.0,1.9428794384002686,3.8425184923359375,0.0,0.2998822033405304,-1.5830095450030726,-0.0,-0.0013527055270969868,0.8806051015853882,0.0,-0.0018447770271450281,0.7781383395195007,0.0,0.025446902960538864
8190.0,8190.0,2.6219,-0.2704,9.0718,-0.0418,0.0197,-0.1216,-1.405425028210022,0.0,1.255119800567627,-1.226086139678955,-0.0,1.9808361530303955,3.8425866800495605,0.0,0.3076094388961792,-1.5831144491778772,-0.0,-0.0011470816098153591,0.8804967999458313,0.0,0.0063039627857506275,0.7781462669372559,0.0,0.0006334593053907156
8190.0,8190.0,2.6219,-0.2704,9.0718,-0.0418,0.0197,-0.1216,-1.405425028210022,0.0,1.3057749271392822,-1.2260823249816895,-0.0,2.0347976684570312,3.8425590234943847,0.0,0.2998470664024353,-1.5830825010882776,-0.0,-0.0010119072394445539,0.8805767893791199,0.0,0.001436683814972639,0.7781863212585449,0.0,0.030177103355526924
8190.0,8190.0,2.6219,-0.2704,9.0718,-0.0418,0.0197,-0.1216,-1.405412734752037,0.0,1.1909434795379639,-1.2260702848434448,-0.0,1.958361029624939,3.8425590234943847,0.0,0.30242282152175903,-1.583033863698141,-0.0,0.001558325020596385,0.880556583404541,0.0,0.00734285730868578,0.7781462669372559,0.0,-0.008712315931916237
8190.0,8190.0,2.6219,-0.2704,9.0718,-0.0418,0.0197,-0.1216,-1.4054290813258667,0.0,1.2524893283843994,-1.2260462045669556,-0.0,1.9418714046478271,3.8425628381916503,0.0,0.29793480038642883,-1.5830982367144983,-0.0,-0.008100355044007301,0.8805806040763855,0.0,0.0009591654525138438,0.7781542539596558,0.0,0.026363831013441086
8190.0,8190.0,2.6219,-0.2704,9.0718,-0.0418,0.0197,-0.1216,-1.4053887885859986,0.0,1.2623120546340942,-1.2260338068008423,-0.0,1.9432556629180908,3.842514677638672,0.0,0.30742383003234863,-1.583050552998678,-0.0,-0.011654339730739594,0.8805365562438965,0.0,-0.008687080815434456,0.7781662940979004,0.0,0.012564525008201599
8190.0,8190.0,2.5747,-0.3051,9.0132,-0.0368,0.0151,-0.1119,-1.4054372322610398,0.0,1.2148857116699219,-1.2261345386505127,-0.0,1.9622361660003662,3.842571421260498,0.0,0.28837651014328003,-1.5830138365374964,-0.0,-0.006170886103063822,0.8805525302886963,0.0,0.002991451881825924,0.7781103849411011,0.0,0.02870793640613556
8190.0,8190.0,2.5747,-0.3051,9.0132,-0.0368,0.0151,-0.1119,-1.4053805333426972,0.0,1.2534923553466797,-1.226086139678955,-0.0,1.9575417041778564,3.8425628381916503,0.0,0.31082427501678467,-1.5830419699298304,-0.0,0.0014623794704675674,0.8805850744247437,0.0,-0.009215613827109337,0.7781023979187012,0.0,-0.005388584919273853
8190.0,8190.0,2.5747,-0.3051,9.0132,-0.0368,0.0151,-0.1119,-1.4054127645543595,0.0,1.2878624200820923,-1.2260780334472656,-0.0,1.9663629531860352,3.8425866800495605,0.0,0.29208362102508545,-1.5830257574664515,-0.0,-0.0035240910947322845,0.8805406093597412,0.0,-0.0002617592690512538,0.7781223058700562,0.0,-0.002458451548591256
8190.0,8190.0,2.5747,-0.3051,9.0132,-0.0368,0.0151,-0.1119,-1.405408577328064,0.0,1.2439329624176025,-1.2260662317276,-0.0,1.9499058723449707,3.8425752359577636,0.0,0.30647796392440796,-1.5830705801593226,-0.0,-0.0007808352820575237,0.8806449770927429,0.0,-0.012144925072789192,0.7781023979187012,0.0,-0.008547717705368996
8190.0,8190.0,2.5747,-0.3051,9.0132,-0.0368,0.0151,-0.1119,-1.4054372769645234,0.0,1.197433590888977,-1.2261180877685547,-0.0,1.958032250404358,3.8425590234943847,0.0,0.27852457761764526,-1.5830743948565882,-0.0,-0.01283475011587143,0.8806007504463196,0.0,-0.003169086528941989,0.7781422734260559,0.0,-0.012256709858775139
8190.0,8190.0,2.5747,-0.3051,9.0132,-0.0368,0.0151,-0.1119,-1.405437247162201,0.0,1.265895962715149,-1.226086139678955,-0.0,2.005647659301758,3.842574282283447,0.0,0.303464412689209,-1.5830825010882776,-0.0,0.0004020992200821638,0.8805205821990967,0.0,-0.005262737162411213,0.7781502604484558,0.0,0.007691684179008007
8190.0,8190.0,2.5747,-0.3051,9.0132,-0.0368,0.0151,-0.1119,-1.4054372769645234,0.0,1.20951509475708,-1.2260701656341553,-0.0,1.9519801139831543,3.8425628381916503,0.0,0.29620158672332764,-1.5830462614642542,-0.0,-0.0043274033814668655,0.8805127143859863,0.0,-0.015212207101285458,0.7781502604484558,0.0,-0.006352514028549194
8190.0,8190.0,2.5747,-0.3051,9.0132,-0.0368,0.0151,-0.1119,-1.405388520365097,0.0,1.241791009902954,-1.2261264324188232,-0.0,1.9738521575927734,3.842567129726074,0.0,0.29704123735427856,-1.583050552998678,-0.0,-0.013477180153131485,0.880540668964386,0.0,-0.020004650577902794,0.7781262993812561,0.0,0.0666780024766922
8190.0,8190.0,2.5747,-0.3051,9.0132,-0.0368,0.0151,-0.1119,-1.4053806525519867,0.0,1.2094799280166626,-1.2261182069778442,-0.0,1.9411134719848633,3.842639132136963,0.0,0.2924393117427826,-1.583062473927633,-0.0,-0.004098260775208473,0.8806169629096985,0.0,-0.004195334855467081,0.7781303524971008,0.0,-0.009734258987009525
8190.0,8190.0,2.5747,-0.3051,9.0132,-0.0368,0.0151,-0.1119,-1.405425028210022,0.0,1.260274887084961,-1.2260621786117554,-0.0,1.973362922668457,3.842514677638672,0.0,0.29689979553222656,-1.5830581823932093,-0.0,-0.008672254160046577,0.8805525302886963,0.0,-0.0013438216410577297,0.7781623005867004,0.0,-0.0024428274482488632
8190.0,8190.0,2.5747,-0.3051,9.0132,-0.0368,0.0151,-0.1119,-1.4054168474725266,0.0,1.2334396839141846,-1.2260701656341553,-0.0,1.963704228401184,3.8425866800495605,0.0,0.2982775866985321,-1.58307391801943,-0.0,-0.014432198368012905,0.880540668964386,0.0,-5.868764128535986e-05,0.7781783938407898,0.0,0.034407686442136765
8190.0,8190.0,2.5747,-0.3051,9.0132,-0.0368,0.0151,-0.1119,-1.405392588382103,0.0,1.2383819818496704,-1.2260701656341553,-0.0,1.959974765777588,3.842571421260498,0.0,0.2968398332595825,-1.583102051411764,-0.0,-0.000367745611583814,0.8805527091026306,0.0,-0.0007855206495150924,0.7781303524971008,0.0,0.03548651188611984
8190.0,8190.0,2.5747,-0.3051,9.0132,-0.0368,0.0151,-0.1119,-1.4053521764329453,0.0,1.2182105779647827,-1.226021647453308,-0.0,1.9818400144577026,3.8426505762287597,0.0,0.28370118141174316,-1.5830701033221644,-0.0,-0.003382124239578843,0.8805891275405884,0.0,-0.011039434932172298,0.7781303524971008,0.0,-0.008506793528795242
8190.0,8190.0,2.5711,-0.3015,9.0162,-0.0342,0.0195,-0.1219,-1.4053806078485032,0.0,1.2680141925811768,-1.2260820865631104,-0.0,1.9732402563095093,3.842582865352295,0.0,0.28427964448928833,-1.5830581823932093,-0.0,-0.0027639418840408325,0.8805123567581177,0.0,-9.207276161760092e-05,0.7781583070755005,0.0,-0.014263915829360485
8190.0,8190.0,2.5711,-0.3015,9.0162,-0.0342,0.0195,-0.1219,-1.4053926032832642,0.0,1.22749924659729,-1.2260823249816895,-0.0,1.9679903984069824,3.8425466257282714,0.0,0.30414116382598877,-1.5830538908587855,-0.0,-0.012110541574656963,0.8805286884307861,0.0,0.02284880168735981,0.7781303524971008,0.0,0.012902342714369297
8190.0,8190.0,2.5711,-0.3015,9.0162,-0.0342,0.0195,-0.1219,-1.4054168325713654,0.0,1.285630226135254,-1.2260901927947998,-0.0,1.9320707321166992,3.8426033693500976,0.0,0.2922978699207306,-1.5830662886248987,-0.0,-0.01542649045586586,0.8805525302886963,0.0,-0.0020799110643565655,0.7781423330307007,0.0,0.019400887191295624
8190.0,8190.0,2.5711,-0.3015,9.0162,-0.0342,0.0195,-0.1219,-1.405437247162201,0.0,1.2348328828811646,-1.2260980606079102,-0.0,1.964735507965088,3.842567129726074,0.0,0.2884165346622467,-1.5830419699298304,-0.0,-0.00868222862482071,0.8805124759674072,0.0,-0.016149204224348068,0.7781183123588562,0.0,0.028252866119146347
8190.0,8190.0,2.5711,-0.3015,9.0162,-0.0342,0.0195,-0.1219,-1.4053925585797806,0.0,1.2472023963928223,-1.2261220216751099,-0.0,1.9607552289962769,3.842574282283447,0.0,0.29879873991012573,-1.5830257574664515,-0.0,-0.005812700837850571,0.8805686831474304,0.0,-0.015097110532224178,0.7781662940979004,0.0,-0.0019686194136738777
8190.0,8190.0,2.5711,-0.3015,9.0162,-0.0342,0.0195,-0.1219,-1.4054209154895325,0.0,1.2800441980361938,-1.2260942459106445,-0.0,1.9864522218704224,3.8425795274921875,0.0,0.3054752051830292,-1.5830419699298304,-0.0,-0.009988849051296711,0.8805205821990967,0.0,-0.007067288272082806,0.7781542539596558,0.0,-0.0009930675150826573
8190.0,8190.0,2.5711,-0.3015,9.0162,-0.0342,0.0195,-0.1219,-1.405344308619835,0.0,1.2959582805633545,-1.226062297821045,-0.0,1.9848089218139648,3.8426033693500976,0.0,0.30069124698638916,-1.5830782095538538,-0.0,-0.0036710917484015226,0.880500316619873,0.0,-0.0025020483881235123,0.7781343460083008,0.0,0.03601373732089996
8190.0,8190.0,2.5711,-0.3015,9.0162,-0.0342,0.0195,-0.1219,-1.405360372071602,0.0,1.2724239826202393,-1.2260663509368896,-0.0,1.9676291942596436,3.84259478628125,0.0,0.2971908748149872,-1.583050552998678,-0.0,-0.012385714799165726,0.8805443048477173,0.0,-0.0012288261204957962,0.7781303524971008,0.0,0.018326008692383766
8190.0,8190.0,2.5711,-0.3015,9.0162,-0.0342,0.0195,-0.1219,-1.4054003965905686,0.0,1.2492151260375977,-1.22607421875,-0.0,1.9697051048278809,3.842574282283447,0.0,0.28546321392059326,-1.5830214659320276,-0.0,0.0026846062391996384,0.8805446624755859,0.0,-0.0066529917530715466,0.7781462669372559,0.0,-0.012303796596825123
8190.0,8190.0,2.5711,-0.3015,9.0162,-0.0342,0.0195,-0.1219,-1.4053846907666703,0.0,1.2414671182632446,-1.226086139678955,-0.0,1.9447475671768188,3.8425909715839843,0.0,0.2857683002948761,-1.5830214659320276,-0.0,-0.015433056280016899,0.8804764747619629,0.0,-0.002456696704030037,0.7781183123588562,0.0,-0.03583531826734543
8190.0,8190.0,2.5711,-0.3015,9.0162,-0.0342,0.0195,-0.1219,-1.40537645042453,0.0,1.2640420198440552,-1.22610604763031,-0.0,1.9502630233764648,3.842599077815674,0.0,0.29707545042037964,-1.5830581823932093,-0.0,-0.009567845612764359,0.8805206418037415,0.0,0.005767185240983963,0.7781263589859009,0.0,-0.004079871810972691
8190.0,8190.0,2.5711,-0.3015,9.0162,-0.0342,0.0195,-0.1219,-1.4054008287242432,0.0,1.2239511013031006,-1.2261301279067993,-0.0,1.9631553888320923,3.842574282283447,0.0,0.28376504778862,-1.5830419699298304,-0.0,-0.0015420616837218404,0.8806209564208984,0.0,-0.0069910138845443726,0.7780901789665222,0.0,-0.0279530119150877
8190.0,8190.0,2.5711,-0.3015,9.0162,-0.0342,0.0195,-0.1219,-1.4054008287242432,0.0,1.279441475868225,-1.2260502576828003,-0.0,1.9452953338623047,3.8425704675861816,0.0,0.29691675305366516,-1.5830538908587855,-0.0,-0.0011783509980887175,0.8806169033050537,0.0,-0.0153913963586092,0.7781303524971008,0.0,-0.02768259309232235
8190.0,8190.0,2.6542,-0.3176,8.9821,-0.0391,0.0194,-0.1162,-1.4053846609643479,0.0,1.2074344158172607,-1.2260901927947998,-0.0,1.9414689540863037,3.8425304132648925,0.0,0.29550278186798096,-1.5829976240741175,-0.0,-0.0033359916415065527,0.8806006908416748,0.0,-0.011722742579877377,0.7781462669372559,0.0,-0.04459651559591293
8190.0,8190.0,2.6542,-0.3176,8.9821,-0.0391,0.0194,-0.1162,-1.4053967607072373,0.0,1.2243636846542358,-1.2260340452194214,-0.0,2.0249838829040527,3.842567129726074,0.0,0.29245924949645996,-1.5830743948565882,-0.0,-0.002867013681679964,0.8806169033050537,0.0,-0.0037641730159521103,0.7781183123588562,0.0,-0.0042203739285469055
8190.0,8190.0,2.6542,-0.3176,8.9821,-0.0391,0.0194,-0.1162,-1.4054209154895325,0.0,1.2482497692108154,-1.2261022329330444,-0.0,1.9305768013000488,3.8425590234943847,0.0,0.2893621623516083,-1.583005730305807,-0.0,-0.00783555582165718,0.8806169629096985,0.0,-0.0038318606093525887,0.778118371963501,0.0,-0.00278767803683877
8190.0,8190.0,2.6542,-0.3176,8.9821,-0.0391,0.0194,-0.1162,-1.4054168325713654,0.0,1.2105153799057007,-1.226086139678955,-0.0,1.965071678161621,3.84259478628125,0.0,0.29007023572921753,-1.5830662886248987,-0.0,-0.007775414735078812,0.8805887699127197,0.0,-0.011297966353595257,0.7781662940979004,0.0,0.007024349644780159
8190.0,8190.0,2.6542,-0.3176,8.9821,-0.0391,0.0194,-0.1162,-1.4054248940995713,0.0,1.2491647005081177,-1.2260942459106445,-0.0,1.9598324298858643,3.842595263118408,0.0,0.29082319140434265,-1.583062473927633,-0.0,-0.02258818969130516,0.8805927634239197,0.0,-0.0002848269068636,0.7781223058700562,0.0,-0.053554221987724304
8190.0,8190.0,2.6542,-0.3176,8.9821,-0.0391,0.0194,-0.1162,-1.4053806227496644,0.0,1.2565659284591675,-1.226062297821045,-0.0,1.919847011566162,3.842526598567627,0.0,0.3028506934642792,-1.5830257574664515,-0.0,-0.0025240997783839703,0.8805283904075623,0.0,-0.004384569823741913,0.7781502604484558,0.0,-0.006130265071988106
8190.0,8190.0,2.6542,-0.3176,8.9821,-0.0391,0.0194,-0.1162,-1.405356304054596,0.0,1.2152762413024902,-1.2261425256729126,-0.0,1.951425552368164,3.842599077815674,0.0,0.30538320541381836,-1.5830581823932093,-0.0,-0.01029057614505291,0.8805127739906311,0.0,-0.005622609052807093,0.7780901789665222,0.0,-0.005185035057365894
8190.0,8190.0,2.6542,-0.3176,8.9821,-0.0391,0.0194,-0.1162,-1.4054049414447327,0.0,1.2514996528625488,-1.2260304689407349,-0.0,1.9632110595703125,3.8425423341938476,0.0,0.29332467913627625,-1.5830381552325647,-0.0,-0.0066476063802838326,0.8805443644523621,0.0,-0.015421826392412186,0.778102457523346,0.0,0.03372681140899658
8190.0,8190.0,2.6542,-0.3176,8.9821,-0.0391,0.0194,-0.1162,-1.4053843480399628,0.0,1.2554292678833008,-1.2260663509368896,-0.0,1.9206328392028809,3.842582865352295,0.0,0.2948930859565735,-1.5830820242511194,-0.0,0.004697365220636129,0.8805206418037415,0.0,0.014479229226708412,0.7781502604484558,0.0,0.006527438759803772
8190.0,8190.0,2.6542,-0.3176,8.9821,-0.0391,0.0194,-0.1162,-1.4054331642440339,0.0,1.2429864406585693,-1.2260782718658447,-0.0,1.9551470279693604,3.842582865352295,0.0,0.3084549307823181,-1.5830825010882776,-0.0,-0.00569488201290369,0.8805405497550964,0.0,-0.008107036352157593,0.7781662940979004,0.0,-0.010047143325209618
8190.0,8190.0,2.6542,-0.3176,8.9821,-0.0391,0.0194,-0.1162,-1.40538843095813,0.0,1.230196237564087,-1.226037859916687,-0.0,1.9796864986419678,3.842599077815674,0.0,0.2991466820240021,-1.5830782095538538,-0.0,-0.009114782325923443,0.880588710308075,0.0,0.005848918110132217,0.7781622409820557,0.0,0.04010177031159401
8190.0,8190.0,2.6542,-0.3176,8.9821,-0.0391,0.0194,-0.1162,-1.4054492127946396,0.0,1.2498222589492798,-1.2260662317276,-0.0,1.9142670631408691,3.842538519496582,0.0,0.30473268032073975,-1.583062473927633,-0.0,-0.0060341013595461845,0.8805931210517883,0.0,-0.002472453750669956,0.7781223654747009,0.0,0.03176681324839592
8190.0,8190.0,2.6542,-0.3176,8.9821,-0.0391,0.0194,-0.1162,-1.4054373067668458,0.0,1.242339015007019,-1.2261099815368652,-0.0,1.9665112495422363,3.842578573817871,0.0,0.29882171750068665,-1.583050552998678,-0.0,-0.002253875834867358,0.8805047273635864,0.0,-0.0013947639381513,0.778150200843811,0.0,0.0019468055106699467
8190.0,8190.0,3.341,-0.3876,8.5502,-0.0338,0.0021,-0.1243,-1.4053723079017182,0.0,1.2287368774414062,-1.2260820865631104,-0.0,1.9798082113265991,3.8425909715839843,0.0,0.29356032609939575,-1.5830662886248987,-0.0,0.001929637510329485,0.8805565237998962,0.0,-0.003020355012267828,0.7781581878662109,0.0,-0.05366502329707146
8190.0,8190.0,3.341,-0.3876,8.5502,-0.0338,0.0021,-0.1243,-1.4054250431111832,0.0,1.2313358783721924,-1.226045846939087,-0.0,1.9682865142822266,3.8425590234943847,0.0,0.2940182089805603,-1.583062473927633,-0.0,-0.01448063738644123,0.88056880235672,0.0,0.002786533674225211,0.7781542539596558,0.0,0.011195814236998558
8190.0,8190.0,3.341,-0.3876,8.5502,-0.0338,0.0021,-0.1243,-1.4054450255683442,0.0,1.2320289611816406,-1.2261021137237549,-0.0,1.9859273433685303,3.842582865352295,2.0215552467561793e-06,0.2995645999908447,-1.583050552998678,-0.0,-0.007655053399503231,0.8806245923042297,0.0,-0.0012997841695323586,0.7781462669372559,0.0,-0.04219827055931091
8190.0,8190.0,3.341,-0.3876,8.5502,-0.0338,0.0021,-0.1243,-1.4054090541652222,-7.439645628437574e-07,1.2378394603729248,-1.2260981798171997,-0.0,1.9752721786499023,3.8425466257282714,5.627073806913074e-10,0.3016686737537384,-1.5830214659320276,-0.0,-0.013613097369670868,0.8805124759674072,0.0,-0.005338977091014385,0.7781383395195007,0.0,0.0288968775421381
8190.0,8190.0,3.341,-0.3876,8.5502,-0.0338,0.0021,-0.1243,-1.405324475174286,-2.4103501583983694e-14,1.2449418306350708,-1.2261022329330444,-0.0,1.9896249771118164,3.8425909715839843,0.0006477527203969657,0.3061405122280121,-1.5830257574664515,-0.0,-0.012495039030909538,0.8805768489837646,0.0,0.002875050762668252,0.7781263589859009,0.0,0.020670674741268158
8190.0,8190.0,3.341,-0.3876,8.5502,-0.0338,0.0021,-0.1243,-1.405396969323494,-7.809227178386304e-22,1.2844382524490356,-1.2260262966156006,-0.0,1.9081271886825562,3.842622919673584,0.0004163872799836099,0.2983856201171875,-1.5830381552325647,-0.0,-0.02118726447224617,0.8805243968963623,0.0,0.00214046030305326,0.778114378452301,0.0,0.01997634582221508
8190.0,8190.0,3.341,-0.3876,8.5502,-0.0338,0.0021,-0.1243,-1.4053245049766083,0.0006716963835060596,1.2609626054763794,-1.2260663509368896,-0.0,1.973456621170044,3.84259478628125,0.0003258480574004352,0.30629733204841614,-1.5830381552325647,-0.0,-0.00837887916713953,0.8805406093597412,0.0,-0.004989028908312321,0.7781742811203003,0.0,-0.005315741524100304
8190.0,8190.0,3.341,-0.3876,8.5502,-0.0338,0.0021,-0.1243,-1.4053607296994706,0.00036597586586140096,1.2567471265792847,-1.2260019779205322,-0.0,1.9739534854888916,3.8426071840473632,0.00025263515999540687,0.2931057810783386,-1.583033863698141,-0.0,-0.012707388028502464,0.880592942237854,0.0,0.008847068063914776,0.7781542539596558,0.0,0.029186686500906944
8190.0,8190.0,3.341,-0.3876,8.5502,-0.0338,0.0021,-0.1243,-1.4053850781968613,0.00021031498908996582,1.2742764949798584,-1.2260980606079102,-0.0,1.9648411273956299,3.842635317439697,0.0002162078017136082,0.29278048872947693,-1.583062473927633,-0.0,-0.0019029020331799984,0.8805363774299622,0.0,-0.007645994424819946,0.7781183123588562,0.0,0.0019156942144036293
8190.0,8190.0,3.341,-0.3876,8.5502,-0.0338,0.0021,-0.1243,-1.4053566467813035,-0.00021221218048594892,1.2581825256347656,-1.2260582447052002,-0.0,1.9814703464508057,3.8425628381916503,0.00018134726269636303,0.2850428521633148,-1.5830500761615198,-0.0,-0.015333381481468678,0.8805605173110962,0.0,-0.01040731929242611,0.7780904769897461,0.0,-0.015373675152659416
8190.0,8190.0,3.341,-0.3876,8.5502,-0.0338,0.0021,-0.1243,-1.4053809952786942,-0.0001614480570424348,1.2490100860595703,-1.2260982990264893,-0.0,1.9695343971252441,3.8425628381916503,0.00015616914606653154,0.287458211183548,-1.583062473927633,-0.0,-0.010718833655118942,0.8805890083312988,0.0,0.0018332389881834388,0.7781422734260559,0.0,0.0008532763458788395
8190.0,8190.0,3.341,-0.3876,8.5502,-0.0338,0.0021,-0.1243,-1.405356616978981,-9.126849909080192e-05,1.2716556787490845,-1.226086139678955,-0.0,1.9573158025741577,3.842578573817871,0.00014144163287710398,0.28994569182395935,-1.5830777327166956,-0.0,-0.008628390729427338,0.8805565237998962,0.0,3.4458935260772705e-07,0.7781103253364563,0.0,0.041674405336380005
8190.0,8190.0,2.2044,-0.1172,9.0975,-0.0261,0.0415,-0.1294,-1.4053326112082978,-6.294335008760754e-08,1.226815938949585,-1.2260059118270874,-0.0,1.9457762241363525,3.842634363765381,0.00015077166608534753,0.30632439255714417,-1.5830701033221644,-0.0,0.005390428937971592,0.8805927634239197,0.0,-0.00018377206288278103,0.7781623005867004,0.0,0.0009990585967898369
8190.0,8190.0,2.2044,-0.1172,9.0975,-0.0261,0.0415,-0.1294,-1.4053532940200348,-1.520007671161963e-13,1.221677541732788,-1.2260783910751343,1.130952276273689e-11,1.9530785083770752,3.8426262575336914,0.00013911849237047136,0.299265056848526,-1.5830581823932093,-0.0,-0.006447981111705303,0.8805648684501648,0.0,0.016658077016472816,0.7781742811203003,0.0,-0.01210966520011425
8190.0,8190.0,2.2044,-0.1172,9.0975,-0.0261,0.0415,-0.1294,-1.4053088289550324,0.0007839472964406013,1.2260618209838867,-1.2260539531707764,3.664142055392657e-19,1.931286096572876,3.8425704675861816,0.0001471408031648025,0.3031587600708008,-1.5830500761615198,-0.0,-0.0005566924810409546,0.8805525302886963,0.0,0.0018565109930932522,0.7781702280044556,0.0,0.013445616699755192
8190.0,8190.0,2.2044,-0.1172,9.0975,-0.0261,0.0415,-0.1294,-1.4053611767343064,0.0005463369889184833,1.288004994392395,-1.226094365119934,8.84847232193202e-25,1.9203839302062988,3.842574282283447,0.00013750605285167694,0.2932019829750061,-1.5830701033221644,-0.0,0.0026165670715272427,0.8805887699127197,0.0,0.0012425808236002922,0.7781502604484558,0.0,0.04119838774204254
8190.0,8190.0,2.2044,-0.1172,9.0975,-0.0261,0.0415,-0.1294,-1.4053570193103333,0.0003240820951759815,1.266726016998291,-1.2260384559631348,0.00013098158524371684,1.934798002243042,3.842571421260498,0.00012646483082789928,0.2998587191104889,-1.5830538908587855,-0.0,0.007164335809648037,0.8805405497550964,0.0,0.008181202225387096,0.7781623005867004,0.0,0.021098759025335312
8190.0,8190.0,2.2044,-0.1172,9.0975,-0.0261,0.0415,-0.1294,-1.4053648722222825,-9.850608330452815e-05,1.2368273735046387,-1.2260140180587769,5.072403291705996e-05,1.957824945449829,3.842550440425537,5.7789286074694246e-05,0.2896551787853241,-1.5830701033221644,-0.0,-0.014657733961939812,0.8804730176925659,0.0,-0.015380770899355412,0.7781542539596558,0.0,0.0010241325944662094
8190.0,8190.0,2.2044,-0.1172,9.0975,-0.0261,0.0415,-0.1294,-1.4054249984076996,-0.0011759836925193667,1.1900241374969482,-1.2261426448822021,7.267933455068487e-08,1.9325263500213623,3.8425590234943847,3.49822330463212e-05,0.29766732454299927,-1.5830538908587855,-0.0,-0.011117481626570225,0.8805443644523621,0.0,-0.008982762694358826,0.7781183123588562,0.0,0.03653569519519806
8190.0,8190.0,2.2044,-0.1172,9.0975,-0.0261,0.0415,-0.1294,-1.4054372769645234,-0.0013985864352434874,1.236720085144043,-1.2260701656341553,2.3547181355655384e-15,1.957801103591919,3.842510862941406,1.079277694771008e-06,0.3057324290275574,-1.5830381552325647,-0.0,-0.014387907460331917,0.880528450012207,0.0,-0.0007706438191235065,0.7781343460083008,0.0,0.014457985758781433
8190.0,8190.0,2.2044,-0.1172,9.0975,-0.0261,0.0415,-0.1294,-1.405396745806076,-0.0010548594873398542,1.2508697509765625,-1.2260661125183105,5.686366283187342e-21,1.9760246276855469,3.8425304132648925,3.004209103707467e-10,0.28241634368896484,-1.5830662886248987,-0.0,-0.016230158507823944,0.8805645108222961,0.0,0.0015884307213127613,0.7781223058700562,0.0,-0.025289170444011688
8190.0,8190.0,2.2044,-0.1172,9.0975,-0.0261,0.0415,-0.1294,-1.4054003220847626,-0.0008049593889154494,1.2259132862091064,-1.2261180877685547,1.8423102791736954e-28,1.9058865308761597,3.8425347047993164,5.460002330088479e-15,0.2938540577888489,-1.583017651234762,-0.0,-0.005271938629448414,0.8805443644523621,0.0,-0.0105287479236722,0.778098464012146,0.0,-0.026379063725471497
8190.0,8190.0,2.2044,-0.1172,9.0975,-0.0261,0.0415,-0.1294,-1.405432717209198,-0.0010740795405581594,1.2312668561935425,-1.2260420322418213,5.9688513013803006e-36,1.9198601245880127,3.8425509172626953,9.923284496954614e-20,0.2936450242996216,-1.583029572163717,-0.0,-0.006032880861312151,0.8804966807365417,0.0,-0.024040739983320236,0.7781462669372559,0.0,-0.0005350373685359955
8190.0,8190.0,2.2044,-0.1172,9.0975,-0.0261,0.0415,-0.1294,-1.4054566633752366,-0.0017574996454641223,1.2535381317138672,-1.226125717163086,1.4413756004045068e-41,1.94667387008667,3.842526598567627,-0.00038132190820761025,0.30053406953811646,-1.5830138365374964,-0.0,-0.020576832816004753,0.8805684447288513,0.0,0.0009635143796913326,0.7781702280044556,0.0,0.02461959421634674
8190.0,8190.0,2.2044,-0.1172,9.0975,-0.0261,0.0415,-0.1294,-1.405472384100296,-0.003536417381837964,1.253420352935791,-1.22611403465271,-0.0,1.971794605255127,3.8424903589436035,-0.00040394230745732784,0.2954321503639221,-1.583029572163717,-0.0,-0.01026400737464428,0.880512535572052,0.0,-0.00014671869575977325,0.778070330619812,0.0,-0.008746732026338577
8190.0,8190.0,2.729,-0.0808,9.1472,-0.0224,0.0031,-0.1225,-1.4055530589869996,-0.005513367243111134,1.266930103302002,-1.2261180877685547,-0.0,1.94973886013031,3.8424946504780273,-0.0003443562309257686,0.30593234300613403,-1.5830419699298304,-0.0,-0.00154909398406744,0.8805366158485413,0.0,0.011313555762171745,0.7781023979187012,0.0,0.01958472654223442
8190.0,8190.0,2.729,-0.0808,9.1472,-0.0224,0.0031,-0.1225,-1.4056050789407273,-0.007346753031015396,1.2246379852294922,-1.2261582612991333,-0.0,1.947081446647644,3.8425232607075195,-0.0003227368288207799,0.2909664809703827,-1.583029572163717,-0.0,-0.0068468195386230946,0.8805768489837646,0.0,-0.0010552103631198406,0.778070330619812,0.0,0.004893695469945669
8190.0,8190.0,2.729,-0.0808,9.1472,-0.0224,0.0031,-0.1225,-1.4057051253369828,-0.009814494289457798,1.2640900611877441,-1.2261542081832886,-0.0,1.9567781686782837,3.8425351816364746,-0.00028427355573512614,0.284762978553772,-1.583005730305807,-0.0,-0.014374330639839172,0.8805207014083862,0.0,0.0007697799592278898,0.7781343460083008,0.0,-0.007241357583552599
8190.0,8190.0,2.729,-0.0808,9.1472,-0.0224,0.0031,-0.1225,-1.4057608556798478,-0.010033374652266502,1.220376968383789,-1.2261264324188232,-0.00013718375703319907,2.0018789768218994,3.8424874979206542,-0.00023898013751022518,0.29082632064819336,-1.583033863698141,-0.0,-0.015505395829677582,0.880488932132721,0.0,-0.002721361583098769,0.7780822515487671,0.0,0.026976410299539566
8190.0,8190.0,2.729,-0.0808,9.1472,-0.0224,0.0031,-0.1225,-1.4058328133872529,-0.011437210254371166,1.2546992301940918,-1.2260899543762207,-0.0001366448705084622,1.9551527500152588,3.8424507814594726,-0.00019709888147190213,0.29961642622947693,-1.5829938093768519,-0.0,-0.010582992807030678,0.8805207014083862,0.0,0.0001778442965587601,0.7781303524971008,0.0,0.044970251619815826
8190.0,8190.0,2.729,-0.0808,9.1472,-0.0224,0.0031,-0.1225,-1.4058886778405686,-0.011137974448502064,1.2334885597229004,-1.2261338233947754,-0.00014927456504665315,1.9440441131591797,3.8425070482441406,-0.00020888366270810366,0.30300217866897583,-1.5830262343036097,-0.0,-0.013374286703765392,0.8806009292602539,0.0,0.0022452862467616796,0.778102457523346,0.0,0.004739274736493826
8190.0,8190.0,2.729,-0.0808,9.1472,-0.0224,0.0031,-0.1225,-1.4060090494206925,-0.011126412078738213,1.260202407836914,-1.2261103391647339,-0.00015766124124638736,1.9497268199920654,3.8425027567097167,-0.00018101156456395984,0.3114650547504425,-1.5830095450030726,-0.0,-0.0240846648812294,0.8806326985359192,0.0,0.00865490548312664,0.7780582904815674,0.0,0.006582904607057571
8190.0,8190.0,2.729,-0.0808,9.1472,-0.0224,0.0031,-0.1225,-1.4060930770686646,-0.010886314325034618,1.2203892469406128,-1.2261899709701538,-0.0001467429829062894,1.935640573501587,3.8424903589436035,-0.0001644701260374859,0.31956955790519714,-1.5830219427691858,-0.0,-0.01561644859611988,0.8805565237998962,0.0,-0.016878167167305946,0.7781103253364563,0.0,0.02331428974866867
8190.0,8190.0,2.729,-0.0808,9.1472,-0.0224,0.0031,-0.1225,-1.4061527115157624,-0.009952601045370102,1.2136701345443726,-1.2261300086975098,-0.0001342362811556086,1.939876675605774,3.842475100154541,-0.00014660757733508945,0.3092977702617645,-1.5830219427691858,-0.0,-0.015500686131417751,0.880596935749054,0.0,0.005911611951887608,0.7781383395195007,0.0,0.03957173600792885
8190.0,8190.0,2.729,-0.0808,9.1472,-0.0224,0.0031,-0.1225,-1.4062610429576416,-0.00788323488086462,1.2534925937652588,-1.226173996925354,-0.00014136455138213933,1.9677503108978271,3.842531366939209,-0.00015426041500177234,0.2952192425727844,-1.5830100218402308,-0.0,-0.021462317556142807,0.8805406093597412,0.0,-0.0007186292205005884,0.778102457523346,0.0,-0.016720633953809738
8190.0,8190.0,2.729,-0.0808,9.1472,-0.0224,0.0031,-0.1225,-1.4062726509622117,-0.006801781244575977,1.240386724472046,-1.226142168045044,-0.00013350116205401719,1.978731393814087,3.8424874979206542,-0.00014372606528922915,0.29203349351882935,-1.583033863698141,-0.0,-0.01899719424545765,0.8805286884307861,0.0,0.011293485760688782,0.778134286403656,0.0,-0.03807341307401657
8190.0,8190.0,2.729,-0.0808,9.1472,-0.0224,0.0031,-0.1225,-1.4063690614751359,-0.005444739013910294,1.2801740169525146,-1.2261543273925781,-0.00014321596245281398,1.9502389430999756,3.84249131261792,-0.00013170682359486818,0.30079835653305054,-1.5830581823932093,-0.0,-0.015103413723409176,0.8805485367774963,0.0,-0.0018763283733278513,0.7781262993812561,0.0,-0.014854423701763153
8190.0,8190.0,2.729,-0.0808,9.1472,-0.0224,0.0031,-0.1225,-1.4064093691161652,-0.004956059157848358,1.289768099784851,-1.2261462211608887,-0.00013914189185015857,1.9345176219940186,3.842451258296631,-0.00014161835133563727,0.30331265926361084,-1.583033863698141,-0.0,-0.013067549094557762,0.8805286884307861,0.0,-0.016371717676520348,0.7781144380569458,0.0,0.04210337996482849
8190.0,8190.0,1.9627,-0.335,9.015,-0.0531,-0.0067,-0.1214,-1.4064368915608902,-0.0044225240126252174,1.2856581211090088,-1.226170301437378,-0.00014857806672807783,1.911204218864441,3.842463179225586,-0.0001082753442460671,0.31101471185684204,-1.583017651234762,-0.0,-0.017836501821875572,0.8805768489837646,0.0,0.00447810348123312,0.7781423330307007,0.0,-0.009102217853069305
8190.0,8190.0,1.9627,-0.335,9.015,-0.0531,-0.0067,-0.1214,-1.4064852011254807,-0.0046592517755925655,1.2940032482147217,-1.2261542081832886,-0.00015527174400631338,1.9390695095062256,3.842475576991699,-0.00012820788833778352,0.3143468499183655,-1.5830019156085413,-0.0,-0.013275660574436188,0.880572497844696,0.0,-0.006235330365598202,0.7780941724777222,0.0,0.03542153909802437
8190.0,8190.0,1.9627,-0.335,9.015,-0.0531,-0.0067,-0.1214,-1.4065011900714417,-0.005364228505641222,1.2399873733520508,-1.226181983947754,-0.00014535820810124278,1.9396018981933594,3.842458887691162,-0.0001470003044232726,0.31686800718307495,-1.5830219427691858,-0.0,-0.015033770352602005,0.8805406093597412,0.0,-0.010996129363775253,0.778102457523346,0.0,0.004633164033293724
8190.0,8190.0,1.9627,-0.335,9.015,-0.0531,-0.0067,-0.1214,-1.4065490377000351,-0.006250233389437199,1.2400046586990356,-1.226225733757019,-0.000247584335738793,1.9500980377197266,3.842451258296631,-0.00045278947800397873,0.3145328164100647,-1.5830100218402308,-0.0,-0.01712890714406967,0.880612850189209,0.0,-0.0011339682387188077,0.7780663371086121,-6.898672290844843e-05,0.0686255395412445
8190.0,8190.0,1.9627,-0.335,9.015,-0.0531,-0.0067,-0.1214,-1.4065811199000855,-0.006518880371004343,1.2550523281097412,-1.2261700630187988,-0.0002554485108703375,1.920543909072876,3.842479391688965,-0.0006597546744160354,0.31651538610458374,-1.5830743948565882,1.1607399130753038e-07,-0.030394628643989563,0.8805728554725647,0.0,-0.0012120876926928759,0.7780982255935669,-8.783229714026675e-05,0.014121009036898613
8190.0,8190.0,1.9627,-0.335,9.015,-0.0531,-0.0067,-0.1214,-1.4066853386214753,-0.007239842787384987,1.2236573696136475,-1.2261700630187988,-0.0002869501186069101,1.9391427040100098,3.84243552267041,-0.0006278586806729436,0.30533772706985474,-1.5829857031451624,2.1095874613158427e-12,-0.008734346367418766,0.8805444240570068,0.0,0.0004039504856336862,0.7780543565750122,-8.722480561118573e-05,0.007012225687503815
8190.0,8190.0,1.9627,-0.335,9.015,-0.0531,-0.0067,-0.1214,-1.4066968572190781,-0.008332114666700363,1.1970710754394531,-1.2262665033340454,-0.001064194948412478,1.9044544696807861,3.842378779048584,-0.0006382570136338472,0.298417866230011,-1.5830262343036097,3.834070812944949e-17,-0.02469981648027897,0.8805645108222961,0.0,0.0025005540810525417,0.7780823707580566,-8.264779899036512e-05,0.01585955172777176
8190.0,8190.0,1.9627,-0.335,9.015,-0.0531,-0.0067,-0.1214,-1.4067729872516175,-0.009349186904728413,1.2230851650238037,-1.2262338399887085,-0.00142094015609473,1.9913368225097656,3.842463179225586,-0.0004754039109684527,0.3057786524295807,-1.5829780737506312,1.0672279416397761e-20,-0.016023434698581696,0.8805128335952759,0.0,-0.005735458806157112,0.778130292892456,-9.082542965188622e-05,0.0024524638429284096
8190.0,8190.0,1.9627,-0.335,9.015,-0.0531,-0.0067,-0.1214,-1.4068810057691117,-0.012250983156263828,1.1615310907363892,-1.2262177467346191,-0.0018650850979611278,1.948411226272583,3.84243552267041,-0.00035151830525137484,0.29489558935165405,-1.5829818884478968,1.9396346769822208e-25,-0.006121206097304821,0.8805168271064758,0.0,-0.011177701875567436,0.7780823707580566,-8.651044481666759e-05,-0.08120651543140411
8190.0,8190.0,1.9627,-0.335,9.015,-0.0531,-0.0067,-0.1214,-1.4070211809924622,-0.014442351646721363,1.1812478303909302,-1.2262372970581055,-0.0023937171790748835,1.9049181938171387,3.8424312311359863,-0.00029406388057395816,0.2931554615497589,-1.5830343405352991,5.399043672535805e-29,-0.013255631551146507,0.880520761013031,0.0,0.0002653147093951702,0.7781021595001221,-7.306329644052312e-05,-0.00022108759731054306
8190.0,8190.0,1.9627,-0.335,9.015,-0.0531,-0.0067,-0.1214,-1.407121093278267,-0.01758301816880703,1.1847399473190308,-1.2262736558914185,-0.005583036690950394,1.9272770881652832,3.842383547420166,-0.00024145306088030338,0.3045399785041809,-1.5829818884478968,9.812495113141701e-34,-0.009786993265151978,0.8805565237998962,0.0,-0.008237535133957863,0.7781144380569458,-6.982404738664627e-05,-0.011004719883203506
8190.0,8190.0,1.9627,-0.335,9.015,-0.0531,-0.0067,-0.1214,-1.4072611045888443,-0.018833478912711143,1.1712474822998047,-1.2263462543487549,-0.007664002012461424,1.9477157592773438,3.8423868852802734,-0.0002128898340743035,0.29881635308265686,-1.5829981009112757,2.731343704335646e-37,0.0014557535760104656,0.8805888891220093,0.0,-0.0035954145714640617,0.7781303524971008,-1.4477220533493096e-09,-0.012000469490885735
8190.0,8190.0,1.9627,-0.335,9.015,-0.0531,-0.0067,-0.1214,-1.4074292790940781,-0.02117040753364563,1.1656118631362915,-1.2263975143432617,-0.008208786137402058,1.9386032819747925,3.8424674707600097,-0.000183887270395644,0.29208290576934814,-1.583017651234762,4.963399160638502e-42,0.007236119359731674,0.8805525302886963,0.0,-0.0034125391393899918,0.7781622409820557,-4.6904353501255825e-17,-0.021112311631441116
8190.0,8190.0,1.8921,-0.2722,8.997,-0.0449,-0.0893,-0.1228,-1.407645271425583,-0.027194339781999588,1.1136884689331055,-1.2265297174453735,-0.008169693872332573,1.8903326988220215,3.8424035745808105,-0.00018880923744291067,0.2912701964378357,-1.583005730305807,0.0,-0.015683673322200775,0.8805446028709412,0.0,-0.006768535822629929,0.7781343460083008,-1.5196412360418345e-24,-0.02497672848403454
8190.0,8190.0,1.8921,-0.2722,8.997,-0.0449,-0.0893,-0.1228,-1.407809094791748,-0.033408377319574356,1.108900547027588,-1.2265738248825073,-0.00718107633292675,1.8488564491271973,3.84243552267041,-0.0001979768421733752,0.28993159532546997,-1.5830100218402308,0.0,-0.015590070746839046,0.8805049061775208,0.0,-0.01466607116162777,0.7781103849411011,-3.669754937052429e-30,-0.04033760726451874
8190.0,8190.0,1.8921,-0.2722,8.997,-0.0449,-0.0893,-0.1228,-1.408129484658577,-0.04283071309328079,1.1294498443603516,-1.226564884185791,-0.004787960089743137,1.9231610298156738,3.8424197870441894,-0.0001305895857512951,0.29772618412971497,-1.5829861799823206,0.0,0.00027338555082678795,0.8805245757102966,0.0,-0.008692294359207153,0.7781303524971008,-1.188953878624066e-37,-0.06190809607505798
8190.0,8190.0,1.8921,-0.2722,8.997,-0.0449,-0.0893,-0.1228,-1.4083975416472931,-0.05098568648099899,1.0666548013687134,-1.2265732288360596,-0.0027180686593055725,1.888190746307373,3.842427893275879,-0.00012010702630504966,0.2975901961326599,-1.5829981009112757,0.0,-0.013302495703101158,0.8805565237998962,0.0,-0.007540909573435783,0.7780863046646118,-2.872661851865875e-43,-0.02204076200723648
8190.0,8190.0,1.8921,-0.2722,8.997,-0.0449,-0.0893,-0.1228,-1.4087890845588227,-0.06139737740159035,1.0412629842758179,-1.2265609502792358,-0.00046996562741696835,1.8643388748168945,3.842423124904297,-0.00010852049308596179,0.29194143414497375,-1.5830100218402308,0.0,-0.008981296792626381,0.880504846572876,0.0,-0.003732467070221901,0.778070330619812,-8.6028958321549e-05,-0.04959089308977127
8190.0,8190.0,1.8921,-0.2722,8.997,-0.0449,-0.0893,-0.1228,-1.4093295198730011,-0.06930846720933914,1.0574513673782349,-1.2265894412994385,-0.0002068333706120029,1.9139609336853027,3.8424274164387207,-9.897299605654553e-05,0.2932630181312561,-1.5829780737506312,0.0,-0.015838056802749634,0.88060462474823,0.0,-0.017623350024223328,0.7781022191047668,-9.591003617970273e-05,-0.09782588481903076
8190.0,8190.0,1.8921,-0.2722,8.997,-0.0449,-0.0893,-0.1228,-1.4097657662681122,-0.07532380521297455,1.021250605583191,-1.22658109664917,-0.00015379124670289457,1.8448097705841064,3.8423868852802734,-9.284662519348785e-05,0.2985103726387024,-1.5830343405352991,0.0,-0.007120240014046431,0.880520761013031,0.0,-0.014597632922232151,0.7780541181564331,-0.00011622365127550438,-0.055053986608982086
8190.0,8190.0,1.8921,-0.2722,8.997,-0.0449,-0.0893,-0.1228,-1.4104338449290772,-0.0832851231098175,1.056391716003418,-1.2265732288360596,-0.00011461163376225159,1.8309800624847412,3.842378779048584,-8.576801337767392e-05,0.2772439420223236,-1.5829938093768519,0.0,0.010322636924684048,0.8806086182594299,0.0,-0.01544937677681446,0.7781264185905457,-0.00011373925372026861,-0.045336879789829254
8190.0,8190.0,1.8921,-0.2722,8.997,-0.0449,-0.0893,-0.1228,-1.4108938884786149,-0.09337330609560013,1.0613079071044922,-1.2265608310699463,-9.622763900551945e-05,1.8568668365478516,3.842394991511963,-8.112909563351423e-05,0.286824107170105,-1.5830023924456995,0.0,-0.012210739776492119,0.8804967999458313,0.0,-0.0029420466162264347,0.778114378452301,-0.00010859296889975667,-0.05652143061161041
8190.0,8190.0,1.8921,-0.2722,8.997,-0.0449,-0.0893,-0.1228,-1.4116985213807602,-0.10085196793079376,1.0381715297698975,-1.2265288829803467,-7.927430851850659e-05,1.8408629894256592,3.8424312311359863,-7.567200373159721e-05,0.2930333912372589,-1.5829899946795862,0.0,-0.004084386862814426,0.8805525302886963,0.0,-0.0011360491625964642,0.7780702710151672,-0.0002231361431768164,-0.08255939185619354
8190.0,8190.0,1.8921,-0.2722,8.997,-0.0449,-0.0893,-0.1228,-1.412457750444748,-0.09566289186477661,1.0441991090774536,-1.226505160331726,-6.73999820719473e-05,1.9042048454284668,3.8424436289020996,-7.090280269039795e-05,0.2965813875198364,-1.5830181280719202,0.0,0.012716418132185936,0.8805888891220093,0.0,-0.00864393450319767,0.7780663371086121,-0.00022393182734958827,-0.021153051406145096
8190.0,8190.0,1.8921,-0.2722,8.997,-0.0449,-0.0893,-0.1228,-1.4130540800145646,-0.0919649600982666,1.0149500370025635,-1.2265853881835938,-8.96644196473062e-05,1.8821887969970703,3.8424550729938964,-6.770257459720597e-05,0.2869744598865509,-1.5830100218402308,0.0,0.002414330840110779,0.8805446028709412,0.0,-0.002653679810464382,0.778030276298523,-0.00019917167082894593,-0.009283861145377159
8190.0,8190.0,1.8921,-0.2722,8.997,-0.0449,-0.0893,-0.1228,-1.4138540190509339,-0.09533097594976425,1.0615932941436768,-1.226633071899414,-8.84940309333615e-05,1.8710308074951172,3.8423630434223632,-8.611536031821743e-05,0.3051207661628723,-1.583005730305807,0.0,-0.010704613290727139,0.880488932132721,0.0,-0.003525897627696395,0.7781022191047668,-0.00014477437071036547,-0.0505688413977623
8190.0,8190.0,2.15,0.0072,8.5932,-0.0429,-0.1136,-0.1216,-1.4144499015859147,-0.10381250828504562,1.0187351703643799,-1.2265721559524536,-0.0030166537035256624,1.853217363357544,3.84238783895459,-9.78962707449682e-05,0.2983930706977844,-1.5830100218402308,0.0,0.0008459500968456268,0.8806087374687195,0.0,-0.003301561577245593,0.7780863046646118,-0.00013191635662224144,-0.026753470301628113
8190.0,8190.0,2.15,0.0072,8.5932,-0.0429,-0.1136,-0.1216,-1.4153749209693451,-0.12122104316949844,0.991907000541687,-1.2266690731048584,-0.003611629828810692,1.8865680694580078,3.8423797327229003,-0.00011808477574959397,0.2923167049884796,-1.5829818884478968,0.0,-0.004402016755193472,0.8805208206176758,0.0,-0.009044822305440903,0.7780823111534119,-0.00011807134433183819,-0.032901495695114136
8190.0,8190.0,2.15,0.0072,8.5932,-0.0429,-0.1136,-0.1216,-1.4162787360003968,-0.13074421882629395,1.026847243309021,-1.226596474647522,-0.0014291966799646616,1.89161217212677,3.842355414027832,-0.0001268555351998657,0.2860379219055176,-1.5829737822162073,0.0,-0.005362778902053833,0.8805887699127197,0.0,-0.008952688425779343,0.7780823111534119,-0.00012091053213225678,-0.029961004853248596
8190.0,8190.0,2.15,0.0072,8.5932,-0.0429,-0.1136,-0.1216,-1.4170184296420594,-0.13131460547447205,0.9761269092559814,-1.226584792137146,-0.00044069209252484143,1.8320119380950928,3.842367334956787,-0.00011962927237618715,0.28162431716918945,-1.5830181280719202,0.0,0.0067152646370232105,0.8805285096168518,0.0,-0.020009241998195648,0.7780702710151672,-0.00011970063496846706,-0.03204571083188057
8190.0,8190.0,2.15,0.0072,8.5932,-0.0429,-0.1136,-0.1216,-1.4180585604957123,-0.12467995285987854,0.9965260028839111,-1.2266443967819214,0.0002153868117602542,1.8651578426361084,3.8424035745808105,-0.0001111842502723448,0.2765825092792511,-1.5829656759845179,0.0,-0.0027455079834908247,0.8805768489837646,0.0,-0.008943000808358192,0.7781022191047668,-0.00010995152115356177,-0.02535124681890011
8190.0,8190.0,2.15,0.0072,8.5932,-0.0429,-0.1136,-0.1216,-1.4188828331283112,-0.12709499895572662,0.9812511205673218,-1.2266404628753662,1.1659610663627973e-06,1.9180266857147217,3.842394991511963,-0.00010559352085692808,0.2765093147754669,-1.5830023924456995,0.0,-0.006035390309989452,0.8805604577064514,-1.5589863266995962e-07,0.010606219992041588,0.7781144380569458,-8.658784645376727e-05,-0.07666689157485962
8190.0,8190.0,2.15,0.0072,8.5932,-0.0429,-0.1136,-0.1216,-1.4199469101480027,-0.1382346898317337,1.0413098335266113,-1.2266684770584106,-0.0018516398267820477,1.8844233751296997,3.842371626491211,-0.00011261994222877547,0.27721306681632996,-1.5829575697528284,0.0,0.005440710578113794,0.8805326223373413,-2.8333804486663228e-12,-0.0018973558908328414,0.778118371963501,-6.415724783437327e-05,-0.06791163980960846
8190.0,8190.0,2.15,0.0072,8.5932,-0.0429,-0.1136,-0.1216,-1.4208671313575287,-0.15391679108142853,1.0043704509735107,-1.226700782775879,-0.0044468846172094345,1.8981907367706299,3.8424035745808105,-0.00022240150428842753,0.2742030620574951,-1.5830023924456995,0.0,0.009027620777487755,0.8805887699127197,-7.886819592486949e-16,-0.018131297081708908,0.7780982255935669,-4.567578071146272e-05,-0.06151999533176422
8190.0,8190.0,2.15,0.0072,8.5932,-0.0429,-0.1136,-0.1216,-1.4220715177110215,-0.16651451587677002,1.0016396045684814,-1.2266805171966553,-0.0029483791440725327,1.843489646911621,3.8424035745808105,-0.00022309985070023686,0.28302180767059326,-1.5829780737506312,0.0,0.02020111307501793,0.8805088400840759,3.833344817394391e-05,-0.0042040045373141766,0.778050422668457,-5.704102659365162e-05,-0.09071609377861023
8190.0,8190.0,2.15,0.0072,8.5932,-0.0429,-0.1136,-0.1216,-1.42328296721492,-0.16445575654506683,1.0232242345809937,-1.2267249822616577,-0.0005255200085230172,1.8750230073928833,3.842395468349121,-0.00022333196830004454,0.27951377630233765,-1.5829818884478968,0.0,0.006746984086930752,0.8805088400840759,5.900323230889626e-05,-0.0029402747750282288,0.778130292892456,-1.868793879111763e-05,-0.053755853325128555
8190.0,8190.0,2.15,0.0072,8.5932,-0.0429,-0.1136,-0.1216,-1.4242427808097382,-0.1627575308084488,0.972713828086853,-1.2266886234283447,-0.00032280871528200805,1.876636266708374,3.842355414027832,-0.0002043179702013731,0.2761080861091614,-1.5829737822162073,0.0,0.005132682155817747,0.8805928230285645,4.9302550905849785e-05,0.0014783074147999287,0.7780742645263672,-1.7542824934935197e-05,-0.14219361543655396
8190.0,8190.0,2.15,0.0072,8.5932,-0.0429,-0.1136,-0.1216,-1.4256156843951722,-0.16295476257801056,1.0453091859817505,-1.2267364263534546,-0.0002183391188737005,1.9027714729309082,3.8423592287250976,-0.00016055333253461868,0.28535717725753784,-1.5830219427691858,0.0,0.0062557109631598,0.8805326223373413,9.694772273860508e-08,-0.003121502697467804,0.7781223058700562,-3.0391720251543575e-09,-0.10464825481176376
8190.0,8190.0,2.15,0.0072,8.5932,-0.0429,-0.1136,-0.1216,-1.4266314667514344,-0.1689428836107254,1.0448634624481201,-1.226672649383545,-0.00023425809922628105,1.8445675373077393,3.8424197870441894,-0.00014914928760845214,0.28191521763801575,-1.5829981009112757,0.0,0.0013168503064662218,0.8805087804794312,2.6985753909247734e-11,-0.0010237091919407248,0.7780782580375671,-7.339242332361079e-15,-0.005996303632855415
8190.0,8190.0,2.4658,-0.2327,9.1831,-0.0512,-0.16,-0.128,-1.427987591629364,-0.173207625746727,1.0228052139282227,-1.2267086505889893,-5.0686270697042346e-05,1.934799313545227,3.8423310953327636,-0.0001362463808618486,0.2874971032142639,-1.5829981009112757,0.0,0.0003991350531578064,0.880520761013031,4.904527228883292e-16,0.010113276541233063,0.7780982255935669,-2.3778208912276864e-22,-0.08150316774845123
8190.0,8190.0,2.4658,-0.2327,9.1831,-0.0512,-0.16,-0.128,-1.4293675881675263,-0.1774234175682068,1.0701730251312256,-1.2266325950622559,-9.74401226372379e-10,1.9256105422973633,3.8423873621174316,-0.0001253984373761341,0.2795734107494354,-1.5830262343036097,0.0,0.0006854342063888907,0.880520761013031,8.913736247169073e-21,-0.005109566263854504,0.7780942320823669,-7.703837891221314e-30,-0.033483706414699554
8190.0,8190.0,2.4658,-0.2327,9.1831,-0.0512,-0.16,-0.128,-1.4304513496211548,-0.18302735686302185,1.049917221069336,-1.2266607284545898,-2.3530643037360244e-15,1.9057724475860596,3.8423430162617187,-0.00011833239113911986,0.2738945484161377,-1.5829780737506312,0.0,0.010286848992109299,0.8805444240570068,2.4811712702488555e-24,-0.010246168822050095,0.7780982255935669,-1.860386405506019e-35,-0.06171480193734169
8190.0,8190.0,2.4658,-0.2327,9.1831,-0.0512,-0.16,-0.128,-1.4319275480559845,-0.17614342272281647,1.0656458139419556,-1.2266647815704346,-7.623629411968932e-23,1.879046082496643,3.842371626491211,-0.00011006296699633822,0.286906361579895,-1.5829861799823206,0.0,0.005455631762742996,0.8805928230285645,4.509406075562301e-29,-0.014668185263872147,0.7780463099479675,-6.0255833965967134e-43,-0.04630432277917862
8190.0,8190.0,2.4658,-0.2327,9.1831,-0.0512,-0.16,-0.128,-1.433007926946022,-0.16537435352802277,1.0754821300506592,-1.2266687154769897,-1.8410168968454179e-28,1.9282206296920776,3.8424274164387207,-4.701666330220178e-05,0.27715954184532166,-1.5829780737506312,0.0,0.02056180313229561,0.8805127143859863,1.2552097655393317e-32,0.006669636815786362,0.7781022191047668,0.0,-0.07859829068183899
8190.0,8190.0,2.4658,-0.2327,9.1831,-0.0512,-0.16,-0.128,-1.434407652621605,-0.16354596614837646,1.175688624382019,-1.2266325950622559,0.00016071944264695048,1.8888061046600342,3.842379255885742,-4.215940862195566e-05,0.28503069281578064,-1.5830262343036097,0.0,0.007267926819622517,0.8805524706840515,2.281281614004184e-37,0.013090870343148708,0.7780742645263672,0.0,-0.0411229133605957
8190.0,8190.0,2.4658,-0.2327,9.1831,-0.0512,-0.16,-0.128,-1.435888023381569,-0.18163511157035828,1.198073148727417,-1.2266684770584106,3.6706214956439e-08,1.8937405347824097,3.8424030977436523,-5.284341023070738e-05,0.2839813232421875,-1.5830300490008753,0.0,-0.00038866838440299034,0.8805365562438965,4.146442155937134e-42,0.01203659363090992,0.7781463861465454,0.0,-0.07437091320753098
8190.0,8190.0,2.4658,-0.2327,9.1831,-0.0512,-0.16,-0.128,-1.4370084267905732,-0.19442564249038696,1.1185059547424316,-1.2267364263534546,8.864117800226959e-14,1.9092507362365723,3.8423830705830078,-5.432969919638708e-05,0.27610650658607483,-1.5829899946795862,0.0,-0.008478973992168903,0.880536675453186,1.401298464324817e-45,0.0013260780833661556,0.7781063914299011,0.0,-0.0525040477514267
8190.0,8190.0,2.4658,-0.2327,9.1831,-0.0512,-0.16,-0.128,-1.4384916585734864,-0.18876172602176666,1.1508654356002808,-1.2266566753387451,2.8718612268590074e-21,1.9070453643798828,3.8424479204365234,5.037690425524488e-05,0.2819506824016571,-1.5829938093768519,0.0,0.0077806394547224045,0.8805643916130066,0.0,-0.007287374697625637,0.7780583500862122,0.0,-0.07209251075983047
8190.0,8190.0,2.4658,-0.2327,9.1831,-0.0512,-0.16,-0.128,-1.4396238786033173,-0.17829091846942902,1.1145941019058228,-1.2266364097595215,6.93520747774835e-27,1.9263505935668945,3.842415972346924,4.5763201342197135e-05,0.27588555216789246,-1.583005730305807,0.0,0.006146029569208622,0.880480945110321,0.0,-0.004016869235783815,0.778118371963501,0.0,-0.052173830568790436
8190.0,8190.0,2.4658,-0.2327,9.1831,-0.0512,-0.16,-0.128,-1.441116289501526,-0.1800631582736969,1.118947982788086,-1.2267488241195679,-0.0001557074283482507,1.8806562423706055,3.842391176814697,3.8027519622119144e-05,0.26984935998916626,-1.5829981009112757,0.0,0.00412901584059,0.8805246949195862,0.0,-0.009401140734553337,0.7781064510345459,0.0,-0.01978052221238613
8190.0,8190.0,2.4658,-0.2327,9.1831,-0.0512,-0.16,-0.128,-1.4422686410001297,-0.19253262877464294,1.1372617483139038,-1.2267006635665894,-0.000326692737871781,1.9164211750030518,3.842391176814697,3.3748787245713174e-05,0.283688485622406,-1.5830219427691858,0.0,0.012126030400395393,0.8806006908416748,0.0,-0.001972306054085493,0.7781423330307007,0.0,-0.0451909638941288
8190.0,8190.0,2.9982,-0.344,8.5998,-0.0612,-0.2065,-0.1283,-1.4438039672425766,-0.20256228744983673,1.1031590700149536,-1.2266886234283447,-0.0002934946387540549,1.8616299629211426,3.8424240785786132,2.9346352675929666e-05,0.2746763825416565,-1.5829737822162073,0.0,0.018628697842359543,0.8805848956108093,0.0,0.009988650679588318,0.7780823111534119,0.0,-0.09902196377515793
8190.0,8190.0,2.9982,-0.344,8.5998,-0.0612,-0.2065,-0.1283,-1.4454046946815033,-0.19749301671981812,1.156632900238037,-1.2266845703125,-0.00015889004862401634,1.9190566539764404,3.8424116808125,2.5960114726331085e-05,0.2707693576812744,-1.5830019156085413,0.0,0.010565686970949173,0.8805484771728516,0.0,-0.004032323136925697,0.7781303524971008,0.0,-0.10055597126483917
8190.0,8190.0,2.9982,-0.344,8.5998,-0.0612,-0.2065,-0.1283,-1.4465970334461709,-0.20236895978450775,1.0709962844848633,-1.22664475440979,-0.00012561508629005402,1.9110243320465088,3.842367334956787,2.3892422177596018e-05,0.26895588636398315,-1.5830262343036097,0.0,0.006534057669341564,0.8805444836616516,0.0,0.0014095520600676537,0.7781144380569458,0.0,-0.07127645611763
8190.0,8190.0,2.9982,-0.344,8.5998,-0.0612,-0.2065,-0.1283,-1.4481562984040757,-0.20939870178699493,1.16217041015625,-1.2266764640808105,-9.819886327022687e-05,1.8636164665222168,3.842379255885742,2.159877840313129e-05,0.28477153182029724,-1.5830343405352991,0.0,0.010854887776076794,0.8805768489837646,0.0,-0.007338336668908596,0.7781464457511902,0.0,-0.05910870432853699
8190.0,8190.0,2.9982,-0.344,8.5998,-0.0612,-0.2065,-0.1283,-1.4493809056333085,-0.2043982744216919,1.1442205905914307,-1.2266407012939453,-4.220151822664775e-05,1.882126808166504,3.8424240785786132,2.014812889683526e-05,0.2814132571220398,-1.5829938093768519,0.0,0.0024346213322132826,0.8805127739906311,0.0,0.0011704983189702034,0.7781022191047668,0.0,-0.03521168231964111
8190.0,8190.0,2.9982,-0.344,8.5998,-0.0612,-0.2065,-0.1283,-1.4510287803462525,-0.20230497419834137,1.1232719421386719,-1.226712703704834,-3.5529956221580505e-05,1.8552846908569336,3.842391176814697,1.849216096161399e-05,0.2756369709968567,-1.5830100218402308,0.0,0.006146696396172047,0.880520761013031,0.0,-0.006751456763595343,0.7780742645263672,0.0,-0.034657590091228485
8190.0,8190.0,2.9982,-0.344,8.5998,-0.0612,-0.2065,-0.1283,-1.452648640876152,-0.2074897438287735,1.1884355545043945,-1.2266684770584106,-6.136867887107655e-05,1.9194583892822266,3.8424078661152343,1.708771196717862e-05,0.280317097902298,-1.5829861799823206,0.0,0.015343034639954567,0.8805564641952515,0.0,-0.014321825467050076,0.7781063914299011,0.0,-0.12450305372476578
8190.0,8190.0,2.9982,-0.344,8.5998,-0.0612,-0.2065,-0.1283,-1.4538083013943215,-0.21064665913581848,1.1605406999588013,-1.2266845703125,-8.35106911836192e-05,1.91658353805542,3.8423873621174316,1.6166852219612338e-05,0.27117690443992615,-1.5829818884478968,0.0,0.01137549988925457,0.8805286288261414,0.0,-0.0044205933809280396,0.7781144380569458,0.0,-0.016034534201025963
8190.0,8190.0,2.9982,-0.344,8.5998,-0.0612,-0.2065,-0.1283,-1.4554641929319878,-0.21480947732925415,1.180983066558838,-1.2267086505889893,3.18546881317161e-05,1.8820021152496338,3.8423711496540527,1.5083078324096277e-05,0.277304470539093,-1.582961384450094,0.0,0.014347141608595848,0.8806165456771851,0.0,-0.008162792772054672,0.7780782580375671,0.0,-0.05056651681661606
8190.0,8190.0,2.9982,-0.344,8.5998,-0.0612,-0.2065,-0.1283,-1.4567614954761048,-0.21167421340942383,1.190500259399414,-1.2266366481781006,5.670831887982786e-05,1.922426462173462,3.8424312311359863,1.4361049579747487e-05,0.26434025168418884,-1.583050552998678,0.0,0.012742195278406143,0.8805566430091858,0.0,-0.0013365582562983036,0.7780702710151672,0.0,-0.1126638799905777
8190.0,8190.0,2.9982,-0.344,8.5998,-0.0612,-0.2065,-0.1283,-1.4583609265140076,-0.20597557723522186,1.2049835920333862,-1.2266323566436768,5.128153134137392e-05,1.8980371952056885,3.8424312311359863,1.3499417036655359e-05,0.28090375661849976,-1.5829904715167444,0.0,0.00033588800579309464,0.8805445432662964,0.0,-0.007162437774240971,0.7780782580375671,0.0,-0.07685089111328125
8190.0,8190.0,2.9982,-0.344,8.5998,-0.0612,-0.2065,-0.1283,-1.4600090023926278,-0.20034028589725494,1.221599817276001,-1.226760983467102,4.603534398484044e-05,1.9196410179138184,3.8423992830463867,1.273532870982308e-05,0.27958786487579346,-1.5829861799823206,0.0,0.0064703356474637985,0.8805286884307861,0.0,-0.010460575111210346,0.7781263589859009,0.0,-0.05725866183638573
8190.0,8190.0,2.9982,-0.344,8.5998,-0.0612,-0.2065,-0.1283,-1.4612091046622773,-0.20275697112083435,1.181394338607788,-1.2266685962677002,4.2754960304591805e-05,1.909703254699707,3.8424312311359863,1.2216718459967524e-05,0.2896592915058136,-1.5829780737506312,0.0,0.014926810748875141,0.8806012272834778,0.0,-0.00975535437464714,0.7780702710151672,0.0,-0.06470344960689545
8190.0,8190.0,3.7998,-0.4911,8.3719,-0.064,-0.2219,-0.1199,-1.4629091632417222,-0.20844200253486633,1.206037998199463,-1.2266161441802979,3.90452187275514e-05,1.930206537246704,3.842484160060547,1.158756003860617e-05,0.28454673290252686,-1.5830100218402308,0.0,0.002378726378083229,0.8806006908416748,0.0,-0.006840545684099197,0.7780702710151672,0.0,-0.06434530019760132
8190.0,8190.0,3.7998,-0.4911,8.3719,-0.064,-0.2219,-0.1199,-1.464188167159893,-0.20013634860515594,1.2145767211914062,-1.2266647815704346,5.473841156344861e-05,1.8979517221450806,3.8424197870441894,1.944467112480197e-05,0.2689509093761444,-1.5830343405352991,0.0,-0.004253401421010494,0.8805365562438965,0.0,0.002697019837796688,0.7780902981758118,0.0,-0.07204755395650864
8190.0,8190.0,3.7998,-0.4911,8.3719,-0.064,-0.2219,-0.1199,-1.4657868456891556,-0.1951824575662613,1.2285610437393188,-1.2266485691070557,5.0847163947764784e-05,1.9269660711288452,3.8424197870441894,2.1259093045955524e-05,0.27252206206321716,-1.5830023924456995,0.0,-0.00034654466435313225,0.8805122375488281,0.0,-0.009829752147197723,0.7780583500862122,0.0,-0.051441967487335205
8190.0,8190.0,3.7998,-0.4911,8.3719,-0.064,-0.2219,-0.1199,-1.467001424436905,-0.20421917736530304,1.2077497243881226,-1.2266566753387451,6.081225728848949e-05,1.9534175395965576,3.8423749643513183,2.053167554549873e-05,0.27116042375564575,-1.5829818884478968,0.0,0.015186373144388199,0.8805851936340332,0.0,-0.010685080662369728,0.7780182957649231,-6.799323455197737e-05,-0.08612558245658875
8190.0,8190.0,3.7998,-0.4911,8.3719,-0.064,-0.2219,-0.1199,-1.4686996576241036,-0.21279139816761017,1.2479594945907593,-1.2266690731048584,7.117395580280572e-05,1.8985400199890137,3.8423749643513183,6.570273853867548e-07,0.2650161385536194,-1.5830100218402308,0.0,0.008218755945563316,0.8805487751960754,0.0,0.006755286827683449,0.7781304121017456,-8.88159847818315e-05,-0.06019587814807892
8190.0,8190.0,3.7998,-0.4911,8.3719,-0.064,-0.2219,-0.1199,-1.4703738999417801,-0.19641990959644318,1.2321453094482422,-1.2266647815704346,9.574475552653894e-05,1.9110217094421387,3.842423124904297,1.1941147723404377e-11,0.264494925737381,-1.5829981009112757,0.0,0.01374896802008152,0.8805768489837646,0.0,-0.008850887417793274,0.7780902981758118,-7.84883086453192e-05,-0.1057514026761055
8190.0,8190.0,3.7998,-0.4911,8.3719,-0.064,-0.2219,-0.1199,-1.4716414374164124,-0.19680948555469513,1.2911605834960938,-1.2267006635665894,8.867128053680062e-05,1.9261343479156494,3.842418833369873,3.323862317111334e-15,0.2649407386779785,-1.5830023924456995,0.0,0.014943428337574005,0.8805974125862122,0.0,-0.012691451236605644,0.7780941724777222,-7.219242979772389e-05,-0.04974208027124405
8190.0,8190.0,3.7998,-0.4911,8.3719,-0.064,-0.2219,-0.1199,-1.4732674223235627,-0.20751960575580597,1.2492984533309937,-1.226712942123413,-5.065400182502344e-05,1.8545249700546265,3.842423124904297,6.040955589672167e-20,0.2699695825576782,-1.5829694906817835,0.0,0.016798261553049088,0.8805647492408752,0.0,-0.01432173140347004,0.7781102061271667,-6.521728209918365e-05,-0.059388741850852966
8190.0,8190.0,3.7998,-0.4911,8.3719,-0.064,-0.2219,-0.1199,-1.4744420808604737,-0.21310141682624817,1.2619072198867798,-1.22664475440979,-8.516288653481752e-05,1.903486967086792,3.8423430162617187,1.681522021617177e-23,0.2681637406349182,-1.5829818884478968,0.0,0.010365931317210197,0.8805974125862122,0.0,-0.005665670149028301,0.778134286403656,-6.081067840568721e-05,-0.07290643453598022
8190.0,8190.0,3.7998,-0.4911,8.3719,-0.064,-0.2219,-0.1199,-1.4761889067343255,-0.20531171560287476,1.260878086090088,-1.2266688346862793,-4.307068138587056e-06,1.8841074705123901,3.842415972346924,3.0560836913468945e-28,0.2614609897136688,-1.5829861799823206,7.363166218965489e-07,0.009536988101899624,0.8805045485496521,0.0,-0.018088527023792267,0.778110146522522,-5.578504715231247e-05,-0.09955362975597382
8190.0,8190.0,3.7998,-0.4911,8.3719,-0.064,-0.2219,-0.1199,-1.477747955625393,-0.20357847213745117,1.2011598348617554,-1.2266688346862793,-1.3954354165235383e-13,1.9047598838806152,3.842391176814697,5.5542817046383424e-33,0.27691954374313354,-1.582949463521139,1.3382192923239167e-11,0.019920112565159798,0.880556583404541,0.0,-0.015196451917290688,0.7780902981758118,-6.870187644381076e-05,-0.07998359203338623
8190.0,8190.0,3.7998,-0.4911,8.3719,-0.064,-0.2219,-0.1199,-1.4789988857558747,-0.21084360778331757,1.1963529586791992,-1.2266201972961426,-3.3698115479067418e-19,1.9157207012176514,3.842391176814697,1.546054703242461e-36,0.2661774754524231,-1.5829575697528284,3.724982392580133e-15,0.019285527989268303,0.8805205225944519,0.0,-0.027518432587385178,0.7780663371086121,-6.498198490589857e-05,-0.10258743166923523
8190.0,8190.0,3.7998,-0.4911,8.3719,-0.064,-0.2219,-0.1199,-1.4806813162616272,-0.20716920495033264,1.2373508214950562,-1.2266446352005005,-1.0917761742920917e-26,1.8720223903656006,3.842439814204834,2.809883680664123e-41,0.2725672125816345,-1.5829985777484339,6.769973127969878e-20,0.01483185775578022,0.8805525302886963,0.0,-0.006264966446906328,0.7780423760414124,-5.2396753744687885e-05,-0.08788342028856277
8190.0,8190.0,3.2512,-0.3721,8.7332,-0.0574,-0.1791,-0.1145,-1.4818277594498177,-0.2004815638065338,1.2835568189620972,-1.2266767024993896,-2.636510695861142e-32,1.8859734535217285,3.842407389278076,8.407790785948902e-45,0.26450029015541077,-1.5829818884478968,1.8844468653822385e-23,0.02662517875432968,0.8805246353149414,0.0,-0.008623076602816582,0.7780942916870117,-7.223882857942954e-05,-0.09839600324630737
8190.0,8190.0,3.2512,-0.3721,8.7332,-0.0574,-0.1791,-0.1145,-1.4834299695542832,-0.20261801779270172,1.2238211631774902,-1.2266688346862793,-8.541965113908004e-40,1.8947076797485352,3.842407389278076,0.0,0.25536224246025085,-1.5830023924456995,3.424889164564842e-28,0.023143967613577843,0.8805851340293884,0.0,-0.01318771205842495,0.7780623435974121,-4.3559739424381405e-05,-0.14463025331497192
8190.0,8190.0,3.2512,-0.3721,8.7332,-0.0574,-0.1791,-0.1145,-1.4851216909340401,-0.2064424455165863,1.2796663045883179,-1.2267086505889893,-0.0,1.8736605644226074,3.842354937190674,0.0,0.26946842670440674,-1.5829575697528284,6.224567317918427e-33,0.011532235890626907,0.8805441856384277,0.0,-0.028054911643266678,0.7780263423919678,-3.968615419580601e-05,-0.10100556910037994
8190.0,8190.0,3.2512,-0.3721,8.7332,-0.0574,-0.1791,-0.1145,-1.4863401365331192,-0.20867088437080383,1.258577823638916,-1.2266566753387451,-0.0,1.89089035987854,3.8424312311359863,0.0,0.25536009669303894,-1.582949463521139,1.732631248687864e-36,0.02108246460556984,0.8805406093597412,0.0,-0.007882924750447273,0.778050422668457,-5.583486199611798e-05,-0.08260117471218109
8190.0,8190.0,3.2512,-0.3721,8.7332,-0.0574,-0.1791,-0.1145,-1.4879586038044472,-0.2117445021867752,1.2537944316864014,-1.2266607284545898,-0.0,1.8415778875350952,3.8424436289020996,0.0,0.27177467942237854,-1.582961384450094,3.148997909030729e-41,0.021881265565752983,0.8805487751960754,0.0,-0.008146025240421295,0.7780822515487671,-5.1570183131843805e-05,-0.12175887078046799
8190.0,8190.0,3.2512,-0.3721,8.7332,-0.0574,-0.1791,-0.1145,-1.4892213878086586,-0.20946606993675232,1.282961130142212,-1.2266807556152344,-0.0,1.88081693649292,3.8424436289020996,0.0,0.2692592740058899,-1.583010498677389,8.407790785948902e-45,0.02348710224032402,0.88056480884552,0.0,-0.010809972882270813,0.7780299186706543,-7.573331095045432e-05,-0.09174153208732605
8190.0,8190.0,3.2512,-0.3721,8.7332,-0.0574,-0.1791,-0.1145,-1.4908596885255356,-0.2013188749551773,1.2504945993423462,-1.2267006635665894,-0.0,1.8846139907836914,3.84243552267041,0.0,0.25574588775634766,-1.5829780737506312,0.0,0.02800704911351204,0.8805205225944519,0.0,-0.0063399989157915115,0.7780423164367676,-0.0002010096504818648,-0.09013786911964417
8190.0,8190.0,3.2512,-0.3721,8.7332,-0.0574,-0.1791,-0.1145,-1.4920783948949357,-0.20495274662971497,1.2935270071029663,-1.226712703704834,-0.0,1.8768954277038574,3.8424436289020996,0.0,0.2554355263710022,-1.5829656759845179,0.0,0.016285525634884834,0.880609393119812,0.0,-0.026334049180150032,0.7780822515487671,-0.00021110597299411893,-0.09370076656341553
8190.0,8190.0,3.2512,-0.3721,8.7332,-0.0574,-0.1791,-0.1145,-1.4937730443528672,-0.21061491966247559,1.3038564920425415,-1.2266488075256348,-0.0,1.9108237028121948,3.842394991511963,0.0,0.2606053948402405,-1.582949463521139,0.0,0.02474566549062729,0.880556583404541,0.0,-0.022336309775710106,0.7780503034591675,-0.00021274806931614876,-0.1134471595287323
8190.0,8190.0,3.2512,-0.3721,8.7332,-0.0574,-0.1791,-0.1145,-1.4954515111497422,-0.202094167470932,1.303363561630249,-1.2266688346862793,-0.0,1.8789831399917603,3.842407389278076,0.0,0.2603492736816406,-1.5829780737506312,0.0,0.03572339564561844,0.8805081248283386,0.0,-0.006929505616426468,0.7780423164367676,-0.00028475516592152417,-0.13952124118804932
8190.0,8190.0,3.2512,-0.3721,8.7332,-0.0574,-0.1791,-0.1145,-1.4967185792377968,-0.19843149185180664,1.3407742977142334,-1.2266688346862793,-0.0,1.8771147727966309,3.842394991511963,0.0,0.2578766942024231,-1.5829375425921839,0.0,0.023845642805099487,0.8805282115936279,0.0,-0.016079120337963104,0.7780542969703674,-0.0002745708334259689,-0.10673880577087402
8190.0,8190.0,3.2512,-0.3721,8.7332,-0.0574,-0.1791,-0.1145,-1.4983693596771737,-0.2055353820323944,1.3518260717391968,-1.2266688346862793,-0.0,1.9231700897216797,3.842407389278076,0.0,0.2533267140388489,-1.5829418341266077,0.0,0.03131873160600662,0.8805281519889832,0.0,-0.019852042198181152,0.778086245059967,-0.00017718262097332627,-0.1251995861530304
8190.0,8190.0,3.2512,-0.3721,8.7332,-0.0574,-0.1791,-0.1145,-1.4996643599918862,-0.2093546986579895,1.294602632522583,-1.2266323566436768,-0.0,1.9159667491912842,3.842371626491211,0.0,0.25588205456733704,-1.582966152821676,0.0,0.02372516691684723,0.8805285692214966,0.0,-0.008086098358035088,0.7780382633209229,-0.00015391215856652707,-0.11702825129032135
1022.0,8190.0,3.1059,-0.3601,8.6925,-0.0574,-0.1816,-0.1216,-1.5013388407281418,-0.19631744921207428,1.327035665512085,-1.2266489267349243,-0.0,1.8631832599639893,3.8423711496540527,0.0,0.2665206491947174,-1.5829694906817835,0.0,0.034169018268585205,0.8805528283119202,0.0,-0.021022487431764603,0.7781224250793457,-6.364782893797383e-05,-0.1032341718673706
1022.0,8190.0,3.1059,-0.3601,8.6925,-0.0574,-0.1816,-0.1216,-1.5028925475529213,-0.1921965330839157,1.3157894611358643,-1.2266242504119873,-0.0,1.8676471710205078,3.842407389278076,0.0,0.25912341475486755,-1.58299428621401,0.0,0.023122787475585938,0.8805249333381653,0.0,-0.02115166187286377,0.7780583500862122,-1.7194620727245535e-11,-0.14273038506507874
1022.0,8190.0,3.1059,-0.3601,8.6925,-0.0574,-0.1816,-0.1216,-1.5041035276702424,-0.20123818516731262,1.3292264938354492,-1.2266528606414795,0.00016871411935426295,1.8693034648895264,3.8424035745808105,0.0,0.24993838369846344,-1.5830023924456995,0.0,0.025625595822930336,0.8805488348007202,0.0,-0.01323654968291521,0.778054416179657,-4.1522984442504294e-17,-0.10388938337564468
1022.0,8190.0,3.1059,-0.3601,8.6925,-0.0574,-0.1816,-0.1216,-1.5057021987489243,-0.205928236246109,1.3676166534423828,-1.2266526222229004,0.00012274070468265563,1.9300607442855835,3.8423749643513183,0.0,0.25075411796569824,-1.5829694906817835,0.0,0.02095203846693039,0.8805126547813416,0.0,-0.012906840071082115,0.7780902981758118,-1.3452918333277047e-24,-0.1041046530008316
1022.0,8190.0,3.1059,-0.3601,8.6925,-0.0574,-0.1816,-0.1216,-1.5068731543472786,-0.20149464905261993,1.3082373142242432,-1.2266005277633667,0.00010189306340180337,1.881859302520752,3.842362566585205,0.0,0.2480745166540146,-1.5829456488238733,0.0,0.036507826298475266,0.8806092739105225,0.0,-0.023547276854515076,0.7780583500862122,-3.2487214486104974e-30,-0.11202971637248993
1022.0,8190.0,3.1059,-0.3601,8.6925,-0.0574,-0.1816,-0.1216,-1.5085357216051598,-0.20182013511657715,1.2909774780273438,-1.2265803813934326,8.30795252113603e-05,1.896257996559143,3.8424312311359863,0.0,0.2477462738752365,-1.5829618612872522,0.0,0.02044699341058731,0.8805167078971863,0.0,-0.013125200755894184,0.7781184315681458,-1.052544311458551e-37,-0.1421443521976471
1022.0,8190.0,3.1059,-0.3601,8.6925,-0.0574,-0.1816,-0.1216,-1.5101101671210309,-0.2098287045955658,1.30094313621521,-1.2267087697982788,7.01310345903039e-05,1.8962202072143555,3.842439814204834,0.0,0.24985644221305847,-1.5829981009112757,0.0,0.03359420597553253,0.8805245757102966,0.0,-0.020872054621577263,0.7780863046646118,-2.802596928649634e-45,-0.14497479796409607
1022.0,8190.0,3.1059,-0.3601,8.6925,-0.0574,-0.1816,-0.1216,-1.5113453802517434,-0.2106008678674698,1.3236562013626099,-1.226652979850769,6.279129593167454e-05,1.8647212982177734,3.842415972346924,0.0,0.24675782024860382,-1.582966152821676,0.0,0.04399433359503746,0.8805525898933411,0.0,-0.013176159001886845,0.7781062126159668,0.0,-0.12718525528907776
1022.0,8190.0,3.1059,-0.3601,8.6925,-0.0574,-0.1816,-0.1216,-1.5130279187909146,-0.20528091490268707,1.3099775314331055,-1.2266323566436768,5.510240953299217e-05,1.8631585836410522,3.842407389278076,0.0,0.24727828800678253,-1.5829985777484339,0.0,0.028666481375694275,0.8805049061775208,0.0,-0.02735893428325653,0.7780623435974121,0.0,-0.1155688464641571
1022.0,8190.0,3.1059,-0.3601,8.6925,-0.0574,-0.1816,-0.1216,-1.5142265383950253,-0.2076725959777832,1.318259835243225,-1.2266488075256348,5.046752266935073e-05,1.8710308074951172,3.842418833369873,0.0,0.2511484622955322,-1.5829456488238733,5.7839129041781234e-09,0.027783019468188286,0.8805611729621887,0.0,-0.02184562012553215,0.7780583500862122,0.0,-0.08882726728916168
1022.0,8190.0,3.1059,-0.3601,8.6925,-0.0574,-0.1816,-0.1216,-1.5159053926220913,-0.21530914306640625,1.3119447231292725,-1.2266528606414795,2.268932803417556e-05,1.841728925704956,3.842439814204834,0.0,0.2550458312034607,-1.5829537550555628,1.0511975675770585e-13,0.04460699111223221,0.8805528283119202,0.0,-0.027720285579562187,0.7780623435974121,0.0,-0.13969098031520844
1022.0,8190.0,3.1059,-0.3601,8.6925,-0.0574,-0.1816,-0.1216,-1.517575641428568,-0.22161923348903656,1.322807788848877,-1.226576328277588,1.3311729496479074e-09,1.834979772567749,3.842456026668213,0.0,0.23869380354881287,-1.5829537550555628,1.9104995629394786e-18,0.033529914915561676,0.8805932998657227,0.0,-0.024496745318174362,0.7780822515487671,0.0,-0.1516270786523819
1022.0,8190.0,3.1059,-0.3601,8.6925,-0.0574,-0.1816,-0.1216,-1.5189145927182217,-0.2237335741519928,1.2760722637176514,-1.2266048192977905,3.2146264071345777e-15,1.8358464241027832,3.8424035745808105,0.0,0.2228911817073822,-1.582926098500387,5.317945369793765e-22,0.05214904993772507,0.8804680705070496,0.0,-0.021555477753281593,0.7780503034591675,0.0,-0.13233788311481476
1071.0,8190.0,3.3063,-0.655,8.5358,-0.066,-0.2216,-0.1257,-1.5206893321922799,-0.2219945192337036,1.3034474849700928,-1.2266528606414795,1.0414981539568549e-22,1.86464262008667,3.8424436289020996,0.0,0.22453054785728455,-1.5829499403582972,9.665103010724437e-27,0.04787083715200424,0.8804966807365417,0.0,-0.03622807562351227,0.7780623435974121,-0.0007011389243416488,-0.18435269594192505
1071.0,8190.0,3.3063,-0.655,8.5358,-0.066,-0.2216,-0.1257,-1.5219884824803849,-0.216850146651268,1.3047994375228882,-1.2266650199890137,2.515095988499596e-28,1.8816947937011719,3.8424274164387207,0.0,0.22954097390174866,-1.5829499403582972,2.6903166810659354e-30,0.05154559761285782,0.8805487751960754,0.0,-0.019937172532081604,0.7780222296714783,-0.0009651583968661726,-0.1788216233253479
1071.0,8190.0,3.3063,-0.655,8.5358,-0.066,-0.2216,-0.1257,-1.5237104904702683,-0.2208753526210785,1.293485403060913,-1.2266168594360352,8.148590837761482e-36,1.787987232208252,3.8424312311359863,0.0,0.23067957162857056,-1.5829456488238733,4.889516965880788e-35,0.04255568981170654,0.8805569410324097,0.0,-0.03179433196783066,0.7780342698097229,-0.0012570908293128014,-0.19994600117206573
1071.0,8190.0,3.3063,-0.655,8.5358,-0.066,-0.2216,-0.1257,-1.5251008954695244,-0.22510012984275818,1.212299108505249,-1.226681113243103,1.9678434334513406e-41,1.8595640659332275,3.842354937190674,0.0,0.22929058969020844,-1.5829456488238733,1.3610149169813323e-38,0.05588727444410324,0.8805126547813416,-9.434369530936237e-06,-0.024659033864736557,0.7780103087425232,-0.001466762856580317,-0.16399697959423065
1071.0,8190.0,3.3063,-0.655,8.5358,-0.066,-0.2216,-0.1257,-1.5269275617650528,-0.21803666651248932,1.286008358001709,-1.226628303527832,-0.0,1.8209458589553833,3.8424116808125,0.0,0.22356513142585754,-1.5829504171954554,0.00014244852354750037,0.047030046582221985,0.8804640769958496,-5.652934487443417e-05,-0.03315342217683792,0.7779945135116577,-0.002203867305070162,-0.18522809445858002
1071.0,8190.0,3.3063,-0.655,8.5358,-0.066,-0.2216,-0.1257,-1.5287822124413033,-0.2246461808681488,1.2581331729888916,-1.2266647815704346,-0.0,1.817925214767456,3.842371626491211,0.0,0.23326639831066132,-1.5829179922686976,0.00015172554412856698,0.04090992361307144,0.8805126547813416,-6.457856943598017e-05,-0.03557034581899643,0.7780267596244812,-0.0029989853501319885,-0.16043215990066528
1071.0,8190.0,3.3063,-0.655,8.5358,-0.066,-0.2216,-0.1257,-1.5301687766662617,-0.2365507036447525,1.2556287050247192,-1.2266569137573242,-0.0,1.8291254043579102,3.842367334956787,0.0,0.2156011164188385,-1.5829418341266077,0.00016324821626767516,0.05350448191165924,0.8804439306259155,-6.235321052372456e-05,-0.04410233348608017,0.7779902219772339,-0.0036129357758909464,-0.20842522382736206
1071.0,8190.0,3.3063,-0.655,8.5358,-0.066,-0.2216,-0.1257,-1.5321195174804707,-0.23527081310749054,1.2275193929672241,-1.2266364097595215,-0.0,1.8352969884872437,3.842415972346924,0.0,0.2116185426712036,-1.5828941504107874,0.00027115087141282856,0.05506029725074768,0.8805007934570312,-6.953094998607412e-05,-0.03834984824061394,0.777890145778656,-0.0041542137041687965,-0.20984216034412384
1071.0,8190.0,3.3063,-0.655,8.5358,-0.066,-0.2216,-0.1257,-1.5335454058698197,-0.2325861006975174,1.2450354099273682,-1.2266169786453247,-0.0,1.7855029106140137,3.842407389278076,0.0,0.2171584814786911,-1.582938019429342,0.0002563302987255156,0.04765506461262703,0.880448043346405,-1.9354192914988744e-08,-0.041971489787101746,0.7779144644737244,-0.0038687479682266712,-0.23001807928085327
1071.0,8190.0,3.3063,-0.655,8.5358,-0.066,-0.2216,-0.1257,-1.5354802806726475,-0.24413341283798218,1.2065646648406982,-1.22664475440979,-0.0,1.857114553451538,3.842415972346924,-0.00029275548877194524,0.2078843116760254,-1.5829303900348108,0.0002505079610273242,0.05170122906565666,0.8804562091827393,-0.00011885177082149312,-0.04070591926574707,0.7779103517532349,-0.0023733547423034906,-0.19311004877090454
1071.0,8190.0,3.3063,-0.655,8.5358,-0.066,-0.2216,-0.1257,-1.5374824863723298,-0.24682621657848358,1.2062608003616333,-1.2266608476638794,-0.0,1.7465600967407227,3.842379255885742,-0.00027896088431589305,0.2075994312763214,-1.5829303900348108,0.0002463447453919798,0.056283093988895416,0.8804641962051392,-0.0001736735866870731,-0.05272800475358963,0.7778902053833008,-0.001353854313492775,-0.24533498287200928
1071.0,8190.0,3.3063,-0.655,8.5358,-0.066,-0.2216,-0.1257,-1.5389290054193516,-0.24879153072834015,1.2499910593032837,-1.2265923023223877,-0.0,1.7602320909500122,3.842367334956787,-0.0003211335279047489,0.20792192220687866,-1.582926098500387,0.00022060757328290492,0.059551894664764404,0.8805286884307861,-0.00018676156469155103,-0.04664669930934906,0.7779061198234558,-0.0010345929767936468,-0.25669431686401367
1073.0,8190.0,3.7412,-0.6957,8.2325,-0.0806,-0.2625,-0.1232,-1.5409185358187933,-0.2587752342224121,1.2263391017913818,-1.226584792137146,-0.0,1.8029690980911255,3.8423754411884765,-0.0008232132531702518,0.2142786979675293,-1.582909886037008,0.00019350105139892548,0.06686936318874359,0.8804888725280762,-0.0001914145686896518,-0.044144004583358765,0.7778822183609009,-0.0007554733892902732,-0.2473754584789276
1073.0,8190.0,3.7412,-0.6957,8.2325,-0.0806,-0.2625,-0.1232,-1.5424780149808903,-0.26385557651519775,1.2346431016921997,-1.2266809940338135,-0.0,1.747429370880127,3.8423797327229003,-0.0014451447641476989,0.210205540060997,-1.582909886037008,0.00020225992193445563,0.05513042211532593,0.880521297454834,-0.00020026938000228256,-0.04679887741804123,0.7779182195663452,-0.0005555538809858263,-0.2508758008480072
1073.0,8190.0,3.7412,-0.6957,8.2325,-0.0806,-0.2625,-0.1232,-1.5446043827435751,-0.25925853848457336,1.234889030456543,-1.226592779159546,-0.0,1.7991085052490234,3.842351122493408,-0.001406571944244206,0.20216545462608337,-1.582886044179098,0.00018200860358774662,0.08261930197477341,0.8804686069488525,-0.00024628351093269885,-0.05676165223121643,0.7778621315956116,-0.00045678942115046084,-0.2534232437610626
1073.0,8190.0,3.7412,-0.6957,8.2325,-0.0806,-0.2625,-0.1232,-1.5466750928065558,-0.26225829124450684,1.2119723558425903,-1.2265652418136597,-0.0,1.8024852275848389,3.842395468349121,-0.0008976481622084975,0.201954185962677,-1.582909886037008,0.00016529401182197034,0.061843257397413254,0.8804888129234314,-0.00024025127640925348,-0.052431464195251465,0.777866005897522,-0.0004039487103000283,-0.296138197183609
1073.0,8190.0,3.7412,-0.6957,8.2325,-0.0806,-0.2625,-0.1232,-1.5481409572860976,-0.26088422536849976,1.2460182905197144,-1.2266451120376587,-0.0,1.7633841037750244,3.842327280635498,-0.0008486749138683081,0.2049320638179779,-1.582942310963766,0.00015464289754163474,0.06736061722040176,0.8804561495780945,-0.00024048799241427332,-0.04536157101392746,0.777866005897522,-0.00033897507819347084,-0.23116926848888397
1073.0,8190.0,3.7412,-0.6957,8.2325,-0.0806,-0.2625,-0.1232,-1.5502994426390906,-0.26787376403808594,1.2142415046691895,-1.2266608476638794,-0.0,1.76861572265625,3.842359705562256,-0.003063966054469347,0.2126120626926422,-1.5828898588763636,0.00014240786549635231,0.06692217290401459,0.8805012702941895,-0.00021559346350841224,-0.06170552596449852,0.7778500914573669,-0.0002789365826174617,-0.24260175228118896
1073.0,8190.0,3.7412,-0.6957,8.2325,-0.0806,-0.2625,-0.1232,-1.551934465100505,-0.26963189244270325,1.2124589681625366,-1.2266364097595215,-0.0,1.7401745319366455,3.8423682886311035,-0.006445134058594704,0.20036882162094116,-1.5829303900348108,0.00013443110219668597,0.05521879345178604,0.8804407119750977,-0.00021619957988150418,-0.0572076216340065,0.7778102159500122,-0.0002866859722416848,-0.2712388038635254
1073.0,8190.0,3.7412,-0.6957,8.2325,-0.0806,-0.2625,-0.1232,-1.5540321797928591,-0.26978999376296997,1.2523505687713623,-1.2266451120376587,-0.0,1.7586965560913086,3.8422438341328125,-0.006497599184513092,0.20418381690979004,-1.5829580465899866,0.0001039620692608878,0.07084926962852478,0.8804485201835632,-0.00019877171143889427,-0.054689787328243256,0.7778101563453674,-0.0007704656454734504,-0.30219462513923645
1073.0,8190.0,3.7412,-0.6957,8.2325,-0.0806,-0.2625,-0.1232,-1.5556424905410786,-0.27488312125205994,1.2242112159729004,-1.2265652418136597,-0.0,1.7663428783416748,3.842280073756836,-0.00280730496160686,0.20230385661125183,-1.5829456488238733,9.706849959911779e-05,0.07345752418041229,0.8804680705070496,-0.0001993424230022356,-0.05530405789613724,0.7778181433677673,-0.0018465908942744136,-0.23580852150917053
1073.0,8190.0,3.7412,-0.6957,8.2325,-0.0806,-0.2625,-0.1232,-1.5578889905339857,-0.26639044284820557,1.2010606527328491,-1.2265692949295044,-0.0,1.7153794765472412,3.8422605234333496,-0.00017754401778802276,0.20598402619361877,-1.582926098500387,0.00010715030657593161,0.0670919418334961,0.8804686069488525,-0.00019872223492711782,-0.053506165742874146,0.7778100967407227,-0.004087596200406551,-0.24136003851890564
1073.0,8190.0,3.7412,-0.6957,8.2325,-0.0806,-0.2625,-0.1232,-1.5600351153737684,-0.26588204503059387,1.236830472946167,-1.2266125679016113,0.0006544914795085788,1.7383203506469727,3.842303915614746,-9.892405068967491e-05,0.19039490818977356,-1.5828731695758265,9.933897672453895e-05,0.06467553973197937,0.8804768323898315,-0.00017663062317296863,-0.058439284563064575,0.7777620553970337,-0.004875245504081249,-0.2653939723968506
1073.0,8190.0,3.7412,-0.6957,8.2325,-0.0806,-0.2625,-0.1232,-1.56169812407855,-0.2727721631526947,1.212345004081726,-1.2266126871109009,0.0005972546059638262,1.8049228191375732,3.842240019435547,-7.436826854245737e-05,0.19222795963287354,-1.5828941504107874,9.414329542778432e-05,0.06624387949705124,0.8804406523704529,-0.00016084573871921748,-0.056511279195547104,0.7777940630912781,-0.004460652358829975,-0.2397059202194214
1073.0,8190.0,3.7412,-0.6957,8.2325,-0.0806,-0.2625,-0.1232,-1.5639193246937175,-0.26443052291870117,1.363971471786499,-1.2265448570251465,0.00039005099097266793,1.8014543056488037,3.8422714906879882,-7.5702059803006705e-06,0.18811185657978058,-1.582909886037008,8.800606156000867e-05,0.07747949659824371,0.8804972171783447,-0.0001660653215367347,-0.06120700389146805,0.777754008769989,-0.00409577926620841,-0.2493453323841095
1032.0,8190.0,4.7204,-0.3182,8.2331,-0.0594,-0.2827,-0.1226,-1.5655459652519603,-0.2681092321872711,1.274667501449585,-1.2265567779541016,0.00030953838722780347,1.8055543899536133,3.842263384456299,-2.10719441895435e-09,0.2013431191444397,-1.582954231892721,8.390381117351353e-05,0.06145596131682396,0.8805094957351685,-0.00015527333016507328,-0.05971882864832878,0.7776979804039001,-0.0031247104052454233,-0.2852047085762024
1032.0,8190.0,4.7204,-0.3182,8.2331,-0.0594,-0.2827,-0.1226,-1.567691894048341,-0.2765137553215027,1.2685859203338623,-1.226564884185791,0.00024273854796774685,1.7857015132904053,3.842259569759033,-3.829722251672864e-14,0.19592377543449402,-1.5828941504107874,7.899419142631814e-05,0.05282498896121979,0.8804325461387634,-0.00014134006050880998,-0.06716130673885345,0.7776381373405457,-0.001958223758265376,-0.28408196568489075
1032.0,8190.0,4.7204,-0.3182,8.2331,-0.0594,-0.2827,-0.1226,-1.569862443346512,-0.2679250240325928,1.3983181715011597,-1.2265567779541016,0.00019965562387369573,1.790648102760315,3.8423120218464355,-6.9603309098669995e-19,0.19939792156219482,-1.5829342047320765,7.462736539309844e-05,0.06377118825912476,0.8804607391357422,-0.0001296952978009358,-0.06619824469089508,0.7777180075645447,-0.001438865321688354,-0.24372237920761108
1032.0,8190.0,4.7204,-0.3182,8.2331,-0.0594,-0.2827,-0.1226,-1.571427961389059,-0.2726954221725464,1.3372955322265625,-1.2265732288360596,0.00017620096332393587,1.7666974067687988,3.8422714906879882,-1.9374336741984114e-22,0.19769197702407837,-1.5829461256610315,7.165664283093065e-05,0.0716162845492363,0.880460262298584,-0.0001221509010065347,-0.07583129405975342,0.7777299284934998,-0.0010548229329288006,-0.25294268131256104
1032.0,8190.0,4.7204,-0.3182,8.2331,-0.0594,-0.2827,-0.1226,-1.5736381016173304,-0.27577731013298035,1.345916509628296,-1.2265608310699463,0.00017921824473887682,1.7525913715362549,3.84225241720166,-3.5211896580888385e-27,0.20916146039962769,-1.5829504171954554,6.804461736464873e-05,0.06068068742752075,0.8804767727851868,-0.00012955178681295365,-0.07132023572921753,0.7777018547058105,-0.0007620481192134321,-0.31030839681625366
1032.0,8190.0,4.7204,-0.3182,8.2331,-0.0594,-0.2827,-0.1226,-1.575221677819723,-0.2694242298603058,1.3434937000274658,-1.2265610694885254,0.00019249603792559355,1.8311196565628052,3.8422276216694335,-9.801361234726896e-31,0.1981603354215622,-1.582914177571432,7.644622382940724e-05,0.06610368192195892,0.8804526329040527,-0.00012291780149098486,-0.07620629668235779,0.7776859402656555,-0.000565229682251811,-0.32083189487457275
1032.0,8190.0,4.7204,-0.3182,8.2331,-0.0594,-0.2827,-0.1226,-1.5773312054076136,-0.2683201730251312,1.3624080419540405,-1.2265689373016357,0.00016393304395023733,1.7814843654632568,3.8422719675251464,-1.7813489032024577e-35,0.2021895945072174,-1.5829384962665003,7.295093382708728e-05,0.05674032121896744,0.8804406523704529,-0.0001150604584836401,-0.058937206864356995,0.7776581048965454,-0.0004499459464568645,-0.2517276108264923
1032.0,8190.0,4.7204,-0.3182,8.2331,-0.0594,-0.2827,-0.1226,-1.5794044933714808,-0.2653694450855255,1.3745458126068115,-1.2265329360961914,0.00014875792840030044,1.7725884914398193,3.842263384456299,-3.2375179330221276e-40,0.18937861919403076,-1.5829461256610315,6.972164555918425e-05,0.05122366547584534,0.8804848790168762,-0.00010814731649588794,-0.07311555743217468,0.7776740193367004,-0.0003374488151166588,-0.28359296917915344
1032.0,8190.0,4.7204,-0.3182,8.2331,-0.0594,-0.2827,-0.1226,-1.5809837780394496,-0.2671809196472168,1.3992443084716797,-1.2265608310699463,0.00013740237045567483,1.7866169214248657,3.842259569759033,2.877681254176423e-05,0.1965651661157608,-1.5829342047320765,3.828590777743557e-08,0.05955951660871506,0.8804287910461426,-9.204229718307033e-05,-0.07394365966320038,0.7777220010757446,-0.00028416773420758545,-0.2454119622707367
