ramyac6/ROB537/final_project/csv/good/good_92.csv
tof_0,tof_1,accelx,accely,accelz,gyrox,gyroy,gyroz,shoulder_lift_joint_position,shoulder_lift_joint_velocity,shoulder_lift_joint_effort,elbow_joint_position,elbow_joint_velocity,elbow_joint_effort,wrist_1_joint_position,wrist_1_joint_velocity,wrist_1_joint_effort,wrist_2_joint_position,wrist_2_joint_velocity,wrist_2_joint_effort,wrist_3_joint_position,wrist_3_joint_velocity,wrist_3_joint_effort,shoulder_pan_joint_position,shoulder_pan_joint_velocity,shoulder_pan_joint_effort
158.0,140.0,-0.4636,-0.0275,9.4409,-0.0341,0.0202,-0.118,-2.1584917507567347,0.0,4.530312538146973,-1.2676112651824951,-0.0,2.0868873596191406,4.952585118799963,0.0,0.2755879759788513,-1.5070532003985804,-0.0,-0.020891914144158363,-0.19035083452333623,0.0,-0.0014439895749092102,1.2593717575073242,0.0,-0.04247081279754639
158.0,140.0,-0.4636,-0.0275,9.4409,-0.0341,0.0202,-0.118,-2.158476015130514,0.0,4.488709449768066,-1.2675917148590088,-0.0,2.0750961303710938,4.9525528130824945,0.0,0.2760714888572693,-1.5069931189166468,-0.0,-0.015298193320631981,-0.19033509889711553,0.0,0.010112909600138664,1.259387731552124,0.0,-0.00300295720808208
158.0,140.0,-0.4636,-0.0275,9.4409,-0.0341,0.0202,-0.118,-2.158544202844137,0.0,4.475389003753662,-1.2676318883895874,-0.0,2.088315725326538,4.9525528130824945,0.0,0.2692219614982605,-1.5069730917560022,-0.0,-0.012028585188090801,-0.19033891359438115,0.0,0.0037631713785231113,1.259347677230835,0.0,0.0006991066038608551
158.0,140.0,-0.4636,-0.0275,9.4409,-0.0341,0.0202,-0.118,-2.1585236988463343,0.0,4.491482734680176,-1.2676196098327637,-0.0,2.1305110454559326,4.952520417958059,0.0,0.2638765573501587,-1.5070088545428675,-0.0,-0.01410110853612423,-0.1903308073626917,0.0,0.011267153546214104,1.2594037055969238,0.0,-0.017824918031692505
158.0,140.0,-0.4636,-0.0275,9.4409,-0.0341,0.0202,-0.118,-2.158532281915182,0.0,4.474936485290527,-1.2675670385360718,-0.0,2.13472318649292,4.952532726317205,0.0,0.26492172479629517,-1.507000748311178,-0.0,-0.025465644896030426,-0.19032270113100225,0.0,0.005592939909547567,1.2593998908996582,0.0,0.05213503912091255
158.0,140.0,-0.4636,-0.0275,9.4409,-0.0341,0.0202,-0.118,-2.158531805078024,0.0,4.508021831512451,-1.2676433324813843,-0.0,2.032581090927124,4.95252080538825,0.0,0.25216859579086304,-1.507016960774557,-0.0,-0.02503896877169609,-0.1903470198260706,0.0,0.00668405881151557,1.2593636512756348,0.0,0.013399961404502392
158.0,140.0,-0.4636,-0.0275,9.4409,-0.0341,0.0202,-0.118,-2.158487936059469,0.0,4.518542289733887,-1.267587661743164,-0.0,2.1447572708129883,4.952540892153539,0.0,0.2696532607078552,-1.5069769064532679,-0.0,-0.013548800721764565,-0.1903904120074671,0.0,-0.005905628204345703,1.2593436241149902,0.0,-0.038226168602705
158.0,140.0,-0.4636,-0.0275,9.4409,-0.0341,0.0202,-0.118,-2.1585399113097132,0.0,4.4770684242248535,-1.26763916015625,-0.0,2.044522762298584,4.952528658300199,0.0,0.2605628967285156,-1.5069850126849573,-0.0,-0.018751434981822968,-0.19030648866762334,0.0,-0.012847109697759151,1.2593958377838135,0.0,-0.00958063080906868
156.0,144.0,-0.5174,-0.0431,9.6203,-0.0411,0.0235,-0.1133,-2.1585079632201136,0.0,4.488590717315674,-1.267622947692871,-0.0,2.0963735580444336,4.952520417958059,0.0,0.2685960531234741,-1.5070489088641565,-0.0,-0.00790396798402071,-0.19038278261293584,0.0,-0.01586977206170559,1.2593395709991455,0.0,-0.02186964638531208
156.0,144.0,-0.5174,-0.0431,9.6203,-0.0411,0.0235,-0.1133,-2.158531805078024,0.0,4.4677934646606445,-1.2676072120666504,-0.0,2.085948944091797,4.952572810440817,0.0,0.25953730940818787,-1.5070331732379358,-0.0,-0.012129586189985275,-0.1903908888446253,0.0,0.004918078891932964,1.2593958377838135,0.0,0.060851387679576874
156.0,144.0,-0.5174,-0.0431,9.6203,-0.0411,0.0235,-0.1133,-2.1584960422911585,0.0,4.4598917961120605,-1.2676277160644531,-0.0,2.116295099258423,4.952548730164327,0.0,0.2575905919075012,-1.5070050398456019,-0.0,-0.022916002199053764,-0.19035894075502569,0.0,0.006859094835817814,1.259375810623169,0.0,0.0270828977227211
156.0,144.0,-0.5174,-0.0431,9.6203,-0.0411,0.0235,-0.1133,-2.1585809193053187,0.0,4.516165256500244,-1.2675834894180298,-0.0,2.0951173305511475,4.9525568810995,0.0,0.2736189067363739,-1.507012669240133,-0.0,-0.026887666434049606,-0.19035464922060186,0.0,5.065219011157751e-05,1.2593717575073242,0.0,-0.006030919495970011
156.0,144.0,-0.5174,-0.0431,9.6203,-0.0411,0.0235,-0.1133,-2.1585360966124476,0.0,4.470147609710693,-1.2676310539245605,-0.0,2.1483631134033203,4.95256473401145,0.0,0.26499658823013306,-1.5070331732379358,-0.0,-0.012453609146177769,-0.19030267397035772,0.0,0.00011454598279669881,1.2593839168548584,0.0,-0.0014775563031435013
156.0,144.0,-0.5174,-0.0431,9.6203,-0.0411,0.0235,-0.1133,-2.1585241756834925,0.0,4.482056617736816,-1.2676236629486084,-0.0,2.103955030441284,4.9525606510932825,0.0,0.2694702446460724,-1.5070250670062464,-0.0,-0.010186564177274704,-0.19033509889711553,0.0,-0.009049945510923862,1.2593836784362793,0.0,0.008544551208615303
156.0,144.0,-0.5174,-0.0431,9.6203,-0.0411,0.0235,-0.1133,-2.158499856988424,0.0,4.559893608093262,-1.2675917148590088,-0.0,2.0997681617736816,4.952532726317205,0.0,0.2680056691169739,-1.5070293585406702,-0.0,-0.02355203963816166,-0.19035894075502569,0.0,-0.011448347941040993,1.2593677043914795,0.0,0.008266927674412727
156.0,144.0,-0.5174,-0.0431,9.6203,-0.0411,0.0235,-0.1133,-2.1585003338255824,0.0,4.500025272369385,-1.267579197883606,-0.0,2.093187093734741,4.95256473401145,0.0,0.2688562870025635,-1.5069811979876917,-0.0,-0.015227691270411015,-0.19039470354189092,0.0,0.006406879518181086,1.259387731552124,0.0,0.04577462002635002
156.0,144.0,-0.5174,-0.0431,9.6203,-0.0411,0.0235,-0.1133,-2.1585399113097132,0.0,4.441555976867676,-1.2676196098327637,-0.0,2.0820817947387695,4.9525606510932825,0.0,0.26870396733283997,-1.5069931189166468,-0.0,-0.020281309261918068,-0.19033891359438115,0.0,-0.005297068972140551,1.259387731552124,0.0,-0.031516287475824356
156.0,144.0,-0.5174,-0.0431,9.6203,-0.0411,0.0235,-0.1133,-2.1585642300047816,0.0,4.500356674194336,-1.2676516771316528,-0.0,2.0860137939453125,4.952556508570471,0.0,0.274297833442688,-1.5070250670062464,-0.0,-0.020436417311429977,-0.19035464922060186,0.0,0.00035046483390033245,1.2593839168548584,0.0,-0.016209445893764496
156.0,144.0,-0.5174,-0.0431,9.6203,-0.0411,0.0235,-0.1133,-2.1585198841490687,0.0,4.492306709289551,-1.2676113843917847,-0.0,2.1496081352233887,4.952504488616743,0.0,0.26207026839256287,-1.5070532003985804,-0.0,-0.02325884811580181,-0.19035894075502569,0.0,-0.0018474080134183168,1.2594037055969238,0.0,-0.008246790617704391
156.0,144.0,-0.5174,-0.0431,9.6203,-0.0411,0.0235,-0.1133,-2.158487459222311,0.0,4.485811710357666,-1.2676196098327637,-0.0,2.098357677459717,4.9525688020284555,0.0,0.2592645287513733,-1.5069807211505335,-0.0,-0.022376425564289093,-0.19031888643373662,0.0,0.0033371220342814922,1.259387731552124,0.0,-0.01655917800962925
156.0,144.0,-0.5174,-0.0431,9.6203,-0.0411,0.0235,-0.1133,-2.1585198841490687,0.0,4.487885475158691,-1.2676072120666504,-0.0,2.085249900817871,4.95254464724616,0.0,0.26495927572250366,-1.5070088545428675,-0.0,-0.024973900988698006,-0.19032317796816045,0.0,-0.008522126823663712,1.2594077587127686,0.0,0.022933976724743843
156.0,144.0,-0.5174,-0.0431,9.6203,-0.0411,0.0235,-0.1133,-2.1585360966124476,0.0,4.481921672821045,-1.2676597833633423,-0.0,2.1376519203186035,4.95254464724616,0.0,0.2683013081550598,-1.507012669240133,-0.0,-0.01095612533390522,-0.19035894075502569,0.0,0.008207679726183414,1.259427547454834,0.0,-0.03349831700325012
157.0,140.0,-0.2818,0.0586,9.2178,-0.0434,0.0324,-0.1225,-2.158499856988424,0.0,4.477299213409424,-1.2676516771316528,-0.0,2.102088212966919,4.952556493669309,0.0,0.26065918803215027,-1.5069969336139124,-0.0,-0.0185286533087492,-0.19032317796816045,0.0,0.0074385711923241615,1.259387731552124,0.0,0.018620125949382782
157.0,140.0,-0.2818,0.0586,9.2178,-0.0434,0.0324,-0.1225,-2.1585809193053187,0.0,4.488866806030273,-1.2676318883895874,-0.0,2.1194238662719727,4.952540892153539,0.0,0.2727421820163727,-1.5069611708270472,-0.0,-0.01570351980626583,-0.19032270113100225,0.0,-0.003955038730055094,1.2593597173690796,0.0,-0.0032326597720384598
157.0,140.0,-0.2818,0.0586,9.2178,-0.0434,0.0324,-0.1225,-2.1585685215392054,0.0,4.528565406799316,-1.2675957679748535,-0.0,2.0950934886932373,4.9525688020284555,0.0,0.2649884521961212,-1.5069769064532679,-0.0,-0.007992689497768879,-0.1903308073626917,0.0,0.008742958307266235,1.25935959815979,0.0,0.01854567416012287
157.0,140.0,-0.2818,0.0586,9.2178,-0.0434,0.0324,-0.1225,-2.158527990380758,0.0,4.4849700927734375,-1.2676196098327637,-0.0,2.130622386932373,4.952516737371244,0.0,0.26823464035987854,-1.507000748311178,-0.0,-0.00573864346370101,-0.19030648866762334,0.0,0.005962742492556572,1.2593839168548584,0.0,0.04962983727455139
157.0,140.0,-0.2818,0.0586,9.2178,-0.0434,0.0324,-0.1225,-2.1584917507567347,0.0,4.484330177307129,-1.2675917148590088,-0.0,2.073446750640869,4.95254464724616,0.0,0.26384273171424866,-1.507000748311178,-0.0,-0.020101914182305336,-0.19034272829164678,0.0,-0.00012906966730952263,1.259399652481079,0.0,0.05195512995123863
157.0,140.0,-0.2818,0.0586,9.2178,-0.0434,0.0324,-0.1225,-2.158527990380758,0.0,4.483749866485596,-1.2676557302474976,-0.0,2.1173219680786133,4.952585118799963,0.0,0.25700438022613525,-1.507016960774557,-0.0,-0.0027075428515672684,-0.19029456773866826,0.0,-0.0016739529091864824,1.2594356536865234,0.0,-0.04928910732269287
157.0,140.0,-0.2818,0.0586,9.2178,-0.0434,0.0324,-0.1225,-2.158476015130514,0.0,4.520048141479492,-1.2676548957824707,-0.0,2.087435245513916,4.952536809235372,0.0,0.27319470047950745,-1.5069969336139124,-0.0,-0.013588465750217438,-0.19030267397035772,0.0,-0.00949721410870552,1.2593677043914795,0.0,0.01987593248486519
157.0,140.0,-0.2818,0.0586,9.2178,-0.0434,0.0324,-0.1225,-2.1584798298277796,0.0,4.490820407867432,-1.2675875425338745,-0.0,2.114245891571045,4.9525528130824945,0.0,0.26820918917655945,-1.5070365110980433,-0.0,-0.014349876902997494,-0.190378491078512,0.0,0.0020347509998828173,1.2593917846679688,0.0,0.031002966687083244
157.0,140.0,-0.2818,0.0586,9.2178,-0.0434,0.0324,-0.1225,-2.1585241756834925,0.0,4.473095893859863,-1.2676433324813843,-0.0,2.0798332691192627,4.95256473401145,0.0,0.265823632478714,-1.506988827382223,-0.0,-0.02168448083102703,-0.1903470198260706,0.0,-0.0066378130577504635,1.2593637704849243,0.0,0.008500418625772
157.0,140.0,-0.2818,0.0586,9.2178,-0.0434,0.0324,-0.1225,-2.158515592614645,0.0,4.492910861968994,-1.2676154375076294,-0.0,2.1573967933654785,4.952585118799963,0.0,0.27037420868873596,-1.5070250670062464,-0.0,-0.004201016388833523,-0.19029075304140264,0.0,0.002463794546201825,1.2593717575073242,0.0,0.05820995569229126
157.0,140.0,-0.2818,0.0586,9.2178,-0.0434,0.0324,-0.1225,-2.1585399113097132,0.0,4.486273765563965,-1.2675957679748535,-0.0,2.119901657104492,4.952508497029104,0.0,0.272251695394516,-1.507057015095846,-0.0,-0.007106676697731018,-0.19031888643373662,0.0,0.0024268499109894037,1.2593798637390137,0.0,0.005806777160614729
157.0,140.0,-0.2818,0.0586,9.2178,-0.0434,0.0324,-0.1225,-2.158487936059469,0.0,4.520862579345703,-1.2676310539245605,-0.0,2.1400833129882812,4.952540892153539,0.0,0.2601524591445923,-1.5070293585406702,-0.0,-0.010570301674306393,-0.1903746763812464,0.0,0.011683650314807892,1.2594077587127686,0.0,0.03438236936926842
157.0,140.0,-0.2818,0.0586,9.2178,-0.0434,0.0324,-0.1225,-2.158487936059469,0.0,4.465825080871582,-1.267599105834961,-0.0,2.04314923286438,4.952560636192121,0.0,0.2673124670982361,-1.5069931189166468,-0.0,-0.005311720073223114,-0.19031888643373662,0.0,-0.002432380337268114,1.2593756914138794,0.0,-0.00013615679927170277
157.0,140.0,-0.2818,0.0586,9.2178,-0.0434,0.0324,-0.1225,-2.1585847340025843,0.0,4.460340976715088,-1.2675917148590088,-0.0,2.1237664222717285,4.952552798181333,0.0,0.2640889883041382,-1.5070050398456019,-0.0,-0.02368495613336563,-0.19035464922060186,0.0,0.00565375154837966,1.2593637704849243,0.0,0.009771943092346191
157.0,140.0,-0.2818,0.0586,9.2178,-0.0434,0.0324,-0.1225,-2.1584917507567347,0.0,4.510320663452148,-1.267615556716919,-0.0,2.100309371948242,4.9525528130824945,0.0,0.2655127942562103,-1.507000748311178,-0.0,-0.01879945397377014,-0.19034272829164678,0.0,0.0034400508739054203,1.2594276666641235,0.0,-0.007918572053313255
158.0,137.0,-0.6335,-0.1005,9.8357,-0.0246,0.0137,-0.1083,-2.1585074863829554,0.0,4.459773540496826,-1.2675628662109375,-0.0,2.127537488937378,4.95258920171813,0.0,0.27021411061286926,-1.5070212523089808,-0.0,-0.019180966541171074,-0.19027883211244756,0.0,0.007166092284023762,1.2593474388122559,0.0,-0.004663822241127491
158.0,137.0,-0.6335,-0.1005,9.8357,-0.0246,0.0137,-0.1083,-2.158527990380758,0.0,4.491066932678223,-1.2676277160644531,-0.0,2.088155746459961,4.952540892153539,0.0,0.2619163393974304,-1.5070250670062464,-0.0,-0.010903158225119114,-0.19032699266542608,0.0,0.002017525490373373,1.25935959815979,0.0,0.025476530194282532
158.0,137.0,-0.6335,-0.1005,9.8357,-0.0246,0.0137,-0.1083,-2.1585480175414027,0.0,4.50053071975708,-1.2676154375076294,-0.0,2.1628520488739014,4.952492195158758,0.0,0.2662588953971863,-1.5069931189166468,-0.0,-0.017627891153097153,-0.1902988592730921,0.0,0.018326329067349434,1.2593436241149902,0.0,0.0027333246544003487
158.0,137.0,-0.6335,-0.1005,9.8357,-0.0246,0.0137,-0.1083,-2.15850367168569,0.0,4.465836048126221,-1.2676031589508057,-0.0,2.0785279273986816,4.952512714057722,0.0,0.2638321816921234,-1.5069931189166468,-0.0,-0.01544148102402687,-0.19037086168398076,0.0,-0.00819329358637333,1.2594236135482788,0.0,0.005386259872466326
158.0,137.0,-0.6335,-0.1005,9.8357,-0.0246,0.0137,-0.1083,-2.1585079632201136,0.0,4.542313098907471,-1.2676277160644531,-0.0,2.1311542987823486,4.95254464724616,0.0,0.26169073581695557,-1.5070174376117151,-0.0,-0.013367293402552605,-0.1903470198260706,0.0,0.004361010622233152,1.259387731552124,0.0,-0.022867079824209213
158.0,137.0,-0.6335,-0.1005,9.8357,-0.0246,0.0137,-0.1083,-2.1585642300047816,0.0,4.5140814781188965,-1.2676072120666504,-0.0,2.0533106327056885,4.9525610385234735,0.0,0.26160192489624023,-1.5070331732379358,-0.0,-0.009078791365027428,-0.19035894075502569,0.0,-0.0005513797514140606,1.2593798637390137,0.0,-0.016463661566376686
158.0,137.0,-0.6335,-0.1005,9.8357,-0.0246,0.0137,-0.1083,-2.158515592614645,0.0,4.47266149520874,-1.2676031589508057,-0.0,2.0963969230651855,4.952536794334211,0.0,0.26499325037002563,-1.5069969336139124,-0.0,-0.014700689353048801,-0.19033509889711553,0.0,-0.009744307957589626,1.259387731552124,0.0,0.006024900823831558
158.0,137.0,-0.6335,-0.1005,9.8357,-0.0246,0.0137,-0.1083,-2.158520360986227,0.0,4.488707065582275,-1.2676236629486084,-0.0,2.1583597660064697,4.952560680895605,0.0,0.2599028944969177,-1.5069611708270472,-0.0,-0.012716438621282578,-0.19034272829164678,0.0,0.011171073652803898,1.259447693824768,0.0,0.032907187938690186
158.0,137.0,-0.6335,-0.1005,9.8357,-0.0246,0.0137,-0.1083,-2.158499856988424,0.0,4.494324684143066,-1.2676112651824951,-0.0,2.123093605041504,4.9525606510932825,0.0,0.26056572794914246,-1.507012669240133,-0.0,-0.019803563132882118,-0.19026357332338506,0.0,-0.008063077926635742,1.2593717575073242,0.0,0.0021146927028894424
158.0,137.0,-0.6335,-0.1005,9.8357,-0.0246,0.0137,-0.1083,-2.1584960422911585,0.0,4.49308443069458,-1.267647624015808,-0.0,2.135336399078369,4.952589276223936,0.0,0.2623140811920166,-1.5070250670062464,-0.0,-0.015029249712824821,-0.19033891359438115,0.0,-0.0012884421739727259,1.2593677043914795,0.0,0.026283439248800278
158.0,137.0,-0.6335,-0.1005,9.8357,-0.0246,0.0137,-0.1083,-2.158527990380758,0.0,4.504205226898193,-1.2675750255584717,-0.0,2.0877232551574707,4.952556493669309,0.0,0.2737090587615967,-1.506988827382223,-0.0,-0.021916212514042854,-0.19035894075502569,0.0,-0.0028011291287839413,1.25935959815979,0.0,-0.010867265053093433
158.0,137.0,-0.6335,-0.1005,9.8357,-0.0246,0.0137,-0.1083,-2.158476015130514,0.0,4.471499443054199,-1.2676351070404053,-0.0,2.0977718830108643,4.9525771019752405,0.0,0.26558151841163635,-1.5069969336139124,-0.0,-0.0143089909106493,-0.19036657014955694,0.0,-0.0027991803362965584,1.2594157457351685,0.0,-9.148381650447845e-05
158.0,137.0,-0.6335,-0.1005,9.8357,-0.0246,0.0137,-0.1083,-2.1584836445250453,0.0,4.508413314819336,-1.2676318883895874,-0.0,2.0659444332122803,4.95254464724616,0.0,0.2682459056377411,-1.5069931189166468,-0.0,-0.02434806153178215,-0.190315071736471,0.0,-0.006465505342930555,1.25935959815979,0.0,-0.034149136394262314
158.0,137.0,-0.6335,-0.1005,9.8357,-0.0246,0.0137,-0.1083,-2.1585079632201136,0.0,4.49017333984375,-1.2676360607147217,-0.0,2.1144120693206787,4.952568816929617,0.0,0.26837101578712463,-1.5069730917560022,-0.0,-0.024077165871858597,-0.19031888643373662,0.0,-0.0018797924276441336,1.2593355178833008,0.0,0.022804129868745804
155.0,140.0,-0.4798,-0.0233,9.5545,-0.0402,0.0301,-0.118,-2.15847172359609,0.0,4.510193824768066,-1.2676351070404053,-0.0,2.0801074504852295,4.952524500876226,0.0,0.2796103060245514,-1.5069969336139124,-0.0,-0.02548464573919773,-0.1903904120074671,0.0,0.0075632184743881226,1.2593555450439453,0.0,-0.006592011544853449
155.0,140.0,-0.4798,-0.0233,9.5545,-0.0402,0.0301,-0.118,-2.158504148522848,0.0,4.514049530029297,-1.2676310539245605,-0.0,2.114377975463867,4.95254464724616,0.0,0.2750169634819031,-1.5070212523089808,-0.0,-0.0056564235128462315,-0.19030267397035772,0.0,0.00047912076115608215,1.259347677230835,0.0,-0.013978509232401848
155.0,140.0,-0.4798,-0.0233,9.5545,-0.0402,0.0301,-0.118,-2.1585079632201136,0.0,4.492523670196533,-1.2676112651824951,-0.0,2.1235077381134033,4.952548745065489,0.0,0.26487237215042114,-1.5070484320269983,-0.0,-0.012630436569452286,-0.1903308073626917,0.0,0.0070682065561413765,1.2593636512756348,0.0,-0.026602093130350113
155.0,140.0,-0.4798,-0.0233,9.5545,-0.0402,0.0301,-0.118,-2.1584917507567347,0.0,4.51102352142334,-1.2676112651824951,-0.0,2.085015296936035,4.95256473401145,0.0,0.2789860665798187,-1.5070293585406702,-0.0,-0.00863606296479702,-0.19032699266542608,0.0,-0.001206988818012178,1.2593318223953247,0.0,-0.022163180634379387
155.0,140.0,-0.4798,-0.0233,9.5545,-0.0402,0.0301,-0.118,-2.158515592614645,0.0,4.4375457763671875,-1.2676112651824951,-0.0,2.0824332237243652,4.952556478768148,0.0,0.2716546952724457,-1.507012669240133,-0.0,-0.026796799153089523,-0.19038659731020147,0.0,0.0005863718688488007,1.2593798637390137,0.0,0.02737114392220974
155.0,140.0,-0.4798,-0.0233,9.5545,-0.0402,0.0301,-0.118,-2.1584836445250453,0.0,4.52153205871582,-1.2676277160644531,-0.0,2.073906898498535,4.9525606510932825,0.0,0.2614583969116211,-1.5070365110980433,-0.0,-0.01791035197675228,-0.1903627554522913,0.0,-0.0027567707002162933,1.2593036890029907,0.0,0.00043157313484698534
155.0,140.0,-0.4798,-0.0233,9.5545,-0.0402,0.0301,-0.118,-2.158475538293356,0.0,4.459966659545898,-1.2675917148590088,-0.0,2.1262922286987305,4.952572810440817,0.0,0.2682422399520874,-1.507012669240133,-0.0,-0.01876724883913994,-0.19030696550478154,0.0,-0.009324172511696815,1.259375810623169,0.0,0.03610391169786453
155.0,140.0,-0.4798,-0.0233,9.5545,-0.0402,0.0301,-0.118,-2.1585241756834925,0.0,4.483119964599609,-1.2676318883895874,-0.0,2.088109254837036,4.952528658300199,0.0,0.2699173092842102,-1.5069969336139124,-0.0,-0.015284320339560509,-0.19028741518129522,0.0,-0.004768919665366411,1.2593555450439453,0.0,-0.008367402479052544
155.0,140.0,-0.4798,-0.0233,9.5545,-0.0402,0.0301,-0.118,-2.1585360966124476,0.0,4.456228256225586,-1.2676031589508057,-0.0,2.1309335231781006,4.952532726317205,0.0,0.2739640176296234,-1.5069730917560022,-0.0,-0.013840104453265667,-0.1903308073626917,0.0,0.005204999819397926,1.2593637704849243,0.0,0.008998225443065166
155.0,140.0,-0.4798,-0.0233,9.5545,-0.0402,0.0301,-0.118,-2.1584836445250453,0.0,4.47922945022583,-1.2676196098327637,-0.0,2.0611801147460938,4.952568816929617,0.0,0.2686184048652649,-1.5069811979876917,-0.0,-0.006705134175717831,-0.19030648866762334,0.0,-0.013590475544333458,1.2594118118286133,0.0,0.001301369396969676
155.0,140.0,-0.4798,-0.0233,9.5545,-0.0402,0.0301,-0.118,-2.1585198841490687,0.0,4.46934700012207,-1.2676516771316528,-0.0,2.0943117141723633,4.952592986613073,0.0,0.2700051963329315,-1.5070250670062464,-0.0,-0.016505025327205658,-0.19032270113100225,0.0,-0.001900848699733615,1.2593555450439453,0.0,-0.016333922743797302
155.0,140.0,-0.4798,-0.0233,9.5545,-0.0402,0.0301,-0.118,-2.158471246758932,0.0,4.505545616149902,-1.2675710916519165,-0.0,2.0496397018432617,4.9525606510932825,0.0,0.2703137695789337,-1.507000748311178,-0.0,-0.014582419767975807,-0.1903308073626917,0.0,0.0008576847612857819,1.2593836784362793,0.0,0.001992012606933713
155.0,140.0,-0.4798,-0.0233,9.5545,-0.0402,0.0301,-0.118,-2.1585360966124476,0.0,4.483114242553711,-1.2676401138305664,-0.0,2.1111855506896973,4.952520417958059,0.0,0.2732994854450226,-1.5069969336139124,-0.0,-0.0017953012138605118,-0.19035464922060186,0.0,0.009883103892207146,1.2593436241149902,0.0,-0.0036937715485692024
155.0,140.0,-0.4798,-0.0233,9.5545,-0.0402,0.0301,-0.118,-2.1585003338255824,0.0,4.515027046203613,-1.2676196098327637,-0.0,2.10373592376709,4.952536794334211,0.0,0.2759931683540344,-1.5069931189166468,-0.0,-0.013408735394477844,-0.19035464922060186,0.0,0.008365092799067497,1.2594118118286133,0.0,0.011187638156116009
155.0,140.0,-0.4798,-0.0233,9.5545,-0.0402,0.0301,-0.118,-2.1584917507567347,0.0,4.499100685119629,-1.2676074504852295,-0.0,2.1086673736572266,4.952585118799963,0.0,0.2706843614578247,-1.5069969336139124,-0.0,-0.017516322433948517,-0.19033891359438115,0.0,-0.007298155687749386,1.2594157457351685,0.0,0.022323034703731537
158.0,142.0,-0.4367,-0.0287,9.5498,-0.0318,0.0269,-0.1188,-2.158544202844137,0.0,4.535052299499512,-1.2676072120666504,-0.0,2.090548276901245,4.952516692667761,0.0,0.26190465688705444,-1.5069530645953577,-0.0,-0.0266388151794672,-0.19033891359438115,0.0,-0.007103017531335354,1.259367823600769,0.0,-0.022100936621427536
158.0,142.0,-0.4367,-0.0287,9.5498,-0.0318,0.0269,-0.1188,-2.1584917507567347,0.0,4.458315849304199,-1.267647385597229,-0.0,2.107408285140991,4.952581065684118,0.0,0.26517513394355774,-1.5070088545428675,-0.0,-0.01890929415822029,-0.19035083452333623,0.0,-0.0027139533776789904,1.259387731552124,0.0,0.029661428183317184
158.0,142.0,-0.4367,-0.0287,9.5498,-0.0318,0.0269,-0.1188,-2.1584679088988246,0.0,4.49907922744751,-1.2676352262496948,-0.0,2.092381000518799,4.952576982765951,0.0,0.278799831867218,-1.5070293585406702,-0.0,-0.019316526129841805,-0.19038659731020147,0.0,-0.008896952494978905,1.2593717575073242,0.0,0.07479165494441986
158.0,142.0,-0.4367,-0.0287,9.5498,-0.0318,0.0269,-0.1188,-2.1585685215392054,0.0,4.524433135986328,-1.2675875425338745,-0.0,2.142740249633789,4.952568831830778,0.0,0.26672759652137756,-1.5069850126849573,-0.0,-0.01655886322259903,-0.19032317796816045,0.0,-0.003964022267609835,1.25935959815979,0.0,-0.016578881070017815
158.0,142.0,-0.4367,-0.0287,9.5498,-0.0318,0.0269,-0.1188,-2.158499856988424,0.0,4.461169242858887,-1.2676112651824951,-0.0,2.0876526832580566,4.9525606510932825,0.0,0.2610408663749695,-1.5069730917560022,-0.0,-0.018751993775367737,-0.1903470198260706,0.0,-0.005712432786822319,1.2593917846679688,0.0,0.017916269600391388
158.0,142.0,-0.4367,-0.0287,9.5498,-0.0318,0.0269,-0.1188,-2.158527990380758,0.0,4.515462875366211,-1.2676072120666504,-0.0,2.1198596954345703,4.952548745065489,0.0,0.26689133048057556,-1.506988827382223,-0.0,-0.02901315689086914,-0.19032317796816045,0.0,0.005633645690977573,1.259367823600769,0.0,0.007550270762294531
158.0,142.0,-0.4367,-0.0287,9.5498,-0.0318,0.0269,-0.1188,-2.158499856988424,0.0,4.450461387634277,-1.2675670385360718,-0.0,2.093406915664673,4.952528658300199,0.0,0.2770155370235443,-1.5069692770587366,-0.0,-0.008572405204176903,-0.19031125703920537,0.0,-0.021117286756634712,1.2593395709991455,0.0,0.03644569218158722
158.0,142.0,-0.4367,-0.0287,9.5498,-0.0318,0.0269,-0.1188,-2.1585241756834925,0.0,4.501896858215332,-1.2676194906234741,-0.0,2.119269847869873,4.952556493669309,0.0,0.2588556408882141,-1.507016960774557,-0.0,-0.008769639767706394,-0.19030696550478154,0.0,-0.009569289162755013,1.2593958377838135,0.0,-0.020545832812786102
158.0,142.0,-0.4367,-0.0287,9.5498,-0.0318,0.0269,-0.1188,-2.1585360966124476,0.0,4.494390487670898,-1.2676196098327637,-0.0,2.0860724449157715,4.952532726317205,0.0,0.2695986032485962,-1.5070174376117151,-0.0,-0.02450619451701641,-0.190315071736471,0.0,0.004511177074164152,1.259387731552124,0.0,0.03659665584564209
158.0,142.0,-0.4367,-0.0287,9.5498,-0.0318,0.0269,-0.1188,-2.1585194073119105,0.0,4.50680685043335,-1.2676277160644531,-0.0,2.153336524963379,4.952568757324972,0.0,0.2789713740348816,-1.5070050398456019,-0.0,0.00023044738918542862,-0.1903145948993128,0.0,0.011681189760565758,1.2593157291412354,0.0,0.014879533089697361
158.0,142.0,-0.4367,-0.0287,9.5498,-0.0318,0.0269,-0.1188,-2.1584836445250453,0.0,4.529627799987793,-1.2676353454589844,-0.0,2.0537521839141846,4.9525688020284555,0.0,0.2643134891986847,-1.5070293585406702,-0.0,-0.017949625849723816,-0.19032699266542608,0.0,0.0012825122103095055,1.2593395709991455,0.0,-0.032284148037433624
158.0,142.0,-0.4367,-0.0287,9.5498,-0.0318,0.0269,-0.1188,-2.15858854869985,0.0,4.4856791496276855,-1.2675917148590088,-0.0,2.144728899002075,4.952572810440817,0.0,0.26687201857566833,-1.5069568792926233,-0.0,-0.02070312574505806,-0.1903746763812464,0.0,-0.0009585366933606565,1.2593477964401245,0.0,0.03820345178246498
158.0,142.0,-0.4367,-0.0287,9.5498,-0.0318,0.0269,-0.1188,-2.1585236988463343,0.0,4.472607135772705,-1.2676597833633423,-0.0,2.0792882442474365,4.952572884946623,0.0,0.2720147669315338,-1.507012669240133,-0.0,-0.020061157643795013,-0.19034272829164678,0.0,-0.008165021426975727,1.2594037055969238,0.0,0.01893787831068039
158.0,142.0,-0.4367,-0.0287,9.5498,-0.0318,0.0269,-0.1188,-2.158475538293356,0.0,4.477278709411621,-1.2676072120666504,-0.0,2.1217637062072754,4.952540489822187,0.0,0.26895958185195923,-1.5069611708270472,-0.0,-0.02777170017361641,-0.19032317796816045,0.0,-0.011130635626614094,1.2593677043914795,0.0,0.030152784660458565
158.0,142.0,-0.4534,-0.0407,9.5587,-0.0392,0.0252,-0.1052,-2.1585241756834925,0.0,4.478092193603516,-1.2676236629486084,-0.0,2.0986671447753906,4.952585118799963,0.0,0.26217177510261536,-1.5070331732379358,-0.0,-0.022867323830723763,-0.19029409090151006,0.0,0.0016785694751888514,1.2593797445297241,0.0,0.026963654905557632
158.0,142.0,-0.4534,-0.0407,9.5587,-0.0392,0.0252,-0.1052,-2.158515592614645,0.0,4.486776351928711,-1.2676351070404053,-0.0,2.102431297302246,4.952581065684118,0.0,0.26044365763664246,-1.5069769064532679,-0.0,-0.016657300293445587,-0.19032699266542608,0.0,0.009427289478480816,1.2593356370925903,0.0,-0.010614989325404167
158.0,142.0,-0.4534,-0.0407,9.5587,-0.0392,0.0252,-0.1052,-2.1585360966124476,0.0,4.526428699493408,-1.267599105834961,-0.0,2.0491034984588623,4.95254051962451,0.0,0.2710699141025543,-1.5070293585406702,-0.0,-0.013108262792229652,-0.19029504457582647,0.0,-0.0003199692291673273,1.2593514919281006,0.0,0.0284939706325531
158.0,142.0,-0.4534,-0.0407,9.5587,-0.0392,0.0252,-0.1052,-2.1585074863829554,0.0,4.471975326538086,-1.26760733127594,-0.0,2.1328377723693848,4.952560665994444,0.0,0.26429879665374756,-1.5070088545428675,-0.0,-0.012538294307887554,-0.19038278261293584,0.0,-0.008702466264367104,1.2593878507614136,0.0,-0.03854231536388397
158.0,142.0,-0.4534,-0.0407,9.5587,-0.0392,0.0252,-0.1052,-2.1585241756834925,0.0,4.500168800354004,-1.2676278352737427,-0.0,2.1053714752197266,4.952500316291609,0.0,0.2643369138240814,-1.5070212523089808,-0.0,-0.016452791169285774,-0.19033509889711553,0.0,-0.010023671202361584,1.25935959815979,0.0,0.0037741977721452713
158.0,142.0,-0.4534,-0.0407,9.5587,-0.0392,0.0252,-0.1052,-2.1585241756834925,0.0,4.472539901733398,-1.26763916015625,-0.0,2.175114870071411,4.952552768379011,0.0,0.25813204050064087,-1.5070250670062464,-0.0,-0.014060143381357193,-0.19032651582826787,0.0,0.0010412679985165596,1.259399652481079,0.0,-0.05178721994161606
158.0,142.0,-0.4534,-0.0407,9.5587,-0.0392,0.0252,-0.1052,-2.1585241756834925,0.0,4.47353458404541,-1.2676072120666504,-0.0,2.0920398235321045,4.952520775585928,0.0,0.2706739902496338,-1.5070293585406702,-0.0,-0.013377182185649872,-0.1903470198260706,0.0,-0.0014237118884921074,1.259387731552124,0.0,0.02071034535765648
158.0,142.0,-0.4534,-0.0407,9.5587,-0.0392,0.0252,-0.1052,-2.158531805078024,0.0,4.489019393920898,-1.2676031589508057,-0.0,2.119662284851074,4.952508526831426,0.0,0.26572123169898987,-1.5070088545428675,-0.0,-0.02494017966091633,-0.19036657014955694,0.0,-0.00565290916711092,1.2594317197799683,0.0,0.12792544066905975
158.0,142.0,-0.4534,-0.0407,9.5587,-0.0392,0.0252,-0.1052,-2.158487936059469,0.0,4.521055221557617,-1.2676360607147217,-0.0,2.045034885406494,4.95254464724616,0.0,0.26605311036109924,-1.5070088545428675,-0.0,-0.006373438984155655,-0.19033462205995733,0.0,0.003645897377282381,1.2593237161636353,0.0,0.012579226866364479
158.0,142.0,-0.4534,-0.0407,9.5587,-0.0392,0.0252,-0.1052,-2.158476015130514,0.0,4.486152648925781,-1.2675628662109375,-0.0,2.10964298248291,4.952508407622137,0.0,0.2754359841346741,-1.5069969336139124,-0.0,-0.02643977664411068,-0.1904075781451624,0.0,0.0022184185218065977,1.259407639503479,0.0,-0.022402439266443253
158.0,142.0,-0.4534,-0.0407,9.5587,-0.0392,0.0252,-0.1052,-2.158487936059469,0.0,4.440479755401611,-1.267647624015808,-0.0,2.0533759593963623,4.952601122647085,0.0,0.27439039945602417,-1.5070212523089808,-0.0,-0.014281629584729671,-0.1903632322894495,0.0,-0.0022567687556147575,1.2594317197799683,0.0,-0.02267230674624443
158.0,142.0,-0.4534,-0.0407,9.5587,-0.0392,0.0252,-0.1052,-2.1585079632201136,0.0,4.524896144866943,-1.2675751447677612,-0.0,2.128624439239502,4.952552783280172,0.0,0.26439642906188965,-1.5069730917560022,-0.0,-0.008479135110974312,-0.19035894075502569,0.0,-0.00854489952325821,1.2593798637390137,0.0,0.003870326094329357
158.0,142.0,-0.4534,-0.0407,9.5587,-0.0392,0.0252,-0.1052,-2.158515592614645,0.0,4.512738227844238,-1.2676597833633423,-0.0,2.0948445796966553,4.952532711416044,0.0,0.2766003906726837,-1.5070293585406702,-0.0,-0.019629769027233124,-0.19035846391786748,0.0,-0.0016982689267024398,1.25935959815979,0.0,0.017438752576708794
158.0,142.0,-0.4534,-0.0407,9.5587,-0.0392,0.0252,-0.1052,-2.1585809193053187,0.0,4.514657497406006,-1.267579197883606,-0.0,2.154144287109375,4.952544632344999,0.0,0.2653759717941284,-1.5069811979876917,-0.0,-0.027949921786785126,-0.19034320512880498,0.0,-0.007866768166422844,1.259387731552124,0.0,0.03584419563412666
158.0,142.0,-0.4534,-0.0407,9.5587,-0.0392,0.0252,-0.1052,-2.1585685215392054,0.0,4.490106582641602,-1.2676113843917847,-0.0,2.1333470344543457,4.9525204477603815,0.0,0.26708656549453735,-1.5070088545428675,-0.0,-0.02071407064795494,-0.1903021971331995,0.0,0.003260403173044324,1.2593475580215454,0.0,0.019508443772792816
156.0,139.0,-0.5527,-0.0604,9.8399,-0.0356,0.0195,-0.117,-2.1585399113097132,0.0,4.452853202819824,-1.2676112651824951,-0.0,2.1675705909729004,4.952508437424459,0.0,0.26809588074684143,-1.5069969336139124,-0.0,-0.019147709012031555,-0.1903308073626917,0.0,0.0038038184866309166,1.2593358755111694,0.0,0.030938252806663513
156.0,139.0,-0.5527,-0.0604,9.8399,-0.0356,0.0195,-0.117,-2.158531805078024,0.0,4.527710914611816,-1.2676310539245605,-0.0,2.060551166534424,4.952536809235372,0.0,0.2745572030544281,-1.5069850126849573,-0.0,-0.01938316971063614,-0.19032699266542608,0.0,-0.00160083151422441,1.2594037055969238,0.0,0.05335942655801773
156.0,139.0,-0.5527,-0.0604,9.8399,-0.0356,0.0195,-0.117,-2.158544202844137,0.0,4.530122756958008,-1.2675917148590088,-0.0,2.0856778621673584,4.952528613596716,0.0,0.2711656391620636,-1.5069730917560022,-0.0,-0.025537699460983276,-0.19035083452333623,0.0,0.004617918748408556,1.2593477964401245,0.0,0.004414742812514305
156.0,139.0,-0.5527,-0.0604,9.8399,-0.0356,0.0195,-0.117,-2.1585198841490687,0.0,4.522025108337402,-1.2676031589508057,-0.0,2.1102638244628906,4.9525770274694345,0.0,0.26330357789993286,-1.5069969336139124,-0.0,-0.009368529543280602,-0.19033891359438115,0.0,0.005017847288399935,1.2594236135482788,0.0,-0.03769382834434509
156.0,139.0,-0.5527,-0.0604,9.8399,-0.0356,0.0195,-0.117,-2.1585804424681605,0.0,4.517634868621826,-1.2676434516906738,-0.0,2.1238515377044678,4.952540877252378,0.0,0.26668208837509155,-1.5070293585406702,-0.0,-0.02304704114794731,-0.19027454057802373,0.0,-0.0010873167775571346,1.259387731552124,0.0,0.008665488101541996
156.0,139.0,-0.5527,-0.0604,9.8399,-0.0356,0.0195,-0.117,-2.158475538293356,0.0,4.499543190002441,-1.2675914764404297,-0.0,2.088820457458496,4.952532726317205,0.0,0.26245802640914917,-1.5069969336139124,-0.0,-0.0033779856748878956,-0.19033462205995733,0.0,0.007122069131582975,1.25935959815979,0.0,0.031211335211992264
156.0,139.0,-0.5527,-0.0604,9.8399,-0.0356,0.0195,-0.117,-2.1585642300047816,0.0,4.470976829528809,-1.267639398574829,-0.0,2.1410279273986816,4.952581065684118,0.0,0.2691657841205597,-1.5070212523089808,-0.0,-0.014949915930628777,-0.19035083452333623,0.0,0.0017666341736912727,1.2593916654586792,0.0,-0.0423000194132328
156.0,139.0,-0.5527,-0.0604,9.8399,-0.0356,0.0195,-0.117,-2.1585236988463343,0.0,4.5213823318481445,-1.26763916015625,-0.0,2.0597925186157227,4.9525606510932825,0.0,0.25897216796875,-1.5069850126849573,-0.0,-0.03264879807829857,-0.19039518037904912,0.0,-0.006526911165565252,1.2593917846679688,0.0,0.014528287574648857
156.0,139.0,-0.5527,-0.0604,9.8399,-0.0356,0.0195,-0.117,-2.1585360966124476,0.0,4.476326942443848,-1.2676268815994263,-0.0,2.111921787261963,4.95254464724616,0.0,0.2692626118659973,-1.507000748311178,-0.0,-0.012251072563230991,-0.19035512605776006,0.0,-0.0038993358612060547,1.2593517303466797,0.0,0.0421014204621315
156.0,139.0,-0.5527,-0.0604,9.8399,-0.0356,0.0195,-0.117,-2.1585241756834925,0.0,4.476738452911377,-1.2676112651824951,-0.0,2.0568554401397705,4.9525770274694345,0.0,0.2709028124809265,-1.506988827382223,-0.0,-0.008092247880995274,-0.19028264680971319,0.0,-0.00719958171248436,1.2593917846679688,0.0,-0.01145976036787033
156.0,139.0,-0.5527,-0.0604,9.8399,-0.0356,0.0195,-0.117,-2.158531805078024,0.0,4.540103912353516,-1.2676278352737427,-0.0,2.1221842765808105,4.9525728551443,0.0,0.25708261132240295,-1.5070331732379358,-0.0,-0.009128037840127945,-0.19032651582826787,0.0,0.0022727935574948788,1.2593798637390137,0.0,-0.0483328178524971
156.0,139.0,-0.5527,-0.0604,9.8399,-0.0356,0.0195,-0.117,-2.158544202844137,0.0,4.513086318969727,-1.2676268815994263,-0.0,2.080495595932007,4.952552783280172,0.0,0.276225209236145,-1.5070250670062464,-0.0,-0.012321782298386097,-0.1903470198260706,0.0,0.0058480617590248585,1.2593917846679688,0.0,-0.013927657157182693
156.0,139.0,-0.5527,-0.0604,9.8399,-0.0356,0.0195,-0.117,-2.158515592614645,0.0,4.5172624588012695,-1.2676351070404053,-0.0,2.164269208908081,4.952556508570471,0.0,0.2650378346443176,-1.507000748311178,-0.0,-0.015166008844971657,-0.19029504457582647,0.0,-0.002853719051927328,1.2593798637390137,0.0,0.03614112734794617
156.0,139.0,-0.5527,-0.0604,9.8399,-0.0356,0.0195,-0.117,-2.1585360966124476,0.0,4.476355075836182,-1.2676277160644531,-0.0,2.0716750621795654,4.952572870045461,0.0,0.2589690685272217,-1.5069931189166468,-0.0,-0.013161331415176392,-0.19034320512880498,0.0,0.002312955679371953,1.259419560432434,0.0,0.016271870583295822
159.0,139.0,-0.4696,-0.0377,9.5294,-0.0336,0.0272,-0.1156,-2.158527990380758,0.0,4.527354717254639,-1.2675551176071167,-0.0,2.0915613174438477,4.952589216619291,0.0,0.27298861742019653,-1.5070250670062464,-0.0,-0.022842610254883766,-0.1903746763812464,0.0,-0.016679272055625916,1.259375810623169,0.0,-0.029695667326450348
159.0,139.0,-0.4696,-0.0377,9.5294,-0.0336,0.0272,-0.1156,-2.1585079632201136,0.0,4.461073398590088,-1.2676557302474976,-0.0,2.088770866394043,4.952540474921026,0.0,0.26289838552474976,-1.506988827382223,-0.0,-0.003818429308012128,-0.19033891359438115,0.0,-0.008879052475094795,1.259415864944458,0.0,-0.05539173632860184
159.0,139.0,-0.4696,-0.0377,9.5294,-0.0336,0.0272,-0.1156,-2.158531805078024,0.0,4.466584205627441,-1.2675467729568481,-0.0,2.1151180267333984,4.952556493669309,0.0,0.25922420620918274,-1.5070293585406702,-0.0,-0.010230896063148975,-0.19035894075502569,0.0,-0.0065770260989665985,1.2593677043914795,0.0,-0.019190626218914986
159.0,139.0,-0.4696,-0.0377,9.5294,-0.0336,0.0272,-0.1156,-2.158531805078024,0.0,4.5259108543396,-1.2676351070404053,-0.0,2.0833029747009277,4.952572840243139,0.0,0.2648206353187561,-1.5070331732379358,-0.0,-0.006595704238861799,-0.19032651582826787,0.0,0.009725561365485191,1.2594116926193237,0.0,0.021902572363615036
159.0,139.0,-0.4696,-0.0377,9.5294,-0.0336,0.0272,-0.1156,-2.158499856988424,0.0,4.487146377563477,-1.267599105834961,-0.0,2.0710108280181885,4.952512624650755,0.0,0.2618319094181061,-1.507068936024801,-0.0,-0.02007244899868965,-0.19037896791567022,0.0,-0.0033359171357005835,1.259375810623169,0.0,0.0009916392154991627
159.0,139.0,-0.4696,-0.0377,9.5294,-0.0336,0.0272,-0.1156,-2.158556123773092,0.0,4.45902681350708,-1.2675628662109375,-0.0,2.121887683868408,4.952556493669309,0.0,0.26836198568344116,-1.507000748311178,-0.0,-0.014739904552698135,-0.19034320512880498,0.0,0.0007578674703836441,1.2593839168548584,0.0,-0.030150512233376503
159.0,139.0,-0.4696,-0.0377,9.5294,-0.0336,0.0272,-0.1156,-2.158516069451803,0.0,4.454131126403809,-1.2675632238388062,-0.0,2.079428195953369,4.952565151243963,0.0,0.26433563232421875,-1.5069931189166468,-0.0,-0.016493650153279305,-0.19032699266542608,0.0,-0.0018458645790815353,1.259375810623169,0.0,-0.010404187254607677
159.0,139.0,-0.4696,-0.0377,9.5294,-0.0336,0.0272,-0.1156,-2.158531805078024,0.0,4.514369487762451,-1.2675917148590088,-0.0,2.123656749725342,4.952572929650106,0.0,0.26673635840415955,-1.5069969336139124,-0.0,-0.01623372733592987,-0.19037086168398076,0.0,-0.015727614983916283,1.25931978225708,0.0,0.009906488470733166
159.0,139.0,-0.4696,-0.0377,9.5294,-0.0336,0.0272,-0.1156,-2.1585122547545375,0.0,4.532314777374268,-1.2676268815994263,-0.0,2.1233768463134766,4.952564763813772,0.0,0.2772260904312134,-1.5069454352008265,-0.0,-0.01182157825678587,-0.19029409090151006,0.0,-0.0017995887901633978,1.2593716382980347,0.0,0.008623304776847363
159.0,139.0,-0.4696,-0.0377,9.5294,-0.0336,0.0272,-0.1156,-2.1585079632201136,0.0,4.4755539894104,-1.2675628662109375,-0.0,2.130354166030884,4.952556940704145,0.0,0.2674694061279297,-1.5070088545428675,-0.0,-0.021816186606884003,-0.19031888643373662,0.0,-0.0011619466822594404,1.259407639503479,0.0,-0.008409122005105019
159.0,139.0,-0.4696,-0.0377,9.5294,-0.0336,0.0272,-0.1156,-2.1585360966124476,0.0,4.486243724822998,-1.2676236629486084,-0.0,2.053605556488037,4.952597054630079,0.0,0.26538628339767456,-1.5070446173297327,-0.0,-0.01952795498073101,-0.19029504457582647,0.0,0.008027358911931515,1.25935959815979,0.0,0.016883572563529015
159.0,139.0,-0.4696,-0.0377,9.5294,-0.0336,0.0272,-0.1156,-2.1585122547545375,0.0,4.512789726257324,-1.2676277160644531,-0.0,2.1541903018951416,4.952548715263166,0.0,0.2808065414428711,-1.506988827382223,-0.0,-0.013084886595606804,-0.1903021971331995,0.0,-0.002425277139991522,1.259387731552124,0.0,-0.06876833736896515
159.0,139.0,-0.4696,-0.0377,9.5294,-0.0336,0.0272,-0.1156,-2.1584798298277796,0.0,4.486475944519043,-1.2676310539245605,-0.0,2.0598926544189453,4.952552395849981,0.0,0.2603943347930908,-1.5069969336139124,-0.0,-0.014050029218196869,-0.19035512605776006,0.0,-0.0029120887629687786,1.2593958377838135,0.0,0.047094035893678665
159.0,139.0,-0.4696,-0.0377,9.5294,-0.0336,0.0272,-0.1156,-2.1585360966124476,0.0,4.486502647399902,-1.2676268815994263,-0.0,2.1309540271759033,4.952516707568922,0.0,0.27882906794548035,-1.5070250670062464,-0.0,-0.01822986826300621,-0.1903632322894495,0.0,-0.0030159614980220795,1.2593716382980347,0.0,-0.0019523571245372295
159.0,139.0,-0.4696,-0.0377,9.5294,-0.0336,0.0272,-0.1156,-2.1584960422911585,0.0,4.452239036560059,-1.267542839050293,-0.0,2.096801280975342,4.952560695796766,0.0,0.25961026549339294,-1.5069692770587366,-0.0,-0.017912384122610092,-0.19035846391786748,0.0,0.008434292860329151,1.2593677043914795,0.0,0.005257685203105211
160.0,141.0,-0.4493,-0.0245,9.5438,-0.0412,0.0246,-0.1142,-2.1585360966124476,0.0,4.513421058654785,-1.2676194906234741,-0.0,2.0731630325317383,4.952548730164327,0.0,0.26764029264450073,-1.507000748311178,-0.0,-0.01287055853754282,-0.19033462205995733,0.0,0.004644704982638359,1.2594116926193237,0.0,-0.026896286755800247
160.0,141.0,-0.4493,-0.0245,9.5438,-0.0412,0.0246,-0.1142,-2.1584917507567347,0.0,4.482135772705078,-1.267647385597229,-0.0,2.10054349899292,4.952577012568273,0.0,0.27671098709106445,-1.507012669240133,-0.0,-0.02104373089969158,-0.1903751532184046,0.0,0.0056611537002027035,1.259375810623169,0.0,0.006242434959858656
160.0,141.0,-0.4493,-0.0245,9.5438,-0.0412,0.0246,-0.1142,-2.1584836445250453,0.0,4.479910850524902,-1.2676072120666504,-0.0,2.0868752002716064,4.9525286732013605,0.0,0.2683955132961273,-1.5069969336139124,-0.0,-0.018553312867879868,-0.19039518037904912,0.0,0.0031136241741478443,1.259387731552124,0.0,0.0012842752039432526
160.0,141.0,-0.4493,-0.0245,9.5438,-0.0412,0.0246,-0.1142,-2.1585003338255824,0.0,4.493422985076904,-1.2676516771316528,-0.0,2.1237356662750244,4.952581065684118,0.0,0.27091193199157715,-1.507016960774557,-0.0,-0.02932395413517952,-0.19035131136049444,0.0,-0.0037757577374577522,1.259375810623169,0.0,-0.005604073405265808
160.0,141.0,-0.4493,-0.0245,9.5438,-0.0412,0.0246,-0.1142,-2.15850367168569,0.0,4.510907173156738,-1.2676752805709839,-0.0,2.08675217628479,4.952524500876226,0.0,0.2664504051208496,-1.5069969336139124,-0.0,-0.026897333562374115,-0.19035512605776006,0.0,0.002182290656492114,1.2593516111373901,0.0,0.005322928074747324
160.0,141.0,-0.4493,-0.0245,9.5438,-0.0412,0.0246,-0.1142,-2.158487936059469,0.0,4.4735870361328125,-1.2676031589508057,-0.0,2.0994818210601807,4.952508556633749,0.0,0.2696169316768646,-1.5069969336139124,-0.0,-0.00570380873978138,-0.19035894075502569,0.0,-0.006683765910565853,1.259339690208435,0.0,-0.006474211346358061
160.0,141.0,-0.4493,-0.0245,9.5438,-0.0412,0.0246,-0.1142,-2.1585356197752894,0.0,4.511496067047119,-1.2676597833633423,-0.0,2.110412120819092,4.952560680895605,0.0,0.27128899097442627,-1.507012669240133,-0.0,-0.021805360913276672,-0.1903145948993128,0.0,0.001668916898779571,1.259407639503479,0.0,-0.009031809866428375
160.0,141.0,-0.4493,-0.0245,9.5438,-0.0412,0.0246,-0.1142,-2.1585198841490687,0.0,4.490094184875488,-1.2676154375076294,-0.0,2.1581194400787354,4.952528688102522,0.0,0.27597498893737793,-1.5069931189166468,-0.0,-0.009650875814259052,-0.19034320512880498,0.0,0.0016298701521009207,1.259375810623169,0.0,-0.016800498589873314
160.0,141.0,-0.4493,-0.0245,9.5438,-0.0412,0.0246,-0.1142,-2.1585241756834925,0.0,4.4997992515563965,-1.26763916015625,-0.0,2.0507349967956543,4.952500375896253,0.0,0.27090075612068176,-1.5070088545428675,-0.0,-0.017145734280347824,-0.19033462205995733,0.0,0.0013185222633183002,1.259387731552124,0.0,-0.04131783917546272
160.0,141.0,-0.4493,-0.0245,9.5438,-0.0412,0.0246,-0.1142,-2.15850367168569,0.0,4.503269195556641,-1.2676434516906738,-0.0,2.1029510498046875,4.952528643399038,0.0,0.26924929022789,-1.5069850126849573,-0.0,-0.010644479654729366,-0.19033891359438115,0.0,-0.01404816284775734,1.2593517303466797,0.0,-0.03715278208255768
160.0,141.0,-0.4493,-0.0245,9.5438,-0.0412,0.0246,-0.1142,-2.15850367168569,0.0,4.452300071716309,-1.267615556716919,-0.0,2.0843777656555176,4.952529090433874,0.0,0.26465171575546265,-1.5069692770587366,-0.0,-0.009114604443311691,-0.1903312841998499,0.0,0.005609327461570501,1.25935959815979,0.0,0.005011070054024458
160.0,141.0,-0.4493,-0.0245,9.5438,-0.0412,0.0246,-0.1142,-2.1585399113097132,0.0,4.519545555114746,-1.2676236629486084,-0.0,2.1149189472198486,4.952585118799963,0.0,0.26880934834480286,-1.5070050398456019,-0.0,-0.013738389126956463,-0.19032699266542608,0.0,-0.0014959233812987804,1.259407639503479,0.0,-0.016035016626119614
160.0,141.0,-0.4493,-0.0245,9.5438,-0.0412,0.0246,-0.1142,-2.1585642300047816,0.0,4.52269983291626,-1.267579436302185,-0.0,2.0748748779296875,4.952492120652952,0.0,0.27385765314102173,-1.5069611708270472,-0.0,-0.02940145879983902,-0.19032270113100225,0.0,0.008676040917634964,1.2593717575073242,0.0,0.014004616998136044
160.0,141.0,-0.4493,-0.0245,9.5438,-0.0412,0.0246,-0.1142,-2.1585480175414027,0.0,4.511573791503906,-1.2675753831863403,-0.0,2.1337594985961914,4.952552827983656,0.0,0.26171717047691345,-1.5069769064532679,-0.0,-0.005298564210534096,-0.1903145948993128,0.0,0.0009231525473296642,1.259419560432434,0.0,-0.019774582237005234
157.0,143.0,-0.317,0.0293,9.3129,-0.0377,0.0304,-0.1167,-2.1585198841490687,0.0,4.448742389678955,-1.2676433324813843,-0.0,2.1106908321380615,4.952528658300199,0.0,0.266015887260437,-1.5069931189166468,-0.0,-0.017743892967700958,-0.19034320512880498,0.0,0.002477752510458231,1.2593797445297241,0.0,0.032189417630434036
157.0,143.0,-0.317,0.0293,9.3129,-0.0377,0.0304,-0.1167,-2.1584917507567347,0.0,4.486294746398926,-1.267562747001648,-0.0,2.1054139137268066,4.952564778714933,0.0,0.26752233505249023,-1.5069931189166468,-0.0,-0.02645110711455345,-0.19033891359438115,0.0,0.004726874642074108,1.2593318223953247,0.0,0.013827813789248466
157.0,143.0,-0.317,0.0293,9.3129,-0.0377,0.0304,-0.1167,-2.158487936059469,0.0,4.494042873382568,-1.26763916015625,-0.0,2.1122348308563232,4.95254464724616,0.0,0.2763243019580841,-1.5070050398456019,-0.0,-0.019543014466762543,-0.1903021971331995,0.0,0.004551411606371403,1.259339690208435,0.0,0.01718420535326004
157.0,143.0,-0.317,0.0293,9.3129,-0.0377,0.0304,-0.1167,-2.1585236988463343,0.0,4.528369426727295,-1.2676031589508057,-0.0,2.120295763015747,4.952560680895605,0.0,0.26052165031433105,-1.5069649855243128,-0.0,-0.0218990296125412,-0.1902702490435999,0.0,0.008299704641103745,1.2593636512756348,0.0,0.00913969799876213
157.0,143.0,-0.317,0.0293,9.3129,-0.0377,0.0304,-0.1167,-2.158487936059469,0.0,4.478687763214111,-1.2675957679748535,-0.0,2.1156563758850098,4.9525687275226495,0.0,0.27773967385292053,-1.5069573561297815,-0.0,-0.015550840646028519,-0.19028979936708623,0.0,0.003198350081220269,1.2594196796417236,0.0,-0.03383682668209076
157.0,143.0,-0.317,0.0293,9.3129,-0.0377,0.0304,-0.1167,-2.158527990380758,0.0,4.486087799072266,-1.2676588296890259,-0.0,2.134230613708496,4.952548745065489,0.0,0.2548081874847412,-1.5070369879352015,-0.0,-0.02989409677684307,-0.19033891359438115,0.0,0.008980770595371723,1.2592997550964355,0.0,0.0047991410829126835
157.0,143.0,-0.317,0.0293,9.3129,-0.0377,0.0304,-0.1167,-2.1585122547545375,0.0,4.47279691696167,-1.2675949335098267,-0.0,2.098914384841919,4.952548745065489,0.0,0.26114553213119507,-1.507012669240133,-0.0,-0.013364214450120926,-0.19033462205995733,0.0,-0.0018846839666366577,1.259375810623169,0.0,-0.00859951414167881
157.0,143.0,-0.317,0.0293,9.3129,-0.0377,0.0304,-0.1167,-2.158544202844137,0.0,4.479722023010254,-1.2675949335098267,-0.0,2.0453720092773438,4.952568816929617,0.0,0.2701723575592041,-1.5070331732379358,-0.0,-0.011214221827685833,-0.19033462205995733,0.0,-0.0020062208641320467,1.2593917846679688,0.0,-0.025955161079764366
157.0,143.0,-0.317,0.0293,9.3129,-0.0377,0.0304,-0.1167,-2.1584836445250453,0.0,4.511404514312744,-1.2676112651824951,-0.0,2.1583123207092285,4.9525568810995,0.0,0.2713780105113983,-1.506988827382223,-0.0,-0.021063752472400665,-0.1903470198260706,0.0,0.0011708415113389492,1.25935959815979,0.0,-0.0037899487651884556
157.0,143.0,-0.317,0.0293,9.3129,-0.0377,0.0304,-0.1167,-2.15850367168569,0.0,4.48219108581543,-1.2675390243530273,-0.0,2.0641117095947266,4.952556553273954,0.0,0.26965758204460144,-1.5069931189166468,-0.0,-0.00801199022680521,-0.1902983824359339,0.0,-0.0018836960662156343,1.2593755722045898,0.0,-0.02696409821510315
157.0,143.0,-0.317,0.0293,9.3129,-0.0377,0.0304,-0.1167,-2.158487936059469,0.0,4.518927574157715,-1.267587661743164,-0.0,2.111721992492676,4.9525285986955545,0.0,0.2642368972301483,-1.5069730917560022,-0.0,-0.025409873574972153,-0.19037038484682256,0.0,0.0026586393360048532,1.259407639503479,0.0,-0.004927838686853647
157.0,143.0,-0.317,0.0293,9.3129,-0.0377,0.0304,-0.1167,-2.15847172359609,0.0,4.527091026306152,-1.267599105834961,-0.0,2.1119534969329834,4.95254464724616,0.0,0.26707184314727783,-1.5070250670062464,-0.0,-0.019085105508565903,-0.1903145948993128,0.0,-0.004755986854434013,1.2593958377838135,0.0,-0.0013225441798567772
157.0,143.0,-0.317,0.0293,9.3129,-0.0377,0.0304,-0.1167,-2.1584836445250453,0.0,4.520641803741455,-1.267647385597229,-0.0,2.105447292327881,4.952556493669309,0.0,0.2727489173412323,-1.5069769064532679,-0.0,-0.009722821414470673,-0.19032270113100225,0.0,-0.001977251609787345,1.2593798637390137,0.0,0.0036114449612796307
157.0,143.0,-0.317,0.0293,9.3129,-0.0377,0.0304,-0.1167,-2.1585480175414027,0.0,4.487986087799072,-1.2676359415054321,-0.0,2.1109681129455566,4.952508511930265,0.0,0.2738783359527588,-1.5070250670062464,-0.0,-0.013159800320863724,-0.19032270113100225,0.0,0.009120834991335869,1.259407639503479,0.0,0.05808575078845024
157.0,143.0,-0.317,0.0293,9.3129,-0.0377,0.0304,-0.1167,-2.158487936059469,0.0,4.450745582580566,-1.267647385597229,-0.0,2.0936498641967773,4.952572825341978,0.0,0.2606936991214752,-1.507000748311178,-0.0,-0.023392416536808014,-0.19027883211244756,0.0,0.013689935207366943,1.2593718767166138,0.0,0.04891597852110863
151.0,141.0,-0.5103,-0.0784,9.4798,-0.0463,0.0272,-0.1229,-2.158487936059469,0.0,4.525217056274414,-1.2676236629486084,-0.0,2.1129775047302246,4.952577012568273,0.0,0.26575425267219543,-1.5069769064532679,-0.0,-0.009537331759929657,-0.19035512605776006,0.0,0.005623307544738054,1.2593677043914795,0.0,-0.016678636893630028
151.0,141.0,-0.5103,-0.0784,9.4798,-0.0463,0.0272,-0.1229,-2.1585079632201136,0.0,4.501513481140137,-1.2675710916519165,-0.0,2.0813851356506348,4.952568816929617,0.0,0.2561465799808502,-1.5070212523089808,-0.0,-0.01326148584485054,-0.19030648866762334,0.0,-0.005578316282480955,1.25936758518219,0.0,-0.029989035800099373
151.0,141.0,-0.5103,-0.0784,9.4798,-0.0463,0.0272,-0.1229,-2.158520360986227,0.0,4.5003204345703125,-1.2676597833633423,-0.0,2.1486663818359375,4.9525207606847665,0.0,0.2637333869934082,-1.507028881703512,-0.0,-0.01793569326400757,-0.1903312841998499,0.0,-0.014407582581043243,1.2593718767166138,0.0,-0.05793076008558273
151.0,141.0,-0.5103,-0.0784,9.4798,-0.0463,0.0272,-0.1229,-2.158516069451803,0.0,4.525904655456543,-1.2676112651824951,-0.0,2.0697944164276123,4.952504399209776,0.0,0.26865339279174805,-1.5070212523089808,-0.0,-0.013800466433167458,-0.19035512605776006,0.0,-0.005889100953936577,1.2593555450439453,0.0,-0.01912984997034073
151.0,141.0,-0.5103,-0.0784,9.4798,-0.0463,0.0272,-0.1229,-2.158515592614645,0.0,4.543630123138428,-1.2676196098327637,-0.0,2.122626781463623,4.952524500876226,0.0,0.2629951238632202,-1.5069969336139124,-0.0,-0.012716179713606834,-0.19033891359438115,0.0,-0.00793748814612627,1.259407639503479,0.0,0.012623557820916176
151.0,141.0,-0.5103,-0.0784,9.4798,-0.0463,0.0272,-0.1229,-2.15847172359609,0.0,4.486381530761719,-1.2675670385360718,-0.0,2.1151657104492188,4.952572870045461,0.0,0.26581010222435,-1.5069769064532679,-0.0,-0.01944160833954811,-0.19034320512880498,0.0,0.0007522939704358578,1.25936758518219,0.0,-0.013574428856372833
151.0,141.0,-0.5103,-0.0784,9.4798,-0.0463,0.0272,-0.1229,-2.1585241756834925,0.0,4.463255882263184,-1.2675999402999878,-0.0,2.056344509124756,4.952508497029104,0.0,0.2657868564128876,-1.5070446173297327,-0.0,-0.026461083441972733,-0.19031888643373662,0.0,-0.009624579921364784,1.2593477964401245,0.0,-0.009227241389453411
151.0,141.0,-0.5103,-0.0784,9.4798,-0.0463,0.0272,-0.1229,-2.1585360966124476,0.0,4.517374515533447,-1.267615556716919,-0.0,2.115604877471924,4.952564719110288,0.0,0.27401378750801086,-1.5070331732379358,-0.0,-0.021014204248785973,-0.1903465429889124,0.0,-0.00948344450443983,1.2593555450439453,0.0,0.025726424530148506
151.0,141.0,-0.5103,-0.0784,9.4798,-0.0463,0.0272,-0.1229,-2.158499856988424,0.0,4.473261833190918,-1.2676441669464111,-0.0,2.0882670879364014,4.952548730164327,0.0,0.2657507061958313,-1.506988827382223,-0.0,-0.012335538864135742,-0.1903145948993128,0.0,-0.002974139526486397,1.2593516111373901,0.0,0.0032615242525935173
151.0,141.0,-0.5103,-0.0784,9.4798,-0.0463,0.0272,-0.1229,-2.158572336236471,0.0,4.409073829650879,-1.2676630020141602,-0.0,2.138751745223999,4.952532726317205,0.0,0.26622331142425537,-1.507000748311178,-0.0,-0.015731332823634148,-0.19030648866762334,0.0,0.004059228580445051,1.259375810623169,0.0,0.015846118330955505
151.0,141.0,-0.5103,-0.0784,9.4798,-0.0463,0.0272,-0.1229,-2.1585360966124476,0.0,4.502992630004883,-1.267587661743164,-0.0,2.0885250568389893,4.95253677943305,0.0,0.26773613691329956,-1.5070212523089808,-0.0,-0.01897834800183773,-0.1903312841998499,0.0,-0.0023671071976423264,1.259419560432434,0.0,-0.00406194943934679
151.0,141.0,-0.5103,-0.0784,9.4798,-0.0463,0.0272,-0.1229,-2.158487459222311,0.0,4.481346130371094,-1.2676112651824951,-0.0,2.1476292610168457,4.952564689307966,0.0,0.264755517244339,-1.5070088545428675,-0.0,-0.012655998580157757,-0.1903312841998499,0.0,-0.003270832821726799,1.2594115734100342,0.0,-0.05023759976029396
151.0,141.0,-0.5103,-0.0784,9.4798,-0.0463,0.0272,-0.1229,-2.1585198841490687,0.0,4.5021281242370605,-1.2675957679748535,-0.0,2.0698678493499756,4.952508497029104,0.0,0.27684932947158813,-1.5070446173297327,-0.0,-0.02211160585284233,-0.19033891359438115,0.0,0.0036607214715331793,1.2593954801559448,0.00026628683554008603,-0.004363847430795431
151.0,141.0,-0.5103,-0.0784,9.4798,-0.0463,0.0272,-0.1229,-2.15850367168569,0.0,4.520336627960205,-1.2675917148590088,-0.0,2.1206610202789307,4.952572810440817,0.0,0.27473098039627075,-1.5070412794696253,-0.0,-0.01916680485010147,-0.1903145948993128,0.0,0.0023142960853874683,1.2594155073165894,0.0006697797798551619,0.012594034895300865
157.0,141.0,-0.3954,0.0754,9.7974,-0.0385,0.0212,-0.11,-2.1585241756834925,0.0,4.444313049316406,-1.2676318883895874,-0.0,2.1588006019592285,4.95254464724616,0.0,0.2684928774833679,-1.5070050398456019,-0.0,-0.015534259378910065,-0.1903312841998499,0.0,-0.01057230681180954,1.2594194412231445,0.0006630796706303954,0.014144831337034702
157.0,141.0,-0.3954,0.0754,9.7974,-0.0385,0.0212,-0.11,-2.1584917507567347,0.0,4.519068241119385,-1.2676039934158325,-0.0,2.087233781814575,4.952556493669309,0.0,0.26985737681388855,-1.5070050398456019,-0.0,-0.0242815800011158,-0.19035083452333623,0.0,0.0045408522710204124,1.2594273090362549,0.0006448568892665207,0.0342165045440197
157.0,141.0,-0.3954,0.0754,9.7974,-0.0385,0.0212,-0.11,-2.1585079632201136,0.0,4.522716045379639,-1.2675591707229614,-0.0,2.098726749420166,4.952548730164327,0.0,0.275382936000824,-1.5070050398456019,-0.0,-0.017764700576663017,-0.19038707414735967,0.0,0.006047520786523819,1.259439468383789,0.000508994038682431,-0.0387578159570694
157.0,141.0,-0.3954,0.0754,9.7974,-0.0385,0.0212,-0.11,-2.15847172359609,0.0,4.477936744689941,-1.2675957679748535,-0.0,2.0908241271972656,4.95256473401145,0.0,0.2606355547904968,-1.5069931189166468,-0.0,-0.021765323355793953,-0.19031888643373662,0.0,-0.0018917418783530593,1.2593916654586792,0.0004199198156129569,0.01439422182738781
157.0,141.0,-0.3954,0.0754,9.7974,-0.0385,0.0212,-0.11,-2.158544202844137,0.0,4.479696273803711,-1.2676112651824951,-0.0,2.09454345703125,4.95254464724616,0.0,0.26332998275756836,-1.506988827382223,-0.0,-0.009967824444174767,-0.19036704698671514,0.0,0.003610414918512106,1.259447455406189,0.00034048009547404945,-0.004573175683617592
157.0,141.0,-0.3954,0.0754,9.7974,-0.0385,0.0212,-0.11,-2.1584960422911585,0.0,4.510153770446777,-1.2676557302474976,-0.0,2.088503360748291,4.95256473401145,0.0,0.2703531086444855,-1.5070250670062464,-0.0,-0.017299655824899673,-0.19033891359438115,0.0,-0.0011924044229090214,1.259419560432434,0.00023237238929141313,0.03491916134953499
157.0,141.0,-0.3954,0.0754,9.7974,-0.0385,0.0212,-0.11,-2.158487936059469,0.0,4.505552768707275,-1.2676236629486084,-0.0,2.1225359439849854,4.9525606510932825,0.0,0.27001267671585083,-1.5070293585406702,-0.0,-0.016988907009363174,-0.190286938344137,0.0,0.008200377225875854,1.2594513893127441,0.00020119974215049297,-0.029854433611035347
157.0,141.0,-0.3954,0.0754,9.7974,-0.0385,0.0212,-0.11,-2.1585728130736292,0.0,4.486006736755371,-1.2675834894180298,-0.0,2.1496031284332275,4.952532726317205,0.0,0.26544684171676636,-1.5070255438434046,-0.0,-0.01812814548611641,-0.1902983824359339,0.0,-0.002211757702752948,1.2594354152679443,0.00014192253001965582,-0.0003423048183321953
157.0,141.0,-0.3954,0.0754,9.7974,-0.0385,0.0212,-0.11,-2.1585241756834925,0.0,4.491733551025391,-1.2676557302474976,-0.0,2.119483470916748,4.952581050782957,0.0,0.26523905992507935,-1.5070131460772913,-0.0,-0.018467288464307785,-0.19035894075502569,0.0,-0.003735528327524662,1.2594035863876343,0.0001269118656637147,0.011631898581981659
157.0,141.0,-0.3954,0.0754,9.7974,-0.0385,0.0212,-0.11,-2.1585079632201136,0.0,4.4621171951293945,-1.267587661743164,-0.0,2.102083683013916,4.952556493669309,0.0,0.2692197561264038,-1.5070293585406702,-0.0,-0.028980785980820656,-0.1903594175921839,0.0,0.006025085225701332,1.259419560432434,0.00011477309453766793,-0.009846244938671589
157.0,141.0,-0.3954,0.0754,9.7974,-0.0385,0.0212,-0.11,-2.158520360986227,0.0,4.531541347503662,-1.2676196098327637,-0.0,2.1206722259521484,4.95254464724616,0.0,0.26501715183258057,-1.5069969336139124,-0.0,-0.007430477533489466,-0.1903021971331995,0.0,-0.0028955689631402493,1.2594354152679443,0.00010475379531271756,0.019823959097266197
157.0,141.0,-0.3954,0.0754,9.7974,-0.0385,0.0212,-0.11,-2.158516069451803,4.3081310741044376e-10,4.515378475189209,-1.2675949335098267,-0.0,2.1170992851257324,4.952496382385053,0.0,0.2559887766838074,-1.5070131460772913,-0.0,-0.024275146424770355,-0.19032270113100225,0.0,-0.012945468537509441,1.259459376335144,9.634332673158497e-05,0.0010068761184811592
157.0,141.0,-0.3954,0.0754,9.7974,-0.0385,0.0212,-0.11,-2.1584798298277796,1.3957796025383036e-17,4.5066046714782715,-1.2675710916519165,-0.0,2.060481309890747,4.952532726317205,0.0,0.26470622420310974,-1.5069845358477991,-0.0,-0.019021205604076385,-0.1902983824359339,0.0,-0.0004078939091414213,1.2593836784362793,8.702722698217258e-05,-0.009564799256622791
157.0,141.0,-0.3954,0.0754,9.7974,-0.0385,0.0212,-0.11,-2.1585241756834925,3.370643298106529e-23,4.48091983795166,-1.2676277160644531,-0.0,2.092024087905884,4.952528658300199,0.0,0.2682271897792816,-1.5069969336139124,-0.0,-0.017964821308851242,-0.19040328661073858,0.0,-0.0012685145484283566,1.2594473361968994,8.114255615510046e-05,-0.008252284489572048
157.0,141.0,-0.3954,0.0754,9.7974,-0.0385,0.0212,-0.11,-2.15850367168569,8.139706983534465e-29,4.550136089324951,-1.2676310539245605,-0.0,2.109135389328003,4.9525528130824945,0.0,0.27065593004226685,-1.5069769064532679,-0.0,-0.010980235412716866,-0.19030648866762334,0.0,-0.008380215615034103,1.2594553232192993,7.600337266921997e-05,-0.00033124908804893494
157.0,138.0,-0.6114,-0.1974,9.4995,-0.0394,0.0258,-0.1133,-2.158544202844137,1.9656432863457976e-34,4.524672508239746,-1.2675710916519165,-0.0,2.0985381603240967,4.952540489822187,0.0,0.2605980932712555,-1.507016960774557,-0.0,-0.008796081878244877,-0.19031030336488897,0.0,0.010618454776704311,1.2594035863876343,7.147632277337834e-05,-0.011632425710558891
157.0,138.0,-0.6114,-0.1974,9.4995,-0.0394,0.0258,-0.1133,-2.1585079632201136,4.746800457007815e-40,4.515251159667969,-1.2676351070404053,-0.0,2.1317617893218994,4.952536809235372,0.0,0.28215494751930237,-1.5069807211505335,-0.0,-0.028580093756318092,-0.1903312841998499,0.0,0.010029465891420841,1.2594155073165894,6.745838618371636e-05,-0.010185074992477894
157.0,138.0,-0.6114,-0.1974,9.4995,-0.0394,0.0258,-0.1133,-2.15850367168569,1.401298464324817e-45,4.517522811889648,-1.2676031589508057,-0.0,2.1610522270202637,4.95254464724616,0.0,0.26643335819244385,-1.5070045630084437,-0.0,-0.010960407555103302,-0.19031078020204717,0.0,-0.0026937988586723804,1.259507417678833,2.2875838112668134e-05,0.04163529723882675
157.0,138.0,-0.6114,-0.1974,9.4995,-0.0394,0.0258,-0.1133,-2.1585480175414027,0.0,4.451840400695801,-1.2675591707229614,-0.0,2.1446151733398438,4.9525528130824945,0.0,0.2675982117652893,-1.5070045630084437,-0.0,-0.018245210871100426,-0.19035083452333623,0.0,0.0024963703472167253,1.259419560432434,2.1235813619568944e-05,-0.043243035674095154
157.0,138.0,-0.6114,-0.1974,9.4995,-0.0394,0.0258,-0.1133,-2.158487936059469,0.0,4.507256984710693,-1.26763916015625,-0.0,2.1256866455078125,4.95257696786479,0.0,0.2730579972267151,-1.5070088545428675,-0.0,-0.007310729008167982,-0.19032699266542608,0.0,-0.002250397577881813,1.259399652481079,1.983200309041422e-05,-0.012934114784002304
157.0,138.0,-0.6114,-0.1974,9.4995,-0.0394,0.0258,-0.1133,-2.1585079632201136,0.0,4.4653239250183105,-1.2676112651824951,-0.0,2.1349542140960693,4.9525528130824945,0.0,0.26793137192726135,-1.507033650075094,-0.0,-0.015345584601163864,-0.19034320512880498,0.0,0.01664503663778305,1.2594635486602783,3.644770913524553e-05,-0.02497878484427929
157.0,138.0,-0.6114,-0.1974,9.4995,-0.0394,0.0258,-0.1133,-2.1585360966124476,0.0,4.499673843383789,-1.2675591707229614,-0.0,2.1404337882995605,4.9525528130824945,0.0,0.2671518921852112,-1.5069769064532679,-0.0,-0.016884375363588333,-0.19029075304140264,0.0,-0.00021012965589761734,1.2594432830810547,3.436349652474746e-05,0.010359256528317928
157.0,138.0,-0.6114,-0.1974,9.4995,-0.0394,0.0258,-0.1133,-2.1585399113097132,0.0,4.489804744720459,-1.2676194906234741,-0.0,2.113095760345459,4.952597039728918,0.0,0.26722294092178345,-1.5070045630084437,-0.0,-0.017473971471190453,-0.19033462205995733,0.0,0.008224736899137497,1.2594155073165894,4.810358950635418e-05,-0.041398756206035614
157.0,138.0,-0.6114,-0.1974,9.4995,-0.0394,0.0258,-0.1133,-2.1584960422911585,0.0,4.537763595581055,-1.2675591707229614,-0.0,2.100191593170166,4.95254464724616,0.0,0.26883602142333984,-1.5069969336139124,-0.0,-0.011140551418066025,-0.19034320512880498,0.0,0.0024919728748500347,1.2594555616378784,4.6247863792814314e-05,-0.0006382113788276911
157.0,138.0,-0.6114,-0.1974,9.4995,-0.0394,0.0258,-0.1133,-2.1585642300047816,0.0,4.4676008224487305,-1.26763916015625,-0.0,2.102066993713379,4.95257696786479,0.0,0.2672661542892456,-1.507000748311178,-0.0,-0.01601291447877884,-0.19033891359438115,0.0,0.0041284202598035336,1.2594635486602783,4.39875184383709e-05,0.022919543087482452
157.0,138.0,-0.6114,-0.1974,9.4995,-0.0394,0.0258,-0.1133,-2.158531805078024,0.0,4.514906406402588,-1.2675632238388062,-0.0,2.092170238494873,4.95256473401145,0.0,0.27189165353775024,-1.5070012251483362,-0.0,-0.02282559499144554,-0.19031030336488897,0.0,0.000991492997854948,1.2594114542007446,4.195447763777338e-05,-0.03685084730386734
157.0,138.0,-0.6114,-0.1974,9.4995,-0.0394,0.0258,-0.1133,-2.15858854869985,0.0,4.513443946838379,-1.2675957679748535,-0.0,2.1241605281829834,4.95258920171813,0.0,0.28235167264938354,-1.507040802632467,-0.0,-0.022333048284053802,-0.19037896791567022,0.0,0.004805387929081917,1.2594432830810547,6.0297068557702005e-05,-0.009303104132413864
157.0,138.0,-0.6114,-0.1974,9.4995,-0.0394,0.0258,-0.1133,-2.1584836445250453,0.0,4.476668834686279,-1.267615556716919,-0.0,2.1274921894073486,4.952584731369772,0.0,0.27243417501449585,-1.5070012251483362,-0.0,-0.015881767496466637,-0.19035131136049444,0.0,-0.00956757739186287,1.2594473361968994,5.317222894518636e-05,0.02883882261812687
157.0,138.0,-0.6114,-0.1974,9.4995,-0.0394,0.0258,-0.1133,-2.1585399113097132,0.0,4.49949312210083,-1.2676031589508057,-0.0,2.1138877868652344,4.95249633768157,0.0,0.26593759655952454,-1.5069807211505335,-0.0,-0.015494159422814846,-0.1903470198260706,0.0,-0.00753052718937397,1.259419560432434,4.884359077550471e-05,-0.02446528896689415
159.0,143.0,-0.5928,-0.082,9.7214,-0.0386,0.0224,-0.1161,-2.158544202844137,0.0,4.4766154289245605,-1.2676351070404053,-0.0,2.0849270820617676,4.952593359142103,0.0,0.26586681604385376,-1.506988827382223,-0.0,-0.019633745774626732,-0.19035512605776006,0.0,-0.008830003440380096,1.259407639503479,4.5166747440816835e-05,0.006242551375180483
159.0,143.0,-0.5928,-0.082,9.7214,-0.0386,0.0224,-0.1161,-2.158475538293356,0.0,4.500786781311035,-1.2676039934158325,-0.0,2.1588985919952393,4.952540489822187,0.0,0.27519434690475464,-1.5070369879352015,-0.0,-0.020710323005914688,-0.1902702490435999,0.0,-0.010294618085026741,1.2594354152679443,2.3463724573957734e-05,-0.018682964146137238
159.0,143.0,-0.5928,-0.082,9.7214,-0.0386,0.0224,-0.1161,-2.1585198841490687,0.0,4.496460914611816,-1.2676081657409668,-0.0,2.1044881343841553,4.95254464724616,0.0,0.26616036891937256,-1.5069807211505335,-0.0,-0.017285410314798355,-0.19029504457582647,0.0,0.006012849975377321,1.259375810623169,1.9628219888545573e-05,0.04725395143032074
159.0,143.0,-0.5928,-0.082,9.7214,-0.0386,0.0224,-0.1161,-2.1585399113097132,0.0,4.547788619995117,-1.267672061920166,-0.0,2.1114375591278076,4.95257696786479,0.0,0.2592357099056244,-1.5070045630084437,-0.0,-0.01391417346894741,-0.1903470198260706,0.0,0.0022952582221478224,1.259375810623169,4.7399844466111674e-11,0.010871133767068386
159.0,143.0,-0.5928,-0.082,9.7214,-0.0386,0.0224,-0.1161,-2.1585003338255824,0.0,4.517152309417725,-1.2675554752349854,-0.0,2.0964226722717285,4.95256062129096,0.0,0.26996931433677673,-1.5070574919330042,-0.0,-0.007984261959791183,-0.19035894075502569,0.0,0.008707373403012753,1.259439468383789,1.1446504140685116e-16,0.0020042359828948975
159.0,143.0,-0.5928,-0.082,9.7214,-0.0386,0.0224,-0.1161,-2.1585003338255824,0.0,4.511229991912842,-1.2675554752349854,-0.0,2.1256637573242188,4.952620479255476,0.0,0.2652007043361664,-1.5070088545428675,-0.0,-0.01864255592226982,-0.1903021971331995,0.0,-0.00298504251986742,1.2593797445297241,2.7641961273627995e-22,-0.0022410082165151834
159.0,143.0,-0.5928,-0.082,9.7214,-0.0386,0.0224,-0.1161,-2.1585003338255824,0.0,4.464951992034912,-1.2675957679748535,-0.0,2.0711326599121094,4.952528613596716,0.0,0.2738378643989563,-1.507000748311178,-0.0,-0.022029545158147812,-0.19032270113100225,0.0,0.0020967554301023483,1.2593716382980347,-0.00014918520173523575,-0.010778293944895267
159.0,143.0,-0.5928,-0.082,9.7214,-0.0386,0.0224,-0.1161,-2.1584798298277796,0.0,4.5231523513793945,-1.2676039934158325,-0.0,2.138617753982544,4.952600735216894,0.0,0.2657645642757416,-1.5070369879352015,-0.0,-0.022003434598445892,-0.19031888643373662,0.0,0.0021685189567506313,1.259375810623169,-0.0004464876838028431,0.021093253046274185
159.0,143.0,-0.5928,-0.082,9.7214,-0.0386,0.0224,-0.1161,-2.158520360986227,0.0,4.480169296264648,-1.267547607421875,-0.0,2.0817887783050537,4.95257696786479,0.0,0.2684326767921448,-1.5069964567767542,-0.0,-0.01054321974515915,-0.1902983824359339,0.0,-0.002698699478060007,1.2593717575073242,-0.0004032209690194577,0.0003003515303134918
159.0,143.0,-0.5928,-0.082,9.7214,-0.0386,0.0224,-0.1161,-2.1585122547545375,0.0,4.499566078186035,-1.2675999402999878,-0.0,2.146430492401123,4.952556493669309,0.0,0.2632160484790802,-1.5070131460772913,-0.0,-0.014633724465966225,-0.19031030336488897,0.0,0.004336406011134386,1.2594116926193237,-0.00035290379310026765,-0.006627668626606464
159.0,143.0,-0.5928,-0.082,9.7214,-0.0386,0.0224,-0.1161,-2.1584917507567347,0.0,4.522838115692139,-1.2675833702087402,-0.0,2.072535991668701,4.952548700362005,0.0,0.26687613129615784,-1.5070088545428675,-0.0,-0.013398494571447372,-0.19035512605776006,0.0,-0.0011355463648214936,1.25935959815979,-0.00030212634010240436,0.007143689785152674
159.0,143.0,-0.5928,-0.082,9.7214,-0.0386,0.0224,-0.1161,-2.158487936059469,0.0,4.503896713256836,-1.267519235610962,-0.0,2.136282205581665,4.952572810440817,0.0,0.26572898030281067,-1.5070369879352015,-0.0,-0.016816191375255585,-0.1903312841998499,0.0,-0.005551130976527929,1.2593958377838135,-0.0003016737464349717,-0.023054972290992737
159.0,143.0,-0.5928,-0.082,9.7214,-0.0386,0.0224,-0.1161,-2.1585003338255824,0.0,4.480944633483887,-1.2675591707229614,-0.0,2.0739707946777344,4.952548700362005,0.0,0.2649928033351898,-1.5070369879352015,-0.0,-0.01801532879471779,-0.1903312841998499,0.0,-0.0026630074717104435,1.2593636512756348,-0.0002681300975382328,0.017655594274401665
159.0,143.0,-0.5928,-0.082,9.7214,-0.0386,0.0224,-0.1161,-2.158459802667135,0.0,4.482342720031738,-1.2676039934158325,-0.0,2.1332709789276123,4.95257696786479,0.0,0.2812645435333252,-1.5070651213275355,-0.0,-0.011738505214452744,-0.19028264680971319,0.0,-0.007482311688363552,1.259387731552124,-0.0002411841123830527,-0.03953389450907707
159.0,143.0,-0.5928,-0.082,9.7214,-0.0386,0.0224,-0.1161,-2.1585360966124476,0.0,4.429299831390381,-1.2675353288650513,0.00015224893286358565,2.0665245056152344,4.9525606510932825,0.0,0.2716273069381714,-1.5070284048663538,-0.0,-0.0027524232864379883,-0.1903751532184046,0.0,-0.0018825163133442402,1.259395718574524,-0.00018610144616104662,-0.03000805713236332
161.0,143.0,-0.2512,0.0251,9.3715,-0.0376,0.0322,-0.1126,-2.1585003338255824,0.0,4.474486351013184,-1.2675837278366089,0.00014041049871593714,2.093456745147705,4.952540534525671,0.0,0.26765716075897217,-1.507057015095846,-0.0,-0.012265268713235855,-0.19029409090151006,0.0,-0.006574658676981926,1.2593516111373901,-0.0001715606776997447,-0.015411656349897385
161.0,143.0,-0.2512,0.0251,9.3715,-0.0376,0.0322,-0.1126,-2.1584960422911585,0.0,4.476917743682861,-1.267587423324585,0.0001302503515034914,2.027508020401001,4.952556493669309,0.0,0.2766856849193573,-1.507040802632467,-0.0,-0.01138325035572052,-0.1903308073626917,0.0,-0.005256687290966511,1.2593872547149658,-3.890525840688497e-05,-0.025383442640304565
161.0,143.0,-0.2512,0.0251,9.3715,-0.0376,0.0322,-0.1126,-2.158499856988424,0.0,4.50760555267334,-1.267579197883606,0.00012146126391598955,2.151015281677246,4.95252080538825,0.0,0.2651485502719879,-1.5070813337909144,-0.0,-0.02154877409338951,-0.19033462205995733,0.0,0.003539324039593339,1.2594115734100342,-4.296499866995873e-08,0.012725785374641418
161.0,143.0,-0.2512,0.0251,9.3715,-0.0376,0.0322,-0.1126,-2.1584679088988246,0.0,4.47417688369751,-1.26755952835083,0.00011378330964362249,2.035947799682617,4.95249633768157,2.6643471073839464e-07,0.2692241072654724,-1.5070493857013147,-0.0,-0.012304984033107758,-0.19028264680971319,0.0,-0.00223432295024395,1.2594354152679443,-1.0375541029637725e-13,-0.016304615885019302
161.0,143.0,-0.2512,0.0251,9.3715,-0.0376,0.0322,-0.1126,-2.1585399113097132,0.0,4.4864301681518555,-1.2675917148590088,0.00010701844439608976,2.1414177417755127,4.9525126842553995,7.416309233398977e-11,0.27461761236190796,-1.5070326964007776,-0.0,-0.01444140262901783,-0.19033891359438115,0.0,-0.01793467253446579,1.259399652481079,-2.5055709174658656e-19,-0.0017214836552739143
161.0,143.0,-0.2512,0.0251,9.3715,-0.0376,0.0322,-0.1126,-2.1585642300047816,0.0,4.489923477172852,-1.267579197883606,8.417770732194185e-05,2.1087217330932617,4.952544691949644,2.0643570200159535e-14,0.26477766036987305,-1.507040802632467,-0.0,-0.02543192356824875,-0.19037896791567022,0.0,0.004098124802112579,1.259395718574524,-6.050659285467984e-25,0.0298115536570549
161.0,143.0,-0.2512,0.0251,9.3715,-0.0376,0.0322,-0.1126,-2.158584257165426,0.0,4.470127582550049,-1.2675999402999878,7.970459409989417e-05,2.112475872039795,4.952540907054701,5.746214025120601e-18,0.2614319920539856,-1.5070532003985804,-0.0,-0.01945486292243004,-0.1903308073626917,0.0,0.004310848657041788,1.2594115734100342,-1.4611629879591198e-30,0.04937158524990082
161.0,143.0,-0.2512,0.0251,9.3715,-0.0376,0.0322,-0.1126,-2.1585685215392054,0.0,4.484067916870117,-1.2676401138305664,5.9547743148868904e-05,2.0816457271575928,4.95252904573039,1.0443459418247028e-22,0.2613154351711273,-1.5070613066302698,-0.0,-0.006673023104667664,-0.19031078020204717,0.0,0.007682297378778458,1.259407639503479,-4.733982499694943e-38,-0.015535024926066399
161.0,143.0,-0.2512,0.0251,9.3715,-0.0376,0.0322,-0.1126,-2.1585523090758265,0.0,4.525838851928711,-1.267587423324585,5.673006671713665e-05,2.065781354904175,4.952536839037695,2.90697523874997e-26,0.26723647117614746,-1.5070493857013147,-0.0,-0.021017570048570633,-0.1903308073626917,0.0,0.0028057810850441456,1.2594035863876343,-1.14906474074635e-43,-0.010516214184463024
161.0,143.0,-0.2512,0.0251,9.3715,-0.0376,0.0322,-0.1126,-2.1585356197752894,0.0,4.4723286628723145,-1.2675554752349854,5.4169293434824795e-05,2.105764627456665,4.952577116876402,8.091672786088678e-30,0.272239089012146,-1.507045094166891,-0.0,-0.014090844430029392,-0.19031078020204717,0.0,0.0008130951900966465,1.2593958377838135,0.0,-0.03851766884326935
161.0,143.0,-0.2512,0.0251,9.3715,-0.0376,0.0322,-0.1126,-2.1585241756834925,0.0,4.533151626586914,-1.2676039934158325,5.182961831451394e-05,2.0559051036834717,4.95252491810874,2.2523470931953228e-33,0.26979297399520874,-1.5070694128619593,-0.0,-0.009419328533113003,-0.19031030336488897,0.0,0.0012215124443173409,1.2593798637390137,0.0,0.010430986993014812
161.0,143.0,-0.2512,0.0251,9.3715,-0.0376,0.0322,-0.1126,-2.1585198841490687,0.0,4.471891403198242,-1.2675957679748535,4.968378198100254e-05,2.123136520385742,4.952533113747396,6.269490941011794e-37,0.25898244976997375,-1.5070326964007776,-0.0,-0.015047980472445488,-0.1903470198260706,0.0,-0.0007722584996372461,1.2593717575073242,0.0,0.06820907443761826
161.0,143.0,-0.2512,0.0251,9.3715,-0.0376,0.0322,-0.1126,-2.15850367168569,0.0,4.4703168869018555,-1.2675549983978271,4.770854866364971e-05,2.1012730598449707,4.9524966953094385,1.7451350685161974e-40,0.2657407522201538,-1.5070694128619593,-0.0,-0.018135536462068558,-0.19036704698671514,0.0,-0.007447019685059786,1.25936758518219,0.0,-0.03013155236840248
161.0,143.0,-0.2512,0.0251,9.3715,-0.0376,0.0322,-0.1126,-2.158515592614645,0.0,4.4937639236450195,-1.2675834894180298,4.5884327846579254e-05,2.076223611831665,4.952472466021337,4.90454462513686e-44,0.27580228447914124,-1.5070532003985804,-0.0,-0.025834860280156136,-0.19035083452333623,0.0,-0.00676313228905201,1.2593199014663696,-0.0010636262595653534,0.02516721934080124
154.0,135.0,-0.6502,-0.0646,9.5252,-0.0455,0.0202,-0.1228,-2.1585074863829554,0.0,4.480629920959473,-1.2675390243530273,4.3658561480697244e-05,2.109652280807495,4.952504890948095,0.0,0.2710353434085846,-1.5070131460772913,-0.0,-0.02773873880505562,-0.1903145948993128,0.0,1.7626676708459854e-05,1.259299874305725,-0.0019117878982797265,-0.04831096529960632
154.0,135.0,-0.6502,-0.0646,9.5252,-0.0455,0.0202,-0.1228,-2.158515592614645,0.0,4.488991737365723,-1.2675431966781616,4.21259792346973e-05,2.112963914871216,4.952472570329466,0.0,0.2671506702899933,-1.507016960774557,-0.0,-0.00829026848077774,-0.19033462205995733,0.0,0.0034882992040365934,1.259299874305725,-0.0024917630944401026,-0.02594338357448578
154.0,135.0,-0.6502,-0.0646,9.5252,-0.0455,0.0202,-0.1228,-2.158568044702047,0.0,4.499470233917236,-1.2676236629486084,3.052300598938018e-05,2.096050500869751,4.952480810671606,0.0,0.27564361691474915,-1.507033650075094,-0.0,-0.025415662676095963,-0.1903632322894495,0.0,-0.0001479991478845477,1.259223461151123,-0.0029202401638031006,0.014305994845926762
154.0,135.0,-0.6502,-0.0646,9.5252,-0.0455,0.0202,-0.1228,-2.158568044702047,0.0,4.515504837036133,-1.2676671743392944,1.1733483233911102e-06,2.088198661804199,4.952497142344274,-0.00033284700475633144,0.27093079686164856,-1.506988827382223,-0.0,-0.011206412687897682,-0.19035894075502569,0.0,-0.008817005902528763,1.259259819984436,-0.003795493394136429,0.02300347201526165
154.0,135.0,-0.6502,-0.0646,9.5252,-0.0455,0.0202,-0.1228,-2.1586529217162074,0.0,4.478323936462402,-1.2676277160644531,2.83349797618182e-12,2.145577907562256,4.952488991409101,-0.00033078939304687083,0.2701008915901184,-1.5070131460772913,-0.0,-0.02353421226143837,-0.1903145948993128,0.0,-0.005204373970627785,1.2592238187789917,-0.004139474127441645,0.02025514468550682
154.0,135.0,-0.6502,-0.0646,9.5252,-0.0455,0.0202,-0.1228,-2.158584257165426,-0.0002317715116078034,4.500459671020508,-1.2676112651824951,-2.740382478805259e-05,2.146183967590332,4.952456551581182,-0.00032579811522737145,0.275167852640152,-1.506988827382223,-0.0,-0.03095899149775505,-0.19033462205995733,0.0,-0.010760797187685966,1.2592278718948364,-0.004502599127590656,0.022607330232858658
154.0,135.0,-0.6502,-0.0646,9.5252,-0.0455,0.0202,-0.1228,-2.1585518322386683,-0.00020083818526472896,4.514133453369141,-1.2676275968551636,-2.622951978992205e-05,2.1222715377807617,4.952468472510137,-0.00028219696832820773,0.26809802651405334,-1.507040802632467,-0.0,-0.010849982500076294,-0.19034320512880498,0.0,-0.004244097042828798,1.2591279745101929,-0.004919456318020821,-0.05549196898937225
154.0,135.0,-0.6502,-0.0646,9.5252,-0.0455,0.0202,-0.1228,-2.158568044702047,-0.00017712129920255393,4.4924116134643555,-1.2676154375076294,-1.3066015526419505e-05,2.154684543609619,4.9524607239063165,-0.00024876100360415876,0.26625967025756836,-1.5070212523089808,-0.0,-0.021150723099708557,-0.1903021971331995,0.0,-0.0003073877887800336,1.2591121196746826,-0.00533422501757741,-0.02124994993209839
154.0,135.0,-0.6502,-0.0646,9.5252,-0.0455,0.0202,-0.1228,-2.1585637531676234,-0.00015302743122447282,4.500629425048828,-1.2675917148590088,-1.1900846402568277e-05,2.136716604232788,4.952424603491583,-0.00021482494776137173,0.2632039785385132,-1.5069807211505335,-0.0,-0.02436477318406105,-0.19034320512880498,0.0,-0.00969899632036686,1.2590761184692383,-0.005737856030464172,-0.04211924970149994
154.0,135.0,-0.6502,-0.0646,9.5252,-0.0455,0.0202,-0.1228,-2.158572336236471,-0.0001388608361594379,4.485995769500732,-1.2675999402999878,-1.144676480180351e-05,2.1444504261016846,4.952484804182806,-0.0001948864955920726,0.2709336280822754,-1.5069969336139124,-0.0,-0.014688020572066307,-0.19033462205995733,0.0,-0.011795182712376118,1.2590559720993042,-0.005355744156986475,-0.038280121982097626
154.0,135.0,-0.6502,-0.0646,9.5252,-0.0455,0.0202,-0.1228,-2.15861239055776,-0.0001270950451726094,4.4571919441223145,-1.2675957679748535,-1.102606620406732e-05,2.0816187858581543,4.952452453761854,-0.0001783351763151586,0.27067726850509644,-1.5069969336139124,-0.0,-0.026621703058481216,-0.19029504457582647,0.0,-0.005822445265948772,1.259000301361084,-0.005825473461300135,-0.018411563709378242
154.0,135.0,-0.6502,-0.0646,9.5252,-0.0455,0.0202,-0.1228,-2.1585799656310023,-0.0001171674593933858,4.4275007247924805,-1.2676360607147217,-1.0635204489517491e-05,2.1883556842803955,4.952484878688612,-0.0001817777956603095,0.2665470540523529,-1.5070050398456019,-0.0,-0.025141727179288864,-0.19034320512880498,0.0,0.004594513215124607,1.2589924335479736,-0.005878713447600603,0.015077071264386177
154.0,135.0,-0.6502,-0.0646,9.5252,-0.0455,0.0202,-0.1228,-2.158568044702047,-0.00010867817036341876,4.496077060699463,-1.2676196098327637,-1.0271086466673296e-05,2.066154956817627,4.952456551581182,-0.00017421794473193586,0.26913607120513916,-1.5069807211505335,-0.0,-0.013353398069739342,-0.1903470198260706,0.0,-0.008986970409750938,1.2589205503463745,-0.005957571789622307,-0.027753088623285294
154.0,135.0,-0.6502,-0.0646,9.5252,-0.0455,0.0202,-0.1228,-2.1585151157774867,-0.00010133627074537799,4.5186638832092285,-1.2676196098327637,-9.931081876857206e-06,2.135138988494873,4.95245290079669,-0.00014207004278432578,0.27230384945869446,-1.506932560597555,-0.0,-0.018865156918764114,-0.19035894075502569,0.0,-0.004172015469521284,1.2588846683502197,-0.006065174005925655,-0.00903386902064085
154.0,135.0,-0.6502,-0.0646,9.5252,-0.0455,0.0202,-0.1228,-2.1585518322386683,-9.4923387223389e-05,4.4925618171691895,-1.2676162719726562,-2.3982394195543044e-11,2.06726336479187,4.952484923392095,-0.00015229043492581695,0.2672184109687805,-1.5069487730609339,-0.0,-0.035055987536907196,-0.1903312841998499,0.0,0.0020861290395259857,1.2588846683502197,-0.00614166958257556,0.015558069571852684
157.0,137.0,-0.5408,-0.0724,9.5498,-0.0308,0.022,-0.1213,-2.158556123773092,-8.927398448577151e-05,4.473564624786377,-1.2675915956497192,-5.791466015865111e-17,2.105541467666626,4.9524409649665735,-0.00016384334594476968,0.2687170207500458,-1.5069931189166468,-0.0,-0.019202902913093567,-0.1903021971331995,0.0,0.004304783418774605,1.258840799331665,-0.005983833689242601,-0.04257793724536896
157.0,137.0,-0.5408,-0.0724,9.5498,-0.0308,0.022,-0.1213,-2.1585756740965785,-8.271059778053313e-05,4.530076026916504,-1.2675673961639404,-1.8763610805467684e-24,2.0749013423919678,4.952476697951116,-0.0002906345180235803,0.25987082719802856,-1.5069292227374476,-0.0,-0.015414424240589142,-0.1903632322894495,0.0,0.0032762796618044376,1.2587448358535767,-0.007024755701422691,-0.0269315205514431
157.0,137.0,-0.5408,-0.0724,9.5498,-0.0308,0.022,-0.1213,-2.1585756740965785,-9.405738092027605e-05,4.476466655731201,-1.2676080465316772,-4.531191051572305e-30,2.0979270935058594,4.952408629446783,-0.0003297666844446212,0.2619320750236511,-1.5069249312030237,-0.0,-0.012673383578658104,-0.1903145948993128,0.0,-0.005563781131058931,1.2587047815322876,-0.007489508483558893,-0.018509797751903534
157.0,137.0,-0.5408,-0.0724,9.5498,-0.0308,0.022,-0.1213,-2.1585480175414027,-8.939426334109157e-05,4.491088390350342,-1.2675514221191406,-1.0942294072580066e-35,2.087493419647217,4.952388825803556,-0.0002703290374483913,0.26869815587997437,-1.5069292227374476,-0.0,-0.027560584247112274,-0.1903312841998499,0.0,0.005545312073081732,1.2586569786071777,-0.007212990429252386,-0.04785657674074173
157.0,137.0,-0.5408,-0.0724,9.5498,-0.0308,0.022,-0.1213,-2.1585480175414027,-8.516469097230583e-05,4.484494209289551,-1.2676072120666504,-2.6424285141773076e-41,2.104027271270752,4.952444705158033,-0.000229036042583175,0.2707151770591736,-1.5069811979876917,-0.0,-0.014943759888410568,-0.19031888643373662,0.0,0.004650099202990532,1.2586569786071777,-0.006933319848030806,-0.004190407693386078
157.0,137.0,-0.5408,-0.0724,9.5498,-0.0308,0.022,-0.1213,-2.1585518322386683,-8.131736831273884e-05,4.478683948516846,-1.2675957679748535,-0.0,2.1209917068481445,4.952420565276899,-0.00023841481015551835,0.2674151659011841,-1.506977383290426,-0.0,-0.021551739424467087,-0.19020206132997686,0.0,0.006267051212489605,1.258581280708313,-0.006904972717165947,-0.020465249195694923
157.0,137.0,-0.5408,-0.0724,9.5498,-0.0308,0.022,-0.1213,-2.158572336236471,-7.780257146805525e-05,4.487746238708496,-1.2675999402999878,-0.0,2.1386780738830566,4.952436882048406,-0.00021053411182947457,0.26138532161712646,-1.5069692770587366,3.637160972402853e-08,-0.02658034861087799,-0.1902988592730921,0.0,0.01744161732494831,1.2585450410842896,-0.006847820710390806,-0.0720997229218483
157.0,137.0,-0.5408,-0.0724,9.5498,-0.0308,0.022,-0.1213,-2.1585480175414027,-7.457910396624357e-05,4.514941692352295,-1.2675514221191406,-0.0,2.0718841552734375,4.952453258424558,-0.00018848502077162266,0.2600569725036621,-1.5069406668292444,1.0124174068537606e-11,-0.02547341026365757,-0.19024306932558233,0.0,0.014979206956923008,1.258553147315979,-0.0064801485277712345,-0.051752250641584396
157.0,137.0,-0.5408,-0.0724,9.5498,-0.0308,0.022,-0.1213,-2.1586042843260707,-8.349200652446598e-05,4.525196552276611,-1.2675999402999878,-0.0,2.083029270172119,4.95246114113883,-0.00017061700054910034,0.2698782980442047,-1.506965462361471,2.818100638371686e-15,-0.02304800972342491,-0.19030315080751592,0.0,0.018198568373918533,1.2584733963012695,-0.005786268040537834,-0.048810169100761414
157.0,137.0,-0.5408,-0.0724,9.5498,-0.0308,0.022,-0.1213,-2.1586362324156703,-8.680339669808745e-05,4.468708515167236,-1.2675553560256958,-0.0,2.0585105419158936,4.952452885895529,-0.00017660317826084793,0.2712787389755249,-1.506977383290426,5.1217588887908577e-20,-0.01568593457341194,-0.1902988592730921,0.0,0.01475166529417038,1.2584056854248047,-0.004977246280759573,-0.07809973508119583
157.0,137.0,-0.5408,-0.0724,9.5498,-0.0308,0.022,-0.1213,-2.158611913720602,-8.73720709932968e-05,4.4646453857421875,-1.2675509452819824,-0.0,2.107412815093994,4.952420550375738,-0.00016299958224408329,0.268211305141449,-1.5069730917560022,1.4256605090350782e-23,-0.015707090497016907,-0.1902864615069788,0.0,0.007532018702477217,1.2584093809127808,-0.0046216887421905994,-0.04255582392215729
157.0,137.0,-0.5408,-0.0724,9.5498,-0.0308,0.022,-0.1213,-2.1586080990233363,-8.430311572737992e-05,4.472218990325928,-1.2675714492797852,-0.0,2.0745391845703125,4.952452885895529,-0.00015125845675356686,0.26837441325187683,-1.5069649855243128,3.9683782652239106e-27,-0.025348227471113205,-0.19027501741518194,0.0,0.01223374716937542,1.258413314819336,-0.00432819128036499,-0.006271285004913807
157.0,137.0,-0.5408,-0.0724,9.5498,-0.0308,0.022,-0.1213,-2.1585875950255335,-6.572825077455491e-05,4.489874839782715,-1.2675833702087402,-0.0,2.087322950363159,4.952432784229078,-0.00014109515177551657,0.2571488618850708,-1.5069487730609339,1.104612605704992e-30,-0.005429062061011791,-0.1903312841998499,0.0,0.029441814869642258,1.2583775520324707,-0.004424392711371183,-0.026996208354830742
157.0,137.0,-0.5408,-0.0724,9.5498,-0.0308,0.022,-0.1213,-2.1586200199522914,-6.10758870607242e-05,4.488069534301758,-1.2676236629486084,-0.0,2.1346089839935303,4.952440950065412,-0.0001322118769166991,0.26008719205856323,-1.5069292227374476,3.0747295531863185e-34,-0.014261833392083645,-0.1902068297015589,0.0,0.03384175896644592,1.2582972049713135,-0.005768362898379564,-0.05809551477432251
156.0,135.0,-0.5067,0.0532,9.6598,-0.0258,0.0159,-0.1151,-2.1585875950255335,-5.8686331612989306e-05,4.4536027908325195,-1.2676236629486084,-0.0,2.0803253650665283,4.952424633293905,-0.0001243808219442144,0.2688959836959839,-1.506937328969137,8.558624310571283e-38,-0.014280588366091251,-0.1902392546283167,0.0,0.031231151893734932,1.2582817077636719,-0.0075659798458218575,-0.08476971834897995
156.0,135.0,-0.5067,0.0532,9.6598,-0.0258,0.0159,-0.1151,-2.1586042843260707,-5.6476765166735277e-05,4.482463836669922,-1.267587423324585,-0.0,2.1106629371643066,4.952456968813696,-0.00011742570495698601,0.262222021818161,-1.5069568792926233,2.3823475191986215e-41,-0.022402286529541016,-0.19033509889711553,0.0,0.03398327901959419,1.2582658529281616,-0.009326527826488018,-0.11645955592393875
156.0,135.0,-0.5067,0.0532,9.6598,-0.0258,0.0159,-0.1151,-2.1586080990233363,-5.3777122957399115e-05,4.456295013427734,-1.267551302909851,-0.0,2.0368752479553223,4.952420550375738,-0.00010927821858786047,0.25714752078056335,-1.5069611708270472,0.0,-0.022366255521774292,-0.19030315080751592,0.0002323153312318027,0.027355298399925232,1.258129596710205,-0.011726295575499535,-0.09796293824911118
156.0,135.0,-0.5067,0.0532,9.6598,-0.0258,0.0159,-0.1151,-2.1585399113097132,-5.1915871154051274e-05,4.452832221984863,-1.2675673961639404,-0.0,2.1491804122924805,4.952420550375738,-0.00010387293150415644,0.26814907789230347,-1.5069811979876917,0.0,-0.01740971766412258,-0.1902712027179163,0.00027138766017742455,0.02486889250576496,1.258066177368164,-0.012765266932547092,-0.10832633078098297
156.0,135.0,-0.5067,0.0532,9.6598,-0.0258,0.0159,-0.1151,-2.1585799656310023,-5.0179183745058253e-05,4.480862140655518,-1.267587423324585,-0.0,2.0769195556640625,4.952452885895529,-9.89772379398346e-05,0.2536298632621765,-1.5069487730609339,0.0,-0.024799587205052376,-0.1902712027179163,0.00027515224064700305,0.028526712208986282,1.2579898834228516,-0.015086237341165543,-0.12288318574428558
156.0,135.0,-0.5067,0.0532,9.6598,-0.0258,0.0159,-0.1151,-2.1585799656310023,-8.932470763056699e-09,4.48555326461792,-1.2675999402999878,-0.0,2.050936698913574,4.952480810671606,-9.452203084947541e-05,0.25632444024086,-1.5069487730609339,0.0,-0.01787291280925274,-0.1903155485736292,0.00027833745116367936,0.032560210675001144,1.2579623460769653,-0.017416350543498993,-0.127362921833992
156.0,135.0,-0.5067,0.0532,9.6598,-0.0258,0.0159,-0.1151,-2.1585399113097132,-2.1570867989495653e-14,4.49000883102417,-1.2675714492797852,7.751169323455542e-05,2.1175975799560547,4.952440532832899,-9.045091428561136e-05,0.25915318727493286,-1.5069611708270472,0.0,-0.01995716243982315,-0.19026691118349248,0.0004155798815190792,0.04171951115131378,1.2577825784683228,-0.019979655742645264,-0.16213345527648926
156.0,135.0,-0.5067,0.0532,9.6598,-0.0258,0.0159,-0.1151,-2.1585804424681605,-5.209111100181018e-20,4.490360260009766,-1.2675755023956299,0.0001121108143706806,2.0549941062927246,4.952445137291708,-8.671586692798883e-05,0.25989261269569397,-1.5070050398456019,0.0,-0.013489020988345146,-0.1902387777911585,0.0003993916907347739,0.04184747487306595,1.2576628923416138,-0.023102838546037674,-0.15396514534950256
156.0,135.0,-0.5067,0.0532,9.6598,-0.0258,0.0159,-0.1151,-2.1585756740965785,-1.2579390466212861e-25,4.444565773010254,-1.2675036191940308,0.00010751231457106769,2.0933446884155273,4.952424633293905,-8.327710384037346e-05,0.25882619619369507,-1.5070093313800257,0.0,-0.023970061913132668,-0.19019872346986944,0.0003842664882540703,0.03163966163992882,1.2575032711029053,-0.025277836248278618,-0.13062907755374908
156.0,135.0,-0.5067,0.0532,9.6598,-0.0258,0.0159,-0.1151,-2.1585599384703578,-2.6175663151661865e-05,4.491377830505371,-1.2675758600234985,0.00010145280975848436,2.0868256092071533,4.952484908490934,-8.010068268049508e-05,0.2505817115306854,-1.5069735685931605,0.0,-0.02744719758629799,-0.19027930894960576,0.00039355980698019266,0.038977570831775665,1.2573754787445068,-0.029073484241962433,-0.1455366313457489
156.0,135.0,-0.5067,0.0532,9.6598,-0.0258,0.0159,-0.1151,-2.1585966549315394,-2.3453243557014503e-05,4.463257789611816,-1.26755952835083,9.436160326004028e-05,2.1410579681396484,4.952468919544973,-7.622416887897998e-05,0.25670650601387024,-1.5069406668292444,0.0,-0.019008707255125046,-0.19028741518129522,0.000353085866663605,0.04844895005226135,1.2570881843566895,-0.03442373499274254,-0.13157576322555542
156.0,135.0,-0.5067,0.0532,9.6598,-0.0258,0.0159,-0.1151,-2.158584257165426,-2.1752683096565306e-05,4.4506754875183105,-1.2675036191940308,8.966137829702348e-05,2.0956344604492188,4.952477159887113,-7.355435081990436e-05,0.25569021701812744,-1.5069249312030237,0.0,-0.02206338569521904,-0.19028741518129522,0.000295551581075415,0.05081110820174217,1.2568960189819336,-0.03791171312332153,-0.18858103454113007
156.0,135.0,-0.5067,0.0532,9.6598,-0.0258,0.0159,-0.1151,-2.158571859399313,-2.028205562965013e-05,4.434665203094482,-1.267575979232788,8.540713315596804e-05,2.1544320583343506,4.952436882048406,-7.860858750063926e-05,0.2640645205974579,-1.5069406668292444,0.0,-0.03020782582461834,-0.1902387777911585,0.00029611255740746856,0.042349062860012054,1.2566250562667847,-0.04188701882958412,-0.23495474457740784
156.0,135.0,-0.5067,0.0532,9.6598,-0.0258,0.0159,-0.1151,-2.1585480175414027,-1.8997705410583876e-05,4.472651481628418,-1.2675837278366089,8.153832459356636e-05,2.075850486755371,4.952445181995191,-2.6279226403858047e-06,0.2502867579460144,-1.5069363752948206,0.0,-0.022373544052243233,-0.1902230421649378,0.00025955127784982324,0.053327806293964386,1.256433129310608,-0.04425682872533798,-0.1956089586019516
156.0,135.0,-0.5067,0.0532,9.6598,-0.0258,0.0159,-0.1151,-2.1585599384703578,-1.7866275811684318e-05,4.400491714477539,-1.2675037384033203,7.80048212618567e-05,2.1075501441955566,4.9524487880762,-6.342968117678538e-05,0.2577857971191406,-1.50694448152651,0.0,-0.017847031354904175,-0.19021112123598272,0.00026397494366392493,0.0483378991484642,1.2561017274856567,-0.04554194211959839,-0.20103812217712402
154.0,135.0,-0.6873,0.1519,9.4522,-0.0385,0.0211,-0.1547,-2.158511301080221,-3.349363396409899e-05,4.481380462646484,-1.267527461051941,7.476493192370981e-05,2.077953577041626,4.95239711084918,-8.22313959361054e-05,0.25678080320358276,-1.5069487730609339,0.0,-0.027352452278137207,-0.1902392546283167,0.0002378309436608106,0.05640650913119316,1.2558625936508179,-0.046572960913181305,-0.1518612802028656
154.0,135.0,-0.6873,0.1519,9.4522,-0.0385,0.0211,-0.1547,-2.1585756740965785,-3.192949225194752e-05,4.467239856719971,-1.2675151824951172,7.178334635682404e-05,2.1105539798736572,4.952408614545622,-0.0006253324099816382,0.2445782870054245,-1.5069974104510706,0.0,-0.0316806435585022,-0.1902554670916956,0.00019836255523841828,0.058759965002536774,1.2555313110351562,-0.04813690111041069,-0.20018798112869263
154.0,135.0,-0.6873,0.1519,9.4522,-0.0385,0.0211,-0.1547,-2.1585880718626917,-3.0316232368932106e-05,4.457108497619629,-1.2675517797470093,6.903050234541297e-05,2.091049909591675,4.95239711084918,-0.0005456189974211156,0.23281458020210266,-1.50694448152651,0.0,-0.031453706324100494,-0.19021493593324834,0.00017429162107873708,0.05654795840382576,1.255231499671936,-0.05140630900859833,-0.16619622707366943
154.0,135.0,-0.6873,0.1519,9.4522,-0.0385,0.0211,-0.1547,-2.1585756740965785,-4.260418063495308e-05,4.416245937347412,-1.2675514221191406,6.567246600752696e-05,2.080404758453369,4.952385189920225,-0.0005660027381964028,0.25011828541755676,-1.5069406668292444,0.0,-0.02015950158238411,-0.19024736086000615,0.00018101956811733544,0.05711057409644127,1.2547954320907593,-0.05639173090457916,-0.21338780224323273
154.0,135.0,-0.6873,0.1519,9.4522,-0.0385,0.0211,-0.1547,-2.158624311486715,-5.405335468822159e-05,4.420803070068359,-1.26755952835083,6.33608506177552e-05,2.0591297149658203,4.95239711084918,-0.0005561423022300005,0.23135606944561005,-1.5069487730609339,0.0,-0.03007582202553749,-0.19025975862611944,0.0001645349693717435,0.06072624772787094,1.2544559240341187,-0.059742096811532974,-0.20409095287322998
154.0,135.0,-0.6873,0.1519,9.4522,-0.0385,0.0211,-0.1547,-2.1585875950255335,-5.193892866373062e-05,4.444116592407227,-1.2675150632858276,6.120638863649219e-05,2.065481424331665,4.952440994768896,-0.0005835616611875594,0.23419728875160217,-1.507021729146139,0.0,-0.023441310971975327,-0.19023067155946904,0.00015075360715854913,0.062130145728588104,1.2541413307189941,-0.06168493255972862,-0.171584814786911
154.0,135.0,-0.6873,0.1519,9.4522,-0.0385,0.0211,-0.1547,-2.1586443386473597,-0.00011416142660891637,4.407910346984863,-1.2675435543060303,6.8941039899073076e-06,2.1103992462158203,4.9523852346237085,-0.0005728737451136112,0.2338109314441681,-1.5069692770587366,0.0,-0.040323302149772644,-0.19018680254091436,0.00015923303726594895,0.0471513569355011,1.2537254095077515,-0.061910685151815414,-0.16388128697872162
154.0,135.0,-0.6873,0.1519,9.4522,-0.0385,0.0211,-0.1547,-2.158567567864889,-0.0001460354687878862,4.394294738769531,-1.2675150632858276,1.6648451714451618e-11,2.0405218601226807,4.952381107002058,-0.0005297614261507988,0.2472158968448639,-1.5069530645953577,0.0,-0.03131846711039543,-0.19021922746767217,0.00015064337640069425,0.0615861639380455,1.2533422708511353,-0.06306187063455582,-0.19500668346881866
154.0,135.0,-0.6873,0.1519,9.4522,-0.0385,0.0211,-0.1547,-2.1586080990233363,-0.00015620721387676895,4.401337623596191,-1.2675632238388062,4.020404495578849e-17,2.0404860973358154,4.95241345742301,-0.0006087733781896532,0.2300800383090973,-1.50694448152651,0.0,-0.025187313556671143,-0.1902554670916956,0.0001405606308253482,0.0705278217792511,1.2530232667922974,-0.06544364988803864,-0.21763071417808533
154.0,135.0,-0.6873,0.1519,9.4522,-0.0385,0.0211,-0.1547,-2.158579488793844,-0.0003749615279957652,4.400692462921143,-1.2675755023956299,9.70880398572301e-23,2.0848569869995117,4.952372866659918,-0.0007507089758291841,0.2182784080505371,-1.506965462361471,0.0,-0.03230797499418259,-0.1902392546283167,0.00013174225750844926,0.043783143162727356,1.252588152885437,-0.0696730762720108,-0.18415728211402893
154.0,135.0,-0.6873,0.1519,9.4522,-0.0385,0.0211,-0.1547,-2.1586362324156703,-0.00040020461892709136,4.372201442718506,-1.2675914764404297,2.344561873420155e-28,2.106062889099121,4.952425721078672,-0.0007206188165582716,0.22605454921722412,-1.5069611708270472,0.0,-0.02731817588210106,-0.1902678648578089,0.00014165423635859042,0.07287932932376862,1.2521326541900635,-0.07216602563858032,-0.20466570556163788
154.0,135.0,-0.6873,0.1519,9.4522,-0.0385,0.0211,-0.1547,-2.1586204967894496,-0.00037959180190227926,4.347390174865723,-1.267567753791809,7.596083381606526e-36,2.086549997329712,4.952397438674726,-0.0008082360145635903,0.22324076294898987,-1.5070174376117151,0.0,-0.02087840437889099,-0.19022685686220342,0.00013133705942891538,0.05427154153585434,1.2515937089920044,-0.07015680521726608,-0.202239528298378
154.0,135.0,-0.6873,0.1519,9.4522,-0.0385,0.0211,-0.1547,-2.1586080990233363,-0.00040351980715058744,4.3887619972229,-1.2675234079360962,1.8342996898011855e-41,2.083068370819092,4.95241345742301,-0.0008086536545306444,0.22097577154636383,-1.5069854895221155,0.0,-0.030147027224302292,-0.1902387777911585,0.00012452264491003007,0.06670897454023361,1.2511787414550781,-0.06655176728963852,-0.21276119351387024
154.0,135.0,-0.6873,0.1519,9.4522,-0.0385,0.0211,-0.1547,-2.1585995159544886,-0.0003815974632743746,4.383184432983398,-1.2675837278366089,0.0,2.0665626525878906,4.952385189920225,-0.000736178713850677,0.2308972179889679,-1.5069611708270472,0.0,-0.021047405898571014,-0.19021493593324834,0.00011550599447218701,0.059861376881599426,1.250759243965149,-0.06338228285312653,-0.17873892188072205
156.0,140.0,-0.5055,-0.1262,9.542,-0.035,0.0136,-0.1836,-2.1585875950255335,-0.00036722252843901515,4.370630741119385,-1.267547607421875,-0.0,2.076578140258789,4.952324974327841,-0.0006282507092691958,0.22877652943134308,-1.5069530645953577,0.0,-0.02923269383609295,-0.1902073065387171,0.00010719511919887736,0.06641695648431778,1.2504245042800903,-0.06379488855600357,-0.18343624472618103
156.0,140.0,-0.5055,-0.1262,9.542,-0.035,0.0136,-0.1836,-2.1586162052550257,-0.0003126241499558091,4.3628692626953125,-1.2675837278366089,-0.0,2.141388177871704,4.952401536494055,-0.0005363669479265809,0.20707207918167114,-1.506937328969137,0.0,-0.02368626743555069,-0.1901796499835413,0.00011488361633382738,0.07126767933368683,1.2500370740890503,-0.06641852855682373,-0.20293325185775757
156.0,140.0,-0.5055,-0.1262,9.542,-0.035,0.0136,-0.1836,-2.158579488793844,-0.000310982926748693,4.344605445861816,-1.2675315141677856,-0.0,2.0923633575439453,4.952328952937879,-0.0005425889976322651,0.21591141819953918,-1.5069931189166468,0.0,-0.02298252284526825,-0.19017154375185186,0.00011254581477260217,0.08283976465463638,1.249650001525879,-0.06649989634752274,-0.18080729246139526
156.0,140.0,-0.5055,-0.1262,9.542,-0.035,0.0136,-0.1836,-2.1586719952025355,-0.0002670232206583023,4.353623390197754,-1.2676163911819458,-0.0,2.135051727294922,4.952344926982679,-0.0006427006446756423,0.2437552660703659,-1.506977383290426,0.0,-0.030570797622203827,-0.1902554670916956,0.00012342396075837314,0.07081601768732071,1.2492425441741943,-0.0643875002861023,-0.18128786981105804
156.0,140.0,-0.5055,-0.1262,9.542,-0.035,0.0136,-0.1836,-2.1586600742735804,-0.0002589559881016612,4.347456932067871,-1.2675879001617432,5.211104507907294e-05,2.039979934692383,4.952361362963476,-0.0009670912404544652,0.21295033395290375,-1.506977383290426,0.0,-0.02241966873407364,-0.19021922746767217,0.00013088423293083906,0.07236116379499435,1.2487876415252686,-0.05986054241657257,-0.17420068383216858
156.0,140.0,-0.5055,-0.1262,9.542,-0.035,0.0136,-0.1836,-2.1586362324156703,-0.00026411551516503096,4.31602668762207,-1.2675397396087646,7.015464507276192e-05,2.121428966522217,4.952349531441488,-0.0011754701845347881,0.20981451869010925,-1.5070174376117151,0.0,-0.019199073314666748,-0.19019109407533819,0.00021894641395192593,0.08628010749816895,1.2483763694763184,-0.056804317981004715,-0.16631296277046204
