ramyac6/ROB537/final_project/csv/good/good_77.csv
tof_0,tof_1,accelx,accely,accelz,gyrox,gyroy,gyroz,shoulder_lift_joint_position,shoulder_lift_joint_velocity,shoulder_lift_joint_effort,elbow_joint_position,elbow_joint_velocity,elbow_joint_effort,wrist_1_joint_position,wrist_1_joint_velocity,wrist_1_joint_effort,wrist_2_joint_position,wrist_2_joint_velocity,wrist_2_joint_effort,wrist_3_joint_position,wrist_3_joint_velocity,wrist_3_joint_effort,shoulder_pan_joint_position,shoulder_pan_joint_velocity,shoulder_pan_joint_effort
147.0,215.0,4.0678,-0.2931,8.4503,-0.0452,0.0217,-0.1109,-1.6859213314452113,0.0,2.7068328857421875,-1.566320538520813,-0.0,2.1530466079711914,4.312744303340576,0.0,0.3046938180923462,-1.6519864241229456,0.0,0.003700722474604845,0.9846605062484741,-0.0,-0.012201632373034954,1.041341781616211,0.0,0.008931380696594715
147.0,215.0,4.0678,-0.2931,8.4503,-0.0452,0.0217,-0.1109,-1.6859213314452113,0.0,2.7121834754943848,-1.566328763961792,-0.0,2.219909906387329,4.3126489359089355,0.0,0.29520100355148315,-1.6519268194781702,0.0,0.01679639331996441,0.9846765398979187,-0.0,-0.00043468025978654623,1.041353702545166,0.0,-0.011244494467973709
147.0,215.0,4.0678,-0.2931,8.4503,-0.0452,0.0217,-0.1109,-1.6859170399107875,0.0,2.6856110095977783,-1.5663127899169922,-0.0,2.150332450866699,4.312669439906738,0.0,0.27859148383140564,-1.6519587675677698,0.0,0.004512992221862078,0.9847248792648315,-0.0,-0.005066404584795237,1.0413377285003662,0.0,-0.005101698916405439
147.0,215.0,4.0678,-0.2931,8.4503,-0.0452,0.0217,-0.1109,-1.6859094105162562,0.0,2.7185800075531006,-1.5664254426956177,-0.0,2.1743969917297363,4.31269280492749,0.0,0.3020291328430176,-1.652031723652975,0.0,-0.0021961317397654057,0.9846526384353638,-0.0,0.008073401637375355,1.0413858890533447,0.0,0.010301385074853897
147.0,215.0,4.0678,-0.2931,8.4503,-0.0452,0.0217,-0.1109,-1.685925622979635,0.0,2.637183666229248,-1.566365122795105,-0.0,2.202047348022461,4.312704725856445,0.0,0.29751521348953247,-1.651942555104391,0.0,0.005770325195044279,0.9846768379211426,-0.0,0.0021403953433036804,1.0413455963134766,0.0,-0.01572573184967041
147.0,215.0,4.0678,-0.2931,8.4503,-0.0452,0.0217,-0.1109,-1.6859332523741664,0.0,2.703760862350464,-1.5663045644760132,-0.0,2.172703504562378,4.312688513393066,0.0,0.2898375391960144,-1.6519468466388147,0.0,0.011592674069106579,0.9847006797790527,-0.0,-0.003534905845299363,1.0413658618927002,0.0,-0.003600164083763957
147.0,215.0,4.0678,-0.2931,8.4503,-0.0452,0.0217,-0.1109,-1.6859332523741664,0.0,2.692777633666992,-1.5663371086120605,-0.0,2.18170428276062,4.312696619624756,0.0,0.2877320349216461,-1.6519745031939905,0.0,0.013705412857234478,0.9846484661102295,-0.0,-0.008933275006711483,1.0413658618927002,0.0,-0.0019374750554561615
150.0,217.0,4.1456,-0.2411,8.4126,-0.0267,0.0208,-0.1135,-1.6859013042845667,0.0,2.682492733001709,-1.5663493871688843,-0.0,2.1633083820343018,4.3127123552509765,0.0,0.2919905185699463,-1.6519549528705042,0.0,0.004374476615339518,0.9847006797790527,-0.0,-0.005925878416746855,1.0413618087768555,0.0,0.004442405886948109
150.0,217.0,4.1456,-0.2411,8.4126,-0.0267,0.0208,-0.1135,-1.685925622979635,0.0,2.7166638374328613,-1.566320538520813,-0.0,2.1798455715179443,4.312657042140625,0.0,0.2940828502178192,-1.6519067923175257,0.0,0.0021443492732942104,0.9847413301467896,-0.0,-0.004240644164383411,1.0413618087768555,0.0,0.013379719108343124
150.0,217.0,4.1456,-0.2411,8.4126,-0.0267,0.0208,-0.1135,-1.6858931980528773,0.0,2.6775412559509277,-1.566320538520813,-0.0,2.180887222290039,4.312660856837891,0.0,0.30222266912460327,-1.6520031134234827,0.0,0.0002797129563987255,0.9846727848052979,-0.0,0.00025347876362502575,1.0413936376571655,0.0,0.01591063104569912
150.0,217.0,4.1456,-0.2411,8.4126,-0.0267,0.0208,-0.1135,-1.6859013042845667,0.0,2.7331056594848633,-1.566300392150879,-0.0,2.2152528762817383,4.312664671535156,0.0,0.29394277930259705,-1.6519549528705042,0.0,0.008535954169929028,0.9847087860107422,-0.0,-0.004442161880433559,1.0413856506347656,0.0,-0.02151116542518139
150.0,217.0,4.1456,-0.2411,8.4126,-0.0267,0.0208,-0.1135,-1.6859132252135218,0.0,2.6773977279663086,-1.5663412809371948,-0.0,2.223900318145752,4.312684698695801,0.0,0.2889326214790344,-1.6519506613360804,0.0,-0.0027199094183743,0.9846567511558533,-0.0,-0.01887829788029194,1.041353702545166,0.0,0.06533624231815338
150.0,217.0,4.1456,-0.2411,8.4126,-0.0267,0.0208,-0.1135,-1.6859170399107875,0.0,2.727813959121704,-1.5663371086120605,-0.0,2.183791399002075,4.312681360835693,0.0,0.30029088258743286,-1.6519587675677698,0.0,-0.00306751043535769,0.9846806526184082,-0.0,-0.0013867946108803153,1.041325569152832,0.0,-0.02732306718826294
150.0,217.0,4.1456,-0.2411,8.4126,-0.0267,0.0208,-0.1135,-1.6858931980528773,0.0,2.6803808212280273,-1.5663247108459473,-0.0,2.2126431465148926,4.312669439906738,0.0,0.2983611822128296,-1.6519988218890589,0.0,-0.0028214638587087393,0.9846925735473633,-0.0,-0.0024377861991524696,1.0413777828216553,0.0,-0.026016082614660263
150.0,217.0,4.1456,-0.2411,8.4126,-0.0267,0.0208,-0.1135,-1.6859013042845667,0.0,2.6722121238708496,-1.5663444995880127,-0.0,2.1353583335876465,4.312692328090332,0.0,0.2965645492076874,-1.6519587675677698,0.0,-0.00832875445485115,0.9846925139427185,-0.0,-0.016013527289032936,1.0413658618927002,0.0,0.02567172236740589
150.0,217.0,4.1456,-0.2411,8.4126,-0.0267,0.0208,-0.1135,-1.6859094105162562,0.0,2.6762993335723877,-1.5663732290267944,-0.0,2.185610294342041,4.3126770693012695,0.0,0.2916840612888336,-1.6519506613360804,0.0,-0.00247016130015254,0.9847248196601868,-0.0,-0.0017129287589341402,1.0413818359375,0.0,-0.012822212651371956
150.0,217.0,4.1456,-0.2411,8.4126,-0.0267,0.0208,-0.1135,-1.6859375439085902,0.0,2.650470733642578,-1.5663453340530396,-0.0,2.1636104583740234,4.312696619624756,0.0,0.29134929180145264,-1.6519587675677698,0.0,-0.0008412858005613089,0.9847172498703003,-0.0,-0.013392060063779354,1.0413497686386108,0.0,0.01527242548763752
150.0,217.0,4.1456,-0.2411,8.4126,-0.0267,0.0208,-0.1135,-1.6859132252135218,0.0,2.6884958744049072,-1.5663567781448364,-0.0,2.21858811378479,4.312665148372314,0.0,0.2824702858924866,-1.6519549528705042,0.0,0.001222968683578074,0.9846925735473633,-0.0,0.0017807810800150037,1.0413777828216553,0.0,-0.012426120229065418
150.0,217.0,4.1456,-0.2411,8.4126,-0.0267,0.0208,-0.1135,-1.6859170399107875,0.0,2.6722640991210938,-1.5663691759109497,-0.0,2.1769533157348633,4.312669439906738,0.0,0.2950183153152466,-1.6519268194781702,0.0,-0.00028312529320828617,0.9846925139427185,-0.0,-0.016791293397545815,1.0413618087768555,0.0,0.029681719839572906
153.0,220.0,4.1707,-0.21,8.4473,-0.042,0.014,-0.1112,-1.6859575710692347,0.0,2.6877214908599854,-1.5662885904312134,-0.0,2.2226688861846924,4.312700434322021,0.0,0.294096440076828,-1.651971165333883,0.0,0.008922175504267216,0.9846811294555664,-0.0,-0.015476291067898273,1.0413095951080322,0.0,-0.002669109031558037
153.0,220.0,4.1707,-0.21,8.4473,-0.042,0.014,-0.1112,-1.6859213314452113,0.0,2.6741280555725098,-1.566320538520813,-0.0,2.194814682006836,4.312684698695801,0.0,0.2921066880226135,-1.6519668737994593,0.0,-0.016673170030117035,0.9847211241722107,-0.0,0.0015622494975104928,1.0413696765899658,0.0,0.02698209136724472
153.0,220.0,4.1707,-0.21,8.4473,-0.042,0.014,-0.1112,-1.6859094105162562,0.0,2.666724681854248,-1.566316843032837,-0.0,2.1953723430633545,4.312680883998535,0.0,0.290894478559494,-1.6519745031939905,0.0,-0.005421334877610207,0.9846768379211426,-0.0,-0.007349307648837566,1.0413615703582764,0.0,0.05279640108346939
153.0,220.0,4.1707,-0.21,8.4473,-0.042,0.014,-0.1112,-1.6859213314452113,0.0,2.6890735626220703,-1.566320538520813,-0.0,2.215280055999756,4.31269280492749,0.0,0.2966572046279907,-1.651971165333883,0.0,0.0064099570736289024,0.9846685528755188,-0.0,-0.006246289703994989,1.041369915008545,0.0,0.01000400073826313
153.0,220.0,4.1707,-0.21,8.4473,-0.042,0.014,-0.1112,-1.685953279534811,0.0,2.6632585525512695,-1.5663124322891235,-0.0,2.1572554111480713,4.312640829677246,0.0,0.2896978259086609,-1.6519468466388147,0.0,-0.006192326080054045,0.984728991985321,-0.0,0.0035418749321252108,1.0413936376571655,0.0,-0.028820712119340897
153.0,220.0,4.1707,-0.21,8.4473,-0.042,0.014,-0.1112,-1.6859170399107875,0.0,2.6872243881225586,-1.5663087368011475,-0.0,2.1942520141601562,4.312684698695801,0.0,0.29412972927093506,-1.6520069281207483,0.0,0.0032687089405953884,0.9846765398979187,-0.0,0.010620114393532276,1.0414096117019653,0.0,0.032125040888786316
153.0,220.0,4.1707,-0.21,8.4473,-0.042,0.014,-0.1112,-1.685965200463766,0.0,2.652164936065674,-1.5663567781448364,-0.0,2.2147128582000732,4.3126770693012695,0.0,0.28766149282455444,-1.6519911924945276,0.0,0.0049878498539328575,0.9846851825714111,-0.0,0.003003144171088934,1.0413737297058105,0.0,0.04077863693237305
153.0,220.0,4.1707,-0.21,8.4473,-0.042,0.014,-0.1112,-1.6859051189818324,0.0,2.700138568878174,-1.5663248300552368,-0.0,2.2222940921783447,4.312669439906738,0.0,0.29963916540145874,-1.6519787947284144,0.0,-0.008944938890635967,0.9846806526184082,-0.0,-0.013718409463763237,1.0413175821304321,0.0,-0.020717687904834747
153.0,220.0,4.1707,-0.21,8.4473,-0.042,0.014,-0.1112,-1.6859170399107875,0.0,2.6706790924072266,-1.5663371086120605,-0.0,2.1745893955230713,4.312640829677246,0.0,0.29641053080558777,-1.651954476033346,0.0,-0.0015422499272972345,0.984611988067627,-0.0,-0.0036001098342239857,1.0413658618927002,0.0,0.029770568013191223
153.0,220.0,4.1707,-0.21,8.4473,-0.042,0.014,-0.1112,-1.6859213314452113,0.0,2.728303909301758,-1.566336989402771,-0.0,2.1959571838378906,4.312708540553711,0.0,0.3012453317642212,-1.6519749800311487,0.0,0.005115213803946972,0.9847126603126526,-0.0,0.005554378964006901,1.0413936376571655,0.0,-0.03370761126279831
153.0,220.0,4.1707,-0.21,8.4473,-0.042,0.014,-0.1112,-1.6859294376769007,0.0,2.717444658279419,-1.566328763961792,-0.0,2.201188087463379,4.312684698695801,0.0,0.2918115258216858,-1.6519869009601038,0.0,0.008295479230582714,0.9846526384353638,-0.0,0.0007855311851017177,1.0413618087768555,0.0,0.02461211010813713
153.0,220.0,4.1707,-0.21,8.4473,-0.042,0.014,-0.1112,-1.685925622979635,0.0,2.700582981109619,-1.5663087368011475,-0.0,2.197930097579956,4.312688513393066,0.0,0.3131324052810669,-1.651971165333883,0.0,0.006734056398272514,0.9847444891929626,-0.0,0.004247062373906374,1.0413777828216553,0.0,0.04292050004005432
152.0,211.0,4.1695,-0.1896,8.2696,-0.0455,0.0212,-0.111,-1.6859213314452113,0.0,2.641172409057617,-1.5663814544677734,-0.0,2.2167246341705322,4.31269280492749,0.0,0.29619094729423523,-1.6519745031939905,0.0,0.002725898753851652,0.9846888184547424,-0.0,-0.015064644627273083,1.0413095951080322,0.0,0.02524309977889061
152.0,211.0,4.1695,-0.1896,8.2696,-0.0455,0.0212,-0.111,-1.685925622979635,0.0,2.6741385459899902,-1.5663164854049683,-0.0,2.1693527698516846,4.312696619624756,0.0,0.3035030961036682,-1.6519268194781702,0.0,-0.0006096209399402142,0.9847012162208557,-0.0,0.002343857428058982,1.0413618087768555,0.0,0.020038504153490067
152.0,211.0,4.1695,-0.1896,8.2696,-0.0455,0.0212,-0.111,-1.6859213314452113,0.0,2.6670265197753906,-1.566336989402771,-0.0,2.1820757389068604,4.312696619624756,0.0,0.298700213432312,-1.651947323475973,0.0,0.006337655242532492,0.9847562313079834,-0.0,0.003550837282091379,1.041353702545166,0.0,0.037336066365242004
152.0,211.0,4.1695,-0.1896,8.2696,-0.0455,0.0212,-0.111,-1.68591370205068,0.0,2.7197675704956055,-1.5663774013519287,-0.0,2.150447368621826,4.312681360835693,0.0,0.2928329110145569,-1.6519506613360804,0.0,0.007150926627218723,0.9846360683441162,-0.0,0.0065049645490944386,1.0413658618927002,0.0,-0.037604913115501404
152.0,211.0,4.1695,-0.1896,8.2696,-0.0455,0.0212,-0.111,-1.6859375439085902,0.0,2.7133941650390625,-1.5663485527038574,-0.0,2.1703596115112305,4.312640829677246,0.0,0.3003505766391754,-1.6519787947284144,0.0,0.0058390237390995026,0.9846847057342529,-0.0,0.0038915458135306835,1.0413737297058105,0.0,-0.056585974991321564
152.0,211.0,4.1695,-0.1896,8.2696,-0.0455,0.0212,-0.111,-1.685901781121725,0.0,2.6811165809631348,-1.5663330554962158,-0.0,2.2271883487701416,4.312688513393066,0.0,0.28700774908065796,-1.6520031134234827,0.0,0.005606065969914198,0.9846726059913635,-0.0,-0.0026989448815584183,1.0413658618927002,0.0,0.051691506057977676
152.0,211.0,4.1695,-0.1896,8.2696,-0.0455,0.0212,-0.111,-1.6859618626036585,0.0,2.646707534790039,-1.5663771629333496,-0.0,2.165404796600342,4.312669439906738,0.0,0.29053443670272827,-1.6519387404071253,0.0,-0.010299617424607277,0.9847005605697632,-0.0,0.002542519476264715,1.0413777828216553,0.0,-0.012645946815609932
152.0,211.0,4.1695,-0.1896,8.2696,-0.0455,0.0212,-0.111,-1.6859013042845667,0.0,2.6535887718200684,-1.566336989402771,-0.0,2.2048864364624023,4.312661333675049,0.0,0.3029255270957947,-1.6519668737994593,0.0,0.0017675012350082397,0.9847766160964966,-0.0,-0.006828898563981056,1.0413577556610107,0.0,-0.01659020595252514
152.0,211.0,4.1695,-0.1896,8.2696,-0.0455,0.0212,-0.111,-1.6859094105162562,0.0,2.676588773727417,-1.5663164854049683,-0.0,2.2015764713287354,4.312673254604004,0.0,0.28841590881347656,-1.651938263569967,0.0,0.005494960118085146,0.9846687316894531,-0.0,-0.00642354367300868,1.0413777828216553,0.0,0.055826447904109955
152.0,211.0,4.1695,-0.1896,8.2696,-0.0455,0.0212,-0.111,-1.6858893833556117,0.0,2.701699733734131,-1.5663083791732788,-0.0,2.1793179512023926,4.312660856837891,0.0,0.29905375838279724,-1.651971165333883,0.0,-0.008288189768791199,0.9846851825714111,-0.0,-0.008594634011387825,1.0413618087768555,0.0,-0.00885630864650011
152.0,211.0,4.1695,-0.1896,8.2696,-0.0455,0.0212,-0.111,-1.6859051189818324,0.0,2.7494754791259766,-1.5664052963256836,-0.0,2.1906137466430664,4.312700434322021,0.0,0.29004207253456116,-1.6519668737994593,0.0,0.002143625868484378,0.9846646189689636,-0.0,-0.009316285140812397,1.0413777828216553,0.0,0.02993146702647209
152.0,211.0,4.1695,-0.1896,8.2696,-0.0455,0.0212,-0.111,-1.6859570942320765,0.0,2.685969114303589,-1.5662927627563477,-0.0,2.191591262817383,4.312632723445557,0.0,0.2909868657588959,-1.6519268194781702,0.0,-0.00424334779381752,0.984660804271698,-0.0,-0.01304207555949688,1.0413936376571655,0.0,-0.051958516240119934
152.0,211.0,4.1695,-0.1896,8.2696,-0.0455,0.0212,-0.111,-1.6858974895873011,0.0,2.712462902069092,-1.5662802457809448,-0.0,2.2051444053649902,4.312665148372314,0.0,0.29503172636032104,-1.6519306341754358,0.0,-0.0011537482496351004,0.9846846461296082,-0.0,9.949714876711369e-05,1.041325569152832,0.0,0.040581587702035904
154.0,209.0,4.1677,-0.201,8.3031,-0.0301,0.0275,-0.1141,-1.6859289608397425,0.0,2.697532892227173,-1.5663247108459473,-0.0,2.2203664779663086,4.312708540553711,0.0,0.290762722492218,-1.651942555104391,0.0,-0.0009401199640706182,0.984656810760498,-0.0,-0.002204641466960311,1.0413178205490112,0.0,0.013131437823176384
154.0,209.0,4.1677,-0.201,8.3031,-0.0301,0.0275,-0.1141,-1.6859170399107875,0.0,2.694615364074707,-1.5663691759109497,-0.0,2.15472149848938,4.3127166467854,0.0,0.2997822165489197,-1.6520031134234827,0.0,-0.0036727532278746367,0.984696626663208,-0.0,0.00017928017769008875,1.041353702545166,0.0,-0.001095314510166645
154.0,209.0,4.1677,-0.201,8.3031,-0.0301,0.0275,-0.1141,-1.685925622979635,0.0,2.663606882095337,-1.566328763961792,-0.0,2.1662988662719727,4.312676592464111,0.0,0.29713892936706543,-1.6520069281207483,0.0,-0.013436086475849152,0.9846445918083191,-0.0,-0.0015429903287440538,1.0413777828216553,0.0,0.008377203717827797
154.0,209.0,4.1677,-0.201,8.3031,-0.0301,0.0275,-0.1141,-1.6859213314452113,0.0,2.746920108795166,-1.5663444995880127,-0.0,2.1652514934539795,4.3127166467854,0.0,0.28899914026260376,-1.6519430319415491,0.0,-0.005837791599333286,0.9846000671386719,-0.0,-0.002911980729550123,1.0413777828216553,0.0,0.016593044623732567
154.0,209.0,4.1677,-0.201,8.3031,-0.0301,0.0275,-0.1141,-1.685953279534811,0.0,2.6912662982940674,-1.5663371086120605,-0.0,2.20402455329895,4.312696619624756,0.0,0.2869607210159302,-1.6519387404071253,0.0,-0.002866479568183422,0.9846606254577637,-0.0,-0.0049622561782598495,1.0413336753845215,0.0,0.00501478835940361
154.0,209.0,4.1677,-0.201,8.3031,-0.0301,0.0275,-0.1141,-1.6859170399107875,0.0,2.7015128135681152,-1.5663124322891235,-0.0,2.1770308017730713,4.312657042140625,0.0,0.29642125964164734,-1.6519745031939905,0.0,0.007343375589698553,0.9846526980400085,-0.0,-0.0029716447461396456,1.041325569152832,0.0,-0.0402434803545475
154.0,209.0,4.1677,-0.201,8.3031,-0.0301,0.0275,-0.1141,-1.6859613857665003,0.0,2.7041220664978027,-1.5663526058197021,-0.0,2.2011804580688477,4.312657042140625,0.0,0.2935239374637604,-1.6519869009601038,0.0,-0.003678991924971342,0.9847011566162109,-0.0,-0.0002838487853296101,1.041337490081787,0.0,-0.0505661815404892
154.0,209.0,4.1677,-0.201,8.3031,-0.0301,0.0275,-0.1141,-1.6858850918211878,0.0,2.6647207736968994,-1.5663690567016602,-0.0,2.1847691535949707,4.3126489359089355,0.0,0.29437255859375,-1.6519468466388147,0.0,0.002088986337184906,0.9846484065055847,-0.0,-0.011289841495454311,1.0413659811019897,0.0,0.042731769382953644
154.0,209.0,4.1677,-0.201,8.3031,-0.0301,0.0275,-0.1141,-1.6859375439085902,0.0,2.6986656188964844,-1.5663328170776367,-0.0,2.198124885559082,4.312681360835693,0.0,0.29725486040115356,-1.651971165333883,0.0,0.004624446388334036,0.9847562313079834,-0.0,-0.0107650738209486,1.0413415431976318,0.0,0.013000987470149994
154.0,209.0,4.1677,-0.201,8.3031,-0.0301,0.0275,-0.1141,-1.6859375439085902,0.0,2.6598520278930664,-1.5663371086120605,-0.0,2.206948757171631,4.312696619624756,0.0,0.28828608989715576,-1.6519387404071253,0.0,-0.003551328554749489,0.984612226486206,-0.0,-0.005370696075260639,1.0413095951080322,0.0,0.013017251156270504
154.0,209.0,4.1677,-0.201,8.3031,-0.0301,0.0275,-0.1141,-1.685925622979635,0.0,2.657586097717285,-1.5662637948989868,-0.0,2.1679494380950928,4.312665148372314,0.0,0.2938392758369446,-1.6519549528705042,0.0,0.00031654961640015244,0.9847085475921631,-0.0,0.009802358224987984,1.0413858890533447,0.0,-0.01803423836827278
154.0,209.0,4.1677,-0.201,8.3031,-0.0301,0.0275,-0.1141,-1.6859213314452113,0.0,2.699605941772461,-1.5662885904312134,-0.0,2.1934332847595215,4.312688513393066,0.0,0.28740641474723816,-1.6519587675677698,0.0,-0.005799648351967335,0.9846765398979187,-0.0,-0.005209063645452261,1.0413777828216553,0.0,0.00510596577078104
148.0,210.0,4.1886,-0.2177,8.3414,-0.0341,0.0214,-0.1158,-1.6859375439085902,0.0,2.6492130756378174,-1.5663127899169922,-0.0,2.1665334701538086,4.312665148372314,0.0,0.29119178652763367,-1.651942555104391,0.0,-0.0017555209342390299,0.984713077545166,-0.0,0.0031285760924220085,1.0413577556610107,0.0,0.011708728969097137
148.0,210.0,4.1886,-0.2177,8.3414,-0.0341,0.0214,-0.1158,-1.6859494648375453,0.0,2.719897508621216,-1.5663412809371948,-0.0,2.2043681144714355,4.312652750606201,0.0,0.29868030548095703,-1.6519306341754358,0.0,0.00841505452990532,0.9847480654716492,-0.0,0.0076652513816952705,1.0413455963134766,0.0,0.04626253992319107
148.0,210.0,4.1886,-0.2177,8.3414,-0.0341,0.0214,-0.1158,-1.685953279534811,0.0,2.717495918273926,-1.566284418106079,-0.0,2.1704883575439453,4.312652750606201,0.0,0.30379149317741394,-1.6519625822650355,0.0,-0.0020757478196173906,0.9847087860107422,-0.0,-0.007465147413313389,1.0413414239883423,0.0,0.002754583954811096
148.0,210.0,4.1886,-0.2177,8.3414,-0.0341,0.0214,-0.1158,-1.6859213314452113,0.0,2.712214946746826,-1.566328763961792,-0.0,2.1701953411102295,4.312704725856445,0.0,0.289544016122818,-1.6519506613360804,0.0,0.00046798749826848507,0.9846847057342529,-0.0,0.0049456702545285225,1.0414016246795654,0.0,0.025901760905981064
148.0,210.0,4.1886,-0.2177,8.3414,-0.0341,0.0214,-0.1158,-1.685880800286764,0.0,2.674708127975464,-1.5663247108459473,-0.0,2.167846202850342,4.3126489359089355,0.0,0.30222126841545105,-1.6519830862628382,0.0,-0.0048149991780519485,0.9847521781921387,-0.0,-0.005248712841421366,1.0413618087768555,0.0,-0.014080945402383804
148.0,210.0,4.1886,-0.2177,8.3414,-0.0341,0.0214,-0.1158,-1.6858812771239222,0.0,2.731595039367676,-1.5663453340530396,-0.0,2.1573362350463867,4.312665148372314,0.0,0.2901794910430908,-1.6519668737994593,0.0,0.006798167247325182,0.9846806526184082,-0.0,-0.003609846578910947,1.0413737297058105,0.0,-0.02866806462407112
148.0,210.0,4.1886,-0.2177,8.3414,-0.0341,0.0214,-0.1158,-1.6859170399107875,0.0,2.7020788192749023,-1.5663045644760132,-0.0,2.188231945037842,4.312681360835693,0.0,0.2900371849536896,-1.651942555104391,0.0,0.004848463926464319,0.9846847057342529,-0.0,-0.0011249530361965299,1.0413455963134766,0.0,-0.018036969006061554
148.0,210.0,4.1886,-0.2177,8.3414,-0.0341,0.0214,-0.1158,-1.685925622979635,0.0,2.6634018421173096,-1.5662963390350342,-0.0,2.178779363632202,4.312696619624756,0.0,0.2902757227420807,-1.6519182364093226,0.0,0.003566821338608861,0.9847130179405212,-0.0,0.003098124638199806,1.0413618087768555,0.0,0.05275024473667145
148.0,210.0,4.1886,-0.2177,8.3414,-0.0341,0.0214,-0.1158,-1.6859575710692347,0.0,2.6947312355041504,-1.5663813352584839,-0.0,2.158031702041626,4.3126489359089355,0.0,0.2899731397628784,-1.6519950071917933,0.0,0.0019121564691886306,0.9847047328948975,-0.0,-0.004782568663358688,1.0413858890533447,0.0,0.03641122207045555
148.0,210.0,4.1886,-0.2177,8.3414,-0.0341,0.0214,-0.1158,-1.6859413586058558,0.0,2.6960878372192383,-1.5663412809371948,-0.0,2.176567554473877,4.312660856837891,0.0,0.3120236396789551,-1.6519668737994593,0.0,-0.0028244664426892996,0.9847005605697632,-0.0,0.007019224110990763,1.0413097143173218,0.0,0.0285229180008173
148.0,210.0,4.1886,-0.2177,8.3414,-0.0341,0.0214,-0.1158,-1.6859094105162562,0.0,2.706413745880127,-1.5662885904312134,-0.0,2.18033766746521,4.312696619624756,0.0,0.2868594527244568,-1.6519506613360804,0.0,0.0065193017944693565,0.9847006797790527,-0.0,-0.002343057654798031,1.0413818359375,0.0,-0.04170572757720947
148.0,210.0,4.1886,-0.2177,8.3414,-0.0341,0.0214,-0.1158,-1.6859213314452113,0.0,2.719515085220337,-1.5663526058197021,-0.0,2.2312676906585693,4.312644644374512,0.0,0.2953113615512848,-1.6520031134234827,0.0,0.009582927450537682,0.9847166538238525,-0.0,-0.0031591542065143585,1.0413455963134766,0.0,-0.0307011716067791
156.0,215.0,4.1707,-0.1944,8.3498,-0.0403,0.0258,-0.1132,-1.6859733066954554,0.0,2.688736915588379,-1.5663453340530396,-0.0,2.1689274311065674,4.312684698695801,0.0,0.30884599685668945,-1.6519225279437464,0.0,-0.005868465639650822,0.9846810698509216,-0.0,0.0007740264409221709,1.0413856506347656,0.0,0.02705838717520237
156.0,215.0,4.1707,-0.1944,8.3498,-0.0403,0.0258,-0.1132,-1.6859375439085902,0.0,2.715637445449829,-1.5663330554962158,-0.0,2.209246873855591,4.312644644374512,0.0,0.2948569059371948,-1.6519749800311487,0.0,-0.0009729359298944473,0.9847006797790527,-0.0,-0.014951610006392002,1.0413739681243896,0.0,0.026751412078738213
156.0,215.0,4.1707,-0.1944,8.3498,-0.0403,0.0258,-0.1132,-1.6859213314452113,0.0,2.713463544845581,-1.5663045644760132,-0.0,2.2017695903778076,4.312704725856445,0.0,0.2964099645614624,-1.6519787947284144,0.0,0.002239951863884926,0.9846324920654297,-0.0,0.0010671415366232395,1.041369915008545,0.0,0.02698575332760811
156.0,215.0,4.1707,-0.1944,8.3498,-0.0403,0.0258,-0.1132,-1.6859132252135218,0.0,2.6610469818115234,-1.566316843032837,-0.0,2.1636786460876465,4.312700434322021,0.0,0.2954721450805664,-1.6519787947284144,0.0,0.015765981748700142,0.9846928119659424,-0.0,0.0007252284558489919,1.0413777828216553,0.0,0.013970181345939636
156.0,215.0,4.1707,-0.1944,8.3498,-0.0403,0.0258,-0.1132,-1.6859213314452113,0.0,2.6919307708740234,-1.5663330554962158,-0.0,2.231071710586548,4.3126489359089355,0.0,0.29995962977409363,-1.6519668737994593,0.0,-0.007378638256341219,0.9847166538238525,-0.0,-0.0008554914966225624,1.0413860082626343,0.0,-0.005225996021181345
156.0,215.0,4.1707,-0.1944,8.3498,-0.0403,0.0258,-0.1132,-1.6859337292113246,0.0,2.6564888954162598,-1.5663412809371948,-0.0,2.1357779502868652,4.31269280492749,0.0,0.292529433965683,-1.6519830862628382,0.0,0.013271438889205456,0.9847047328948975,-0.0,-0.009359132498502731,1.0413577556610107,0.0,0.009356921538710594
156.0,215.0,4.1707,-0.1944,8.3498,-0.0403,0.0258,-0.1132,-1.6859413586058558,0.0,2.675240993499756,-1.5663087368011475,-0.0,2.225914478302002,4.312700434322021,0.0,0.30410802364349365,-1.6519230047809046,0.0,-0.000984756974503398,0.9846401214599609,-0.0,-0.004188768099993467,1.0413577556610107,0.0,0.001046470832079649
156.0,215.0,4.1707,-0.1944,8.3498,-0.0403,0.0258,-0.1132,-1.6859170399107875,0.0,2.6819987297058105,-1.5663650035858154,-0.0,2.1954612731933594,4.312704725856445,0.0,0.3024865388870239,-1.6519549528705042,0.0,0.005718243308365345,0.9846646189689636,-0.0,0.0009508882649242878,1.0413777828216553,0.0,0.03409939631819725
156.0,215.0,4.1707,-0.1944,8.3498,-0.0403,0.0258,-0.1132,-1.685897012750143,0.0,2.7076668739318848,-1.5663127899169922,-0.0,2.243863582611084,4.312628908748291,0.0,0.29030537605285645,-1.6519869009601038,0.0,-0.007054687477648258,0.984720766544342,-0.0,-0.007141001056879759,1.0413657426834106,0.0,0.008504986763000488
156.0,215.0,4.1707,-0.1944,8.3498,-0.0403,0.0258,-0.1132,-1.6859289608397425,0.0,2.7114315032958984,-1.5662761926651,-0.0,2.1832189559936523,4.312685175532959,0.0,0.2937905192375183,-1.651942555104391,0.0,0.002516144420951605,0.9846447110176086,-0.0,0.00519031286239624,1.0413496494293213,0.0,0.04431409016251564
156.0,215.0,4.1707,-0.1944,8.3498,-0.0403,0.0258,-0.1132,-1.6858974895873011,0.0,2.6994142532348633,-1.5663210153579712,-0.0,2.1659717559814453,4.312660856837891,0.0,0.2989490032196045,-1.651942555104391,0.0,-0.004147792235016823,0.9847051501274109,-0.0,-0.004396013915538788,1.0413739681243896,0.0,-0.002263024915009737
156.0,215.0,4.1707,-0.1944,8.3498,-0.0403,0.0258,-0.1132,-1.6859213314452113,0.0,2.7164103984832764,-1.5663453340530396,-0.0,2.200953483581543,4.312696619624756,0.0,0.29112744331359863,-1.6519869009601038,0.0,0.011630849912762642,0.9846527576446533,-0.0,0.000703037716448307,1.0413737297058105,0.0,-0.049564603716135025
156.0,215.0,4.1707,-0.1944,8.3498,-0.0403,0.0258,-0.1132,-1.6858893833556117,0.0,2.6810379028320312,-1.5663005113601685,-0.0,2.1759889125823975,4.312700434322021,0.0,0.2972731590270996,-1.6519869009601038,0.0,0.006295374128967524,0.9846925735473633,-0.0,-0.0010865190997719765,1.0413897037506104,0.0,-0.017442956566810608
150.0,214.0,4.1677,-0.0861,8.4323,-0.0348,0.0034,-0.1014,-1.6859051189818324,0.0,2.6841068267822266,-1.5662964582443237,-0.0,2.2263307571411133,4.312732859248779,0.0,0.2976981997489929,-1.6519792715655726,0.0,-0.019766539335250854,0.984700620174408,-0.0,-0.009582027792930603,1.041353702545166,0.0,-0.04828299582004547
150.0,214.0,4.1677,-0.0861,8.4323,-0.0348,0.0034,-0.1014,-1.6859332523741664,0.0,2.6744837760925293,-1.5663247108459473,-0.0,2.170670509338379,4.312712832088135,0.0,0.28913721442222595,-1.6519430319415491,0.0,0.006396851502358913,0.984728991985321,-0.0,-0.0012544987257570028,1.0414055585861206,0.0,-0.011013520881533623
150.0,214.0,4.1677,-0.0861,8.4323,-0.0348,0.0034,-0.1014,-1.6859051189818324,0.0,2.698529005050659,-1.5663453340530396,-0.0,2.185659170150757,4.312712832088135,0.0,0.29776686429977417,-1.6519306341754358,0.0,-0.004919619299471378,0.9846765398979187,-0.0,-0.008476569317281246,1.041333556175232,0.0,0.022437991574406624
150.0,214.0,4.1677,-0.0861,8.4323,-0.0348,0.0034,-0.1014,-1.6859337292113246,0.0,2.6980819702148438,-1.566336989402771,-0.0,2.1990244388580322,4.312708540553711,0.0,0.2927277982234955,-1.6519268194781702,0.0,-0.0027290047146379948,0.9846608638763428,-0.0,0.007862098515033722,1.0414018630981445,0.0,-0.022432276979088783
150.0,214.0,4.1677,-0.0861,8.4323,-0.0348,0.0034,-0.1014,-1.6859213314452113,0.0,2.6980957984924316,-1.5663650035858154,-0.0,2.181819438934326,4.312704725856445,0.0,0.30039337277412415,-1.6519549528705042,0.0,0.004280280787497759,0.9846810698509216,-0.0,0.007113518659025431,1.041353702545166,0.0,-0.039397332817316055
150.0,214.0,4.1677,-0.0861,8.4323,-0.0348,0.0034,-0.1014,-1.6859451733031214,0.0,2.685793161392212,-1.5663127899169922,-0.0,2.1865270137786865,4.312688513393066,0.0,0.293542742729187,-1.6520069281207483,0.0,-0.014598756097257137,0.9846928119659424,-0.0,-0.017535733059048653,1.0413415431976318,0.0,0.02811412326991558
150.0,214.0,4.1677,-0.0861,8.4323,-0.0348,0.0034,-0.1014,-1.6859294376769007,0.0,2.6539814472198486,-1.566320538520813,-0.0,2.1534574031829834,4.3126489359089355,0.0,0.31128737330436707,-1.6519587675677698,0.0,-0.003133655758574605,0.9847085475921631,-0.0,-0.00022349366918206215,1.0413577556610107,0.0,0.029081426560878754
150.0,214.0,4.1677,-0.0861,8.4323,-0.0348,0.0034,-0.1014,-1.6859013042845667,0.0,2.675584316253662,-1.5663124322891235,-0.0,2.258638620376587,4.312657042140625,0.0,0.29861748218536377,-1.651971165333883,0.0,-0.0010833274573087692,0.9847085475921631,-0.0,-0.0019235420040786266,1.0413455963134766,0.0,-0.01646900363266468
150.0,214.0,4.1677,-0.0861,8.4323,-0.0348,0.0034,-0.1014,-1.6859456501402796,0.0,2.6768453121185303,-1.5663526058197021,-0.0,2.187440872192383,4.312640829677246,0.0,0.2890234589576721,-1.6519869009601038,0.0,-0.003115234896540642,0.9846887588500977,-0.0,-0.007061361335217953,1.0413739681243896,0.0,0.0028123222291469574
150.0,214.0,4.1677,-0.0861,8.4323,-0.0348,0.0034,-0.1014,-1.6858931980528773,0.0,2.688871383666992,-1.5663371086120605,-0.0,2.1756739616394043,4.312673254604004,0.0,0.2860625684261322,-1.651942555104391,0.0,0.00438067689538002,0.984636127948761,-0.0,-0.010321498848497868,1.0413137674331665,0.0,-0.03524668142199516
150.0,214.0,4.1677,-0.0861,8.4323,-0.0348,0.0034,-0.1014,-1.6859494648375453,0.0,2.6273608207702637,-1.5663045644760132,-0.0,2.1937127113342285,4.312696619624756,0.0,0.2971169352531433,-1.6519988218890589,0.0,0.0008167487103492022,0.9847006797790527,-0.0,-0.0069481851533055305,1.041325569152832,0.0,-0.028672371059656143
150.0,214.0,4.1677,-0.0861,8.4323,-0.0348,0.0034,-0.1014,-1.6859051189818324,0.0,2.6600027084350586,-1.566320538520813,-0.0,2.1645278930664062,4.31269280492749,0.0,0.29424330592155457,-1.6519950071917933,0.0,0.010816207155585289,0.9846887588500977,-0.0,-0.0033070803619921207,1.0413818359375,0.0,0.06720305979251862
146.0,212.0,4.1623,-0.1322,8.3827,-0.0284,0.0125,-0.1272,-1.685953279534811,0.0,2.703430652618408,-1.5663247108459473,-0.0,2.1935346126556396,4.312661333675049,0.0,0.29380497336387634,-1.6519830862628382,0.0,-0.002449444029480219,0.9847126007080078,-0.0,0.0015748977893963456,1.0413618087768555,0.0,0.01122293621301651
146.0,212.0,4.1623,-0.1322,8.3827,-0.0284,0.0125,-0.1272,-1.6859494648375453,0.0,2.6853458881378174,-1.5663650035858154,-0.0,2.1818418502807617,4.312696619624756,0.0,0.2965245544910431,-1.6519988218890589,0.0,-0.009270940907299519,0.9847360253334045,-0.0,-0.009265657514333725,1.041333794593811,0.0,0.021704619750380516
146.0,212.0,4.1623,-0.1322,8.3827,-0.0284,0.0125,-0.1272,-1.6859013042845667,0.0,2.7162411212921143,-1.5663164854049683,-0.0,2.185408115386963,4.312640829677246,0.0,0.2999265193939209,-1.6519745031939905,0.0,-0.0067767491564154625,0.9846727848052979,-0.0,-0.005222179926931858,1.0414056777954102,0.0,0.0041188644245266914
146.0,212.0,4.1623,-0.1322,8.3827,-0.0284,0.0125,-0.1272,-1.6859170399107875,0.0,2.6748104095458984,-1.5663371086120605,-0.0,2.181870460510254,4.312704725856445,0.0,0.28230035305023193,-1.6519587675677698,0.0,-0.0027505483012646437,0.984696626663208,-0.0,0.0043259854428470135,1.0413897037506104,0.0,0.03338085487484932
146.0,212.0,4.1623,-0.1322,8.3827,-0.0284,0.0125,-0.1272,-1.6859289608397425,0.0,2.690363883972168,-1.5663127899169922,-0.0,2.172163963317871,4.3126770693012695,0.0,0.3038865029811859,-1.6519587675677698,0.0,0.005602905992418528,0.9847126007080078,-0.0,-0.006185163278132677,1.0413897037506104,0.0,0.01397427637130022
146.0,212.0,4.1623,-0.1322,8.3827,-0.0284,0.0125,-0.1272,-1.6859051189818324,0.0,2.7102115154266357,-1.5662761926651,-0.0,2.174952507019043,4.312644644374512,0.0,0.29711368680000305,-1.6519506613360804,0.0,-0.004184830002486706,0.9846320152282715,-0.0,0.0008618012652732432,1.0413659811019897,0.0,-0.038762737065553665
146.0,212.0,4.1623,-0.1322,8.3827,-0.0284,0.0125,-0.1272,-1.685965200463766,0.0,2.694647789001465,-1.566300868988037,-0.0,2.1244754791259766,4.312632723445557,0.0,0.2947516441345215,-1.6519988218890589,0.0,0.005979353096336126,0.984636127948761,-0.0,0.007518750615417957,1.0413415431976318,0.0,0.02528245374560356
146.0,212.0,4.1623,-0.1322,8.3827,-0.0284,0.0125,-0.1272,-1.685925622979635,0.0,2.667026996612549,-1.566320538520813,-0.0,2.206770896911621,4.312669439906738,0.0,0.2953229546546936,-1.6519745031939905,0.0,0.001205850625410676,0.9846650958061218,-0.0,-0.010610183700919151,1.0414258241653442,0.0,0.02150707319378853
146.0,212.0,4.1623,-0.1322,8.3827,-0.0284,0.0125,-0.1272,-1.685925622979635,0.0,2.70556640625,-1.566328763961792,-0.0,2.1673262119293213,4.312688513393066,0.0,0.3042753040790558,-1.651970688496725,0.0,0.0019529513083398342,0.9846925735473633,-0.0,-0.016120297834277153,1.0413936376571655,0.0,-0.04618464410305023
146.0,212.0,4.1623,-0.1322,8.3827,-0.0284,0.0125,-0.1272,-1.6859375439085902,0.0,2.678802490234375,-1.566329002380371,-0.0,2.23158597946167,4.312657042140625,0.0,0.29156503081321716,-1.6519830862628382,0.0,-0.004495428875088692,0.9847006797790527,-0.0,-0.005497019737958908,1.0413377285003662,0.0,0.038219939917325974
146.0,212.0,4.1623,-0.1322,8.3827,-0.0284,0.0125,-0.1272,-1.6859051189818324,0.0,2.704923152923584,-1.5663690567016602,-0.0,2.2024402618408203,4.312684698695801,0.0,0.29382196068763733,-1.6519625822650355,0.0,0.0022887769155204296,0.9847166538238525,-0.0,-0.002383691258728504,1.0413336753845215,0.0,-0.059855684638023376
146.0,212.0,4.1623,-0.1322,8.3827,-0.0284,0.0125,-0.1272,-1.6859051189818324,0.0,2.707878828048706,-1.5663127899169922,-0.0,2.2543091773986816,4.312696619624756,0.0,0.2857809364795685,-1.6519787947284144,0.0,0.004650822840631008,0.9846401810646057,-0.0,-0.00028832582756876945,1.0413496494293213,0.0,0.030842332169413567
155.0,215.0,4.1874,-0.2596,8.3689,-0.0376,0.0312,-0.1067,-1.6859051189818324,2.7143398639850602e-09,2.673762559890747,-1.5663164854049683,1.1288813633880679e-10,2.164069175720215,4.312657042140625,0.0,0.3024585247039795,-1.6520393530475062,0.0,-0.006459996569901705,0.9846727848052979,-0.0,0.005947929807007313,1.0413618087768555,0.0,-0.029406338930130005
155.0,215.0,4.1874,-0.2596,8.3689,-0.0376,0.0312,-0.1067,-1.685925622979635,8.79411641930933e-17,2.6883060932159424,-1.5663124322891235,3.657432845143028e-18,2.1994340419769287,4.312700434322021,0.0,0.29353898763656616,-1.6519787947284144,0.0,0.007038840092718601,0.9847319722175598,-0.0,-0.007910613901913166,1.0413577556610107,0.0,0.006197940558195114
155.0,215.0,4.1874,-0.2596,8.3689,-0.0376,0.0312,-0.1067,-1.685880800286764,2.123675655985423e-22,2.6736927032470703,-1.5663691759109497,8.832268921723554e-24,2.207575798034668,4.312720461482666,0.0,0.2958229184150696,-1.6519468466388147,0.0,0.0048741064965724945,0.984708845615387,-0.0,-0.019708355888724327,1.0413296222686768,0.0,0.021573003381490707
155.0,215.0,4.1874,-0.2596,8.3689,-0.0376,0.0312,-0.1067,-1.685901781121725,6.88043964541947e-30,2.6971497535705566,-1.5663050413131714,2.8615430438281805e-31,2.1571993827819824,4.312708540553711,0.0,0.3006889820098877,-1.6519830862628382,0.0,0.007800361141562462,0.9847248792648315,-0.0,-0.013014433905482292,1.0413496494293213,0.0,0.02314043417572975
155.0,215.0,4.1874,-0.2596,8.3689,-0.0376,0.0312,-0.1067,-1.6858684025206507,2.229175507698976e-37,2.652022123336792,-1.5663493871688843,9.271035481523848e-39,2.1765332221984863,4.312660856837891,0.0,0.29447758197784424,-1.651971165333883,0.0,-0.012672912329435349,0.9846806526184082,-0.0,-0.012694433331489563,1.0413658618927002,0.0,0.07431067526340485
155.0,215.0,4.1874,-0.2596,8.3689,-0.0376,0.0312,-0.1067,-1.6858655414977015,5.3809861030072976e-43,2.6248021125793457,-1.5663127899169922,2.2420775429197073e-44,2.2143449783325195,4.312712832088135,0.0,0.30001407861709595,-1.6520188490497034,0.0,-0.007403131574392319,0.9847248196601868,-0.0,-0.008583426475524902,1.0413618087768555,0.0,0.013362363912165165
155.0,215.0,4.1874,-0.2596,8.3689,-0.0376,0.0312,-0.1067,-1.68591370205068,0.0,2.654942035675049,-1.566328763961792,-0.0,2.235560894012451,4.312673254604004,0.0,0.29763317108154297,-1.6519745031939905,0.0,0.0047616674564778805,0.9847167134284973,-0.0,-0.001835488248616457,1.0413737297058105,0.0,0.014221503399312496
155.0,215.0,4.1874,-0.2596,8.3689,-0.0376,0.0312,-0.1067,-1.685941835443014,0.0,2.6845927238464355,-1.5662802457809448,-0.0,2.2070348262786865,4.312676592464111,0.0,0.2953510880470276,-1.6519625822650355,0.0,0.01502990908920765,0.9847166538238525,-0.0,-0.009165430441498756,1.0413577556610107,0.0,0.013353978283703327
155.0,215.0,4.1874,-0.2596,8.3689,-0.0376,0.0312,-0.1067,-1.6858850918211878,0.0,2.668952703475952,-1.5662885904312134,-0.0,2.157927989959717,4.312680883998535,0.0,0.28129634261131287,-1.6519506613360804,0.0,-0.0038800914771854877,0.9847291111946106,-0.0,0.0030015939846634865,1.0413897037506104,0.0,-0.0017378097400069237
155.0,215.0,4.1874,-0.2596,8.3689,-0.0376,0.0312,-0.1067,-1.6858850918211878,0.0,2.6848721504211426,-1.5663050413131714,-0.0,2.205125093460083,4.312696619624756,0.0,0.2942778468132019,-1.6519830862628382,0.0,0.00036150868982076645,0.9847320914268494,-0.0,-0.004996703937649727,1.0413618087768555,0.0,-0.020616179332137108
155.0,215.0,4.1874,-0.2596,8.3689,-0.0376,0.0312,-0.1067,-1.685901781121725,0.0,2.676556348800659,-1.5663050413131714,-0.0,2.1569533348083496,4.312652750606201,0.0,0.302790105342865,-1.6519625822650355,0.0,0.000396267743781209,0.9846686720848083,-0.0,-0.009070702828466892,1.0413457155227661,0.0,0.023509934544563293
155.0,215.0,4.1874,-0.2596,8.3689,-0.0376,0.0312,-0.1067,-1.6858936748900355,0.0,2.724341869354248,-1.5663127899169922,4.386118689581053e-06,2.223240375518799,4.312704725856445,0.0,0.29866474866867065,-1.6519950071917933,0.0,-0.013405263423919678,0.984636664390564,-0.0,0.0039000441320240498,1.0413737297058105,0.0,-0.0020485487766563892
155.0,215.0,4.1874,-0.2596,8.3689,-0.0376,0.0312,-0.1067,-1.6859213314452113,0.0,2.6567516326904297,-1.5663329362869263,3.8967093132669106e-05,2.193363666534424,4.312601252193115,0.0,0.298659086227417,-1.651970688496725,0.0,-0.0049301451072096825,0.9846847057342529,-0.0,-0.0018335916101932526,1.0413455963134766,0.0,0.0016376918647438288
152.0,210.0,4.1019,-0.2052,8.4754,-0.0273,0.0125,-0.1213,-1.685901781121725,0.0,2.690617561340332,-1.5663371086120605,3.659072899608873e-05,2.1620376110076904,4.312700434322021,0.0,0.31478726863861084,-1.6519745031939905,0.0,0.0010031401179730892,0.9847320318222046,-0.0,-0.022741662338376045,1.0413777828216553,0.0,-0.021795455366373062
152.0,210.0,4.1019,-0.2052,8.4754,-0.0273,0.0125,-0.1213,-1.6859013042845667,0.0,2.718766212463379,-1.5663567781448364,3.3839227398857474e-05,2.217822313308716,4.312720461482666,0.0,0.30773383378982544,-1.6519950071917933,0.0,0.007629969157278538,0.9846685528755188,-0.0,0.007880785502493382,1.0414096117019653,0.0,-0.023164305835962296
152.0,210.0,4.1019,-0.2052,8.4754,-0.0273,0.0125,-0.1213,-1.6858850918211878,0.0,2.65570068359375,-1.566316843032837,3.147254392388277e-05,2.167694568634033,4.312688513393066,0.0,0.30567359924316406,-1.6519950071917933,0.0,-0.00414605438709259,0.984627902507782,-0.0,-0.013888993300497532,1.0413577556610107,0.0,0.012892729602754116
152.0,210.0,4.1019,-0.2052,8.4754,-0.0273,0.0125,-0.1213,-1.6859051189818324,0.0,2.6443240642547607,-1.5663247108459473,2.990396569657605e-05,2.1957390308380127,4.312696619624756,0.0,0.29488933086395264,-1.6519864241229456,0.0,0.021265404298901558,0.9847480654716492,-0.0,0.003296391572803259,1.0413737297058105,0.0,-0.0002222689799964428
152.0,210.0,4.1019,-0.2052,8.4754,-0.0273,0.0125,-0.1213,-1.6858893833556117,0.0,2.713226318359375,-1.5663412809371948,2.8040642064297572e-05,2.1610608100891113,4.312668486232422,0.0,0.301374614238739,-1.6519787947284144,0.0,0.0015055452240630984,0.9847239255905151,-0.0,-0.011623397469520569,1.0413658618927002,0.0,0.0397648923099041
152.0,210.0,4.1019,-0.2052,8.4754,-0.0273,0.0125,-0.1213,-1.6859175167479457,0.0,2.7126364707946777,-1.5663127899169922,2.6788689865497872e-05,2.2058603763580322,4.312720461482666,0.0,0.29390063881874084,-1.6519587675677698,0.0,0.008592612110078335,0.9846847057342529,-0.0,-0.00448593171313405,1.0413455963134766,0.0,-0.021491264924407005
152.0,210.0,4.1019,-0.2052,8.4754,-0.0273,0.0125,-0.1213,-1.6859094105162562,0.0,2.6619296073913574,-1.5662885904312134,2.52835907303961e-05,2.1734180450439453,4.3127404886433105,0.0,0.30184975266456604,-1.6519950071917933,0.0,-0.0014440570957958698,0.9847052097320557,-0.0,-0.007085296791046858,1.0413978099822998,0.0,-0.038171857595443726
152.0,210.0,4.1019,-0.2052,8.4754,-0.0273,0.0125,-0.1213,-1.6858931980528773,0.0,2.6981334686279297,-1.5662802457809448,2.3938595404615626e-05,2.2125585079193115,4.312680883998535,0.0,0.2938104569911957,-1.6519625822650355,0.0,-0.004079224541783333,0.9847167134284973,-0.0,-0.006472849287092686,1.0413777828216553,0.0,-0.0033340957015752792
152.0,210.0,4.1019,-0.2052,8.4754,-0.0273,0.0125,-0.1213,-1.685925622979635,0.0,2.730198860168457,-1.566300868988037,2.302018037880771e-05,2.201091766357422,4.312669439906738,0.0,0.31015509366989136,-1.6519225279437464,0.0,-0.001420636661350727,0.9846806526184082,-0.0,-0.0048696850426495075,1.0413737297058105,0.0,0.05261246860027313
152.0,210.0,4.1019,-0.2052,8.4754,-0.0273,0.0125,-0.1213,-1.6858893833556117,0.0,2.6776018142700195,-1.56625235080719,2.189987753808964e-05,2.236825466156006,4.312700434322021,0.0,0.3021695613861084,-1.6519907156573694,0.0,0.0017421313095837831,0.9846360683441162,-0.0,-0.004737841431051493,1.0413936376571655,0.0,0.039240818470716476
152.0,210.0,4.1019,-0.2052,8.4754,-0.0273,0.0125,-0.1213,-1.6858850918211878,0.0,2.6936564445495605,-1.566316843032837,2.08835717785405e-05,2.154910087585449,4.312673254604004,0.0,0.29033103585243225,-1.651942555104391,0.0,-0.011603822000324726,0.9846726059913635,-0.0,-0.013464272953569889,1.0413978099822998,0.0,-0.006780663970857859
152.0,210.0,4.1019,-0.2052,8.4754,-0.0273,0.0125,-0.1213,-1.6858974895873011,0.0,2.7197341918945312,-1.566268801689148,2.0181163563393056e-05,2.2006521224975586,4.312665148372314,0.0,0.29805052280426025,-1.6519306341754358,0.0,0.01303340308368206,0.9846727848052979,-0.0,-0.007055351510643959,1.0413858890533447,0.0,0.0009724423289299011
153.0,218.0,4.2275,-0.0772,8.269,-0.0353,0.0173,-0.1203,-1.685901781121725,0.0,2.6839895248413086,-1.5662884712219238,4.1379324966506204e-10,2.1979849338531494,4.312660856837891,0.0,0.293691486120224,-1.651966396962301,0.0,0.006976054981350899,0.9846847057342529,-0.0,-0.005150659941136837,1.0413618087768555,0.0,-0.07720648497343063
153.0,218.0,4.2275,-0.0772,8.269,-0.0353,0.0173,-0.1203,-1.6859456501402796,0.0,2.708217144012451,-1.566320538520813,9.992620261721984e-16,2.19688081741333,4.312696619624756,0.0,0.2910657227039337,-1.6519950071917933,0.0,-0.005086538381874561,0.9847521185874939,-0.0,-0.007391739170998335,1.0413538217544556,0.0,-0.04398752748966217
153.0,218.0,4.2275,-0.0772,8.269,-0.0353,0.0173,-0.1203,-1.685901781121725,0.0,2.6832478046417236,-1.5663050413131714,3.2374823151277737e-23,2.2069692611694336,4.312712832088135,0.0,0.2955235242843628,-1.6520031134234827,0.0,0.000729294610209763,0.9847046136856079,-0.0,-0.018510784953832626,1.0413737297058105,0.0,-0.049983590841293335
153.0,218.0,4.2275,-0.0772,8.269,-0.0353,0.0173,-0.1203,-1.6858488521971644,0.0,2.6942882537841797,-1.5662761926651,-1.4268365703173913e-05,2.279141902923584,4.312696619624756,0.0,0.2888340353965759,-1.6519869009601038,0.0,-0.007792930118739605,0.9847291111946106,-0.0,0.0023217168636620045,1.0413577556610107,0.0,0.01487903855741024
153.0,218.0,4.2275,-0.0772,8.269,-0.0353,0.0173,-0.1203,-1.68591370205068,0.0,2.7017569541931152,-1.5662884712219238,-1.3620639947475865e-05,2.199369192123413,4.312688513393066,0.0,0.29987841844558716,-1.6519268194781702,0.0,-0.0027968839276582003,0.9846406579017639,-0.0,-0.006671031471341848,1.0413897037506104,0.0,0.007618925999850035
153.0,218.0,4.2275,-0.0772,8.269,-0.0353,0.0173,-0.1203,-1.68591370205068,0.0,2.6935949325561523,-1.566316843032837,-3.24018659125791e-11,2.1996777057647705,4.312696619624756,0.0,0.302165687084198,-1.652027432118551,0.0,0.0020799776539206505,0.9846687316894531,-0.0,-0.008360597304999828,1.0413618087768555,0.0,-0.008455120027065277
153.0,218.0,4.2275,-0.0772,8.269,-0.0353,0.0173,-0.1203,-1.6859175167479457,0.0,2.671128749847412,-1.5662927627563477,-1.0497791546916868e-18,2.211521625518799,4.312673254604004,0.0,0.2884123623371124,-1.6519907156573694,1.7859659351415758e-07,0.0006840606220066547,0.9846445322036743,-0.0,-0.00473926542326808,1.0414096117019653,0.0,0.002886416856199503
153.0,218.0,4.2275,-0.0772,8.269,-0.0353,0.0173,-0.1203,-1.6858655414977015,0.0,2.6852121353149414,-1.5662368535995483,0.0012945191701874137,2.1948750019073486,4.3126770693012695,0.0,0.2909182012081146,-1.6520431677447718,4.971301842404685e-11,0.003535440657287836,0.9846806526184082,-0.0,-0.001206394750624895,1.0413455963134766,0.0,-0.0706346333026886
153.0,218.0,4.2275,-0.0772,8.269,-0.0353,0.0173,-0.1203,-1.685868879357809,0.0,2.6592650413513184,-1.5662329196929932,0.003570039989426732,2.2032625675201416,4.31272475301709,0.0,0.273051917552948,-1.6520231405841272,9.035096101663097e-16,-0.007613579276949167,0.9847006797790527,-0.0,-0.0014528094325214624,1.041489839553833,0.001341673661954701,-0.010269874706864357
153.0,218.0,4.2275,-0.0772,8.269,-0.0353,0.0173,-0.1203,-1.685901781121725,0.0,2.6744062900543213,-1.5662174224853516,0.008052484132349491,2.1840529441833496,4.312700434322021,0.0,0.2958272695541382,-1.651994530354635,2.514952438081924e-19,-0.002831109333783388,0.9846847057342529,-0.0,-0.01591041497886181,1.0414985418319702,0.003508948953822255,0.0014577973634004593
153.0,218.0,4.2275,-0.0772,8.269,-0.0353,0.0173,-0.1203,-1.6858931980528773,0.0,2.691328525543213,-1.5661170482635498,0.008502599783241749,2.1559627056121826,4.312677546138428,0.0,0.2833581566810608,-1.6519902388202112,4.570802474243935e-24,-0.019186554476618767,0.984648585319519,-0.0,0.00854782946407795,1.0415135622024536,0.005320100579410791,0.05612669140100479
153.0,218.0,4.2275,-0.0772,8.269,-0.0353,0.0173,-0.1203,-1.685925622979635,4.395726449502035e-09,2.6844329833984375,-1.5660490989685059,0.0054280743934214115,2.190145254135132,4.312684698695801,0.0,0.2946328818798065,-1.6520546118365687,8.307206314504038e-29,-0.009544625878334045,0.9847480654716492,-0.0,-0.009349577128887177,1.0415897369384766,0.008124559186398983,0.09191529452800751
152.0,209.0,4.0977,-1.0439,8.2851,-0.0742,0.0339,-0.0754,-1.6859775982298792,1.061516258465782e-14,2.6363272666931152,-1.56602942943573,0.0025991760194301605,2.1596317291259766,4.312669439906738,0.0,0.29089659452438354,-1.652010742818014,-0.00019620830425992608,-0.014965394511818886,0.9847604632377625,-0.0,-0.004941425286233425,1.0416054725646973,0.009964319877326488,0.08925604820251465
152.0,209.0,4.0977,-1.0439,8.2851,-0.0742,0.0339,-0.0754,-1.6859170399107875,3.439177829612575e-22,2.584548234939575,-1.5660732984542847,3.2927653137448942e-06,2.1711459159851074,4.312696619624756,2.5100443945547113e-10,0.28319722414016724,-1.652046028767721,-0.00019469406106509268,-0.018613755702972412,0.9846360683441162,-0.0,-0.0031771196518093348,1.0417418479919434,0.01061047613620758,0.11859164386987686
152.0,209.0,4.0977,-1.0439,8.2851,-0.0742,0.0339,-0.0754,-1.6859213314452113,1.114249703359135e-29,2.5760059356689453,-1.566072940826416,-0.0014161169528961182,2.1307008266448975,4.312680883998535,4.561881437653483e-15,0.28151416778564453,-1.652046028767721,-0.00018381989502813667,-0.012449555099010468,0.9847126603126526,-0.0,-0.007538978010416031,1.041785717010498,0.00935884565114975,0.14176318049430847
152.0,209.0,4.0977,-1.0439,8.2851,-0.0742,0.0339,-0.0754,-1.685908933679098,2.6907823333165464e-35,2.5977509021759033,-1.566097617149353,-0.0009605911327525973,2.1866462230682373,4.31272475301709,1.269816642256305e-18,0.2763960361480713,-1.6520422140704554,-0.00016678578685969114,-0.03112443909049034,0.9846605658531189,-0.0,-0.009417756460607052,1.041809320449829,0.007546557113528252,0.12600135803222656
152.0,209.0,4.0977,-1.0439,8.2851,-0.0742,0.0339,-0.0754,-1.685897012750143,8.716076448100362e-43,2.625607967376709,-1.5660688877105713,-0.00022696280211675912,2.168985366821289,4.312680883998535,2.3078289865308986e-23,0.28501683473587036,-1.6521151701556605,-0.00014844453835394233,-0.021754972636699677,0.9847248792648315,-0.0,-0.010065246373414993,1.041837453842163,0.003766705747693777,0.14530858397483826
152.0,209.0,4.0977,-1.0439,8.2851,-0.0742,0.0339,-0.0754,-1.6859213314452113,0.0,2.58541202545166,-1.5661050081253052,-0.0001646302844164893,2.187434434890747,4.312684698695801,6.423926233180003e-27,0.27671507000923157,-1.6520221869098108,-0.000137134367832914,-0.016224034130573273,0.9846887588500977,-0.0,0.0018513501854613423,1.041829228401184,0.0013004856882616878,0.05441422387957573
152.0,209.0,4.0977,-1.0439,8.2851,-0.0742,0.0339,-0.0754,-1.6858974895873011,0.0,2.600538730621338,-1.5661016702651978,-0.00023854737810324878,2.1702990531921387,4.312652750606201,1.167516858410432e-31,0.2874411344528198,-1.6520026365863245,-0.00012448802590370178,-0.020737174898386,0.9846687316894531,-0.0,0.0024542168248444796,1.0418699979782104,-0.000752462015952915,0.13338175415992737
152.0,209.0,4.0977,-1.0439,8.2851,-0.0742,0.0339,-0.0754,-1.6859413586058558,0.0,2.631625175476074,-1.5661293268203735,-0.00020307680824771523,2.1920671463012695,4.312700434322021,2.1219043390136522e-36,0.2738863527774811,-1.6519783178912562,-0.00011397742491681129,-0.0225781612098217,0.9846159815788269,-0.0,-0.0032808410469442606,1.0417814254760742,-0.0018462896114215255,0.07866822183132172
152.0,209.0,4.0977,-1.0439,8.2851,-0.0742,0.0339,-0.0754,-1.6859337292113246,0.0,2.6141035556793213,-1.5660853385925293,-0.00021949487563688308,2.1878421306610107,4.312628908748291,5.906402962205888e-40,0.2856742739677429,-1.6519983450519007,-0.00010718998964875937,-0.022656578570604324,0.9846768379211426,-0.0,-0.010859830304980278,1.0417977571487427,-0.0021372048649936914,0.12207543849945068
152.0,209.0,4.0977,-1.0439,8.2851,-0.0742,0.0339,-0.0754,-1.6859337292113246,0.0,2.61462664604187,-1.5661048889160156,-0.00022239053214434534,2.1283504962921143,4.312712832088135,1.1210387714598537e-44,0.29179540276527405,-1.6520469824420374,-9.930496889865026e-05,-0.0217134952545166,0.9846646189689636,-0.0,-0.011038687080144882,1.041785717010498,-0.0014550745254382491,0.07368278503417969
152.0,209.0,4.0977,-1.0439,8.2851,-0.0742,0.0339,-0.0754,-1.6859051189818324,0.0,2.6716222763061523,-1.5661251544952393,-0.0003858216805383563,2.2112672328948975,4.312684698695801,0.0,0.291728675365448,-1.65198260942568,-7.709269993938506e-05,-0.0171027984470129,0.9846687316894531,-0.0,-0.020965460687875748,1.0417976379394531,-0.0007922969525679946,-0.0022274560760706663
152.0,209.0,4.0977,-1.0439,8.2851,-0.0742,0.0339,-0.0754,-1.6858931980528773,0.0,2.681548595428467,-1.5661696195602417,-0.000376872398192063,2.1887528896331787,4.312665148372314,0.0,0.2845013439655304,-1.6520150343524378,-7.331613596761599e-05,-0.015883978456258774,0.9846925735473633,-0.0,-0.00682477094233036,1.0417895317077637,-0.0005500523839145899,0.054339174181222916
152.0,209.0,4.0977,-1.0439,8.2851,-0.0742,0.0339,-0.0754,-1.6859852276244105,0.0,2.6311802864074707,-1.5661051273345947,-0.0004742806777358055,2.2002925872802734,4.3126770693012695,0.0,0.2865367829799652,-1.6520193258868616,-6.883043533889577e-05,-0.022197823971509933,0.9847248196601868,-0.0,0.004099832847714424,1.0418176651000977,-0.000260843284195289,0.033037133514881134
151.0,204.0,3.1161,-1.3083,8.6231,-0.0756,0.1223,-0.0803,-1.6859408817686976,0.0,2.6106748580932617,-1.566112995147705,-0.00036076927790418267,2.1812524795532227,4.312684698695801,0.0,0.2871949076652527,-1.6520026365863245,-6.581057095900178e-05,-0.01035282202064991,0.9846401214599609,-0.0,-0.01341178361326456,1.0418095588684082,0.0001999618107220158,0.030924763530492783
151.0,204.0,3.1161,-1.3083,8.6231,-0.0756,0.1223,-0.0803,-1.6859404049315394,-8.640572923468426e-05,2.632615327835083,-1.5660688877105713,-0.0002731535059865564,2.1456661224365234,4.312657042140625,0.0,0.29030272364616394,-1.6520345846759241,-7.46064106351696e-05,-0.017706777900457382,0.9847291111946106,-0.0,0.0011161313159391284,1.0418617725372314,0.0009496319107711315,0.058685049414634705
151.0,204.0,3.1161,-1.3083,8.6231,-0.0756,0.1223,-0.0803,-1.6859814129271449,-0.0004430375120136887,2.6173298358917236,-1.5661654472351074,-0.00019096798496320844,2.1743807792663574,4.3126489359089355,0.0,0.2863180935382843,-1.6520183722125452,-7.070090941851959e-05,-0.00816701352596283,0.9846887588500977,-0.0,-0.007844699546694756,1.0418699979782104,0.001400322187691927,0.10935954749584198
151.0,204.0,3.1161,-1.3083,8.6231,-0.0756,0.1223,-0.0803,-1.6859690151610316,-0.0006670186994597316,2.6832573413848877,-1.5660812854766846,-0.00015335508214775473,2.195657730102539,4.3126489359089355,0.0,0.28253471851348877,-1.652078930531637,-6.802887946832925e-05,-0.019764449447393417,0.9846847057342529,-0.0,-0.004488774109631777,1.0419378280639648,0.002435769187286496,0.07143821567296982
151.0,204.0,3.1161,-1.3083,8.6231,-0.0756,0.1223,-0.0803,-1.68601717571401,-0.001799962599761784,2.6347296237945557,-1.566092610359192,-0.0001310276857111603,2.177368402481079,4.312669439906738,0.0,0.2818354666233063,-1.6520989576922815,-6.476524868048728e-05,-0.034597963094711304,0.9846765398979187,-0.0,-0.010032286867499352,1.041929841041565,0.0039631519466638565,0.10706199705600739
151.0,204.0,3.1161,-1.3083,8.6231,-0.0756,0.1223,-0.0803,-1.6860362492003382,-0.004030340351164341,2.568140983581543,-1.5660885572433472,-3.872347951983102e-05,2.1363601684570312,4.312616987819336,0.0,0.2638053894042969,-1.6520026365863245,-7.192566408775747e-05,-0.03369894623756409,0.9846887588500977,-0.0,0.004232414998114109,1.0419776439666748,0.005986608099192381,0.12742142379283905
151.0,204.0,3.1161,-1.3083,8.6231,-0.0756,0.1223,-0.0803,-1.6861254177489222,-0.010279558598995209,2.5693106651306152,-1.56610107421875,-6.852576916571707e-05,2.139669895172119,4.312676592464111,0.0,0.2683292031288147,-1.6520546118365687,-6.970721005927771e-05,-0.02661915495991707,0.9846484661102295,-0.0,0.005723144859075546,1.0420540571212769,0.00750106992200017,0.14856845140457153
151.0,204.0,3.1161,-1.3083,8.6231,-0.0756,0.1223,-0.0803,-1.686288972894186,-0.016843223944306374,2.5422959327697754,-1.5660648345947266,-0.00011892330803675577,2.1572961807250977,4.312673254604004,0.0,0.2611680030822754,-1.6520026365863245,-2.4992721225913783e-09,-0.04143708944320679,0.984708845615387,-0.0,-0.010569119825959206,1.0421336889266968,0.009696094319224358,0.16189096868038177
151.0,204.0,3.1161,-1.3083,8.6231,-0.0756,0.1223,-0.0803,-1.6863366566100062,-0.016006525605916977,2.5248498916625977,-1.5660730600357056,-0.0001082139860955067,2.078439950942993,4.3126489359089355,0.0,0.2666685879230499,-1.652046028767721,-6.9568163079195e-13,-0.03523492440581322,0.984656810760498,-0.0,-6.227334961295128e-05,1.0421617031097412,0.01103873923420906,0.20314088463783264
151.0,204.0,3.1161,-1.3083,8.6231,-0.0756,0.1223,-0.0803,-1.686516901055807,-0.01392021868377924,2.511730909347534,-1.56610107421875,-9.659904753789306e-05,2.1306490898132324,4.312644644374512,0.0,0.24883848428726196,-1.6520469824420374,-5.565941319218837e-05,-0.04777427762746811,0.9846241474151611,-0.0,-0.007281851954758167,1.0422335863113403,0.012243863195180893,0.24391666054725647
151.0,204.0,3.1161,-1.3083,8.6231,-0.0756,0.1223,-0.0803,-1.6866327724852503,-0.014744355343282223,2.5250046253204346,-1.5661289691925049,-0.0009490714292041957,2.1511785984039307,4.312633200282715,0.0,0.2589326798915863,-1.652107063923971,-6.29913920420222e-05,-0.05251093581318855,0.9846846461296082,-0.0,3.209291025996208e-05,1.0423376560211182,0.013256502337753773,0.26693111658096313
151.0,204.0,3.1161,-1.3083,8.6231,-0.0756,0.1223,-0.0803,-1.686789175073141,-0.016323203220963478,2.4913697242736816,-1.5661412477493286,-0.0018719104118645191,2.139683723449707,4.312640829677246,-0.0005026452126912773,0.2510177791118622,-1.6520264784442347,-6.151590059744194e-05,-0.051196880638599396,0.9846851825714111,-0.0,0.0022552215959876776,1.0424416065216064,0.014220695942640305,0.2837602496147156
155.0,214.0,4.1378,-0.5647,8.2971,-0.057,0.0116,-0.0718,-1.6869245968260707,-0.01840798929333687,2.4848744869232178,-1.566169261932373,-0.0015130839310586452,2.0906620025634766,4.312708540553711,-0.000507952063344419,0.2512478828430176,-1.6520503203021448,-2.296365437359782e-06,-0.05048343539237976,0.9846971035003662,-0.0,-0.0023256512358784676,1.0425461530685425,0.01472559291869402,0.27778249979019165
155.0,214.0,4.1378,-0.5647,8.2971,-0.057,0.0116,-0.0718,-1.687056680718893,-0.016473913565278053,2.492586135864258,-1.566152811050415,-0.0007802292820997536,2.0765275955200195,4.312673254604004,-0.0003691129677463323,0.24204121530056,-1.6520503203021448,-4.1735309652679575e-11,-0.06449616700410843,0.9846971035003662,-0.0,-0.0006962943589314818,1.0426702499389648,0.014588143676519394,0.2974352240562439
155.0,214.0,4.1378,-0.5647,8.2971,-0.057,0.0116,-0.0718,-1.687112947503561,-0.014289721846580505,2.4776620864868164,-1.5661855936050415,-0.0005441682296805084,2.0964348316192627,4.31269280492749,-0.0003555055591277778,0.2575303912162781,-1.6521065870868128,-1.1617175456205345e-14,-0.05580025911331177,0.9847320318222046,-0.0,-0.008421221747994423,1.0427336692810059,0.014421104453504086,0.27998679876327515
155.0,214.0,4.1378,-0.5647,8.2971,-0.057,0.0116,-0.0718,-1.6872083149352015,-0.01127631962299347,2.4372878074645996,-1.5661251544952393,-0.00038779780152253807,2.1380081176757812,4.312660856837891,-0.0002912266063503921,0.2494947612285614,-1.652046028767721,-0.00018569425446912646,-0.05187758430838585,0.9846768379211426,-0.0,-0.015198267996311188,1.0428779125213623,0.012622828595340252,0.28588682413101196
155.0,214.0,4.1378,-0.5647,8.2971,-0.057,0.0116,-0.0718,-1.6872436008849085,-0.009841070510447025,2.502265214920044,-1.5661733150482178,-0.00031904783099889755,2.117659091949463,4.312696619624756,-0.00025575116160325706,0.25015828013420105,-1.652038876210348,-0.0001653833023738116,-0.05283573269844055,0.9847167134284973,-0.0,-0.00171203026548028,1.04292631149292,0.010931099765002728,0.33929502964019775
155.0,214.0,4.1378,-0.5647,8.2971,-0.057,0.0116,-0.0718,-1.6873356304564417,-0.009453455917537212,2.460686683654785,-1.5661449432373047,-0.0002580544096417725,2.1201534271240234,4.3126489359089355,-0.00022001838078722358,0.24676525592803955,-1.6520069281207483,-0.00014418426144402474,-0.04820730909705162,0.9846925735473633,-0.0,0.005178987048566341,1.0429819822311401,0.008104311302304268,0.2686108350753784
155.0,214.0,4.1378,-0.5647,8.2971,-0.057,0.0116,-0.0718,-1.6874238453307093,-0.008571524173021317,2.4803361892700195,-1.566205382347107,-0.00021664041560143232,2.0433545112609863,4.312696619624756,-0.0001930475700646639,0.2563638985157013,-1.6520503203021448,-0.0001278030249522999,-0.04642282426357269,0.9846970438957214,-0.0,0.002011326840147376,1.0430057048797607,0.0041688890196383,0.2427724450826645
155.0,214.0,4.1378,-0.5647,8.2971,-0.057,0.0116,-0.0718,-1.687451501885885,-0.007452596444636583,2.468101739883423,-1.5661733150482178,-0.00019336646073497832,2.1080119609832764,4.312660856837891,-0.00017679385200608522,0.25519365072250366,-1.6520832220660608,-0.00011776817700592801,-0.03674958646297455,0.9846847057342529,-0.0,-0.0024494167882949114,1.0430176258087158,0.0018672116566449404,0.2716797888278961
155.0,214.0,4.1378,-0.5647,8.2971,-0.057,0.0116,-0.0718,-1.6875440082945765,-0.005778932943940163,2.506756067276001,-1.5661407709121704,-0.00014094944344833493,2.1235251426696777,4.31269280492749,-0.00015895039541646838,0.2540055215358734,-1.652046028767721,-0.00010660752741387114,-0.049006640911102295,0.9846651554107666,-0.0,0.002023113891482353,1.042961597442627,0.0008012402104213834,0.2813895046710968
155.0,214.0,4.1378,-0.5647,8.2971,-0.057,0.0116,-0.0718,-1.6875111065306605,-0.0032665038015693426,2.549114227294922,-1.5661733150482178,-0.00010021877096733078,2.0846915245056152,4.312712832088135,-0.00014437887875828892,0.24760213494300842,-1.6520345846759241,-9.737928485265002e-05,-0.04516768828034401,0.9845998883247375,-0.0,-0.007494649384170771,1.0430057048797607,0.00021106950589455664,0.28259289264678955
155.0,214.0,4.1378,-0.5647,8.2971,-0.057,0.0116,-0.0718,-1.6875835857787074,-0.0021927589550614357,2.531158208847046,-1.566161036491394,-7.029085827525705e-05,2.1391146183013916,4.312665148372314,-0.00013509085692930967,0.26965978741645813,-1.652062718068258,-9.144269279204309e-05,-0.04068189114332199,0.9846608638763428,-0.0,-0.015485646203160286,1.0429856777191162,8.782777877058834e-05,0.22721460461616516
155.0,214.0,4.1378,-0.5647,8.2971,-0.057,0.0116,-0.0718,-1.6875635586180628,-0.001873651403002441,2.4950826168060303,-1.5661407709121704,-6.289839802775532e-05,2.0562515258789062,4.312657042140625,-0.0001244188897544518,0.2731862962245941,-1.651994530354635,-8.456853538518772e-05,-0.04017504304647446,0.9846245646476746,-0.0,-0.004391617141664028,1.0430216789245605,5.0562444812385365e-05,0.25754407048225403
155.0,214.0,4.1378,-0.5647,8.2971,-0.057,0.0116,-0.0718,-1.6875511608519496,-0.0016881844494491816,2.5214319229125977,-1.566161036491394,-5.878978845430538e-05,2.195483446121216,4.312704725856445,-0.00011745964002329856,0.25630658864974976,-1.652067009602682,-8.005512063391507e-05,-0.04589054360985756,0.9846773147583008,-0.0,-0.009913083165884018,1.0430059432983398,4.326907219365239e-05,0.19968582689762115
153.0,212.0,4.2179,-0.2794,8.4072,-0.0605,0.0246,-0.128,-1.6875792942442835,-0.0014980863779783249,2.5021755695343018,-1.566161036491394,3.42820530931931e-05,2.131638526916504,4.312681360835693,-0.00010930751159321517,0.2423434555530548,-1.6520546118365687,-7.473675941582769e-05,-0.044466160237789154,0.9846447110176086,-0.0,-0.01007215678691864,1.0430057048797607,7.105060539913666e-09,0.27872490882873535
153.0,212.0,4.2179,-0.2794,8.4072,-0.0605,0.0246,-0.128,-1.6876236400999964,-0.0011664822231978178,2.5388028621673584,-1.566161036491394,6.798754475312307e-05,2.144083023071289,4.3127452570148925,-0.00010229840700048953,0.26933586597442627,-1.652067009602682,-7.008109241724014e-05,-0.058488283306360245,0.9846205115318298,-0.0,-0.005056760739535093,1.0429575443267822,2.301949147621898e-16,0.2504322826862335
153.0,212.0,4.2179,-0.2794,8.4072,-0.0605,0.0246,-0.128,-1.6875831089415492,-0.0009540330502204597,2.5158896446228027,-1.5662052631378174,8.078301470959559e-05,2.13308048248291,4.312644644374512,-3.089104939135723e-05,0.26565444469451904,-1.6520026365863245,-6.695296906400472e-05,-0.06692535430192947,0.9845766425132751,-0.0,-0.01537136547267437,1.0430256128311157,5.5589369489757565e-22,0.2472371757030487
153.0,212.0,4.2179,-0.2794,8.4072,-0.0605,0.0246,-0.128,-1.6875950298705042,-0.0006411476642824709,2.509145975112915,-1.5661489963531494,7.705183088546619e-05,2.164442539215088,4.31269280492749,-2.888966992031783e-05,0.25331389904022217,-1.6520307699786585,-6.319214298855513e-05,-0.051807381212711334,0.9846324920654297,-0.0,-0.005036808084696531,1.0430138111114502,1.80102481108694e-29,0.2638254463672638
153.0,212.0,4.2179,-0.2794,8.4072,-0.0605,0.0246,-0.128,-1.6875869236388148,-0.0005141017609275877,2.52789568901062,-1.566169261932373,0.00028470790130086243,2.120225429534912,4.312704725856445,-2.714685251703486e-05,0.23710373044013977,-1.6520584265338343,-5.983139271847904e-05,-0.0506538450717926,0.9846814274787903,-7.003603252897506e-10,-0.018019136041402817,1.0430216789245605,5.8350906591486435e-37,0.2225535660982132
153.0,212.0,4.2179,-0.2794,8.4072,-0.0605,0.0246,-0.128,-1.6875869236388148,-0.00045059266267344356,2.4997928142547607,-1.5661370754241943,0.00023928361770231277,2.1016218662261963,4.312644644374512,-2.5971768991439603e-05,0.2547524571418762,-1.652090851460592,-6.884792674100026e-05,-0.05604296177625656,0.9846327900886536,-1.949478447595132e-13,-0.015958501026034355,1.0430335998535156,1.409706255110766e-42,0.28714102506637573
153.0,212.0,4.2179,-0.2794,8.4072,-0.0605,0.0246,-0.128,-1.6875869236388148,-0.0004487847036216408,2.508580207824707,-1.5661652088165283,0.0001973126345546916,2.14333438873291,4.312681360835693,-2.4554605261073448e-05,0.25969812273979187,-1.6520350615130823,-6.568436219822615e-05,-0.05868634581565857,0.9845967292785645,-3.543081329312166e-18,-0.03160324692726135,1.043013572692871,0.0,0.24733057618141174
153.0,212.0,4.2179,-0.2794,8.4072,-0.0605,0.0246,-0.128,-1.6876636944212855,-0.000718836672604084,2.5593390464782715,-1.5661170482635498,0.00013966625556349754,2.078556537628174,4.3126208025166015,-2.3589234842802398e-05,0.25137901306152344,-1.652046028767721,-6.337190279737115e-05,-0.0557345449924469,0.9846367835998535,-9.862297132781804e-22,-0.03593289852142334,1.0430457592010498,0.0,0.2331777662038803
153.0,212.0,4.2179,-0.2794,8.4072,-0.0605,0.0246,-0.128,-1.6876231632628382,-0.001715049147605896,2.516711711883545,-1.5661330223083496,9.100262832362205e-05,2.0808918476104736,4.312681360835693,-3.362058851053007e-05,0.25356945395469666,-1.652062718068258,-6.053050674381666e-05,-0.060999155044555664,0.9846007823944092,-0.0002555670798756182,-0.040907442569732666,1.043001651763916,0.0,0.2344113290309906
153.0,212.0,4.2179,-0.2794,8.4072,-0.0605,0.0246,-0.128,-1.6876913509764613,-0.0025964565575122833,2.5165016651153564,-1.5660885572433472,7.98654873506166e-05,2.124478578567505,4.312652750606201,-3.202620428055525e-05,0.25937849283218384,-1.652062718068258,-3.287010486019426e-08,-0.058053649961948395,0.9846089482307434,-0.0002644404012244195,-0.034559525549411774,1.0429857969284058,0.0,0.22987085580825806
153.0,212.0,4.2179,-0.2794,8.4072,-0.0605,0.0246,-0.128,-1.6876512966551722,-0.003147224662825465,2.495731830596924,-1.566161036491394,7.335598638746887e-05,2.1108574867248535,4.312652750606201,-3.092575934715569e-05,0.2506999969482422,-1.652067009602682,-9.149514479389609e-12,-0.0535179004073143,0.9845811724662781,-0.00030264357337728143,-0.02370879240334034,1.0430335998535156,0.0,0.23147529363632202
153.0,212.0,4.2179,-0.2794,8.4072,-0.0605,0.0246,-0.128,-1.6877271137633265,-0.0036861866246908903,2.5185885429382324,-1.5661407709121704,6.616528844460845e-05,2.14833402633667,4.31266896306958,-3.851189831038937e-06,0.2474205195903778,-1.6520827452289026,-1.6628789354840854e-16,-0.060936812311410904,0.9845848083496094,-0.00041736094863153994,-0.04033448547124863,1.042989730834961,0.0,0.24985294044017792
148.0,207.0,4.0247,-0.2465,8.5549,-0.0365,0.0388,-0.1242,-1.687690874139303,-0.0034784201998263597,2.552814245223999,-1.5661449432373047,6.025866241543554e-05,2.1168510913848877,4.312644644374512,-6.999346935376849e-11,0.2553510069847107,-1.652067009602682,-3.022199889551778e-21,-0.05610356479883194,0.9846053719520569,-0.00044012253056280315,-0.02107860893011093,1.043001651763916,0.0,0.21596640348434448
148.0,207.0,4.0247,-0.2465,8.5549,-0.0365,0.0388,-0.1242,-1.687775274316305,-0.0036940390709787607,2.4804983139038086,-1.5661247968673706,5.6477278121747077e-05,2.1309406757354736,4.3126489359089355,-1.9482943632975064e-14,0.26350995898246765,-1.652005974446432,-8.412403818591686e-25,-0.041534632444381714,0.9845602512359619,-0.0004864281218033284,-0.04947451874613762,1.0429694652557373,0.0,0.13907480239868164
148.0,207.0,4.0247,-0.2465,8.5549,-0.0365,0.0388,-0.1242,-1.6877747974791468,-0.0038158330135047436,2.517960548400879,-1.5661207437515259,6.948853842914104e-05,2.1104722023010254,4.312688513393066,-3.540929367249821e-19,0.26862844824790955,-1.6520469824420374,-1.5289128775834517e-29,-0.046087056398391724,0.9845561981201172,-0.0004694405652116984,-0.04296945407986641,1.043009638786316,0.0,0.21234464645385742
148.0,207.0,4.0247,-0.2465,8.5549,-0.0365,0.0388,-0.1242,-1.6878353557982386,-0.0045988489873707294,2.533907890319824,-1.5661530494689941,6.568536628037691e-05,2.1419782638549805,4.312688513393066,-9.856307722136132e-23,0.2576639652252197,-1.6520469824420374,-4.255784726971965e-33,-0.04341821372509003,0.9845893383026123,-0.00044454867020249367,-0.04596506431698799,1.0429775714874268,0.0,0.1670357584953308
148.0,207.0,4.0247,-0.2465,8.5549,-0.0365,0.0388,-0.1242,-1.6878711185851039,-0.006011891644448042,2.5721704959869385,-1.566104769706726,6.12175208516419e-05,2.164149761199951,4.312656565303467,-1.7913351746657672e-27,0.2730073928833008,-1.6520221869098108,-7.734677068610477e-38,-0.058064110577106476,0.9845485687255859,-0.00044860070920549333,-0.05001261457800865,1.043001651763916,0.0,0.17514972388744354
148.0,207.0,4.0247,-0.2465,8.5549,-0.0365,0.0388,-0.1242,-1.687923093835348,-0.007663835771381855,2.5859012603759766,-1.566161036491394,5.7318811741424724e-05,2.1103248596191406,4.312605066890381,-3.2556629660960296e-32,0.25522178411483765,-1.6520546118365687,-1.4055023597177915e-42,-0.054761357605457306,0.9844892024993896,-0.00043508352246135473,-0.049278952181339264,1.0430138111114502,0.0,0.15767112374305725
148.0,207.0,4.0247,-0.2465,8.5549,-0.0365,0.0388,-0.1242,-1.6879874668517054,-0.009938674047589302,2.539342164993286,-1.566161036491394,5.4705778893548995e-05,2.143625259399414,4.312644644374512,-9.062257884248454e-36,0.25992920994758606,-1.6520431677447718,-0.0,-0.05129155516624451,0.9845561981201172,-0.0004527278942987323,-0.054092228412628174,1.0429977178573608,0.0,0.13528889417648315
148.0,207.0,4.0247,-0.2465,8.5549,-0.0365,0.0388,-0.1242,-1.6880628071227015,-0.01340532023459673,2.590583324432373,-1.5661530494689941,5.1571158110164106e-05,2.156132221221924,4.312657042140625,-1.6470161500441737e-40,0.2652432918548584,-1.6520431677447718,-0.0,-0.03894319757819176,0.9845407009124756,-0.0004499468195717782,-0.058980368077754974,1.04302978515625,0.0,0.09405311942100525
148.0,207.0,4.0247,-0.2465,8.5549,-0.0365,0.0388,-0.1242,-1.6882554493346156,-0.016463952139019966,2.5734283924102783,-1.5661855936050415,1.4754300536878873e-05,2.1844582557678223,4.312644644374512,-2.802596928649634e-45,0.2719232738018036,-1.652010742818014,-0.0,-0.03325650468468666,0.9845407009124756,-0.0004028389521408826,-0.04888399317860603,1.0430138111114502,0.0,0.08182086050510406
148.0,207.0,4.0247,-0.2465,8.5549,-0.0365,0.0388,-0.1242,-1.6883145771422328,-0.018790043890476227,2.5704421997070312,-1.5661568641662598,2.8117725378251635e-05,2.154885768890381,4.312660856837891,-0.0,0.2743615210056305,-1.651994530354635,-0.0,-0.027527377009391785,0.9844969511032104,-0.0004451737622730434,-0.05281868204474449,1.0430057048797607,0.0,0.04347734898328781
148.0,207.0,4.0247,-0.2465,8.5549,-0.0365,0.0388,-0.1242,-1.6884504757323207,-0.02227676473557949,2.546643018722534,-1.5661170482635498,2.6470961529412307e-05,2.1703665256500244,4.312712832088135,1.1863104191434104e-05,0.28364434838294983,-1.6519983450519007,-0.0,-0.03754517808556557,0.9844933152198792,-0.0004473848675843328,-0.053271010518074036,1.043001651763916,0.0,0.10539301484823227
148.0,207.0,4.0247,-0.2465,8.5549,-0.0365,0.0388,-0.1242,-1.6886187992491664,-0.025610551238059998,2.536306381225586,-1.5661330223083496,3.752366319531575e-05,2.1566250324249268,4.312669439906738,1.141481516242493e-05,0.27629226446151733,-1.6520026365863245,-0.0,-0.023336127400398254,0.9845292568206787,-0.0005669175297953188,-0.06651987135410309,1.0429937839508057,-2.1812706108903512e-05,0.05779958516359329
151.0,227.0,4.1019,-0.1627,8.1416,-0.0452,-0.0012,-0.1142,-1.688850542108053,-0.03039705567061901,2.540274143218994,-1.5661330223083496,3.600050331442617e-05,2.1808316707611084,4.312640829677246,1.0863675015571062e-05,0.28186899423599243,-1.6520193258868616,-3.0138983220240334e-07,-0.007747998461127281,0.9845374226570129,-0.0008400505757890642,-0.059719666838645935,1.0430216789245605,-4.1591836634324864e-05,0.045242153108119965
151.0,227.0,4.1019,-0.1627,8.1416,-0.0452,-0.0012,-0.1142,-1.6891466579832972,-0.03611807897686958,2.528801441192627,-1.5661170482635498,3.417772313696332e-05,2.082775831222534,4.312644644374512,2.0726220100186765e-05,0.2837149202823639,-1.6520150343524378,-5.4776114200016934e-12,-0.014994470402598381,0.9844853281974792,-0.0016257507959380746,-0.06823178380727768,1.042961597442627,-0.0005109102930873632,0.004467889666557312
151.0,227.0,4.1019,-0.1627,8.1416,-0.0452,-0.0012,-0.1142,-1.6893416843810023,-0.039362214505672455,2.5719690322875977,-1.5661450624465942,3.292730980319902e-05,2.1758575439453125,4.312669439906738,2.003453664656263e-05,0.2865554094314575,-1.651970688496725,-1.5247131975290097e-15,-0.017456144094467163,0.9844366908073425,-0.003789743175730109,-0.0743669867515564,1.042989730834961,-0.0004716442199423909,0.01698787696659565
151.0,227.0,4.1019,-0.1627,8.1416,-0.0452,-0.0012,-0.1142,-1.68969788173818,-0.04104774445295334,2.529646396636963,-1.5661330223083496,4.181262920610607e-05,2.1294138431549072,4.312669439906738,2.7956381654092866e-09,0.2845272421836853,-1.6519787947284144,-2.771091241204442e-20,0.0009830257622525096,0.9844375252723694,-0.018818723037838936,-0.0800609365105629,1.0430097579956055,-0.0007949814316816628,-0.03205452859401703
151.0,227.0,4.1019,-0.1627,8.1416,-0.0452,-0.0012,-0.1142,-1.6900531254210414,-0.04703987389802933,2.47873592376709,-1.5660845041275024,4.000063563580625e-05,2.1624467372894287,4.3126489359089355,5.0809342491816775e-14,0.272895485162735,-1.6519787947284144,0.0002801504742819816,-0.002556390129029751,0.9842294454574585,-0.013642986305058002,-0.06782503426074982,1.0429937839508057,-0.0017721178010106087,-0.021758614107966423
151.0,227.0,4.1019,-0.1627,8.1416,-0.0452,-0.0012,-0.1142,-1.6903249226012171,-0.05398242175579071,2.486264944076538,-1.5661247968673706,2.4300681467082086e-09,2.1654043197631836,4.312644644374512,1.414296702294793e-17,0.2841086983680725,-1.651970688496725,0.00023696990683674812,-0.0027529792860150337,0.9842861294746399,-0.003604136873036623,-0.06440772116184235,1.042933464050293,-0.0016235241200774908,-0.04050488397479057
151.0,227.0,4.1019,-0.1627,8.1416,-0.0452,-0.0012,-0.1142,-1.690784593621725,-0.05966601148247719,2.466245412826538,-1.5661251544952393,7.873112349469108e-17,2.119358539581299,4.312652750606201,2.570414276152558e-22,0.28244733810424805,-1.6519668737994593,0.00019572980818338692,0.0016979604260995984,0.9842459559440613,0.0005127459298819304,-0.07064232230186462,1.0429859161376953,-0.0017376410542055964,-0.06285475194454193
151.0,227.0,4.1019,-0.1627,8.1416,-0.0452,-0.0012,-0.1142,-1.6911965809264125,-0.06486360728740692,2.4757792949676514,-1.5661449432373047,0.00010554871550993994,2.1558072566986084,4.312704725856445,7.154842685647807e-26,0.2778143882751465,-1.6519907156573694,0.00020744692301377654,0.0037058789748698473,0.984189510345459,0.00024292813031934202,-0.06085905432701111,1.042925238609314,-0.001636940985918045,-0.03337462991476059
151.0,227.0,4.1019,-0.1627,8.1416,-0.0452,-0.0012,-0.1142,-1.6917396984496058,-0.06902037560939789,2.5042264461517334,-1.5661652088165283,0.00011579640704439953,2.1191329956054688,4.312652750606201,1.3003575236762364e-30,0.2865314483642578,-1.6519787947284144,0.0002097872202284634,0.00770746823400259,0.9842221140861511,0.00015764868294354528,-0.0678902268409729,1.0429096221923828,-0.0014751325361430645,-0.0781739205121994
151.0,227.0,4.1019,-0.1627,8.1416,-0.0452,-0.0012,-0.1142,-1.6922270260252894,-0.06557469069957733,2.4715349674224854,-1.56610107421875,0.00010664864385034889,2.1319658756256104,4.312628908748291,2.3633356971170914e-35,0.2562573254108429,-1.651971165333883,0.00018533504044171423,0.01634206622838974,0.9841816425323486,5.850887464475818e-05,-0.06566351652145386,1.0429174900054932,-0.0012092756805941463,-0.08417043089866638
151.0,227.0,4.1019,-0.1627,8.1416,-0.0452,-0.0012,-0.1142,-1.6926585636534632,-0.060331881046295166,2.445239305496216,-1.566149115562439,8.413221075898036e-05,2.132075309753418,4.312692328090332,6.578432074532926e-39,0.27514204382896423,-1.651942555104391,0.0001946255360962823,0.009664082899689674,0.9842503666877747,4.885331873083487e-05,-0.05979098379611969,1.042921543121338,-0.000997957424260676,-0.13074439764022827
151.0,227.0,4.1019,-0.1627,8.1416,-0.0452,-0.0012,-0.1142,-1.6931539974608363,-0.05740603059530258,2.5355000495910645,-1.566104769706726,-0.00023803564545232803,2.1232805252075195,4.3126489359089355,2.9452268790919334e-05,0.2838074266910553,-1.6519668737994593,0.00017163566371891648,0.01699911057949066,0.9842343330383301,4.013585203210823e-05,-0.07028097659349442,1.042933464050293,-0.0007651288760825992,-0.11847689747810364
151.0,227.0,4.1019,-0.1627,8.1416,-0.0452,-0.0012,-0.1142,-1.6936489544310511,-0.060994431376457214,2.4633755683898926,-1.566177487373352,-0.0011944957077503204,2.16456937789917,4.3127166467854,1.6680121916579083e-05,0.26473748683929443,-1.6519187132464808,0.00014597624249290675,0.02723924070596695,0.9842017292976379,4.527438704826636e-06,-0.06071251630783081,1.0429255962371826,-0.0004473127191886306,-0.1581619530916214
152.0,221.0,3.4582,0.0849,8.6524,-0.0353,-0.0212,-0.131,-1.6940084896483363,-0.06404975801706314,2.4717390537261963,-1.5661449432373047,-0.0008003090624697506,2.1455156803131104,4.31266896306958,1.5768071534694172e-05,0.2760087549686432,-1.6519869009601038,0.00013302892330102623,0.03204595670104027,0.9842183589935303,1.26022925428515e-09,-0.08295783400535583,1.0429213047027588,-0.00034380555734969676,-0.1216401681303978
152.0,221.0,3.4582,0.0849,8.6524,-0.0353,-0.0212,-0.131,-1.6945001087584437,-0.07118280977010727,2.423060417175293,-1.5661170482635498,-1.3845628927811049e-06,2.1320459842681885,4.312657042140625,2.921876330219675e-05,0.27065274119377136,-1.6519668737994593,0.00014275136345531791,0.02259564958512783,0.9842343926429749,2.290404533243119e-14,-0.0714782178401947,1.042905569076538,-0.0003678931389003992,-0.0826915055513382
152.0,221.0,3.4582,0.0849,8.6524,-0.0353,-0.0212,-0.131,-1.6948920689024867,-0.07244635373353958,2.410332202911377,-1.566092610359192,0.0008788840495981276,2.079195499420166,4.31269280492749,4.189648825558834e-05,0.2670133113861084,-1.6519830862628382,0.0001322629686910659,0.024172093719244003,0.9842302799224854,6.375425501671313e-18,-0.07961127161979675,1.0429376363754272,-0.0003589850675780326,-0.10462400317192078
152.0,221.0,3.4582,0.0849,8.6524,-0.0353,-0.0212,-0.131,-1.6954838238158167,-0.07496332377195358,2.405543565750122,-1.5660568475723267,0.0018659792840480804,2.1216859817504883,4.312696619624756,0.00013384803605731577,0.2701677680015564,-1.6519911924945276,0.00012046052870573476,0.025666389614343643,0.9841979146003723,1.1587021216536718e-22,-0.07798716425895691,1.0429296493530273,-0.00041078199865296483,-0.13059210777282715
152.0,221.0,3.4582,0.0849,8.6524,-0.0353,-0.0212,-0.131,-1.6960512600340785,-0.07294172048568726,2.413395881652832,-1.566081166267395,0.002650177339091897,2.1373095512390137,4.3127171236225585,0.0001986264978768304,0.2707451581954956,-1.6519349257098597,0.00011059214011766016,0.018640553578734398,0.9841856956481934,2.1058836383799293e-27,-0.09066025912761688,1.0429456233978271,-0.0005650585517287254,-0.12516608834266663
152.0,221.0,3.4582,0.0849,8.6524,-0.0353,-0.0212,-0.131,-1.6964627705016078,-0.07292642444372177,2.4861907958984375,-1.5660614967346191,0.001854308182373643,2.1219472885131836,4.312700434322021,0.000177549067302607,0.26660963892936707,-1.6519225279437464,0.00011707497469615191,0.01632629707455635,0.9842180609703064,-0.0003249972069170326,-0.06892085075378418,1.0429375171661377,-0.0004945577820762992,-0.12344121187925339
152.0,221.0,3.4582,0.0849,8.6524,-0.0353,-0.0212,-0.131,-1.6971179447569789,-0.07651863247156143,2.41413950920105,-1.5660853385925293,0.0004288431373424828,2.1288483142852783,4.312732859248779,0.00015334495401475579,0.26435884833335876,-1.6520188490497034,0.00011284600623184815,0.02712637186050415,0.9842061400413513,-0.0006994591094553471,-0.07944970577955246,1.042905569076538,-0.00036193939740769565,-0.10691501945257187
152.0,221.0,3.4582,0.0849,8.6524,-0.0353,-0.0212,-0.131,-1.6977411709227503,-0.07694360613822937,2.4592080116271973,-1.566072940826416,-0.0005549393245019019,2.1740546226501465,4.312692328090332,0.00013494837912730873,0.2771015763282776,-1.6519268194781702,0.00010530129657126963,0.023387376219034195,0.984205961227417,-0.0006690712762065232,-0.09141124784946442,1.0429136753082275,-0.0003803115978371352,-0.10913408547639847
152.0,221.0,3.4582,0.0849,8.6524,-0.0353,-0.0212,-0.131,-1.6982089481749476,-0.07504736632108688,2.491668939590454,-1.5661417245864868,-0.00040592229925096035,2.149413585662842,4.312752409572266,0.00012380910629872233,0.27340108156204224,-1.6520031134234827,0.00010027325333794579,0.01794661395251751,0.9842139482498169,-0.0005752292345277965,-0.08537546545267105,1.0429015159606934,-0.0004732985398732126,-0.13658979535102844
152.0,221.0,3.4582,0.0849,8.6524,-0.0353,-0.0212,-0.131,-1.6988369427123011,-0.07400835305452347,2.5185301303863525,-1.566089391708374,-0.0002982717123813927,2.1399145126342773,4.312732859248779,0.0001115337508963421,0.29331260919570923,-1.6519830862628382,9.427147597307339e-05,0.01835520751774311,0.9842346906661987,-0.00043880075099878013,-0.07950623333454132,1.042893648147583,-0.00185469351708889,-0.12806092202663422
152.0,221.0,3.4582,0.0849,8.6524,-0.0353,-0.0212,-0.131,-1.6992031536498011,-0.07164636254310608,2.4494364261627197,-1.5660648345947266,-0.00024879080592654645,2.1643452644348145,4.312712832088135,0.0001683554582996294,0.27892038226127625,-1.6519549528705042,5.4189418733585626e-05,0.002405705163255334,0.9841586351394653,-0.00031292939092963934,-0.0930432379245758,1.0429142713546753,-0.0023505783174186945,-0.14228200912475586
152.0,221.0,3.4582,0.0849,8.6524,-0.0353,-0.0212,-0.131,-1.6997748814024867,-0.06870625168085098,2.505051612854004,-1.5660408735275269,-0.00020373158622533083,2.159022331237793,4.3127404886433105,0.00017580339044798166,0.2662854790687561,-1.6520069281207483,3.81956051569432e-05,0.0037350927013903856,0.9842139482498169,-0.00024473443045280874,-0.07385513186454773,1.0428743362426758,-0.002749053528532386,-0.09592564404010773
142.0,228.0,4.2221,-0.1866,8.6818,-0.0499,-0.0473,-0.1242,-1.7002774677672328,-0.06551141291856766,2.5123095512390137,-1.5660606622695923,-0.0001393940474372357,2.148390531539917,4.312772913570068,0.0001951801241375506,0.2799583971500397,-1.6519625822650355,3.520700556691736e-05,0.019522888585925102,0.9842346906661987,-0.00024119424051605165,-0.08265575021505356,1.0428016185760498,-0.0024209595285356045,-0.0864228755235672
142.0,228.0,4.2221,-0.1866,8.6818,-0.0499,-0.0473,-0.1242,-1.7006899319090785,-0.06351885199546814,2.5401124954223633,-1.5660853385925293,-0.0001237616379512474,2.165330648422241,4.312788649196289,0.00019178907677996904,0.2673707604408264,-1.6519950071917933,3.3255593734793365e-05,-0.007523873820900917,0.9842221140861511,-0.0002126889885403216,-0.09244950115680695,1.042757511138916,-0.0019542204681783915,-0.1377294361591339
142.0,228.0,4.2221,-0.1866,8.6818,-0.0499,-0.0473,-0.1242,-1.7012378178038539,-0.06164616718888283,2.555288314819336,-1.5660290718078613,-3.093410487053916e-05,2.1524829864501953,4.3127686220356445,0.0002771135768853128,0.2990550994873047,-1.6519988218890589,3.0967057682573795e-05,0.012477604672312737,0.9841786623001099,-0.0002143588353646919,-0.07153194397687912,1.042805790901184,-0.0015196552267298102,-0.12577123939990997
142.0,228.0,4.2221,-0.1866,8.6818,-0.0499,-0.0473,-0.1242,-1.701700826684469,-0.06131238117814064,2.5614869594573975,-1.5660531520843506,-3.197738806193229e-06,2.132460117340088,4.312736197108887,0.000288529961835593,0.2823140621185303,-1.6520031134234827,2.897320518968627e-05,0.011035860516130924,0.9841105341911316,-0.00021206987730693072,-0.08713410794734955,1.042822241783142,-0.0011642767349258065,-0.08420455455780029
142.0,228.0,4.2221,-0.1866,8.6818,-0.0499,-0.0473,-0.1242,-1.7020164928831996,-0.06012316048145294,2.55556583404541,-1.5660450458526611,-7.72216318667418e-12,2.1497552394866943,4.312760515803955,0.0002710922562982887,0.2931411862373352,-1.6519787947284144,2.76385744655272e-05,0.01055220514535904,0.984102725982666,-0.00019785217591561377,-0.08065899461507797,1.0427494049072266,-0.0011551124043762684,-0.1187935620546341
142.0,228.0,4.2221,-0.1866,8.6818,-0.0499,-0.0473,-0.1242,-1.702520032922262,-0.055213503539562225,2.5733377933502197,-1.5660771131515503,-2.5018829844035862e-19,2.1604812145233154,4.312724276179932,0.0002642824547365308,0.2947320342063904,-1.6519950071917933,2.60392771451734e-05,0.0068894303403794765,0.9841587543487549,-0.00017825835675466806,-0.0834973007440567,1.0427411794662476,-0.0010254320222884417,-0.09159576892852783
142.0,228.0,4.2221,-0.1866,8.6818,-0.0499,-0.0473,-0.1242,-1.7028356991209925,-0.05288758501410484,2.5351524353027344,-1.5661131143569946,-6.041753538886105e-25,2.185293674468994,4.312712832088135,0.0002650566166266799,0.28958427906036377,-1.6519869009601038,2.4956201741588302e-05,6.218720227479935e-05,0.9841064214706421,-0.00014562551223207265,-0.09419972449541092,1.0428060293197632,-0.0006969455862417817,-0.1343674510717392
142.0,228.0,4.2221,-0.1866,8.6818,-0.0499,-0.0473,-0.1242,-1.7032510242857875,-0.048149675130844116,2.5554776191711426,-1.5660935640335083,-1.9574511192781232e-32,2.120027780532837,4.312756701106689,0.00021456849935930222,0.2985706925392151,-1.6519950071917933,2.3644883185625076e-05,0.007436173968017101,0.9841066598892212,-0.0001284177415072918,-0.08716711401939392,1.0427860021591187,-0.0005162899033166468,-0.06443959474563599
142.0,228.0,4.2221,-0.1866,8.6818,-0.0499,-0.0473,-0.1242,-1.7035981617369593,-0.04895377904176712,2.525383472442627,-1.5660408735275269,-6.341898498948754e-40,2.175661563873291,4.312736197108887,0.00021622997883241624,0.30517786741256714,-1.6519950071917933,2.2464524590759538e-05,0.00912474188953638,0.9841752052307129,-0.00013810853124596179,-0.094546377658844,1.0427937507629395,-0.0003734301426447928,-0.09914931654930115
142.0,228.0,4.2221,-0.1866,8.6818,-0.0499,-0.0473,-0.1242,-1.7038661442198695,-0.04999528452754021,2.5361995697021484,-1.566044569015503,-1.401298464324817e-45,2.1333401203155518,4.312764807338379,0.00019303776207379997,0.28594428300857544,-1.6519787947284144,2.1653799194609746e-05,0.010924327187240124,0.9841267466545105,-0.00012844188313465565,-0.09053642302751541,1.0427615642547607,-0.0003586798848118633,-0.07903382182121277
142.0,228.0,4.2221,-0.1866,8.6818,-0.0499,-0.0473,-0.1242,-1.7042533359923304,-0.04812366142868996,2.5532162189483643,-1.5660771131515503,4.5816377678420395e-05,2.1908974647521973,4.312736673946045,0.00022328339400701225,0.28570130467414856,-1.6519787947284144,2.0659674191847444e-05,-0.0014143106527626514,0.9842183589935303,-0.00013665854930877686,-0.08336592465639114,1.0427215099334717,-0.0003354759537614882,-0.12146277725696564
142.0,228.0,4.2221,-0.1866,8.6818,-0.0499,-0.0473,-0.1242,-1.7046133480467738,-0.043031346052885056,2.583195447921753,-1.5660046339035034,0.0001390554098179564,2.0985827445983887,4.312764807338379,0.00029844517121091485,0.29040127992630005,-1.6519587675677698,5.075180069979979e-06,0.009557864628732204,0.9841543436050415,-0.00014371989527717233,-0.08648732304573059,1.0427534580230713,-0.00022049667313694954,-0.0568140372633934
146.0,251.0,4.7252,-0.4397,8.2325,-0.0531,-0.0342,-0.1057,-1.7048689327635707,-0.03952772170305252,2.5851645469665527,-1.5659891366958618,0.0006031270604580641,2.1718649864196777,4.312760515803955,0.0006780635449104011,0.28940549492836,-1.6519549528705042,1.4126950720338982e-09,0.002647459739819169,0.9841427803039551,-0.00017929048044607043,-0.08784560859203339,1.0428179502487183,-0.0001922359224408865,-0.15381565690040588
146.0,251.0,4.7252,-0.4397,8.2325,-0.0531,-0.0342,-0.1057,-1.7052051029601039,-0.039580103009939194,2.5561370849609375,-1.5660169124603271,0.0004347503709141165,2.1733131408691406,4.312760515803955,0.0004359526210464537,0.2987993359565735,-1.6519306341754358,2.5675033998276593e-14,-0.007245279848575592,0.9841628074645996,-0.00016636293730698526,-0.086209736764431,1.042781949043274,-0.00016417994629591703,-0.06908555328845978
146.0,251.0,4.7252,-0.4397,8.2325,-0.0531,-0.0342,-0.1057,-1.7054044208922328,-0.04076202213764191,2.601497173309326,-1.566033124923706,0.00040767979226075113,2.157663583755493,4.312788649196289,0.000337701931130141,0.2785334587097168,-1.6520031134234827,7.146739576423428e-18,-0.00626541068777442,0.9841306805610657,-0.00017573485092725605,-0.08240067213773727,1.0427656173706055,-0.00014798244228586555,-0.09003256261348724
146.0,251.0,4.7252,-0.4397,8.2325,-0.0531,-0.0342,-0.1057,-1.7057320080199183,-0.04075208678841591,2.599958658218384,-1.5660531520843506,0.0003243706305511296,2.1808111667633057,4.312764807338379,0.0003106895019300282,0.2927858829498291,-1.651971165333883,1.2988845977776182e-22,0.01186270359903574,0.9841940402984619,-0.00015858969709370285,-0.08392257988452911,1.0428056716918945,-0.00010462330101290718,-0.06168494373559952
146.0,251.0,4.7252,-0.4397,8.2325,-0.0531,-0.0342,-0.1057,-1.7060357532896937,-0.03850328177213669,2.5909852981567383,-1.565969467163086,0.00027202736237086356,2.16005539894104,4.312788649196289,0.00028432856197468936,0.294106125831604,-1.6519950071917933,2.360658362561106e-27,0.0081377187743783,0.9842020273208618,-0.00014191673835739493,-0.09351829439401627,1.0427615642547607,-9.372751810587943e-05,-0.0703568160533905
146.0,251.0,4.7252,-0.4397,8.2325,-0.0531,-0.0342,-0.1057,-1.706259389916891,-0.03497475013136864,2.633524179458618,-1.5660892724990845,0.00036759962677024305,2.2223331928253174,4.312748594875,0.000258937303442508,0.30631595849990845,-1.6519745031939905,6.5709795668592835e-31,0.006933269090950489,0.9841747283935547,-0.00013154470070730895,-0.08768340945243835,1.0427777767181396,-8.693726704223081e-05,-0.06985005736351013
146.0,251.0,4.7252,-0.4397,8.2325,-0.0531,-0.0342,-0.1057,-1.7065469227232875,-0.03251083940267563,2.5896482467651367,-1.5660169124603271,0.0008801340009085834,2.1264169216156006,4.31282012044873,0.0002541044959798455,0.2918267846107483,-1.65198260942568,1.1942429978418297e-35,0.009586517699062824,0.9841866493225098,-0.00011986436584265903,-0.08241817355155945,1.0427978038787842,-7.927918341010809e-05,-0.07363452017307281
146.0,251.0,4.7252,-0.4397,8.2325,-0.0531,-0.0342,-0.1057,-1.706782957116598,-0.03283475711941719,2.6229004859924316,-1.5660128593444824,0.0005857163923792541,2.1407454013824463,4.312801046962402,0.00017064470739569515,0.29741185903549194,-1.6520069281207483,2.170471191392709e-40,-0.002586703049018979,0.9842061400413513,-0.00011008939327439293,-0.08295281231403351,1.0428178310394287,-7.286100299097598e-05,-0.060599468648433685
146.0,251.0,4.7252,-0.4397,8.2325,-0.0531,-0.0342,-0.1057,-1.7070065937437953,-0.03154488280415535,2.6171975135803223,-1.5660209655761719,0.000421160802943632,2.140770196914673,4.312760515803955,0.00015019050624687225,0.288607656955719,-1.6519907156573694,6.025583396596713e-44,1.826416701078415e-05,0.9841747283935547,-0.0001037440961226821,-0.07792001962661743,1.04278564453125,-6.86903513269499e-05,-0.06877468526363373
146.0,251.0,4.7252,-0.4397,8.2325,-0.0531,-0.0342,-0.1057,-1.7072540722289027,-0.029827605932950974,2.640347719192505,-1.5660252571105957,0.00036768452264368534,2.1502535343170166,4.312821074123047,0.00018199760233983397,0.30463260412216187,-1.6519387404071253,0.0,-0.01272678468376398,0.9841788411140442,-9.634040907258168e-05,-0.08117974549531937,1.0427696704864502,-6.381949060596526e-05,-0.0906839668750763
146.0,251.0,4.7252,-0.4397,8.2325,-0.0531,-0.0342,-0.1057,-1.7073737583556117,-0.02643335983157158,2.6631696224212646,-1.5659931898117065,0.00035617404500953853,2.181337594985962,4.312792463893555,0.00019395760318730026,0.2902446389198303,-1.6519950071917933,0.0,-0.012352770194411278,0.9841786623001099,-9.144591604126617e-05,-0.07546840608119965,1.0427777767181396,-6.0596834373427555e-05,-0.09220581501722336
146.0,251.0,4.7252,-0.4397,8.2325,-0.0531,-0.0342,-0.1057,-1.7076341114439906,-0.02265770174562931,2.628150224685669,-1.5660086870193481,0.00026764103677123785,2.144573211669922,4.3128086763569335,0.0002981363795697689,0.28891780972480774,-1.6519907156573694,0.0,-0.01633140631020069,0.984182596206665,-8.564451854908839e-05,-0.09029192477464676,1.0428056716918945,-5.677430090145208e-05,-0.05707494914531708
146.0,251.0,4.7252,-0.4397,8.2325,-0.0531,-0.0342,-0.1057,-1.7077862224974574,-0.02025880478322506,2.650224208831787,-1.5659849643707275,0.00021442386787384748,2.1752753257751465,4.3128086763569335,0.00023723016784060746,0.2949696481227875,-1.6520031134234827,0.0,-0.008135337382555008,0.984106719493866,-8.053515193751082e-05,-0.08916118741035461,1.0427777767181396,-5.34054015588481e-05,-0.11038725078105927
141.0,265.0,4.4967,-0.3033,8.2391,-0.0344,-0.0075,-0.1138,-1.7078529796996058,-0.01903686299920082,2.6646838188171387,-1.5659726858139038,0.00015014545351732522,2.1554527282714844,4.312812967891357,0.00020482578838709742,0.28478214144706726,-1.6519950071917933,0.0,-0.014121409505605698,0.9841427803039551,-7.708619523327798e-05,-0.07245923578739166,1.0427937507629395,-5.112991857458837e-05,-0.11668629199266434
141.0,265.0,4.4967,-0.3033,8.2391,-0.0344,-0.0075,-0.1138,-1.7080732784666957,-0.018408525735139847,2.6927740573883057,-1.5659735202789307,0.00012863184383604676,2.150263786315918,4.3127967554279785,0.00017327192472293973,0.30110159516334534,-1.6519787947284144,0.0,-0.016245504841208458,0.9841432571411133,-7.292224472621456e-05,-0.07463089376688004,1.0428379774093628,-3.628605554695241e-05,-0.13656577467918396
141.0,265.0,4.4967,-0.3033,8.2391,-0.0344,-0.0075,-0.1138,-1.70817293743276,-0.017498720437288284,2.6299800872802734,-1.5660086870193481,5.690549733117223e-05,2.1563901901245117,4.312816305751465,0.00015014345990493894,0.29544904828071594,-1.6520426909076136,0.0,0.0011361229699105024,0.9842221140861511,-6.918514554854482e-05,-0.07885965704917908,1.04278564453125,-3.4434953704476357e-05,-0.07703709602355957
141.0,265.0,4.4967,-0.3033,8.2391,-0.0344,-0.0075,-0.1138,-1.7083012066283167,-0.016476329416036606,2.6505801677703857,-1.5659286975860596,9.498329018242657e-05,2.127717971801758,4.312816305751465,0.00013648078311234713,0.2961541712284088,-1.6519950071917933,0.0,-0.0035825371742248535,0.9841907620429993,-6.662429950665683e-05,-0.07990575581789017,1.0427974462509155,-3.3166015782626346e-05,-0.07610071450471878
141.0,265.0,4.4967,-0.3033,8.2391,-0.0344,-0.0075,-0.1138,-1.7084008655943812,-0.015549221076071262,2.6292471885681152,-1.5659849643707275,0.0005499699618667364,2.1688990592956543,4.312816305751465,0.0001217137323692441,0.29194557666778564,-1.6519387404071253,0.0,0.006188752129673958,0.9841628074645996,-6.34909956716001e-05,-0.07053173333406448,1.042813777923584,2.63530728261685e-05,-0.10606701672077179
141.0,265.0,4.4967,-0.3033,8.2391,-0.0344,-0.0075,-0.1138,-1.708524843255514,-0.01539592444896698,2.6432852745056152,-1.565993070602417,0.0013195713981986046,2.1595795154571533,4.312756224269531,9.006949403556064e-05,0.29048407077789307,-1.6520355383502405,0.0,-0.004251666832715273,0.98417067527771,-6.132780254120007e-05,-0.08191102743148804,1.0428056716918945,2.5254157662857324e-05,-0.0699767991900444
141.0,265.0,4.4967,-0.3033,8.2391,-0.0344,-0.0075,-0.1138,-1.7085963688292445,-0.016934115439653397,2.6227474212646484,-1.5659369230270386,0.0019916545134037733,2.104806661605835,4.312809153194092,8.186952618416399e-05,0.2885783314704895,-1.6519468466388147,0.0,-0.0013895401498302817,0.9841747283935547,-9.949395689545781e-07,-0.0739719420671463,1.0427775382995605,2.3912212782306597e-05,-0.08711109310388565
141.0,265.0,4.4967,-0.3033,8.2391,-0.0344,-0.0075,-0.1138,-1.708780904809469,-0.0187232606112957,2.6266448497772217,-1.565933108329773,0.0023889767471700907,2.177095413208008,4.31282012044873,7.504296081606299e-05,0.2879236042499542,-1.6519148985492151,0.0,-0.001431516488082707,0.9841386675834656,-1.8082533734253836e-11,-0.08222557604312897,1.0428259372711182,2.2705695300828665e-05,-0.09410006552934647
141.0,265.0,4.4967,-0.3033,8.2391,-0.0344,-0.0075,-0.1138,-1.708832403222555,-0.018783245235681534,2.5907163619995117,-1.5659613609313965,0.0027399659156799316,2.1785755157470703,4.3127805429646,7.062622898956761e-05,0.28166458010673523,-1.652027432118551,0.0,-0.004440902732312679,0.9841185808181763,-5.033339552578753e-15,-0.07686282694339752,1.042813777923584,2.1877795006730594e-05,-0.09181635081768036
141.0,265.0,4.4967,-0.3033,8.2391,-0.0344,-0.0075,-0.1138,-1.7090445957579554,-0.02052670158445835,2.598714590072632,-1.5659377574920654,0.003019880037754774,2.163999080657959,4.312748594875,6.548713281517848e-05,0.2917165160179138,-1.6519392172442835,0.0,-0.01439922209829092,0.98417067527771,-9.147845324186485e-20,-0.0806572213768959,1.0428016185760498,2.086348831653595e-05,-0.10670541971921921
141.0,265.0,4.4967,-0.3033,8.2391,-0.0344,-0.0075,-0.1138,-1.709236284295553,-0.023222437128424644,2.5954079627990723,-1.5658812522888184,0.002442117314785719,2.161407947540283,4.3127967554279785,6.104516796767712e-05,0.2933134436607361,-1.6519869009601038,0.0,0.011015081778168678,0.9841468334197998,-1.662575830927348e-24,-0.08177781850099564,1.0428416728973389,1.9939072444685735e-05,-0.14398300647735596
141.0,265.0,4.4967,-0.3033,8.2391,-0.0344,-0.0075,-0.1138,-1.7093516788878382,-0.024342890828847885,2.576082706451416,-1.5659091472625732,0.0020101547706872225,2.163926124572754,4.3128086763569335,5.8090066886506975e-05,0.2823336720466614,-1.6519549528705042,0.0,0.0036255803424865007,0.9841229915618896,-4.62784161897488e-28,-0.07092617452144623,1.0427775382995605,1.4108780810317967e-10,-0.10251497477293015
144.0,265.0,4.1456,-0.3565,8.1362,-0.0411,0.0209,-0.1083,-1.709548135797018,-0.027575507760047913,2.5905699729919434,-1.5658493041992188,0.0018952140817418694,2.1457557678222656,4.31277243673291,5.456798680825159e-05,0.2879418134689331,-1.6520031134234827,0.0,-0.013643171638250351,0.9841432571411133,-8.410872934432646e-33,-0.0720558911561966,1.0428338050842285,4.571066239417035e-18,-0.13641059398651123
144.0,265.0,4.1456,-0.3565,8.1362,-0.0411,0.0209,-0.1083,-1.7097193203368128,-0.02940179407596588,2.5450892448425293,-1.5658293962478638,0.0023187941405922174,2.127838373184204,4.312853022212646,1.6395772036048584e-05,0.28148603439331055,-1.6520031134234827,0.0,-0.008775422349572182,0.9841628670692444,-2.341197459331543e-36,-0.08162874728441238,1.0428016185760498,1.1038587444742794e-23,-0.12381604313850403
144.0,265.0,4.1456,-0.3565,8.1362,-0.0411,0.0209,-0.1083,-1.7099558315672816,-0.03134840726852417,2.5590949058532715,-1.5658257007598877,0.0033865817822515965,2.0977895259857178,4.3128368097492675,1.5145015822781716e-05,0.2846364378929138,-1.6519468466388147,0.0,-0.014890055172145367,0.9841793179512024,-4.255042786922307e-41,-0.08364178985357285,1.042797565460205,3.576361863859824e-31,-0.1402689814567566
144.0,265.0,4.1456,-0.3565,8.1362,-0.0411,0.0209,-0.1083,-1.7102071247496546,-0.031927917152643204,2.528146505355835,-1.5657011270523071,0.005478775594383478,2.1124777793884277,4.312828703517578,1.4189867215463892e-05,0.28569722175598145,-1.6519745031939905,0.0,-0.004534119740128517,0.984130859375,-1.401298464324817e-45,-0.07944169640541077,1.042773723602295,1.1586958650916545e-38,-0.10226230323314667
144.0,265.0,4.1456,-0.3565,8.1362,-0.0411,0.0209,-0.1083,-1.7104073963561,-0.03192818537354469,2.5898830890655518,-1.5657538175582886,0.00596326170489192,2.1568102836608887,4.312801046962402,1.3549006325774826e-05,0.288483202457428,-1.6519745031939905,0.0,-0.010859886184334755,0.9841506481170654,-0.0,-0.0665619820356369,1.0428096055984497,2.802596928649634e-44,-0.13241030275821686
