ramyac6/ROB537/final_project/csv/good/good_2.csv
tof_0,tof_1,accelx,accely,accelz,gyrox,gyroy,gyroz,shoulder_lift_joint_position,shoulder_lift_joint_velocity,shoulder_lift_joint_effort,elbow_joint_position,elbow_joint_velocity,elbow_joint_effort,wrist_1_joint_position,wrist_1_joint_velocity,wrist_1_joint_effort,wrist_2_joint_position,wrist_2_joint_velocity,wrist_2_joint_effort,wrist_3_joint_position,wrist_3_joint_velocity,wrist_3_joint_effort,shoulder_pan_joint_position,shoulder_pan_joint_velocity,shoulder_pan_joint_effort
440.0,370.0,-0.2734,-3.7454,8.6405,-0.0403,0.0258,-0.1223,-1.7476121387877406,0.0,2.9121227264404297,-1.8802955150604248,-0.0,2.079899787902832,-1.0508232873729249,0.0,0.33176136016845703,-1.164605442677633,0.0,-0.09300883859395981,0.5460418462753296,0.0,0.01837676204741001,1.2487720251083374,-1.401298464324817e-45,-0.000741071067750454
440.0,370.0,-0.2734,-3.7454,8.6405,-0.0403,0.0258,-0.1223,-1.7476407490172328,0.0,2.8747005462646484,-1.8802717924118042,-0.0,2.0542538166046143,-1.0508392614177247,0.0,0.3216920793056488,-1.1645811239825647,0.0,-0.10318295657634735,0.546073853969574,0.0,0.011951606720685959,1.2487640380859375,0.0,-0.054847609251737595
440.0,370.0,-0.2734,-3.7454,8.6405,-0.0403,0.0258,-0.1223,-1.747580190698141,0.0,2.874408721923828,-1.880259394645691,-0.0,2.1463634967803955,-1.0508552950671692,0.0,0.3238527476787567,-1.1646178404437464,0.0,-0.09370950609445572,0.546005368232727,0.0,0.01835549809038639,1.248744010925293,0.0,-0.020450390875339508
440.0,370.0,-0.2734,-3.7454,8.6405,-0.0403,0.0258,-0.1223,-1.7475563488402308,0.0,2.8905701637268066,-1.8802953958511353,-0.0,2.1035361289978027,-1.050871269111969,0.0,0.3270391821861267,-1.164576832448141,0.0,-0.10557965934276581,0.5459693074226379,0.0,0.016554616391658783,1.2487401962280273,0.0,-0.05352901667356491
440.0,370.0,-0.2734,-3.7454,8.6405,-0.0403,0.0258,-0.1223,-1.747540136376852,0.0,2.873295307159424,-1.8802872896194458,-0.0,2.0611374378204346,-1.0508511823466797,0.0,0.3262161612510681,-1.1646536032306116,0.0,-0.09936840832233429,0.5459852814674377,0.0,0.005324103403836489,1.2487760782241821,0.0,-0.001074979081749916
440.0,370.0,-0.2734,-3.7454,8.6405,-0.0403,0.0258,-0.1223,-1.7475601635374964,0.0,2.9175307750701904,-1.88026762008667,-0.0,2.105048179626465,-1.0508631032756348,0.0,0.33625611662864685,-1.1645687262164515,0.0,-0.11010578274726868,0.546034038066864,0.0,0.01992778107523918,1.2487322092056274,0.0,0.0005658775335177779
444.0,373.0,-0.2315,-3.7633,8.6512,-0.0432,0.035,-0.1266,-1.7475925884642542,0.0,2.9079742431640625,-1.8803277015686035,-0.0,2.1038312911987305,-1.0508429569057007,0.0,0.3208109736442566,-1.164588753377096,0.0,-0.09563489258289337,0.5459816455841064,0.0,0.015500146895647049,1.2487640380859375,0.0,0.018885521218180656
444.0,373.0,-0.2315,-3.7633,8.6512,-0.0432,0.035,-0.1266,-1.7475601635374964,0.0,2.915065050125122,-1.880215048789978,-0.0,2.0942938327789307,-1.050842897301056,0.0,0.33173805475234985,-1.1646254698382776,0.0,-0.09791409969329834,0.546005368232727,0.0,0.022651690989732742,1.2487480640411377,0.0,-0.028319578617811203
444.0,373.0,-0.2315,-3.7633,8.6512,-0.0432,0.035,-0.1266,-1.7475439510741175,0.0,2.8330817222595215,-1.8802273273468018,-0.0,2.0834262371063232,-1.0508511823466797,0.0,0.31611400842666626,-1.1645849386798304,0.0,-0.08928142488002777,0.5459815859794617,0.0,0.01595679111778736,1.2486839294433594,0.0,-0.013931386172771454
444.0,373.0,-0.2315,-3.7633,8.6512,-0.0432,0.035,-0.1266,-1.7475964031615199,0.0,2.8722572326660156,-1.8802552223205566,-0.0,2.0393521785736084,-1.0508029025844117,0.0,0.32681864500045776,-1.1646011511432093,0.0,-0.09970215708017349,0.5460217595100403,0.0,0.005472362972795963,1.2487282752990723,0.0,-0.011269545182585716
444.0,373.0,-0.2315,-3.7633,8.6512,-0.0432,0.035,-0.1266,-1.7476045093932093,0.0,2.834923505783081,-1.8802026510238647,-0.0,2.093865394592285,-1.0508273404887696,0.0,0.3283533453941345,-1.1645849386798304,0.0,-0.11440952122211456,0.546065628528595,0.0,0.01881883479654789,1.2487480640411377,0.0,-0.029823150485754013
444.0,373.0,-0.2315,-3.7633,8.6512,-0.0432,0.035,-0.1266,-1.7475758991637171,0.0,2.8410398960113525,-1.8802231550216675,-0.0,2.14658260345459,-1.0508150619319458,0.0,0.32423222064971924,-1.1645568052874964,0.0,-0.11455530673265457,0.5459930896759033,0.0,0.014735832810401917,1.2487561702728271,0.0,0.014610258862376213
444.0,373.0,-0.2315,-3.7633,8.6512,-0.0432,0.035,-0.1266,-1.7475601635374964,0.0,2.8187105655670166,-1.880283236503601,-0.0,2.078749656677246,-1.0508635205081482,0.0,0.32342076301574707,-1.1645649115191858,0.0,-0.10968706011772156,0.546013593673706,0.0,0.021183278411626816,1.2487561702728271,0.0,-0.007149513810873032
444.0,373.0,-0.2315,-3.7633,8.6512,-0.0432,0.035,-0.1266,-1.7475964031615199,0.0,2.8898677825927734,-1.8802798986434937,-0.0,2.069816827774048,-1.050859348183014,0.0,0.31641244888305664,-1.164609734212057,0.0,-0.11360932141542435,0.5460013151168823,0.0,0.014919765293598175,1.2487642765045166,0.0,0.027235638350248337
444.0,373.0,-0.2315,-3.7633,8.6512,-0.0432,0.035,-0.1266,-1.7475601635374964,0.0,2.8732776641845703,-1.8802355527877808,-0.0,2.1077094078063965,-1.0508068364909668,0.0,0.3302806317806244,-1.1645649115191858,0.0,-0.0934877023100853,0.5460217595100403,0.0,-0.0008534959051758051,1.2487162351608276,0.0,0.03270981088280678
444.0,373.0,-0.2315,-3.7633,8.6512,-0.0432,0.035,-0.1266,-1.7475882969298304,0.0,2.886073112487793,-1.8802592754364014,-0.0,2.084825277328491,-1.0508392614177247,0.0,0.33010438084602356,-1.1645930449115198,0.0,-0.11033234000205994,0.5460176467895508,0.0,0.011927656829357147,1.2487400770187378,0.0,-0.0015746441204100847
439.0,381.0,-0.2638,-3.743,8.6201,-0.0411,0.0316,-0.1245,-1.7475878200926722,0.0,2.861358165740967,-1.8802790641784668,-0.0,2.0609326362609863,-1.05082322776828,0.0,0.33358559012413025,-1.1646173636065882,0.0,-0.10332968086004257,0.5460135340690613,0.0,0.017697572708129883,1.2487480640411377,0.0,0.009833347983658314
439.0,381.0,-0.2638,-3.743,8.6201,-0.0411,0.0316,-0.1245,-1.7475677929320277,0.0,2.918426513671875,-1.88026762008667,-0.0,2.0700478553771973,-1.0508631032756348,0.0,0.3297719955444336,-1.164588753377096,0.0,-0.09972409904003143,0.546034038066864,0.0,0.025796756148338318,1.2487322092056274,0.0,-0.0321468748152256
439.0,381.0,-0.2638,-3.743,8.6201,-0.0411,0.0316,-0.1245,-1.7476326427855433,0.0,2.8334059715270996,-1.8802274465560913,-0.0,2.0879650115966797,-1.0508069557002564,0.0,0.3285210430622101,-1.1645973364459437,0.0,-0.09452083706855774,0.5460258722305298,0.0,0.01084030419588089,1.2487202882766724,0.0,-0.011388342827558517
439.0,381.0,-0.2638,-3.743,8.6201,-0.0411,0.0316,-0.1245,-1.7475758991637171,0.0,2.857682704925537,-1.8802955150604248,-0.0,2.07257342338562,-1.0508351486972352,0.0,0.32848280668258667,-1.164605442677633,0.0,-0.08712504804134369,0.5460540652275085,0.0,0.02687355875968933,1.2487401962280273,0.0,-0.031109726056456566
439.0,381.0,-0.2638,-3.743,8.6201,-0.0411,0.0316,-0.1245,-1.747608324090475,0.0,2.8648953437805176,-1.8803151845932007,-0.0,2.0969715118408203,-1.0508552354625245,0.0,0.33251726627349854,-1.164576832448141,0.0,-0.11013156175613403,0.5460299253463745,0.0,0.013708148151636124,1.2487680912017822,0.0,-0.03781978413462639
439.0,381.0,-0.2638,-3.743,8.6201,-0.0411,0.0316,-0.1245,-1.747535844842428,0.0,2.863698720932007,-1.8802790641784668,-0.0,2.117990493774414,-1.0508311551860352,0.0,0.32878613471984863,-1.164576832448141,0.0,-0.10419315099716187,0.5460258722305298,0.0,0.009547868743538857,1.2487282752990723,0.0,-0.009654157795011997
439.0,381.0,-0.2638,-3.743,8.6201,-0.0411,0.0316,-0.1245,-1.747580190698141,0.0,2.8831520080566406,-1.8802995681762695,-0.0,2.099736452102661,-1.0508068364909668,0.0,0.3387460708618164,-1.164588753377096,0.0,-0.11511435359716415,0.5460737943649292,0.0,0.02530617266893387,1.2487680912017822,0.0,-0.021317722275853157
439.0,381.0,-0.2638,-3.743,8.6201,-0.0411,0.0316,-0.1245,-1.7475964031615199,0.0,2.833803653717041,-1.8802595138549805,-0.0,2.069751024246216,-1.0508552950671692,0.0,0.3312023878097534,-1.164588753377096,0.0,-0.11064769327640533,0.5460095405578613,0.0,0.006658895872533321,1.2487521171569824,0.0,0.015032632276415825
439.0,381.0,-0.2638,-3.743,8.6201,-0.0411,0.0316,-0.1245,-1.7475997410216273,0.0,2.868056297302246,-1.88026762008667,-0.0,2.0738956928253174,-1.050778941517212,0.0,0.33748000860214233,-1.164576832448141,0.0,-0.10727983713150024,0.5460373163223267,0.0,0.023988816887140274,1.2487640380859375,0.0,0.02606959454715252
439.0,381.0,-0.2638,-3.743,8.6201,-0.0411,0.0316,-0.1245,-1.7475601635374964,0.0,2.8350625038146973,-1.8803315162658691,-0.0,2.1138393878936768,-1.0508392614177247,0.0,0.3248474895954132,-1.1646011511432093,0.0,-0.10644423961639404,0.5459615588188171,0.0,0.018296588212251663,1.2487680912017822,0.0,0.009398448280990124
442.0,373.0,-0.2638,-3.8297,8.5496,-0.0377,0.0263,-0.1087,-1.7475964031615199,0.0,2.880347728729248,-1.8802552223205566,-0.0,2.059995174407959,-1.0508151811412354,0.0,0.32726120948791504,-1.1645930449115198,0.0,-0.11642169952392578,0.546025812625885,0.0,0.01806493103504181,1.248744249343872,0.0,0.00849586259573698
442.0,373.0,-0.2638,-3.8297,8.5496,-0.0377,0.0263,-0.1087,-1.7475844822325648,0.0,2.817248582839966,-1.8802552223205566,-0.0,2.097224235534668,-1.0508232873729249,0.0,0.33961737155914307,-1.1645649115191858,0.0,-0.10711401700973511,0.5460299253463745,0.0,0.009613318368792534,1.2487361431121826,0.0,-0.0027772383764386177
442.0,373.0,-0.2638,-3.8297,8.5496,-0.0377,0.0263,-0.1087,-1.7475763760008753,0.0,2.898110866546631,-1.8802872896194458,-0.0,2.0445029735565186,-1.0508315128139039,0.0,0.3189437985420227,-1.1645930449115198,0.0,-0.09797926247119904,0.5460696816444397,0.0,0.024193180724978447,1.248744249343872,0.0,-0.02118818461894989
442.0,373.0,-0.2638,-3.8297,8.5496,-0.0377,0.0263,-0.1087,-1.747580190698141,0.0,2.863260507583618,-1.8802995681762695,-0.0,2.107419729232788,-1.0508232873729249,0.0,0.33591586351394653,-1.1645811239825647,0.0,-0.09525860846042633,0.5460376739501953,0.0,0.01833980530500412,1.248732328414917,0.0,0.006339360028505325
442.0,373.0,-0.2638,-3.8297,8.5496,-0.0377,0.0263,-0.1087,-1.747592111627096,0.0,2.8260412216186523,-1.8802635669708252,-0.0,2.094423294067383,-1.0508592885783692,0.0,0.33077186346054077,-1.164605442677633,0.0,-0.11378739774227142,0.5459930896759033,0.0,0.017726397141814232,1.248712182044983,0.0,0.024631202220916748
442.0,373.0,-0.2638,-3.8297,8.5496,-0.0377,0.0263,-0.1087,-1.7475758991637171,0.0,2.870722770690918,-1.8802790641784668,-0.0,2.077974557876587,-1.0508594077876587,0.0,0.3216707408428192,-1.164609734212057,0.0,-0.11609752476215363,0.5460013151168823,0.0,0.012988566420972347,1.2487642765045166,-2.7044714124430103e-12,0.046678803861141205
442.0,373.0,-0.2638,-3.8297,8.5496,-0.0377,0.0263,-0.1087,-1.747552057305807,0.0,2.860151767730713,-1.8802552223205566,-0.0,2.101881980895996,-1.0508152407458802,0.0,0.3358505964279175,-1.164588753377096,0.0,-0.08701327443122864,0.5460258722305298,0.0,0.008770754560828209,1.2487282752990723,-8.762142636780373e-20,0.029284747317433357
442.0,373.0,-0.2638,-3.8297,8.5496,-0.0377,0.0263,-0.1087,-1.7475882969298304,0.0,2.8740148544311523,-1.8802709579467773,-0.0,2.112598180770874,-1.0508232873729249,0.0,0.3135300576686859,-1.1646011511432093,0.0,-0.11515704542398453,0.5460336208343506,0.0,0.01901784911751747,1.2487162351608276,-3.8086432245286374e-29,-0.013771703466773033
442.0,373.0,-0.2638,-3.8297,8.5496,-0.0377,0.0263,-0.1087,-1.747568269769186,0.0,2.870225429534912,-1.880231499671936,-0.0,2.10343861579895,-1.0508315128139039,0.0,0.3249707818031311,-1.1645930449115198,0.0,-0.11282384395599365,0.546034038066864,0.0,0.010525917634367943,1.248724102973938,-1.233952038598833e-36,0.02475868910551071
442.0,373.0,-0.2638,-3.8297,8.5496,-0.0377,0.0263,-0.1087,-1.7476002178587855,0.0,2.9161126613616943,-1.8802717924118042,-0.0,2.068098545074463,-1.0507831138423462,0.0,0.33835726976394653,-1.1645811239825647,0.0,-0.09639221429824829,0.5460458993911743,0.0,0.0053972601890563965,1.2487242221832275,-0.0,-0.0048172059468925
450.0,373.0,-0.1795,-3.8674,8.6943,-0.0475,0.0247,-0.1234,-1.747563978234762,0.0,2.8506758213043213,-1.880259394645691,-0.0,2.0722968578338623,-1.050859348183014,0.0,0.3343265652656555,-1.1645811239825647,0.0,-0.10470002889633179,0.5460459589958191,0.0,-0.002300422638654709,1.2487361431121826,0.0,-0.0009884056635200977
450.0,373.0,-0.1795,-3.8674,8.6943,-0.0475,0.0247,-0.1234,-1.747568269769186,0.0,2.8885891437530518,-1.8802560567855835,-0.0,2.1039576530456543,-1.050847129230835,0.0,0.3258320689201355,-1.1645568052874964,0.0,-0.09661422669887543,0.545989453792572,0.0,0.025610031560063362,1.2487483024597168,0.0,-0.02648664265871048
450.0,373.0,-0.1795,-3.8674,8.6943,-0.0475,0.0247,-0.1234,-1.747580190698141,0.0,2.869678497314453,-1.8802552223205566,-0.0,2.0962114334106445,-1.0508110088161011,0.0,0.3256509006023407,-1.1645610968219202,0.0,-0.10660126805305481,0.5459939241409302,0.0,0.014284905046224594,1.248744249343872,0.0,0.024900179356336594
450.0,373.0,-0.1795,-3.8674,8.6943,-0.0475,0.0247,-0.1234,-1.7475601635374964,0.0,2.8793134689331055,-1.8802518844604492,-0.0,2.0523366928100586,-1.0507949751666565,0.0,0.33281654119491577,-1.164576832448141,0.0,-0.10478771477937698,0.5460216999053955,0.0,0.011569613590836525,1.2487202882766724,0.0,0.022464724257588387
450.0,373.0,-0.1795,-3.8674,8.6943,-0.0475,0.0247,-0.1234,-1.747540136376852,0.0,2.840886354446411,-1.8802717924118042,-0.0,2.09975004196167,-1.0507790011218567,0.0,0.33719319105148315,-1.164609734212057,0.0,-0.10973666608333588,0.546005368232727,0.0,0.016559505835175514,1.2487363815307617,0.0,0.02360810711979866
450.0,373.0,-0.1795,-3.8674,8.6943,-0.0475,0.0247,-0.1234,-1.747592111627096,0.0,2.901089668273926,-1.8802469968795776,-0.0,2.075427770614624,-1.0508433741382142,0.0,0.3428451120853424,-1.164588753377096,0.0,-0.10859867185354233,0.5460295677185059,0.0,0.01785513572394848,1.248744249343872,0.0,0.00854516588151455
450.0,373.0,-0.1795,-3.8674,8.6943,-0.0475,0.0247,-0.1234,-1.7475601635374964,0.0,2.8630361557006836,-1.8802510499954224,-0.0,2.0716185569763184,-1.0508273404887696,0.0,0.32870423793792725,-1.1646254698382776,0.0,-0.10235537588596344,0.5459651947021484,0.0,0.019924815744161606,1.2487601041793823,0.0,0.02390468865633011
450.0,373.0,-0.1795,-3.8674,8.6943,-0.0475,0.0247,-0.1234,-1.747580190698141,0.0,2.8339452743530273,-1.880242943763733,-0.0,2.109034538269043,-1.0508068960956116,0.0,0.328323632478714,-1.1645973364459437,0.0,-0.09652483463287354,0.5459893941879272,0.0,0.006886068265885115,1.248744249343872,0.0,0.027472587302327156
450.0,373.0,-0.1795,-3.8674,8.6943,-0.0475,0.0247,-0.1234,-1.7476164303221644,0.0,2.9163289070129395,-1.88026762008667,-0.0,2.089747905731201,-1.0508393210223694,0.0,0.32512304186820984,-1.164605442677633,0.0,-0.09113432466983795,0.5460376739501953,0.0,0.01886296458542347,1.248744010925293,0.0,0.006721019744873047
450.0,373.0,-0.1795,-3.8674,8.6943,-0.0475,0.0247,-0.1234,-1.747563978234762,0.0,2.848074436187744,-1.8802510499954224,-0.0,2.052400588989258,-1.0508958858302613,0.0,0.33176594972610474,-1.1645806471454065,0.0,-0.09587074816226959,0.5460377335548401,0.0,0.016405628994107246,1.2486960887908936,0.0,0.006312158890068531
448.0,366.0,-0.3284,-3.7615,8.7105,-0.0244,0.0223,-0.1139,-1.747580190698141,0.0,2.802119731903076,-1.8802552223205566,-0.0,2.0675220489501953,-1.05082322776828,0.0,0.3281749486923218,-1.1646373907672327,0.0,-0.09396706521511078,0.5460295677185059,0.0,0.019098922610282898,1.2487561702728271,0.0,-0.013288948684930801
448.0,366.0,-0.3284,-3.7615,8.7105,-0.0244,0.0223,-0.1139,-1.747592111627096,0.0,2.8722798824310303,-1.8802552223205566,-0.0,2.105447292327881,-1.0508392614177247,0.0,0.33884093165397644,-1.1645930449115198,0.0,-0.10828231275081635,0.5460414886474609,0.0,0.0038956389762461185,1.2487480640411377,0.0,0.00213100528344512
448.0,366.0,-0.3284,-3.7615,8.7105,-0.0244,0.0223,-0.1139,-1.747592111627096,0.0,2.8616204261779785,-1.8802759647369385,-0.0,2.086148738861084,-1.0508958262256165,0.0,0.3358393907546997,-1.164621655141012,0.0,-0.0984833836555481,0.546005368232727,0.0,0.018158968538045883,1.248744249343872,0.0,0.04129847139120102
448.0,366.0,-0.3284,-3.7615,8.7105,-0.0244,0.0223,-0.1139,-1.747563978234762,0.0,2.8666014671325684,-1.8802428245544434,-0.0,2.061086893081665,-1.0508191746524354,0.0,0.31815260648727417,-1.164576832448141,0.0,-0.10932807624340057,0.546005368232727,0.0,0.01994434930384159,1.2487601041793823,0.0,-0.009369805455207825
448.0,366.0,-0.3284,-3.7615,8.7105,-0.0244,0.0223,-0.1139,-1.7475758991637171,0.0,2.9189889430999756,-1.8802717924118042,-0.0,2.1036376953125,-1.0508433145335694,0.0,0.327347993850708,-1.1646173636065882,0.0,-0.10413365811109543,0.5459692478179932,0.0,0.005820591934025288,1.248744249343872,0.0,-0.018419574946165085
448.0,366.0,-0.3284,-3.7615,8.7105,-0.0244,0.0223,-0.1139,-1.7476002178587855,0.0,2.8876490592956543,-1.8801788091659546,-0.0,2.0692687034606934,-1.0508191746524354,0.0,0.3266383409500122,-1.1645973364459437,0.0,-0.10190612077713013,0.5460780262947083,0.0,0.013941691257059574,1.2486920356750488,0.0,-0.06716181337833405
448.0,366.0,-0.3284,-3.7615,8.7105,-0.0244,0.0223,-0.1139,-1.7475882969298304,0.0,2.9132227897644043,-1.8802469968795776,-0.0,2.0929811000823975,-1.0508151811412354,0.0,0.339490681886673,-1.1646536032306116,0.0,-0.10582539439201355,0.5460376739501953,0.0,0.00839225109666586,1.2487282752990723,0.0,-0.006937945261597633
448.0,366.0,-0.3284,-3.7615,8.7105,-0.0244,0.0223,-0.1139,-1.7475758991637171,0.0,2.846174478530884,-1.8802437782287598,-0.0,2.110687732696533,-1.050871269111969,0.0,0.32664617896080017,-1.1646011511432093,0.0,-0.10471667349338531,0.5460176467895508,0.0,0.005719917360693216,1.2487080097198486,0.0,-0.020708177238702774
448.0,366.0,-0.3284,-3.7615,8.7105,-0.0244,0.0223,-0.1139,-1.7475758991637171,0.0,2.832179069519043,-1.8802469968795776,-0.0,2.0868847370147705,-1.0508315128139039,0.0,0.32446742057800293,-1.1646173636065882,0.0,-0.10301202535629272,0.5460456013679504,0.0,0.02399229258298874,1.2487483024597168,0.0,-0.05135791748762131
448.0,366.0,-0.3284,-3.7615,8.7105,-0.0244,0.0223,-0.1139,-1.747568269769186,0.0,2.8552632331848145,-1.8802798986434937,-0.0,2.0604734420776367,-1.0508110088161011,0.0,0.3290325105190277,-1.1645730177508753,0.0,-0.08985574543476105,0.546005368232727,0.0,0.011146565899252892,1.2487363815307617,0.0,-0.03204299136996269
436.0,365.0,-0.256,-3.9039,8.5436,-0.0403,0.0286,-0.1243,-1.7475840053954066,0.0,2.875336170196533,-1.8802437782287598,-0.0,2.088414192199707,-1.0508437317660828,0.0,0.32303208112716675,-1.164588753377096,0.0,-0.10992519557476044,0.5460537075996399,0.0,0.023789983242750168,1.2487242221832275,0.0,0.048501625657081604
436.0,365.0,-0.256,-3.9039,8.5436,-0.0403,0.0286,-0.1243,-1.7476245365538539,0.0,2.8762035369873047,-1.8802354335784912,-0.0,2.0531997680664062,-1.0508475464633484,0.0,0.3326932191848755,-1.1646135489093226,0.0,-0.10023272037506104,0.5460258722305298,0.0,-0.0039043633732944727,1.248755931854248,0.0,-0.027771983295679092
436.0,365.0,-0.256,-3.9039,8.5436,-0.0403,0.0286,-0.1243,-1.7475758991637171,0.0,2.875977039337158,-1.88026762008667,-0.0,2.079200267791748,-1.0508392018130799,0.0,0.3214554786682129,-1.164588753377096,0.0,-0.10010682791471481,0.5460860133171082,0.0,0.012014715932309628,1.2487523555755615,0.0,0.040603235363960266
436.0,365.0,-0.256,-3.9039,8.5436,-0.0403,0.0286,-0.1243,-1.7475964031615199,0.0,2.839733600616455,-1.8802437782287598,-0.0,2.1274948120117188,-1.0508191746524354,0.0,0.3251354396343231,-1.164588753377096,0.0,-0.10714282095432281,0.5460778474807739,0.0,0.012456422671675682,1.2487483024597168,0.0,-0.00012073246762156487
436.0,365.0,-0.256,-3.9039,8.5436,-0.0403,0.0286,-0.1243,-1.7476407490172328,0.0,2.8545377254486084,-1.8802108764648438,-0.0,2.059525728225708,-1.0508150619319458,0.0,0.339971125125885,-1.1646536032306116,0.0,-0.11015848815441132,0.5460376739501953,0.0,0.02685423195362091,1.2487602233886719,0.0,-0.007717969361692667
436.0,365.0,-0.256,-3.9039,8.5436,-0.0403,0.0286,-0.1243,-1.7475758991637171,0.0,2.8254053592681885,-1.880275845527649,-0.0,2.1192147731781006,-1.0508634609035035,0.0,0.3378666639328003,-1.1646011511432093,0.0,-0.08788397908210754,0.5460216999053955,0.0,0.025114767253398895,1.248744249343872,0.0,-0.037640318274497986
436.0,365.0,-0.256,-3.9039,8.5436,-0.0403,0.0286,-0.1243,-1.747552057305807,0.0,2.90604305267334,-1.8802510499954224,-0.0,2.059795379638672,-1.0508151215365906,0.0,0.32572799921035767,-1.164588753377096,0.0,-0.09521806985139847,0.5460742712020874,0.0,0.017552856355905533,1.2487601041793823,0.0,-0.015244830399751663
436.0,365.0,-0.256,-3.9039,8.5436,-0.0403,0.0286,-0.1243,-1.7475677929320277,0.0,2.852243423461914,-1.880223274230957,-0.0,2.0945868492126465,-1.0508511823466797,4.970761136036117e-09,0.3245820105075836,-1.164609734212057,0.0,-0.11048117280006409,0.5460176467895508,0.0,0.011963368393480778,1.2487521171569824,0.0,0.005269077606499195
436.0,365.0,-0.256,-3.9039,8.5436,-0.0403,0.0286,-0.1243,-1.7476002178587855,0.0,2.9079532623291016,-1.880275845527649,-0.0,2.1159439086914062,-1.0508875411799927,9.03411324698275e-14,0.3330118954181671,-1.164621655141012,0.0,-0.09842076897621155,0.5460217595100403,0.0,0.019283253699541092,1.248684048652649,0.0,0.024528440088033676
436.0,365.0,-0.256,-3.9039,8.5436,-0.0403,0.0286,-0.1243,-1.747608324090475,0.0,2.867006301879883,-1.8802872896194458,-0.0,2.1077818870544434,-1.050883488064148,1.6419055394422319e-18,0.331282377243042,-1.1645930449115198,0.0,-0.10856486111879349,0.5460296273231506,0.0,0.011676987633109093,1.2487162351608276,0.0,-0.02260831743478775
439.0,376.0,-0.1693,-3.7866,8.5974,-0.0412,0.0281,-0.1252,-1.7475997410216273,0.0,2.836172103881836,-1.8802635669708252,-0.0,2.050875186920166,-1.050826982860901,1.948392758663404e-24,0.3230289816856384,-1.164621655141012,0.0,-0.10298676788806915,0.5460094809532166,0.0,0.021189698949456215,1.2487521171569824,0.0,0.008339568972587585
439.0,376.0,-0.1693,-3.7866,8.5974,-0.0412,0.0281,-0.1252,-1.7476164303221644,0.0,2.8666555881500244,-1.8802510499954224,-0.0,2.0876829624176025,-1.0508470696261902,3.5411071802023917e-29,0.32502877712249756,-1.164609734212057,0.0,-0.10361877828836441,0.5460295677185059,0.0,0.01907563954591751,1.2487080097198486,0.0,-0.0016295341774821281
439.0,376.0,-0.1693,-3.7866,8.5974,-0.0412,0.0281,-0.1252,-1.7476040325560511,0.0,2.8868894577026367,-1.880259394645691,-0.0,2.0672919750213623,-1.0508108896068116,4.2021090490812155e-35,0.312061071395874,-1.1645854155169886,0.0,-0.10389503836631775,0.5459812879562378,0.0,0.027953453361988068,1.2487720251083374,0.0,0.0022806397173553705
439.0,376.0,-0.1693,-3.7866,8.5974,-0.0412,0.0281,-0.1252,-1.7475878200926722,0.0,2.90419340133667,-1.8802437782287598,-0.0,2.081183910369873,-1.0508752030185242,7.637118669524183e-40,0.32681629061698914,-1.1645811239825647,0.0,-0.10812684893608093,0.5460012555122375,0.0,0.015348359942436218,1.2487682104110718,0.0,-0.011498669162392616
439.0,376.0,-0.1693,-3.7866,8.5974,-0.0412,0.0281,-0.1252,-1.747636457482809,0.0,2.8760194778442383,-1.8802518844604492,-0.0,2.0502657890319824,-1.050883488064148,1.401298464324817e-45,0.3337134122848511,-1.1645973364459437,0.0,-0.112621009349823,0.5459972023963928,0.0,0.008756703697144985,1.2487401962280273,0.0,-0.0009924769401550293
439.0,376.0,-0.1693,-3.7866,8.5974,-0.0412,0.0281,-0.1252,-1.7475797138609828,0.0,2.8459205627441406,-1.8802552223205566,-0.0,2.1005313396453857,-1.0508916539004822,0.0,0.33199071884155273,-1.1645973364459437,0.0,-0.10376705229282379,0.5460455417633057,0.0,0.021020565181970596,1.2487119436264038,0.0,-0.0007617694209329784
439.0,376.0,-0.1693,-3.7866,8.5974,-0.0412,0.0281,-0.1252,-1.7476040325560511,0.0,2.8532190322875977,-1.880223274230957,-0.0,2.085949182510376,-1.0509115022471924,0.0,0.31945258378982544,-1.1645854155169886,0.0,-0.10299090296030045,0.5460537075996399,0.0,0.008028846234083176,1.2487120628356934,0.0,0.0405760183930397
439.0,376.0,-0.1693,-3.7866,8.5974,-0.0412,0.0281,-0.1252,-1.7475677929320277,0.0,2.869555711746216,-1.8802354335784912,-0.0,2.075411558151245,-1.0508912366679688,0.0,0.3392605781555176,-1.1645849386798304,0.0,-0.10136944055557251,0.5460336208343506,0.0,0.02202792465686798,1.2487561702728271,0.0,-0.04263918474316597
439.0,376.0,-0.1693,-3.7866,8.5974,-0.0412,0.0281,-0.1252,-1.7476207218565882,0.0,2.8857064247131348,-1.8802757263183594,-0.0,2.1098856925964355,-1.0508711499026795,-9.032755042426288e-05,0.3156319260597229,-1.1646011511432093,0.0,-0.1146945059299469,0.5460254549980164,0.0,0.010130212642252445,1.2487483024597168,0.0,-0.027290713042020798
439.0,376.0,-0.1693,-3.7866,8.5974,-0.0412,0.0281,-0.1252,-1.7475878200926722,0.0,2.8658485412597656,-1.8802396059036255,-0.0,2.1032423973083496,-1.050875262623169,-8.211013482650742e-05,0.3334428071975708,-1.1645973364459437,0.0,-0.10137967765331268,0.546034038066864,0.0,0.0058205341920256615,1.2487242221832275,0.0,-0.020870359614491463
409.0,370.0,-0.2967,-3.8411,8.6524,-0.0418,0.0328,-0.1205,-1.7475878200926722,0.0,2.8589577674865723,-1.8802881240844727,-0.0,2.0819478034973145,-1.0508589309505005,-7.652474596397951e-05,0.3311801850795746,-1.1646173636065882,0.0,-0.11334800720214844,0.5460536479949951,0.0,0.01417645812034607,1.2487561702728271,0.0,0.05820434167981148
409.0,370.0,-0.2967,-3.8411,8.6524,-0.0418,0.0328,-0.1205,-1.747608324090475,0.0,2.846438407897949,-1.880275845527649,-0.0,2.0735924243927,-1.0508307379535218,-8.461753168376163e-05,0.31411445140838623,-1.1646454969989222,-3.4122735996788833e-06,-0.1145792305469513,0.5460496544837952,0.0,0.008093304000794888,1.2487401962280273,0.0,0.06977033615112305
409.0,370.0,-0.2967,-3.8411,8.6524,-0.0418,0.0328,-0.1205,-1.7475878200926722,0.0,2.851930618286133,-1.8802437782287598,-0.0,2.139315366744995,-1.050875262623169,-7.964072574395686e-05,0.3030893802642822,-1.1646488348590296,-0.0004141646495554596,-0.12446469068527222,0.5460901856422424,0.0,0.011214000172913074,1.2487680912017822,0.0,0.1231761947274208
409.0,370.0,-0.2967,-3.8411,8.6524,-0.0418,0.0328,-0.1205,-1.7475758991637171,0.0,2.8113088607788086,-1.8802675008773804,0.00033488465123809874,2.180036783218384,-1.0509072703174134,-0.00010005842341342941,0.30296778678894043,-1.1646574179278772,-0.000520332483574748,-0.15171322226524353,0.5460258722305298,0.0,0.024460256099700928,1.248732089996338,0.0,0.11523997038602829
409.0,370.0,-0.2967,-3.8411,8.6524,-0.0418,0.0328,-0.1205,-1.747540136376852,0.0,2.7829947471618652,-1.8802716732025146,0.000828685937449336,2.161447048187256,-1.0508790177157898,-0.0001812664995668456,0.3053252398967743,-1.1646531263934534,-0.0004733409150503576,-0.1401917040348053,0.5459976196289062,0.0,0.024196472018957138,1.2487843036651611,0.00044292202801443636,0.19641080498695374
409.0,370.0,-0.2967,-3.8411,8.6524,-0.0418,0.0328,-0.1205,-1.747608324090475,0.0,2.8114871978759766,-1.8802189826965332,0.0026104769203811884,2.1608166694641113,-1.0509068530849,-0.0001864150690380484,0.289026141166687,-1.1646574179278772,-0.0004266194300726056,-0.128149151802063,0.5459972023963928,0.0,0.01837911084294319,1.248744010925293,0.0005010060267522931,0.16565974056720734
409.0,370.0,-0.2967,-3.8411,8.6524,-0.0418,0.0328,-0.1205,-1.7475959263243617,0.0,2.7515954971313477,-1.8801878690719604,0.004776029847562313,2.181778907775879,-1.0508507651141663,-0.00018255770555697381,0.2978794574737549,-1.1646531263934534,-0.00037102666101418436,-0.15657055377960205,0.5460459589958191,0.0,0.010827385820448399,1.2487599849700928,0.0005070011247880757,0.2505176365375519
409.0,370.0,-0.2967,-3.8411,8.6524,-0.0418,0.0328,-0.1205,-1.7475840053954066,-6.389829650288448e-05,2.739718198776245,-1.8801350593566895,0.005045459605753422,2.2524290084838867,-1.0509072703174134,-0.000168261889484711,0.2919832468032837,-1.1646292845355433,-0.0003406669420655817,-0.1532439887523651,0.5460095405578613,0.0,0.01257527619600296,1.248820185661316,0.0005737790488637984,0.2643832564353943
409.0,370.0,-0.2967,-3.8411,8.6524,-0.0418,0.0328,-0.1205,-1.7475797138609828,-8.054304635152221e-05,2.744770050048828,-1.880098819732666,0.004498716443777084,2.233159303665161,-1.0508790773204346,-0.00024327282153535634,0.2832600772380829,-1.1646369139300745,-0.00046359936823137105,-0.1478458195924759,0.5460820198059082,0.0,0.009743058122694492,1.248780369758606,0.00114489218685776,0.29589924216270447
409.0,370.0,-0.2967,-3.8411,8.6524,-0.0418,0.0328,-0.1205,-1.7476164303221644,-0.0003535764117259532,2.7506332397460938,-1.8800914287567139,0.004618422128260136,2.2585039138793945,-1.0509191912463685,-0.00023959402460604906,0.2776617109775543,-1.1646369139300745,-0.0008236856083385646,-0.16298602521419525,0.5459733605384827,0.0,0.015481422655284405,1.2487964630126953,0.002472721505910158,0.3241521120071411
459.0,377.0,-0.3356,-3.7149,8.7147,-0.0322,0.0363,-0.1197,-1.7476526699461878,-0.0002693220158107579,2.7308647632598877,-1.8800396919250488,0.005230396054685116,2.3129944801330566,-1.0508711499026795,-0.0002384213439654559,0.2836819291114807,-1.164685074483053,-0.0011602070881053805,-0.16011680662631989,0.5459771752357483,0.0,0.011527705006301403,1.2488199472427368,0.008035821840167046,0.37064695358276367
459.0,377.0,-0.3356,-3.7149,8.7147,-0.0322,0.0363,-0.1197,-1.7475997410216273,-0.0002487395249772817,2.7340266704559326,-1.8799113035202026,0.007815108634531498,2.294635772705078,-1.0508667987636109,-0.0002047469315584749,0.28282541036605835,-1.1647174994098108,-0.008627551607787609,-0.1690884232521057,0.5459775328636169,0.0,0.019656967371702194,1.2489123344421387,0.00977970939129591,0.31996315717697144
459.0,377.0,-0.3356,-3.7149,8.7147,-0.0322,0.0363,-0.1197,-1.747636457482809,-0.0002445573918521404,2.7129478454589844,-1.8798874616622925,0.011445059441030025,2.3263368606567383,-1.0509551924518128,-0.00020867701095994562,0.28048238158226013,-1.164832894002096,-0.02034372091293335,-0.17607426643371582,0.5459573864936829,0.0,-0.004488843027502298,1.2489798069000244,0.01011375430971384,0.408860445022583
459.0,377.0,-0.3356,-3.7149,8.7147,-0.0322,0.0363,-0.1197,-1.7476164303221644,-0.0002703444624785334,2.701176404953003,-1.8796875476837158,0.016195353120565414,2.347433567047119,-1.0509388607791443,-0.00020330247934907675,0.27616798877716064,-1.1650126616107386,-0.010309637524187565,-0.16744452714920044,0.5459615588188171,0.0,0.018820621073246002,1.2491203546524048,0.01073706429451704,0.4672545790672302
459.0,377.0,-0.3356,-3.7149,8.7147,-0.0322,0.0363,-0.1197,-1.7476803265013636,-0.0003048219077754766,2.6734280586242676,-1.8795466423034668,0.02002057246863842,2.372805118560791,-1.0509273570827027,-0.00020613850210793316,0.26819026470184326,-1.1650684515582483,-0.004225016105920076,-0.17697657644748688,0.5459615588188171,0.0,0.0019227609736844897,1.2491635084152222,0.011551260016858578,0.540235161781311
459.0,377.0,-0.3356,-3.7149,8.7147,-0.0322,0.0363,-0.1197,-1.7476402721800746,-0.0004991151508875191,2.706573963165283,-1.8792990446090698,0.025064846500754356,2.444953680038452,-1.0509110254100342,-0.00025379908038303256,0.26145681738853455,-1.1651042143451136,-0.0011158870765939355,-0.17245686054229736,0.5460177063941956,0.0,0.00340429600328207,1.2493114471435547,0.013543535955250263,0.5625824928283691
459.0,377.0,-0.3356,-3.7149,8.7147,-0.0322,0.0363,-0.1197,-1.747648378411764,-0.0004258568224031478,2.6662096977233887,-1.8790907859802246,0.028134435415267944,2.44199275970459,-1.0509348672679444,-0.00021988902881275862,0.2553747892379761,-1.1650884787188929,-0.0018270654836669564,-0.19620853662490845,0.5459972023963928,0.0,0.00017906306311488152,1.2494351863861084,0.015171855688095093,0.5931209325790405
459.0,377.0,-0.3356,-3.7149,8.7147,-0.0322,0.0363,-0.1197,-1.747632165948385,-0.0003352074418216944,2.650736093521118,-1.8787988424301147,0.03060382418334484,2.465285301208496,-1.0509314698031922,-0.00018392983474768698,0.25934356451034546,-1.165124241505758,-0.0021188268437981606,-0.1952388882637024,0.5460095405578613,0.0,0.007772005163133144,1.2495192289352417,0.01592247001826763,0.5534437894821167
459.0,377.0,-0.3356,-3.7149,8.7147,-0.0322,0.0363,-0.1197,-1.7476002178587855,-0.000264764268649742,2.694997787475586,-1.8785271644592285,0.0329572930932045,2.4675590991973877,-1.0509191316417237,-0.00015271497250068933,0.2703760862350464,-1.165168587361471,-0.0021990234963595867,-0.18795326352119446,0.545997679233551,0.0,0.006169497966766357,1.2496788501739502,0.017019644379615784,0.5496677160263062
459.0,377.0,-0.3356,-3.7149,8.7147,-0.0322,0.0363,-0.1197,-1.7476121387877406,-0.00022665964206680655,2.667346477508545,-1.8782432079315186,0.03385256230831146,2.4017858505249023,-1.0508868259242554,-0.00013446070079226047,0.2642632722854614,-1.1651399771319788,-0.0027109328657388687,-0.193071186542511,0.5459693074226379,0.0,0.011770406737923622,1.249814510345459,0.017809556797146797,0.5758026838302612
410.0,360.0,-0.3643,-3.6036,8.9049,-0.0281,0.0583,-0.1014,-1.7476564846434535,-0.00019210175378248096,2.6813595294952393,-1.8778518438339233,0.03653734549880028,2.428661823272705,-1.0508908194354554,-0.00011698198795784265,0.26050618290901184,-1.1652162710772913,-0.002547499956563115,-0.18250811100006104,0.5460377335548401,0.0,0.011093228124082088,1.249997854232788,0.018321726471185684,0.6013404726982117
410.0,360.0,-0.3643,-3.6036,8.9049,-0.0281,0.0583,-0.1014,-1.7476245365538539,-0.00019280541164334863,2.6632776260375977,-1.877575159072876,0.04169083014130592,2.501879930496216,-1.0509388607791443,-0.00010596308129606768,0.27421262860298157,-1.165191952382223,-0.0014731419505551457,-0.19054290652275085,0.5460177063941956,0.0,0.00045810791198164225,1.2501535415649414,0.018723508343100548,0.6288654208183289
410.0,360.0,-0.3643,-3.6036,8.9049,-0.0281,0.0583,-0.1014,-1.7476564846434535,-0.00014926398580428213,2.6507480144500732,-1.8771275281906128,0.04968088120222092,2.466679334640503,-1.0509348672679444,-9.480112930759788e-05,0.2801782488822937,-1.165175739918844,-0.0009116166038438678,-0.18677854537963867,0.5460459589958191,0.0,-0.0012736939825117588,1.2503732442855835,0.01855829544365406,0.5824405550956726
410.0,360.0,-0.3643,-3.6036,8.9049,-0.0281,0.0583,-0.1014,-1.7477089367308558,-0.0008065058500505984,2.6698966026306152,-1.876716136932373,0.056371841579675674,2.4741339683532715,-1.0509348672679444,-8.743314538151026e-05,0.2723548114299774,-1.1651876608477991,-0.0005528618348762393,-0.1845233142375946,0.5459733009338379,0.0,0.015729311853647232,1.2505134344100952,0.0206920113414526,0.6298930048942566
410.0,360.0,-0.3643,-3.6036,8.9049,-0.0281,0.0583,-0.1014,-1.7476798496642054,-0.001952959457412362,2.6689395904541016,-1.8760677576065063,0.06729944050312042,2.4793975353240967,-1.0509430331042786,-9.15203127078712e-05,0.27367693185806274,-1.165191952382223,-0.00039713826845400035,-0.18673014640808105,0.5460540652275085,0.0,0.012018590234220028,1.250728964805603,0.02247578836977482,0.6027640700340271
410.0,360.0,-0.3643,-3.6036,8.9049,-0.0281,0.0583,-0.1014,-1.747688432733053,-0.006693913135677576,2.6663873195648193,-1.8754794597625732,0.07829784601926804,2.486680269241333,-1.0508945745280762,-8.93033720785752e-05,0.28374990820884705,-1.165220085774557,-0.0002780653303489089,-0.18797937035560608,0.5460176467895508,0.0,-0.0009881709702312946,1.2508922815322876,0.024080021306872368,0.5674574375152588
410.0,360.0,-0.3643,-3.6036,8.9049,-0.0281,0.0583,-0.1014,-1.747812887231344,-0.015363696962594986,2.613328456878662,-1.8747315406799316,0.09516917169094086,2.5385258197784424,-1.0509467881968995,-8.376239566132426e-05,0.2836473882198334,-1.165215794240133,-0.00023648323258385062,-0.17751868069171906,0.5460095405578613,0.0,0.014173967763781548,1.2510677576065063,0.02511572651565075,0.5850049257278442
410.0,360.0,-0.3643,-3.6036,8.9049,-0.0281,0.0583,-0.1014,-1.7479244671263636,-0.0103054353967309,2.636082649230957,-1.8736964464187622,0.10897835344076157,2.5564143657684326,-1.0509672325900574,-8.411667658947408e-05,0.284584641456604,-1.1651514212237757,-0.00017676310380920768,-0.17270034551620483,0.5460417866706848,0.0,0.009901866316795349,1.2513760328292847,0.026312194764614105,0.5799770355224609
410.0,360.0,-0.3643,-3.6036,8.9049,-0.0281,0.0583,-0.1014,-1.7480446300902308,-0.009332693181931973,2.693218231201172,-1.8727961778640747,0.11415665596723557,2.5707483291625977,-1.050990955238678,-9.719072841107845e-05,0.28152722120285034,-1.1652401129352015,-0.0001161885738838464,-0.18691310286521912,0.5460258722305298,0.0,0.01663939096033573,1.2515308856964111,0.026159213855862617,0.6096304059028625
410.0,360.0,-0.3643,-3.6036,8.9049,-0.0281,0.0583,-0.1014,-1.7481123409666957,-0.008328048512339592,2.6912224292755127,-1.8715641498565674,0.12179897725582123,2.5265865325927734,-1.0509589475444336,-8.490419713780284e-05,0.2803020477294922,-1.1651600042926233,-0.0001287442137254402,-0.18133854866027832,0.5460500121116638,0.0,0.015099767595529556,1.2518306970596313,0.023876935243606567,0.5833467245101929
410.0,360.0,-0.3643,-3.6036,8.9049,-0.0281,0.0583,-0.1014,-1.7482577762999476,-0.00662838714197278,2.6587579250335693,-1.8705283403396606,0.12837986648082733,2.5884294509887695,-1.0509424966624756,-0.00010773132817121223,0.2749902606010437,-1.1651962439166468,-7.350649684667587e-05,-0.17642885446548462,0.5460901856422424,0.0,0.025550754740834236,1.251974105834961,0.02010493166744709,0.5821661353111267
403.0,374.0,-0.4152,-4.1468,8.8062,-0.0564,0.0965,-0.0698,-1.7482487163939417,-0.006465327460318804,2.6619229316711426,-1.8691285848617554,0.14243726432323456,2.5671777725219727,-1.050990955238678,-0.0004704902821686119,0.28784844279289246,-1.165175739918844,-7.374599226750433e-05,-0.18473559617996216,0.5460299253463745,0.0,0.021254532039165497,1.2522019147872925,0.01630645990371704,0.604071855545044
403.0,374.0,-0.4152,-4.1468,8.8062,-0.0564,0.0965,-0.0698,-1.7482925854124964,-0.006040526088327169,2.6439363956451416,-1.867924690246582,0.1499568074941635,2.536379814147949,-1.050978736286499,-0.0004187593003734946,0.2695869207382202,-1.165163818989889,-1.0449220866348696e-07,-0.17719590663909912,0.5459811687469482,0.0,0.008197693154215813,1.2522852420806885,0.014045200310647488,0.5826293230056763
403.0,374.0,-0.4152,-4.1468,8.8062,-0.0564,0.0965,-0.0698,-1.7483698330321253,-0.00361269642598927,2.6029419898986816,-1.866628646850586,0.15831927955150604,2.562460422515869,-1.0509667557528992,-0.00039987420313991606,0.2654227316379547,-1.1651318709002894,-1.8990941631769065e-12,-0.17524924874305725,0.5459697246551514,0.0,0.008623490110039711,1.2524536848068237,0.01280245091766119,0.5379074811935425
403.0,374.0,-0.4152,-4.1468,8.8062,-0.0564,0.0965,-0.0698,-1.748441835443014,-0.0037260621320456266,2.6350955963134766,-1.864952564239502,0.1692618429660797,2.543023109436035,-1.0509987038424988,-0.0009396309033036232,0.2659926116466522,-1.165175739918844,-2.2535888520177916e-18,-0.17138001322746277,0.546005368232727,0.0,0.00954497791826725,1.2525492906570435,0.011617776937782764,0.5364465713500977
403.0,374.0,-0.4152,-4.1468,8.8062,-0.0564,0.0965,-0.0698,-1.748441835443014,-0.004881675820797682,2.5920627117156982,-1.8635941743850708,0.17775915563106537,2.558262825012207,-1.0510187906077881,-0.0017630629008635879,0.2660967707633972,-1.1651762167560022,-4.095786014746667e-23,-0.1742749661207199,0.5460295677185059,0.0,0.014182288199663162,1.2525721788406372,0.010245896875858307,0.5428130626678467
403.0,374.0,-0.4152,-4.1468,8.8062,-0.0564,0.0965,-0.0698,-1.7484847507872523,-0.005360625218600035,2.5854249000549316,-1.8618183135986328,0.1829880177974701,2.5499820709228516,-1.0510630768588562,-0.0025016292929649353,0.27136558294296265,-1.1651518980609339,-4.860327062390115e-29,-0.17865726351737976,0.5460860133171082,0.0,0.0008923457935452461,1.2527618408203125,0.0069606308825314045,0.519489049911499
403.0,374.0,-0.4152,-4.1468,8.8062,-0.0564,0.0965,-0.0698,-1.748533388177389,-0.00473945215344429,2.6037464141845703,-1.8603181838989258,0.1962747424840927,2.562467098236084,-1.0510786336711426,-0.00510313268750906,0.25609108805656433,-1.1651681105243128,-8.83340382782274e-34,-0.1614137589931488,0.5459775328636169,0.0,0.010549575090408325,1.2527406215667725,0.005586422514170408,0.5217885375022888
403.0,374.0,-0.4152,-4.1468,8.8062,-0.0564,0.0965,-0.0698,-1.7486583195128382,-0.006160804070532322,2.538844347000122,-1.8582422733306885,0.20351560413837433,2.55770206451416,-1.0512386125377198,-0.015427513979375362,0.26959845423698425,-1.1651442686664026,-1.0482301058504648e-39,-0.16716992855072021,0.5460496544837952,0.0,0.009882050566375256,1.2527644634246826,0.002980542602017522,0.5330352187156677
403.0,374.0,-0.4152,-4.1468,8.8062,-0.0564,0.0965,-0.0698,-1.7486330471434535,-0.00791151076555252,2.5972981452941895,-1.8566590547561646,0.2056329995393753,2.5456652641296387,-1.051306502228119,-0.012111293151974678,0.25295448303222656,-1.1651442686664026,-1.961817850054744e-44,-0.18207770586013794,0.545981228351593,0.0,0.00768959429115057,1.2527843713760376,0.0013891783310100436,0.5294108986854553
403.0,374.0,-0.4152,-4.1468,8.8062,-0.0564,0.0965,-0.0698,-1.748697420159811,-0.008032645098865032,2.5579116344451904,-1.8550199270248413,0.21484792232513428,2.55153226852417,-1.0513897699168702,-0.009265768341720104,0.25078460574150085,-1.165152374898092,-0.0,-0.16155841946601868,0.5460500121116638,0.0,0.006534581072628498,1.2527565956115723,0.0007451395504176617,0.534114420413971
387.0,370.0,-0.2082,-3.9739,8.8493,-0.0786,0.1739,-0.0444,-1.7488333187498988,-0.011141398921608925,2.535076141357422,-1.8523999452590942,0.22262747585773468,2.510084629058838,-1.051545874481537,-0.008084766566753387,0.24891963601112366,-1.1651037375079554,0.00034652790054678917,-0.1486949771642685,0.5460459589958191,0.0,0.010082089342176914,1.2527885437011719,0.0004075398319400847,0.5101195573806763
387.0,370.0,-0.2082,-3.9739,8.8493,-0.0786,0.1739,-0.0444,-1.748946329156393,-0.012743208557367325,2.5110836029052734,-1.8506003618240356,0.22545531392097473,2.5345191955566406,-1.0515052837184449,-0.007408923469483852,0.23567594587802887,-1.165152374898092,0.0005105417221784592,-0.16206637024879456,0.5459452271461487,0.0,0.013005241751670837,1.2527644634246826,0.0003130248514935374,0.4868733882904053
387.0,370.0,-0.2082,-3.9739,8.8493,-0.0786,0.1739,-0.0444,-1.7490903339781703,-0.012852060608565807,2.4988443851470947,-1.8483160734176636,0.23660820722579956,2.5457725524902344,-1.0517056745341797,-0.007370489649474621,0.23944169282913208,-1.1651399771319788,0.0003918689035344869,-0.12591750919818878,0.5460258722305298,0.0,0.01601276732981205,1.252764344215393,0.0002022560074692592,0.43318426609039307
387.0,370.0,-0.2082,-3.9739,8.8493,-0.0786,0.1739,-0.0444,-1.7492100201048792,-0.016132446005940437,2.511474847793579,-1.846393346786499,0.22680756449699402,2.5123183727264404,-1.0517212313464661,-0.010414122603833675,0.22462618350982666,-1.165112320576803,0.00039809601730667055,-0.14204508066177368,0.5459693074226379,0.0,0.01557107362896204,1.2528364658355713,0.00020569995103869587,0.4476448893547058
387.0,370.0,-0.2082,-3.9739,8.8493,-0.0786,0.1739,-0.0444,-1.7494150600829066,-0.01668522320687771,2.447704792022705,-1.8441097736358643,0.22992129623889923,2.516922950744629,-1.0518327516368409,-0.006824111100286245,0.23591041564941406,-1.1650880018817347,0.00031603319803252816,-0.1378316581249237,0.5459815859794617,0.0,0.010712984018027782,1.2527844905853271,0.00020157103426754475,0.4443272054195404
387.0,370.0,-0.2082,-3.9739,8.8493,-0.0786,0.1739,-0.0444,-1.7495552502074183,-0.015685200691223145,2.512303113937378,-1.8422445058822632,0.22956989705562592,2.53273344039917,-1.0519047540477295,-0.006702831946313381,0.22409769892692566,-1.165095631276266,0.0002688049280550331,-0.12666411697864532,0.5460336208343506,0.0,0.008742810226976871,1.2527885437011719,0.00017871301679406315,0.4595678746700287
387.0,370.0,-0.2082,-3.9739,8.8493,-0.0786,0.1739,-0.0444,-1.7497483692564906,-0.017121389508247375,2.445434331893921,-1.8405170440673828,0.22234033048152924,2.530452251434326,-1.051964358692505,-0.00888123456388712,0.2314712107181549,-1.165152374898092,0.00016399129526689649,-0.133836030960083,0.5459775328636169,0.0,-0.002926067914813757,1.2528207302093506,0.00013976510672364384,0.49111074209213257
387.0,370.0,-0.2082,-3.9739,8.8493,-0.0786,0.1739,-0.0444,-1.7498346767821253,-0.017849821597337723,2.5659050941467285,-1.8382333517074585,0.219816654920578,2.5160794258117676,-1.0520482820323487,-0.007871872745454311,0.2180188000202179,-1.1651318709002894,1.6069950561359292e-06,-0.13752061128616333,0.5459206104278564,0.0,0.0024283898528665304,1.252792477607727,0.0008915814687497914,0.4243749976158142
387.0,370.0,-0.2082,-3.9739,8.8493,-0.0786,0.1739,-0.0444,-1.750101228753561,-0.0200614295899868,2.483165740966797,-1.8364801406860352,0.21614456176757812,2.542935848236084,-1.0521363776973267,-0.007898659445345402,0.2411191761493683,-1.1651485602008265,2.920634220582308e-11,-0.13783064484596252,0.5459775328636169,0.0,-0.0036669112741947174,1.2528085708618164,0.0007130568847060204,0.44450461864471436
387.0,370.0,-0.2082,-3.9739,8.8493,-0.0786,0.1739,-0.0444,-1.7502600155272425,-0.022956350818276405,2.5577383041381836,-1.8343441486358643,0.20796294510364532,2.5046916007995605,-1.0521717232516785,-0.006702827755361795,0.20756614208221436,-1.1651237646686,3.4658159599367514e-17,-0.1446998119354248,0.5460258722305298,0.0,0.004004493355751038,1.2528564929962158,0.0016527291154488921,0.5033408403396606
350.0,381.0,-0.5079,-3.615,8.5639,-0.0709,0.2121,-0.0336,-1.7504078350462855,-0.028052549809217453,2.5047504901885986,-1.8326305150985718,0.21119217574596405,2.5478949546813965,-1.0522356194308777,-0.005450294818729162,0.2199377715587616,-1.1651156584369105,6.298949567461566e-22,-0.13891425728797913,0.5459452271461487,0.0,-0.0019355122931301594,1.252851963043213,0.0031486288644373417,0.46938174962997437
350.0,381.0,-0.5079,-3.615,8.5639,-0.0709,0.2121,-0.0336,-1.750711580316061,-0.03342708200216293,2.530423641204834,-1.8305790424346924,0.2035897821187973,2.5294270515441895,-1.0523277682117005,-0.0051459455862641335,0.23103776574134827,-1.1651442686664026,7.474745003495773e-28,-0.1366243213415146,0.5460099577903748,0.0,-0.01347351260483265,1.2529362440109253,0.005151478573679924,0.4626981317996979
350.0,381.0,-0.5079,-3.615,8.5639,-0.0709,0.2121,-0.0336,-1.751113077203268,-0.041015855967998505,2.596370220184326,-1.8289545774459839,0.2074064314365387,2.587714672088623,-1.0523716968349,-0.005654833745211363,0.23619407415390015,-1.1651275793658655,1.3584981031573844e-32,-0.13282257318496704,0.5459939241409302,0.0,-0.025290092453360558,1.2529919147491455,0.008569932542741299,0.44679883122444153
350.0,381.0,-0.5079,-3.615,8.5639,-0.0709,0.2121,-0.0336,-1.7515188656248988,-0.04977906122803688,2.5911834239959717,-1.8272520303726196,0.20820970833301544,2.5144944190979004,-1.0524594348720093,-0.009096326306462288,0.24467957019805908,-1.1651275793658655,2.469002919401451e-37,-0.12553063035011292,0.5459775328636169,0.0,-0.008535314351320267,1.2530641555786133,0.010336382314562798,0.48499101400375366
350.0,381.0,-0.5079,-3.615,8.5639,-0.0709,0.2121,-0.0336,-1.752054830590719,-0.060512881726026535,2.5568037033081055,-1.8252211809158325,0.2015599012374878,2.609628200531006,-1.0525788229754944,-0.01817561872303486,0.22445781528949738,-1.1651485602008265,2.9287137904388677e-43,-0.14791075885295868,0.5459697246551514,0.0,-0.03114182874560356,1.2531356811523438,0.011989270336925983,0.45497655868530273
350.0,381.0,-0.5079,-3.615,8.5639,-0.0709,0.2121,-0.0336,-1.752571245233053,-0.07096152007579803,2.533809185028076,-1.8235995769500732,0.20872153341770172,2.6327733993530273,-1.0527705711177369,-0.029818270355463028,0.23539814352989197,-1.1651118437396448,0.0,-0.1455870121717453,0.5459536910057068,-0.00028945461963303387,-0.0163495484739542,1.2532315254211426,0.013994745910167694,0.4560292363166809
350.0,381.0,-0.5079,-3.615,8.5639,-0.0709,0.2121,-0.0336,-1.753413816491598,-0.08379320800304413,2.635040283203125,-1.8214784860610962,0.21071922779083252,2.5924019813537598,-1.0532459777644654,-0.06561558693647385,0.19632183015346527,-1.1651318709002894,0.0,-0.13506916165351868,0.5459656715393066,-0.00030444146250374615,-0.027137547731399536,1.2534559965133667,0.01555304229259491,0.44123685359954834
350.0,381.0,-0.5079,-3.615,8.5639,-0.0709,0.2121,-0.0336,-1.7540813885130824,-0.09286529570817947,2.5586345195770264,-1.819846510887146,0.2080562710762024,2.5956363677978516,-1.0539488953403016,-0.11031606793403625,0.20364856719970703,-1.1651237646686,0.0,-0.1411350965499878,0.5459133386611938,-0.0003582982753869146,-0.03895112872123718,1.2534908056259155,0.015781570225954056,0.43835294246673584
350.0,381.0,-0.5079,-3.615,8.5639,-0.0709,0.2121,-0.0336,-1.7550422153868617,-0.08949080854654312,2.573610782623291,-1.8177739381790161,0.21869902312755585,2.619450569152832,-1.0551895064166565,-0.13092376291751862,0.19823499023914337,-1.165124241505758,0.0,-0.1206822618842125,0.5459336638450623,-0.00030784247792325914,-0.04131922125816345,1.2536827325820923,0.0149930315092206,0.41569238901138306
350.0,381.0,-0.5079,-3.615,8.5639,-0.0709,0.2121,-0.0336,-1.755791803399557,-0.08610750734806061,2.559953451156616,-1.816061019897461,0.20801381766796112,2.6506905555725098,-1.0563149613193055,-0.13784530758857727,0.1710129976272583,-1.1650918165790003,0.0,-0.1248532384634018,0.545901358127594,-0.0002924456784967333,-0.03857532516121864,1.2538063526153564,0.013418286107480526,0.39935487508773804
332.0,372.0,-1.5398,-3.676,7.9232,-0.0415,0.1434,-0.0689,-1.7565847835936488,-0.0937749445438385,2.587266206741333,-1.8144232034683228,0.19272972643375397,2.60718035697937,-1.0575522941401978,-0.1736614853143692,0.16171447932720184,-1.1650961081134241,0.0,-0.1448603868484497,0.5459336638450623,-0.00028187379939481616,-0.04309443384408951,1.2539021968841553,0.01284545287489891,0.39120155572891235
332.0,372.0,-1.5398,-3.676,7.9232,-0.0415,0.1434,-0.0689,-1.7573844395079554,-0.09965234994888306,2.605522632598877,-1.8125795125961304,0.18946900963783264,2.5799574851989746,-1.0595118564418335,-0.21024756133556366,0.14083710312843323,-1.1651442686664026,0.0,-0.11861646920442581,0.5459620356559753,-0.0002271606063004583,-0.035415876656770706,1.254006028175354,0.009605194441974163,0.33346813917160034
332.0,372.0,-1.5398,-3.676,7.9232,-0.0415,0.1434,-0.0689,-1.758219381371969,-0.10632918775081635,2.588592290878296,-1.81097412109375,0.18528138101100922,2.575261116027832,-1.0612433117679139,-0.2595166563987732,0.13587121665477753,-1.1650517622577112,0.0,-0.13764826953411102,0.545933723449707,-0.0002267651871079579,-0.04048144444823265,1.2541141510009766,0.007311525754630566,0.41629207134246826
332.0,372.0,-1.5398,-3.676,7.9232,-0.0415,0.1434,-0.0689,-1.7592398128905238,-0.10443925112485886,2.529994487762451,-1.8090938329696655,0.18499228358268738,2.595754384994507,-1.0638853472522278,-0.2771356403827667,0.11935654282569885,-1.165124241505758,7.45243887649849e-05,-0.12857818603515625,0.5458933115005493,-0.00021861375716980547,-0.05426299571990967,1.2541656494140625,0.007891185581684113,0.3730660080909729
332.0,372.0,-1.5398,-3.676,7.9232,-0.0415,0.1434,-0.0689,-1.760085245172018,-0.09926735609769821,2.6405344009399414,-1.807644248008728,0.18941158056259155,2.6108651161193848,-1.0662756127170105,-0.29480648040771484,0.11442974209785461,-1.1651118437396448,8.765362872509286e-05,-0.12034907191991806,0.5459620356559753,-0.00021755853958893567,-0.0588826909661293,1.2541933059692383,0.0067527140490710735,0.37194228172302246
332.0,372.0,-1.5398,-3.676,7.9232,-0.0415,0.1434,-0.0689,-1.7611504993834437,-0.10243985801935196,2.6128764152526855,-1.805738925933838,0.18027208745479584,2.5885579586029053,-1.0696520966342469,-0.3480115830898285,0.09946954250335693,-1.165095631276266,-4.2055469862134487e-07,-0.14283135533332825,0.5459943413734436,-0.0001903940865304321,-0.06678076088428497,1.2541968822479248,0.004353424068540335,0.3610052466392517
332.0,372.0,-1.5398,-3.676,7.9232,-0.0415,0.1434,-0.0689,-1.7619673214354457,-0.10846134275197983,2.6561336517333984,-1.8043338060379028,0.17441438138484955,2.6188249588012695,-1.0725004833987732,-0.3844868242740631,0.089919812977314,-1.1651361624347132,-7.643374648480528e-12,-0.13014066219329834,0.5459657311439514,-0.0001721803128020838,-0.06464318186044693,1.2542614936828613,0.0016219556564465165,0.3389813303947449
332.0,372.0,-1.5398,-3.676,7.9232,-0.0415,0.1434,-0.0689,-1.7627841434874476,-0.1105581670999527,2.759338617324829,-1.8029929399490356,0.1717170923948288,2.611027956008911,-1.0756972593120118,-0.4126349091529846,0.08899231255054474,-1.165168587361471,-1.3891455478511793e-16,-0.1322617530822754,0.5459779500961304,-0.0001572511246195063,-0.04593104124069214,1.2542614936828613,0.0003746991278603673,0.3752889633178711
332.0,372.0,-1.5398,-3.676,7.9232,-0.0415,0.1434,-0.0689,-1.763846059838766,-0.10398095101118088,2.7037460803985596,-1.8012603521347046,0.1790781319141388,2.632704019546509,-1.0799876910499115,-0.43238282203674316,0.08327101171016693,-1.1651604811297815,-1.648450700550905e-22,-0.13868218660354614,0.5459339022636414,-0.00013386807404458523,-0.0601750984787941,1.2542455196380615,0.00011014502524631098,0.3770085871219635
332.0,372.0,-1.5398,-3.676,7.9232,-0.0415,0.1434,-0.0689,-1.764611383477682,-0.09847541153430939,2.738180160522461,-1.799777865409851,0.1772191822528839,2.615744113922119,-1.083578811292984,-0.4598614573478699,0.08253543078899384,-1.1651318709002894,-2.995978354825734e-27,-0.14434796571731567,0.5459336638450623,-0.00011963153519900516,-0.05303126201033592,1.2542695999145508,0.00024428192409686744,0.34358686208724976
324.0,385.0,-1.9304,-3.3117,9.0814,0.0153,-0.1875,-0.2413,-1.7656446895995082,-0.09333144128322601,2.755777359008789,-1.7980380058288574,0.18404211103916168,2.6240761280059814,-1.0883098107627411,-0.4830814003944397,0.05550006031990051,-1.1651280562030237,-3.5552238893444675e-33,-0.15317006409168243,0.5458649396896362,-0.00010559467773418874,-0.054083991795778275,1.2542897462844849,0.0019954002927988768,0.3883860111236572
324.0,385.0,-1.9304,-3.3117,9.0814,0.0153,-0.1875,-0.2413,-1.766343732873434,-0.09923016279935837,2.698786735534668,-1.7965606451034546,0.18199878931045532,2.545366048812866,-1.092328057890274,-0.5180915594100952,0.05401833355426788,-1.1651204268084925,-6.461442710420919e-38,-0.15528836846351624,0.545909583568573,-9.653324377723038e-05,-0.06834326684474945,1.2542974948883057,0.001112540834583342,0.3119446635246277
324.0,385.0,-1.9304,-3.3117,9.0814,0.0153,-0.1875,-0.2413,-1.7672974071898402,-0.10258495062589645,2.783883571624756,-1.79475998878479,0.17538544535636902,2.653334140777588,-1.0976675611785431,-0.5507557392120361,0.0931428074836731,-1.1650798956500452,-7.707141553786494e-44,-0.14791661500930786,0.5459780693054199,-8.718196477275342e-05,-0.05250847339630127,1.2542535066604614,0.00023411029542330652,0.30741602182388306
324.0,385.0,-1.9304,-3.3117,9.0814,0.0153,-0.1875,-0.2413,-1.7680064640440882,-0.09538456797599792,2.806334972381592,-1.7933465242385864,0.1805800050497055,2.6188552379608154,-1.1021967691234131,-0.5763286352157593,0.0677705630660057,-1.1651361624347132,-0.0,-0.13938400149345398,0.545933723449707,-8.091144263744354e-05,-0.06276186555624008,1.254281759262085,4.982231516237334e-09,0.28091782331466675
324.0,385.0,-1.9304,-3.3117,9.0814,0.0153,-0.1875,-0.2413,-1.7688166103758753,-0.09003040939569473,2.7973036766052246,-1.7919015884399414,0.19074887037277222,2.5960588455200195,-1.1069024366191407,-0.592864453792572,0.07190751284360886,-1.1650961081134241,-0.0,-0.1508859097957611,0.5459260940551758,-7.548253051936626e-05,-0.054311927407979965,1.254225492477417,1.6141795702750874e-16,0.28931891918182373
324.0,385.0,-1.9304,-3.3117,9.0814,0.0153,-0.1875,-0.2413,-1.7696315250792445,-0.08888006955385208,2.7926924228668213,-1.7899526357650757,0.18880291283130646,2.5777111053466797,-1.1130119425109406,-0.614641547203064,0.05585862696170807,-1.1650679747210901,-0.0,-0.14924690127372742,0.5458973050117493,-6.964163912925869e-05,-0.062844417989254,1.2542896270751953,7.016358770033841e-26,0.3000239133834839
324.0,385.0,-1.9304,-3.3117,9.0814,0.0153,-0.1875,-0.2413,-1.770341535607809,-0.08661092817783356,2.7553658485412598,-1.7884835004806519,0.1907901018857956,2.6442084312438965,-1.1179429453662415,-0.6249231100082397,0.06769948452711105,-1.1650884787188929,-0.0,-0.15302243828773499,0.5459579229354858,-6.558189488714561e-05,-0.05521709844470024,1.2542736530303955,2.2732110158964645e-33,0.32584285736083984
324.0,385.0,-1.9304,-3.3117,9.0814,0.0153,-0.1875,-0.2413,-1.7711507282652796,-0.08001860231161118,2.8673038482666016,-1.7865337133407593,0.19576847553253174,2.626729965209961,-1.1242158573916932,-0.6385467052459717,0.05638721585273743,-1.165100399647848,-0.0,-0.1495753824710846,0.5459173917770386,-6.11275463597849e-05,-0.05856172740459442,1.2543095350265503,9.87915417348996e-43,0.2953752875328064
324.0,385.0,-1.9304,-3.3117,9.0814,0.0153,-0.1875,-0.2413,-1.7718635998167933,-0.08738179504871368,2.7985267639160156,-1.7850693464279175,0.18868228793144226,2.633612632751465,-1.1293566983989258,-0.6392461657524109,0.0867331326007843,-1.165084187184469,-0.0,-0.14923864603042603,0.5459136962890625,-5.797730045742355e-05,-0.04384676367044449,1.2542455196380615,0.0,0.3302619457244873
324.0,385.0,-1.9304,-3.3117,9.0814,0.0153,-0.1875,-0.2413,-1.7726441822447718,-0.09083344787359238,2.853163242340088,-1.7832061052322388,0.18168839812278748,2.6287732124328613,-1.1358491343310853,-0.650831937789917,0.0847925990819931,-1.1650679747210901,-0.0,-0.16427546739578247,0.5459214448928833,-5.446853901958093e-05,-0.04668021202087402,1.2542574405670166,0.0,0.33114326000213623
313.0,353.0,-0.5049,-3.5617,9.0066,0.0834,-0.4406,-0.3442,-1.7733165226378382,-0.08251462131738663,2.7667267322540283,-1.7816818952560425,0.18939746916294098,2.6025164127349854,-1.1409515601447602,-0.6452354192733765,0.0691031664609909,-1.1650918165790003,-0.0,-0.1522749662399292,0.5459096431732178,-5.1953145884908736e-05,-0.05771980434656143,1.2542855739593506,0.0,0.2911792993545532
313.0,353.0,-0.5049,-3.5617,9.0066,0.0834,-0.4406,-0.3442,-1.7740169964232386,-0.08015936613082886,2.771690845489502,-1.7801411151885986,0.19293497502803802,2.5836994647979736,-1.146207020883896,-0.6472303867340088,0.060052961111068726,-1.1650679747210901,-0.0,-0.1527436375617981,0.5459616184234619,-4.965982952853665e-05,-0.0600973516702652,1.2542695999145508,0.0,0.33368510007858276
313.0,353.0,-0.5049,-3.5617,9.0066,0.0834,-0.4406,-0.3442,-1.774919172326559,-0.08330924808979034,2.7733688354492188,-1.7783398628234863,0.18376076221466064,2.643512487411499,-1.1525407892516633,-0.6473859548568726,0.07480019330978394,-1.165056053792135,-0.0,-0.16144680976867676,0.5459132790565491,-5.892959731301772e-11,-0.03615877032279968,1.2543174028396606,0.0,0.27220600843429565
313.0,353.0,-0.5049,-3.5617,9.0066,0.0834,-0.4406,-0.3442,-1.7755681476988734,-0.0836128368973732,2.78951358795166,-1.7767983675003052,0.18386739492416382,2.5789873600006104,-1.1576713484576722,-0.6383514404296875,0.0712835043668747,-1.1650398413287562,-0.0,-0.17202386260032654,0.5459377765655518,-1.0710164105955967e-15,-0.04908999800682068,1.2542855739593506,0.00020598541595973074,0.2797612249851227
313.0,353.0,-0.5049,-3.5617,9.0066,0.0834,-0.4406,-0.3442,-1.7764092884459437,-0.08501346409320831,2.821193218231201,-1.7749276161193848,0.1805775910615921,2.620147943496704,-1.164113001232483,-0.62754887342453,0.0746743232011795,-1.1650884787188929,-0.0,-0.16677527129650116,0.545941948890686,-1.270937666664564e-21,-0.03843333572149277,1.2543174028396606,0.00015168177196756005,0.30354204773902893
313.0,353.0,-0.5049,-3.5617,9.0066,0.0834,-0.4406,-0.3442,-1.7770821056761683,-0.08538955450057983,2.79179048538208,-1.773474931716919,0.18324491381645203,2.6069235801696777,-1.169117198591568,-0.6152345538139343,0.06976436078548431,-1.1650436560260218,-0.0,-0.1719215214252472,0.5459092259407043,-2.3098660817679735e-26,-0.04769422486424446,1.2542816400527954,0.0001134363265009597,0.3213881254196167
313.0,353.0,-0.5049,-3.5617,9.0066,0.0834,-0.4406,-0.3442,-1.7779070339598597,-0.08870607614517212,2.800098419189453,-1.771555781364441,0.1878599375486374,2.6518807411193848,-1.1751308006099244,-0.59185791015625,0.068191297352314,-1.1650684515582483,-0.0,-0.17436069250106812,0.5459215044975281,-2.7410382983985494e-32,-0.04374045506119728,1.2542694807052612,0.0001145248970715329,0.3238942623138428
313.0,353.0,-0.5049,-3.5617,9.0066,0.0834,-0.4406,-0.3442,-1.7786923847594203,-0.09862986952066422,2.8119683265686035,-1.7700719833374023,0.1934075653553009,2.6323769092559814,-1.1796392065337677,-0.5751028656959534,0.08214424550533295,-1.1650765577899378,-0.0,-0.172631174325943,0.545925498008728,-4.981701688036864e-37,-0.03843481466174126,1.2543134689331055,0.0001445853995392099,0.3874550759792328
313.0,353.0,-0.5049,-3.5617,9.0066,0.0834,-0.4406,-0.3442,-1.7795258961119593,-0.10353360325098038,2.811201333999634,-1.7685434818267822,0.19343999028205872,2.5804014205932617,-1.1839969915202637,-0.5494997501373291,0.09757155179977417,-1.1650646368609827,-0.0,-0.18294695019721985,0.5459377765655518,-9.053789378002643e-42,-0.027007609605789185,1.2543137073516846,0.00012106017675250769,0.3457169532775879
313.0,353.0,-0.5049,-3.5617,9.0066,0.0834,-0.4406,-0.3442,-1.7806278667845667,-0.10033131390810013,2.80202579498291,-1.7666090726852417,0.206166073679924,2.6184537410736084,-1.1893677872470398,-0.5244389772415161,0.09007635712623596,-1.1650646368609827,-0.0,-0.16816838085651398,0.5460221767425537,-0.0,-0.037969935685396194,1.2542974948883057,0.00013185500574763864,0.3066645860671997
281.0,305.0,0.4074,-3.7663,8.3605,0.0837,-0.4328,-0.3277,-1.7814566097655238,-0.09922787547111511,2.833493947982788,-1.7649729251861572,0.20094601809978485,2.5698394775390625,-1.1934966307929535,-0.5156549215316772,0.08268027007579803,-1.1650002638446253,-0.0,-0.173403799533844,0.5459496974945068,-0.0,-0.051818326115608215,1.2542893886566162,0.00011500537220854312,0.31014949083328247
281.0,305.0,0.4074,-3.7663,8.3605,0.0837,-0.4328,-0.3277,-1.7825504742064417,-0.11491085588932037,2.7632813453674316,-1.762941837310791,0.19157283008098602,2.579658269882202,-1.198614315395691,-0.4982680380344391,0.08373170346021652,-1.1650407950030726,-0.0,-0.1832292079925537,0.545941948890686,-0.0,-0.03526345640420914,1.2543256282806396,9.916553244693205e-05,0.28525006771087646
281.0,305.0,0.4074,-3.7663,8.3605,0.0837,-0.4328,-0.3277,-1.7834559879698695,-0.1220507100224495,2.8017210960388184,-1.761430025100708,0.19913318753242493,2.600856304168701,-1.2025169295123597,-0.4710938036441803,0.09720249474048615,-1.1650603453265589,-0.0,-0.16647329926490784,0.5459296703338623,-0.0,-0.03365514427423477,1.2542896270751953,8.395880286116153e-05,0.27077606320381165
281.0,305.0,0.4074,-3.7663,8.3605,0.0837,-0.4328,-0.3277,-1.7847100696959437,-0.12287349253892899,2.814910411834717,-1.7594112157821655,0.21163056790828705,2.594424247741699,-1.2070856553367157,-0.4406317472457886,0.1282067447900772,-1.1650479475604456,8.925353176891804e-05,-0.17118680477142334,0.5458810329437256,-0.0,-0.035838186740875244,1.2543256282806396,6.808026955695823e-05,0.2946419417858124
281.0,305.0,0.4074,-3.7663,8.3605,0.0837,-0.4328,-0.3277,-1.7856341801085414,-0.12255159020423889,2.7766361236572266,-1.7577470541000366,0.21104615926742554,2.586897134780884,-1.210342453127243,-0.40101584792137146,0.14248313009738922,-1.165056053792135,8.020797395147383e-05,-0.17877769470214844,0.5460102558135986,-0.0,-0.03658204525709152,1.2543094158172607,5.913358836551197e-05,0.23093512654304504
281.0,305.0,0.4074,-3.7663,8.3605,0.0837,-0.4328,-0.3277,-1.786696573297018,-0.11486578732728958,2.729578971862793,-1.7560588121414185,0.2173394113779068,2.549957275390625,-1.2133555573276062,-0.3697514533996582,0.16246366500854492,-1.1650002638446253,9.373272041557357e-05,-0.16825547814369202,0.5459902286529541,-0.0,-0.029821254312992096,1.2543613910675049,7.83975629019551e-05,0.21216878294944763
281.0,305.0,0.4074,-3.7663,8.3605,0.0837,-0.4328,-0.3277,-1.7879611454405726,-0.12065160274505615,2.7768807411193848,-1.7539854049682617,0.20875436067581177,2.5087506771087646,-1.2167552274516602,-0.3385494649410248,0.1653919219970703,-1.1650169531451624,0.00111525843385607,-0.16791684925556183,0.5459296703338623,-0.0,-0.02492564171552658,1.2543175220489502,-8.616037666797638e-05,0.1827355921268463
281.0,305.0,0.4074,-3.7663,8.3605,0.0837,-0.4328,-0.3277,-1.7889062366881312,-0.13534873723983765,2.764275550842285,-1.752353310585022,0.19402992725372314,2.4992446899414062,-1.219282553797104,-0.3052968680858612,0.18258477747440338,-1.1650331656085413,0.0019932915456593037,-0.15240256488323212,0.5459414720535278,-0.0,-0.0458163358271122,1.2542935609817505,-0.00014697734150104225,0.22440695762634277
281.0,305.0,0.4074,-3.7663,8.3605,0.0837,-0.4328,-0.3277,-1.7902208767332972,-0.1417715847492218,2.7609734535217285,-1.7503502368927002,0.19451966881752014,2.529582977294922,-1.2220265132239838,-0.2532665431499481,0.21224814653396606,-1.1649687925921839,0.0013406138168647885,-0.14075447618961334,0.5459656715393066,-0.0,-0.03605552390217781,1.2542697191238403,-0.0005752710858359933,0.12914563715457916
281.0,305.0,0.4074,-3.7663,8.3605,0.0837,-0.4328,-0.3277,-1.7912775478758753,-0.13245199620723724,2.78895902633667,-1.7487503290176392,0.1975850760936737,2.512310028076172,-1.2239106458476563,-0.22382999956607819,0.22027629613876343,-1.1649358908282679,0.001071409322321415,-0.14338652789592743,0.5459661483764648,-0.0,-0.01937073841691017,1.2543052434921265,-0.0003846186154987663,0.08919306099414825
286.0,285.0,1.2526,-2.9533,9.5001,0.037,-0.2465,-0.2227,-1.7926536999144496,-0.12942185997962952,2.6579813957214355,-1.7467916011810303,0.1939447969198227,2.486513614654541,-1.2257989209941407,-0.17253799736499786,0.22516360878944397,-1.1649163405047815,0.001620143768377602,-0.13658100366592407,0.5459656715393066,-0.0,-0.036446116864681244,1.2543375492095947,-2.5967243980073995e-11,0.08274319767951965
286.0,285.0,1.2526,-2.9533,9.5001,0.037,-0.2465,-0.2227,-1.793769975701803,-0.13665345311164856,2.6776885986328125,-1.745303750038147,0.18452458083629608,2.443784236907959,-1.227251337175705,-0.16615281999111176,0.22143292427062988,-1.1649358908282679,0.003293911926448345,-0.10763546824455261,0.5459174513816833,-0.0,-0.028913836926221848,1.2543573379516602,0.00046330122859217227,0.0854770690202713
286.0,285.0,1.2526,-2.9533,9.5001,0.037,-0.2465,-0.2227,-1.7948667011656703,-0.15216600894927979,2.7152581214904785,-1.7438197135925293,0.1737978160381317,2.482815980911255,-1.2283432644656678,-0.11759831756353378,0.23459666967391968,-1.1648848692523401,0.007920810952782631,-0.12298154830932617,0.5459779500961304,-0.0,-0.03635794296860695,1.2543174028396606,7.823046210830853e-09,0.06408146768808365
286.0,285.0,1.2526,-2.9533,9.5001,0.037,-0.2465,-0.2227,-1.7963587246336878,-0.1564141809940338,2.6819324493408203,-1.7421038150787354,0.16845326125621796,2.4254684448242188,-1.2290788155845185,-0.05073893070220947,0.2849644124507904,-1.1648529211627405,0.005211777985095978,-0.12202522903680801,0.5459500551223755,-0.0,-0.02586190588772297,1.2543094158172607,3.4004462335914314e-18,-0.0012986082583665848
286.0,285.0,1.2526,-2.9533,9.5001,0.037,-0.2465,-0.2227,-1.7975970707335414,-0.15272876620292664,2.669187545776367,-1.7407474517822266,0.16580240428447723,2.4710114002227783,-1.2293423277190705,-0.016428079456090927,0.302802711725235,-1.164832894002096,0.0002622160245664418,-0.11784730851650238,0.5458973050117493,-0.0,-0.027500689029693604,1.2543456554412842,1.101701323297255e-25,0.062443047761917114
286.0,285.0,1.2526,-2.9533,9.5001,0.037,-0.2465,-0.2227,-1.799114843408102,-0.15297329425811768,2.623692512512207,-1.7391599416732788,0.16353407502174377,2.460691213607788,-1.2293946009925385,0.007145507726818323,0.28196293115615845,-1.164849106465475,0.00010073804878629744,-0.1294405162334442,0.5459377765655518,-0.0,-0.032350942492485046,1.2543374300003052,-1.1331488281030033e-07,0.09738702327013016
286.0,285.0,1.2526,-2.9533,9.5001,0.037,-0.2465,-0.2227,-1.800385137597555,-0.16409160196781158,2.704566478729248,-1.7378596067428589,0.15538930892944336,2.4427413940429688,-1.2293019455722352,0.0021899344865232706,0.2969062030315399,-1.1648691336261194,3.5080810789622774e-07,-0.1416216790676117,0.5459418892860413,-0.0,-0.03012968972325325,1.254285454750061,-3.6712580573511084e-15,0.11672087013721466
286.0,285.0,1.2526,-2.9533,9.5001,0.037,-0.2465,-0.2227,-1.8019758663573207,-0.1612994372844696,2.7504920959472656,-1.7363555431365967,0.1547611951828003,2.4436819553375244,-1.2293377381614228,-0.00016909361875150353,0.29246464371681213,-1.1648524443255823,0.0001513896422693506,-0.1492769867181778,0.5459256172180176,-0.0,-0.03660638630390167,1.254305362701416,-1.5957867251715848e-24,0.1030479371547699
286.0,285.0,1.2526,-2.9533,9.5001,0.037,-0.2465,-0.2227,-1.8032824001707972,-0.16548208892345428,2.748589277267456,-1.735130786895752,0.1544029861688614,2.4376795291900635,-1.229321764116623,-9.418834815733135e-05,0.2851099967956543,-1.164849106465475,2.751431749103972e-09,-0.12907066941261292,0.5459377765655518,-0.0,-0.02796275168657303,1.2543052434921265,-0.00010516269685467705,0.10555198788642883
286.0,285.0,1.2526,-2.9533,9.5001,0.037,-0.2465,-0.2227,-1.804542680779928,-0.16996699571609497,2.7469940185546875,-1.7338656187057495,0.15264767408370972,2.427684783935547,-1.229301468735077,-6.637212936766446e-05,0.3051028251647949,-1.1648929754840296,5.000590802442355e-14,-0.14356592297554016,0.5459456443786621,-0.0,-0.029563182964920998,1.2543094158172607,-5.795220204163343e-05,0.14088261127471924
301.0,286.0,0.6975,-3.1478,8.5149,-0.0032,0.0979,-0.1407,-1.8063022098936976,-0.16708359122276306,2.733471393585205,-1.7323497533798218,0.15025335550308228,2.521359920501709,-1.229313926105835,-4.250304108666114e-09,0.2920158803462982,-1.164844814931051,5.934027632098056e-20,-0.1334478110074997,0.5459697246551514,-0.0,-0.027695631608366966,1.254353404045105,-8.178671851055697e-05,0.14425034821033478
301.0,286.0,0.6975,-3.1478,8.5149,-0.0032,0.0979,-0.1407,-1.8076845608153285,-0.1617095172405243,2.7241592407226562,-1.7311890125274658,0.15611691772937775,2.5100109577178955,-1.2293708485415955,-7.72471821751386e-14,0.2852074205875397,-1.16486102739443,1.0784802411278463e-24,-0.14775356650352478,0.5459738373756409,-0.0,-0.0458657443523407,1.254313588142395,-6.292524834528024e-11,0.16552987694740295
301.0,286.0,0.6975,-3.1478,8.5149,-0.0032,0.0979,-0.1407,-1.8094026050963343,-0.17863887548446655,2.700467586517334,-1.7295931577682495,0.1576109230518341,2.459670305252075,-1.2293499869159241,1.8307982685428215e-08,0.2885594367980957,-1.164844814931051,1.2797951182148165e-30,-0.13179998099803925,0.5459174513816833,-0.0,-0.03686167672276497,1.2542893886566162,-2.7351738311611677e-20,0.14653481543064117
301.0,286.0,0.6975,-3.1478,8.5149,-0.0032,0.0979,-0.1407,-1.8108893833556117,-0.19187304377555847,2.785297393798828,-1.72829270362854,0.15509113669395447,2.5399010181427,-1.2293217343143006,3.327385025495011e-13,0.3265700340270996,-1.1648286024676722,2.3259641029133734e-35,-0.142217755317688,0.5459534525871277,-0.0,-0.027616944164037704,1.2543015480041504,-8.861613897203827e-28,0.150325745344162
301.0,286.0,0.6975,-3.1478,8.5149,-0.0032,0.0979,-0.1407,-1.8127719364561976,-0.17631524801254272,2.830063819885254,-1.726736307144165,0.16245006024837494,2.5188488960266113,-1.2293258172324677,0.00045449810568243265,0.3201754093170166,-1.1648848692523401,-8.969954797066748e-05,-0.14790526032447815,0.5458974838256836,-0.0,-0.03935815393924713,1.2543094158172607,-3.851879802010377e-37,0.21981185674667358
301.0,286.0,0.6975,-3.1478,8.5149,-0.0032,0.0979,-0.1407,-1.8141972027220667,-0.17737728357315063,2.8310279846191406,-1.7254866361618042,0.1680682748556137,2.5248072147369385,-1.2294024390033265,3.560629238563706e-06,0.287028968334198,-1.1648882071124476,-0.000431865977589041,-0.1647758185863495,0.5459377765655518,-0.0,-0.046439528465270996,1.2543256282806396,-1.2611686178923354e-44,0.25629350543022156
301.0,286.0,0.6975,-3.1478,8.5149,-0.0032,0.0979,-0.1407,-1.8157884083189906,-0.1953415423631668,2.792663335800171,-1.7241705656051636,0.16803234815597534,2.5280981063842773,-1.2294822496226807,-0.00603641988709569,0.3019770383834839,-1.164856259022848,-0.0003286691498942673,-0.1517118513584137,0.5459096431732178,-0.0,-0.043748319149017334,1.254313349723816,0.0,0.25293558835983276
301.0,286.0,0.6975,-3.1478,8.5149,-0.0032,0.0979,-0.1407,-1.8178068600096644,-0.20026430487632751,2.839085340499878,-1.7224308252334595,0.16206242144107819,2.565526247024536,-1.229417399769165,-0.0006500610033981502,0.30614331364631653,-1.1648924986468714,-0.00032994357752613723,-0.15957623720169067,0.5459174513816833,-0.0,-0.03632322698831558,1.254305362701416,0.0,0.3218204975128174
301.0,286.0,0.6975,-3.1478,8.5149,-0.0032,0.0979,-0.1407,-1.8193737469115199,-0.19000139832496643,2.770618438720703,-1.7211477756500244,0.16666850447654724,2.5782809257507324,-1.229417846804001,-1.181453512799635e-08,0.29635491967201233,-1.164884392415182,-0.0002931391936726868,-0.16882982850074768,0.5459778904914856,-2.551078237544857e-10,-0.0378526896238327,1.2543416023254395,0.0,0.3628529906272888
301.0,286.0,0.6975,-3.1478,8.5149,-0.0032,0.0979,-0.1407,-1.8212353191771449,-0.1942003071308136,2.8807544708251953,-1.719435691833496,0.1682831197977066,2.6002988815307617,-1.229417846804001,-1.4019901301638889e-14,0.29856568574905396,-1.1649087111102503,-0.00024716544430702925,-0.1785716712474823,0.5458773970603943,-3.027275901152168e-16,-0.053013402968645096,1.254321575164795,0.0,0.36839038133621216
309.0,272.0,0.5647,-3.5163,8.3713,-0.0324,-0.0168,-0.1524,-1.822822710076803,-0.19562508165836334,2.856485605239868,-1.7181155681610107,0.16995444893836975,2.613952875137329,-1.2294661861709137,0.0001295680267503485,0.3008083701133728,-1.164924446736471,-0.0002425194252282381,-0.173024520277977,0.5459296703338623,-5.5019243936336236e-21,-0.05490370839834213,1.2543094158172607,0.0,0.403858482837677
309.0,272.0,0.5647,-3.5163,8.3713,-0.0324,-0.0168,-0.1524,-1.8247457943358363,-0.18560005724430084,2.891879081726074,-1.7163792848587036,0.16899895668029785,2.621500015258789,-1.2294583481601258,0.00016101033543236554,0.3067978024482727,-1.1649091879474085,-0.0002671054971870035,-0.18289467692375183,0.5459133386611938,-6.52894334118755e-27,-0.05152971297502518,1.2543014287948608,0.0,0.33402132987976074
309.0,272.0,0.5647,-3.5163,8.3713,-0.0324,-0.0168,-0.1524,-1.8261057339110316,-0.18003258109092712,2.8764290809631348,-1.7150236368179321,0.17377841472625732,2.638413906097412,-1.2293976706317444,0.00013127549027558416,0.287038654088974,-1.1649444738971155,-0.0003021204611286521,-0.17474563419818878,0.545861542224884,-1.1866032426352985e-31,-0.06214309111237526,1.2543416023254395,0.0,0.36721718311309814
309.0,272.0,0.5647,-3.5163,8.3713,-0.0324,-0.0168,-0.1524,-1.8275205097594203,-0.1732150912284851,2.882145404815674,-1.7136636972427368,0.1766476035118103,2.626732349395752,-1.2294583481601258,0.00013178016524761915,0.29363131523132324,-1.1649163405047815,-0.0002902797714341432,-0.19006535410881042,0.5459460616111755,-2.1565919690956716e-36,-0.06114797294139862,1.2543256282806396,0.0,0.352271169424057
309.0,272.0,0.5647,-3.5163,8.3713,-0.0324,-0.0168,-0.1524,-1.8292108974852503,-0.17068533599376678,2.9098153114318848,-1.7118436098098755,0.17011481523513794,2.6129791736602783,-1.229425625210144,0.00010097222548210993,0.30243757367134094,-1.1649568716632288,-0.0003784512518905103,-0.2024824619293213,0.5459296107292175,-2.558770995857116e-42,-0.06666265428066254,1.2543299198150635,0.00014701145119033754,0.4119744300842285
309.0,272.0,0.5647,-3.5163,8.3713,-0.0324,-0.0168,-0.1524,-1.8305169544615687,-0.16154086589813232,2.915454387664795,-1.7104594707489014,0.17218747735023499,2.631091594696045,-1.2294296783259888,8.246285142377019e-05,0.30174559354782104,-1.1649120489703577,-0.0005095436936244369,-0.20059534907341003,0.5459173917770386,-0.0,-0.07714306563138962,1.2542816400527954,0.0010937604820355773,0.4252374768257141
309.0,272.0,0.5647,-3.5163,8.3713,-0.0324,-0.0168,-0.1524,-1.8319503269591273,-0.15035325288772583,2.952256202697754,-1.7087634801864624,0.17794863879680634,2.683614730834961,-1.2294743818095704,9.836197568802163e-05,0.30419254302978516,-1.1649039427386683,-0.00045089254854246974,-0.19362488389015198,0.5459136962890625,-0.0,-0.07593073695898056,1.254285454750061,0.0006754867499694228,0.4437859058380127
309.0,272.0,0.5647,-3.5163,8.3713,-0.0324,-0.0168,-0.1524,-1.833071847955221,-0.1362638920545578,2.9499142169952393,-1.707323431968689,0.1815439760684967,2.629819869995117,-1.229433850651123,8.757810428505763e-05,0.3072202205657959,-1.1649320761310022,-0.00045016486546956003,-0.20116077363491058,0.5458574295043945,-0.00010209895845036954,-0.07143746316432953,1.254285454750061,0.0003965431242249906,0.43738824129104614
309.0,272.0,0.5647,-3.5163,8.3713,-0.0324,-0.0168,-0.1524,-1.834421773950094,-0.12983326613903046,2.9473350048065186,-1.7055476903915405,0.1869877278804779,2.6841158866882324,-1.2294018429568787,7.535573240602389e-05,0.30536946654319763,-1.1649206320392054,-0.0003201665822416544,-0.19005300104618073,0.5459136962890625,-9.23796760616824e-05,-0.06774669885635376,1.254313349723816,0.00033028575126081705,0.4598287343978882
309.0,272.0,0.5647,-3.5163,8.3713,-0.0324,-0.0168,-0.1524,-1.8353668651976527,-0.13039946556091309,3.0190353393554688,-1.704022765159607,0.1959499716758728,2.655031442642212,-1.2294095915606995,9.033179230755195e-05,0.30216383934020996,-1.1648762861834925,-0.00034205004340037704,-0.21129335463047028,0.5459819436073303,-8.53693054523319e-05,-0.08175703883171082,1.2543376684188843,0.0003095826832577586,0.42994749546051025
309.0,272.0,0.5647,-3.5163,8.3713,-0.0324,-0.0168,-0.1524,-1.8366204700865687,-0.11797872930765152,2.9588303565979004,-1.7019586563110352,0.20111311972141266,2.728067398071289,-1.2294141215137024,0.0001380355388391763,0.3056665062904358,-1.1649320761310022,-0.0003120624169241637,-0.20597216486930847,0.5459378361701965,-9.35671923798509e-05,-0.08962029218673706,1.2542775869369507,0.0001103600807255134,0.45055830478668213
326.0,267.0,1.2359,-3.4828,9.4457,-0.0417,0.0683,-0.1206,-1.837475915948385,-0.09929113835096359,3.0325443744659424,-1.7003791332244873,0.21197238564491272,2.7159430980682373,-1.2293575567058106,0.0007424175855703652,0.3028659224510193,-1.1649568716632288,-0.00034271980985067785,-0.20925341546535492,0.5458533763885498,-8.750296547077596e-05,-0.08762969076633453,1.2542974948883057,8.819892536848783e-05,0.48337745666503906
326.0,267.0,1.2359,-3.4828,9.4457,-0.0417,0.0683,-0.1206,-1.8382641277708949,-0.08528698980808258,3.022233724594116,-1.698707103729248,0.2192244976758957,2.7331809997558594,-1.2294296783259888,1.088624594558496e-05,0.30985787510871887,-1.1649606863604944,-0.00027472712099552155,-0.2157517671585083,0.5459015369415283,-8.217643335228786e-05,-0.07856784760951996,1.2543213367462158,7.374395499937236e-05,0.44871461391448975
326.0,267.0,1.2359,-3.4828,9.4457,-0.0417,0.0683,-0.1206,-1.8391396007933558,-0.09322632849216461,3.0248751640319824,-1.6964709758758545,0.21381933987140656,2.6954641342163086,-1.2294419270804902,1.2918330467848183e-11,0.3049890100955963,-1.1649845282184046,-0.00021900339925196022,-0.18798445165157318,0.5459055304527283,-7.636582449777052e-05,-0.07423587143421173,1.254305362701416,9.180298366118222e-05,0.5023449659347534
326.0,267.0,1.2359,-3.4828,9.4457,-0.0417,0.0683,-0.1206,-1.8398472271361292,-0.09238744527101517,3.0123257637023926,-1.6947060823440552,0.22295720875263214,2.7316818237304688,-1.22940547884021,-0.00017592342919670045,0.31755590438842773,-1.1649726072894495,-0.000218751301872544,-0.19693505764007568,0.545905590057373,-7.227734022308141e-05,-0.07345303148031235,1.2543213367462158,8.081635314738378e-05,0.4721437096595764
326.0,267.0,1.2359,-3.4828,9.4457,-0.0417,0.0683,-0.1206,-1.8407541714110316,-0.08847407251596451,3.0136232376098633,-1.6924102306365967,0.24274274706840515,2.729628086090088,-1.2294940513423462,-0.00012197665637359023,0.30857548117637634,-1.1649482885943812,-0.00013357092393562198,-0.19115765392780304,0.5458855628967285,-6.774372013751417e-05,-0.06549878418445587,1.2543575763702393,-1.8644655597199744e-07,0.4670950770378113
326.0,267.0,1.2359,-3.4828,9.4457,-0.0417,0.0683,-0.1206,-1.8414770565428675,-0.0869249776005745,3.054152250289917,-1.6904374361038208,0.24311311542987823,2.6919610500335693,-1.229417846804001,-0.00010716007818700746,0.30326783657073975,-1.1649401823626917,0.00012633968435693532,-0.1946156620979309,0.5458896160125732,-6.450675573432818e-05,-0.07762929052114487,1.2543336153030396,-6.040631980486514e-15,0.4217302203178406
326.0,267.0,1.2359,-3.4828,9.4457,-0.0417,0.0683,-0.1206,-1.8424016437926234,-0.08330988883972168,3.0735435485839844,-1.68790602684021,0.25745120644569397,2.7484776973724365,-1.2294136744788666,-8.257270383182913e-05,0.3078271746635437,-1.1649444738971155,6.97521900292486e-05,-0.19487535953521729,0.5459256172180176,-6.087107612984255e-05,-0.08337785303592682,1.2543416023254395,-2.6256826994762926e-24,0.44498398900032043
326.0,267.0,1.2359,-3.4828,9.4457,-0.0417,0.0683,-0.1206,-1.843088289300436,-0.0765470638871193,2.9940619468688965,-1.6857975721359253,0.2585199177265167,2.7320497035980225,-1.2294940513423462,-9.897367999656126e-05,0.31312161684036255,-1.1649287382708948,0.00010500411008251831,-0.18825998902320862,0.5459259152412415,-1.2863918641414784e-07,-0.08022221177816391,1.2543574571609497,-8.506876880495447e-32,0.4436910152435303
326.0,267.0,1.2359,-3.4828,9.4457,-0.0417,0.0683,-0.1206,-1.8437077007689417,-0.07838036864995956,3.0168514251708984,-1.6837141513824463,0.2591397762298584,2.728226661682129,-1.2294858557036896,-0.0008008876466192305,0.29314273595809937,-1.1649120489703577,0.00012768834130838513,-0.17500770092010498,0.545933723449707,-2.337953181746899e-12,-0.06263904273509979,1.2543094158172607,-2.756120062483373e-39,0.4248168468475342
326.0,267.0,1.2359,-3.4828,9.4457,-0.0417,0.0683,-0.1206,-1.8445521793761195,-0.08300142735242844,3.0194759368896484,-1.6811058521270752,0.2582705616950989,2.7120604515075684,-1.2294693154147645,-0.0007999068475328386,0.28892743587493896,-1.1649201552020472,0.00020916303037665784,-0.17754609882831573,0.5458974242210388,-2.774368530791377e-18,-0.06649564951658249,1.2543176412582397,0.0,0.3912098705768585
307.0,253.0,0.28,-3.213,9.1675,-0.0472,0.1976,-0.057,-1.84515442470693,-0.08739535510540009,3.0005812644958496,-1.6789538860321045,0.26424339413642883,2.71452260017395,-1.2294573944858094,-0.0004623894055839628,0.28516027331352234,-1.1649201552020472,0.0002135735412593931,-0.18103080987930298,0.5458934307098389,-5.0422777371376655e-23,-0.06322335451841354,1.254325270652771,0.00010088261478813365,0.38993391394615173
307.0,253.0,0.28,-3.213,9.1675,-0.0472,0.1976,-0.057,-1.846074720422262,-0.08867492526769638,3.0256524085998535,-1.676245093345642,0.2759544849395752,2.715818405151367,-1.2294657689384003,-0.00019679167598951608,0.29125848412513733,-1.1649048964129847,0.00020814992603845894,-0.1667547971010208,0.5459256172180176,-5.983496604962385e-29,-0.05237497389316559,1.2542933225631714,0.0010456271702423692,0.37448543310165405
307.0,253.0,0.28,-3.213,9.1675,-0.0472,0.1976,-0.057,-1.8468710384764613,-0.09410254657268524,2.956841230392456,-1.6741101741790771,0.2841746211051941,2.7280755043029785,-1.2294657689384003,-0.0002555247046984732,0.2737959027290344,-1.164901081715719,0.0003008066560141742,-0.17656093835830688,0.5459136962890625,-1.0874705787678299e-33,-0.07339078187942505,1.2543776035308838,0.0007952788146212697,0.36785265803337097
307.0,253.0,0.28,-3.213,9.1675,-0.0472,0.1976,-0.057,-1.8478976688780726,-0.10238026082515717,2.9581501483917236,-1.6711852550506592,0.2881242036819458,2.7001779079437256,-1.2295420926860352,-0.005238853860646486,0.2743997573852539,-1.1648443380938929,0.0009380713454447687,-0.1622704267501831,0.5459097027778625,-1.29046416358751e-39,-0.07318655401468277,1.25434148311615,0.00042873204802162945,0.34721148014068604
307.0,253.0,0.28,-3.213,9.1675,-0.0472,0.1976,-0.057,-1.848724981347555,-0.10105592757463455,2.9680440425872803,-1.6689298152923584,0.28659719228744507,2.7364203929901123,-1.229622022514679,-0.011629659682512283,0.252203106880188,-1.1648805777179163,0.0008013621554709971,-0.1600470244884491,0.5458774566650391,-2.382207389352189e-44,-0.0754552111029625,1.2543573379516602,0.00025090124108828604,0.3113962411880493
307.0,253.0,0.28,-3.213,9.1675,-0.0472,0.1976,-0.057,-1.849605222741598,-0.10488443821668625,2.8998990058898926,-1.6666258573532104,0.2901928722858429,2.6760759353637695,-1.2298020285419007,-0.023627478629350662,0.23705542087554932,-1.1648648420916956,0.0007438445463776588,-0.14746405184268951,0.5459055304527283,-0.0,-0.05850278586149216,1.254381537437439,0.00014604360330849886,0.3262031674385071
307.0,253.0,0.28,-3.213,9.1675,-0.0472,0.1976,-0.057,-1.850687643090719,-0.10782644152641296,2.9393198490142822,-1.663737416267395,0.28339165449142456,2.6523051261901855,-1.2301305693439026,-0.03716925531625748,0.2426806092262268,-1.164820973073141,0.0009038078133016825,-0.12742744386196136,0.5459296107292175,-0.0,-0.07076536118984222,1.2543615102767944,-0.00010434427531436086,0.281699001789093
307.0,253.0,0.28,-3.213,9.1675,-0.0472,0.1976,-0.057,-1.851532598535055,-0.11430485546588898,2.907625675201416,-1.6614813804626465,0.29141324758529663,2.710474967956543,-1.2304507952979584,-0.04198577255010605,0.2044147253036499,-1.1647923628436487,0.0006192302680574358,-0.12988126277923584,0.5458896160125732,-0.0,-0.07990598678588867,1.2543573379516602,-8.470186730846763e-05,0.1891534924507141
307.0,253.0,0.28,-3.213,9.1675,-0.0472,0.1976,-0.057,-1.8526936970152796,-0.12710219621658325,2.8661415576934814,-1.6585935354232788,0.2811686396598816,2.6531076431274414,-1.2308467489532013,-0.04198794811964035,0.20430520176887512,-1.164832894002096,0.0005334533634595573,-0.12312789261341095,0.5458855032920837,-0.0,-0.07853927463293076,1.2543373107910156,-3.4286222216906026e-05,0.2563526928424835
307.0,253.0,0.28,-3.213,9.1675,-0.0472,0.1976,-0.057,-1.8537150822081507,-0.125991091132164,2.8683547973632812,-1.6563217639923096,0.28844836354255676,2.7093515396118164,-1.2310665410808106,-0.028234269469976425,0.18603599071502686,-1.164832894002096,0.00033461052225902677,-0.12209317833185196,0.5459015369415283,-0.0,-0.07605787366628647,1.2544053792953491,-2.9750608518952504e-05,0.1724867820739746
237.0,238.0,0.3045,-4.1575,8.0608,-0.0898,0.1411,-0.0531,-1.8550306759276332,-0.12477409839630127,2.8063087463378906,-1.6533902883529663,0.2787162959575653,2.611708641052246,-1.2312981945327302,-0.011248611845076084,0.2072468400001526,-1.1648452917682093,0.00036349124275147915,-0.12556862831115723,0.5459458827972412,-0.0,-0.07549700886011124,1.2543374300003052,-4.082014493178576e-05,0.2652144730091095
237.0,238.0,0.3045,-4.1575,8.0608,-0.0898,0.1411,-0.0531,-1.856023450891012,-0.1293996125459671,2.8486247062683105,-1.6512434482574463,0.27341923117637634,2.6646299362182617,-1.2313905519298096,-0.002995158778503537,0.19503051042556763,-1.1647723356830042,0.0011517186649143696,-0.09597644209861755,0.5459175109863281,-0.0,-0.06876342743635178,1.2543615102767944,-5.722956484532915e-05,0.17031672596931458
237.0,238.0,0.3045,-4.1575,8.0608,-0.0898,0.1411,-0.0531,-1.8571011028685511,-0.14220747351646423,2.7604920864105225,-1.649075984954834,0.2584365904331207,2.620521306991577,-1.2313823860934754,-0.0012125950306653976,0.2019214630126953,-1.1647527853595179,0.002590586431324482,-0.09744462370872498,0.5458974242210388,-0.0,-0.06031577289104462,1.2543455362319946,-0.00011938939132960513,0.16036325693130493
237.0,238.0,0.3045,-4.1575,8.0608,-0.0898,0.1411,-0.0531,-1.8584958515562953,-0.14469295740127563,2.8284752368927,-1.6463922262191772,0.2584218680858612,2.6243860721588135,-1.2313783925822754,-0.0002566504117567092,0.1825558841228485,-1.164680306111471,0.003274053568020463,-0.10156868398189545,0.545921802520752,-0.0,-0.06654923409223557,1.25433349609375,-0.0002523484290577471,0.12474627047777176
237.0,238.0,0.3045,-4.1575,8.0608,-0.0898,0.1411,-0.0531,-1.8596188030638636,-0.13997788727283478,2.7885797023773193,-1.644412875175476,0.2511429786682129,2.5629186630249023,-1.2313905519298096,-0.00031518671312369406,0.18607664108276367,-1.164713207875387,0.0056489575654268265,-0.0939747765660286,0.5459617972373962,-0.0,-0.0721169039607048,1.2543096542358398,-0.00024733258760534227,0.0871817022562027
237.0,238.0,0.3045,-4.1575,8.0608,-0.0898,0.1411,-0.0531,-1.861046930352682,-0.1442956030368805,2.77998948097229,-1.641917109489441,0.2512837052345276,2.6204776763916016,-1.231454924946167,-0.0007847599335946143,0.17304310202598572,-1.1646412054644983,0.005707369185984135,-0.09165000915527344,0.5458934307098389,-0.0,-0.059236835688352585,1.2543574571609497,-0.0002012431650655344,0.0880444198846817
237.0,238.0,0.3045,-4.1575,8.0608,-0.0898,0.1411,-0.0531,-1.8622542820372523,-0.1541922390460968,2.707510471343994,-1.6400184631347656,0.24132992327213287,2.581143379211426,-1.2314303082278748,-0.00364654790610075,0.16031916439533234,-1.1646373907672327,0.0017908115405589342,-0.07382069528102875,0.5458613038063049,-0.0,-0.06482192873954773,1.2543376684188843,-0.0003055320412386209,0.09620209783315659
237.0,238.0,0.3045,-4.1575,8.0608,-0.0898,0.1411,-0.0531,-1.8637687168517054,-0.16219942271709442,2.7259583473205566,-1.6376465559005737,0.23218432068824768,2.5599312782287598,-1.231434391146042,-0.0017070637550204992,0.17128923535346985,-1.1646249930011194,0.0005932694184593856,-0.07508591562509537,0.545933723449707,-0.0,-0.0792163535952568,1.2542654275894165,-0.001988566480576992,0.0965421199798584
237.0,238.0,0.3045,-4.1575,8.0608,-0.0898,0.1411,-0.0531,-1.8650080166258753,-0.16148947179317474,2.7195961475372314,-1.6357300281524658,0.2324022352695465,2.5501232147216797,-1.2314585608294983,-0.0008706485969014466,0.17757344245910645,-1.1645973364459437,0.00046434695832431316,-0.07880732417106628,0.5458693504333496,-9.36468769197063e-09,-0.06535137444734573,1.2542736530303955,-0.002658258657902479,0.06054583936929703
237.0,238.0,0.3045,-4.1575,8.0608,-0.0898,0.1411,-0.0531,-1.8663603268065394,-0.16950100660324097,2.7985482215881348,-1.6339552402496338,0.22272944450378418,2.5442447662353516,-1.2314102214625855,-0.000588453549426049,0.15878310799598694,-1.1645930449115198,0.0003462594759184867,-0.07372391223907471,0.5458815097808838,-1.7019853137522495e-13,-0.06723594665527344,1.2542414665222168,-0.002375034149736166,0.009166066534817219
207.0,227.0,-0.0861,-3.4026,8.4754,-0.0486,0.1228,-0.0971,-1.8680139980711878,-0.17004269361495972,2.7556986808776855,-1.6316957473754883,0.227797731757164,2.6016736030578613,-1.2314585608294983,-0.00036545563489198685,0.174332857131958,-1.1646249930011194,0.00026217050617560744,-0.08536412566900253,0.5458775758743286,-2.0196868351098071e-19,-0.059260934591293335,1.254245638847351,-0.0011076036607846618,0.060085758566856384
207.0,227.0,-0.0861,-3.4026,8.4754,-0.0486,0.1228,-0.0971,-1.8694492779173792,-0.16558633744716644,2.7544126510620117,-1.6300005912780762,0.23039594292640686,2.6396737098693848,-1.2315069299987336,-0.0002552521473262459,0.16125108301639557,-1.164609734212057,0.0002559451386332512,-0.08252167701721191,0.5459336638450623,-3.670681021381004e-24,-0.07056182622909546,1.254225730895996,-0.0008506452431902289,0.036017272621393204
207.0,227.0,-0.0861,-3.4026,8.4754,-0.0486,0.1228,-0.0971,-1.871244569818014,-0.1896292120218277,2.7990574836730957,-1.6277146339416504,0.2133529633283615,2.6007509231567383,-1.2315391463092347,-0.003661136142909527,0.16763831675052643,-1.1646011511432093,0.00018345454009249806,-0.07629010081291199,0.545881450176239,-4.355869736689535e-30,-0.051818687468767166,1.254225730895996,-0.0008765216334722936,0.07167303562164307
207.0,227.0,-0.0861,-3.4026,8.4754,-0.0486,0.1228,-0.0971,-1.8728119335570277,-0.20554576814174652,2.79379940032959,-1.6260108947753906,0.2109784185886383,2.579303741455078,-1.2314581733993073,-0.0018720903899520636,0.17913547158241272,-1.1646130720721644,0.00014185222971718758,-0.07008076459169388,0.5459097027778625,-7.91657850122571e-35,-0.06142493337392807,1.2541775703430176,-0.0032975298818200827,0.008564712479710579
207.0,227.0,-0.0861,-3.4026,8.4754,-0.0486,0.1228,-0.0971,-1.874855180779928,-0.1916215717792511,2.8510916233062744,-1.6238393783569336,0.21187211573123932,2.605103015899658,-1.231478140955307,-0.000199958318262361,0.18110524117946625,-1.1646092573748987,0.00012253665772732347,-0.07226845622062683,0.545921802520752,-9.394304904833574e-41,-0.0701582282781601,1.2541418075561523,-0.006364062428474426,-0.004563060589134693
207.0,227.0,-0.0861,-3.4026,8.4754,-0.0486,0.1228,-0.0971,-1.876442094842428,-0.19086001813411713,2.87357497215271,-1.6221493482589722,0.2085539549589157,2.5886080265045166,-1.2314863961986084,-0.0001896820031106472,0.17219053208827972,-1.164633576069967,9.411713836016133e-05,-0.08787146955728531,0.5459177494049072,-1.401298464324817e-45,-0.07493161410093307,1.2541579008102417,-0.0037182664964348078,-0.013045063242316246
207.0,227.0,-0.0861,-3.4026,8.4754,-0.0486,0.1228,-0.0971,-1.8780609569945277,-0.20599395036697388,2.830106735229492,-1.6204257011413574,0.2076088935136795,2.632796049118042,-1.2315229040435334,-0.0002277553576277569,0.20070210099220276,-1.164621655141012,3.594635245462996e-06,-0.08153124153614044,0.5459217429161072,-0.0,-0.07435783743858337,1.2540696859359741,-0.0014246950158849359,-0.0007740724831819534
207.0,227.0,-0.0861,-3.4026,8.4754,-0.0486,0.1228,-0.0971,-1.880155702630514,-0.20486871898174286,2.946155071258545,-1.6183744668960571,0.2010200023651123,2.6160407066345215,-1.2314703625491639,-0.00013567622227128595,0.19893166422843933,-1.1645930449115198,4.265629516275737e-12,-0.09290453791618347,0.5458734035491943,-0.0,-0.08022171258926392,1.254065752029419,-0.0016408568480983377,0.03103606402873993
207.0,227.0,-0.0861,-3.4026,8.4754,-0.0486,0.1228,-0.0971,-1.8818146191039027,-0.20194818079471588,2.9132080078125,-1.6167463064193726,0.2062322199344635,2.6622602939605713,-1.2315185231021424,-0.0001445744710508734,0.18922436237335205,-1.1646011511432093,7.75256963490747e-17,-0.08761860430240631,0.5458013415336609,-3.8660647987853736e-05,-0.08471600711345673,1.2540775537490845,-0.0018364349380135536,0.016400344669818878
207.0,227.0,-0.0861,-3.4026,8.4754,-0.0486,0.1228,-0.0971,-1.8838535747923792,-0.21395687758922577,2.9733190536499023,-1.6147668361663818,0.19590646028518677,2.6615800857543945,-1.2315583986094971,-0.0033203144557774067,0.19581425189971924,-1.1646297613727015,9.199704080840854e-23,-0.08019158244132996,0.5459015369415283,-5.0118938816012815e-05,-0.07094088196754456,1.2540980577468872,-0.001208293717354536,0.019180597737431526
196.0,221.0,-0.3404,-3.1436,8.4909,-0.0075,0.0502,-0.1336,-1.8855043850340785,-0.21405206620693207,3.0396568775177,-1.6132558584213257,0.19037167727947235,2.6195971965789795,-1.2315625113299866,-0.0018254573224112391,0.2075170874595642,-1.1646292845355433,1.6720007034516453e-27,-0.07496441900730133,0.5458856225013733,-4.8632668040227145e-05,-0.08204427361488342,1.2540698051452637,-0.0014114193618297577,-0.042975857853889465
196.0,221.0,-0.3404,-3.1436,8.4909,-0.0075,0.0502,-0.1336,-1.8875590763487757,-0.20070606470108032,3.0381994247436523,-1.6113561391830444,0.1991838961839676,2.6350183486938477,-1.2315787833980103,-0.0007254984229803085,0.19401311874389648,-1.1645973364459437,1.9841049761384385e-33,-0.08008526265621185,0.5459217429161072,-5.849885201314464e-05,-0.09728656709194183,1.254006028175354,-0.0021015398669987917,0.005809440277516842
196.0,221.0,-0.3404,-3.1436,8.4909,-0.0075,0.0502,-0.1336,-1.8891736469664515,-0.20425443351268768,2.9449214935302734,-1.6098042726516724,0.19839061796665192,2.6808176040649414,-1.231562392120697,-0.0004210021870676428,0.18820694088935852,-1.1646574179278772,3.606012345511153e-38,-0.06371943652629852,0.545861542224884,-5.579810749622993e-05,-0.09140644967556,1.2540262937545776,-0.0020579553674906492,9.761843830347061e-05
196.0,221.0,-0.3404,-3.1436,8.4909,-0.0075,0.0502,-0.1336,-1.890768667260641,-0.20092624425888062,2.9802613258361816,-1.6082731485366821,0.18993507325649261,2.6621155738830566,-1.2315705579570313,-0.0003632138832472265,0.18372374773025513,-1.1646698156939905,6.558076813040144e-43,-0.09649348258972168,0.5458774566650391,-5.254072311799973e-05,-0.08591224253177643,1.2539777755737305,-0.0023733966518193483,0.049368716776371
196.0,221.0,-0.3404,-3.1436,8.4909,-0.0075,0.0502,-0.1336,-1.8927318058409632,-0.1990593820810318,3.0278830528259277,-1.606364369392395,0.19489771127700806,2.684997320175171,-1.2315783959678193,-0.0002717731986194849,0.2067859023809433,-1.1646531263934534,0.0,-0.09446120262145996,0.5458733439445496,-6.12074727541767e-05,-0.08645498752593994,1.2539700269699097,-0.0019785165786743164,-0.03685283288359642
196.0,221.0,-0.3404,-3.1436,8.4909,-0.0075,0.0502,-0.1336,-1.8942624531187953,-0.19440452754497528,3.028067111968994,-1.6048213243484497,0.1973837912082672,2.677208423614502,-1.2315824788859864,-0.0002613534452393651,0.19896696507930756,-1.1646574179278772,0.0,-0.09172946214675903,0.545881450176239,-5.80508349230513e-05,-0.0831262618303299,1.2539622783660889,-0.001744315610267222,0.030374091118574142
196.0,221.0,-0.3404,-3.1436,8.4909,-0.0075,0.0502,-0.1336,-1.8961497745909632,-0.18578365445137024,3.1063594818115234,-1.60282564163208,0.19074472784996033,2.657985210418701,-1.2315542262843628,-9.613549627829343e-05,0.19106459617614746,-1.1646574179278772,0.0,-0.09757500886917114,0.5458774566650391,-0.00010085506801260635,-0.10621796548366547,1.253954291343689,-0.001044686883687973,0.060105860233306885
196.0,221.0,-0.3404,-3.1436,8.4909,-0.0075,0.0502,-0.1336,-1.89764465908193,-0.18507060408592224,3.08689546585083,-1.6013774871826172,0.19741709530353546,2.7231740951538086,-1.2315907341292878,-7.639107934664935e-05,0.2070605307817459,-1.1646369139300745,0.0,-0.10009688138961792,0.54583340883255,-0.00011652366811176762,-0.09241851419210434,1.2539262771606445,-0.0008602393791079521,0.11003321409225464
196.0,221.0,-0.3404,-3.1436,8.4909,-0.0075,0.0502,-0.1336,-1.8994070492186488,-0.1746634542942047,3.176724910736084,-1.599419116973877,0.20527085661888123,2.7176828384399414,-1.2315381926349183,-3.204283711966127e-05,0.21897701919078827,-1.1646369139300745,0.0,-0.11384904384613037,0.5458574891090393,-0.00012796701048500836,-0.09207476675510406,1.2539143562316895,-0.001760144834406674,0.08558252453804016
196.0,221.0,-0.3404,-3.1436,8.4909,-0.0075,0.0502,-0.1336,-1.9008189640440882,-0.15991084277629852,3.1707777976989746,-1.5976980924606323,0.1996089518070221,2.725620746612549,-1.231546477680542,-2.7990605303784832e-05,0.21801908314228058,-1.1646931807147425,-0.00018161485786549747,-0.122380331158638,0.5458935499191284,-0.0001225318992510438,-0.10059438645839691,1.2539061307907104,-0.0014499352546408772,0.08517308533191681
175.0,202.0,0.8764,-3.5061,8.7183,-0.0217,0.024,-0.111,-1.902104993859762,-0.1618126928806305,3.189814567565918,-1.5961296558380127,0.19818063080310822,2.717653274536133,-1.2316149336150666,-2.489354483259376e-05,0.22132879495620728,-1.1646769682513636,-0.00035689305514097214,-0.11413104832172394,0.5458056330680847,-0.00012992699339520186,-0.09883859753608704,1.2539184093475342,-0.0009120142203755677,0.14172117412090302
