ramyac6/ROB537/final_project/csv/good/good_196.csv
tof_0,tof_1,accelx,accely,accelz,gyrox,gyroy,gyroz,shoulder_lift_joint_position,shoulder_lift_joint_velocity,shoulder_lift_joint_effort,elbow_joint_position,elbow_joint_velocity,elbow_joint_effort,wrist_1_joint_position,wrist_1_joint_velocity,wrist_1_joint_effort,wrist_2_joint_position,wrist_2_joint_velocity,wrist_2_joint_effort,wrist_3_joint_position,wrist_3_joint_velocity,wrist_3_joint_effort,shoulder_pan_joint_position,shoulder_pan_joint_velocity,shoulder_pan_joint_effort
748.0,866.0,1.8126,-0.0359,9.1418,-0.0446,0.0304,-0.1289,-1.660656591454977,0.0,2.479459762573242,-1.8633078336715698,1.8022551493021943e-30,2.0460333824157715,4.821251648455419,-0.0,0.30705076456069946,-1.5969374815570276,0.0,-0.013493259437382221,0.8784642815589905,-0.0,-0.01577235944569111,0.7847233414649963,0.0,-0.051643554121255875
748.0,866.0,1.8126,-0.0359,9.1418,-0.0446,0.0304,-0.1289,-1.6606723270811976,0.0,2.421947956085205,-1.8633109331130981,4.35223339560846e-36,2.078444242477417,4.821235294431009,-0.0,0.28791528940200806,-1.5969494024859827,0.0,0.006061820313334465,0.8784162998199463,-0.0,0.0068458025343716145,0.7847356796264648,0.0,0.012685086578130722
748.0,866.0,1.8126,-0.0359,9.1418,-0.0446,0.0304,-0.1289,-1.6607047520079554,0.0,2.427051544189453,-1.8633036613464355,1.0509738482436128e-41,1.9956037998199463,4.821227553277769,-0.0,0.2890459895133972,-1.5969660917865198,0.0,-0.015528320334851742,0.8784719109535217,-0.0,-0.006892796605825424,0.7847233414649963,0.0,0.03253982216119766
748.0,866.0,1.8126,-0.0359,9.1418,-0.0446,0.0304,-0.1289,-1.660701414147848,0.0,2.409806728363037,-1.8632954359054565,0.0,2.077430248260498,4.821263301163473,-0.0,0.2849825918674469,-1.5969942251788538,0.0,-0.010481368750333786,0.8784441351890564,-0.0,-0.014542348682880402,0.784679114818573,0.0,-0.004234447609633207
748.0,866.0,1.8126,-0.0359,9.1418,-0.0446,0.0304,-0.1289,-1.6606933079161585,0.0,2.461287260055542,-1.8632872104644775,-0.0,2.084301471710205,4.821255790978231,-0.0,0.29042112827301025,-1.5970023314105433,0.0,0.008357109501957893,0.8784884214401245,-0.0,-0.005005029961466789,0.7847195267677307,0.0,0.021669086068868637
748.0,866.0,1.8126,-0.0359,9.1418,-0.0446,0.0304,-0.1289,-1.6606933079161585,0.0,2.4301140308380127,-1.863278865814209,-0.0,2.05769681930542,4.821251633554258,-0.0,0.29905715584754944,-1.5969494024859827,0.0,-0.01708116941154003,0.8784043788909912,-0.0,-0.002275266218930483,0.7847554683685303,0.0,-0.011446788907051086
748.0,866.0,1.8126,-0.0359,9.1418,-0.0446,0.0304,-0.1289,-1.6606890163817347,0.0,2.3883376121520996,-1.8633109331130981,-0.0,2.1004860401153564,4.821275587170877,-0.0,0.2969517409801483,-1.5969818274127405,0.0,0.0046280804090201855,0.8785570859909058,-0.0,0.003310578875243664,0.7847477197647095,0.0,-0.005941418930888176
748.0,866.0,1.8126,-0.0359,9.1418,-0.0446,0.0304,-0.1289,-1.6606809101500453,0.0,2.4705398082733154,-1.8633430004119873,-0.0,2.018681764602661,4.8212435496743105,-0.0,0.2891455888748169,-1.59698993364443,0.0,-0.005972978658974171,0.8785043358802795,-0.0,0.00303820101544261,0.7847315669059753,0.0,-0.019479481503367424
732.0,861.0,1.7743,-0.0574,9.3523,-0.0357,0.0266,-0.1274,-1.6606484852232875,0.0,2.43746280670166,-1.8632789850234985,-0.0,2.0692477226257324,4.821247632592478,-0.0,0.2861853837966919,-1.5969818274127405,0.0,-0.0006657440681010485,0.878471851348877,-0.0,0.004281479399651289,0.7847719192504883,0.0,0.004303705412894487
732.0,861.0,1.7743,-0.0574,9.3523,-0.0357,0.0266,-0.1274,-1.6606961689391078,0.0,2.4418745040893555,-1.86333167552948,-0.0,2.06951904296875,4.821251618653097,-0.0,0.3042861223220825,-1.5969622770892542,0.0,-0.007822418585419655,0.8784802556037903,-0.0,-0.009073956869542599,0.7846992611885071,0.0,0.01095709390938282
732.0,861.0,1.7743,-0.0574,9.3523,-0.0357,0.0266,-0.1274,-1.6607004604735316,0.0,2.426363468170166,-1.8633389472961426,1.867446189862676e-05,2.0488791465759277,4.82123530188159,-0.0,0.29513901472091675,-1.5969412962542933,0.0,-0.004753143060952425,0.8784921169281006,-0.0,-0.007598147727549076,0.7847074270248413,0.0,-0.0022820308804512024
732.0,861.0,1.7743,-0.0574,9.3523,-0.0357,0.0266,-0.1274,-1.6606971226134242,0.0,2.460423707962036,-1.86333167552948,1.951892591023352e-05,2.015315055847168,4.821239459305563,-0.0,0.3164951205253601,-1.5969293753253382,0.0,-0.0024569472298026085,0.8784441351890564,-0.0,-0.01502095628529787,0.7847154140472412,0.0,0.01179285068064928
732.0,861.0,1.7743,-0.0574,9.3523,-0.0357,0.0266,-0.1274,-1.660708566705221,0.0,2.4279985427856445,-1.863339900970459,1.832655652833637e-05,2.0751466751098633,4.821275564819135,-0.0,0.2932225465774536,-1.5969741980182093,0.0,-0.0010345658520236611,0.878471851348877,-0.0,-0.004441819619387388,0.7847030758857727,0.0,-0.02051199972629547
732.0,861.0,1.7743,-0.0574,9.3523,-0.0357,0.0266,-0.1274,-1.6606890163817347,0.0,2.4661357402801514,-1.8633440732955933,1.7271462638746016e-05,2.090524196624756,4.821275542467394,-0.0,0.29728615283966064,-1.5969775358783167,0.0,-0.003544042818248272,0.8784558773040771,-0.0,-0.005330293904989958,0.78474360704422,0.0,0.039565641433000565
732.0,861.0,1.7743,-0.0574,9.3523,-0.0357,0.0266,-0.1274,-1.660640378991598,0.0,2.465453624725342,-1.8632954359054565,1.633128704270348e-05,2.056797504425049,4.821223462909021,-0.0,0.303955078125,-1.596945587788717,0.0,-0.0035950150340795517,0.8784883618354797,-0.0,-0.0021884473972022533,0.7847154140472412,0.0,-0.0010810354724526405
732.0,861.0,1.7743,-0.0574,9.3523,-0.0357,0.0266,-0.1274,-1.6606890163817347,0.0,2.4220192432403564,-1.8633036613464355,1.5488150893361308e-05,2.0734875202178955,4.8212352869804285,-0.0,0.2841314673423767,-1.5969579855548304,0.0,0.004859576933085918,0.8784878849983215,-0.0,0.004037490580230951,0.7847799062728882,0.0,0.00036295619793236256
732.0,861.0,1.7743,-0.0574,9.3523,-0.0357,0.0266,-0.1274,-1.6606890163817347,0.0,2.456307888031006,-1.8633036613464355,1.4727810594195034e-05,2.0846052169799805,4.82123130837039,-0.0,0.29916393756866455,-1.5969732443438929,0.0,-0.018145166337490082,0.8785247802734375,-0.0,0.00167760974727571,0.7847074270248413,0.0,-0.02515365742146969
732.0,861.0,1.7743,-0.0574,9.3523,-0.0357,0.0266,-0.1274,-1.6607047520079554,0.0,2.4746572971343994,-1.8633389472961426,1.4038625522516668e-05,2.053894519805908,4.821231338172712,-0.0,0.29463377594947815,-1.5969660917865198,0.0,-0.006263410672545433,0.8785087466239929,-0.0,-0.006329479161649942,0.7847154140472412,0.0,-0.03906999155879021
732.0,861.0,1.7743,-0.0574,9.3523,-0.0357,0.0266,-0.1274,-1.6607209644713343,0.0,2.4728991985321045,-1.8633397817611694,1.3411059626378119e-05,2.070404052734375,4.8212153045232675,-0.0,0.2955000400543213,-1.596921745930807,0.0,0.0014501067344099283,0.8785002827644348,-0.0,-0.006523064337670803,0.7847195267677307,0.0,-0.040368299931287766
732.0,861.0,1.7743,-0.0574,9.3523,-0.0357,0.0266,-0.1274,-1.660640378991598,0.0,2.435410499572754,-1.8633233308792114,1.2837200301873963e-05,2.088421583175659,4.821263301163473,-0.0,0.29826489090919495,-1.596921745930807,0.0,0.0010608899174258113,0.8784842491149902,-0.0,0.0022525927051901817,0.7847113013267517,0.0,-0.0031326068565249443
732.0,861.0,1.7743,-0.0574,9.3523,-0.0357,0.0266,-0.1274,-1.6606890163817347,0.0,2.4930267333984375,-1.8633636236190796,1.23104291560594e-05,2.095637321472168,4.82123130837039,-0.0,0.30324769020080566,-1.5970061461078089,0.0,-0.00410251272842288,0.8784924149513245,-0.0,0.014241093769669533,0.7847315669059753,0.0,0.015430047176778316
732.0,861.0,1.7743,-0.0574,9.3523,-0.0357,0.0266,-0.1274,-1.660708566705221,0.0,2.498422861099243,-1.8633233308792114,1.1825198271253612e-05,2.0447275638580322,4.821239459305563,-0.0,0.2907121777534485,-1.5970061461078089,0.0,-0.006255646236240864,0.8784477114677429,-0.0,-0.0038939565420150757,0.7847274541854858,0.0,0.009536445140838623
732.0,861.0,1.7743,-0.0574,9.3523,-0.0357,0.0266,-0.1274,-1.6606971226134242,0.0,2.467426300048828,-1.863295316696167,1.1376770089555066e-05,2.0458664894104004,4.821219387441435,-0.0,0.2925741374492645,-1.5969255606280726,0.0,0.008705356158316135,0.8784559369087219,-0.0,-0.0065248822793364525,0.78474360704422,0.0,-0.05370357260107994
771.0,859.0,1.7964,-0.0413,9.2172,-0.0388,0.0316,-0.1271,-1.6607004604735316,0.0,2.4540212154388428,-1.86333167552948,1.096110645448789e-05,2.0663135051727295,4.821215297072687,-0.0,0.29922404885292053,-1.5970061461078089,0.0,-0.00843410287052393,0.8784238696098328,-0.0,0.009551442228257656,0.7847274541854858,0.0,0.023206926882267
771.0,859.0,1.7964,-0.0413,9.2172,-0.0388,0.0316,-0.1271,-1.660668512383932,0.0,2.442364454269409,-1.8632428646087646,1.0574744010227732e-05,2.0485455989837646,4.8212352869804285,-0.0,0.28715425729751587,-1.5969579855548304,0.0,-0.017039978876709938,0.8784162998199463,-0.0,4.076026380062103e-05,0.7846869230270386,0.0,-0.016934167593717575
771.0,859.0,1.7964,-0.0413,9.2172,-0.0388,0.0316,-0.1271,-1.660708566705221,0.0,2.460312843322754,-1.8633068799972534,1.0214688700216357e-05,2.0611205101013184,4.8212517006094835,-0.0,0.2991364598274231,-1.5969856421100062,0.0,-0.0167470034211874,0.8785209655761719,-0.0,0.005900643765926361,0.7847113609313965,0.0,-0.023714963346719742
771.0,859.0,1.7964,-0.0413,9.2172,-0.0388,0.0316,-0.1271,-1.6606365642943324,0.0,2.4228720664978027,-1.8633594512939453,1.1505098882480524e-06,2.0680174827575684,4.821239459305563,-0.0,0.30356067419052124,-1.5970218817340296,0.0,-0.002388689899817109,0.8785087466239929,-0.0,-0.004255802370607853,0.7847154140472412,0.0,-0.011837033554911613
771.0,859.0,1.7964,-0.0413,9.2172,-0.0388,0.0316,-0.1271,-1.660640378991598,0.0,2.4563100337982178,-1.8633357286453247,2.7783463463909586e-12,2.133143424987793,4.8212796104844,-0.0,0.2886994481086731,-1.5970061461078089,0.0,0.0009719920344650745,0.878476083278656,-0.0,-0.010686608962714672,0.7847394943237305,0.0,-0.05916838347911835
771.0,859.0,1.7964,-0.0413,9.2172,-0.0388,0.0316,-0.1271,-1.6606723270811976,0.0,2.4218244552612305,-1.8633201122283936,6.709379821654896e-18,2.0824575424194336,4.821263368218698,-0.0,0.303348183631897,-1.5969775358783167,0.0,-0.015481524169445038,0.878412127494812,-0.0,-0.0009719030931591988,0.7847477197647095,0.0,-0.015014715492725372
771.0,859.0,1.7964,-0.0413,9.2172,-0.0388,0.0316,-0.1271,-1.660652299920553,0.0,2.4215500354766846,-1.8633348941802979,1.6202362067514617e-23,2.077596664428711,4.821243534773149,-0.0,0.30013057589530945,-1.5969579855548304,0.0,-0.004837058484554291,0.8785169124603271,-0.0,-0.002621682360768318,0.7847195267677307,0.0,0.024167010560631752
771.0,859.0,1.7964,-0.0413,9.2172,-0.0388,0.0316,-0.1271,-1.660640378991598,0.0,2.4109091758728027,-1.8633233308792114,3.912680455491667e-29,2.075267791748047,4.821255783527651,-0.0,0.2885052561759949,-1.5969775358783167,0.0,0.0009217698825523257,0.8784399032592773,-0.0,0.0075929537415504456,0.7847033739089966,0.0,0.011347688734531403
771.0,859.0,1.7964,-0.0413,9.2172,-0.0388,0.0316,-0.1271,-1.660668512383932,0.0,2.4427003860473633,-1.8632467985153198,9.448662621995414e-35,2.085550308227539,4.821251618653097,-0.0,0.28680098056793213,-1.5969622770892542,0.0,-0.01110823918133974,0.8784403800964355,-0.0,0.0020501785911619663,0.7847113013267517,0.0,0.012868913821876049
771.0,859.0,1.7964,-0.0413,9.2172,-0.0388,0.0316,-0.1271,-1.6607166729369105,0.0,2.4925174713134766,-1.8632954359054565,2.2817342894600996e-40,2.057645320892334,4.8212153045232675,-0.0,0.2876846194267273,-1.5969775358783167,0.0,-0.00013125850819051266,0.8784604072570801,-0.0,-0.002363181207329035,0.7847030758857727,0.0,0.0028677291702479124
771.0,859.0,1.7964,-0.0413,9.2172,-0.0388,0.0316,-0.1271,-1.6606604061522425,0.0,2.40848445892334,-1.8633028268814087,0.0,2.0427675247192383,4.821251618653097,-0.0,0.26802971959114075,-1.5969856421100062,0.0,-0.009154964238405228,0.8784921169281006,-0.0,-0.013085287064313889,0.7847113013267517,0.0,-0.007493371143937111
771.0,859.0,1.7964,-0.0413,9.2172,-0.0388,0.0316,-0.1271,-1.6606689892210902,0.0,2.461656093597412,-1.8633151054382324,-0.0,2.024362087249756,4.821251618653097,-0.0,0.2920224666595459,-1.5969856421100062,0.0,-0.010779282078146935,0.878471851348877,-0.0,-0.0017524375580251217,0.7847233414649963,0.0,0.05717140808701515
771.0,859.0,1.7964,-0.0413,9.2172,-0.0388,0.0316,-0.1271,-1.6607128582396449,0.0,2.484606981277466,-1.8633193969726562,-0.0,2.031614065170288,4.821243534773149,-0.0,0.3027711808681488,-1.5969942251788538,0.0,-0.012419725768268108,0.8784801959991455,-0.0,-0.005849891342222691,0.7847595810890198,0.0,0.03210604935884476
771.0,859.0,1.7964,-0.0413,9.2172,-0.0388,0.0316,-0.1271,-1.660708566705221,0.0,2.458589792251587,-1.8633068799972534,-0.0,2.0456268787384033,4.82123130837039,-0.0,0.29673370718955994,-1.5969856421100062,0.0,-0.013048163615167141,0.8785087466239929,-0.0,-0.012532712891697884,0.7847678661346436,0.0,-0.013734960928559303
771.0,859.0,1.7964,-0.0413,9.2172,-0.0388,0.0316,-0.1271,-1.6606766186156214,0.0,2.4243502616882324,-1.8632789850234985,-0.0,2.090094566345215,4.82123530188159,-0.0,0.29903173446655273,-1.5969660917865198,0.0,-0.008734653703868389,0.8785123825073242,-0.0,-0.011603676714003086,0.7847394943237305,0.0,0.0023933935444802046
765.0,866.0,1.7749,-0.0664,9.2106,-0.0391,0.0284,-0.1235,-1.6607128582396449,0.0,2.461196184158325,-1.863323450088501,-0.0,2.0428035259246826,4.821251618653097,-0.0,0.29974281787872314,-1.5969536940204065,0.0,-0.01391959935426712,0.8784764409065247,-0.0,-0.009969858452677727,0.7847235798835754,0.0,0.014198665507137775
765.0,866.0,1.7749,-0.0664,9.2106,-0.0391,0.0284,-0.1235,-1.6606689892210902,0.0,2.4582571983337402,-1.8633232116699219,-0.0,2.0605993270874023,4.821247610240736,-0.0,0.30173107981681824,-1.5969775358783167,0.0,-0.010011984035372734,0.8784961700439453,-0.0,-0.013143016025424004,0.784751832485199,0.0,-0.0014906339347362518
765.0,866.0,1.7749,-0.0664,9.2106,-0.0391,0.0284,-0.1235,-1.660652299920553,0.0,2.448709011077881,-1.8632676601409912,-0.0,2.060356616973877,4.821251745312967,-0.0,0.3038789927959442,-1.5969660917865198,0.0,-0.0025755870155990124,0.8784322142601013,-0.0,-0.00814556609839201,0.7847596406936646,0.0,0.01772480271756649
765.0,866.0,1.7749,-0.0664,9.2106,-0.0391,0.0284,-0.1235,-1.660668512383932,0.0,2.4709036350250244,-1.8633275032043457,-0.0,2.0325980186462402,4.82123130837039,-0.0,0.28759825229644775,-1.5969741980182093,0.0,0.012767225503921509,0.8784357905387878,-0.0,-0.0032199276611208916,0.7847236394882202,0.0,-0.016095248982310295
765.0,866.0,1.7749,-0.0664,9.2106,-0.0391,0.0284,-0.1235,-1.6606890163817347,0.0,2.447493076324463,-1.8633275032043457,-0.0,2.0302822589874268,4.821251618653097,-0.0,0.30049973726272583,-1.5969370047198694,0.0,-0.009054083377122879,0.8785127997398376,-0.0,0.0009205273818224669,0.7847071886062622,0.0,0.061356332153081894
765.0,866.0,1.7749,-0.0664,9.2106,-0.0391,0.0284,-0.1235,-1.6606446705260218,0.0,2.4544780254364014,-1.8633233308792114,-0.0,2.0933737754821777,4.821239459305563,-0.0,0.2813987731933594,-1.5969374815570276,0.0,-0.00506040221080184,0.8785291314125061,-0.0,-0.01312211249023676,0.7847514748573303,0.0,-0.02684697136282921
765.0,866.0,1.7749,-0.0664,9.2106,-0.0391,0.0284,-0.1235,-1.6606971226134242,0.0,2.450821876525879,-1.8633068799972534,-0.0,2.0477874279022217,4.8212353242333315,-0.0,0.2816354036331177,-1.5969856421100062,0.0,-0.010037535801529884,0.8784883618354797,-0.0,-0.012660209089517593,0.7847317457199097,0.0,0.018227530643343925
765.0,866.0,1.7749,-0.0664,9.2106,-0.0391,0.0284,-0.1235,-1.6606933079161585,0.0,2.464517116546631,-1.8633109331130981,-0.0,2.1074423789978027,4.821239489107885,-0.0,0.28615403175354004,-1.5970023314105433,0.0,0.0018790984759107232,0.878508448600769,-0.0,0.0014975995291024446,0.7847394347190857,0.0,0.0006811057683080435
765.0,866.0,1.7749,-0.0664,9.2106,-0.0391,0.0284,-0.1235,-1.6607047520079554,0.0,2.484889507293701,-1.8633028268814087,-0.0,2.0327577590942383,4.821263293712892,-0.0,0.283869206905365,-1.5969412962542933,0.0,-0.004739456810057163,0.8784801959991455,-0.0,-0.006512757856398821,0.7847033739089966,0.0,-0.010230638086795807
765.0,866.0,1.7749,-0.0664,9.2106,-0.0391,0.0284,-0.1235,-1.660652299920553,0.0,2.4242899417877197,-1.8632633686065674,-0.0,2.0537681579589844,4.821211541980066,-0.0,0.30524522066116333,-1.596933666859762,0.0,-0.009663572534918785,0.8785524964332581,-0.0,-0.010400643572211266,0.7846989631652832,0.0,-0.032764993607997894
765.0,866.0,1.7749,-0.0664,9.2106,-0.0391,0.0284,-0.1235,-1.6607047520079554,0.0,2.420806884765625,-1.86333167552948,-0.0,2.0562970638275146,4.821268099337377,-0.0,0.29074907302856445,-1.596961800252096,0.0,-0.004698182921856642,0.8784878849983215,-0.0,-0.011178119108080864,0.7847154140472412,0.0,0.0453973188996315
765.0,866.0,1.7749,-0.0664,9.2106,-0.0391,0.0284,-0.1235,-1.6606527767577113,0.0,2.43873929977417,-1.8632913827896118,-0.0,2.0869758129119873,4.821267309575834,-0.0,0.2951207160949707,-1.5969660917865198,0.0,0.002376826014369726,0.8784682750701904,-0.0,-0.012465744279325008,0.7847356796264648,0.0,-0.039758920669555664
765.0,866.0,1.7749,-0.0664,9.2106,-0.0391,0.0284,-0.1235,-1.6607171497740687,0.0,2.454681396484375,-1.8632912635803223,-0.0,2.058170795440674,4.821267294674673,-0.0,0.308756560087204,-1.5969980398761194,0.0,0.00805584341287613,0.8784558773040771,-0.0,-0.004461328033357859,0.7847275137901306,0.0,-0.021757574751973152
765.0,866.0,1.7749,-0.0664,9.2106,-0.0391,0.0284,-0.1235,-1.660640378991598,0.0,2.461730718612671,-1.8633430004119873,-0.0,2.0497679710388184,4.82123530188159,-0.0,0.2928217649459839,-1.59698993364443,0.0,-0.0031477741431444883,0.8784403800964355,-0.0,-0.0007276673568412662,0.78474360704422,0.0,0.02358054369688034
765.0,866.0,1.7749,-0.0664,9.2106,-0.0391,0.0284,-0.1235,-1.660708566705221,0.0,2.4290096759796143,-1.8632996082305908,-0.0,2.075697422027588,4.8212714968021295,-0.0,0.2988261878490448,-1.5969494024859827,0.0,-0.003329104743897915,0.8784801959991455,-0.0,-0.002881579101085663,0.7846951484680176,0.0,-0.003873012959957123
765.0,866.0,1.7749,-0.0664,9.2106,-0.0391,0.0284,-0.1235,-1.6606766186156214,0.0,2.42221736907959,-1.8632789850234985,-0.0,2.021954298019409,4.821259873896398,-0.0,0.2943139672279358,-1.5969579855548304,0.0,-0.01081094890832901,0.878471851348877,-0.0,-0.004664887208491564,0.7847154140472412,0.0,-0.008231686428189278
798.0,843.0,1.7743,-0.0658,9.3374,-0.0374,0.0273,-0.1156,-1.6606723270811976,0.0,2.4253721237182617,-1.8632831573486328,-0.0,2.0923712253570557,4.821243534773149,-0.0,0.2900676429271698,-1.5969494024859827,0.0,-0.007731838617473841,0.8785125017166138,-0.0,0.0005178668070584536,0.7847315669059753,0.0,0.025295905768871307
798.0,843.0,1.7743,-0.0658,9.3374,-0.0374,0.0273,-0.1156,-1.6607047520079554,0.0,2.413743734359741,-1.8633151054382324,-0.0,2.0715556144714355,4.82120747396306,-0.0,0.2930069863796234,-1.5969775358783167,0.0,-0.0051687899976968765,0.8784558773040771,-0.0,0.005491981748491526,0.7847315669059753,0.0,-0.02783098630607128
798.0,843.0,1.7743,-0.0658,9.3374,-0.0374,0.0273,-0.1156,-1.660708566705221,0.0,2.4281115531921387,-1.8633594512939453,-0.0,2.0523691177368164,4.8212516261036775,-0.0,0.29363885521888733,-1.5969732443438929,0.0,-0.007013112306594849,0.8784481883049011,-0.0,0.0029284243937581778,0.7847071886062622,0.0,0.0219316016882658
798.0,843.0,1.7743,-0.0658,9.3374,-0.0374,0.0273,-0.1156,-1.6606890163817347,0.0,2.470231294631958,-1.8632996082305908,-0.0,2.081146717071533,4.821219752519884,-0.0,0.2965683341026306,-1.5969660917865198,0.0,-0.008932683616876602,0.8785087466239929,-0.0,0.0048560695722699165,0.7847113013267517,0.0,0.04480202496051788
798.0,843.0,1.7743,-0.0658,9.3374,-0.0374,0.0273,-0.1156,-1.6607166729369105,0.0,2.427576780319214,-1.86333167552948,-0.0,2.0546364784240723,4.82125577607707,-0.0,0.28909775614738464,-1.5969536940204065,0.0,-0.0030294586904346943,0.8784441351890564,-0.0,-0.01685483194887638,0.7847394943237305,0.0,0.00047063129022717476
798.0,843.0,1.7743,-0.0658,9.3374,-0.0374,0.0273,-0.1156,-1.660701414147848,0.0,2.477778911590576,-1.8633151054382324,-0.0,2.036794662475586,4.821251693158903,-0.0,0.2930733859539032,-1.5969856421100062,0.0,-0.0222802571952343,0.8785247206687927,-0.0,-0.0006118486635386944,0.7847315669059753,0.0,0.011224357411265373
798.0,843.0,1.7743,-0.0658,9.3374,-0.0374,0.0273,-0.1156,-1.6606646976866664,0.0,2.4242496490478516,-1.8633036613464355,-0.0,2.1000425815582275,4.821235272079267,-0.0,0.28767040371894836,-1.5969980398761194,0.0,0.0017921761609613895,0.8785128593444824,-0.0,-0.006838446017354727,0.7847154140472412,0.0,0.023361628875136375
798.0,843.0,1.7743,-0.0658,9.3374,-0.0374,0.0273,-0.1156,-1.660656591454977,0.0,2.476180076599121,-1.863323450088501,-0.0,2.008713960647583,4.821263301163473,-0.0,0.3105606436729431,-1.5970099608050745,0.0,-0.01076456718146801,0.8785087466239929,-0.0,-0.007900778204202652,0.7847315669059753,0.0,0.009521380066871643
798.0,843.0,1.7743,-0.0658,9.3374,-0.0374,0.0273,-0.1156,-1.6607047520079554,0.0,2.484814167022705,-1.8633677959442139,-0.0,2.113027572631836,4.821219305485048,-0.0,0.28509145975112915,-1.5970261732684534,0.0,-0.00477391155436635,0.8784564137458801,-0.0,3.7721358239650726e-05,0.7847154140472412,0.0,-0.04163651168346405
798.0,843.0,1.7743,-0.0658,9.3374,-0.0374,0.0273,-0.1156,-1.6606766186156214,0.0,2.4538116455078125,-1.8632954359054565,-0.0,2.038879156112671,4.821255790978231,-0.0,0.28436416387557983,-1.5969732443438929,0.0,-0.008979273028671741,0.8784399032592773,-0.0,-0.011813720688223839,0.7846750020980835,0.0,-0.0013518915511667728
798.0,843.0,1.7743,-0.0658,9.3374,-0.0374,0.0273,-0.1156,-1.660652299920553,0.0,2.391892910003662,-1.863263487815857,-0.0,2.051330804824829,4.8212033463414095,-0.0,0.29446473717689514,-1.5970142523394983,0.0,-0.0150279700756073,0.8784441351890564,-0.0,-0.020316649228334427,0.7846951484680176,0.0,0.01717197895050049
798.0,843.0,1.7743,-0.0658,9.3374,-0.0374,0.0273,-0.1156,-1.6606723270811976,0.0,2.464353084564209,-1.8633191585540771,-0.0,2.02803373336792,4.821243594377794,-0.0,0.2869597375392914,-1.5969732443438929,0.0,-0.0002502221614122391,0.8784883618354797,-0.0,-0.008783278986811638,0.7846629619598389,0.0,0.043811995536088943
798.0,843.0,1.7743,-0.0658,9.3374,-0.0374,0.0273,-0.1156,-1.6606890163817347,0.0,2.444356918334961,-1.8632789850234985,-0.0,2.0799760818481445,4.821267317026415,-0.0,0.2949139177799225,-1.5969818274127405,0.0,-0.004642709624022245,0.8784523010253906,-0.0,-0.009919322095811367,0.7847315669059753,0.0,-0.0074631101451814175
798.0,843.0,1.7743,-0.0658,9.3374,-0.0374,0.0273,-0.1156,-1.660708566705221,0.0,2.4428634643554688,-1.8633430004119873,-0.0,2.0854530334472656,4.821207496314802,-0.0,0.28489404916763306,-1.5969579855548304,0.0,-0.009542597457766533,0.878471851348877,-0.0,-0.00510846171528101,0.78474360704422,0.0,-0.04325058311223984
798.0,843.0,1.7743,-0.0658,9.3374,-0.0374,0.0273,-0.1156,-1.660652299920553,0.0,2.394075632095337,-1.8633389472961426,-0.0,2.0492899417877197,4.821231263666906,-0.0,0.30036935210227966,-1.5969536940204065,0.0,-0.005508211441338062,0.8785128593444824,-0.0,-0.0039894962683320045,0.7847315669059753,0.0,0.027879733592271805
770.0,863.0,1.7928,-0.0796,9.3182,-0.0344,0.0191,-0.1263,-1.660640378991598,0.0,2.4465584754943848,-1.8633430004119873,-0.0,2.0650343894958496,4.821267287224092,-0.0,0.2993505895137787,-1.5969775358783167,0.0,-0.006139765493571758,0.878488302230835,-0.0,-0.002411745022982359,0.78474360704422,0.0,-0.004160511307418346
770.0,863.0,1.7928,-0.0796,9.3182,-0.0344,0.0191,-0.1263,-1.6606484852232875,0.0,2.4601778984069824,-1.8632872104644775,-0.0,2.0647871494293213,4.82123530933217,-0.0,0.2842709422111511,-1.5969775358783167,0.0,-0.0027666864916682243,0.8784961700439453,-0.0,-0.001112489029765129,0.7847274541854858,0.0,0.07831723988056183
770.0,863.0,1.7928,-0.0796,9.3182,-0.0344,0.0191,-0.1263,-1.660640378991598,0.0,2.4659242630004883,-1.8633357286453247,-0.0,2.0892653465270996,4.821231278568067,-0.0,0.2940652370452881,-1.5969579855548304,0.0,0.01106510404497385,0.8784878849983215,-0.0,0.011328456923365593,0.78474360704422,0.0,0.024766255170106888
770.0,863.0,1.7928,-0.0796,9.3182,-0.0344,0.0191,-0.1263,-1.660652299920553,0.0,2.4124603271484375,-1.8632996082305908,-0.0,2.0680930614471436,4.821247610240736,-0.0,0.30475884675979614,-1.596961800252096,0.0,-0.006322167348116636,0.8785287737846375,-0.0,0.011596150696277618,0.7847315669059753,0.0,0.019232630729675293
770.0,863.0,1.7928,-0.0796,9.3182,-0.0344,0.0191,-0.1263,-1.660640378991598,0.0,2.4386777877807617,-1.8633232116699219,-0.0,2.0255703926086426,4.821239474206724,-0.0,0.2904895544052124,-1.5969703833209437,0.0,0.006625162437558174,0.8785087466239929,-0.0,-0.0034831699449568987,0.784751832485199,0.0,-0.011417951434850693
770.0,863.0,1.7928,-0.0796,9.3182,-0.0344,0.0191,-0.1263,-1.6606766186156214,0.0,2.436549425125122,-1.86333167552948,-0.0,2.0770537853240967,4.8212275607283495,-0.0,0.29267799854278564,-1.5969494024859827,0.0,-0.0082585783675313,0.8785209655761719,-0.0,-0.006315901875495911,0.7847233414649963,0.0,0.017108386382460594
770.0,863.0,1.7928,-0.0796,9.3182,-0.0344,0.0191,-0.1263,-1.6606642208495082,0.0,2.405860185623169,-1.8633068799972534,-0.0,2.0456748008728027,4.821231278568067,-0.0,0.30143728852272034,-1.5969856421100062,0.0,-0.011743748560547829,0.8784842491149902,-0.0,0.003209054470062256,0.7847192883491516,0.0,0.04843083769083023
770.0,863.0,1.7928,-0.0796,9.3182,-0.0344,0.0191,-0.1263,-1.6606766186156214,0.0,2.4413576126098633,-1.8633275032043457,-0.0,2.0394933223724365,4.821275594621458,-0.0,0.2925996780395508,-1.59698993364443,0.0,-0.006692239083349705,0.87850022315979,-0.0,-0.010151330381631851,0.7847315669059753,0.0,0.014967343769967556
770.0,863.0,1.7928,-0.0796,9.3182,-0.0344,0.0191,-0.1263,-1.660684724847311,0.0,2.4305217266082764,-1.8633636236190796,-0.0,2.0598394870758057,4.821247610240736,-0.0,0.3060523271560669,-1.5969818274127405,0.0,-0.016289154067635536,0.8784921169281006,-0.0,-0.01119233388453722,0.7847274541854858,0.0,-0.003321450436487794
770.0,863.0,1.7928,-0.0796,9.3182,-0.0344,0.0191,-0.1263,-1.660684724847311,0.0,2.465230703353882,-1.8633275032043457,-0.0,2.0968475341796875,4.821259188442983,-0.0,0.29758185148239136,-1.5970023314105433,0.0,-0.007790015544742346,0.8785204887390137,-0.0,0.0034879373852163553,0.7847195267677307,0.0,0.035967886447906494
770.0,863.0,1.7928,-0.0796,9.3182,-0.0344,0.0191,-0.1263,-1.6606766186156214,0.0,2.4273295402526855,-1.8633233308792114,-0.0,2.0333828926086426,4.821203242033281,-0.0,0.3005189001560211,-1.5970142523394983,0.0,-0.010466651059687138,0.8784761428833008,-0.0,-0.008655223995447159,0.7846951484680176,0.0,-0.013082293793559074
770.0,863.0,1.7928,-0.0796,9.3182,-0.0344,0.0191,-0.1263,-1.6606604061522425,0.0,2.4792845249176025,-1.8633275032043457,-0.0,2.0568971633911133,4.821215282171526,-0.0,0.30098623037338257,-1.596961800252096,0.0,-0.002090663183480501,0.8784358501434326,-0.0,0.0066587310284376144,0.7847274541854858,0.0,-0.022432303056120872
770.0,863.0,1.7928,-0.0796,9.3182,-0.0344,0.0191,-0.1263,-1.6606890163817347,0.0,2.4553160667419434,-1.8633028268814087,-0.0,2.0238759517669678,4.821231271117487,-0.0,0.29684168100357056,-1.5969374815570276,0.0,-0.01261366531252861,0.8784961700439453,-0.0,0.01318383403122425,0.7847477197647095,0.0,-0.024388736113905907
770.0,863.0,1.7928,-0.0796,9.3182,-0.0344,0.0191,-0.1263,-1.6606365642943324,0.0,2.4460270404815674,-1.8633438348770142,-0.0,2.0559396743774414,4.8212192607815645,-0.0,0.3003186583518982,-1.5970023314105433,0.0,0.0020448612049221992,0.8784842491149902,-0.0,0.01100413128733635,0.7847595810890198,0.0,-0.0335395410656929
770.0,863.0,1.7928,-0.0796,9.3182,-0.0344,0.0191,-0.1263,-1.6606766186156214,0.0,2.4261388778686523,-1.8633068799972534,-0.0,2.0716018676757812,4.821271481900968,-0.0,0.29132401943206787,-1.596933666859762,0.0,-0.010673119686543941,0.8784158229827881,-0.0,-0.004085972905158997,0.7847195267677307,0.0,-0.024291738867759705
773.0,878.0,1.9119,-0.0156,8.985,-0.0362,0.0296,-0.1219,-1.660684724847311,0.0,2.4755935668945312,-1.86333167552948,-0.0,2.047008991241455,4.821247632592478,-0.0,0.29575854539871216,-1.5969660917865198,0.0,-0.009093430824577808,0.8785368800163269,-0.0,-0.013625318184494972,0.7847397923469543,0.0,-0.002039387123659253
773.0,878.0,1.9119,-0.0156,8.985,-0.0362,0.0296,-0.1219,-1.660684724847311,0.0,2.4563710689544678,-1.8633843660354614,-0.0,2.06681752204895,4.821239459305563,-0.0,0.295230507850647,-1.5969818274127405,0.0,-0.001954060746356845,0.8784921169281006,-0.0,0.0081676309928298,0.7847233414649963,0.0,0.0015898155979812145
773.0,878.0,1.9119,-0.0156,8.985,-0.0362,0.0296,-0.1219,-1.660708566705221,0.0,2.4514310359954834,-1.863263487815857,-0.0,2.0534162521362305,4.821279312461176,-0.0,0.2947870194911957,-1.5969374815570276,0.0,-0.0021440789569169283,0.8784322738647461,-0.0,0.0006339300889521837,0.7846992611885071,0.0,0.003628193400800228
773.0,878.0,1.9119,-0.0156,8.985,-0.0362,0.0296,-0.1219,-1.6606890163817347,0.0,2.4377853870391846,-1.8633431196212769,-0.0,2.1018199920654297,4.821239459305563,-0.0,0.2852519154548645,-1.5969660917865198,0.0,-0.0048905606381595135,0.8784801959991455,-0.0,0.008756923489272594,0.7847195267677307,0.0,0.02718571573495865
773.0,878.0,1.9119,-0.0156,8.985,-0.0362,0.0296,-0.1219,-1.6606933079161585,0.0,2.451240301132202,-1.8633077144622803,-0.0,2.099724531173706,4.821291561215677,-0.0,0.29482656717300415,-1.5969660917865198,0.0,-0.019481929019093513,0.8784961700439453,-0.0,0.003865982871502638,0.78474360704422,0.0,-0.025125760585069656
773.0,878.0,1.9119,-0.0156,8.985,-0.0362,0.0296,-0.1219,-1.6606723270811976,0.0,2.4066665172576904,-1.8633512258529663,-0.0,2.050999641418457,4.821267309575834,-0.0,0.29145485162734985,-1.5969856421100062,0.0,-0.004089632071554661,0.878488302230835,-0.0,-0.0025920525658875704,0.7847315669059753,0.0,0.01477906759828329
773.0,878.0,1.9119,-0.0156,8.985,-0.0362,0.0296,-0.1219,-1.6606484852232875,0.0,2.4823923110961914,-1.8632996082305908,-0.0,2.1047959327697754,4.821259858995237,-0.0,0.29992181062698364,-1.596961800252096,0.0,-0.00610176008194685,0.8784682750701904,-0.0,0.005011964589357376,0.7847113013267517,0.0,0.011662213131785393
773.0,878.0,1.9119,-0.0156,8.985,-0.0362,0.0296,-0.1219,-1.6606933079161585,0.0,2.4797444343566895,-1.86333167552948,-0.0,2.0823774337768555,4.8212234554584406,-0.0,0.2940845191478729,-1.5969694296466272,0.0,-0.005398294888436794,0.8784961700439453,-0.0,-0.00200054538436234,0.7846992611885071,0.0,-0.008931541815400124
773.0,878.0,1.9119,-0.0156,8.985,-0.0362,0.0296,-0.1219,-1.6606689892210902,0.0,2.4151577949523926,-1.8633275032043457,-0.0,2.0891377925872803,4.821271481900968,-0.0,0.28898921608924866,-1.5969775358783167,0.0,0.005935279186815023,0.8784239292144775,-0.0,-0.015831012278795242,0.7847394943237305,0.0,-0.0182845089584589
773.0,878.0,1.9119,-0.0156,8.985,-0.0362,0.0296,-0.1219,-1.6606646976866664,0.0,2.501577854156494,-1.8633151054382324,-0.0,2.0471925735473633,4.821251618653097,-0.0,0.27763715386390686,-1.5969494024859827,0.0,-0.006600288208574057,0.8784723281860352,-0.0,0.003967202268540859,0.7847477197647095,0.0,-0.028447560966014862
773.0,878.0,1.9119,-0.0156,8.985,-0.0362,0.0296,-0.1219,-1.660652299920553,0.0,2.430482864379883,-1.8633594512939453,-0.0,1.982696294784546,4.8212755275662325,-0.0,0.28775754570961,-1.5969536940204065,0.0,-0.0008318988839164376,0.8785042762756348,-0.0,-0.0009195143356919289,0.7847276926040649,0.0,0.005507431924343109
773.0,878.0,1.9119,-0.0156,8.985,-0.0362,0.0296,-0.1219,-1.6606766186156214,0.0,2.447368621826172,-1.8632872104644775,-0.0,2.0908753871917725,4.821259881346979,-0.0,0.29342901706695557,-1.5969660917865198,0.0,-0.014764219522476196,0.878467857837677,-0.0,-0.003730464493855834,0.7847313284873962,0.0,-0.012223916128277779
773.0,878.0,1.9119,-0.0156,8.985,-0.0362,0.0296,-0.1219,-1.6606766186156214,0.0,2.45709228515625,-1.8632954359054565,-0.0,2.0479888916015625,4.821279312461176,-0.0,0.30176761746406555,-1.5969579855548304,0.0,-0.0010066679678857327,0.8784878849983215,-0.0,-0.011440783739089966,0.7847233414649963,0.0,-0.021087702363729477
773.0,878.0,1.9119,-0.0156,8.985,-0.0362,0.0296,-0.1219,-1.660684724847311,0.0,2.4078516960144043,-1.8633078336715698,-0.0,2.043907642364502,4.8212551502283,-0.0,0.29353055357933044,-1.5970099608050745,0.0,-0.0017805651295930147,0.8785087466239929,-0.0,-0.010312095284461975,0.7847151160240173,0.0,0.02120993286371231
773.0,878.0,1.9119,-0.0156,8.985,-0.0362,0.0296,-0.1219,-1.6606365642943324,0.0,2.4615819454193115,-1.8632872104644775,-0.0,2.05161190032959,4.821215311973848,-0.0,0.2902332544326782,-1.5969775358783167,0.0,-0.024607140570878983,0.8784523010253906,-0.0,-0.0040634023025631905,0.7847113013267517,0.0,-0.03138718754053116
779.0,875.0,1.6887,-0.0562,9.3793,-0.0246,0.0157,-0.1188,-1.6606365642943324,0.0,2.494964122772217,-1.8632872104644775,-0.0,2.069528102874756,4.821239459305563,-0.0,0.2963219881057739,-1.5969660917865198,0.0,-0.005471548065543175,0.8784719109535217,-0.0,-0.005242851562798023,0.7847354412078857,0.0,-0.021020861342549324
779.0,875.0,1.6887,-0.0562,9.3793,-0.0246,0.0157,-0.1188,-1.660652299920553,0.0,2.4617137908935547,-1.8633439540863037,-0.0,2.062757968902588,4.821227538376608,-0.0,0.298936665058136,-1.5969579855548304,0.0,-0.0005758131155744195,0.8784483075141907,-0.0,-0.0033533209934830666,0.7847071886062622,0.0,-0.043425917625427246
779.0,875.0,1.6887,-0.0562,9.3793,-0.0246,0.0157,-0.1188,-1.660656591454977,0.0,2.448939800262451,-1.8633471727371216,-0.0,2.048999786376953,4.8212074665124796,-0.0,0.2991834580898285,-1.5969494024859827,0.0,-0.0007164599373936653,0.8784523010253906,-0.0,-0.0073038190603256226,0.7847477197647095,0.0,-0.00564306927844882
779.0,875.0,1.6887,-0.0562,9.3793,-0.0246,0.0157,-0.1188,-1.660656591454977,0.0,2.424180269241333,-1.8633882999420166,-0.0,2.0519137382507324,4.821247617691316,-0.0,0.28755757212638855,-1.596961800252096,0.0,-0.0023390743881464005,0.8785287141799927,-0.0,-0.001585093094035983,0.7846951484680176,0.0,-0.014168950729072094
779.0,875.0,1.6887,-0.0562,9.3793,-0.0246,0.0157,-0.1188,-1.6606723270811976,0.0,2.446100950241089,-1.8633109331130981,-0.0,2.0579652786254883,4.821231323271551,-0.0,0.3004254996776581,-1.5970466772662562,0.0,-0.00034056510776281357,0.8784801959991455,-0.0,-0.013073794543743134,0.7847476601600647,0.0,-0.001045149052515626
779.0,875.0,1.6887,-0.0562,9.3793,-0.0246,0.0157,-0.1188,-1.6607004604735316,0.0,2.4226925373077393,-1.8632789850234985,-0.0,2.0356180667877197,4.821227247803964,-0.0,0.2976103723049164,-1.5969536940204065,0.0,-0.011720594018697739,0.8784682750701904,-0.0,0.00028577636112459004,0.7847074270248413,0.0,-0.03951263427734375
779.0,875.0,1.6887,-0.0562,9.3793,-0.0246,0.0157,-0.1188,-1.6606604061522425,0.0,2.434006690979004,-1.86333167552948,-0.0,2.0337424278259277,4.82123530188159,-0.0,0.30320101976394653,-1.5969374815570276,0.0,-0.017658162862062454,0.878444254398346,-0.0,-0.0030169212259352207,0.7847554683685303,0.0,0.023382965475320816
779.0,875.0,1.6887,-0.0562,9.3793,-0.0246,0.0157,-0.1188,-1.6607166729369105,0.0,2.458991765975952,-1.8633553981781006,-0.0,2.0594592094421387,4.821255783527651,-0.0,0.2898283302783966,-1.5970142523394983,0.0,-0.008717255666851997,0.878448486328125,-0.0,0.0033873487263917923,0.7847154140472412,0.0,-0.029851049184799194
779.0,875.0,1.6887,-0.0562,9.3793,-0.0246,0.0157,-0.1188,-1.6606933079161585,0.0,2.4832425117492676,-1.8632872104644775,-0.0,2.061922550201416,4.821255798428812,-0.0,0.2921077609062195,-1.59698993364443,0.0,0.0022421388421207666,0.8785087466239929,-0.0,0.012083396315574646,0.7847274541854858,0.0,-0.011291375383734703
779.0,875.0,1.6887,-0.0562,9.3793,-0.0246,0.0157,-0.1188,-1.6606723270811976,0.0,2.4330222606658936,-1.8633151054382324,-0.0,2.070469617843628,4.821215617447653,-0.0,0.2903638780117035,-1.5969775358783167,0.0,-0.0068629030138254166,0.8784723281860352,-0.0,-0.0003934174310415983,0.7846992611885071,0.0,-0.029836159199476242
779.0,875.0,1.6887,-0.0562,9.3793,-0.0246,0.0157,-0.1188,-1.6606446705260218,0.0,2.452302932739258,-1.8633232116699219,-0.0,2.081827163696289,4.821227218001642,-0.0,0.2889564633369446,-1.5969775358783167,0.0,-0.0062412237748503685,0.8784282803535461,-0.0,0.007746601942926645,0.78474360704422,0.0,0.016395272687077522
779.0,875.0,1.6887,-0.0562,9.3793,-0.0246,0.0157,-0.1188,-1.6606484852232875,0.0,2.470411777496338,-1.8633636236190796,-0.0,2.0571610927581787,4.821263301163473,-0.0,0.2955581545829773,-1.597018067036764,0.0,-0.011343766935169697,0.8784682750701904,-0.0,0.006754531525075436,0.784751832485199,0.0,0.006413360126316547
779.0,875.0,1.6887,-0.0562,9.3793,-0.0246,0.0157,-0.1188,-1.6606446705260218,0.0,2.4289193153381348,-1.8632954359054565,-0.0,2.033106565475464,4.821255783527651,-0.0,0.29897695779800415,-1.596945587788717,0.0,-0.007433559745550156,0.8784879446029663,-0.0,0.0036092891823500395,0.7846951484680176,0.0,0.0205604936927557
779.0,875.0,1.6887,-0.0562,9.3793,-0.0246,0.0157,-0.1188,-1.6606646976866664,0.0,2.4510481357574463,-1.8632386922836304,-0.0,2.058750867843628,4.821251618653097,-0.0,0.30104589462280273,-1.5969703833209437,0.0,-0.008456192910671234,0.8784559965133667,-0.0,-0.005601527635008097,0.784751832485199,0.0,-0.040527183562517166
779.0,875.0,1.6887,-0.0562,9.3793,-0.0246,0.0157,-0.1188,-1.6606604061522425,0.0,2.4742040634155273,-1.863323450088501,-0.0,2.066063642501831,4.821239459305563,-0.0,0.30431076884269714,-1.5969494024859827,0.0,0.0006233402527868748,0.8784482479095459,-0.0,-0.006153132300823927,0.78474360704422,0.0,0.034182511270046234
773.0,834.0,1.7743,-0.4941,9.1681,-0.0577,0.0121,-0.1116,-1.660656591454977,0.0,2.423271894454956,-1.8633636236190796,-0.0,2.0282607078552246,4.821243534773149,-0.0,0.29745641350746155,-1.5970223585711878,0.0,-0.0051486920565366745,0.8785045146942139,-0.0,-0.008002876304090023,0.7847071886062622,0.0,0.016985982656478882
773.0,834.0,1.7743,-0.4941,9.1681,-0.0577,0.0121,-0.1116,-1.660684724847311,0.0,2.4272079467773438,-1.8633192777633667,-0.0,2.0867130756378174,4.821191537171163,-0.0,0.29607081413269043,-1.5969412962542933,0.0,-0.013320722617208958,0.8784882426261902,-0.0,-0.00012141966726630926,0.7847030758857727,0.0,-0.0119477529078722
773.0,834.0,1.7743,-0.4941,9.1681,-0.0577,0.0121,-0.1116,-1.660708566705221,0.0,2.4438984394073486,-1.8632996082305908,-0.0,2.0825326442718506,4.821251618653097,-0.0,0.299193799495697,-1.596961800252096,0.0,-0.013327942229807377,0.8784125447273254,-0.0,-0.004289710428565741,0.7847477197647095,0.0,0.0458444319665432
773.0,834.0,1.7743,-0.4941,9.1681,-0.0577,0.0121,-0.1116,-1.6607252560057582,0.0,2.4258971214294434,-1.863355278968811,-0.0,2.0545363426208496,4.821287455945768,-0.0,0.30188655853271484,-1.5969494024859827,0.0,-0.0256842989474535,0.8784602284431458,-0.0,0.0014655468985438347,0.7847356796264648,0.0,0.04972643777728081
773.0,834.0,1.7743,-0.4941,9.1681,-0.0577,0.0121,-0.1116,-1.660652299920553,0.0,2.393054962158203,-1.863355278968811,-0.0,2.086793899536133,4.821267294674673,-0.0,0.2912716269493103,-1.5970023314105433,0.0,-0.012716738507151604,0.8784523010253906,-0.0,0.011405015364289284,0.784763753414154,0.0,-0.0028907018713653088
773.0,834.0,1.7743,-0.4941,9.1681,-0.0577,0.0121,-0.1116,-1.6606723270811976,0.0,2.4248106479644775,-1.8633191585540771,-0.0,2.097038745880127,4.8212673021252535,-0.0,0.3011087477207184,-1.5969412962542933,0.0,-0.006200453732162714,0.8784602284431458,-0.0,0.00813361257314682,0.7847394943237305,0.0,0.038094937801361084
773.0,834.0,1.7743,-0.4941,9.1681,-0.0577,0.0121,-0.1116,-1.6606689892210902,0.0,2.424534797668457,-1.8633027076721191,-0.0,2.058816432952881,4.821263956814565,-0.0,0.30669572949409485,-1.5969579855548304,0.0,-0.003234735457226634,0.8784642219543457,-0.0,-0.00757776852697134,0.7847151160240173,0.0,0.012859931215643883
773.0,834.0,1.7743,-0.4941,9.1681,-0.0577,0.0121,-0.1116,-1.6607209644713343,0.0,2.4023690223693848,-1.8633471727371216,-0.0,2.0832600593566895,4.821227538376608,-0.0,0.2932836413383484,-1.5969694296466272,0.0,-0.007157138083130121,0.8785004615783691,-0.0,-0.002603002358227968,0.78474360704422,0.0,-0.04422278702259064
773.0,834.0,1.7743,-0.4941,9.1681,-0.0577,0.0121,-0.1116,-1.6606723270811976,0.0,2.490386962890625,-1.8633471727371216,-0.0,2.0334274768829346,4.821231613844194,-0.0,0.30553144216537476,-1.5969818274127405,0.0,-0.00521033676341176,0.87850421667099,-0.0,-0.010502309538424015,0.7847315669059753,0.0,0.018795128911733627
773.0,834.0,1.7743,-0.4941,9.1681,-0.0577,0.0121,-0.1116,-1.6606766186156214,0.0,2.424586772918701,-1.8633151054382324,-0.0,2.0863943099975586,4.821247625141897,-0.0,0.29798775911331177,-1.5969818274127405,0.0,-0.001410219818353653,0.8784801959991455,-0.0,-0.019059961661696434,0.7847716212272644,0.0,-0.013886269181966782
773.0,834.0,1.7743,-0.4941,9.1681,-0.0577,0.0121,-0.1116,-1.660684724847311,0.0,2.473900318145752,-1.8633068799972534,-0.0,2.0488803386688232,4.82128747829751,-0.0,0.29172009229660034,-1.5969856421100062,0.0,-0.011011812835931778,0.8784723281860352,-0.0,-0.010568413883447647,0.7847356796264648,0.0,0.02719518169760704
773.0,834.0,1.7743,-0.4941,9.1681,-0.0577,0.0121,-0.1116,-1.6606604061522425,0.0,2.4657211303710938,-1.8632831573486328,-0.0,2.093756675720215,4.8212673021252535,-0.0,0.2767675817012787,-1.5969494024859827,0.0,-0.013814175501465797,0.8784642219543457,-0.0,-0.001955208368599415,0.7847799062728882,0.0,0.03417935222387314
773.0,834.0,1.7743,-0.4941,9.1681,-0.0577,0.0121,-0.1116,-1.660668512383932,0.0,2.458860397338867,-1.8633109331130981,-0.0,2.027916669845581,4.821243534773149,-0.0,0.298137903213501,-1.596961800252096,0.0,-0.017556020990014076,0.8784602284431458,-0.0,0.0004670405760407448,0.784763753414154,0.0,-0.011021419428288937
773.0,834.0,1.7743,-0.4941,9.1681,-0.0577,0.0121,-0.1116,-1.6606723270811976,0.0,2.506093740463257,-1.8633273839950562,-0.0,2.0479588508605957,4.821219305485048,-0.0,0.2816150188446045,-1.5970099608050745,0.0,-0.0013484419323503971,0.8785001635551453,-0.0,-0.01368381641805172,0.7847315669059753,0.0,-0.03463077172636986
773.0,834.0,1.7743,-0.4941,9.1681,-0.0577,0.0121,-0.1116,-1.6606890163817347,0.0,2.4814436435699463,-1.8632831573486328,-0.0,2.0933752059936523,4.821275222092428,-0.0,0.2838694155216217,-1.5969703833209437,0.0,-0.005134777165949345,0.8784563541412354,-0.0,-0.012329313904047012,0.7847354412078857,0.0,-0.03499478101730347
786.0,831.0,1.8287,-0.0078,8.9294,-0.0573,-0.0121,-0.1483,-1.660701414147848,0.0,2.435722827911377,-1.863303780555725,-0.0,2.034437417984009,4.821183311730184,-0.0,0.28519949316978455,-1.596933666859762,0.0,-0.010317081585526466,0.8784520030021667,-0.0,0.010767650790512562,0.7847192883491516,0.0,-0.021616393700242043
786.0,831.0,1.8287,-0.0078,8.9294,-0.0573,-0.0121,-0.1483,-1.6607052288451136,1.3985704754304606e-06,2.423585891723633,-1.863339900970459,-0.0,2.0487537384033203,4.821247625141897,-0.0,0.292734295129776,-1.5969660917865198,0.0,-0.011364600621163845,0.8784761428833008,-0.0,-0.0018497331766411662,0.7847394943237305,0.0,0.008203350938856602
786.0,831.0,1.8287,-0.0078,8.9294,-0.0573,-0.0121,-0.1483,-1.6606689892210902,3.3773827918387456e-12,2.4426934719085693,-1.8633151054382324,-0.0,2.05067777633667,4.821263301163473,-0.0,0.28025463223457336,-1.5969942251788538,0.0,-0.00023621227592229843,0.8784801959991455,-0.0,0.00025628949515521526,0.7847477197647095,0.0,0.02763485535979271
786.0,831.0,1.8287,-0.0078,8.9294,-0.0573,-0.0121,-0.1483,-1.6606646976866664,8.155981814618764e-18,2.431203603744507,-1.8633275032043457,-0.0,2.0137319564819336,4.821263301163473,-0.0,0.28976958990097046,-1.597018067036764,0.0,-0.003520053345710039,0.87850421667099,-0.0,0.0016480078920722008,0.7847274541854858,0.0,-0.05436061695218086
786.0,831.0,1.8287,-0.0078,8.9294,-0.0573,-0.0121,-0.1483,-1.660708566705221,1.969573634525543e-23,2.4474189281463623,-1.8632913827896118,-0.0,2.0674400329589844,4.821239474206724,-0.0,0.2938477396965027,-1.5969775358783167,0.0,-0.012136833742260933,0.8784682750701904,-0.0,-0.0012975787976756692,0.784763753414154,7.537911733379588e-05,9.841891005635262e-05
786.0,831.0,1.8287,-0.0078,8.9294,-0.0573,-0.0121,-0.1483,-1.6606484852232875,4.756288928647424e-29,2.4307565689086914,-1.86333167552948,-0.0,2.0318055152893066,4.821255641966619,-0.0,0.2959880232810974,-1.5970099608050745,0.0,-0.004206957761198282,0.8785001635551453,-0.0,-0.0008753554429858923,0.7847796082496643,0.00010107232810696587,-0.007142179645597935
786.0,831.0,1.8287,-0.0078,8.9294,-0.0573,-0.0121,-0.1483,-1.660668512383932,1.1485878131860683e-34,2.449479103088379,-1.8632996082305908,-0.0,2.0461437702178955,4.821295033186235,-0.0,0.2873351573944092,-1.597001854573385,0.0,-0.012358074076473713,0.8784961700439453,-0.0,-0.0014686445938423276,0.7847514152526855,0.0007792559335939586,0.00989089347422123
786.0,831.0,1.8287,-0.0078,8.9294,-0.0573,-0.0121,-0.1483,-1.6606961689391078,2.7737021543152564e-40,2.4406814575195312,-1.8633513450622559,-0.0,2.063081741333008,4.821239489107885,-0.0,0.30485543608665466,-1.5970061461078089,0.0,-0.004642276093363762,0.8784523010253906,-0.0,-0.0076645477674901485,0.7847796082496643,0.0011867156717926264,0.013072580099105835
786.0,831.0,1.8287,-0.0078,8.9294,-0.0573,-0.0121,-0.1483,-1.6607004604735316,0.0,2.4435482025146484,-1.8633036613464355,-0.0,2.065594434738159,4.821255761175909,-0.0,0.28915101289749146,-1.597001854573385,0.0,-0.009171491488814354,0.8784723281860352,-0.0,-0.0040087150409817696,0.7847998738288879,0.00106034055352211,-0.00446279114112258
786.0,831.0,1.8287,-0.0078,8.9294,-0.0573,-0.0121,-0.1483,-1.660708566705221,0.0,2.4484333992004395,-1.8633036613464355,-0.0,2.1133780479431152,4.821267175465383,-0.0,0.30280667543411255,-1.5970099608050745,0.0,-0.00594805832952261,0.878516435623169,-0.0,0.0017374143935739994,0.7847916483879089,0.0007656410452909768,0.02489110454916954
786.0,831.0,1.8287,-0.0078,8.9294,-0.0573,-0.0121,-0.1483,-1.6606446705260218,0.0,2.4568052291870117,-1.863255262374878,-0.0,2.0521626472473145,4.821271198778906,-0.0,0.2958604693412781,-1.5970466772662562,0.0,-0.0006216155597940087,0.8785041570663452,-0.0,-0.004277384839951992,0.7847672700881958,0.0005380194052122533,0.0010205183643847704
786.0,831.0,1.8287,-0.0078,8.9294,-0.0573,-0.0121,-0.1483,-1.6606689892210902,0.0,2.4868719577789307,-1.863242745399475,-0.0,2.0721793174743652,4.821211758046903,-0.0,0.30220913887023926,-1.5969856421100062,0.0,-0.012851289473474026,0.8784642815589905,-0.0,-0.019947882741689682,0.7847672700881958,0.00041417445754632354,-0.00516371987760067
786.0,831.0,1.8287,-0.0078,8.9294,-0.0573,-0.0121,-0.1483,-1.6606646976866664,0.0,2.4477696418762207,-1.8633233308792114,-0.0,2.0710620880126953,4.8212593523557565,-0.0,0.3014324903488159,-1.5969937483416956,0.0,-0.006384256295859814,0.8785765767097473,-0.0,-0.007749916985630989,0.7847431898117065,0.00039278969052247703,-0.05927171930670738
786.0,831.0,1.8287,-0.0078,8.9294,-0.0573,-0.0121,-0.1483,-1.6606604061522425,0.0,2.438554048538208,-1.8632994890213013,-0.0,2.033400058746338,4.821239459305563,-0.0,0.2960902154445648,-1.597001854573385,0.0,-0.011705100536346436,0.8785286545753479,-0.0,0.0014095752267166972,0.784767210483551,0.00033251370768994093,-0.009591897018253803
786.0,831.0,1.8287,-0.0078,8.9294,-0.0573,-0.0121,-0.1483,-1.6606723270811976,0.0,2.4453108310699463,-1.8633036613464355,-0.0,2.0749073028564453,4.821231487184324,-0.0,0.2880985736846924,-1.5969732443438929,0.0,-0.005220828577876091,0.8785086870193481,-0.0,0.00726906256750226,0.7847512364387512,0.0012876755790784955,-0.007697145454585552
778.0,874.0,1.7492,-0.2746,9.4259,-0.0342,0.018,-0.1133,-1.6607004604735316,0.0,2.4644150733947754,-1.8632872104644775,-0.0,2.033569574356079,4.8211998520191095,-0.0,0.2956971228122711,-1.5970099608050745,0.0,-0.019121354445815086,0.8784924745559692,-0.0,-0.008762428537011147,0.7848559021949768,0.0019339253194630146,0.04260201007127762
778.0,874.0,1.7492,-0.2746,9.4259,-0.0342,0.018,-0.1133,-1.6607452831664027,0.0,2.4555811882019043,-1.863259196281433,-0.0,2.0877087116241455,4.821267205267706,-0.0,0.28999054431915283,-1.5970099608050745,0.0,-0.013680734671652317,0.8784961104393005,-0.0,-0.0007238844409584999,0.7848438620567322,0.0022722436115145683,0.018462082371115685
778.0,874.0,1.7492,-0.2746,9.4259,-0.0342,0.018,-0.1133,-1.6606933079161585,0.0,2.486248254776001,-1.8633471727371216,-0.0,2.0489659309387207,4.821223723679342,-0.0,0.29765111207962036,-1.5969856421100062,0.0,-0.007789239287376404,0.8784964680671692,-0.0,-0.0049866740591824055,0.7848194241523743,0.002513002371415496,0.024967875331640244
778.0,874.0,1.7492,-0.2746,9.4259,-0.0342,0.018,-0.1133,-1.660656591454977,0.0,2.466146945953369,-1.8633553981781006,5.217364105192246e-06,2.0409202575683594,4.82123543599204,-0.0,0.3001386821269989,-1.5969651381122034,0.0,-0.0006363550201058388,0.8784884214401245,-0.0,0.0049054925329983234,0.7848070859909058,0.0023690229281783104,-0.0029047690331935883
778.0,874.0,1.7492,-0.2746,9.4259,-0.0342,0.018,-0.1133,-1.6606809101500453,0.0,2.4384846687316895,-1.8633118867874146,1.2599320024786476e-11,2.1108055114746094,4.821255641966619,-0.0,0.29823505878448486,-1.5969536940204065,0.0,-0.007557038217782974,0.8784762024879456,-0.0,-0.00350358709692955,0.7848677635192871,0.0019415905699133873,0.025888744741678238
778.0,874.0,1.7492,-0.2746,9.4259,-0.0342,0.018,-0.1133,-1.660684724847311,0.0,2.458641529083252,-1.8632550239562988,0.0008887510048225522,2.0703582763671875,4.821235421090879,-0.0,0.30002743005752563,-1.5969818274127405,0.0,-0.005660532508045435,0.8784720301628113,-0.0,-0.013960538432002068,0.7848194241523743,0.0016155036864802241,0.0038854219019412994
778.0,874.0,1.7492,-0.2746,9.4259,-0.0342,0.018,-0.1133,-1.660668512383932,0.0,2.411222457885742,-1.863235354423523,0.0008026582072488964,2.0903868675231934,4.821227508574285,-0.0,0.29334786534309387,-1.5970061461078089,0.0,-0.0031082690693438053,0.8784680366516113,-0.0,0.00982669834047556,0.7849318981170654,0.001600079471245408,-0.007741542067378759
778.0,874.0,1.7492,-0.2746,9.4259,-0.0342,0.018,-0.1133,-1.6607004604735316,-2.7424948711995967e-05,2.4175615310668945,-1.8632798194885254,0.0006038573337718844,2.0914759635925293,4.8212275234754465,-0.0,0.3006519377231598,-1.5969942251788538,0.0,-0.0014407935086637735,0.8785044550895691,-0.0,-0.0028452002443373203,0.7848998308181763,0.00165127485524863,-0.00643533281981945
778.0,874.0,1.7492,-0.2746,9.4259,-0.0342,0.018,-0.1133,-1.6607653103270472,-5.406337368185632e-05,2.46107816696167,-1.8632839918136597,0.00048244043136946857,2.077456474304199,4.821215662151136,-0.0,0.29705244302749634,-1.5969732443438929,0.0,-0.005843297578394413,0.8785126805305481,-0.0,-0.0022959313355386257,0.7849034667015076,0.002012581331655383,-0.03695246949791908
778.0,874.0,1.7492,-0.2746,9.4259,-0.0342,0.018,-0.1133,-1.6607285938658656,-6.528259837068617e-05,2.45174503326416,-1.8633273839950562,0.00040168152190744877,2.075834274291992,4.82127911874608,-2.5816771653808246e-07,0.29349473118782043,-1.597018067036764,0.0,-0.007047766353935003,0.8785684704780579,-0.0,0.01304781436920166,0.784939706325531,0.002309864154085517,0.009734181687235832
778.0,874.0,1.7492,-0.2746,9.4259,-0.0342,0.018,-0.1133,-1.6607490978636683,-0.0004563228285405785,2.4569828510284424,-1.8633118867874146,0.0003440872533246875,2.054022789001465,4.821239459305563,-7.18619330708492e-11,0.28882312774658203,-1.5969856421100062,0.0,-0.014216512441635132,0.8784801959991455,-0.0,-0.009142923168838024,0.7849109768867493,0.0027786437422037125,0.004329195246100426
778.0,874.0,1.7492,-0.2746,9.4259,-0.0342,0.018,-0.1133,-1.6607567272581996,-0.00041988419252447784,2.4651706218719482,-1.8633356094360352,0.0002352584560867399,2.0976195335388184,4.821223619371214,-0.0006004300666972995,0.28719645738601685,-1.5969660917865198,0.0,-0.008807509206235409,0.8785045146942139,-0.0,0.0025610546581447124,0.7849594354629517,0.0031523872166872025,0.048059962689876556
778.0,874.0,1.7492,-0.2746,9.4259,-0.0342,0.018,-0.1133,-1.6607967815794886,-0.0003971887053921819,2.4617578983306885,-1.8632757663726807,0.0003102689515799284,2.0632100105285645,4.821179675846853,-0.00047832736163400114,0.28806450963020325,-1.59698993364443,0.0,-0.012421450577676296,0.8785043954849243,-0.0,-0.002468910301104188,0.7850400805473328,0.004237912129610777,-0.03286754712462425
778.0,874.0,1.7492,-0.2746,9.4259,-0.0342,0.018,-0.1133,-1.6607729397215785,-0.00038164484431035817,2.455359935760498,-1.8632395267486572,0.0006445790058933198,2.0938560962677,4.821215609997072,-0.0004349983355496079,0.29002195596694946,-1.5969412962542933,0.0,-0.02593104913830757,0.8785485625267029,-0.0,-0.006043786182999611,0.7850115299224854,0.004299935884773731,0.016952995210886
778.0,874.0,1.7492,-0.2746,9.4259,-0.0342,0.018,-0.1133,-1.6607686481871546,-0.00038807885721325874,2.494692325592041,-1.8632280826568604,0.0006277353968471289,2.0486247539520264,4.821223582118311,-0.00035034739994443953,0.28873664140701294,-1.5969703833209437,0.0,-0.005585172213613987,0.878560483455658,-0.0,-0.0010408060625195503,0.785059928894043,0.004211517982184887,0.038402508944272995
778.0,874.0,1.7492,-0.2746,9.4259,-0.0342,0.018,-0.1133,-1.6607405147948207,-0.0009477378334850073,2.4433035850524902,-1.863223910331726,0.0005545172025449574,2.0447328090667725,4.821223634272375,-0.00029324376373551786,0.3015585243701935,-1.5969293753253382,0.0,-0.005236076656728983,0.8784762024879456,-0.0,0.0033065411262214184,0.785051703453064,0.003701216774061322,0.037094853818416595
754.0,840.0,2.1685,-0.1083,9.2967,-0.0495,-0.0156,-0.1028,-1.6607967815794886,-0.00186772714368999,2.4719622135162354,-1.863267421722412,0.0004267473123036325,2.063875675201416,4.821171673923292,-0.0002521514834370464,0.3080916404724121,-1.5969741980182093,0.0,-0.003913312219083309,0.8785126805305481,-0.0,-0.014464549720287323,0.7851157188415527,0.004132549744099379,-0.01405637152493
754.0,840.0,2.1685,-0.1083,9.2967,-0.0495,-0.0156,-0.1028,-1.6608206234373988,-0.003980453126132488,2.4586715698242188,-1.8632590770721436,0.0003322005504742265,2.032822370529175,4.821251298278131,-0.00022116309264674783,0.29089075326919556,-1.5969494024859827,0.0,-0.018665608018636703,0.8785001039505005,-0.0,-0.008859527297317982,0.785119891166687,0.004240425769239664,0.02243628352880478
754.0,840.0,2.1685,-0.1083,9.2967,-0.0495,-0.0156,-0.1028,-1.660872598687643,-0.006181867327541113,2.4557571411132812,-1.8632632493972778,0.00032634931267239153,2.0427803993225098,4.821235383837976,-0.0001969584554899484,0.29836809635162354,-1.596945587788717,0.0,-0.015332480892539024,0.8785086870193481,-0.0,0.003985423129051924,0.7851518988609314,0.004311569035053253,-0.02601030468940735
754.0,840.0,2.1685,-0.1083,9.2967,-0.0495,-0.0156,-0.1028,-1.6608883343138636,-0.006982787046581507,2.47322154045105,-1.863250970840454,0.00027625661459751427,2.0521984100341797,4.8212556568677805,-0.00017753041174728423,0.29815617203712463,-1.5969494024859827,0.0,0.0017626516055315733,0.8785363435745239,-0.0,-0.012794721871614456,0.7851436734199524,0.0040884800255298615,0.033549584448337555
754.0,840.0,2.1685,-0.1083,9.2967,-0.0495,-0.0156,-0.1028,-1.6609403095641078,-0.007512145675718784,2.4077353477478027,-1.863250970840454,0.00027941205189563334,2.058466672897339,4.82123542854146,-0.00016159149527084082,0.28576117753982544,-1.5970223585711878,0.0,-0.004942796658724546,0.8785402774810791,-0.0,-0.0051457821391522884,0.7851717472076416,0.004105200059711933,0.05695096775889397
754.0,840.0,2.1685,-0.1083,9.2967,-0.0495,-0.0156,-0.1028,-1.6610366306700648,-0.00700420280918479,2.4451639652252197,-1.863235354423523,0.00027166170184500515,2.076828956604004,4.82124341556386,-0.00014827905397396535,0.2937930226325989,-1.5969255606280726,0.0,-0.0090721370652318,0.878532350063324,-0.0,0.0018142370972782373,0.7852318286895752,0.004898580256849527,-0.0325460322201252
754.0,840.0,2.1685,-0.1083,9.2967,-0.0495,-0.0156,-0.1028,-1.6610599956908167,-0.006297234445810318,2.4619994163513184,-1.8632404804229736,0.00036574818659573793,2.0158979892730713,4.821187901287832,-0.00013699322880711406,0.30702242255210876,-1.5969732443438929,0.0,-0.02106017991900444,0.878528356552124,-0.0,-0.011895451694726944,0.7852559089660645,0.005472892429679632,-0.02057402767241001
754.0,840.0,2.1685,-0.1083,9.2967,-0.0495,-0.0156,-0.1028,-1.661100526849264,-0.006529287435114384,2.40574049949646,-1.8632237911224365,0.0009367407183162868,2.1032450199127197,4.821227538376608,-0.00012437172699719667,0.28841155767440796,-1.5969942251788538,0.0,-0.00403971690684557,0.8785004615783691,-0.0,-0.002322243060916662,0.7852839827537537,0.005768384784460068,0.034199003130197525
754.0,840.0,2.1685,-0.1083,9.2967,-0.0495,-0.0156,-0.1028,-1.661163946191305,-0.006213584914803505,2.442687749862671,-1.8632559776306152,0.0013188525335863233,2.03981876373291,4.821235421090879,-0.0001163332344731316,0.2909992039203644,-1.5969942251788538,0.0,0.0003353571519255638,0.8784965872764587,-0.0,-0.009755459614098072,0.7853076457977295,0.005142883397638798,0.023179296404123306
754.0,840.0,2.1685,-0.1083,9.2967,-0.0495,-0.0156,-0.1028,-1.6611682377257289,-0.005137857049703598,2.462435483932495,-1.863154649734497,0.0017902485560625792,2.1004221439361572,4.821259628027239,-0.0001092708989745006,0.3044728636741638,-1.5970061461078089,0.0,-0.017672063782811165,0.878516435623169,-0.0,0.0037672840990126133,0.7853315472602844,0.005511215887963772,-0.0005657132714986801
754.0,840.0,2.1685,-0.1083,9.2967,-0.0495,-0.0156,-0.1028,-1.6611997089781703,-0.0040935128927230835,2.423459768295288,-1.863171100616455,0.003061682218685746,2.04158091545105,4.821239459305563,-0.00010301701695425436,0.2962075173854828,-1.5970099608050745,0.0,-0.007467618212103844,0.8784242272377014,-0.0,-0.001027462538331747,0.7853759527206421,0.0059098717756569386,-0.019961681216955185
754.0,840.0,2.1685,-0.1083,9.2967,-0.0495,-0.0156,-0.1028,-1.6612721882262171,-0.0034272032789885998,2.4195847511291504,-1.8631596565246582,0.0038567217998206615,2.0850319862365723,4.821243586927213,-8.944649016484618e-05,0.2914171516895294,-1.5969660917865198,0.0,-0.005611834581941366,0.8784799575805664,-0.0,-0.006128756329417229,0.7854039072990417,0.004999769851565361,0.0542699433863163
754.0,840.0,2.1685,-0.1083,9.2967,-0.0495,-0.0156,-0.1028,-1.6612760029234828,-0.002405573148280382,2.471240520477295,-1.8631680011749268,0.004429154098033905,2.098442792892456,4.821247736900606,-7.703259325353429e-05,0.30499032139778137,-1.597058121358053,0.0,-0.0039942567236721516,0.8784921169281006,-0.0,-0.002712179906666279,0.7854438424110413,0.00418950617313385,0.015924956649541855
754.0,840.0,2.1685,-0.1083,9.2967,-0.0495,-0.0156,-0.1028,-1.661283632318014,-0.0019544356036931276,2.4400510787963867,-1.8630995750427246,0.004017965402454138,2.0776238441467285,4.821223611920633,-7.326774357352406e-05,0.2994198203086853,-1.5969732443438929,0.0,-0.013006912544369698,0.8785445094108582,-0.0,-0.010072463192045689,0.7854599952697754,0.0032132246997207403,0.037174466997385025
754.0,840.0,2.1685,-0.1083,9.2967,-0.0495,-0.0156,-0.1028,-1.661271711389059,-0.0014667147770524025,2.475599765777588,-1.8630716800689697,0.004386184737086296,2.0881764888763428,4.821215289622106,-6.297416985034943e-05,0.29217255115509033,-1.5970099608050745,0.0,-0.012157069519162178,0.878508448600769,-0.0,-0.009205772541463375,0.7854397296905518,0.002433018758893013,0.021064992994070053
755.0,876.0,1.7749,-0.2309,9.3727,-0.0316,0.0185,-0.1158,-1.661283632318014,-0.0009736337815411389,2.441582202911377,-1.8630592823028564,0.004696562886238098,2.061404228210449,4.821267168014803,-5.339970448403619e-05,0.29774564504623413,-1.5969775358783167,0.0,-0.00379792507737875,0.8785402774810791,-0.0,0.0035833893343806267,0.7854679226875305,0.0014880289090797305,0.02343573234975338
755.0,876.0,1.7749,-0.2309,9.3727,-0.0316,0.0185,-0.1158,-1.6612922153868617,-0.0008410582086071372,2.4471378326416016,-1.8629868030548096,0.0051032379269599915,2.0446715354919434,4.82120784649209,-5.1122860895702615e-05,0.3050576150417328,-1.5970061461078089,0.0,-0.00637317169457674,0.8785086870193481,-0.0,0.0017986723687499762,0.7854596972465515,0.0011194216785952449,0.007983007468283176
755.0,876.0,1.7749,-0.2309,9.3727,-0.0316,0.0185,-0.1158,-1.6613003216185511,-0.000643105071503669,2.422915458679199,-1.8630032539367676,0.0055030290968716145,2.0639114379882812,4.821243802994051,-3.698420186992735e-05,0.29384833574295044,-1.5969536940204065,0.0,-0.0035355747677385807,0.8784799575805664,-0.0,-0.0041288225911557674,0.7855162620544434,0.0007861188496463001,-0.010621026158332825
755.0,876.0,1.7749,-0.2309,9.3727,-0.0316,0.0185,-0.1158,-1.6612879238524378,-0.0008870724122971296,2.4535915851593018,-1.8629753589630127,0.005932280328124762,2.02532696723938,4.821247751801767,-3.5331788240000606e-05,0.29814475774765015,-1.5969980398761194,0.0,-0.0030117060523480177,0.8784885406494141,-0.0,0.0009568505920469761,0.7855122089385986,0.0007293599774129689,0.01882271096110344
755.0,876.0,1.7749,-0.2309,9.3727,-0.0316,0.0185,-0.1158,-1.6613079510130824,-0.0014188969507813454,2.4227983951568604,-1.8629275560379028,0.0059829712845385075,2.0993661880493164,4.821223626821794,-3.399713386897929e-05,0.3067176342010498,-1.5969775358783167,0.0,-0.015104042366147041,0.878544270992279,-0.0,-0.00011960277333855629,0.7855042219161987,0.0006434008828364313,0.010081570595502853
755.0,876.0,1.7749,-0.2309,9.3727,-0.0316,0.0185,-0.1158,-1.6613761387267054,-0.0017058707308024168,2.4248945713043213,-1.8628716468811035,0.005419336725026369,2.0480005741119385,4.821271198778906,-3.2759635359980166e-05,0.2946530282497406,-1.5969942251788538,0.0,0.0021242317743599415,0.8785362839698792,-0.0,0.00738927535712719,0.785495936870575,0.0006318846717476845,0.02024361677467823
755.0,876.0,1.7749,-0.2309,9.3727,-0.0316,0.0185,-0.1158,-1.6613360844054164,-0.0018474535318091512,2.4531502723693848,-1.8628913164138794,0.005404134746640921,2.0323519706726074,4.821251618653097,-3.160909182042815e-05,0.2986697852611542,-1.5969494024859827,0.0,0.008044633083045483,0.878564178943634,-0.0,-0.004023483023047447,0.7854676842689514,0.0006313743651844561,-0.005364070646464825
755.0,876.0,1.7749,-0.2309,9.3727,-0.0316,0.0185,-0.1158,-1.661327978173727,-0.0018796903314068913,2.4456279277801514,-1.8628157377243042,0.005492294207215309,2.075672149658203,4.821263301163473,-4.037471444462426e-05,0.3096262216567993,-1.5969536940204065,0.0,-3.08183953166008e-05,0.8785405158996582,-0.0,-0.004946426022797823,0.7854840755462646,0.0005461359396576881,-0.024975808337330818
755.0,876.0,1.7749,-0.2309,9.3727,-0.0316,0.0185,-0.1158,-1.6613675556578578,-0.0017231557285413146,2.4315531253814697,-1.8628156185150146,0.005056512076407671,2.094897508621216,4.821203703969278,-2.599531853775261e-06,0.29624423384666443,-1.5969579855548304,0.0,-0.002399543998762965,0.878496527671814,-0.0,0.0006017012055963278,0.7854877710342407,0.00048797644558362663,0.024996377527713776
755.0,876.0,1.7749,-0.2309,9.3727,-0.0316,0.0185,-0.1158,-1.6613718471922816,-0.002018532482907176,2.4949862957000732,-1.8627277612686157,0.005513924174010754,2.0619311332702637,4.821239489107885,-7.23589355100529e-10,0.3030048906803131,-1.5970099608050745,0.0,-0.009411643259227276,0.878548264503479,-0.0,0.002767082303762436,0.785487711429596,0.0003862455487251282,0.03781722113490105
755.0,876.0,1.7749,-0.2309,9.3727,-0.0316,0.0185,-0.1158,-1.661408086816305,-0.0019786416087299585,2.4333384037017822,-1.862756609916687,0.0055595883168280125,2.0176661014556885,4.821251618653097,-2.0141375546567364e-13,0.2969491183757782,-1.5969694296466272,0.0,-0.0020624923054128885,0.878496527671814,-0.0,-0.014093410223722458,0.785520076751709,0.0004831873520743102,-0.01183466799557209
755.0,876.0,1.7749,-0.2309,9.3727,-0.0316,0.0185,-0.1158,-1.661424299279684,-0.002356714801862836,2.5090160369873047,-1.8626748323440552,0.006195527501404285,2.1320266723632812,4.821215699404039,-5.606426374581489e-17,0.3043611943721771,-1.5969818274127405,0.0,-0.00230300216935575,0.8785245418548584,-0.0,-0.004463686607778072,0.7855687737464905,0.0008732791757211089,0.009001241065561771
755.0,876.0,1.7749,-0.2309,9.3727,-0.0316,0.0185,-0.1158,-1.6614319286742152,-0.0025644085835665464,2.385234832763672,-1.862695574760437,0.006541850510984659,2.059398889541626,4.821251603751936,-1.5605694449589123e-20,0.29591429233551025,-1.5970061461078089,0.0,-0.004844634793698788,0.8784925937652588,-0.0,-0.005741538479924202,0.7855280041694641,0.000856536440551281,0.02178984321653843
755.0,876.0,1.7749,-0.2309,9.3727,-0.0316,0.0185,-0.1158,-1.6614119015135707,-0.002720743417739868,2.4711408615112305,-1.862571358680725,0.007519823964685202,2.0462396144866943,4.821219558804788,-4.343902412075215e-24,0.30031663179397583,-1.5969536940204065,0.0,0.0010418340098112822,0.8784680366516113,-0.0,-0.005486094392836094,0.7855077385902405,0.0007670443737879395,0.0137593112885952
755.0,876.0,1.7749,-0.2309,9.3727,-0.0316,0.0185,-0.1158,-1.6614719829955042,-0.0025874306447803974,2.4119930267333984,-1.8625277280807495,0.008768773637712002,2.0579888820648193,4.821231569140711,-1.2091412858415804e-27,0.2863016128540039,-1.5969818274127405,0.0,-0.013831092044711113,0.8785204291343689,-0.0,-0.00337056047283113,0.785503625869751,0.0006665637483820319,-0.02601778507232666
768.0,842.0,1.7964,-0.2824,9.4666,-0.0373,0.0664,-0.1269,-1.6614796123900355,-0.0027448381297290325,2.4286534786224365,-1.8624913692474365,0.010327914729714394,2.04791259765625,4.821231569140711,-3.3656895312065835e-31,0.29234302043914795,-1.5969942251788538,0.0,-0.00022303475998342037,0.8785204291343689,-0.0,-0.0017330695409327745,0.7855159640312195,0.0007061982760205865,-0.03568851947784424
768.0,842.0,1.7964,-0.2824,9.4666,-0.0373,0.0664,-0.1269,-1.6615401707091273,-0.002824863651767373,2.4271364212036133,-1.862459421157837,0.011994230560958385,2.0411078929901123,4.821255641966619,-9.368519506413888e-35,0.29610562324523926,-1.5969942251788538,0.0,-0.009576575830578804,0.8784682750701904,-0.0,-0.007926270365715027,0.7855519652366638,0.0007338986615650356,0.018081113696098328
768.0,842.0,1.7964,-0.2824,9.4666,-0.0373,0.0664,-0.1269,-1.661515852014059,-0.002528505865484476,2.474148750305176,-1.86231529712677,0.014532326720654964,2.06300687789917,4.821259590774336,-2.607761791468376e-38,0.2857733368873596,-1.5969579855548304,0.0,-0.0010455334559082985,0.8785045146942139,-0.0,-0.003470697673037648,0.7855280637741089,0.000617192592471838,0.020490558817982674
768.0,842.0,1.7964,-0.2824,9.4666,-0.0373,0.0664,-0.1269,-1.661515852014059,-0.0021324101835489273,2.418841600418091,-1.8622355461120605,0.016882166266441345,2.125654458999634,4.821279170900144,-7.258726045202552e-42,0.2930575907230377,-1.5969775358783167,0.0,0.0020652255043387413,0.878528356552124,-0.0,-0.006946400739252567,0.7855076789855957,0.0005451335455290973,-0.028398018330335617
768.0,842.0,1.7964,-0.2824,9.4666,-0.0373,0.0664,-0.1269,-1.661527772943014,-0.001655538915656507,2.4591798782348633,-1.862112283706665,0.019831428304314613,2.072096109390259,4.821219625860014,-1.401298464324817e-45,0.29767143726348877,-1.5969813505755823,0.0,-0.009649878367781639,0.8784961104393005,-0.0,0.00028712651692330837,0.7855035662651062,0.00044421604252420366,0.005590459331870079
768.0,842.0,1.7964,-0.2824,9.4666,-0.0373,0.0664,-0.1269,-1.6615716419615687,-0.001286531682126224,2.450256824493408,-1.8620686531066895,0.024358561262488365,2.1081366539001465,4.821255641966619,-0.0,0.2975378632545471,-1.5969942251788538,0.0,0.005346671212464571,0.8784682750701904,-0.0,-0.00028696225490421057,0.7855399250984192,0.0003748288145288825,0.022737089544534683
768.0,842.0,1.7964,-0.2824,9.4666,-0.0373,0.0664,-0.1269,-1.661539693871969,-0.0010415940778329968,2.477539539337158,-1.8618719577789307,0.026389405131340027,2.08305025100708,4.821267168014803,-0.0,0.28421148657798767,-1.596961800252096,0.0,0.0015547233633697033,0.8785363435745239,-0.0,-0.0007783932378515601,0.7854998111724854,0.0002838642685674131,0.021845176815986633
768.0,842.0,1.7964,-0.2824,9.4666,-0.0373,0.0664,-0.1269,-1.661567827264303,-0.0010403399355709553,2.431260824203491,-1.8617196083068848,0.029500916600227356,2.13033127784729,4.821215699404039,-0.0,0.2939028739929199,-1.5970023314105433,0.0,-0.007711675949394703,0.8785086274147034,-0.0,-0.00787829328328371,0.785568118095398,0.0002499089459888637,-0.010720198974013329
768.0,842.0,1.7964,-0.2824,9.4666,-0.0373,0.0664,-0.1269,-1.6615554294981898,-0.0014831733424216509,2.490971088409424,-1.861539363861084,0.03360352665185928,2.130857467651367,4.821215617447653,-0.0,0.29136261343955994,-1.5969660917865198,0.0,-0.007136764470487833,0.8785204291343689,-0.0,-0.006627840921282768,0.7855197787284851,0.00022333045490086079,-0.027412453666329384
768.0,842.0,1.7964,-0.2824,9.4666,-0.0373,0.0664,-0.1269,-1.6615759334959925,-0.001814475399442017,2.435494899749756,-1.8612720966339111,0.03568968549370766,2.1234230995178223,4.821267168014803,-2.1513194781164202e-07,0.3109340965747833,-1.5969703833209437,0.0,-0.011074467562139034,0.8784523606300354,-0.0,-0.005173989571630955,0.7855642437934875,0.0002018622326431796,-0.016093961894512177
768.0,842.0,1.7964,-0.2824,9.4666,-0.0373,0.0664,-0.1269,-1.6615759334959925,-0.0021718956995755434,2.4433326721191406,-1.861100196838379,0.036608532071113586,2.1356451511383057,4.821227538376608,-5.988277235191575e-11,0.29398113489151,-1.5969980398761194,0.0,0.0016962497029453516,0.878512442111969,-0.0,0.0007358428556472063,0.785584568977356,0.00018415965314488858,-0.005274702329188585
768.0,842.0,1.7964,-0.2824,9.4666,-0.0373,0.0664,-0.1269,-1.6616116962828578,-0.0024619970936328173,2.4872806072235107,-1.8608473539352417,0.03748058155179024,2.114598512649536,4.821215699404039,-1.6668588574296136e-14,0.294917494058609,-1.5969937483416956,0.0,-0.006637999787926674,0.8785165548324585,-0.0,0.013448694720864296,0.7855642437934875,0.00016931156278587878,0.01751236617565155
768.0,842.0,1.7964,-0.2824,9.4666,-0.0373,0.0664,-0.1269,-1.661696573297018,-0.0031248251907527447,2.4892632961273193,-1.8606598377227783,0.03745914623141289,2.120494842529297,4.821195754199781,-4.6397627621089516e-18,0.3023548722267151,-1.5969732443438929,0.0,-0.006816228851675987,0.878508448600769,-0.0,-0.00014075881335884333,0.7855280637741089,0.00017139597912319005,0.024322127923369408
768.0,842.0,1.7964,-0.2824,9.4666,-0.0373,0.0664,-0.1269,-1.6616360149779261,-0.0036192964762449265,2.4712321758270264,-1.8604121208190918,0.037022024393081665,2.1222150325775146,4.821199747710981,-1.291495104175585e-21,0.2925202548503876,-1.5969856421100062,0.0,-0.018183622509241104,0.8784562349319458,-0.0,-0.009437799453735352,0.7855280637741089,0.00016662983398418874,-0.00270277401432395
768.0,842.0,1.7964,-0.2824,9.4666,-0.0373,0.0664,-0.1269,-1.6616717777647914,-0.004644779488444328,2.4019103050231934,-1.8601998090744019,0.03554225340485573,2.1000139713287354,4.821187558561125,-3.594924440677528e-25,0.2968473732471466,-1.596961800252096,0.0,-0.020875660702586174,0.8784641623497009,-0.0,-0.00569544080644846,0.7855560779571533,0.00015581201296299696,0.005385512486100197
759.0,833.0,1.5972,-0.7167,9.1334,-0.0301,0.0548,-0.0919,-1.6617199383177699,-0.005192888434976339,2.454885482788086,-1.86000394821167,0.03389974683523178,2.0915987491607666,4.821227530926027,-0.00023240060545504093,0.29910165071487427,-1.5969818274127405,0.0,0.0007796217687427998,0.8784522414207458,-0.0,-0.007064687553793192,0.7855159640312195,0.00010799581650644541,0.03966647386550903
759.0,833.0,1.5972,-0.7167,9.1334,-0.0301,0.0548,-0.0919,-1.661771913568014,-0.00604648282751441,2.4686460494995117,-1.8598237037658691,0.0323789156973362,2.1176140308380127,4.821223589568891,-0.00020132384088356048,0.29626888036727905,-1.5969293753253382,0.0,-0.0030758632346987724,0.8784801959991455,-0.0,-0.008957182057201862,0.7855159640312195,7.7301352575887e-05,-0.015508774667978287
759.0,833.0,1.5972,-0.7167,9.1334,-0.0301,0.0548,-0.0919,-1.6617871723570765,-0.0061773331835865974,2.468322515487671,-1.8596434593200684,0.02916892245411873,2.1497409343719482,4.821259590774336,-0.0001774958218447864,0.2923997938632965,-1.5969937483416956,0.0,-0.005431841127574444,0.8785045146942139,-0.0,-0.005608788691461086,0.7855480909347534,7.23900884622708e-05,-0.004149962216615677
759.0,833.0,1.5972,-0.7167,9.1334,-0.0301,0.0548,-0.0919,-1.6618234119811,-0.004733756650239229,2.4601891040802,-1.8594807386398315,0.026994967833161354,2.07932710647583,4.821215699404039,-0.00015871220966801047,0.29595160484313965,-1.596933666859762,0.0,-0.0024585966020822525,0.8785245418548584,-0.0,-0.010331224650144577,0.7855604887008667,-0.00017950477194972336,0.0491255521774292
759.0,833.0,1.5972,-0.7167,9.1334,-0.0301,0.0548,-0.0919,-1.6618319950499476,-0.0027508374769240618,2.4409711360931396,-1.8592840433120728,0.0237306896597147,2.0986485481262207,4.821243408113279,-0.00014352439029607922,0.29793933033943176,-1.5969374815570276,0.0,-0.025780465453863144,0.8785204291343689,-0.0,0.009854885749518871,0.7854800224304199,-0.0015263308305293322,-0.028130989521741867
759.0,833.0,1.5972,-0.7167,9.1334,-0.0301,0.0548,-0.0919,-1.6618153057494105,-0.0014268056256696582,2.4312357902526855,-1.8591275215148926,0.024292176589369774,2.120121717453003,4.8212077272828004,-0.00010655343066900969,0.28465455770492554,-1.5969417730914515,0.0,-0.0011214578989893198,0.878528356552124,-0.0,-0.011214146390557289,0.7854759097099304,-0.001915731467306614,0.005422316025942564
759.0,833.0,1.5972,-0.7167,9.1334,-0.0301,0.0548,-0.0919,-1.6618319950499476,-0.0011832739692181349,2.4424099922180176,-1.85895574092865,0.023974718526005745,2.098482131958008,4.82123542854146,-4.374827767605893e-05,0.2956562638282776,-1.5969374815570276,0.0,-0.010303648188710213,0.878528356552124,-0.0,-0.010720573365688324,0.78547203540802,-0.0005709143006242812,-0.045757755637168884
759.0,833.0,1.5972,-0.7167,9.1334,-0.0301,0.0548,-0.0919,-1.6618677578368128,-0.0018922538729384542,2.437723159790039,-1.8589047193527222,0.020702823996543884,2.0861129760742188,4.821219566255369,-3.8090624002506956e-05,0.2947366237640381,-1.5969374815570276,0.0,-0.009957238100469112,0.878532350063324,-0.0,-0.004543074406683445,0.7855162024497986,-0.0003250857116654515,-0.016384301707148552
759.0,833.0,1.5972,-0.7167,9.1334,-0.0301,0.0548,-0.0919,-1.6618315182127894,-0.002672062022611499,2.4333014488220215,-1.8588093519210815,0.018556741997599602,2.134608268737793,4.821271191328325,-3.379839108674787e-05,0.2827379107475281,-1.596905533467428,0.0,-0.017013277858495712,0.8785483837127686,-0.0,-0.003239087760448456,0.7854918837547302,0.00017327733803540468,-0.013235453516244888
759.0,833.0,1.5972,-0.7167,9.1334,-0.0301,0.0548,-0.0919,-1.6619116268553675,-0.0022004982456564903,2.466378927230835,-1.8586560487747192,0.01649641804397106,2.090719223022461,4.821251618653097,-1.3887159866499132e-07,0.29431936144828796,-1.5969980398761194,0.0,-0.012659342959523201,0.8784880042076111,-0.0,0.011040166020393372,0.785520076751709,0.00028160616056993604,0.026836808770895004
759.0,833.0,1.5972,-0.7167,9.1334,-0.0301,0.0548,-0.0919,-1.6618954143919886,-0.0013550069415941834,2.497136116027832,-1.8585319519042969,0.01528627797961235,2.043543815612793,4.821251618653097,-3.865541914338522e-11,0.29894447326660156,-1.596933666859762,0.0,-0.009904400445520878,0.8785603046417236,-0.0,0.0018384570721536875,0.7855684161186218,0.0009121616021730006,-0.03150365874171257
759.0,833.0,1.5972,-0.7167,9.1334,-0.0301,0.0548,-0.0919,-1.6618672809996546,-0.0008688432862982154,2.4945249557495117,-1.858484148979187,0.014182960614562035,2.0778913497924805,4.82123543599204,-1.0759878163696217e-14,0.2912551462650299,-1.5969536940204065,0.0,-0.0013561787782236934,0.8785039782524109,-0.0,0.0034464665222913027,0.7855077385902405,0.0009618373587727547,-0.026633815839886665
759.0,833.0,1.5972,-0.7167,9.1334,-0.0301,0.0548,-0.0919,-1.6618873081602992,-0.0005603791796602309,2.4739298820495605,-1.8584166765213013,0.01175864040851593,2.1378767490386963,4.821243408113279,-2.995051632824093e-18,0.277992844581604,-1.5969255606280726,0.0,-0.009428036399185658,0.8785005807876587,-0.0,-0.01313808374106884,0.7854998111724854,0.000585978792514652,0.022277528420090675
759.0,833.0,1.5972,-0.7167,9.1334,-0.0301,0.0548,-0.0919,-1.6618792019286097,-0.0009216147591359913,2.4846296310424805,-1.8583452701568604,0.009492268785834312,2.0544774532318115,4.821239459305563,-8.336836536895331e-22,0.2927101254463196,-1.5969741980182093,0.0,0.004175204783678055,0.8784965872764587,-0.0,-0.01921628601849079,0.785520076751709,0.0004212956118863076,-0.015550084412097931
759.0,833.0,1.5972,-0.7167,9.1334,-0.0301,0.0548,-0.0919,-1.6619554958739222,-0.0019330113427713513,2.4555246829986572,-1.8582727909088135,0.007618433330208063,2.061574697494507,4.821215699404039,-2.320588920141223e-25,0.3008534908294678,-1.5969575087176722,0.0,-0.007617440074682236,0.8785085082054138,-0.0,0.007856752723455429,0.7855480909347534,0.00032888949499465525,-0.035162653774023056
702.0,838.0,1.6337,-0.2154,9.396,-0.0507,0.0302,-0.1252,-1.6619554958739222,-0.0030714133754372597,2.4375388622283936,-1.8582602739334106,0.004755914211273193,2.0748167037963867,4.821259583323755,-6.459444449881512e-29,0.2980046570301056,-1.5969579855548304,0.0,-0.011850846000015736,0.8784602284431458,-0.0,-0.002663581632077694,0.7855198383331299,0.0003236826159991324,0.02121015265583992
702.0,838.0,1.6337,-0.2154,9.396,-0.0507,0.0302,-0.1252,-1.6619273624815882,-0.003406901378184557,2.4703102111816406,-1.858253002166748,0.002559364540502429,2.0652639865875244,4.821251618653097,-1.7980104450788467e-32,0.28523972630500793,-1.596933666859762,0.0,-0.006308704148977995,0.8784721493721008,-0.0,0.006219808012247086,0.7855077981948853,0.0003639167989604175,-0.005566991865634918
702.0,838.0,1.6337,-0.2154,9.396,-0.0507,0.0302,-0.1252,-1.661983152429098,-0.003585884813219309,2.4464147090911865,-1.8582684993743896,0.0011126790195703506,2.037346601486206,4.82123543599204,-5.004827552011759e-36,0.29465556144714355,-1.5969813505755823,0.0,-0.002394302748143673,0.8784603476524353,-0.0,0.00553247332572937,0.7854915857315063,0.00023068893642630428,-0.0194527730345726
702.0,838.0,1.6337,-0.2154,9.396,-0.0507,0.0302,-0.1252,-1.6620556316771449,-0.004683192353695631,2.477673292160034,-1.8582406044006348,0.0006872480735182762,2.093780040740967,4.821259590774336,-1.3931120786962315e-39,0.28228017687797546,-1.5969494024859827,0.0,-0.007597503252327442,0.8785521984100342,-0.0,-0.0048975092358887196,0.7855320572853088,0.00019962602527812123,0.020643023774027824
702.0,838.0,1.6337,-0.2154,9.396,-0.0507,0.0302,-0.1252,-1.6620313129820765,-0.005156971979886293,2.4750354290008545,-1.8582777976989746,0.0004144466947764158,2.0568575859069824,4.821219566255369,-3.881596746179743e-43,0.28762179613113403,-1.596921745930807,0.0,-0.007811066694557667,0.8785045146942139,-0.0,0.005548766814172268,0.7855519652366638,0.00017617792764212936,-0.0116201713681221
702.0,838.0,1.6337,-0.2154,9.396,-0.0507,0.0302,-0.1252,-1.6620751820006312,-0.006513940170407295,2.4365882873535156,-1.8582686185836792,0.0003246692940592766,2.0620787143707275,4.821263301163473,-0.0,0.2856934666633606,-1.5969098250018519,0.0,-0.005491127725690603,0.8784721493721008,-0.0,0.0037948274984955788,0.7855280637741089,0.00015765998978167772,-0.006002394482493401
702.0,838.0,1.6337,-0.2154,9.396,-0.0507,0.0302,-0.1252,-1.662119527856344,-0.0078672394156456,2.444765090942383,-1.8582571744918823,0.0002668915258254856,2.0933585166931152,4.821203703969278,-0.0,0.2902219891548157,-1.5969374815570276,0.0,-0.0052569531835615635,0.8785045146942139,-0.0,0.007198917213827372,0.7855522036552429,0.00014266448852140456,0.02840789593756199
702.0,838.0,1.6337,-0.2154,9.396,-0.0507,0.0302,-0.1252,-1.6621676884093226,-0.009563639760017395,2.4210617542266846,-1.8582322597503662,0.00022657203953713179,2.0820231437683105,4.821227538376608,-0.0,0.30436089634895325,-1.596893612538473,0.0,0.009838744066655636,0.8784483075141907,-0.0,-0.008031895384192467,0.7855601906776428,0.00010422407649457455,-0.06479429453611374
702.0,838.0,1.6337,-0.2154,9.396,-0.0507,0.0302,-0.1252,-1.662194391290182,-0.010257715359330177,2.406081438064575,-1.858244776725769,0.00019683880964294076,2.0695066452026367,4.821239459305563,-0.0,0.30087366700172424,-1.5969417730914515,0.0,-0.00647619878873229,0.8785561323165894,-0.0,0.008546857163310051,0.7855563163757324,9.589103137841448e-05,-0.014097188599407673
702.0,838.0,1.6337,-0.2154,9.396,-0.0507,0.0302,-0.1252,-1.6622873745360316,-0.011173869483172894,2.432769775390625,-1.8582251071929932,0.00017400355136487633,2.033205986022949,4.821251298278131,-0.0,0.28028056025505066,-1.5968979040728968,1.1297622837247445e-09,-0.0004495767061598599,0.8785125017166138,-0.0,-0.0026011874433606863,0.785568356513977,8.879532106220722e-05,0.03128920495510101
702.0,838.0,1.6337,-0.2154,9.396,-0.0507,0.0302,-0.1252,-1.662375112573141,-0.012227924540638924,2.4221017360687256,-1.8582477569580078,0.00015591604460496455,2.0054569244384766,4.82123542854146,-0.0,0.29844963550567627,-1.5969179312335413,3.1447351775577836e-13,-0.004919232334941626,0.8785601258277893,-0.0,0.007949847728013992,0.7855321168899536,6.21053550275974e-05,0.03962624818086624
702.0,838.0,1.6337,-0.2154,9.396,-0.0507,0.0302,-0.1252,-1.662398477593893,-0.012173074297606945,2.446589708328247,-1.8582488298416138,0.0001412349083693698,2.07959246635437,4.8212077272828004,-0.0,0.2784215807914734,-1.596893612538473,8.753486631109706e-17,0.0005226581124588847,0.8785759806632996,-0.0,0.021127799525856972,0.7855039238929749,-4.948820060235448e-05,-0.055899545550346375
702.0,838.0,1.6337,-0.2154,9.396,-0.0507,0.0302,-0.1252,-1.6624909840025843,-0.013645550236105919,2.420628547668457,-1.858229160308838,0.00012908097414765507,2.0760908126831055,4.821227538376608,-0.0,0.2864152491092682,-1.5969060103045862,2.4365653458799326e-20,-0.0026508579030632973,0.8785681128501892,-0.0,-0.002222105162218213,0.785520076751709,-8.648748189443722e-05,-0.02617448754608631
702.0,838.0,1.6337,-0.2154,9.396,-0.0507,0.0302,-0.1252,-1.6625505886473597,-0.015377633273601532,2.415703058242798,-1.8582332134246826,0.0001188531459774822,2.066662311553955,4.821219558804788,-0.0,0.28251218795776367,-1.5968979040728968,6.7822694979611e-24,-0.011570151895284653,0.878528356552124,-0.0,0.010922620072960854,0.7854759097099304,-0.0001052568040904589,-0.0005354208406060934
702.0,838.0,1.6337,-0.2154,9.396,-0.0507,0.0302,-0.1252,-1.6626864872374476,-0.017357366159558296,2.365478038787842,-1.8582643270492554,0.00011012721370207146,2.0719833374023438,4.821231487184324,-0.0003002526063937694,0.2753596007823944,-1.5968454519854944,0.0002845398848876357,-0.004432646557688713,0.8785601258277893,-0.0,0.014448799192905426,0.7855324149131775,-0.00034751513157971203,-0.002839157124981284
718.0,830.0,0.9565,-0.1836,8.8684,-0.0464,-0.0221,-0.1264,-1.6627828083434046,-0.01985076814889908,2.3713700771331787,-1.8582477569580078,0.00010259485134156421,2.107586622238159,4.821227538376608,-0.00039766848203726113,0.2765049636363983,-1.5968893210040491,0.0003090666141360998,0.010215718299150467,0.878528356552124,-0.0,0.01813557744026184,0.7854840755462646,-0.0004295557737350464,-0.013814399018883705
718.0,830.0,0.9565,-0.1836,8.8684,-0.0464,-0.0221,-0.1264,-1.6629020176329554,-0.02371899038553238,2.325801134109497,-1.8582406044006348,9.602695354260504e-05,2.10736083984375,4.821183579951086,-0.0007439092150889337,0.26833319664001465,-1.5968616644488733,0.0002895010693464428,0.010383247397840023,0.8785681128501892,-0.0,0.02101927250623703,0.7855244278907776,-0.0004554683109745383,-0.0571356825530529
718.0,830.0,0.9565,-0.1836,8.8684,-0.0464,-0.0221,-0.1264,-1.6630336246886195,-0.02861938625574112,2.27748966217041,-1.8581920862197876,0.00010618735541356727,2.050119638442993,4.821239511459627,-0.0006904489127919078,0.2677176892757416,-1.5968979040728968,0.0002739413466770202,0.0037010526284575462,0.8785839080810547,-0.0,0.030010003596544266,0.785536527633667,-0.00044892256846651435,-0.06869605928659439
718.0,830.0,0.9565,-0.1836,8.8684,-0.0464,-0.0221,-0.1264,-1.6632300815977992,-0.03410477563738823,2.3418943881988525,-1.8582415580749512,0.00010215314250672236,2.075714588165283,4.82120771983222,-0.0005754668964073062,0.2601167559623718,-1.5968697706805628,0.0003209622227586806,0.018033381551504135,0.8785925507545471,-0.0,0.013737272471189499,0.7854315638542175,-0.0004379795282147825,-0.05377300828695297
718.0,830.0,0.9565,-0.1836,8.8684,-0.0464,-0.0221,-0.1264,-1.6634823284544886,-0.039778292179107666,2.2868332862854004,-1.8582488298416138,9.666715050116181e-05,2.0923705101013184,4.82123543599204,-0.0004170651372987777,0.2687256336212158,-1.5968497435199183,0.00026869846624322236,0.016963422298431396,0.8785324096679688,0.00023148968466557562,0.027555538341403008,0.7854759097099304,-0.0004088002606295049,-0.02516075409948826
718.0,830.0,0.9565,-0.1836,8.8684,-0.0464,-0.0221,-0.1264,-1.6637221775450648,-0.04462436959147453,2.279202461242676,-1.8581961393356323,0.0001069592108251527,2.091449737548828,4.8211997402604005,-0.00032626179745420814,0.26228076219558716,-1.596865479146139,0.00022786516638007015,0.02221132628619671,0.8786043524742126,0.00023201064323075116,0.0291758980602026,0.7854841351509094,-0.0003438846324570477,-0.09705352783203125
718.0,830.0,0.9565,-0.1836,8.8684,-0.0464,-0.0221,-0.1264,-1.6640054188170375,-0.05227135121822357,2.2724709510803223,-1.858208417892456,0.0001164752829936333,2.025038957595825,4.821215617447653,-0.00026794621953740716,0.27170637249946594,-1.5968897978412073,0.0002373447350692004,0.015444017015397549,0.8785443305969238,0.0002137627307092771,0.026340197771787643,0.7854800224304199,-0.00029549142345786095,-0.026858365163207054
718.0,830.0,0.9565,-0.1836,8.8684,-0.0464,-0.0221,-0.1264,-1.6642657719054164,-0.05943670496344566,2.25278902053833,-1.8582085371017456,9.501956083113328e-05,2.021489143371582,4.821195806353845,-0.00018346015713177621,0.2574614882469177,-1.5969017187701624,0.00020970901823602617,0.021466486155986786,0.8785402774810791,0.00022276974050328135,0.043202098459005356,0.7854759097099304,-0.00025903942878358066,-0.05849066376686096
718.0,830.0,0.9565,-0.1836,8.8684,-0.0464,-0.0221,-0.1264,-1.6646605930724085,-0.06447535008192062,2.2243449687957764,-1.8581969738006592,0.0010383058106526732,2.041234254837036,4.821227583080091,-0.00015791994519531727,0.2667292654514313,-1.596877400075094,0.0001878231269074604,0.016432706266641617,0.8785560727119446,0.00022980570793151855,0.030977394431829453,0.78547203540802,-0.0002635349810589105,-0.02359951101243496
718.0,830.0,0.9565,-0.1836,8.8684,-0.0464,-0.0221,-0.1264,-1.665048738519186,-0.07020501047372818,2.2381935119628906,-1.8581846952438354,0.001956099644303322,2.0562355518341064,4.821215617447653,-0.00013955103349871933,0.2701742351055145,-1.5968893210040491,0.00017007435963023454,0.02232438512146473,0.8786004185676575,0.00021014237427152693,0.03659854084253311,0.7854960560798645,-0.0002077776298392564,-0.11760389804840088
718.0,830.0,0.9565,-0.1836,8.8684,-0.0464,-0.0221,-0.1264,-1.6655165157713832,-0.07809015363454819,2.2449734210968018,-1.858140230178833,0.0029253321699798107,2.0356156826019287,4.821251305728712,-0.00012501080345828086,0.27296024560928345,-1.596877400075094,0.00015539060404989868,0.01786259189248085,0.8785884380340576,0.00022913128486834466,0.04262029007077217,0.7854759097099304,-0.00018907002231571823,-0.09469149261713028
718.0,830.0,0.9565,-0.1836,8.8684,-0.0464,-0.0221,-0.1264,-1.6659957371153773,-0.08382726460695267,2.231119155883789,-1.8581814765930176,0.0032844715751707554,2.059267997741699,4.821231502085485,-0.00011321516649331897,0.2815389931201935,-1.5968816916095179,0.00014304116484709084,0.021007061004638672,0.8786083459854126,0.0002378311037318781,0.040817566215991974,0.7854477167129517,-0.00017345331434626132,-0.06654594838619232
718.0,830.0,0.9565,-0.1836,8.8684,-0.0464,-0.0221,-0.1264,-1.6665479145445765,-0.08802397549152374,2.2621970176696777,-1.8581690788269043,0.0035059363581240177,2.0819854736328125,4.8211997775133035,-0.00010345376358600333,0.2620691955089569,-1.596877400075094,0.00013251030759420246,0.022328265011310577,0.8786123991012573,0.00021062296582385898,0.03781295567750931,0.7854800224304199,-0.0001602197007741779,-0.004379834048449993
718.0,830.0,0.9565,-0.1836,8.8684,-0.0464,-0.0221,-0.1264,-1.667074819604391,-0.09128619730472565,2.2650866508483887,-1.8581244945526123,0.0035118083469569683,2.0506691932678223,4.821247379272737,-9.524215420242399e-05,0.2669614851474762,-1.5968697706805628,0.00012342391710262746,0.016214553266763687,0.8785719871520996,0.00021990897948853672,0.02770284377038479,0.7854759097099304,-0.00014886226563248783,-0.042204052209854126
718.0,830.0,0.9565,-0.1836,8.8684,-0.0464,-0.0221,-0.1264,-1.6676179371275843,-0.09489595890045166,2.2366983890533447,-1.8580925464630127,0.0036809518933296204,2.0382797718048096,4.821179623692789,-8.823842654237524e-05,0.278812050819397,-1.5969222227679651,0.0001155034769908525,0.011843066662549973,0.8785719275474548,0.00019912120478693396,0.046942152082920074,0.7854800224304199,-4.951980008627288e-05,-0.07589796930551529
718.0,830.0,0.9565,-0.1836,8.8684,-0.0464,-0.0221,-0.1264,-1.6681772671141566,-0.09666523337364197,2.2259087562561035,-1.8580851554870605,0.003721038345247507,2.058220148086548,4.821219588607111,-8.219426672440022e-05,0.2620598077774048,-1.5968697706805628,0.00010853858839254826,0.01406591385602951,0.8785285353660583,0.000207738543394953,0.03710579127073288,0.7854759097099304,-4.574269041768275e-05,-0.06678739190101624
830.0,875.0,1.3669,0.0365,9.4463,-0.0504,-0.1054,-0.1297,-1.6690246067442835,-0.10303667187690735,2.221196174621582,-1.8580126762390137,0.0028038308955729008,2.0200510025024414,4.821195836156168,-7.531568553531542e-05,0.2493554651737213,-1.596882168446676,0.00011663918849080801,0.012984220869839191,0.8786042332649231,0.00018633708532433957,0.049928564578294754,0.7855080366134644,-6.145014049252495e-05,-0.02712409570813179
830.0,875.0,1.3669,0.0365,9.4463,-0.0504,-0.1054,-0.1297,-1.6696721516051234,-0.11032486706972122,2.1999611854553223,-1.8580448627471924,0.0024310778826475143,2.0361506938934326,4.821215632348814,-7.086760888341814e-05,0.265198677778244,-1.5968459288226526,0.00011100897245341912,0.02530047856271267,0.8785964846611023,0.00017291125550400466,0.04762488603591919,0.7855001091957092,-5.8251782320439816e-05,-0.06279687583446503
830.0,875.0,1.3669,0.0365,9.4463,-0.0504,-0.1054,-0.1297,-1.6703115902342738,-0.11793415248394012,2.186253070831299,-1.8580373525619507,0.0026993677020072937,2.085765838623047,4.821251350432195,-6.69158180244267e-05,0.25652095675468445,-1.5968621412860315,0.000105435581644997,0.015012705698609352,0.8786241412162781,0.00016274025256279856,0.048414651304483414,0.7855042219161987,-7.286216714419425e-05,-0.05136594548821449
830.0,875.0,1.3669,0.0365,9.4463,-0.0504,-0.1054,-0.1297,-1.6710230312743128,-0.12520869076251984,2.159597635269165,-1.8579329252243042,0.0038338922895491123,2.0430610179901123,4.821207704931059,-4.78075526189059e-05,0.2601291239261627,-1.5969060103045862,0.00011470506433397532,0.03865545615553856,0.8785601854324341,0.00014681719767395407,0.03362589329481125,0.785508394241333,-6.88373256707564e-05,-0.08453957736492157
830.0,875.0,1.3669,0.0365,9.4463,-0.0504,-0.1054,-0.1297,-1.6717335186400355,-0.12847894430160522,2.1949193477630615,-1.8579773902893066,0.004396435804665089,2.0409202575683594,4.82124741652564,-4.515128239290789e-05,0.25353628396987915,-1.5968335310565394,0.00010950211435556412,0.01786394789814949,0.8785165548324585,0.00013372665853239596,0.052048493176698685,0.7854761481285095,-0.00012602157949004322,-0.052533552050590515
830.0,875.0,1.3669,0.0365,9.4463,-0.0504,-0.1054,-0.1297,-1.672464986840719,-0.12699007987976074,2.1045825481414795,-1.857920527458191,0.004978020675480366,2.0618183612823486,4.821239451854982,-4.29942665505223e-05,0.2534025311470032,-1.5968740622149866,8.085248555289581e-05,0.021388353779911995,0.8786003589630127,0.00012277961650397629,0.0484452098608017,0.785480260848999,-0.0001475776662118733,-0.016750846058130264
830.0,875.0,1.3669,0.0365,9.4463,-0.0504,-0.1054,-0.1297,-1.6732522449889125,-0.13119181990623474,2.1733322143554688,-1.8579328060150146,0.005082146264612675,2.0794668197631836,4.821223619371214,-4.103401442989707e-05,0.2522401511669159,-1.5968897978412073,7.653300417587161e-05,0.01832360029220581,0.8785805702209473,0.00011348949919920415,0.05605851113796234,0.7854679226875305,-0.00013143205433152616,-0.0718630701303482
830.0,875.0,1.3669,0.0365,9.4463,-0.0504,-0.1054,-0.1297,-1.6740671596922816,-0.14115509390830994,2.1725549697875977,-1.8578842878341675,0.0040284739807248116,2.0253348350524902,4.821227545827188,-3.9244696381501853e-05,0.24841123819351196,-1.5968578497516077,7.28176164557226e-05,0.031737200915813446,0.8785925507545471,0.00010550649312790483,0.04481203109025955,0.7854319214820862,-0.00014807139814365655,-0.050343140959739685
830.0,875.0,1.3669,0.0365,9.4463,-0.0504,-0.1054,-0.1297,-1.6749268970885218,-0.1493045836687088,2.1449484825134277,-1.8578851222991943,0.003860462922602892,2.071565628051758,4.821199755161562,-3.760494291782379e-05,0.23935087025165558,-1.5968378225909632,6.944627966731787e-05,0.021057192236185074,0.8786042928695679,9.857265831669793e-05,0.0489652082324028,0.7854599952697754,-0.0002432389446767047,-0.11406027525663376
830.0,875.0,1.3669,0.0365,9.4463,-0.0504,-0.1054,-0.1297,-1.675793310204977,-0.15443257987499237,2.1448888778686523,-1.857840657234192,0.004164704121649265,2.0650172233581543,4.821199829667368,-3.6096713301958516e-05,0.2387046366930008,-1.5968378225909632,7.958977948874235e-05,0.030598558485507965,0.8785805106163025,9.249422146240249e-05,0.048170965164899826,0.7854438424110413,-0.0003489200316835195,-0.14156612753868103
830.0,875.0,1.3669,0.0365,9.4463,-0.0504,-0.1054,-0.1297,-1.6767527065672816,-0.15516051650047302,2.1489336490631104,-1.8577929735183716,0.00617150217294693,2.0729966163635254,4.821199807315626,-3.470480805845e-05,0.2570737600326538,-1.59682542482485,7.627300510648638e-05,0.02608974277973175,0.8785845041275024,8.712177805136889e-05,0.045640215277671814,0.785423994064331,-0.0007061127689667046,-0.11864973604679108
830.0,875.0,1.3669,0.0365,9.4463,-0.0504,-0.1054,-0.1297,-1.677676340142721,-0.15468382835388184,2.1783292293548584,-1.8577288389205933,0.007786236237734556,2.0626120567321777,4.821199792414465,-3.3416235964978114e-05,0.23228679597377777,-1.5968535582171839,7.317240670090541e-05,0.03497616946697235,0.8786003589630127,8.233923290390521e-05,0.054133810102939606,0.7854641079902649,-0.0007685809978283942,-0.10043106973171234
830.0,875.0,1.3669,0.0365,9.4463,-0.0504,-0.1054,-0.1297,-1.678542276422018,-0.16112542152404785,2.1208510398864746,-1.857664704322815,0.009456406347453594,2.0494604110717773,4.821251603751936,-3.221995575586334e-05,0.24117715656757355,-1.5968864599811,7.031409040791914e-05,0.02800467610359192,0.8785718083381653,7.805452332831919e-05,0.030700339004397392,0.7854198813438416,-0.0008954632794484496,-0.14386428892612457
830.0,875.0,1.3669,0.0365,9.4463,-0.0504,-0.1054,-0.1297,-1.67956604580068,-0.17041637003421783,2.145176887512207,-1.8576562404632568,0.010370717383921146,2.0810656547546387,4.821223582118311,-3.1106370443012565e-05,0.24270488321781158,-1.5968292395221155,7.604900747537613e-05,0.034483641386032104,0.8785924911499023,7.419373287120834e-05,0.04349764436483383,0.785383939743042,-0.000982901779934764,-0.1394949108362198
830.0,875.0,1.3669,0.0365,9.4463,-0.0504,-0.1054,-0.1297,-1.6805769405760707,-0.17698949575424194,2.1062841415405273,-1.8576209545135498,0.011647125706076622,2.0630598068237305,4.821259605675497,-3.006717815878801e-05,0.2519915997982025,-1.5968902746783655,7.608778832945973e-05,0.03351873904466629,0.8785321712493896,7.069685671012849e-05,0.059657983481884,0.7853595614433289,-0.001440799911506474,-0.11712241917848587
936.0,870.0,1.3795,-0.2686,10.3627,-0.0774,-0.1552,-0.1208,-1.6816913090147914,-0.1829942762851715,2.109034538269043,-1.8574885129928589,0.014548822306096554,2.0842387676239014,4.821243780642309,2.02624942176044e-05,0.23510921001434326,-1.5968015829669397,7.342809112742543e-05,0.043382056057453156,0.8786163330078125,6.75147894071415e-05,0.05369225889444351,0.785396158695221,-0.003144345013424754,-0.10784750431776047
936.0,870.0,1.3795,-0.2686,10.3627,-0.0774,-0.1552,-0.1208,-1.682814737359518,-0.18077830970287323,2.1536736488342285,-1.8573683500289917,0.017745008692145348,2.0777812004089355,4.821231569140711,2.022045555349905e-05,0.239810049533844,-1.5968378225909632,7.094733882695436e-05,0.03684118017554283,0.8785237669944763,7.752433157293126e-05,0.05157569795846939,0.785396158695221,-0.005744215101003647,-0.0827125683426857
936.0,870.0,1.3795,-0.2686,10.3627,-0.0774,-0.1552,-0.1208,-1.6839615307249964,-0.1900811642408371,2.1486942768096924,-1.8572771549224854,0.020565304905176163,2.0831966400146484,4.821275214641847,3.317693426652113e-07,0.2417004406452179,-1.5968335310565394,2.2963179162616143e-06,0.032061733305454254,0.8785516619682312,7.432677375618368e-05,0.06312809884548187,0.7853077054023743,-0.007544426713138819,-0.09760893136262894
936.0,870.0,1.3795,-0.2686,10.3627,-0.0774,-0.1552,-0.1208,-1.685148378411764,-0.2027035653591156,2.0688719749450684,-1.8571133613586426,0.024617355316877365,2.0466160774230957,4.8212593523557565,9.23492116111646e-11,0.2481408715248108,-1.596882168446676,6.391884244116852e-10,0.02726527489721775,0.8785926699638367,7.137931243050843e-05,0.051456667482852936,0.7852880358695984,-0.00642280513420701,-0.1503990888595581
936.0,870.0,1.3795,-0.2686,10.3627,-0.0774,-0.1552,-0.1208,-1.6864029369749964,-0.21099339425563812,2.153576374053955,-1.8569248914718628,0.029974384233355522,2.097949743270874,4.821255388646879,2.5705737248548667e-14,0.2380659282207489,-1.596854035054342,1.7792044964062836e-13,0.024029508233070374,0.8785595297813416,6.865670729894191e-05,0.05087289959192276,0.7852236032485962,-0.004972170572727919,-0.10080774128437042
936.0,870.0,1.3795,-0.2686,10.3627,-0.0774,-0.1552,-0.1208,-1.687725683251852,-0.20680879056453705,2.127894878387451,-1.8567487001419067,0.037438634783029556,2.0987510681152344,4.821299302368917,7.155286833692938e-18,0.2429172396659851,-1.596882168446676,4.9524808742264613e-17,0.03395185247063637,0.8785677552223206,6.613416189793497e-05,0.07460431754589081,0.7851876616477966,-0.004454160574823618,-0.08021380007266998
936.0,870.0,1.3795,-0.2686,10.3627,-0.0774,-0.1552,-0.1208,-1.689024110833639,-0.20828227698802948,2.1073522567749023,-1.8564765453338623,0.04544740170240402,2.0887348651885986,4.821271265834131,1.991700463475847e-21,0.2619088888168335,-1.59682542482485,1.3785414041419428e-20,0.030237194150686264,0.8786163330078125,6.379043043125421e-05,0.05303167551755905,0.7851717472076416,-0.004705358296632767,-0.10008899867534637
936.0,870.0,1.3795,-0.2686,10.3627,-0.0774,-0.1552,-0.1208,-1.6903945408263148,-0.22297737002372742,2.1539645195007324,-1.8562369346618652,0.0515160895884037,2.1099226474761963,4.821203666716375,5.5439714608542e-25,0.24902626872062683,-1.5968292395221155,3.8372209969562854e-24,0.037288010120391846,0.878612756729126,6.160715565783903e-05,0.04625564068555832,0.7851880788803101,-0.0030057509429752827,-0.0945831909775734
936.0,870.0,1.3795,-0.2686,10.3627,-0.0774,-0.1552,-0.1208,-1.6917492351927699,-0.23922380805015564,2.113173246383667,-1.8559054136276245,0.05857111141085625,2.133718252182007,4.821267182915964,1.5431850717142995e-28,0.24598321318626404,-1.5968096891986292,1.0681047619386226e-27,0.03297506272792816,0.8786044716835022,3.0194598366506398e-05,0.04624587297439575,0.7851518988609314,-0.00217360514216125,-0.1176309883594513
