ramyac6/ROB537/final_project/csv/good/good_69.csv
tof_0,tof_1,accelx,accely,accelz,gyrox,gyroy,gyroz,shoulder_lift_joint_position,shoulder_lift_joint_velocity,shoulder_lift_joint_effort,elbow_joint_position,elbow_joint_velocity,elbow_joint_effort,wrist_1_joint_position,wrist_1_joint_velocity,wrist_1_joint_effort,wrist_2_joint_position,wrist_2_joint_velocity,wrist_2_joint_effort,wrist_3_joint_position,wrist_3_joint_velocity,wrist_3_joint_effort,shoulder_pan_joint_position,shoulder_pan_joint_velocity,shoulder_pan_joint_effort
234.0,241.0,6.682,0.5952,6.2919,-0.0458,0.0229,-0.1112,-1.7031146488585414,0.0,2.6763803958892822,-1.194227695465088,-0.0,2.0985875129699707,3.756880446071289,-0.0,0.2723575234413147,-1.0716450850116175,0.0,-0.05156947299838066,0.15534411370754242,-0.0,-0.003303606528788805,1.4569941759109497,0.0,0.0013586422428488731
234.0,241.0,6.682,0.5952,6.2919,-0.0458,0.0229,-0.1112,-1.7030745945372523,0.0,2.7067947387695312,-1.1942238807678223,-0.0,2.113206624984741,3.7568680483051757,-0.0,0.26534873247146606,-1.0716851393329065,0.0,-0.06374046951532364,0.15540072321891785,-0.0,0.006040698383003473,1.4569900035858154,0.0,-0.03141815587878227
234.0,241.0,6.682,0.5952,6.2919,-0.0458,0.0229,-0.1112,-1.7031704388060511,0.0,2.662631034851074,-1.1942477226257324,-0.0,2.12750244140625,3.7568599420734863,-0.0,0.2623708248138428,-1.0716527144061487,0.0,-0.05236964300274849,0.15542080998420715,-0.0,0.00012915872503072023,1.4569458961486816,0.0,-0.016352515667676926
234.0,241.0,6.682,0.5952,6.2919,-0.0458,0.0229,-0.1112,-1.703134676019186,0.0,2.677779197692871,-1.1942719221115112,-0.0,2.1010994911193848,3.7569123941608886,-0.0,0.2692158818244934,-1.0716808477984827,0.0,-0.0396459698677063,0.15541306138038635,-0.0,0.00026172574143856764,1.456917643547058,0.0,0.0272529236972332
234.0,241.0,6.682,0.5952,6.2919,-0.0458,0.0229,-0.1112,-1.703118463555807,0.0,2.6890158653259277,-1.1942156553268433,-0.0,2.1191699504852295,3.7568680483051757,-0.0,0.272910475730896,-1.0716689268695276,0.0,-0.040761128067970276,0.15540850162506104,-0.0,0.011679582297801971,1.456942081451416,0.0,0.010848892852663994
234.0,241.0,6.682,0.5952,6.2919,-0.0458,0.0229,-0.1112,-1.703130384484762,0.0,2.6269283294677734,-1.1942402124404907,-0.0,2.0917630195617676,3.7568484979816894,-0.0,0.2668534517288208,-1.0716684500323694,0.0,-0.03174060955643654,0.1553843915462494,-0.0,0.006472866050899029,1.4570101499557495,0.0,0.019723162055015564
234.0,241.0,6.682,0.5952,6.2919,-0.0458,0.0229,-0.1112,-1.703146596948141,0.0,2.7039124965667725,-1.1942036151885986,-0.0,2.1304430961608887,3.7568957048603515,-0.0,0.2664458751678467,-1.0716169516192835,0.0,-0.0564408116042614,0.15542080998420715,-0.0,-0.007122372277081013,1.4569216966629028,0.0,-0.017889458686113358
237.0,249.0,6.7478,0.609,6.2243,-0.0315,0.0223,-0.1106,-1.703134676019186,0.0,2.7515711784362793,-1.1941639184951782,-0.0,2.1087989807128906,3.756863756770752,-0.0,0.2683548629283905,-1.0716646353351038,0.0,-0.04341607913374901,0.1553766429424286,-0.0,0.0013932904694229364,1.4569659233093262,0.0,0.03388279676437378
237.0,249.0,6.7478,0.609,6.2243,-0.0315,0.0223,-0.1106,-1.703130384484762,0.0,2.6405715942382812,-1.1941795349121094,-0.0,2.1095354557037354,3.756863756770752,-0.0,0.2541833221912384,-1.0716446081744593,0.0,-0.0480765700340271,0.15542496740818024,-0.0,0.002550986595451832,1.4568976163864136,0.0,0.011868779547512531
237.0,249.0,6.7478,0.609,6.2243,-0.0315,0.0223,-0.1106,-1.7030860386290492,0.0,2.6983094215393066,-1.1941876411437988,-0.0,2.124373197555542,3.7568680483051757,-0.0,0.25859534740448,-1.0716646353351038,0.0,-0.06188906729221344,0.15542496740818024,-0.0,0.0012096681166440248,1.45696222782135,0.0,0.04092434048652649
237.0,249.0,6.7478,0.609,6.2243,-0.0315,0.0223,-0.1106,-1.7031103573241175,0.0,2.6552205085754395,-1.194183111190796,-0.0,2.13486385345459,3.756847544307373,-0.0,0.2571309804916382,-1.0716975370990198,0.0,-0.051759637892246246,0.15542078018188477,-0.0,0.014578176662325859,1.4569499492645264,0.0,0.023799065500497818
237.0,249.0,6.7478,0.609,6.2243,-0.0315,0.0223,-0.1106,-1.7031265697874964,0.0,2.7204246520996094,-1.1941916942596436,-0.0,2.1092278957366943,3.7568484979816894,-0.0,0.262266606092453,-1.0717209021197718,0.0,-0.05329454690217972,0.15543271601200104,-0.0,0.0004622918786481023,1.4569580554962158,0.0,0.022614946588873863
237.0,249.0,6.7478,0.609,6.2243,-0.0315,0.0223,-0.1106,-1.703134676019186,0.0,2.670132637023926,-1.1941953897476196,-0.0,2.0881989002227783,3.75686423360791,-0.0,0.27169740200042725,-1.0716727415667933,0.0,-0.05015437304973602,0.15542449057102203,-0.0,0.004036190919578075,1.456981897354126,0.0,0.03125712648034096
237.0,249.0,6.7478,0.609,6.2243,-0.0315,0.0223,-0.1106,-1.7031508884825648,0.0,2.7076847553253174,-1.1942074298858643,-0.0,2.1184070110321045,3.7568766313740234,-0.0,0.259660005569458,-1.0716365019427698,0.0,-0.0444149523973465,0.15540480613708496,-0.0,0.004259292036294937,1.456942081451416,0.0,-0.02441217191517353
237.0,249.0,6.7478,0.609,6.2243,-0.0315,0.0223,-0.1106,-1.703134676019186,0.0,2.688481569290161,-1.1941953897476196,-0.0,2.1507484912872314,3.7568484979816894,-0.0,0.26060840487480164,-1.0717127958880823,0.0,-0.02952425181865692,0.15541672706604004,-0.0,0.008484065532684326,1.4569900035858154,0.0,0.013771707192063332
237.0,249.0,6.7478,0.609,6.2243,-0.0315,0.0223,-0.1106,-1.703146596948141,0.0,2.6774377822875977,-1.1942156553268433,-0.0,2.1536197662353516,3.7568885523029785,-0.0,0.2682493329048157,-1.0716608206378382,0.0,-0.05542408302426338,0.1553884893655777,-0.0,0.0015123707707971334,1.456981897354126,0.0,-0.009741587564349174
237.0,249.0,6.7478,0.609,6.2243,-0.0315,0.0223,-0.1106,-1.7031547031798304,0.0,2.6815690994262695,-1.1941953897476196,-0.0,2.1307382583618164,3.7568957048603515,-0.0,0.26929429173469543,-1.0717046896563929,0.0,-0.06558328866958618,0.1554531455039978,-0.0,-0.0005666706711053848,1.456942081451416,0.0,-0.002830035984516144
237.0,249.0,6.7478,0.609,6.2243,-0.0315,0.0223,-0.1106,-1.7031666241087855,0.0,2.671308994293213,-1.1942200660705566,-0.0,2.0934300422668457,3.7568680483051757,-0.0,0.2782480716705322,-1.0716646353351038,0.0,-0.05253496766090393,0.15543679893016815,-0.0,0.003171475837007165,1.45697820186615,0.0,0.014033865183591843
237.0,249.0,6.7478,0.609,6.2243,-0.0315,0.0223,-0.1106,-1.7031423054137171,0.0,2.7123098373413086,-1.1942036151885986,-0.0,2.137810230255127,3.756880446071289,-0.0,0.26934441924095154,-1.0717290083514612,0.0,-0.042366448789834976,0.1554572731256485,-0.0,0.002765470650047064,1.4569462537765503,0.0,0.0017659887671470642
237.0,249.0,6.7478,0.609,6.2243,-0.0315,0.0223,-0.1106,-1.7031508884825648,0.0,2.7215824127197266,-1.1941680908203125,-0.0,2.1144471168518066,3.756884737605713,-0.0,0.26867052912712097,-1.071677033101217,0.0,-0.061061300337314606,0.15540848672389984,-0.0,0.01158358994871378,1.4569659233093262,0.0,0.03755360096693039
237.0,249.0,6.7478,0.609,6.2243,-0.0315,0.0223,-0.1106,-1.703146596948141,0.0,2.6813433170318604,-1.1941639184951782,-0.0,2.071704387664795,3.756880446071289,-0.0,0.27089062333106995,-1.0717089811908167,0.0,-0.046884261071681976,0.15540480613708496,-0.0,-0.006922707427293062,1.4569016695022583,0.0,-0.02201022580265999
238.0,248.0,6.6945,0.597,6.274,-0.0299,0.0182,-0.1228,-1.703134676019186,0.0,2.688492774963379,-1.194175362586975,-0.0,2.129154682159424,3.756903811092041,-0.0,0.26830101013183594,-1.071700398121969,0.0,-0.0442485548555851,0.15539665520191193,-0.0,0.0015390857588499784,1.456981897354126,0.0,0.01534778717905283
238.0,248.0,6.6945,0.597,6.274,-0.0299,0.0182,-0.1228,-1.7031423054137171,0.0,2.71905517578125,-1.194203495979309,-0.0,2.112942695617676,3.756904287929199,-0.0,0.25790297985076904,-1.0716851393329065,0.0,-0.04381216689944267,0.15540896356105804,-0.0,0.014385998249053955,1.4569618701934814,0.0,-0.01679656095802784
238.0,248.0,6.6945,0.597,6.274,-0.0299,0.0182,-0.1228,-1.7031103573241175,0.0,2.7316205501556396,-1.194183588027954,-0.0,2.133225440979004,3.756891890163086,-0.0,0.27165907621383667,-1.0716365019427698,0.0,-0.05934426188468933,0.15542080998420715,-2.3744921406887443e-07,0.005834038369357586,1.4569458961486816,0.0,0.05707620084285736
238.0,248.0,6.6945,0.597,6.274,-0.0299,0.0182,-0.1228,-1.703146596948141,0.0,2.720125675201416,-1.194151759147644,-0.0,2.1567845344543457,3.7568599420734863,-0.0,0.2747696340084076,-1.0716689268695276,0.0,-0.05610089749097824,0.15543676912784576,-4.315521898168306e-12,0.0010323405731469393,1.456950306892395,0.0,0.024992097169160843
238.0,248.0,6.6945,0.597,6.274,-0.0299,0.0182,-0.1228,-1.7031423054137171,0.0,2.68050479888916,-1.1941872835159302,-0.0,2.108173370361328,3.756836100215576,-0.0,0.2574196457862854,-1.071677033101217,0.0,-0.03533631190657616,0.15538029372692108,-1.2012414793679594e-15,0.004086089786142111,1.456969976425171,0.0,0.004989021923393011
238.0,248.0,6.6945,0.597,6.274,-0.0299,0.0182,-0.1228,-1.7031265697874964,0.0,2.653831958770752,-1.1942360401153564,-0.0,2.1631295680999756,3.756884737605713,-0.0,0.2671908140182495,-1.0716975370990198,0.0,-0.05694673955440521,0.1553884893655777,-3.343700816389681e-19,-0.002889754483476281,1.4569135904312134,0.0,0.05043680593371391
238.0,248.0,6.6945,0.597,6.274,-0.0299,0.0182,-0.1228,-1.7031341991820277,0.0,2.718860626220703,-1.194199562072754,-0.0,2.120025634765625,3.7568957048603515,-0.0,0.2719450891017914,-1.0716975370990198,0.0,-0.04995334520936012,0.15540483593940735,-9.307314174643863e-23,0.003444736124947667,1.4569499492645264,0.0,0.021803349256515503
238.0,248.0,6.6945,0.597,6.274,-0.0299,0.0182,-0.1228,-1.703146596948141,0.0,2.7044193744659424,-1.1941953897476196,-0.0,2.106358289718628,3.756823702449463,-0.0,0.27291160821914673,-1.0716889540301722,0.0,-0.045047491788864136,0.15537622570991516,-2.590725215929942e-26,0.006161965429782867,1.4569339752197266,0.0,0.04635157436132431
238.0,248.0,6.6945,0.597,6.274,-0.0299,0.0182,-0.1228,-1.7031628094115199,0.0,2.6620192527770996,-1.1941876411437988,-0.0,2.128277063369751,3.756903811092041,-0.0,0.26052895188331604,-1.0716407934771937,0.0,-0.0547836497426033,0.15537211298942566,-4.708514562472943e-31,0.0007040575728751719,1.456990122795105,0.0,-0.032646674662828445
238.0,248.0,6.6945,0.597,6.274,-0.0299,0.0182,-0.1228,-1.703130384484762,0.0,2.7105536460876465,-1.1941795349121094,-0.0,2.1128718852996826,3.756880446071289,-0.0,0.2742818593978882,-1.0717089811908167,0.0,-0.04788072407245636,0.15545731782913208,-1.3106324645118053e-34,0.005613889545202255,1.456942081451416,0.0,-0.005922822281718254
238.0,248.0,6.6945,0.597,6.274,-0.0299,0.0182,-0.1228,-1.703146596948141,0.0,2.666874408721924,-1.194159984588623,-0.0,2.1510801315307617,3.75686423360791,-0.0,0.2812754511833191,-1.0716527144061487,0.0,-0.04877866432070732,0.15536846220493317,-3.64819339110518e-38,0.007787076756358147,1.45696222782135,0.0,-0.026213575154542923
238.0,248.0,6.6945,0.597,6.274,-0.0299,0.0182,-0.1228,-1.703130384484762,0.0,2.7367398738861084,-1.194199562072754,-0.0,2.1009178161621094,3.756863756770752,-0.0,0.2693091928958893,-1.0716365019427698,0.0,-0.0630754753947258,0.1554008424282074,-1.0155209970961949e-41,-0.00810346007347107,1.4569859504699707,0.0,0.011303736828267574
238.0,248.0,6.6945,0.597,6.274,-0.0299,0.0182,-0.1228,-1.703130384484762,0.0,2.6601336002349854,-1.1941953897476196,-0.0,2.1552395820617676,3.7568484979816894,-0.0,0.26517099142074585,-1.0716889540301722,0.0,-0.05598396807909012,0.15543271601200104,-0.0,0.008584110997617245,1.4569339752197266,0.0,-0.030984681099653244
238.0,248.0,6.6945,0.597,6.274,-0.0299,0.0182,-0.1228,-1.7031341991820277,0.0,2.66874361038208,-1.194211483001709,-0.0,2.116231918334961,3.7568766313740234,-0.0,0.27143555879592896,-1.0716689268695276,0.0,-0.05000680685043335,0.15544092655181885,-0.0,0.0030779174994677305,1.456954002380371,0.0,0.016587212681770325
243.0,244.0,6.682,0.5958,6.2782,-0.0371,0.015,-0.1164,-1.703146596948141,0.0,2.6923413276672363,-1.1942033767700195,-0.0,2.10595703125,3.7568957048603515,-0.0,0.26335254311561584,-1.0717013517962855,0.0,-0.043781619518995285,0.15543271601200104,-0.0,0.0045409295707941055,1.4569380283355713,0.0,0.031057706102728844
243.0,244.0,6.682,0.5958,6.2782,-0.0371,0.015,-0.1164,-1.703118463555807,0.0,2.7366671562194824,-1.194203495979309,-0.0,2.1454622745513916,3.7568999963947753,-0.0,0.26605772972106934,-1.0716727415667933,0.0,-0.042819440364837646,0.1554330438375473,-0.0,0.0057744961231946945,1.456954002380371,0.0,0.001588434912264347
243.0,244.0,6.682,0.5958,6.2782,-0.0371,0.015,-0.1164,-1.7031785450377406,0.0,2.7214603424072266,-1.1941680908203125,-0.0,2.0773768424987793,3.7568723398395996,-0.0,0.26885178685188293,-1.0716646353351038,0.0,-0.045103274285793304,0.15542450547218323,-0.0,0.006584373768419027,1.4570064544677734,0.0,0.02938118949532509
243.0,244.0,6.682,0.5958,6.2782,-0.0371,0.015,-0.1164,-1.7031709156432093,0.0,2.71993350982666,-1.194175362586975,-0.0,2.163045883178711,3.7568885523029785,-0.0,0.2639210820198059,-1.071636978779928,0.0,-0.04365697503089905,0.1554490178823471,-0.0,0.013802510686218739,1.456917643547058,0.0,0.078716941177845
243.0,244.0,6.682,0.5958,6.2782,-0.0371,0.015,-0.1164,-1.703174730340475,0.0,2.6732826232910156,-1.1942076683044434,-0.0,2.0725584030151367,3.756880446071289,-0.0,0.2700170576572418,-1.071677033101217,0.0,-0.048765696585178375,0.15540046989917755,-0.0,-0.006079942919313908,1.456998348236084,0.0,0.013692047446966171
243.0,244.0,6.682,0.5958,6.2782,-0.0371,0.015,-0.1164,-1.703146596948141,0.0,2.6762537956237793,-1.194176197052002,-0.0,2.0845787525177,3.7568723398395996,-0.0,0.26724517345428467,-1.071681324635641,0.0,-0.050048619508743286,0.15538443624973297,-0.0,0.01134601142257452,1.45696222782135,0.0,-0.005148096010088921
243.0,244.0,6.682,0.5958,6.2782,-0.0371,0.015,-0.1164,-1.7031389675536097,0.0,2.7390594482421875,-1.1942076683044434,-0.0,2.1348729133605957,3.7568680483051757,-0.0,0.2578798830509186,-1.0716684500323694,0.0,-0.05009091645479202,0.15540073812007904,-0.0,0.004398213233798742,1.45697820186615,0.0,-0.003467893460765481
243.0,244.0,6.682,0.5958,6.2782,-0.0371,0.015,-0.1164,-1.7031508884825648,0.0,2.6469597816467285,-1.1942156553268433,-0.0,2.1564953327178955,3.756891890163086,-0.0,0.2701307535171509,-1.0716450850116175,0.0,-0.04654192179441452,0.15545713901519775,-0.0,0.005047054961323738,1.456981897354126,0.0,-0.005560955964028835
243.0,244.0,6.682,0.5958,6.2782,-0.0371,0.015,-0.1164,-1.7031384907164515,0.0,2.671834945678711,-1.1941876411437988,-0.0,2.143157720565796,3.7568723398395996,-0.0,0.27072873711586,-1.0717008749591272,0.0,-0.047602519392967224,0.15536443889141083,-0.0,0.0010795473353937268,1.456933856010437,0.0,0.014675811864435673
243.0,244.0,6.682,0.5958,6.2782,-0.0371,0.015,-0.1164,-1.7031508884825648,0.0,2.6744346618652344,-1.194211483001709,-0.0,2.1428306102752686,3.7568680483051757,-0.0,0.274030476808548,-1.0716889540301722,0.0,-0.05898101255297661,0.15538443624973297,-0.0,0.0054474822245538235,1.4569299221038818,0.0,-0.003551324363797903
243.0,244.0,6.682,0.5958,6.2782,-0.0371,0.015,-0.1164,-1.7031709156432093,0.0,2.6897330284118652,-1.1941876411437988,-0.0,2.113128900527954,3.7568599420734863,-0.0,0.2605397403240204,-1.0716889540301722,0.0,-0.04617005214095116,0.15542079508304596,-0.0,0.0049323164857923985,1.4569499492645264,0.0,-0.017865892499685287
243.0,244.0,6.682,0.5958,6.2782,-0.0371,0.015,-0.1164,-1.7030898533263148,0.0,2.7101821899414062,-1.194175362586975,-0.0,2.148081064224243,3.7568680483051757,-0.0,0.25303754210472107,-1.0716565291034144,0.0,-0.054415881633758545,0.15542450547218323,-0.0,0.009562335908412933,1.456942081451416,0.0,-0.03809688985347748
243.0,244.0,6.682,0.5958,6.2782,-0.0371,0.015,-0.1164,-1.7031103573241175,0.0,2.707911968231201,-1.194211721420288,-0.0,2.0745558738708496,3.7568680483051757,-0.0,0.28495535254478455,-1.0716646353351038,0.0,-0.03320452198386192,0.15538443624973297,-0.0,0.005091974977403879,1.4569783210754395,0.0,-0.01798703707754612
243.0,244.0,6.682,0.5958,6.2782,-0.0371,0.015,-0.1164,-1.7031222782530726,0.0,2.723839282989502,-1.1942076683044434,-0.0,2.0974905490875244,3.756863756770752,-0.0,0.28701353073120117,-1.0716689268695276,0.0,-0.0564512237906456,0.15540480613708496,-0.0,-0.00450461870059371,1.456954002380371,0.0,-0.0008616847917437553
238.0,237.0,6.8189,0.5838,6.1657,-0.0363,0.0281,-0.1156,-1.7031508884825648,0.0,2.661043882369995,-1.194219708442688,-0.0,2.1209397315979004,3.7569123941608886,-0.0,0.2682020366191864,-1.0716851393329065,0.0,-0.04672501981258392,0.1553966999053955,-0.0,-0.0014599580317735672,1.4569664001464844,0.0,0.062150679528713226
238.0,237.0,6.8189,0.5838,6.1657,-0.0363,0.0281,-0.1156,-1.7031709156432093,0.0,2.679544448852539,-1.194199562072754,-0.0,2.108192205429077,3.756880446071289,-0.0,0.2725372314453125,-1.0716727415667933,0.0,-0.045105792582035065,0.15543679893016815,-0.0,0.00031335907988250256,1.456990122795105,0.0,-0.03935236483812332
238.0,237.0,6.8189,0.5838,6.1657,-0.0363,0.0281,-0.1156,-1.7031227550902308,0.0,2.720308303833008,-1.1941795349121094,-0.0,2.1229984760284424,3.756851835841797,-0.0,0.2649543881416321,-1.0716527144061487,0.0,-0.03823528066277504,0.15538457036018372,-0.0,0.014355793595314026,1.4569380283355713,0.0,-0.005975509528070688
238.0,237.0,6.8189,0.5838,6.1657,-0.0363,0.0281,-0.1156,-1.7031384907164515,0.0,2.7006494998931885,-1.1941754817962646,-0.0,2.0995242595672607,3.7568766313740234,-0.0,0.26090091466903687,-1.0716965834247034,0.0,-0.04485654458403587,0.15539266169071198,-0.0,0.007109115831553936,1.456954002380371,0.0,-0.01678410917520523
238.0,237.0,6.8189,0.5838,6.1657,-0.0363,0.0281,-0.1156,-1.7031508884825648,0.0,2.6957874298095703,-1.1941434144973755,-0.0,2.0992255210876465,3.7569123941608886,-0.0,0.27058282494544983,-1.0716727415667933,0.0,-0.055641211569309235,0.15544088184833527,-0.0,0.001801664475351572,1.456942081451416,0.0,-0.012138187885284424
238.0,237.0,6.8189,0.5838,6.1657,-0.0363,0.0281,-0.1156,-1.7031709156432093,0.0,2.6668622493743896,-1.1941795349121094,-0.0,2.1029961109161377,3.7568957048603515,-0.0,0.26434528827667236,-1.0716851393329065,0.0,-0.04775839298963547,0.15539667010307312,-0.0,0.0019265986047685146,1.4569618701934814,0.0,-0.0258364025503397
238.0,237.0,6.8189,0.5838,6.1657,-0.0363,0.0281,-0.1156,-1.7031666241087855,0.0,2.6882991790771484,-1.1942156553268433,-0.0,2.1469385623931885,3.7568484979816894,-0.0,0.26851537823677063,-1.071693245564596,0.0,-0.0370088592171669,0.15540075302124023,-0.0,0.004392020404338837,1.4569900035858154,0.0,-0.008808569982647896
238.0,237.0,6.8189,0.5838,6.1657,-0.0363,0.0281,-0.1156,-1.7031704388060511,0.0,2.705677032470703,-1.194211483001709,-0.0,2.11883282661438,3.7568484979816894,-0.0,0.26529374718666077,-1.0716608206378382,0.0,-0.04131646081805229,0.15543270111083984,-0.0,0.003778176847845316,1.456990122795105,0.0,-0.005509284324944019
238.0,237.0,6.8189,0.5838,6.1657,-0.0363,0.0281,-0.1156,-1.7031547031798304,0.0,2.7401576042175293,-1.194236159324646,-0.0,2.146902084350586,3.756880446071289,-0.0,0.2593965530395508,-1.0716407934771937,0.0,-0.05423323065042496,0.15541672706604004,-0.0,-0.007036571390926838,1.4569416046142578,0.0,0.00038748327642679214
238.0,237.0,6.8189,0.5838,6.1657,-0.0363,0.0281,-0.1156,-1.7031785450377406,0.0,2.635185718536377,-1.1942074298858643,-0.0,2.1484899520874023,3.756924791927002,-0.0,0.2604241669178009,-1.0716527144061487,0.0,-0.054473355412483215,0.1553926318883896,-0.0,-0.00019414233975112438,1.4569778442382812,0.0,0.001202923245728016
238.0,237.0,6.8189,0.5838,6.1657,-0.0363,0.0281,-0.1156,-1.703134676019186,0.0,2.723104953765869,-1.194203495979309,-0.0,2.113137722015381,3.756876154536865,-0.0,0.263435035943985,-1.0717170874225062,0.0,-0.045639704912900925,0.1553967297077179,-0.0,0.0014566386817023158,1.456969976425171,0.0,0.020875440910458565
238.0,237.0,6.8189,0.5838,6.1657,-0.0363,0.0281,-0.1156,-1.7031709156432093,0.0,2.7005558013916016,-1.194183111190796,-0.0,2.1512539386749268,3.7568556505390625,-0.0,0.2606981098651886,-1.0716446081744593,0.0,-0.040832728147506714,0.1554126739501953,-0.0,0.009659466333687305,1.4569580554962158,0.0,0.041690144687891006
238.0,237.0,6.8189,0.5838,6.1657,-0.0363,0.0281,-0.1156,-1.703134676019186,0.0,2.7411856651306152,-1.1941639184951782,-0.0,2.118255615234375,3.7569123941608886,-0.0,0.26604339480400085,-1.0716608206378382,0.0,-0.03969176486134529,0.1554170846939087,-0.0,-0.0005701360059902072,1.4569380283355713,0.0,0.010121852159500122
238.0,237.0,6.8189,0.5838,6.1657,-0.0363,0.0281,-0.1156,-1.7031423054137171,0.0,2.69389009475708,-1.1941953897476196,-0.0,2.1352217197418213,3.7568442064472656,-0.0,0.25860899686813354,-1.0716727415667933,0.0,-0.0431327149271965,0.15540067851543427,-0.0,0.01280565932393074,1.4569580554962158,0.0,0.014031145721673965
235.0,253.0,6.7442,0.6311,6.3224,-0.0376,0.0246,-0.1127,-1.7031389675536097,0.0,2.7436933517456055,-1.1942601203918457,-0.0,2.089816093444824,3.7569123941608886,-0.0,0.2587413191795349,-1.0716365019427698,0.0,-0.04411005228757858,0.15543682873249054,-0.0,0.009420006535947323,1.456954002380371,0.0,-0.008706963621079922
235.0,253.0,6.7442,0.6311,6.3224,-0.0376,0.0246,-0.1127,-1.70318665126943,0.0,2.695870876312256,-1.1941639184951782,-0.0,2.14957594871521,3.7568723398395996,-0.0,0.2674890458583832,-1.0716565291034144,0.0,-0.04233378916978836,0.15542122721672058,-0.0,-0.0038103354163467884,1.456954002380371,0.0,0.02480321191251278
235.0,253.0,6.7442,0.6311,6.3224,-0.0376,0.0246,-0.1127,-1.703146596948141,0.0,2.674525499343872,-1.194199562072754,-0.0,2.1133012771606445,3.756884737605713,-0.0,0.26846906542778015,-1.0716975370990198,0.0,-0.04411590099334717,0.1553884744644165,-0.0,-0.015948951244354248,1.4569778442382812,0.0,-0.02795073390007019
235.0,253.0,6.7442,0.6311,6.3224,-0.0376,0.0246,-0.1127,-1.7031265697874964,0.0,2.693948984146118,-1.194191336631775,-0.0,2.1576144695281982,3.756863756770752,-0.0,0.2516371011734009,-1.0716851393329065,0.0,-0.047335729002952576,0.1553601324558258,-0.0,-0.009919661097228527,1.456981897354126,0.0,0.04421515762805939
235.0,253.0,6.7442,0.6311,6.3224,-0.0376,0.0246,-0.1127,-1.7031508884825648,0.0,2.682344913482666,-1.1941754817962646,-0.0,2.0826029777526855,3.7568556505390625,-0.0,0.26443737745285034,-1.0716565291034144,0.0,-0.0396118089556694,0.15542449057102203,-0.0,0.004806745797395706,1.4569135904312134,0.0,-0.019689854234457016
235.0,253.0,6.7442,0.6311,6.3224,-0.0376,0.0246,-0.1127,-1.7031508884825648,0.0,2.6862659454345703,-1.1942321062088013,-0.0,2.1264901161193848,3.7568766313740234,-0.0,0.2710351049900055,-1.071681324635641,0.0,-0.0453505776822567,0.15541264414787292,-0.0,0.014308607205748558,1.4569859504699707,0.0,0.024755258113145828
235.0,253.0,6.7442,0.6311,6.3224,-0.0376,0.0246,-0.1127,-1.7031423054137171,0.0,2.70863676071167,-1.1942360401153564,-0.0,2.1345489025115967,3.7568484979816894,-0.0,0.2677379250526428,-1.0716646353351038,0.0,-0.056066468358039856,0.15540480613708496,-0.0,-0.002884307876229286,1.4569339752197266,0.0,-0.021253619343042374
235.0,253.0,6.7442,0.6311,6.3224,-0.0376,0.0246,-0.1127,-1.7031470737852992,0.0,2.6779417991638184,-1.1942476034164429,-0.0,2.089275598526001,3.7568484979816894,-0.0,0.2719498872756958,-1.0716727415667933,0.0,-0.05960680916905403,0.15543679893016815,-0.0,0.001270212815143168,1.4569778442382812,0.0,0.011706097051501274
235.0,253.0,6.7442,0.6311,6.3224,-0.0376,0.0246,-0.1127,-1.703130384484762,0.0,2.7399959564208984,-1.194159746170044,-0.0,2.151355743408203,3.7568999963947753,-0.0,0.259711891412735,-1.0716889540301722,0.0,-0.03726162016391754,0.15542447566986084,-0.0,0.0023663132451474667,1.4569662809371948,0.0,-0.024500606581568718
235.0,253.0,6.7442,0.6311,6.3224,-0.0376,0.0246,-0.1127,-1.703130384484762,0.0,2.6363303661346436,-1.1942400932312012,-0.0,2.1064724922180176,3.7568680483051757,-0.0,0.27537211775779724,-1.0716851393329065,0.0,-0.04505426436662674,0.15538442134857178,-0.0,-0.005925117526203394,1.4570063352584839,0.0,0.039690129458904266
235.0,253.0,6.7442,0.6311,6.3224,-0.0376,0.0246,-0.1127,-1.7031508884825648,0.0,2.6620137691497803,-1.194199562072754,-0.0,2.1492793560028076,3.7568957048603515,-0.0,0.25970423221588135,-1.0716365019427698,0.0,-0.03767603635787964,0.15536433458328247,-0.0,-0.0039166538044810295,1.4569740295410156,0.0,0.01245186384767294
235.0,253.0,6.7442,0.6311,6.3224,-0.0376,0.0246,-0.1127,-1.703214784661764,0.0,2.7079501152038574,-1.1942116022109985,-0.0,2.078887462615967,3.7568680483051757,-0.0,0.2675827741622925,-1.0716689268695276,0.0,-0.05927816405892372,0.1553724855184555,-0.0,0.0007010484114289284,1.4570224285125732,0.0,-0.007106456905603409
235.0,253.0,6.7442,0.6311,6.3224,-0.0376,0.0246,-0.1127,-1.703146596948141,0.0,2.6784462928771973,-1.1941876411437988,-0.0,2.2064990997314453,3.7568885523029785,-0.0,0.25950682163238525,-1.0716975370990198,0.0,-0.04775699973106384,0.15540480613708496,-0.0,-0.0059634544886648655,1.45696222782135,0.0,0.006406119558960199
235.0,253.0,6.7442,0.6311,6.3224,-0.0376,0.0246,-0.1127,-1.7031508884825648,0.0,2.6608898639678955,-1.1942036151885986,-0.0,2.087289571762085,3.756880446071289,-0.0,0.26158714294433594,-1.0716527144061487,0.0,-0.05205748975276947,0.1553884893655777,-0.0,-0.005796132609248161,1.456954002380371,0.0,0.06269071251153946
233.0,245.0,6.7825,0.6245,6.259,-0.0356,0.0229,-0.1161,-1.703146596948141,0.0,2.7040352821350098,-1.194199562072754,-0.0,2.1173717975616455,3.756844683284424,-0.0,0.2652726471424103,-1.0716727415667933,0.0,-0.04269919544458389,0.15544098615646362,-0.0,0.005016252398490906,1.45697820186615,0.0,-0.03229808062314987
233.0,245.0,6.7825,0.6245,6.259,-0.0356,0.0229,-0.1161,-1.7031666241087855,0.0,2.6762259006500244,-1.1942722797393799,-0.0,2.0812392234802246,3.756863756770752,-0.0,0.25916188955307007,-1.0716851393329065,0.0,-0.03642459213733673,0.15542501211166382,-0.0,-0.008159918710589409,1.4569135904312134,0.0,0.021935440599918365
233.0,245.0,6.7825,0.6245,6.259,-0.0356,0.0229,-0.1161,-1.703134676019186,0.0,2.690857410430908,-1.1941953897476196,-0.0,2.1100547313690186,3.7569281297871093,-0.0,0.2730071544647217,-1.0716889540301722,0.0,-0.035642173141241074,0.15543273091316223,-0.0,0.00351828639395535,1.4569380283355713,0.0,0.01650111749768257
233.0,245.0,6.7825,0.6245,6.259,-0.0356,0.0229,-0.1161,-1.7031265697874964,0.0,2.6736044883728027,-1.1942074298858643,-0.0,2.156438112258911,3.7568556505390625,-0.0,0.2719241976737976,-1.0716450850116175,0.0,-0.05283626168966293,0.15537245571613312,-0.0,0.008254521526396275,1.4569659233093262,0.0,-0.010860164649784565
233.0,245.0,6.7825,0.6245,6.259,-0.0356,0.0229,-0.1161,-1.7031423054137171,0.0,2.6704330444335938,-1.194176197052002,-0.0,2.12070894241333,3.7568723398395996,-0.0,0.26909080147743225,-1.0716727415667933,0.0,-0.056726329028606415,0.15540891885757446,-0.0,0.0034836498089134693,1.4569859504699707,0.0,0.01815190725028515
233.0,245.0,6.7825,0.6245,6.259,-0.0356,0.0229,-0.1161,-1.7031785450377406,0.0,2.7115817070007324,-1.1942518949508667,-0.0,2.1474342346191406,3.7568957048603515,-0.0,0.2638639211654663,-1.0716169516192835,0.0,-0.049553826451301575,0.1554572433233261,-0.0,0.0010455496376380324,1.4569458961486816,0.0,0.027051709592342377
233.0,245.0,6.7825,0.6245,6.259,-0.0356,0.0229,-0.1161,-1.703146596948141,0.0,2.726783275604248,-1.1941876411437988,-0.0,2.107987880706787,3.7568318086811523,-0.0,0.26803234219551086,-1.0716975370990198,0.0,-0.052858687937259674,0.15542492270469666,-0.0,-0.0020574559457600117,1.45696222782135,0.0,-0.007328671868890524
233.0,245.0,6.7825,0.6245,6.259,-0.0356,0.0229,-0.1161,-1.703158517877096,0.0,2.6906380653381348,-1.194227933883667,-0.0,2.105773687362671,3.7569286066242675,-0.0,0.25759750604629517,-1.0716975370990198,0.0,-0.04887143149971962,0.15542905032634735,-0.0,-0.006098453886806965,1.4569580554962158,0.0,0.02494463324546814
233.0,245.0,6.7825,0.6245,6.259,-0.0356,0.0229,-0.1161,-1.703106542626852,0.0,2.6896467208862305,-1.194199562072754,-0.0,2.1632919311523438,3.7568680483051757,-0.0,0.2654927968978882,-1.0717209021197718,0.0,-0.046718496829271317,0.15544909238815308,-0.0,0.0056732650846242905,1.456981897354126,0.0,-0.01983986794948578
233.0,245.0,6.7825,0.6245,6.259,-0.0356,0.0229,-0.1161,-1.7031222782530726,0.0,2.7284274101257324,-1.194191336631775,-0.0,2.144951343536377,3.7568599420734863,-0.0,0.26137614250183105,-1.0716407934771937,0.0,-0.04103177413344383,0.15540441870689392,-0.0,-0.0069817304611206055,1.4569299221038818,0.0,-0.011019687168300152
233.0,245.0,6.7825,0.6245,6.259,-0.0356,0.0229,-0.1161,-1.7031060657896937,0.0,2.664489269256592,-1.1941598653793335,-0.0,2.113379716873169,3.756936236018799,-0.0,0.2801012396812439,-1.0716565291034144,0.0,-0.047600679099559784,0.1554286628961563,-0.0,0.0076486701145768166,1.4569458961486816,0.0,0.013477878645062447
233.0,245.0,6.7825,0.6245,6.259,-0.0356,0.0229,-0.1161,-1.7031508884825648,0.0,2.687450885772705,-1.194183588027954,-0.0,2.1108741760253906,3.7568957048603515,-0.0,0.2639457583427429,-1.0716565291034144,0.0,-0.037099845707416534,0.1553724855184555,-0.0,0.0005456878570839763,1.456905722618103,0.0,-0.006015983410179615
233.0,245.0,6.7825,0.6245,6.259,-0.0356,0.0229,-0.1161,-1.703146596948141,0.0,2.6971259117126465,-1.1941953897476196,-0.0,2.1043777465820312,3.7568723398395996,-0.0,0.2583408057689667,-1.0716808477984827,0.0,-0.03778921812772751,0.1553884893655777,-0.0,-0.005730514880269766,1.456917643547058,0.0,-0.021456874907016754
233.0,245.0,6.7825,0.6245,6.259,-0.0356,0.0229,-0.1161,-1.7031341991820277,0.0,2.726249933242798,-1.1942076683044434,-0.0,2.1504902839660645,3.756908579463623,-0.0,0.2751283049583435,-1.071677033101217,0.0,-0.05108083039522171,0.1553766429424286,-0.0,0.003328249091282487,1.456969976425171,0.0,0.004041523206979036
231.0,245.0,6.5306,0.8106,6.4451,-0.0188,0.0183,-0.0892,-1.70318665126943,0.0,2.7056617736816406,-1.1942557096481323,-0.0,2.124803304672241,3.7568318086811523,-0.0,0.2680039703845978,-1.0716608206378382,0.0,-0.05396098643541336,0.15538033843040466,-0.0,0.007979664020240307,1.4569580554962158,0.0,-0.037807896733284
231.0,245.0,6.5306,0.8106,6.4451,-0.0188,0.0183,-0.0892,-1.7031423054137171,0.0,2.6901254653930664,-1.1942195892333984,-0.0,2.111781597137451,3.7568484979816894,-0.0,0.26970401406288147,-1.0717046896563929,0.0,-0.05766858905553818,0.15541672706604004,-0.0,-0.0006776638329029083,1.4569659233093262,0.0,-0.016584251075983047
231.0,245.0,6.5306,0.8106,6.4451,-0.0188,0.0183,-0.0892,-1.7031389675536097,0.0,2.6926050186157227,-1.194191336631775,-0.0,2.1305935382843018,3.7568556505390625,-0.0,0.2757002115249634,-1.0717127958880823,0.0,-0.0554288849234581,0.15541264414787292,-0.0,0.008713440038263798,1.4569618701934814,0.0,0.04116319864988327
231.0,245.0,6.5306,0.8106,6.4451,-0.0188,0.0183,-0.0892,-1.703174730340475,0.0,2.6618447303771973,-1.194275975227356,-0.0,2.0660243034362793,3.75686423360791,-0.0,0.2698810398578644,-1.0716889540301722,0.0,-0.05060897767543793,0.1554572731256485,-0.0,0.016812196001410484,1.456885576248169,0.0,-0.050411418080329895
231.0,245.0,6.5306,0.8106,6.4451,-0.0188,0.0183,-0.0892,-1.7031666241087855,0.0,2.691474437713623,-1.1941876411437988,-0.0,2.161071538925171,3.756880446071289,-0.0,0.2789795398712158,-1.0716646353351038,0.0,-0.042330268770456314,0.15544496476650238,-0.0,-0.006954117678105831,1.4569380283355713,0.0,0.02387961745262146
231.0,245.0,6.5306,0.8106,6.4451,-0.0188,0.0183,-0.0892,-1.7031785450377406,0.0,2.7142136096954346,-1.1942036151885986,-0.0,2.077043294906616,3.756852312678955,-0.0,0.25633031129837036,-1.0716727415667933,0.0,-0.03334120661020279,0.15538033843040466,-0.0,0.0007784526096656919,1.4569499492645264,0.0,-0.012673654593527317
231.0,245.0,6.5306,0.8106,6.4451,-0.0188,0.0183,-0.0892,-1.703158517877096,0.0,2.6884946823120117,-1.1942402124404907,-0.0,2.1251940727233887,3.75686423360791,-0.0,0.2694295644760132,-1.071677033101217,0.0,-0.04943293333053589,0.15538881719112396,-0.0,-0.0034144101664423943,1.4569339752197266,0.0,-0.015766985714435577
231.0,245.0,6.5306,0.8106,6.4451,-0.0188,0.0183,-0.0892,-1.7031904659666957,0.0,2.720020055770874,-1.1942559480667114,-0.0,2.1671433448791504,3.7568442064472656,-0.0,0.27309173345565796,-1.071700398121969,0.0,-0.04727008938789368,0.15544499456882477,-0.0,0.002500407164916396,1.4569135904312134,0.0,0.03754432871937752
231.0,245.0,6.5306,0.8106,6.4451,-0.0188,0.0183,-0.0892,-1.703118463555807,0.0,2.7038819789886475,-1.1941953897476196,-0.0,2.088898181915283,3.756847544307373,-0.0,0.2659439444541931,-1.071648422871725,0.0,-0.048356860876083374,0.15538033843040466,-0.0,0.0029114941135048866,1.4569339752197266,0.0,0.035667434334754944
231.0,245.0,6.5306,0.8106,6.4451,-0.0188,0.0183,-0.0892,-1.7031222782530726,0.0,2.697284460067749,-1.194176197052002,-0.0,2.154473304748535,3.756904287929199,-0.0,0.2704446315765381,-1.071693245564596,0.0,-0.03850027546286583,0.15541300177574158,-0.0,-0.005950873717665672,1.4569499492645264,0.0,-0.012477604672312737
231.0,245.0,6.5306,0.8106,6.4451,-0.0188,0.0183,-0.0892,-1.7031628094115199,0.0,2.7266392707824707,-1.194191336631775,-0.0,2.1330370903015137,3.756880446071289,-0.0,0.2788635492324829,-1.0716608206378382,0.0,-0.030091140419244766,0.15543273091316223,-0.0,0.0015337819932028651,1.456954002380371,0.0,0.02624441869556904
231.0,245.0,6.5306,0.8106,6.4451,-0.0188,0.0183,-0.0892,-1.703130384484762,0.0,2.657329559326172,-1.1941953897476196,-0.0,2.141916036605835,3.756908579463623,-0.0,0.26135867834091187,-1.0716851393329065,0.0,-0.045194268226623535,0.15538030862808228,-0.0,0.00457121804356575,1.4569740295410156,0.0,-0.013087017461657524
231.0,245.0,6.5306,0.8106,6.4451,-0.0188,0.0183,-0.0892,-1.7031628094115199,0.0,2.686372995376587,-1.1942483186721802,-0.0,2.1403653621673584,3.7569443422504882,-0.0,0.25949591398239136,-1.071693245564596,0.0,-0.03921160474419594,0.1553642749786377,-0.0,-0.007973788306117058,1.45697820186615,0.0,0.004681584890931845
231.0,245.0,6.5306,0.8106,6.4451,-0.0188,0.0183,-0.0892,-1.7030979595580042,0.0,2.671239137649536,-1.194183588027954,-0.0,2.1102263927459717,3.756863756770752,-0.0,0.27510395646095276,-1.0716851393329065,0.0,-0.04063332825899124,0.15539661049842834,-0.0,-0.008241398259997368,1.456954002380371,0.0,0.015136098489165306
237.0,246.0,6.74,0.5599,6.3356,-0.0504,0.0295,-0.1223,-1.703118463555807,0.0,2.7106382846832275,-1.1941953897476196,-0.0,2.096999406814575,3.7568556505390625,-0.0,0.26556795835494995,-1.0716727415667933,0.0,-0.04081682115793228,0.15538844466209412,-0.0,0.013029382564127445,1.4569134712219238,0.0,0.0009918129071593285
237.0,246.0,6.74,0.5599,6.3356,-0.0504,0.0295,-0.1223,-1.7031704388060511,0.0,2.6620872020721436,-1.1941640377044678,-0.0,2.124756336212158,3.756931944484375,-0.0,0.2688605487346649,-1.0716527144061487,0.0,-0.04384691268205643,0.15545311570167542,-0.0,0.00023450607841368765,1.4569216966629028,0.0,0.05059664696455002
237.0,246.0,6.74,0.5599,6.3356,-0.0504,0.0295,-0.1223,-1.703146596948141,0.0,2.696762800216675,-1.1942198276519775,-0.0,2.1363823413848877,3.7568999963947753,-0.0,0.26138168573379517,-1.0717170874225062,0.0,-0.04563448578119278,0.1554691195487976,-0.0,-0.012400960549712181,1.456954002380371,0.0,0.014699083752930164
237.0,246.0,6.74,0.5599,6.3356,-0.0504,0.0295,-0.1223,-1.7031146488585414,0.0,2.6892740726470947,-1.1942435503005981,-0.0,2.106933832168579,3.756863756770752,-0.0,0.2728210389614105,-1.0716565291034144,0.0,-0.046224091202020645,0.15543679893016815,-0.0,0.009555736556649208,1.4569859504699707,0.0,-0.007705271244049072
237.0,246.0,6.74,0.5599,6.3356,-0.0504,0.0295,-0.1223,-1.7031508884825648,0.0,2.6698150634765625,-1.194219708442688,-0.0,2.1446847915649414,3.7568794923969726,-0.0,0.2619750499725342,-1.0716975370990198,0.0,-0.058143250644207,0.15540480613708496,-0.0,0.014162282459437847,1.456917643547058,0.0,-0.0013549551367759705
237.0,246.0,6.74,0.5599,6.3356,-0.0504,0.0295,-0.1223,-1.7031103573241175,0.0,2.6819076538085938,-1.1942477226257324,-0.0,2.1407837867736816,3.756880446071289,-0.0,0.2581820785999298,-1.0716565291034144,0.0,-0.04403211176395416,0.15542449057102203,-0.0,-0.0003306205617263913,1.45696222782135,0.0,-0.03623642027378082
237.0,246.0,6.74,0.5599,6.3356,-0.0504,0.0295,-0.1223,-1.7031389675536097,0.0,2.7126059532165527,-1.194227933883667,-0.0,2.089024543762207,3.7568766313740234,-0.0,0.2675219774246216,-1.0716527144061487,0.0,-0.043568119406700134,0.15542449057102203,-0.0,0.004272188059985638,1.456986427307129,0.0,-0.022228065878152847
237.0,246.0,6.74,0.5599,6.3356,-0.0504,0.0295,-0.1223,-1.703158517877096,0.0,2.6720504760742188,-1.1942075490951538,-0.0,2.1360433101654053,3.756880446071289,-0.0,0.26047664880752563,-1.0716407934771937,0.0,-0.0438108891248703,0.15542501211166382,-0.0,0.012447082437574863,1.4569299221038818,0.0,-0.0015438683331012726
237.0,246.0,6.74,0.5599,6.3356,-0.0504,0.0295,-0.1223,-1.703130384484762,0.0,2.636033058166504,-1.1941802501678467,-0.0,2.097151279449463,3.7568957048603515,-0.0,0.27504396438598633,-1.0716407934771937,0.0,-0.03685323894023895,0.15542864799499512,-0.0,-0.007234663236886263,1.4569380283355713,0.0,-0.002230471931397915
237.0,246.0,6.74,0.5599,6.3356,-0.0504,0.0295,-0.1223,-1.7031785450377406,0.0,2.6979427337646484,-1.1941596269607544,-0.0,2.115865707397461,3.756924791927002,-0.0,0.2753370702266693,-1.0716446081744593,0.0,-0.043741967529058456,0.1553967297077179,-0.0,-0.0022650540340691805,1.4569740295410156,0.0,-0.001807015622034669
237.0,246.0,6.74,0.5599,6.3356,-0.0504,0.0295,-0.1223,-1.7031547031798304,0.0,2.6839451789855957,-1.1941916942596436,-0.0,2.157238245010376,3.7569166856953125,-0.0,0.26528194546699524,-1.0716565291034144,0.0,-0.0510651096701622,0.1554126888513565,-0.0,0.00508365873247385,1.456969976425171,0.0,0.01904635690152645
237.0,246.0,6.74,0.5599,6.3356,-0.0504,0.0295,-0.1223,-1.7031628094115199,0.0,2.6951117515563965,-1.1941837072372437,-0.0,2.147329807281494,3.7568484979816894,-0.0,0.2814181447029114,-1.0717089811908167,0.0,-0.056531473994255066,0.155368372797966,-0.0,-0.00016769743524491787,1.456990122795105,0.0,-0.005334125831723213
237.0,246.0,6.74,0.5599,6.3356,-0.0504,0.0295,-0.1223,-1.703174730340475,0.0,2.6817424297332764,-1.1942278146743774,-0.0,2.1202778816223145,3.7568928438374023,-0.0,0.2649664878845215,-1.0716689268695276,0.0,-0.03954879194498062,0.15544913709163666,-0.0,-0.0015708799473941326,1.456954002380371,0.0,-0.011160023510456085
237.0,246.0,6.74,0.5599,6.3356,-0.0504,0.0295,-0.1223,-1.7031861744322718,0.0,2.6944186687469482,-1.194143533706665,-0.0,2.1367475986480713,3.756880446071289,-0.0,0.2610110342502594,-1.071700398121969,0.0,-0.04739192873239517,0.1553843915462494,-0.0,-0.00016988793504424393,1.4569580554962158,0.0,-0.021456433460116386
235.0,238.0,6.6616,0.6443,6.408,-0.0327,0.0321,-0.1116,-1.703130384484762,0.0,2.6809158325195312,-1.1942076683044434,-0.0,2.1253535747528076,3.756884737605713,-0.0,0.26375338435173035,-1.071693245564596,0.0,-0.03767913952469826,0.15542490780353546,-0.0,0.0005910207983106375,1.456954002380371,0.0,-0.010002418421208858
235.0,238.0,6.6616,0.6443,6.408,-0.0327,0.0321,-0.1116,-1.7031384907164515,0.0,2.724987506866455,-1.1941837072372437,-0.0,2.1198604106903076,3.7569166856953125,-0.0,0.26883381605148315,-1.0716684500323694,0.0,-0.04293425381183624,0.1554170846939087,-0.0,-0.004959437996149063,1.4569016695022583,0.0,-0.012981265783309937
235.0,238.0,6.6616,0.6443,6.408,-0.0327,0.0321,-0.1116,-1.7031709156432093,0.0,2.6663031578063965,-1.1942442655563354,-0.0,2.082296371459961,3.7568766313740234,-0.0,0.26451098918914795,-1.0716689268695276,0.0,-0.047854721546173096,0.15546508133411407,-0.0,-0.0009723559487611055,1.4569298028945923,0.0,-0.03572480008006096
235.0,238.0,6.6616,0.6443,6.408,-0.0327,0.0321,-0.1116,-1.7031508884825648,0.0,2.722592830657959,-1.1941639184951782,-0.0,2.1160993576049805,3.7568957048603515,-0.0,0.26055586338043213,-1.0716889540301722,0.0,-0.051102414727211,0.15542080998420715,-0.0,-0.017292199656367302,1.4569659233093262,0.0,-0.019997185096144676
235.0,238.0,6.6616,0.6443,6.408,-0.0327,0.0321,-0.1116,-1.7031222782530726,0.0,2.720180034637451,-1.1941754817962646,-0.0,2.1564717292785645,3.756908579463623,-0.0,0.2562846541404724,-1.0716889540301722,0.0,-0.04711011052131653,0.15541672706604004,-0.0,-0.011118763126432896,1.456969976425171,0.0,-0.021523626521229744
235.0,238.0,6.6616,0.6443,6.408,-0.0327,0.0321,-0.1116,-1.7031547031798304,0.0,2.697819232940674,-1.1942394971847534,-0.0,2.089297294616699,3.756932421321533,-0.0,0.258926123380661,-1.0717089811908167,0.0,-0.04102577269077301,0.15536005795001984,-0.0,0.0004326724447309971,1.4569580554962158,0.0,-0.02422008290886879
235.0,238.0,6.6616,0.6443,6.408,-0.0327,0.0321,-0.1116,-1.70318665126943,0.0,2.6785035133361816,-1.194227933883667,-0.0,2.116302013397217,3.7568842607685546,-0.0,0.2551311254501343,-1.0716689268695276,0.0,-0.047682300209999084,0.15540894865989685,-0.0,0.0016129545401781797,1.4569778442382812,0.0,0.0007691060891374946
235.0,238.0,6.6616,0.6443,6.408,-0.0327,0.0321,-0.1116,-1.7031222782530726,0.0,2.7213187217712402,-1.194227933883667,-0.0,2.125833749771118,3.75684039175,-0.0,0.27074915170669556,-1.0716646353351038,0.0,-0.043558381497859955,0.15541672706604004,-0.0,-0.0006932499818503857,1.4569860696792603,0.0,0.045790184289216995
235.0,238.0,6.6616,0.6443,6.408,-0.0327,0.0321,-0.1116,-1.7031785450377406,0.0,2.7092652320861816,-1.1941794157028198,-0.0,2.1040570735931396,3.7568608957478027,-0.0,0.2695406973361969,-1.0716646353351038,0.0,-0.054497405886650085,0.1554490476846695,-0.0,0.00249958666972816,1.4569700956344604,0.0,0.01940157637000084
235.0,238.0,6.6616,0.6443,6.408,-0.0327,0.0321,-0.1116,-1.703130384484762,0.0,2.6637115478515625,-1.1942518949508667,-0.0,2.1211063861846924,3.756887598628662,-0.0,0.2739298343658447,-1.0716608206378382,0.0,-0.04857363551855087,0.15541711449623108,-0.0,0.010628980584442616,1.4569580554962158,0.0,-0.008638782426714897
235.0,238.0,6.6616,0.6443,6.408,-0.0327,0.0321,-0.1116,-1.7031384907164515,0.0,2.692552089691162,-1.1942321062088013,-0.0,2.157097339630127,3.756880446071289,-0.0,0.2654580771923065,-1.071677033101217,0.0,-0.0483601838350296,0.15541264414787292,-0.0,-0.0005847930442541838,1.4569860696792603,0.0,0.012151475064456463
235.0,238.0,6.6616,0.6443,6.408,-0.0327,0.0321,-0.1116,-1.7031389675536097,0.0,2.6409716606140137,-1.1942198276519775,-0.0,2.1224470138549805,3.756884737605713,-0.0,0.26086413860321045,-1.0716975370990198,0.0,-0.04623522236943245,0.1553364247083664,-0.0,0.0010069049894809723,1.4569499492645264,0.0,0.0068627335131168365
235.0,238.0,6.6616,0.6443,6.408,-0.0327,0.0321,-0.1116,-1.7031508884825648,0.0,2.7144808769226074,-1.1942033767700195,-0.0,2.112605571746826,3.7568680483051757,-0.0,0.26060542464256287,-1.071677033101217,0.0,-0.03931345418095589,0.15543679893016815,-0.0,0.003455151803791523,1.456897497177124,0.0,0.018730225041508675
232.0,240.0,6.7723,0.6347,6.3571,-0.0373,0.0174,-0.1119,-1.7030908070006312,0.0,2.6468136310577393,-1.1942195892333984,-0.0,2.0773305892944336,3.7568599420734863,-0.0,0.25855445861816406,-1.0716851393329065,0.0,-0.05707725137472153,0.1553766429424286,-0.0,-0.0038979467935860157,1.4569982290267944,0.0,-0.016358882188796997
232.0,240.0,6.7723,0.6347,6.3571,-0.0373,0.0174,-0.1119,-1.7031628094115199,0.0,2.6786253452301025,-1.194199562072754,-0.0,2.1439754962921143,3.7569166856953125,-0.0,0.2704305648803711,-1.0716851393329065,0.0,-0.04580619931221008,0.15540488064289093,-0.0,0.005848762579262257,1.4569580554962158,0.0,-0.021859807893633842
232.0,240.0,6.7723,0.6347,6.3571,-0.0373,0.0174,-0.1119,-1.7031508884825648,0.0,2.7167460918426514,-1.1942036151885986,-0.0,2.106017589569092,3.756884737605713,-0.0,0.2588082551956177,-1.0716689268695276,0.0,-0.048885345458984375,0.15538440644741058,-0.0,-0.004808043595403433,1.456950306892395,0.0,-0.011081227101385593
232.0,240.0,6.7723,0.6347,6.3571,-0.0373,0.0174,-0.1119,-1.7031265697874964,0.0,2.6769542694091797,-1.194183111190796,-0.0,2.0800373554229736,3.756852312678955,-0.0,0.27307671308517456,-1.0716851393329065,0.0,-0.04873061180114746,0.15541672706604004,-0.0,-0.007695951499044895,1.45696222782135,0.0,0.002146656159311533
232.0,240.0,6.7723,0.6347,6.3571,-0.0373,0.0174,-0.1119,-1.703174730340475,0.0,2.6669156551361084,-1.1942476034164429,-0.0,2.1618525981903076,3.7568794923969726,-0.0,0.2526642084121704,-1.0716851393329065,0.0,-0.0453493669629097,0.15541711449623108,-1.1350859949743608e-06,-0.010173105634748936,1.4569982290267944,0.0,-0.05160054191946983
232.0,240.0,6.7723,0.6347,6.3571,-0.0373,0.0174,-0.1119,-1.7031947575011195,0.0,2.762967824935913,-1.1942074298858643,-0.0,2.1116535663604736,3.756904287929199,-0.0,0.26741722226142883,-1.0716446081744593,0.0,-0.05602602660655975,0.15541301667690277,-3.159553729759068e-10,-0.008372996002435684,1.456954002380371,0.0,-0.013579817488789558
232.0,240.0,6.7723,0.6347,6.3571,-0.0373,0.0174,-0.1119,-1.703130384484762,0.0,2.6902432441711426,-1.1941598653793335,-0.0,2.1447386741638184,3.7568766313740234,-0.0,0.26201945543289185,-1.0716851393329065,0.0,-0.05469754338264465,0.1553843766450882,-8.794734282198749e-14,0.00291047478094697,1.4569859504699707,0.0,0.038571376353502274
232.0,240.0,6.7723,0.6347,6.3571,-0.0373,0.0174,-0.1119,-1.7031341991820277,0.0,2.66876220703125,-1.1942076683044434,-0.0,2.123422861099243,3.7569166856953125,-0.0,0.2752450704574585,-1.0716889540301722,0.0,-0.03682304918766022,0.15536846220493317,-2.4480466476788508e-17,0.007017787545919418,1.4569380283355713,0.0,0.01612210087478161
232.0,240.0,6.7723,0.6347,6.3571,-0.0373,0.0174,-0.1119,-1.7031785450377406,0.0,2.662013530731201,-1.194175362586975,-0.0,2.066884994506836,3.7568766313740234,-0.0,0.2687440514564514,-1.0716646353351038,0.0,-0.05299805477261543,0.15544094145298004,-6.814228260093746e-21,-0.005562732461839914,1.4569458961486816,0.0,0.031798381358385086
232.0,240.0,6.7723,0.6347,6.3571,-0.0373,0.0174,-0.1119,-1.7032104931273402,0.0,2.6552586555480957,-1.1942763328552246,-0.0,2.138373374938965,3.756880446071289,-0.0,0.2588110864162445,-1.0716851393329065,0.0,-0.045716989785432816,0.15536005795001984,-1.2384523333695805e-25,-0.005507318768650293,1.456969976425171,0.0,0.039692752063274384
232.0,240.0,6.7723,0.6347,6.3571,-0.0373,0.0174,-0.1119,-1.703146596948141,0.0,2.674825668334961,-1.1942238807678223,-0.0,2.0851094722747803,3.7568680483051757,-0.0,0.2565927505493164,-1.0716889540301722,0.0,-0.04503731429576874,0.15536008775234222,-3.4472773779446146e-29,0.006533811800181866,1.456942081451416,0.0,0.01887875236570835
232.0,240.0,6.7723,0.6347,6.3571,-0.0373,0.0174,-0.1119,-1.703102251092428,0.0,2.679806709289551,-1.1942237615585327,-0.0,2.1214466094970703,3.7568723398395996,-0.0,0.28025057911872864,-1.071693245564596,0.0,-0.05309520289301872,0.15537205338478088,-9.59562356858369e-33,0.003856622613966465,1.4569580554962158,0.0,0.01692134141921997
232.0,240.0,6.7723,0.6347,6.3571,-0.0373,0.0174,-0.1119,-1.7031628094115199,0.0,2.720790147781372,-1.1941598653793335,-0.0,2.169032573699951,3.7569123941608886,-0.0,0.2572482228279114,-1.071681324635641,0.0,-0.04292348027229309,0.15532439947128296,-2.670976932372855e-36,-0.0023951344192028046,1.4570063352584839,0.0,-0.004204846452921629
232.0,240.0,6.7723,0.6347,6.3571,-0.0373,0.0174,-0.1119,-1.703174730340475,0.0,2.6945114135742188,-1.1942402124404907,-0.0,2.1061246395111084,3.756911440486572,-0.0,0.26362374424934387,-1.0716889540301722,0.0,-0.0444849357008934,0.1553843915462494,-4.854378140114031e-41,0.0017963871359825134,1.4569257497787476,0.0,0.0254189632833004
236.0,241.0,6.8895,0.6024,6.1807,-0.0241,0.0229,-0.1132,-1.7031103573241175,0.0,2.6992452144622803,-1.194199562072754,-0.0,2.1723413467407227,3.756904287929199,-0.0,0.2712951898574829,-1.0716851393329065,0.0,-0.05172649025917053,0.15542082488536835,-1.401298464324817e-44,0.004682683385908604,1.4570146799087524,0.0,0.026451539248228073
236.0,241.0,6.8895,0.6024,6.1807,-0.0241,0.0229,-0.1132,-1.7031103573241175,0.0,2.664963722229004,-1.19417142868042,-0.0,2.137948751449585,3.7568837839313964,-0.0,0.24464298784732819,-1.0716851393329065,0.0,-0.04843059182167053,0.1553606390953064,-0.0,0.006128316279500723,1.4569659233093262,0.0,0.032774344086647034
236.0,241.0,6.8895,0.6024,6.1807,-0.0241,0.0229,-0.1132,-1.7031227550902308,0.0,2.68721079826355,-1.1942400932312012,-0.0,2.1058056354522705,3.7569123941608886,-0.0,0.27160975337028503,-1.0717209021197718,0.0,-0.0444352850317955,0.15544095635414124,-0.0,0.005032304674386978,1.456990122795105,0.0,0.033519044518470764
236.0,241.0,6.8895,0.6024,6.1807,-0.0241,0.0229,-0.1132,-1.7031508884825648,0.0,2.6962294578552246,-1.1942195892333984,-0.0,2.1560752391815186,3.756847544307373,-0.0,0.27551668882369995,-1.0716565291034144,0.0,-0.053796105086803436,0.15540848672389984,-0.0,-0.005476231686770916,1.457018256187439,0.0,-0.01390792429447174
236.0,241.0,6.8895,0.6024,6.1807,-0.0241,0.0229,-0.1132,-1.7031146488585414,0.0,2.6374640464782715,-1.1942238807678223,-0.0,2.065805196762085,3.7569238382526855,-0.0,0.27256232500076294,-1.0716727415667933,0.0,-0.0476495623588562,0.15544095635414124,-0.0,-0.004932026378810406,1.4569859504699707,0.0,0.04473806172609329
236.0,241.0,6.8895,0.6024,6.1807,-0.0241,0.0229,-0.1132,-1.7031547031798304,0.0,2.7091147899627686,-1.1942156553268433,-0.0,2.1322004795074463,3.7568723398395996,-0.0,0.25548437237739563,-1.071648899708883,0.0,-0.047093771398067474,0.15537618100643158,-0.0,-0.013764549046754837,1.4569618701934814,0.0,-0.0431252084672451
236.0,241.0,6.8895,0.6024,6.1807,-0.0241,0.0229,-0.1132,-1.7031508884825648,0.0,2.739561080932617,-1.1942322254180908,-0.0,2.1400294303894043,3.756880446071289,-0.0,0.2604934573173523,-1.0716689268695276,0.0,-0.04961709305644035,0.15544095635414124,-0.0,0.007787938695400953,1.45696222782135,0.0,0.036933619529008865
236.0,241.0,6.8895,0.6024,6.1807,-0.0241,0.0229,-0.1132,-1.7031227550902308,0.0,2.658996105194092,-1.194176197052002,-0.0,2.06916880607605,3.7568766313740234,-0.0,0.2622162103652954,-1.071700398121969,0.0,-0.047448351979255676,0.15541264414787292,-0.0,0.003061072900891304,1.4569778442382812,0.0,-0.002838978311046958
236.0,241.0,6.8895,0.6024,6.1807,-0.0241,0.0229,-0.1132,-1.7031628094115199,0.0,2.6781954765319824,-1.1942116022109985,-0.0,2.128202438354492,3.756936236018799,-0.0,0.2757330536842346,-1.0716403166400355,0.0,-0.057391807436943054,0.15542903542518616,-0.0,0.005940446630120277,1.456942081451416,0.0,0.004122030455619097
236.0,241.0,6.8895,0.6024,6.1807,-0.0241,0.0229,-0.1132,-1.7031222782530726,0.0,2.7253260612487793,-1.1942319869995117,-0.0,2.1348302364349365,3.7568556505390625,-0.0,0.261859655380249,-1.071700398121969,0.0,-0.0529518760740757,0.15542080998420715,-0.0,0.011279486119747162,1.4569859504699707,0.0,0.010285507887601852
236.0,241.0,6.8895,0.6024,6.1807,-0.0241,0.0229,-0.1132,-1.7031389675536097,0.0,2.6726431846618652,-1.1942076683044434,-0.0,2.1321043968200684,3.7569443422504882,-0.0,0.2650681436061859,-1.0716565291034144,0.0,-0.045895252376794815,0.1554650366306305,-0.0,-0.001381770009174943,1.456954002380371,0.0,0.004174364730715752
236.0,241.0,6.8895,0.6024,6.1807,-0.0241,0.0229,-0.1132,-1.7031461201109828,0.0,2.675375461578369,-1.1941436529159546,-0.0,2.1013760566711426,3.756915732020996,-0.0,0.26904964447021484,-1.0716407934771937,0.0,-0.0501084178686142,0.15542040765285492,-0.0,0.006396218203008175,1.4569859504699707,0.0,0.06387936323881149
236.0,241.0,6.8895,0.6024,6.1807,-0.0241,0.0229,-0.1132,-1.7031547031798304,0.0,2.7142720222473145,-1.1942076683044434,-0.0,2.110436201095581,3.7568680483051757,-0.0,0.2663979232311249,-1.0716646353351038,0.0,-0.04302943870425224,0.15538033843040466,-0.0,0.009328304789960384,1.4569299221038818,0.0,-0.007005368359386921
236.0,241.0,6.8895,0.6024,6.1807,-0.0241,0.0229,-0.1132,-1.7031542263426722,0.0,2.653346300125122,-1.1942477226257324,-0.0,2.1295244693756104,3.756936236018799,-0.0,0.26128315925598145,-1.0716689268695276,0.0,-0.04896978288888931,0.1553606539964676,-0.0,-0.005822014529258013,1.4569462537765503,0.0,-0.005874339025467634
236.0,240.0,6.8333,0.6401,6.0126,-0.0376,0.0287,-0.1151,-1.7030898533263148,0.0,2.70111083984375,-1.1942236423492432,-0.0,2.129733085632324,3.756915732020996,-0.0,0.27178433537483215,-1.0716326872455042,0.0,-0.054845042526721954,0.15535609424114227,-0.0,0.0032969010062515736,1.4569458961486816,0.0,0.011101064272224903
236.0,240.0,6.8333,0.6401,6.0126,-0.0376,0.0287,-0.1151,-1.7031222782530726,0.0,2.6544179916381836,-1.1941876411437988,-0.0,2.132021188735962,3.756911440486572,-0.0,0.2652401328086853,-1.0716727415667933,0.0,-0.05436254292726517,0.1554044783115387,-0.0,-0.0018694751197472215,1.4569659233093262,0.0,-0.0010482470970600843
236.0,240.0,6.8333,0.6401,6.0126,-0.0376,0.0287,-0.1151,-1.7031389675536097,0.0,2.6571812629699707,-1.1941639184951782,-0.0,2.115683078765869,3.75692002355542,-0.0,0.26901331543922424,-1.0716889540301722,0.0,-0.04371681809425354,0.15543682873249054,-0.0,0.010160459205508232,1.456981897354126,0.0,0.02639201655983925
236.0,240.0,6.8333,0.6401,6.0126,-0.0376,0.0287,-0.1151,-1.7031222782530726,0.0,2.701192617416382,-1.1942152976989746,-0.0,2.1099283695220947,3.756904287929199,-0.0,0.2662196755409241,-1.0716689268695276,0.0,-0.0428367480635643,0.15537616610527039,-0.0,0.003477934282273054,1.4569458961486816,0.0,-0.004824599251151085
236.0,240.0,6.8333,0.6401,6.0126,-0.0376,0.0287,-0.1151,-1.7031828365721644,0.0,2.70947265625,-1.1942195892333984,-0.0,2.1002798080444336,3.756936236018799,-0.0,0.2716895341873169,-1.0716527144061487,0.0,-0.04846259579062462,0.155384361743927,-0.0,0.004836480598896742,1.4569659233093262,0.0,-0.007699950598180294
236.0,240.0,6.8333,0.6401,6.0126,-0.0376,0.0287,-0.1151,-1.7031060657896937,0.0,2.689507007598877,-1.1941559314727783,-0.0,2.155628204345703,3.75694386541333,-0.0,0.26526862382888794,-1.0716727415667933,0.0,-0.05102001875638962,0.15543274581432343,-0.0,0.003090798854827881,1.4569859504699707,0.0,0.0004902388900518417
236.0,240.0,6.8333,0.6401,6.0126,-0.0376,0.0287,-0.1151,-1.703130384484762,2.436446422393601e-08,2.7180583477020264,-1.1941556930541992,-0.0,2.1653265953063965,3.7569562631794433,-0.0,0.27962005138397217,-1.071681324635641,0.0,-0.046751268208026886,0.15539665520191193,-0.0,-0.003804698819294572,1.4569417238235474,0.0,-0.03793734312057495
236.0,240.0,6.8333,0.6401,6.0126,-0.0376,0.0287,-0.1151,-1.703146596948141,5.883730731359033e-14,2.692838191986084,-1.1941683292388916,-0.0,2.0989456176757812,3.7568599420734863,-0.0,0.26557350158691406,-1.0716727415667933,0.0,-0.049712542444467545,0.1554531753063202,-0.0,0.0019036567537114024,1.456917643547058,0.0,0.04238712042570114
236.0,240.0,6.8333,0.6401,6.0126,-0.0376,0.0287,-0.1151,-1.7031423054137171,1.4208516278505448e-19,2.678972005844116,-1.1942360401153564,-0.0,2.14764666557312,3.7569281297871093,-0.0,0.2659250497817993,-1.0716565291034144,0.0,-0.04198329150676727,0.15543273091316223,-0.0,-0.003181035164743662,1.4569417238235474,0.0,-0.008548137731850147
236.0,240.0,6.8333,0.6401,6.0126,-0.0376,0.0287,-0.1151,-1.703146596948141,4.6033781679317816e-27,2.6902313232421875,-1.1941999197006226,2.843641988548029e-12,2.1235837936401367,3.756960077876709,-0.0,0.2692386507987976,-1.0716689268695276,0.0,-0.04557962715625763,0.1553802639245987,-0.0,0.005686466116458178,1.456954002380371,0.0,0.018648749217391014
236.0,240.0,6.8333,0.6401,6.0126,-0.0376,0.0287,-0.1151,-1.7031828365721644,1.1116617014947756e-32,2.6666879653930664,-1.1941637992858887,0.001171592972241342,2.140482187271118,3.7569281297871093,-0.0,0.2753259241580963,-1.071693245564596,0.0,-0.04841466248035431,0.1553926169872284,-0.0,-0.006035626865923405,1.4569499492645264,0.0,-0.030025776475667953
236.0,240.0,6.8333,0.6401,6.0126,-0.0376,0.0287,-0.1151,-1.7031146488585414,2.684531927836411e-38,2.6903157234191895,-1.1942074298858643,0.001203228603117168,2.1690151691436768,3.7569076257893066,-0.0,0.26172783970832825,-1.0716245810138147,0.0,-0.04092860221862793,0.15542450547218323,-0.0,0.003085632808506489,1.4569536447525024,0.0,-0.02740401402115822
236.0,240.0,6.8333,0.6401,6.0126,-0.0376,0.0287,-0.1151,-1.7031423054137171,6.445972935894159e-44,2.725834369659424,-1.1942239999771118,0.0007650012848898768,2.126901626586914,3.7569281297871093,-0.0,0.2565249800682068,-1.0717170874225062,0.0,-0.03967970609664917,0.15541672706604004,-0.0,0.0005948066245764494,1.4569740295410156,0.0,-0.01042548380792141
236.0,240.0,6.8333,0.6401,6.0126,-0.0376,0.0287,-0.1151,-1.7031146488585414,-3.309076782898046e-05,2.7337570190429688,-1.1941518783569336,9.784207213670015e-05,2.157212734222412,3.7568723398395996,-0.0,0.26357656717300415,-1.071681324635641,0.0,-0.05329915136098862,0.15544095635414124,-0.0,-0.00659904582425952,1.4569376707077026,0.0,0.06764867156744003
243.0,243.0,6.8034,0.7011,6.3278,-0.0266,0.0299,-0.117,-1.7031704388060511,-3.34877404384315e-05,2.694516658782959,-1.1941876411437988,7.146762800402939e-05,2.144901990890503,3.7569195467182617,-0.0,0.262381911277771,-1.0716565291034144,0.0,-0.04598630219697952,0.15536433458328247,-0.0,-0.009542107582092285,1.4569458961486816,0.0,-0.0038964729756116867
243.0,243.0,6.8034,0.7011,6.3278,-0.0266,0.0299,-0.117,-1.7031947575011195,-5.9831556427525356e-05,2.7049946784973145,-1.194191575050354,2.3900679479993414e-06,2.1270904541015625,3.7569352823444824,-0.0,0.2616792917251587,-1.0717170874225062,0.0,-0.0362590029835701,0.15541672706604004,-0.0,0.004569973796606064,1.4569135904312134,0.0,0.01158874947577715
243.0,243.0,6.8034,0.7011,6.3278,-0.0266,0.0299,-0.117,-1.7031704388060511,-8.174873073585331e-05,2.7339229583740234,-1.1941801309585571,5.771732484310954e-12,2.0867209434509277,3.7568794923969726,-0.0,0.2659417390823364,-1.0716808477984827,0.0,-0.04765022173523903,0.15541672706604004,-0.0,0.011671938933432102,1.456969976425171,0.0,-0.029069045558571815
243.0,243.0,6.8034,0.7011,6.3278,-0.0266,0.0299,-0.117,-1.703198572198385,-0.00026992548373527825,2.6844730377197266,-1.1941684484481812,1.3938054532883845e-17,2.112544059753418,3.7568957048603515,-0.0,0.26401862502098083,-1.071677033101217,0.0,-0.040283650159835815,0.15542449057102203,-0.0,0.014199856668710709,1.4569499492645264,0.0,0.008502615615725517
243.0,243.0,6.8034,0.7011,6.3278,-0.0266,0.0299,-0.117,-1.7031861744322718,-0.0003823987499345094,2.6462860107421875,-1.1941955089569092,4.5157519145807e-25,2.1113333702087402,3.7568837839313964,-0.0,0.26177823543548584,-1.0716808477984827,0.0,-0.05086822435259819,0.1553967297077179,-0.0,0.010544933378696442,1.4569778442382812,0.0,-0.005049839615821838
243.0,243.0,6.8034,0.7011,6.3278,-0.0266,0.0299,-0.117,-1.7032109699644984,-0.0006306485738605261,2.711756944656372,-1.1941722631454468,1.0905008430431444e-30,2.111661911010742,3.756904287929199,-0.0,0.26904404163360596,-1.0716527144061487,0.0,-0.03373459726572037,0.15540072321891785,-0.0,-0.009266200475394726,1.4569778442382812,0.0,0.07645918428897858
243.0,243.0,6.8034,0.7011,6.3278,-0.0266,0.0299,-0.117,-1.7031618557372035,-0.0005336657050065696,2.680046558380127,-1.1942112445831299,2.6334311018391216e-36,2.1528890132904053,3.75686423360791,-0.0,0.27050596475601196,-1.0716527144061487,0.0,-0.03955630958080292,0.15541672706604004,-0.0,-0.007884223945438862,1.4569778442382812,0.0,0.0742325559258461
243.0,243.0,6.8034,0.7011,6.3278,-0.0266,0.0299,-0.117,-1.703226705590719,-0.0004115899500902742,2.6282341480255127,-1.1942476034164429,6.35909243110602e-42,2.1303870677948,3.75692002355542,-0.0,0.26900944113731384,-1.0717127958880823,0.0,-0.060686685144901276,0.1553564816713333,-0.0,-0.009380821138620377,1.4569859504699707,0.0,-0.011486105620861053
243.0,243.0,6.8034,0.7011,6.3278,-0.0266,0.0299,-0.117,-1.7032066784300746,-0.0003349778417032212,2.727928638458252,-1.194191575050354,0.0,2.134906530380249,3.7569405275532226,-0.0,0.26087623834609985,-1.0716889540301722,0.0,-0.05147763341665268,0.15544503927230835,-0.0,0.017281653359532356,1.4569662809371948,0.0,-0.019999243319034576
243.0,243.0,6.8034,0.7011,6.3278,-0.0266,0.0299,-0.117,-1.703198572198385,-0.0002683764323592186,2.6901979446411133,-1.194176197052002,-0.0,2.1114141941070557,3.756887598628662,-0.0,0.27052122354507446,-1.0716527144061487,0.0,-0.04263488948345184,0.15542903542518616,-0.0,-0.012842293828725815,1.4569499492645264,0.0,0.022139964625239372
243.0,243.0,6.8034,0.7011,6.3278,-0.0266,0.0299,-0.117,-1.7032023868956507,-0.0001992335746763274,2.694822072982788,-1.1941677331924438,-0.0,2.1369824409484863,3.7568766313740234,-0.0,0.26527392864227295,-1.0716689268695276,0.0,-0.039998672902584076,0.15539264678955078,-0.0,-0.005339446477591991,1.4569778442382812,0.0,0.01821769028902054
243.0,243.0,6.8034,0.7011,6.3278,-0.0266,0.0299,-0.117,-1.7032343349852503,-0.00017227231001015753,2.694685935974121,-1.1941838264465332,-0.0,2.1291370391845703,3.7568999963947753,-0.0,0.2701764404773712,-1.071677033101217,0.0,-0.045443758368492126,0.15540899336338043,-0.0,0.0014133749064058065,1.4569299221038818,0.0,-0.03538207337260246
243.0,243.0,6.8034,0.7011,6.3278,-0.0266,0.0299,-0.117,-1.7032109699644984,-0.0001850002008723095,2.6962645053863525,-1.1941684484481812,-0.0,2.0971457958221436,3.75692002355542,-0.0,0.2763639986515045,-1.0716851393329065,0.0,-0.05047627165913582,0.15544500946998596,-0.0,0.007116375491023064,1.4569860696792603,0.0,0.025998789817094803
243.0,243.0,6.8034,0.7011,6.3278,-0.0266,0.0299,-0.117,-1.7031542263426722,-0.00019019270257558674,2.7006397247314453,-1.1941684484481812,-5.867631989531219e-05,2.1177597045898438,3.7568794923969726,-0.0,0.2640603184700012,-1.0716565291034144,0.0,-0.04650827497243881,0.15539264678955078,-0.0,-0.0064115747809410095,1.456954002380371,0.0,-0.0005491063930094242
229.0,249.0,6.9362,0.8177,6.1328,-0.037,0.0192,-0.1089,-1.7032185993590296,-0.00014939618995413184,2.705385684967041,-1.194191575050354,-0.00010678098624339327,2.0827043056488037,3.756823702449463,-0.0,0.2692890763282776,-1.0716889540301722,0.0,-0.050185613334178925,0.1553606241941452,-0.0,-0.002828226424753666,1.4569499492645264,0.0,0.010152584873139858
229.0,249.0,6.9362,0.8177,6.1328,-0.037,0.0192,-0.1089,-1.703238149682516,-0.00021327413560356945,2.6910834312438965,-1.1942033767700195,-0.00045734201557934284,2.1605162620544434,3.75692002355542,-0.0,0.2707909941673279,-1.071700398121969,0.0,-0.042673759162425995,0.15542496740818024,-0.0,-0.009826470166444778,1.4569298028945923,0.0,0.02356792613863945
229.0,249.0,6.9362,0.8177,6.1328,-0.037,0.0192,-0.1089,-1.703238149682516,-0.0006535310531035066,2.6977107524871826,-1.1942232847213745,-0.00042056001257151365,2.092644691467285,3.756891890163086,-0.0,0.274053156375885,-1.0717127958880823,0.0,-0.042088329792022705,0.15537245571613312,-0.0,-0.00553261348977685,1.4569860696792603,0.0,0.015641197562217712
229.0,249.0,6.9362,0.8177,6.1328,-0.037,0.0192,-0.1089,-1.7032863102354945,-0.0004552649916149676,2.738832950592041,-1.194176197052002,-0.0003408940974622965,2.155693531036377,3.756976767177246,-0.0,0.2809099555015564,-1.0717251936541956,0.0,-0.045063652098178864,0.15540480613708496,-0.0,-0.005795525852590799,1.4569536447525024,0.0,0.04490099474787712
229.0,249.0,6.9362,0.8177,6.1328,-0.037,0.0192,-0.1089,-1.7032104931273402,-0.00032407211256213486,2.679847002029419,-1.1941797733306885,-0.00022680137772113085,2.1217401027679443,3.756915732020996,-0.0,0.261454701423645,-1.0716889540301722,0.0,-0.049016114324331284,0.15539664030075073,-0.0,0.010830054059624672,1.4569458961486816,0.0,0.011720631271600723
229.0,249.0,6.9362,0.8177,6.1328,-0.037,0.0192,-0.1089,-1.7032348118224085,-0.0002664865751285106,2.729038715362549,-1.1941876411437988,-0.00015761615941300988,2.136899471282959,3.756904287929199,-0.0,0.2727775573730469,-1.0717170874225062,0.0,-0.045859161764383316,0.155441015958786,-0.0,0.0052956161089241505,1.4569580554962158,0.0,-0.006905079819262028
229.0,249.0,6.9362,0.8177,6.1328,-0.037,0.0192,-0.1089,-1.7032066784300746,-0.0001810512039810419,2.69771146774292,-1.1941202878952026,-0.00010496871982468292,2.110511541366577,3.75692002355542,-0.0,0.26316753029823303,-1.071700398121969,0.0,-0.037278637290000916,0.15536879003047943,-0.0,-0.0024626334197819233,1.456954002380371,0.0,0.018065398558974266
229.0,249.0,6.9362,0.8177,6.1328,-0.037,0.0192,-0.1089,-1.7031542263426722,-0.00011803609959315509,2.6951406002044678,-1.194188117980957,7.738910790067166e-05,2.098217010498047,3.7568961816975097,-0.0,0.27074092626571655,-1.0717251936541956,0.0,-0.0454573854804039,0.15542864799499512,-0.0,0.0016087607946246862,1.4569659233093262,0.0,0.02855014242231846
229.0,249.0,6.9362,0.8177,6.1328,-0.037,0.0192,-0.1089,-1.703169961968893,6.41063234070316e-05,2.70396089553833,-1.194199562072754,7.418730820063502e-05,2.137512683868408,3.756891890163086,-0.0,0.2629859149456024,-1.0717089811908167,0.0,-0.04884563386440277,0.15540482103824615,-0.0,0.0027762465178966522,1.456981897354126,0.0,0.049573544412851334
229.0,249.0,6.9362,0.8177,6.1328,-0.037,0.0192,-0.1089,-1.703226705590719,7.273857772815973e-05,2.7127764225006104,-1.1941841840744019,6.368743197526783e-05,2.1286256313323975,3.7569076257893066,-0.0,0.269667387008667,-1.0717127958880823,0.0,-0.04812293499708176,0.15543273091316223,-0.0,0.005586305633187294,1.4569257497787476,0.0,-0.018927475437521935
229.0,249.0,6.9362,0.8177,6.1328,-0.037,0.0192,-0.1089,-1.7031904659666957,6.487352948170155e-05,2.670142650604248,-1.1941955089569092,5.757582403020933e-05,2.118833303451538,3.7569519716450195,-0.0,0.26580697298049927,-1.0716851393329065,0.0,-0.04637819901108742,0.15545272827148438,-0.0,0.005711361300200224,1.4569580554962158,0.0,-0.0012684501707553864
229.0,249.0,6.9362,0.8177,6.1328,-0.037,0.0192,-0.1089,-1.703242918054098,2.9271979656186886e-05,2.7173476219177246,-1.1942112445831299,2.6281913960701786e-05,2.1482439041137695,3.7569352823444824,-0.0,0.2709520161151886,-1.0716927687274378,0.0,-0.04587449133396149,0.15539668500423431,-0.0,0.00818781740963459,1.4569257497787476,0.0,0.02441813237965107
229.0,249.0,6.9362,0.8177,6.1328,-0.037,0.0192,-0.1089,-1.703254838983053,2.0602147765558243e-10,2.662764072418213,-1.1941797733306885,2.41525503952289e-05,2.1224188804626465,3.7569352823444824,-0.0,0.27488964796066284,-1.0717328230487269,0.0,-0.06690043956041336,0.15540480613708496,-0.0,0.011140543967485428,1.456950306892395,0.0,-0.0016464758664369583
229.0,249.0,6.9362,0.8177,6.1328,-0.037,0.0192,-0.1089,-1.7032624683775843,6.674833036961925e-18,2.660576820373535,-1.1941876411437988,1.2046203146098833e-08,2.112130641937256,3.756960077876709,0.00013207292067818344,0.2676040828227997,-1.0716889540301722,0.0,-0.05340377986431122,0.1553724855184555,-0.0,0.008493611589074135,1.4569580554962158,-6.31904840702191e-05,-0.005640258081257343
232.0,237.0,6.0802,0.5557,6.5252,-0.0359,0.0392,-0.1158,-1.7032305202879847,1.6118938449065684e-23,2.6747219562530518,-1.1942193508148193,2.909016411545458e-14,2.145016670227051,3.7569758135029296,0.00014582506264559925,0.28149694204330444,-1.071677033101217,0.0,-0.05101475864648819,0.1553884893655777,-0.0,-0.0011738481698557734,1.4569982290267944,-7.274560630321503e-05,0.004109698813408613
232.0,237.0,6.0802,0.5557,6.5252,-0.0359,0.0392,-0.1158,-1.7032305202879847,3.892533723640607e-29,2.6736536026000977,-1.1942155361175537,7.024932164743742e-20,2.123167037963867,3.7569758135029296,0.00013498975022230297,0.2661304175853729,-1.071681324635641,0.0,-0.05235614627599716,0.15544095635414124,-0.0,0.01200033351778984,1.456950306892395,-6.99376905686222e-05,0.04576018452644348
232.0,237.0,6.0802,0.5557,6.5252,-0.0359,0.0392,-0.1158,-1.7032343349852503,9.400009898046463e-35,2.7110605239868164,-1.194191575050354,1.6964383508853488e-25,2.1117959022521973,3.756960077876709,0.00014578932314179838,0.2746866047382355,-1.071688477193014,0.0,-0.05387949198484421,0.15548482537269592,-0.0,-0.004036471247673035,1.4569097757339478,-7.854223076719791e-05,0.0028913933783769608
232.0,237.0,6.0802,0.5557,6.5252,-0.0359,0.0392,-0.1158,-1.703238149682516,-0.0001004665537038818,2.726804733276367,-1.1941643953323364,4.096698905129843e-31,2.138749361038208,3.7570077615925292,0.0002936293021775782,0.27116018533706665,-1.0717046896563929,0.0,-0.04334642365574837,0.15546105802059174,-0.0,0.013058298267424107,1.4569422006607056,-8.66475747898221e-05,0.0303641390055418
232.0,237.0,6.0802,0.5557,6.5252,-0.0359,0.0392,-0.1158,-1.703238149682516,-0.0003192503354512155,2.7255778312683105,-1.1942033767700195,1.327278236063173e-38,2.09745192527771,3.75694386541333,0.0003450349031481892,0.27678266167640686,-1.0716889540301722,0.0,-0.057306207716464996,0.15540072321891785,-0.0,0.008052662014961243,1.4568737745285034,-0.00029168385663069785,0.035589005798101425
232.0,237.0,6.0802,0.5557,6.5252,-0.0359,0.0392,-0.1158,-1.7032863102354945,-0.0007592789479531348,2.692645311355591,-1.1942636966705322,3.2229864679470793e-44,2.0993051528930664,3.7569591242023925,0.0004566406714729965,0.27568721771240234,-1.0716689268695276,0.0,-0.053343676030635834,0.1554286628961563,-0.0,0.02151503786444664,1.456950306892395,-0.000292841752525419,-0.017369337379932404
232.0,237.0,6.0802,0.5557,6.5252,-0.0359,0.0392,-0.1158,-1.7032705746092738,-0.001289937412366271,2.7060043811798096,-1.1941838264465332,-0.0,2.0945513248443604,3.756939573878906,0.0004244413576088846,0.2723356783390045,-1.0716851393329065,0.0,-0.04481816291809082,0.15543675422668457,-0.0,0.03044072538614273,1.4569180011749268,-0.00044097614591009915,-0.02569079026579857
232.0,237.0,6.0802,0.5557,6.5252,-0.0359,0.0392,-0.1158,-1.7032739124693812,-0.0017315149307250977,2.702420949935913,-1.1942155361175537,-0.0,2.099071979522705,3.7570158678242187,0.0003967637021560222,0.2767081558704376,-1.071677033101217,0.0,-0.03894553706049919,0.1554490625858307,-0.0,0.011684685945510864,1.4569180011749268,-0.0004819462774321437,-0.0033339657820761204
232.0,237.0,6.0802,0.5557,6.5252,-0.0359,0.0392,-0.1158,-1.7033220730223597,-0.0024599514435976744,2.657586097717285,-1.194259524345398,-0.0,2.132026195526123,3.7569758135029296,0.00032518221996724606,0.27290967106819153,-1.0716646353351038,0.0,-0.04885610193014145,0.15543672442436218,-0.0,0.022790994495153427,1.4568983316421509,-0.00044863190851174295,0.0250085461884737
232.0,237.0,6.0802,0.5557,6.5252,-0.0359,0.0392,-0.1158,-1.7033702335753382,-0.0031848556827753782,2.7274322509765625,-1.194199562072754,-0.000221295835217461,2.1073315143585205,3.7569357591816406,0.00026203945162706077,0.2702004313468933,-1.0716689268695276,0.0,-0.04139217734336853,0.15542864799499512,-3.685351046556207e-08,0.03166598826646805,1.4569183588027954,-0.000469487247755751,-0.0021751392632722855
232.0,237.0,6.0802,0.5557,6.5252,-0.0359,0.0392,-0.1158,-1.703374525109762,-0.004322501830756664,2.660327434539795,-1.1942353248596191,-0.0002703073259908706,2.107306957244873,3.7569801050373535,0.00022873295529279858,0.28126829862594604,-1.0716970602618616,0.0,-0.04388270154595375,0.15546908974647522,-1.0258311561317512e-11,0.023730136454105377,1.4569302797317505,-0.0004550456942524761,0.021192029118537903
232.0,237.0,6.0802,0.5557,6.5252,-0.0359,0.0392,-0.1158,-1.703381677667135,-0.004734317772090435,2.6942124366760254,-1.1942754983901978,-0.00023990646877791733,2.1198153495788574,3.75694386541333,0.00020294009300414473,0.29040729999542236,-1.0716450850116175,0.0,-0.04927626997232437,0.15545271337032318,-2.8554389094778395e-15,0.032177191227674484,1.4568618535995483,-0.0005247151711955667,0.0322415716946125
232.0,237.0,6.0802,0.5557,6.5252,-0.0359,0.0392,-0.1158,-1.7034384212889613,-0.004306877497583628,2.6784143447875977,-1.1942278146743774,-0.00021530834783334285,2.1068339347839355,3.7570478159138183,0.0001823748170863837,0.27413713932037354,-1.0716727415667933,0.0,-0.04288596287369728,0.1554408073425293,-7.948218239778361e-19,0.0466710701584816,1.4568578004837036,-0.000625229615252465,-0.003695218823850155
232.0,237.0,6.0802,0.5557,6.5252,-0.0359,0.0392,-0.1158,-1.703482290307516,-0.0032780305482447147,2.695535182952881,-1.1942517757415771,-0.00021647340327035636,2.165189743041992,3.75699965536084,0.00018744166300166398,0.28778237104415894,-1.0716450850116175,0.0,-0.05422335863113403,0.15547633171081543,0.0003005538019351661,0.03372153267264366,1.4568297863006592,-0.000886975962202996,0.0657307431101799
238.0,240.0,6.7992,0.7525,6.119,-0.0272,0.0,-0.1124,-1.7034903965392054,-0.0026972030755132437,2.740689516067505,-1.1942392587661743,-0.0001985635026358068,2.126878023147583,3.756971521968506,0.00017125537851825356,0.2991347908973694,-1.0716608206378382,0.0,-0.05772814899682999,0.15540030598640442,0.0003473902470432222,0.037619806826114655,1.4568537473678589,-0.0006724686827510595,0.05448169633746147
238.0,240.0,6.7992,0.7525,6.119,-0.0272,0.0,-0.1124,-1.70353426555776,-0.0023535785730928183,2.7437949180603027,-1.1942155361175537,-0.00018339032249059528,2.1350057125091553,3.757011576289795,0.0002236199361504987,0.2910633683204651,-1.0716970602618616,0.0,-0.0563376322388649,0.1554204225540161,0.0003513144329190254,0.039889246225357056,1.4569064378738403,-0.0005572537775151432,0.026204202324151993
238.0,240.0,6.7992,0.7525,6.119,-0.0272,0.0,-0.1124,-1.70353426555776,-0.0018238442717120051,2.7207789421081543,-1.1942238807678223,-0.00014908720913808793,2.1109752655029297,3.7569758135029296,0.0009959449525922537,0.2921331822872162,-1.0716851393329065,0.0,-0.049583710730075836,0.15553651750087738,0.0005825156695209444,0.0463273748755455,1.4568902254104614,-0.000425489095505327,0.04973972588777542
238.0,240.0,6.7992,0.7525,6.119,-0.0272,0.0,-0.1124,-1.7035256824889125,-0.0017389411805197597,2.7272961139678955,-1.194191575050354,-0.0001391941332258284,2.1334829330444336,3.7570554453083496,0.0016377881402149796,0.30308154225349426,-1.0716245810138147,0.0,-0.05331089720129967,0.15547633171081543,0.000667079642880708,0.05431196838617325,1.4568859338760376,-0.00034412549575790763,0.04446219280362129
238.0,240.0,6.7992,0.7525,6.119,-0.0272,0.0,-0.1124,-1.70353426555776,-0.001348838908597827,2.676464796066284,-1.1942273378372192,-5.955460073892027e-05,2.103874683380127,3.757019205684326,0.002519880421459675,0.30783137679100037,-1.0716527144061487,0.0,-0.06559208035469055,0.1555204838514328,0.0008869011653587222,0.06527301669120789,1.4568499326705933,-0.00027419449179433286,0.05421998351812363
238.0,240.0,6.7992,0.7525,6.119,-0.0272,0.0,-0.1124,-1.7035824261107386,-0.001148735056631267,2.7190866470336914,-1.1942557096481323,-5.4166579502634704e-05,2.126004219055176,3.7571112352558593,0.004221366718411446,0.31057924032211304,-1.071648899708883,0.0,-0.06718701869249344,0.15555702149868011,0.000935299729462713,0.06890658289194107,1.4568700790405273,-0.00020298590243328363,0.013830084353685379
238.0,240.0,6.7992,0.7525,6.119,-0.0272,0.0,-0.1124,-1.7035824261107386,-0.001328151673078537,2.7668676376342773,-1.194191575050354,-4.968133362126537e-05,2.2108397483825684,3.75712697088208,0.00612498028203845,0.32524335384368896,-1.0716527144061487,0.0,-0.07762709259986877,0.15542402863502502,0.0008798407507129014,0.07502878457307816,1.4568216800689697,-0.00017513589409645647,0.06087211146950722
238.0,240.0,6.7992,0.7525,6.119,-0.0272,0.0,-0.1124,-1.703550478021139,-0.0017391355941072106,2.746087074279785,-1.1941758394241333,-4.588215961121023e-05,2.172314405441284,3.757178946132324,0.007505487650632858,0.31007111072540283,-1.0716407934771937,0.0,-0.06434207409620285,0.15553656220436096,0.0007933989982120693,0.07322610169649124,1.456834077835083,-0.00015683217498008162,0.06710384786128998
238.0,240.0,6.7992,0.7525,6.119,-0.0272,0.0,-0.1124,-1.7035900555052699,-0.00227622059173882,2.729052782058716,-1.1942033767700195,-4.262282527633943e-05,2.173698663711548,3.757242365474365,0.0056070382706820965,0.32548046112060547,-1.0716851393329065,0.0,-0.08027756214141846,0.15552425384521484,0.0006345774745568633,0.06970898807048798,1.4568742513656616,-0.00014198620920069516,0.03863729536533356
238.0,240.0,6.7992,0.7525,6.119,-0.0272,0.0,-0.1124,-1.7036334476866664,-0.0038930082228034735,2.7393224239349365,-1.1942356824874878,-3.89350279874634e-05,2.190338373184204,3.7572666841694335,0.0025748349726200104,0.3261200785636902,-1.0716245810138147,0.0,-0.06433738023042679,0.15552425384521484,0.0006060219602659345,0.08997641503810883,1.4568500518798828,-0.00010087288683280349,0.05654607713222504
238.0,240.0,6.7992,0.7525,6.119,-0.0272,0.0,-0.1124,-1.7036577663817347,-0.00488636689260602,2.7202982902526855,-1.1941678524017334,-3.656240369309671e-05,2.159040689468384,3.7572824197956542,0.0014722783816978335,0.3204677700996399,-1.0716808477984827,0.0,-0.06227599456906319,0.1555725485086441,0.0005550970672629774,0.07497905194759369,1.456934928894043,-9.303616388933733e-05,0.0391664057970047
238.0,240.0,6.7992,0.7525,6.119,-0.0272,0.0,-0.1124,-1.7036978207030238,-0.005527234170585871,2.7361457347869873,-1.1941956281661987,-3.4462413168512285e-05,2.1479053497314453,3.757270498866699,0.001206959132105112,0.33310484886169434,-1.0716608206378382,0.0,-0.08585952967405319,0.1555483341217041,0.0005299137555994093,0.09695455431938171,1.4568983316421509,-8.634472033008933e-05,0.0715186670422554
238.0,240.0,6.7992,0.7525,6.119,-0.0272,0.0,-0.1124,-1.7037621937193812,-0.005456128157675266,2.7501578330993652,-1.1941876411437988,-3.2590516639174893e-05,2.1985340118408203,3.757293863887451,0.001480403239838779,0.31187888979911804,-1.0716851393329065,0.0,-0.09455493092536926,0.1555759310722351,0.0005861876416020095,0.09181324392557144,1.4569224119186401,-8.05490417405963e-05,0.04123643413186073
238.0,240.0,6.7992,0.7525,6.119,-0.0272,0.0,-0.1124,-1.7037936649718226,-0.005462211091071367,2.6861088275909424,-1.1942431926727295,-3.0389639505301602e-05,2.154697895050049,3.757293863887451,0.0018501596059650183,0.34735292196273804,-1.0716727415667933,0.0,-0.06862020492553711,0.1556045562028885,0.0005461738328449428,0.09430187940597534,1.4568700790405273,-7.39321912988089e-05,0.05528834089636803
230.0,241.0,6.5109,0.6951,6.2853,-0.0353,0.0064,-0.1113,-1.703829904595846,-0.005160466302186251,2.7483582496643066,-1.1942397356033325,-2.8924618163728155e-05,2.127865791320801,3.7573181825825195,0.0018627345561981201,0.33450329303741455,-1.0716207663165491,0.0,-0.08568987250328064,0.1555243730545044,0.0005623870529234409,0.1006690189242363,1.4568860530853271,-6.964159547351301e-05,0.08146661520004272
230.0,241.0,6.5109,0.6951,6.2853,-0.0353,0.0064,-0.1113,-1.7038341961302699,-0.0048521398566663265,2.784377098083496,-1.194219946861267,-2.7594373023021035e-05,2.186185121536255,3.757350130672119,0.0018859051633626223,0.3257990777492523,-1.0716727415667933,0.0,-0.09983117133378983,0.15555621683597565,0.0005708596436306834,0.10106746852397919,1.4568700790405273,-6.58216595184058e-05,0.0865834578871727
230.0,241.0,6.5109,0.6951,6.2853,-0.0353,0.0064,-0.1113,-1.7038537464537562,-0.0044934372417628765,2.7608108520507812,-1.1942278146743774,-2.6381116185802966e-05,2.174790382385254,3.757377787227295,0.0016701536951586604,0.3346579074859619,-1.0716565291034144,0.0,-0.09182698279619217,0.1555643528699875,0.0006128022214397788,0.10818611085414886,1.4568581581115723,-6.239885988179594e-05,0.04733377322554588
230.0,241.0,6.5109,0.6951,6.2853,-0.0353,0.0064,-0.1113,-1.7039181194701136,-0.004462688695639372,2.7258710861206055,-1.194199562072754,-2.5270059268223122e-05,2.1779956817626953,3.7573296266743164,0.0014611311489716172,0.3521788716316223,-1.071648899708883,0.0,-0.07614544034004211,0.1555882692337036,0.000628470501396805,0.1011887788772583,1.4568339586257935,-1.6311931176460348e-05,0.07501097768545151
230.0,241.0,6.5109,0.6951,6.2853,-0.0353,0.0064,-0.1113,-1.7039019070067347,-0.003729266580194235,2.7311882972717285,-1.194219946861267,-2.392648093518801e-05,2.1567704677581787,3.7573258119770507,0.000955369439907372,0.33888980746269226,-1.0716727415667933,0.0,-0.10347345471382141,0.1556161344051361,0.0007488326518796384,0.10460572689771652,1.4568458795547485,-1.5188926226983313e-05,0.0763523206114769
230.0,241.0,6.5109,0.6951,6.2853,-0.0353,0.0064,-0.1113,-1.703921457330221,-0.003238430479541421,2.729768753051758,-1.1942238807678223,-2.3008942662272602e-05,2.156918525695801,3.757321997279785,0.000724447367247194,0.34236791729927063,-1.0716407934771937,0.0,-0.08839419484138489,0.1555919349193573,0.001027176040224731,0.10418035089969635,1.4568737745285034,-2.7225214580539614e-05,0.11867618560791016
230.0,241.0,6.5109,0.6951,6.2853,-0.0353,0.0064,-0.1113,-1.703965803185934,-0.0025612381286919117,2.760075092315674,-1.1942154169082642,-2.2159210857353173e-05,2.2084102630615234,3.75733391820874,0.0005466419970616698,0.3486520051956177,-1.0716050306903284,0.0,-0.10937787592411041,0.15558409690856934,0.0012432894436642528,0.11441215872764587,1.4568941593170166,-2.7584672352531925e-05,0.09789912402629852
230.0,241.0,6.5109,0.6951,6.2853,-0.0353,0.0064,-0.1113,-1.703921457330221,-0.002213140483945608,2.7154159545898438,-1.194211483001709,-3.1909872632240877e-05,2.1654953956604004,3.7573858934589843,0.0004954584292136133,0.3381775915622711,-1.0716288725482386,0.0,-0.10253739356994629,0.15559600293636322,0.001832299865782261,0.12706387042999268,1.4568504095077515,-4.8240184696624056e-05,0.09132684767246246
230.0,241.0,6.5109,0.6951,6.2853,-0.0353,0.0064,-0.1113,-1.7039572201170863,-0.002027677372097969,2.749767541885376,-1.194203495979309,-3.095257488894276e-05,2.1492905616760254,3.7573539453693847,0.00041074829641729593,0.34088242053985596,-1.0716331640826624,0.0,-0.10960221290588379,0.15566812455654144,0.0037661914248019457,0.1355784833431244,1.456834077835083,-0.0002525816671550274,0.07734920084476471
230.0,241.0,6.5109,0.6951,6.2853,-0.0353,0.0064,-0.1113,-1.7040020428099574,-0.0021035363897681236,2.7801504135131836,-1.194208025932312,-3.4468948797439225e-06,2.2282400131225586,3.7573177057453613,0.00033441209234297276,0.364091157913208,-1.0716646353351038,0.0,-0.10668589174747467,0.15570388734340668,0.009092705324292183,0.13109737634658813,1.4568544626235962,-0.00033103482564911246,0.08966986835002899
230.0,241.0,6.5109,0.6951,6.2853,-0.0353,0.0064,-0.1113,-1.7040173015990199,-0.0019652931950986385,2.6701102256774902,-1.1942676305770874,-8.323846820146308e-12,2.190918445587158,3.7573296266743164,0.00029350636759772897,0.35290950536727905,-1.0716808477984827,0.0,-0.1121663749217987,0.15570752322673798,0.008457589894533157,0.14057475328445435,1.456834077835083,-0.0007673143409192562,0.09565284848213196
230.0,241.0,6.5109,0.6951,6.2853,-0.0353,0.0064,-0.1113,-1.704001089135641,-0.0021047554910182953,2.7441794872283936,-1.1942596435546875,-2.0101110924859212e-17,2.153517007827759,3.7573177057453613,0.0002615182311274111,0.35151058435440063,-1.0716050306903284,0.0,-0.11779788136482239,0.15571118891239166,0.004486763384193182,0.13270217180252075,1.4568262100219727,-0.001236354117281735,0.10519152134656906
230.0,241.0,6.5109,0.6951,6.2853,-0.0353,0.0064,-0.1113,-1.7040420971312464,-0.0018876692047342658,2.776604175567627,-1.1942033767700195,-4.8541814273524054e-23,2.1601898670196533,3.75733391820874,0.00023581883579026908,0.3451222777366638,-1.0716689268695276,0.0,-0.10708477348089218,0.15575554966926575,0.0018630496924743056,0.13057751953601837,1.4568021297454834,-0.0015653003938496113,0.08700333535671234
230.0,241.0,6.5109,0.6951,6.2853,-0.0353,0.0064,-0.1113,-1.7040978870787562,-0.0018342225812375546,2.792309522628784,-1.1942795515060425,-1.5726926694510136e-30,2.1544108390808105,3.757326288814209,0.00020850036526098847,0.34508952498435974,-1.0716331640826624,0.0,-0.10669001936912537,0.1557636260986328,0.0009129663812927902,0.13784462213516235,1.456822156906128,-0.001598942093551159,0.09320639818906784
230.0,240.0,6.7956,0.7041,6.2166,-0.0451,0.0176,-0.1217,-1.7041017017760218,-0.0019105593673884869,2.7734813690185547,-1.1941876411437988,-3.7978677055859326e-36,2.2165303230285645,3.7573458391376953,0.00019183375115972012,0.3446686863899231,-1.071625057850973,0.0,-0.10252445191144943,0.15579120814800262,0.0006610524142161012,0.12834212183952332,1.4567898511886597,-0.001886362791992724,0.04353153333067894
230.0,240.0,6.7956,0.7041,6.2166,-0.0451,0.0176,-0.1217,-1.7040454349913539,-0.0015374510549008846,2.7067713737487793,-1.1942318677902222,-9.171498449005928e-42,2.1679811477661133,3.7572857576557617,0.00017763437062967569,0.3540215492248535,-1.0716808477984827,0.0,-0.0941537618637085,0.15571127831935883,0.00037091030390001833,0.12948568165302277,1.4567458629608154,-0.0020126723684370518,0.015474504791200161
230.0,240.0,6.7956,0.7041,6.2166,-0.0451,0.0176,-0.1217,-1.7040697536864222,-0.0011748449178412557,2.711297035217285,-1.1941956281661987,-0.0,2.1164937019348145,3.7573296266743164,0.0001653924846323207,0.3402596116065979,-1.0716527144061487,0.0,-0.11529926210641861,0.1557595580816269,0.0002820438239723444,0.12255053967237473,1.456754207611084,-0.0025183933321386576,-0.04570861533284187
230.0,240.0,6.7956,0.7041,6.2166,-0.0451,0.0176,-0.1217,-1.7040254078307093,-0.0009588183020241559,2.724461555480957,-1.1941996812820435,-0.0,2.1639244556427,3.7573701578327636,0.00015472904487978667,0.35005903244018555,-1.0716527144061487,0.0,-0.10662093758583069,0.1557190716266632,0.00031981535721570253,0.13054871559143066,1.4567219018936157,-0.002638343023136258,0.03281297907233238
230.0,240.0,6.7956,0.7041,6.2166,-0.0451,0.0176,-0.1217,-1.7041059933104457,-0.000798025110270828,2.737844944000244,-1.1941916942596436,-0.0,2.1181178092956543,3.75731007635083,0.00014248103252612054,0.345220148563385,-1.0716846624957483,0.0,-0.11726993322372437,0.15579122304916382,0.0005414234474301338,0.1407056450843811,1.4567387104034424,-0.003287624567747116,0.008387365378439426
230.0,240.0,6.7956,0.7041,6.2166,-0.0451,0.0176,-0.1217,-1.7040735683836878,-0.0006279999506659806,2.711474895477295,-1.1942040920257568,-0.0,2.0920486450195312,3.757338209743164,0.00013449610560201108,0.3497887849807739,-1.071677033101217,0.0,-0.10323712229728699,0.1557789444923401,0.0013458039611577988,0.14089538156986237,1.4566903114318848,-0.004187936894595623,0.0027823755517601967
230.0,240.0,6.7956,0.7041,6.2166,-0.0451,0.0176,-0.1217,-1.7040940723814906,-0.0006193203153088689,2.7107698917388916,-1.1942158937454224,-7.460554911631334e-07,2.1260557174682617,3.7573625284382324,0.00012735890049953014,0.34900015592575073,-1.0716808477984827,0.0,-0.10719123482704163,0.15575508773326874,0.0015826409216970205,0.1360825151205063,1.456621527671814,-0.004439967218786478,0.003184175118803978
230.0,240.0,6.7956,0.7041,6.2166,-0.0451,0.0176,-0.1217,-1.7040773830809535,-0.0006087488727644086,2.722184658050537,-1.1942754983901978,-1.8016364225145742e-12,2.096921443939209,3.7572619157978515,0.00012094103294657543,0.35865575075149536,-1.0716689268695276,0.0,-0.10345631837844849,0.15586386620998383,0.0016611897153779864,0.14382696151733398,1.456649899482727,-0.004926162306219339,-0.040948111563920975
230.0,240.0,6.7956,0.7041,6.2166,-0.0451,0.0176,-0.1217,-1.7040735683836878,-0.0006074968841858208,2.7435860633850098,-1.1942557096481323,-4.350740479408942e-18,2.149881362915039,3.757338209743164,0.00011513882054714486,0.34739309549331665,-1.071625057850973,0.0,-0.12060554325580597,0.15583516657352448,0.001597187016159296,0.14325536787509918,1.456597924232483,-0.004705670289695263,-0.03811370208859444
230.0,240.0,6.7956,0.7041,6.2166,-0.0451,0.0176,-0.1217,-1.7040893040099085,-0.0006775890942662954,2.7341809272766113,-1.1942238807678223,-1.409584490141283e-25,2.156433582305908,3.7573181825825195,0.00010821663454407826,0.3495515286922455,-1.071636978779928,0.0,-0.10870885103940964,0.15589535236358643,0.0019292394863441586,0.1381518393754959,1.4565619230270386,-0.004973563365638256,-0.0430806539952755
230.0,240.0,6.7956,0.7041,6.2166,-0.0451,0.0176,-0.1217,-1.704085489312643,-0.0006651707808487117,2.7054624557495117,-1.194239854812622,-3.4039800841902687e-31,2.1669952869415283,3.757321997279785,0.00010354769619880244,0.3505501449108124,-1.0716450850116175,0.0,-0.10854445397853851,0.1558469980955124,0.002462062519043684,0.14616703987121582,1.4565380811691284,-0.00449786614626646,0.039896152913570404
230.0,240.0,6.7956,0.7041,6.2166,-0.0451,0.0176,-0.1217,-1.704085489312643,-0.0008246364304795861,2.7298409938812256,-1.1942238807678223,-8.22021230089112e-37,2.1630361080169678,3.757338209743164,6.571745325345546e-05,0.3540816307067871,-1.0716689268695276,0.0,-0.1090342253446579,0.15587076544761658,0.0032974977511912584,0.15673574805259705,1.4565343856811523,-0.004524014890193939,0.016953036189079285
230.0,240.0,6.7956,0.7041,6.2166,-0.0451,0.0176,-0.1217,-1.704097410241598,-0.0009371487540192902,2.746464490890503,-1.1942158937454224,-1.9856399239482658e-42,2.175097703933716,3.757338209743164,6.242478411877528e-05,0.36468926072120667,-1.0716646353351038,0.0,-0.12818901240825653,0.1558670699596405,0.004221238661557436,0.14990246295928955,1.4565143585205078,-0.004320245236158371,-0.020297624170780182
230.0,236.0,6.6814,0.7304,6.3248,-0.0515,0.0131,-0.1222,-1.7041665516295375,-0.0008378095226362348,2.705188035964966,-1.194223403930664,-0.0,2.120840549468994,3.7573258119770507,7.189006282715127e-05,0.3552647829055786,-1.0716970602618616,0.0,-0.1021881103515625,0.1559992879629135,0.004991915542632341,0.15433216094970703,1.456458330154419,-0.0032713431864976883,-0.048648327589035034
230.0,236.0,6.6814,0.7304,6.3248,-0.0515,0.0131,-0.1222,-1.7041379414000453,-0.001271805725991726,2.7342519760131836,-1.194203495979309,-0.0,2.1659960746765137,3.7573296266743164,6.827931792940944e-05,0.3543758988380432,-1.071648899708883,0.0,-0.10177308320999146,0.15603896975517273,0.005564868915826082,0.15954209864139557,1.4564783573150635,-0.0027855203952640295,-0.025876469910144806
230.0,236.0,6.6814,0.7304,6.3248,-0.0515,0.0131,-0.1222,-1.704158445397848,-0.0018797853263095021,2.686232328414917,-1.1942635774612427,-0.0,2.096444845199585,3.7572976785847167,7.670006743865088e-05,0.3518558144569397,-1.071677033101217,0.0,-0.11981868743896484,0.15600252151489258,0.004596942104399204,0.16977672278881073,1.4563902616500854,-0.0028513921424746513,-0.01730221137404442
230.0,236.0,6.6814,0.7304,6.3248,-0.0515,0.0131,-0.1222,-1.7041899166502894,-0.002611577743664384,2.708827018737793,-1.1942834854125977,-0.0,2.1283981800079346,3.757350130672119,7.404201460303739e-05,0.3559991121292114,-1.0716412703143519,0.0,-0.10369957983493805,0.15600618720054626,0.0038452292792499065,0.15979830920696259,1.4564025402069092,-0.0037666158750653267,-0.05669844150543213
230.0,236.0,6.6814,0.7304,6.3248,-0.0515,0.0131,-0.1222,-1.7041775188841761,-0.0036068882327526808,2.659951686859131,-1.1942353248596191,-0.0,2.1467766761779785,3.757321997279785,8.106276072794572e-05,0.37061309814453125,-1.0716331640826624,0.0,-0.10871900618076324,0.15604636073112488,0.002661244012415409,0.17364594340324402,1.4564231634140015,-0.004882037173956633,-0.06377971917390823
230.0,236.0,6.6814,0.7304,6.3248,-0.0515,0.0131,-0.1222,-1.7042423687376917,-0.004498505964875221,2.6566410064697266,-1.1942358016967773,-0.00011195266415597871,2.0971992015838623,3.757338209743164,1.3260578271001577e-06,0.35699182748794556,-1.0716450850116175,0.0,-0.10030977427959442,0.15608276426792145,0.0016937684267759323,0.17229849100112915,1.4563424587249756,-0.005081194452941418,-0.05481431633234024
230.0,236.0,6.6814,0.7304,6.3248,-0.0515,0.0131,-0.1222,-1.7041851482787074,-0.00496076000854373,2.6762237548828125,-1.1942353248596191,-0.00010527217818889767,2.1358935832977295,3.7572857576557617,3.69113017928413e-10,0.35506120324134827,-1.0716450850116175,0.0,-0.11648539453744888,0.15603813529014587,0.0013498325133696198,0.16982033848762512,1.4562944173812866,-0.004772333428263664,-0.09066705405712128
230.0,236.0,6.6814,0.7304,6.3248,-0.0515,0.0131,-0.1222,-1.7042657337584437,-0.004972558002918959,2.6432509422302246,-1.1942318677902222,-9.836856042966247e-05,2.091503858566284,3.7573019701191406,1.0274397841845626e-13,0.3607757091522217,-1.0716608206378382,0.0,-0.11123170703649521,0.15604224801063538,0.0012874972308054566,0.1609453558921814,1.4562866687774658,-0.004928072914481163,-0.03923003748059273
230.0,236.0,6.6814,0.7304,6.3248,-0.0515,0.0131,-0.1222,-1.704273363152975,-0.00507252337411046,2.6617305278778076,-1.1942431926727295,-9.231475996784866e-05,2.091496229171753,3.7573420244404296,2.859916087409009e-17,0.35904431343078613,-1.0716570059405726,0.0,-0.11638957262039185,0.15604637563228607,0.001319542876444757,0.16282035410404205,1.4562629461288452,-0.00496541615575552,-0.07763004302978516
230.0,236.0,6.6814,0.7304,6.3248,-0.0515,0.0131,-0.1222,-1.7042929134764613,-0.005492813419550657,2.6198291778564453,-1.1942273378372192,-0.00010435424337629229,2.1148478984832764,3.757281942958496,7.960681202046635e-21,0.36693260073661804,-1.071693245564596,0.0,-0.11127091199159622,0.15618249773979187,0.0014522052370011806,0.16840894520282745,1.456247091293335,-0.005178153980523348,-0.05869121849536896
230.0,236.0,6.6814,0.7304,6.3248,-0.0515,0.0131,-0.1222,-1.7043658695616664,-0.006072454620152712,2.6031241416931152,-1.1942273378372192,-9.686745761428028e-05,2.0124285221099854,3.7573625284382324,0.0001112952595576644,0.34852731227874756,-1.0716646353351038,0.0,-0.10284748673439026,0.15612637996673584,0.0017362138023599982,0.16386160254478455,1.456190824508667,-0.005398904904723167,-0.09624453634023666
230.0,236.0,6.6814,0.7304,6.3248,-0.0515,0.0131,-0.1222,-1.7044216595091761,-0.007204615976661444,2.609198808670044,-1.1942635774612427,-9.192083962261677e-05,2.066852569580078,3.7573539453693847,0.00010368783114245161,0.3508707880973816,-1.0716727415667933,0.0,-0.11681028455495834,0.15611408650875092,0.002163267694413662,0.16076627373695374,1.4561347961425781,-0.005621425807476044,-0.03086850792169571
230.0,236.0,6.6814,0.7304,6.3248,-0.0515,0.0131,-0.1222,-1.7044125996031703,-0.008347652852535248,2.5713114738464355,-1.1942477226257324,-0.00010202972771367058,2.111295223236084,3.757277651424072,9.698359644971788e-05,0.35191982984542847,-1.0716450850116175,0.0,-0.10226641595363617,0.15613003075122833,0.002668715314939618,0.16765809059143066,1.4561024904251099,-0.005696249660104513,-0.1116865873336792
230.0,236.0,6.6814,0.7304,6.3248,-0.0515,0.0131,-0.1222,-1.7044693432249964,-0.00942667294293642,2.536588191986084,-1.1942676305770874,-0.00011120104318251833,2.0864996910095215,3.7573701578327636,9.109367238124833e-05,0.34957700967788696,-1.071648899708883,0.0,-0.10288522392511368,0.1561296135187149,0.003985951654613018,0.17131048440933228,1.4560668468475342,-0.005982409697026014,-0.10047131031751633
233.0,241.0,6.7986,0.5396,6.0915,-0.0603,0.0243,-0.1217,-1.7044969997801722,-0.010294195264577866,2.56006121635437,-1.1942392587661743,-0.0001551284221932292,2.0766587257385254,3.75736586629834,0.00010303433373337612,0.35637274384498596,-1.0716527144061487,0.0,-0.09929081052541733,0.15620210766792297,0.004972302820533514,0.17624348402023315,1.4559983015060425,-0.006426753010600805,-0.06982037425041199
233.0,241.0,6.7986,0.5396,6.0915,-0.0603,0.0243,-0.1217,-1.70460905651235,-0.011484391987323761,2.5397393703460693,-1.1942834854125977,-0.0001363372284686193,2.066781520843506,3.75733391820874,9.574501018505543e-05,0.3447290360927582,-1.071677033101217,0.0,-0.10259856283664703,0.15629003942012787,0.006502080708742142,0.18555280566215515,1.4559627771377563,-0.00656946562230587,-0.09572215378284454
233.0,241.0,6.7986,0.5396,6.0915,-0.0603,0.0243,-0.1217,-1.7047497234740199,-0.01206176821142435,2.5876412391662598,-1.1942635774612427,-0.00012497775605879724,2.0667543411254883,3.75733391820874,0.0001060564536601305,0.3459107279777527,-1.0716288725482386,0.0,-0.10856661200523376,0.15628540515899658,0.007004950195550919,0.1886730194091797,1.4559348821640015,-0.006438776385039091,-0.018924355506896973
233.0,241.0,6.7986,0.5396,6.0915,-0.0603,0.0243,-0.1217,-1.7047606907286585,-0.013717745430767536,2.557741165161133,-1.1942836046218872,-0.00011536544479895383,2.051741361618042,3.7573258119770507,0.00011489908501971513,0.34825435280799866,-1.0716846624957483,0.0,-0.12575913965702057,0.15637774765491486,0.006399444304406643,0.1938614696264267,1.4558947086334229,-0.006067829672247171,-0.08609791100025177
233.0,241.0,6.7986,0.5396,6.0915,-0.0603,0.0243,-0.1217,-1.7048737011351527,-0.014534530229866505,2.543661594390869,-1.194223403930664,-0.00012855147360824049,2.0693047046661377,3.7573577600666503,0.00011009191075572744,0.3548855185508728,-1.0716727415667933,0.0,-0.1144237369298935,0.156353160738945,0.005291149020195007,0.17248408496379852,1.4559152126312256,-0.005875159054994583,-0.08132510632276535
233.0,241.0,6.7986,0.5396,6.0915,-0.0603,0.0243,-0.1217,-1.7050005398192347,-0.016577785834670067,2.5144433975219727,-1.1943193674087524,-0.00011737469321815297,2.0364532470703125,3.757377787227295,0.00017221142479684204,0.34319591522216797,-1.0716288725482386,0.0,-0.1192793995141983,0.15640152990818024,0.0040786005556583405,0.19362173974514008,1.455810785293579,-0.005430404096841812,-0.03909666836261749
233.0,241.0,6.7986,0.5396,6.0915,-0.0603,0.0243,-0.1217,-1.705092569390768,-0.018083615228533745,2.5113420486450195,-1.1943033933639526,-0.00011018947407137603,2.076504945755005,3.7573534685322265,0.00020807144755963236,0.3625495433807373,-1.0716727415667933,0.0,-0.11297576129436493,0.15642938017845154,0.0032456086482852697,0.20252831280231476,1.455775260925293,-0.004528139717876911,-0.09515169262886047
233.0,241.0,6.7986,0.5396,6.0915,-0.0603,0.0243,-0.1217,-1.7052298984923304,-0.01945175789296627,2.5398736000061035,-1.194239854812622,-0.00010383326298324391,2.035280704498291,3.757373495692871,0.0005304825026541948,0.3634086847305298,-1.0716407934771937,0.0,-0.11528501659631729,0.1564089059829712,0.002924476284533739,0.1827966570854187,1.4558031558990479,-0.0034679751843214035,-0.054741621017456055
233.0,241.0,6.7986,0.5396,6.0915,-0.0603,0.0243,-0.1217,-1.7052999935545863,-0.021331461146473885,2.5153915882110596,-1.1943113803863525,-9.81704579317011e-05,1.9758710861206055,3.757393999690674,0.0004768231010530144,0.3498462438583374,-1.0716965834247034,0.0,-0.10973896086215973,0.1564491242170334,0.0029157300014048815,0.17940811812877655,1.4558031558990479,-0.0026860323268920183,-0.028473516926169395
233.0,241.0,6.7986,0.5396,6.0915,-0.0603,0.0243,-0.1217,-1.7054773769774378,-0.023697853088378906,2.4957756996154785,-1.1942437887191772,-9.309328743256629e-05,2.0594961643218994,3.757350130672119,0.00040095829172059894,0.34762370586395264,-1.0716889540301722,0.0,-0.11809781193733215,0.15647709369659424,0.0028478335589170456,0.17918753623962402,1.4558073282241821,-0.002291137119755149,-0.0056628212332725525
233.0,241.0,6.7986,0.5396,6.0915,-0.0603,0.0243,-0.1217,-1.7056614361205042,-0.02650044672191143,2.495018720626831,-1.1942914724349976,-8.708795212442055e-05,2.052432060241699,3.7573978143879394,0.0003686509735416621,0.34266024827957153,-1.0717328230487269,0.0,-0.12490987777709961,0.15647298097610474,0.0036706926766783,0.1943567991256714,1.455726981163025,-0.001802660757675767,0.02823939174413681
233.0,241.0,6.7986,0.5396,6.0915,-0.0603,0.0243,-0.1217,-1.705787797967428,-0.0287412591278553,2.4848952293395996,-1.1942158937454224,-8.30689023132436e-05,2.002277374267578,3.7573820787617187,0.00045766946277581155,0.3492339849472046,-1.0716689268695276,-5.419433364295401e-05,-0.12928169965744019,0.15652090311050415,0.00482177035883069,0.19364780187606812,1.4557796716690063,-0.0016024516662582755,-0.01911015436053276
233.0,241.0,6.7986,0.5396,6.0915,-0.0603,0.0243,-0.1217,-1.7059761486449183,-0.03040982224047184,2.45607590675354,-1.1942914724349976,-7.940446812426671e-05,2.0401854515075684,3.7573773103901367,0.0008850437006913126,0.35536110401153564,-1.071700398121969,-6.344804569380358e-05,-0.12182891368865967,0.15652891993522644,0.0059071495197713375,0.20159433782100677,1.4557276964187622,-0.0013917319010943174,-0.03471047058701515
