ramyac6/ROB537/final_project/csv/good/good_73.csv
tof_0,tof_1,accelx,accely,accelz,gyrox,gyroy,gyroz,shoulder_lift_joint_position,shoulder_lift_joint_velocity,shoulder_lift_joint_effort,elbow_joint_position,elbow_joint_velocity,elbow_joint_effort,wrist_1_joint_position,wrist_1_joint_velocity,wrist_1_joint_effort,wrist_2_joint_position,wrist_2_joint_velocity,wrist_2_joint_effort,wrist_3_joint_position,wrist_3_joint_velocity,wrist_3_joint_effort,shoulder_pan_joint_position,shoulder_pan_joint_velocity,shoulder_pan_joint_effort
228.0,309.0,1.1498,-0.6814,9.5492,-0.0276,0.0171,-0.1271,-1.9166799984373988,0.0,3.51236629486084,-1.578534483909607,-0.0,2.0794835090637207,4.865479695587911,1.0616275899054561e-26,0.2947874069213867,-1.6521466414081019,-0.0,8.25484748929739e-05,1.4404653310775757,0.0,0.0026744622737169266,0.7100430727005005,0.0,0.004901442211121321
228.0,309.0,1.1498,-0.6814,9.5492,-0.0276,0.0171,-0.1271,-1.9166766605772914,0.0,3.5290114879608154,-1.5785866975784302,-0.0,2.112795352935791,4.86547181287364,2.9550797624304557e-30,0.30605918169021606,-1.6521428267108362,-0.0,0.0008465441642329097,1.440506100654602,0.0,-0.01662810891866684,0.7099500894546509,0.0,-0.008675800636410713
228.0,309.0,1.1498,-0.6814,9.5492,-0.0276,0.0171,-0.1271,-1.9166881046690882,0.0,3.5192975997924805,-1.5786266326904297,-0.0,2.1161584854125977,4.8654877720172784,8.225571311046882e-34,0.2867055833339691,-1.6521619001971644,-0.0,0.005884915590286255,1.4405016899108887,0.0,-0.0036173812113702297,0.7099542021751404,0.0,-0.01684814877808094
228.0,309.0,1.1498,-0.6814,9.5492,-0.0276,0.0171,-0.1271,-1.916675706902975,0.0,3.5540266036987305,-1.578598976135254,-0.0,2.0814168453216553,4.865463736444273,2.289618106724268e-37,0.2980594336986542,-1.6521747748004358,-0.0,-0.004059645812958479,1.4404816627502441,0.0,-0.003372208448126912,0.7100348472595215,0.0,-0.005204168614000082
228.0,309.0,1.1498,-0.6814,9.5492,-0.0276,0.0171,-0.1271,-1.9166561565794886,0.0,3.538536548614502,-1.5785670280456543,-0.0,2.0983667373657227,4.865483733802595,6.373245545595701e-41,0.2989080250263214,-1.6521619001971644,-0.0,0.00940365344285965,1.440549612045288,0.0,-0.0035638471599668264,0.7099787592887878,0.0,-0.015386847779154778
228.0,309.0,1.1498,-0.6814,9.5492,-0.0276,0.0171,-0.1271,-1.9167081318297328,0.0,3.5209972858428955,-1.5785949230194092,-0.0,2.09606671333313,4.865451815515318,1.8216880036222622e-44,0.294378399848938,-1.6521619001971644,-0.0,-0.0002615929115563631,1.4404776096343994,0.0,-0.00233740103431046,0.709986686706543,0.0,0.046220649033784866
228.0,309.0,1.1498,-0.6814,9.5492,-0.0276,0.0171,-0.1271,-1.916703840295309,0.0,3.547907829284668,-1.5786023139953613,-0.0,2.0414600372314453,4.8654877720172784,0.0,0.29223740100860596,-1.6521619001971644,-0.0,0.014564722776412964,1.4405220746994019,0.0,-0.004042557906359434,0.7099944949150085,0.0,-0.028890319168567657
228.0,309.0,1.1498,-0.6814,9.5492,-0.0276,0.0171,-0.1271,-1.9166599712767542,0.0,3.5395517349243164,-1.5785744190216064,-0.0,2.0801939964294434,4.86547181287364,0.0,0.2952713966369629,-1.6521943251239222,-0.0,-0.001943663228303194,1.440497636795044,0.0,0.0017375722527503967,0.7100266814231873,0.0,0.0014609992504119873
215.0,298.0,1.2084,-0.6861,9.3751,-0.0328,0.0286,-0.1226,-1.9166881046690882,0.0,3.5654056072235107,-1.5785990953445435,-0.0,2.0524401664733887,4.8654877720172784,0.0,0.2893688976764679,-1.6521347204791468,-0.0,-0.01082832645624876,1.4404810667037964,0.0,0.00413093063980341,0.7099785208702087,0.0,-0.01633075810968876
215.0,298.0,1.2084,-0.6861,9.3751,-0.0328,0.0286,-0.1226,-1.9167529545226039,0.0,3.5927767753601074,-1.5785505771636963,-0.0,2.076622247695923,4.865455853730001,0.0,0.28392958641052246,-1.6521905104266565,-0.0,0.00804606918245554,1.4405016899108887,0.0,0.012793146073818207,0.7099705338478088,0.0,0.015958866104483604
215.0,298.0,1.2084,-0.6861,9.3751,-0.0328,0.0286,-0.1226,-1.9166842899718226,0.0,3.5443990230560303,-1.5785785913467407,-0.0,2.100208044052124,4.865451815515318,0.0,0.2942817211151123,-1.6521619001971644,-0.0,0.009501166641712189,1.4405016899108887,0.0,0.002296633319929242,0.7099543809890747,0.0,-0.012635213322937489
215.0,298.0,1.2084,-0.6861,9.3751,-0.0328,0.0286,-0.1226,-1.9167162380614222,0.0,3.5258870124816895,-1.5785908699035645,-0.0,2.0726542472839355,4.8654916165168665,0.0,0.28159433603286743,-1.6521905104266565,-0.0,-0.006165485829114914,1.4404776096343994,0.0,-0.00043762242421507835,0.7099944949150085,0.0,-0.001155026606284082
215.0,298.0,1.2084,-0.6861,9.3751,-0.0328,0.0286,-0.1226,-1.9166799984373988,0.0,3.59086275100708,-1.5785900354385376,-0.0,2.1010124683380127,4.865479457169332,0.0,0.2911796271800995,-1.6521785894977015,-0.0,0.01698770746588707,1.4404776096343994,0.0,-0.001941066700965166,0.7100348472595215,0.0,-0.040054887533187866
215.0,298.0,1.2084,-0.6861,9.3751,-0.0328,0.0286,-0.1226,-1.9166962109007777,0.0,3.542530059814453,-1.5785621404647827,-0.0,2.1159732341766357,4.86547181287364,0.0,0.29825296998023987,-1.6521785894977015,-0.0,0.005257296375930309,1.4404282569885254,0.0,0.0052747828885912895,0.709978461265564,0.0,0.008136255666613579
215.0,298.0,1.2084,-0.6861,9.3751,-0.0328,0.0286,-0.1226,-1.9167243442931117,0.0,3.5595314502716064,-1.5786023139953613,-0.0,2.069234609603882,4.865471797972479,0.0,0.30674052238464355,-1.652170483266012,-0.0,0.012603485956788063,1.440497636795044,0.0,0.003593588713556528,0.7099746465682983,0.0,0.04585523530840874
215.0,298.0,1.2084,-0.6861,9.3751,-0.0328,0.0286,-0.1226,-1.9167200527586878,0.0,3.542739152908325,-1.5785703659057617,-0.0,2.11393404006958,4.865467774658956,0.0,0.29585927724838257,-1.6521580854998987,-0.0,0.013059016317129135,1.4405816793441772,0.0,0.003795377444475889,0.7099743485450745,0.0,0.0272358451038599
215.0,298.0,1.2084,-0.6861,9.3751,-0.0328,0.0286,-0.1226,-1.9166842899718226,0.0,3.5799052715301514,-1.5785752534866333,-0.0,2.106294631958008,4.865483763604917,0.0,0.29816409945487976,-1.6521385351764124,-0.0,0.010641539469361305,1.4404603242874146,0.0,-0.0041297972202301025,0.7099543809890747,0.0,0.02595587447285652
215.0,298.0,1.2084,-0.6861,9.3751,-0.0328,0.0286,-0.1226,-1.9166962109007777,0.0,3.5317609310150146,-1.5786269903182983,-0.0,2.073179244995117,4.865443724184789,0.0,0.2835528254508972,-1.6520980040179651,-0.0,0.014467040076851845,1.4405016899108887,0.0,0.0009183232323266566,0.710038959980011,0.0,-0.004822060465812683
215.0,298.0,1.2084,-0.6861,9.3751,-0.0328,0.0286,-0.1226,-1.9167005024352015,0.0,3.518068313598633,-1.5785866975784302,-0.0,2.113290548324585,4.865439566760816,0.0,0.29930436611175537,-1.6521499792682093,-0.0,-0.001033702865242958,1.440509557723999,0.0,0.0076626501977443695,0.710031270980835,0.0,0.009397398680448532
215.0,298.0,1.2084,-0.6861,9.3751,-0.0328,0.0286,-0.1226,-1.9167043171324671,0.0,3.5350966453552246,-1.5786023139953613,-0.0,2.1039938926696777,4.86545583882884,0.0,0.2993527054786682,-1.652153793965475,-0.0,0.007590103894472122,1.4404816627502441,0.0,-0.003256432246416807,0.7099746465682983,0.0,-0.018177300691604614
215.0,298.0,1.2084,-0.6861,9.3751,-0.0328,0.0286,-0.1226,-1.916647573510641,0.0,3.526475191116333,-1.5785826444625854,-0.0,2.1108434200286865,4.865455853730001,0.0,0.3006651997566223,-1.652154270802633,-0.0,0.0025075103621929884,1.440537452697754,0.0,-0.0007088694255799055,0.709998607635498,0.0,-0.02194640040397644
215.0,298.0,1.2084,-0.6861,9.3751,-0.0328,0.0286,-0.1226,-1.9166838131346644,0.0,3.5400173664093018,-1.5785629749298096,-0.0,2.0671334266662598,4.8654715595538995,0.0,0.2957477271556854,-1.6521385351764124,-0.0,0.009582015685737133,1.4405295848846436,0.0,-0.006876244209706783,0.709986686706543,0.0,0.02380276843905449
215.0,298.0,1.2084,-0.6861,9.3751,-0.0328,0.0286,-0.1226,-1.9166919193663539,0.0,3.5293848514556885,-1.5785703659057617,-0.0,2.0501837730407715,4.865463736444273,0.0,0.29046887159347534,-1.652170483266012,-0.0,-0.005800938233733177,1.4405173063278198,0.0,-0.015161676332354546,0.709998607635498,0.0,-0.03870249167084694
226.0,311.0,1.2449,-0.6485,9.3733,-0.0359,0.0218,-0.1199,-1.9167005024352015,0.0,3.573286533355713,-1.5785826444625854,-0.0,2.110534429550171,4.865459698229589,0.0,0.2923728823661804,-1.6521580854998987,-0.0,0.012864951975643635,1.4405295848846436,0.0,0.004874946549534798,0.7099907994270325,0.0,0.002871827222406864
226.0,311.0,1.2449,-0.6485,9.3733,-0.0359,0.0218,-0.1199,-1.9166885815062464,0.0,3.513889789581299,-1.578631043434143,-0.0,2.09999942779541,4.865435573249616,0.0,0.2825319468975067,-1.652198616658346,-0.0,0.00637736264616251,1.4405176639556885,0.0,0.011900574900209904,0.7099705338478088,0.0,-0.009762660600244999
226.0,311.0,1.2449,-0.6485,9.3733,-0.0359,0.0218,-0.1199,-1.9166599712767542,0.0,3.5615992546081543,-1.578598976135254,-0.0,2.0633597373962402,4.865507948189535,0.0,0.3012447953224182,-1.6521785894977015,-0.0,0.008203431963920593,1.4404901266098022,0.0,-0.008257754147052765,0.7099623680114746,0.0,-0.04251137375831604
226.0,311.0,1.2449,-0.6485,9.3733,-0.0359,0.0218,-0.1199,-1.9166799984373988,0.0,3.5242738723754883,-1.5785703659057617,-0.0,2.086568593978882,4.865503775864401,0.0,0.29787713289260864,-1.6521666685687464,-0.0,0.023306462913751602,1.4405016899108887,0.0,-0.0030438732355833054,0.7099462151527405,0.0,-0.00197586789727211
226.0,311.0,1.2449,-0.6485,9.3733,-0.0359,0.0218,-0.1199,-1.9166442356505335,0.0,3.5448989868164062,-1.5785908699035645,-0.0,2.053717613220215,4.865491825133123,0.0,0.295084685087204,-1.6522024313556116,-0.0,0.013136920519173145,1.4404603242874146,0.0,-0.01210920512676239,0.7100188136100769,0.0,0.002207500860095024
226.0,311.0,1.2449,-0.6485,9.3733,-0.0359,0.0218,-0.1199,-1.9166761837401332,0.0,3.5717320442199707,-1.5786105394363403,-0.0,2.128631591796875,4.865471827774801,0.0,0.2941358983516693,-1.6521466414081019,-0.0,0.010771997272968292,1.4404935836791992,0.0,-0.0007230862975120544,0.710014820098877,0.0,0.021405905485153198
226.0,311.0,1.2449,-0.6485,9.3733,-0.0359,0.0218,-0.1199,-1.9167124233641566,0.0,3.526554584503174,-1.5785548686981201,-0.0,2.071467399597168,4.865487816720762,0.0,0.30203235149383545,-1.6521499792682093,-0.0,0.011144112795591354,1.4404524564743042,0.0,-0.009268753230571747,0.7100348472595215,0.0,0.03752823919057846
226.0,311.0,1.2449,-0.6485,9.3733,-0.0359,0.0218,-0.1199,-1.9166480503477992,0.0,3.5439562797546387,-1.5786186456680298,-0.0,2.0665550231933594,4.86548778691844,0.0,0.29608434438705444,-1.6521499792682093,-0.0,0.007481629028916359,1.4405136108398438,0.0,-0.002538137137889862,0.709998607635498,0.0,-0.007466002367436886
226.0,311.0,1.2449,-0.6485,9.3733,-0.0359,0.0218,-0.1199,-1.9166842899718226,0.0,3.5595145225524902,-1.5785744190216064,-0.0,2.067443370819092,4.86547181287364,0.0,0.2994256615638733,-1.6521385351764124,-0.0,0.0055392649956047535,1.4405262470245361,0.0,-0.0001417640596628189,0.709998607635498,0.0,-0.018317613750696182
226.0,311.0,1.2449,-0.6485,9.3733,-0.0359,0.0218,-0.1199,-1.9167162380614222,0.0,3.5148019790649414,-1.5785784721374512,-0.0,2.0433340072631836,4.865487831621923,0.0,0.302653431892395,-1.652154270802633,-0.0,0.007267206907272339,1.44050133228302,0.0,-0.0006644008681178093,0.7100106477737427,0.0,0.031672779470682144
226.0,311.0,1.2449,-0.6485,9.3733,-0.0359,0.0218,-0.1199,-1.9166399441161097,0.0,3.5650649070739746,-1.5785504579544067,-0.0,2.0761609077453613,4.865483748703756,0.0,0.3022931218147278,-1.6521943251239222,-0.0,0.010226424783468246,1.440537452697754,0.0,-0.002182234078645706,0.7099785208702087,0.0,-0.03343942388892174
226.0,311.0,1.2449,-0.6485,9.3733,-0.0359,0.0218,-0.1199,-1.9167162380614222,0.0,3.5145254135131836,-1.5785784721374512,-0.0,2.087296485900879,4.865487816720762,0.0,0.2877577841281891,-1.6521428267108362,-0.0,-0.003930944483727217,1.4405220746994019,0.0,-0.005950874648988247,0.7099944949150085,0.0,-0.041104964911937714
226.0,311.0,1.2449,-0.6485,9.3733,-0.0359,0.0218,-0.1199,-1.916703840295309,0.0,3.5650439262390137,-1.5785866975784302,-0.0,2.088792562484741,4.86549590805129,0.0,0.2909744083881378,-1.6521428267108362,-0.0,0.0019785629119724035,1.4405255317687988,0.0,-0.016234608367085457,0.709998607635498,0.0,-0.004942156840115786
226.0,311.0,1.2449,-0.6485,9.3733,-0.0359,0.0218,-0.1199,-1.9166962109007777,0.0,3.5641536712646484,-1.578546404838562,-0.0,2.0847976207733154,4.865439536958494,0.0,0.29500895738601685,-1.6521742979632776,-0.0,-0.0028821236919611692,1.4405343532562256,0.0,0.0019140467047691345,0.7099826335906982,0.0,0.052107155323028564
227.0,297.0,1.2676,-0.6808,9.3715,-0.0428,0.0218,-0.1188,-1.9166723690428675,0.0,3.509866714477539,-1.5785712003707886,-0.0,2.0586297512054443,4.865487503796377,0.0,0.2942408621311188,-1.6522262732135218,-0.0,0.0005895686917938292,1.440509557723999,0.0,-0.0019173184409737587,0.7099907994270325,0.0,-0.020970145240426064
227.0,297.0,1.2676,-0.6808,9.3715,-0.0428,0.0218,-0.1188,-1.9166919193663539,0.0,3.5355007648468018,-1.578631043434143,-0.0,2.081399917602539,4.865487801819601,0.0,0.2966848313808441,-1.6521742979632776,-0.0,-0.008407008834183216,1.4404603242874146,0.0,-0.012520505115389824,0.7099584937095642,0.0,0.012114845216274261
227.0,297.0,1.2676,-0.6808,9.3715,-0.0428,0.0218,-0.1188,-1.9167162380614222,0.0,3.5605931282043457,-1.5785949230194092,-0.0,2.0986709594726562,4.865483763604917,0.0,0.2912020683288574,-1.6521742979632776,-0.0,-0.004073937889188528,1.4405176639556885,0.0,-0.00393387395888567,0.7099949717521667,0.0,-6.446288898587227e-05
227.0,297.0,1.2676,-0.6808,9.3715,-0.0428,0.0218,-0.1188,-1.9166842899718226,0.0,3.5868897438049316,-1.5785826444625854,-0.0,2.0946545600891113,4.865415799408712,0.0,0.31549322605133057,-1.652170483266012,-0.0,0.0007420774782076478,1.4404480457305908,0.0,-0.00386349530890584,0.710006833076477,0.0,0.003927323035895824
227.0,297.0,1.2676,-0.6808,9.3715,-0.0428,0.0218,-0.1188,-1.9166919193663539,0.0,3.545100688934326,-1.5785346031188965,-0.0,2.103778123855591,4.865463721543112,0.0,0.2826833426952362,-1.6521261374102991,-0.0,-0.004022946581244469,1.4404853582382202,0.0,0.0027754735201597214,0.7099705338478088,0.0,-0.030557386577129364
227.0,297.0,1.2676,-0.6808,9.3715,-0.0428,0.0218,-0.1188,-1.9167043171324671,0.0,3.557439088821411,-1.5786269903182983,-0.0,2.0636696815490723,4.8654518006141565,0.0,0.29934120178222656,-1.6521385351764124,-0.0,-0.0021779618691653013,1.4404653310775757,0.0,0.00015982217155396938,0.7099826335906982,0.0,-0.015086976811289787
227.0,297.0,1.2676,-0.6808,9.3715,-0.0428,0.0218,-0.1188,-1.9166799984373988,0.0,3.583853244781494,-1.5785784721374512,-0.0,2.0549964904785156,4.865471827774801,0.0,0.2893788516521454,-1.6521862188922327,-0.0,0.013174903579056263,1.4405337572097778,0.0,-0.007956970483064651,0.709978461265564,0.0,-0.026622764766216278
227.0,297.0,1.2676,-0.6808,9.3715,-0.0428,0.0218,-0.1188,-1.9166680775084437,0.0,3.596705198287964,-1.5786348581314087,-0.0,2.091447353363037,4.865503790765562,0.0,0.28839966654777527,-1.6521981398211878,-0.0,0.0044508217833936214,1.440537452697754,0.0,-0.0001154967030743137,0.7099944949150085,0.0,0.022272687405347824
227.0,297.0,1.2676,-0.6808,9.3715,-0.0428,0.0218,-0.1188,-1.9166599712767542,0.0,3.5523509979248047,-1.578631043434143,-0.0,2.076949119567871,4.865471797972479,0.0,0.3044888973236084,-1.6521619001971644,-0.0,0.012665120884776115,1.440514326095581,0.0,-0.002878908533602953,0.7100067734718323,0.0,-0.03540777042508125
227.0,297.0,1.2676,-0.6808,9.3715,-0.0428,0.0218,-0.1188,-1.9166723690428675,0.0,3.5583744049072266,-1.5785784721374512,-0.0,2.0838496685028076,4.865443694382467,0.0,0.28495338559150696,-1.652198616658346,-0.0,-0.0066573768854141235,1.4404693841934204,0.0,-0.0031615332700312138,0.7100026607513428,0.0,-0.03381304070353508
227.0,297.0,1.2676,-0.6808,9.3715,-0.0428,0.0218,-0.1188,-1.9166676006712855,0.0,3.5264062881469727,-1.5786105394363403,-0.0,2.086297035217285,4.865487801819601,0.0,0.2913757860660553,-1.6521380583392542,-0.0,0.010135035961866379,1.440506100654602,0.0,0.00573379872366786,0.7099499702453613,0.0,-0.0032030059956014156
227.0,297.0,1.2676,-0.6808,9.3715,-0.0428,0.0218,-0.1188,-1.9167243442931117,0.0,3.5651373863220215,-1.578614592552185,-0.0,2.0475282669067383,4.865435826569357,0.0,0.30569690465927124,-1.6521742979632776,-0.0,0.015694325789809227,1.4404857158660889,0.0,0.0005087200552225113,0.7100067734718323,0.0,-0.025617456063628197
227.0,297.0,1.2676,-0.6808,9.3715,-0.0428,0.0218,-0.1188,-1.9166599712767542,0.0,3.523038387298584,-1.5785661935806274,-0.0,2.120051383972168,4.865503716259756,0.0,0.30059757828712463,-1.652170483266012,-0.0,-0.00030886335298419,1.4404484033584595,0.0,-0.007287381216883659,0.7099983096122742,0.0,0.02303941547870636
227.0,297.0,1.2676,-0.6808,9.3715,-0.0428,0.0218,-0.1188,-1.9166842899718226,0.0,3.5330286026000977,-1.5785670280456543,-0.0,2.1050338745117188,4.865455853730001,0.0,0.30800172686576843,-1.6521619001971644,-0.0,0.003585685044527054,1.440497636795044,0.0,-0.015099938027560711,0.7099664807319641,0.0,-0.0048034884966909885
227.0,297.0,1.2676,-0.6808,9.3715,-0.0428,0.0218,-0.1188,-1.9167005024352015,0.0,3.5264410972595215,-1.5786188840866089,-0.0,2.076716184616089,4.865471827774801,0.0,0.2932886481285095,-1.6521061102496546,-0.0,0.00367992976680398,1.4404935836791992,0.0,-0.0012486039195209742,0.7099705338478088,0.0,0.005610572174191475
223.0,308.0,1.1157,-0.676,9.4636,-0.0313,0.0255,-0.1191,-1.9166761837401332,0.0,3.546440601348877,-1.5786144733428955,-0.0,2.094416856765747,4.865483748703756,0.0,0.293434739112854,-1.6521347204791468,-0.0,0.00935639813542366,1.440521478652954,0.0,-0.0032330178655683994,0.7100067734718323,0.0,-0.0014620056608691812
223.0,308.0,1.1157,-0.676,9.4636,-0.0313,0.0255,-0.1191,-1.9166723690428675,0.0,3.555854558944702,-1.5785506963729858,-0.0,2.1163508892059326,4.865499722748556,0.0,0.28889304399490356,-1.6521623770343226,-0.0,0.005225053988397121,1.4404735565185547,0.0,-0.003973057493567467,0.709998607635498,0.0,-0.013747148215770721
223.0,308.0,1.1157,-0.676,9.4636,-0.0313,0.0255,-0.1191,-1.9166962109007777,0.0,3.5760459899902344,-1.5785505771636963,-0.0,2.06037974357605,4.865463721543112,0.0,0.2897071838378906,-1.6521905104266565,-0.0,0.0015619158511981368,1.440494179725647,0.0,-0.006255084183067083,0.7099990248680115,0.0,-0.0014276793226599693
223.0,308.0,1.1157,-0.676,9.4636,-0.0313,0.0255,-0.1191,-1.9167491398253382,0.0,3.5553359985351562,-1.5785866975784302,-0.0,2.0962114334106445,4.865503775864401,0.0,0.2897845506668091,-1.6521661917315882,-0.0,0.011103109456598759,1.4405176639556885,0.0,0.0017916321521624923,0.7100067734718323,0.0,0.05670356750488281
223.0,308.0,1.1157,-0.676,9.4636,-0.0313,0.0255,-0.1191,-1.9166919193663539,0.0,3.5100789070129395,-1.5786269903182983,-0.0,2.0892112255096436,4.865479695587911,0.0,0.3036964535713196,-1.6521466414081019,-0.0,0.011195361614227295,1.4405657052993774,0.0,0.0012603055220097303,0.709970235824585,0.0,-0.03248639777302742
223.0,308.0,1.1157,-0.676,9.4636,-0.0313,0.0255,-0.1191,-1.9166799984373988,0.0,3.551722526550293,-1.5785949230194092,-0.0,2.087681293487549,4.865483763604917,0.0,0.30037131905555725,-1.6521547476397913,-0.0,0.003324714256450534,1.4405136108398438,0.0,-0.0029213670641183853,0.709986686706543,0.0,0.06309110671281815
223.0,308.0,1.1157,-0.676,9.4636,-0.0313,0.0255,-0.1191,-1.9166518650450648,0.0,3.5516562461853027,-1.5786471366882324,-0.0,2.1111817359924316,4.865439879685201,0.0,0.28841742873191833,-1.652170483266012,-0.0,-0.0026275734417140484,1.440557599067688,0.0,-0.0036107490304857492,0.7099907994270325,0.0,0.010592812672257423
223.0,308.0,1.1157,-0.676,9.4636,-0.0313,0.0255,-0.1191,-1.916708608666891,0.0,3.5338845252990723,-1.5785589218139648,-0.0,2.036864757537842,4.865499722748556,0.0,0.2850525379180908,-1.6521428267108362,-0.0,0.007116326130926609,1.4405016899108887,0.0,-0.005764037370681763,0.7100187540054321,0.0,-0.015065431594848633
223.0,308.0,1.1157,-0.676,9.4636,-0.0313,0.0255,-0.1191,-1.9166885815062464,0.0,3.5732312202453613,-1.5785547494888306,-0.0,2.0824759006500244,4.8654518006141565,0.0,0.2938130497932434,-1.6521347204791468,-0.0,-0.0027985493652522564,1.4404323101043701,0.0,0.0004721147124655545,0.7099907994270325,0.0,0.009406023658812046
223.0,308.0,1.1157,-0.676,9.4636,-0.0313,0.0255,-0.1191,-1.9167243442931117,0.0,3.5463099479675293,-1.5785744190216064,-0.0,2.088552951812744,4.865463721543112,0.0,0.2958952486515045,-1.6521580854998987,-0.0,0.00023582682479172945,1.440497636795044,0.0,-0.007581748068332672,0.7100229859352112,0.0,-0.012091639451682568
223.0,308.0,1.1157,-0.676,9.4636,-0.0313,0.0255,-0.1191,-1.9166885815062464,0.0,3.591552734375,-1.5785866975784302,-0.0,2.076054811477661,4.865523877530851,0.0,0.2914823293685913,-1.6521943251239222,-0.0,-0.000415534945204854,1.4405016899108887,0.0,0.004390127956867218,0.7100188136100769,0.0,-0.00802592933177948
223.0,308.0,1.1157,-0.676,9.4636,-0.0313,0.0255,-0.1191,-1.9166962109007777,0.0,3.5456745624542236,-1.5785868167877197,-0.0,2.1221508979797363,4.8654518006141565,0.0,0.29517531394958496,-1.652114216481344,-0.0,0.010869873687624931,1.4405295848846436,0.0,-0.01549580879509449,0.709998607635498,0.0,0.01112267654389143
223.0,308.0,1.1157,-0.676,9.4636,-0.0313,0.0255,-0.1191,-1.9166919193663539,0.0,3.544064521789551,-1.5785784721374512,-0.0,2.091533660888672,4.865447747498312,0.0,0.2963530719280243,-1.6521666685687464,-0.0,0.013079049065709114,1.4404362440109253,0.0,-0.0019214788917452097,0.7100270986557007,0.0,-0.01008467935025692
223.0,308.0,1.1157,-0.676,9.4636,-0.0313,0.0255,-0.1191,-1.916664262811178,0.0,3.5453035831451416,-1.5785547494888306,-0.0,2.05727219581604,4.8654518006141565,0.0,0.2788487672805786,-1.6521742979632776,-0.0,0.0016321714501827955,1.4405301809310913,0.0,0.0012287627905607224,0.7100026607513428,0.0,0.005739179439842701
223.0,308.0,1.1157,-0.676,9.4636,-0.0313,0.0255,-0.1191,-1.916736742059225,0.0,3.545159101486206,-1.5786104202270508,-0.0,2.070700168609619,4.865439879685201,0.0,0.29913073778152466,-1.6522224585162562,-0.0,0.017689060419797897,1.440545678138733,0.0,-0.0015372824855148792,0.7100026607513428,0.0,-0.004588019568473101
223.0,305.0,1.2162,-0.6443,9.3649,-0.0286,0.0255,-0.1141,-1.9166680775084437,0.0,3.5355167388916016,-1.578582525253296,-0.0,2.0377094745635986,4.865491854935446,0.0,0.2991902828216553,-1.652154270802633,-0.0,-0.002156637841835618,1.4405136108398438,0.0,-0.006285393610596657,0.709998607635498,0.0,-0.02814040146768093
223.0,305.0,1.2162,-0.6443,9.3649,-0.0286,0.0255,-0.1141,-1.9166919193663539,0.0,3.5565648078918457,-1.578622817993164,-0.0,2.060149669647217,4.865495669632711,0.0,0.2925587594509125,-1.6521347204791468,-0.0,0.008139562793076038,1.4405016899108887,0.0,0.000590234762057662,0.709986686706543,0.0,-0.006921698804944754
223.0,305.0,1.2162,-0.6443,9.3649,-0.0286,0.0255,-0.1141,-1.9166761837401332,0.0,3.509089946746826,-1.578598976135254,-0.0,2.1122708320617676,4.865467774658956,0.0,0.29767051339149475,-1.6521619001971644,-0.0,0.0039052183274179697,1.4405622482299805,0.0,-0.005218943580985069,0.7099702954292297,0.0,0.02963837794959545
223.0,305.0,1.2162,-0.6443,9.3649,-0.0286,0.0255,-0.1141,-1.9167124233641566,0.0,3.5390124320983887,-1.5785670280456543,-0.0,2.087197780609131,4.865507828980245,0.0,0.2989206612110138,-1.6521428267108362,-0.0,0.0075301844626665115,1.440509557723999,0.0,-0.0007478317711502314,0.7099944949150085,0.0,0.013003812171518803
223.0,305.0,1.2162,-0.6443,9.3649,-0.0286,0.0255,-0.1141,-1.9166885815062464,0.0,3.552351474761963,-1.5785908699035645,-0.0,2.0484132766723633,4.865447747498312,0.0,0.30636900663375854,-1.6521619001971644,-0.0,0.0048103248700499535,1.4404774904251099,0.0,0.0013798573054373264,0.7100588083267212,0.0,-0.005112587008625269
223.0,305.0,1.2162,-0.6443,9.3649,-0.0286,0.0255,-0.1141,-1.9167572460570277,0.0,3.5007338523864746,-1.5786104202270508,-0.0,2.0912606716156006,4.865459906845846,0.0,0.2890384793281555,-1.6521943251239222,-0.0,-0.001339976442977786,1.4404853582382202,0.0,-0.0028790943324565887,0.7099341154098511,0.0,0.017887402325868607
223.0,305.0,1.2162,-0.6443,9.3649,-0.0286,0.0255,-0.1141,-1.9166761837401332,0.0,3.547671318054199,-1.5786389112472534,-0.0,2.1041510105133057,4.865467774658956,0.0,0.2873486578464508,-1.6521261374102991,-0.0,0.015212159603834152,1.4404603242874146,0.0,-0.006062492728233337,0.7099907994270325,0.0,0.0031588124111294746
223.0,305.0,1.2162,-0.6443,9.3649,-0.0286,0.0255,-0.1141,-1.9166842899718226,0.0,3.5184123516082764,-1.5785908699035645,-0.0,2.072685718536377,4.865503775864401,0.0,0.29878196120262146,-1.6521223227130335,-0.0,0.010528020560741425,1.4404561519622803,0.0,0.007011814042925835,0.7099744081497192,0.0,-0.019858747720718384
223.0,305.0,1.2162,-0.6443,9.3649,-0.0286,0.0255,-0.1141,-1.9167081318297328,0.0,3.5205914974212646,-1.5786023139953613,-0.0,2.0850133895874023,4.8654756275709055,0.0,0.29596248269081116,-1.6521499792682093,-0.0,0.01793624646961689,1.4405176639556885,0.0,-0.0069560944102704525,0.7099907994270325,0.0,0.015953131020069122
223.0,305.0,1.2162,-0.6443,9.3649,-0.0286,0.0255,-0.1141,-1.9166962109007777,0.0,3.5036988258361816,-1.5785949230194092,-0.0,2.040513038635254,4.865487801819601,0.0,0.3069796562194824,-1.6521666685687464,-0.0,0.012344134971499443,1.4405101537704468,0.0,-0.005630733910948038,0.7100147604942322,0.0,-0.03224726766347885
223.0,305.0,1.2162,-0.6443,9.3649,-0.0286,0.0255,-0.1141,-1.9166599712767542,0.0,3.548983097076416,-1.578606367111206,-0.0,2.1040115356445312,4.8654916165168665,0.0,0.2885032296180725,-1.652182404194967,-0.0,-0.004526291508227587,1.4404442310333252,0.0,-0.011702675372362137,0.7099702954292297,0.0,0.008181044831871986
223.0,305.0,1.2162,-0.6443,9.3649,-0.0286,0.0255,-0.1141,-1.9167162380614222,0.0,3.5474534034729004,-1.5785826444625854,-0.0,2.0816397666931152,4.865499722748556,0.0,0.29890957474708557,-1.6521061102496546,-0.0,0.002774836728349328,1.4405295848846436,0.0,0.005394040606915951,0.709998607635498,0.0,0.023092180490493774
223.0,305.0,1.2162,-0.6443,9.3649,-0.0286,0.0255,-0.1141,-1.9166799984373988,0.0,3.5379185676574707,-1.5785629749298096,-0.0,2.056098461151123,4.865487801819601,0.0,0.2957034707069397,-1.6521580854998987,-0.0,-0.008218789473176003,1.4404643774032593,0.0,-0.0014995886012911797,0.7100393772125244,0.0,0.04838760569691658
223.0,305.0,1.2162,-0.6443,9.3649,-0.0286,0.0255,-0.1141,-1.9167281589903773,0.0,3.5252809524536133,-1.5785744190216064,-0.0,2.1109819412231445,4.865463721543112,0.0,0.2975168824195862,-1.652102295552389,-0.0,0.007825694046914577,1.4405295848846436,0.0,-0.005516406148672104,0.7100270986557007,0.0,-0.06477560847997665
221.0,307.0,1.2329,-0.6126,9.3625,-0.0292,0.0283,-0.1231,-1.9166442356505335,0.0,3.6146512031555176,-1.5785144567489624,-0.0,2.067599296569824,4.865439566760816,0.0,0.3008824288845062,-1.6521742979632776,-0.0,0.009745374321937561,1.4404935836791992,0.0,-0.0022753546945750713,0.7100551128387451,0.0,-0.0037751812487840652
221.0,307.0,1.2329,-0.6126,9.3625,-0.0292,0.0283,-0.1231,-1.9166962109007777,0.0,3.52711820602417,-1.5785908699035645,-0.0,2.054023027420044,4.865459668427267,0.0,0.30272379517555237,-1.652154270802633,-0.0,0.011127923615276814,1.440494179725647,0.0,-0.005401988979429007,0.7100266218185425,0.0,0.06551460921764374
221.0,307.0,1.2329,-0.6126,9.3625,-0.0292,0.0283,-0.1231,-1.9167162380614222,0.0,3.5681231021881104,-1.5785940885543823,-0.0,2.1271634101867676,4.865516009717741,0.0,0.29970595240592957,-1.6521666685687464,-0.0,0.0051002283580601215,1.440554141998291,0.0,0.0091321412473917,0.7100430727005005,0.0,-0.017359189689159393
221.0,307.0,1.2329,-0.6126,9.3625,-0.0292,0.0283,-0.1231,-1.9167124233641566,0.0,3.5222182273864746,-1.5785784721374512,-0.0,2.078922748565674,4.8654235927160165,0.0,0.2979716360569,-1.652154270802633,-0.0,0.0029832301661372185,1.4404891729354858,0.0,-0.013371793553233147,0.7100229859352112,0.0,0.00803319551050663
221.0,307.0,1.2329,-0.6126,9.3625,-0.0292,0.0283,-0.1231,-1.9167243442931117,0.0,3.5511438846588135,-1.5785589218139648,-0.0,2.0565009117126465,4.8654518006141565,0.0,0.28820496797561646,-1.6521347204791468,-0.0,-0.0019312718650326133,1.440509557723999,0.0,-0.008963476866483688,0.7099746465682983,0.0,-0.01314963772892952
221.0,307.0,1.2329,-0.6126,9.3625,-0.0292,0.0283,-0.1231,-1.916720529595846,0.0,3.5309231281280518,-1.5785949230194092,-0.0,2.0980682373046875,4.865467774658956,0.0,0.28645163774490356,-1.6521619001971644,-0.0,0.01030328031629324,1.440509557723999,0.0,0.01396737527102232,0.7099907994270325,0.0,0.023159144446253777
221.0,307.0,1.2329,-0.6126,9.3625,-0.0292,0.0283,-0.1231,-1.9166962109007777,0.0,3.558779716491699,-1.578598141670227,-0.0,2.1335325241088867,4.865495669632711,0.0,0.3077613115310669,-1.6522181669818323,-0.0,0.013457118533551693,1.4404776096343994,0.0,-0.008563315495848656,0.709986686706543,0.0,0.022488169372081757
221.0,307.0,1.2329,-0.6126,9.3625,-0.0292,0.0283,-0.1231,-1.9167005024352015,0.0,3.561066150665283,-1.5785744190216064,-0.0,2.0300216674804688,4.865467774658956,0.0,0.3029305934906006,-1.6521785894977015,-0.0,0.0053435759618878365,1.440497636795044,0.0,-0.004971420392394066,0.7099907398223877,0.0,-0.0003441756125539541
221.0,307.0,1.2329,-0.6126,9.3625,-0.0292,0.0283,-0.1231,-1.916664262811178,0.0,3.5875816345214844,-1.578606367111206,-0.0,2.0927393436431885,4.865471827774801,0.0,0.2984467148780823,-1.652198616658346,-0.0,0.008176478557288647,1.4405176639556885,0.0,-0.003379599656909704,0.7099705338478088,0.0,-0.018206816166639328
221.0,307.0,1.2329,-0.6126,9.3625,-0.0292,0.0283,-0.1231,-1.9166881046690882,0.0,3.573179244995117,-1.578622579574585,-0.0,2.0918750762939453,4.865447747498312,0.0,0.30232495069503784,-1.6521862188922327,-0.0,-0.00466184364631772,1.4405255317687988,0.0,-0.0012022743467241526,0.7099785208702087,0.0,-0.002866065129637718
221.0,307.0,1.2329,-0.6126,9.3625,-0.0292,0.0283,-0.1231,-1.9167324505248011,0.0,3.5818190574645996,-1.578598141670227,-0.0,2.0518250465393066,4.865443694382467,0.0,0.29138240218162537,-1.6521742979632776,-0.0,0.00029130891198292375,1.4405014514923096,0.0,-0.003536687698215246,0.7099664807319641,0.0,0.01893673837184906
221.0,307.0,1.2329,-0.6126,9.3625,-0.0292,0.0283,-0.1231,-1.9166799984373988,2.1873640052016974e-11,3.5113632678985596,-1.5786352157592773,-0.0,2.127045154571533,4.865447747498312,0.0,0.30157068371772766,-1.6521261374102991,-0.0,-3.327408921904862e-05,1.440468430519104,0.0,-0.002729467349126935,0.7100188136100769,0.0,0.024739746004343033
221.0,307.0,1.2329,-0.6126,9.3625,-0.0292,0.0283,-0.1231,-1.9167005024352015,5.28222616838113e-17,3.548708438873291,-1.578606367111206,-0.0,2.0738210678100586,4.865439879685201,0.0,0.2981186509132385,-1.652182404194967,-0.0,-0.0038426630198955536,1.440497636795044,0.0,-0.00016193999908864498,0.7099582552909851,0.0,-0.005163817200809717
221.0,307.0,1.2329,-0.6126,9.3625,-0.0292,0.0283,-0.1231,-1.916664262811178,1.2755956568070662e-22,3.576512336730957,-1.578546404838562,-0.0,2.0739054679870605,4.8655200628335855,0.0,0.2936609089374542,-1.652170483266012,-0.0,0.011394418776035309,1.4405255317687988,0.0,-0.005913618952035904,0.7100106477737427,0.0,-0.015506694093346596
221.0,307.0,1.2329,-0.6126,9.3625,-0.0292,0.0283,-0.1231,-1.9167005024352015,3.0804132421106093e-28,3.5814638137817383,-1.5785784721374512,-0.0,2.1201083660125732,4.8654916165168665,0.0,0.30013447999954224,-1.6521499792682093,-0.0,0.0036808124277740717,1.4405455589294434,0.0,-0.00845991913229227,0.7100307941436768,0.0,-0.0009331656619906425
226.0,311.0,1.209,-0.6532,9.3571,-0.0286,0.0243,-0.1219,-1.9167005024352015,9.980150081023508e-36,3.566749334335327,-1.5785102844238281,-0.0,2.0436792373657227,4.865479695587911,0.0,0.28613758087158203,-1.6521385351764124,-0.0,-0.0009401170536875725,1.4405301809310913,0.0,0.002636721357703209,0.710030734539032,0.0,-0.03777124360203743
226.0,311.0,1.209,-0.6532,9.3571,-0.0286,0.0243,-0.1219,-1.9166599712767542,2.410093228792253e-41,3.5444459915161133,-1.5785868167877197,-0.0,2.1383607387542725,4.8654518006141565,0.0,0.29760631918907166,-1.6521580854998987,-0.0,0.003865277860313654,1.4405220746994019,0.0,0.007678472436964512,0.710030734539032,0.0,0.026239342987537384
226.0,311.0,1.209,-0.6532,9.3571,-0.0286,0.0243,-0.1219,-1.9166799984373988,0.0,3.527233600616455,-1.578546404838562,-0.0,2.0631637573242188,4.865443694382467,0.0,0.29413142800331116,-1.6521785894977015,-0.0,-0.005572924856096506,1.4404603242874146,0.0,0.0016835164278745651,0.7099744081497192,0.0,0.0008295034058392048
226.0,311.0,1.209,-0.6532,9.3571,-0.0286,0.0243,-0.1219,-1.9166680775084437,0.0,3.5126075744628906,-1.5785423517227173,-0.0,2.036761522293091,4.865455853730001,0.0,0.2970392405986786,-1.6521580854998987,-0.0,-0.004075085278600454,1.440481424331665,0.0,-0.0010925719980150461,0.7099944949150085,0.0,0.015961673110723495
226.0,311.0,1.209,-0.6532,9.3571,-0.0286,0.0243,-0.1219,-1.9166761837401332,0.0,3.5036187171936035,-1.5785629749298096,-0.0,2.1176512241363525,4.865499722748556,0.0,0.2924828827381134,-1.6521385351764124,-0.0,0.01128905825316906,1.4404776096343994,0.0,-0.00022724535665474832,0.7100266218185425,0.0,0.004169480875134468
226.0,311.0,1.209,-0.6532,9.3571,-0.0286,0.0243,-0.1219,-1.9166881046690882,0.0,3.556056261062622,-1.5786229372024536,-0.0,2.0984787940979004,4.8654518006141565,0.0,0.2815079689025879,-1.6521619001971644,-0.0,0.01050558965653181,1.4404603242874146,0.0,0.004276343621313572,0.7099259495735168,0.0,-0.017042336985468864
226.0,311.0,1.209,-0.6532,9.3571,-0.0286,0.0243,-0.1219,-1.9166881046690882,0.0,3.5463104248046875,-1.578614592552185,-0.0,2.1165106296539307,4.865471827774801,0.0,0.2924310564994812,-1.6521261374102991,-0.0,0.0006584301590919495,1.4404935836791992,0.0,7.328623905777931e-05,0.7099907994270325,0.0,0.003411946352571249
226.0,311.0,1.209,-0.6532,9.3571,-0.0286,0.0243,-0.1219,-1.9167243442931117,0.0,3.5454649925231934,-1.5786429643630981,-0.0,2.0963664054870605,4.865479695587911,0.0,0.2921605706214905,-1.6521943251239222,-0.0,-0.003167141228914261,1.4405295848846436,0.0,-0.010106892324984074,0.7099704742431641,0.0,0.05243903025984764
226.0,311.0,1.209,-0.6532,9.3571,-0.0286,0.0243,-0.1219,-1.916708608666891,0.0,3.532003402709961,-1.5785547494888306,-0.0,2.052152156829834,4.865479695587911,0.0,0.29570239782333374,-1.6521223227130335,-0.0,0.005900740157812834,1.440497636795044,0.0,-0.002021778840571642,0.7099826335906982,0.0,0.03983622044324875
226.0,311.0,1.209,-0.6532,9.3571,-0.0286,0.0243,-0.1219,-1.9166885815062464,0.0,3.5441670417785645,-1.578554630279541,-0.0,2.0910234451293945,4.865439566760816,0.0,0.2862074375152588,-1.6521466414081019,-0.0,0.008469941094517708,1.4405220746994019,0.0,0.0026521445252001286,0.710030734539032,0.0,0.007770817261189222
226.0,311.0,1.209,-0.6532,9.3571,-0.0286,0.0243,-0.1219,-1.9166761837401332,0.0,3.5002241134643555,-1.5785868167877197,-0.0,2.079366683959961,4.8654799340064905,0.0,0.29335159063339233,-1.6521347204791468,-0.0,-0.0035648453049361706,1.4404401779174805,0.0,-0.0071120415814220905,0.7100026607513428,0.0,-0.015373903326690197
226.0,311.0,1.209,-0.6532,9.3571,-0.0286,0.0243,-0.1219,-1.916720529595846,0.0,3.5178089141845703,-1.5785423517227173,-0.0,2.069563627243042,4.865483748703756,0.0,0.29461869597435,-1.6521742979632776,-0.0,0.017809445038437843,1.440432071685791,0.0,-0.0030048335902392864,0.7100225687026978,0.0,-0.034689128398895264
226.0,311.0,1.209,-0.6532,9.3571,-0.0286,0.0243,-0.1219,-1.9167162380614222,0.0,3.511183738708496,-1.5785222053527832,-0.0,2.1054439544677734,4.865443694382467,0.0,0.29565659165382385,-1.6521061102496546,-0.0,0.0007181502878665924,1.4405174255371094,0.0,-0.0076654572039842606,0.7100106477737427,0.0,-0.0009141354821622372
226.0,311.0,1.209,-0.6532,9.3571,-0.0286,0.0243,-0.1219,-1.916720529595846,0.0,3.5496556758880615,-1.578606367111206,-0.0,2.057363510131836,4.865511941700735,0.0,0.2992441952228546,-1.6521862188922327,-0.0,0.003579984651878476,1.4405136108398438,0.0,-0.0050073228776454926,0.7100592255592346,0.0,-0.010698992758989334
226.0,311.0,1.209,-0.6532,9.3571,-0.0286,0.0243,-0.1219,-1.9166323147215785,0.0,3.510472297668457,-1.5786023139953613,-0.0,2.0832042694091797,4.865451785712995,0.0,0.2883422076702118,-1.6521347204791468,-0.0,-0.006395358592271805,1.4404654502868652,0.0,-0.004496172070503235,0.7100026607513428,0.0,0.009003985673189163
221.0,297.0,1.1157,-0.5617,9.4104,-0.044,0.0273,-0.1255,-1.9167529545226039,0.0,3.5402750968933105,-1.5785547494888306,-0.0,2.052175521850586,4.865487801819601,0.0,0.30889683961868286,-1.6521661917315882,-0.0,-0.0092044398188591,1.4405421018600464,0.0,0.0040367539040744305,0.7099744081497192,0.0,0.013220936059951782
221.0,297.0,1.1157,-0.5617,9.4104,-0.044,0.0273,-0.1255,-1.9167162380614222,0.0,3.520819664001465,-1.5785826444625854,-0.0,2.0558829307556152,4.865475895791807,0.0,0.30182164907455444,-1.6521580854998987,-0.0,-0.001623174175620079,1.4404733180999756,0.0,-6.966758519411087e-05,0.7100110054016113,0.0,0.018997658044099808
221.0,297.0,1.1157,-0.5617,9.4104,-0.044,0.0273,-0.1255,-1.9166480503477992,0.0,3.630361557006836,-1.5785703659057617,-0.0,2.0768380165100098,4.86548778691844,0.0,0.3015725612640381,-1.6521785894977015,-0.0,-0.00029530818574130535,1.4404776096343994,0.0,0.004893425386399031,0.7099826335906982,0.0,-0.0074297343380749226
221.0,297.0,1.1157,-0.5617,9.4104,-0.044,0.0273,-0.1255,-1.916652341882223,0.0,3.5628466606140137,-1.5785744190216064,-0.0,2.0885519981384277,4.865487801819601,0.0,0.28978779911994934,-1.6521580854998987,-0.0,-0.008407503366470337,1.4404857158660889,0.0,0.0032756582368165255,0.7099826335906982,0.0,0.009863147512078285
221.0,297.0,1.1157,-0.5617,9.4104,-0.044,0.0273,-0.1255,-1.9167081318297328,0.0,3.5310845375061035,-1.578574538230896,-0.0,2.0926291942596436,4.865503820567884,0.0,0.30171480774879456,-1.6521461645709437,-0.0,-0.008259739726781845,1.4405101537704468,0.0,-0.015592837706208229,0.709994912147522,0.0,-0.008030889555811882
221.0,297.0,1.1157,-0.5617,9.4104,-0.044,0.0273,-0.1255,-1.916692396203512,0.0,3.5460281372070312,-1.5785908699035645,-0.0,2.0823566913604736,4.865479695587911,0.0,0.2988123297691345,-1.6521661917315882,-0.0,0.010091755539178848,1.440497636795044,0.0,-0.004033537581562996,0.7100229859352112,0.0,-0.02477629855275154
221.0,297.0,1.1157,-0.5617,9.4104,-0.044,0.0273,-0.1255,-1.9166761837401332,0.0,3.5450210571289062,-1.5786471366882324,-0.0,2.103909969329834,4.865419852524557,0.0,0.2787519693374634,-1.652130428944723,-0.0,0.003641937393695116,1.4404973983764648,0.0,0.004729463718831539,0.7099826335906982,0.0,0.014192626811563969
221.0,297.0,1.1157,-0.5617,9.4104,-0.044,0.0273,-0.1255,-1.9166885815062464,0.0,3.5092990398406982,-1.5785784721374512,-0.0,2.08321475982666,4.865463721543112,0.0,0.28644949197769165,-1.6521905104266565,-0.0,0.003495684126392007,1.4405055046081543,0.0,0.008670248091220856,0.7100266814231873,0.0,0.01012652087956667
221.0,297.0,1.1157,-0.5617,9.4104,-0.044,0.0273,-0.1255,-1.9167043171324671,0.0,3.5496320724487305,-1.5785629749298096,-0.0,2.0649828910827637,4.865479710489073,0.0,0.2960883677005768,-1.6521466414081019,-0.0,0.007484673522412777,1.4405534267425537,0.0,-0.0064476486295461655,0.7099623084068298,0.0,-0.014328232035040855
221.0,297.0,1.1157,-0.5617,9.4104,-0.044,0.0273,-0.1255,-1.9167005024352015,0.0,3.5628104209899902,-1.5785949230194092,-0.0,2.070512056350708,4.865479695587911,0.0,0.2899895906448364,-1.6521700064288538,-0.0,0.003947441466152668,1.4404935836791992,0.0,-0.011961102485656738,0.7099461555480957,0.0,0.027780991047620773
221.0,297.0,1.1157,-0.5617,9.4104,-0.044,0.0273,-0.1255,-1.9167200527586878,0.0,3.5500688552856445,-1.5785304307937622,-0.0,2.1206326484680176,4.865503775864401,0.0,0.31085896492004395,-1.6521742979632776,-0.0,0.008279168047010899,1.4404776096343994,0.0,-0.006823018658906221,0.7100588083267212,0.0,0.003144347108900547
221.0,297.0,1.1157,-0.5617,9.4104,-0.044,0.0273,-0.1255,-1.9166680775084437,0.0,3.541191816329956,-1.5785589218139648,5.914862377665031e-09,2.097630500793457,4.865439596563139,0.0,0.3095390200614929,-1.6521943251239222,-0.0,0.008157921954989433,1.4404484033584595,0.0,0.013235095888376236,0.7099904417991638,0.0,0.03934396058320999
221.0,297.0,1.1157,-0.5617,9.4104,-0.044,0.0273,-0.1255,-1.9166761837401332,0.0,3.513646125793457,-1.578534483909607,1.4283696160534085e-14,2.060126781463623,4.865451770811834,0.0,0.2927802801132202,-1.6521905104266565,-0.0,0.0073508028872311115,1.4404568672180176,0.0,-0.0011124116135761142,0.7100229859352112,0.0,-0.00633797375485301
221.0,297.0,1.1157,-0.5617,9.4104,-0.044,0.0273,-0.1255,-1.9166885815062464,0.0,3.5993661880493164,-1.5785744190216064,3.4493444468158325e-20,2.08831787109375,4.865479695587911,0.0,0.29123765230178833,-1.6521580854998987,-0.0,0.002247273689135909,1.4404776096343994,0.0,0.0121465427801013,0.709986686706543,0.0,0.051021866500377655
221.0,297.0,1.1157,-0.5617,9.4104,-0.044,0.0273,-0.1255,-1.9167162380614222,0.0,3.58530855178833,-1.5785222053527832,8.329761640825085e-26,2.0625948905944824,4.865491854935446,0.0,0.29189619421958923,-1.652154270802633,-0.0,-0.0016943382797762752,1.4404568672180176,0.0,-0.0013249681796878576,0.709986686706543,0.0,-0.028452277183532715
232.0,304.0,1.2993,-0.7938,9.3775,-0.0321,0.0426,-0.122,-1.916603227654928,0.0,3.545661449432373,-1.578534483909607,2.0115390820677916e-31,2.1245739459991455,4.865507948189535,0.0,0.30651575326919556,-1.6521862188922327,-0.0,0.0005243660998530686,1.4405579566955566,0.0,0.0014688295777887106,0.7099664807319641,0.0,-0.003917223308235407
232.0,304.0,1.2993,-0.7938,9.3775,-0.0321,0.0426,-0.122,-1.9166962109007777,0.0,3.5531299114227295,-1.578494668006897,4.857630497797791e-37,2.064300060272217,4.865483733802595,0.0,0.29112428426742554,-1.6521862188922327,-0.0,0.0021204312797635794,1.4405415058135986,0.0,0.00433849124237895,0.7100188136100769,0.0,0.013339988887310028
232.0,304.0,1.2993,-0.7938,9.3775,-0.0321,0.0426,-0.122,-1.9166842899718226,0.0,3.542980194091797,-1.5785752534866333,0.0002234905114164576,2.093886613845825,4.865471842675962,0.0,0.2849396765232086,-1.6521428267108362,-0.0,0.0016244746511802077,1.4405255317687988,0.0,0.001912375446408987,0.7100067734718323,0.0,0.004100235179066658
232.0,304.0,1.2993,-0.7938,9.3775,-0.0321,0.0426,-0.122,-1.9167005024352015,0.0,3.610342502593994,-1.5785506963729858,0.00019451884145382792,2.058689594268799,4.865455823927679,0.0,0.2815733850002289,-1.652186695729391,-0.0,0.012515624985098839,1.440526008605957,0.0,-0.009379544295370579,0.7099705338478088,0.0,0.00118686119094491
232.0,304.0,1.2993,-0.7938,9.3775,-0.0321,0.0426,-0.122,-1.9166761837401332,0.0,3.5856075286865234,-1.5786031484603882,0.00017218885477632284,2.099700689315796,4.8654518006141565,0.0,0.28878718614578247,-1.6521666685687464,-0.0,0.008247623220086098,1.4405300617218018,0.0,-0.002037069760262966,0.7100229859352112,0.0,0.018220003694295883
232.0,304.0,1.2993,-0.7938,9.3775,-0.0321,0.0426,-0.122,-1.9167043171324671,0.0,3.537154197692871,-1.5785670280456543,0.00015445720055140555,2.0705761909484863,4.865491631418028,0.0,0.29868820309638977,-1.6522024313556116,-0.0,-0.005509754177182913,1.440460443496704,0.0,-0.005002724006772041,0.7099944949150085,0.0,-0.035795941948890686
232.0,304.0,1.2993,-0.7938,9.3775,-0.0321,0.0426,-0.122,-1.9166680775084437,0.0,3.488985061645508,-1.5785589218139648,0.0001400371256750077,2.0616679191589355,4.865471797972479,0.0,0.28780946135520935,-1.6521623770343226,-0.0,0.005828470457345247,1.4405136108398438,0.0,-0.007175490725785494,0.7100147604942322,0.0,0.04328306019306183
232.0,304.0,1.2993,-0.7938,9.3775,-0.0321,0.0426,-0.122,-1.9167281589903773,0.0,3.578608512878418,-1.5785744190216064,0.00012807971506845206,2.0834507942199707,4.8654518006141565,0.0,0.2867875397205353,-1.6521742979632776,-0.0,-0.0058910478837788105,1.4403965473175049,0.0,-0.0014910553582012653,0.709998607635498,0.0,0.023677412420511246
232.0,304.0,1.2993,-0.7938,9.3775,-0.0321,0.0426,-0.122,-1.9166962109007777,0.0,3.571544647216797,-1.5785752534866333,9.472812962485477e-05,2.1074118614196777,4.865455540805616,0.0,0.292639821767807,-1.6521943251239222,-0.0,-0.005124559625983238,1.4404895305633545,0.0,-0.001709946896880865,0.7100229859352112,0.0,0.013525462709367275
232.0,304.0,1.2993,-0.7938,9.3775,-0.0321,0.0426,-0.122,-1.9166442356505335,0.0,3.538508415222168,-1.5785589218139648,8.751799759920686e-05,2.095109462738037,4.865483763604917,0.0,0.2853003740310669,-1.6521466414081019,-0.0,-0.006530930288136005,1.440509557723999,0.0,-0.007481778040528297,0.7099705338478088,0.0,0.02907547727227211
232.0,304.0,1.2993,-0.7938,9.3775,-0.0321,0.0426,-0.122,-1.916664262811178,0.0,3.568164825439453,-1.5786104202270508,8.156902913469821e-05,2.0857596397399902,4.865516039520063,0.0,0.2922479510307312,-1.6521661917315882,-0.0,-0.007886253297328949,1.4405255317687988,0.0,-0.01587579771876335,0.7100225687026978,0.0,-0.025662217289209366
232.0,304.0,1.2993,-0.7938,9.3775,-0.0321,0.0426,-0.122,-1.9166561565794886,0.0,3.60727596282959,-1.5785752534866333,3.078659938182682e-05,2.0976016521453857,4.8654837785060785,0.0,0.30967170000076294,-1.6521981398211878,-0.0,-0.00455615296959877,1.4404895305633545,0.0,0.004587283357977867,0.7099826335906982,0.0,-0.014843267388641834
232.0,304.0,1.2993,-0.7938,9.3775,-0.0321,0.0426,-0.122,-1.9166723690428675,4.2812985157070216e-07,3.53109073638916,-1.5785629749298096,2.7920405045733787e-05,2.083221435546875,4.865499707847395,4.376289108876108e-09,0.28790074586868286,-1.6521347204791468,-0.0,0.01119929552078247,1.44046950340271,0.0,-0.009337344206869602,0.7100348472595215,0.0,-0.017886092886328697
232.0,304.0,1.2993,-0.7938,9.3775,-0.0321,0.0426,-0.122,-1.9166604481139125,1.3870865007536547e-14,3.521920680999756,-1.5785784721374512,2.483819298504386e-05,2.0302212238311768,4.8655516979988,0.0010979126673191786,0.28860756754875183,-1.6521785894977015,-0.0,0.005029893480241299,1.4405293464660645,0.0,3.6517507396638393e-05,0.7099664211273193,0.0,-0.011613816022872925
224.0,308.0,1.4381,-0.3739,9.2453,-0.0287,0.0119,-0.1261,-1.916636129418844,0.0006951121613383293,3.515446662902832,-1.578582525253296,2.293897523486521e-05,2.077975273132324,4.865539538651266,0.001142163760960102,0.29859957098960876,-1.6522024313556116,-0.0,0.012646510265767574,1.4404816627502441,0.0,-0.002519601956009865,0.7100067734718323,0.0,-0.03645012527704239
224.0,308.0,1.4381,-0.3739,9.2453,-0.0287,0.0119,-0.1261,-1.916668554345602,0.0006683709216304123,3.5043070316314697,-1.578546404838562,2.1309555449988693e-05,2.045865058898926,4.865495624929228,0.001361216651275754,0.3025550842285156,-1.6521623770343226,-0.0,-0.00079996173735708,1.4405574798583984,0.0,0.004058497492223978,0.709986686706543,0.0,0.02591153047978878
224.0,308.0,1.4381,-0.3739,9.2453,-0.0287,0.0119,-0.1261,-1.916636129418844,0.000674411712680012,3.5489678382873535,-1.5785949230194092,1.9896308003808372e-05,2.105499267578125,4.8655923930700204,0.0019434377318248153,0.2969668507575989,-1.652158562337057,-0.0,0.002414493355900049,1.4405014514923096,0.0,-0.008100059814751148,0.7100188136100769,0.0,0.022761644795536995
224.0,308.0,1.4381,-0.3739,9.2453,-0.0287,0.0119,-0.1261,-1.9166847668089808,0.0006475125555880368,3.5177645683288574,-1.578622817993164,1.8658829503692687e-05,2.1153221130371094,4.865564408689298,0.0032761262264102697,0.28754061460494995,-1.6521666685687464,-0.0,0.022237639874219894,1.4405133724212646,0.0,0.0005448138108476996,0.7100348472595215,3.893687221534492e-07,0.04148997366428375
224.0,308.0,1.4381,-0.3739,9.2453,-0.0287,0.0119,-0.1261,-1.9166528187193812,0.0005689061945304275,3.523669719696045,-1.5785949230194092,1.7566284441272728e-05,2.085045337677002,4.865563618927755,0.0075514246709644794,0.29496729373931885,-1.6521862188922327,-0.0,0.006802686024457216,1.440497636795044,0.0,-0.0007631875341758132,0.7099702954292297,9.40279646678699e-13,-0.025993376970291138
224.0,308.0,1.4381,-0.3739,9.2453,-0.0287,0.0119,-0.1261,-1.9166318378844203,0.00041265436448156834,3.57009220123291,-1.578582525253296,1.6594598491792567e-05,2.070305824279785,4.865664320975103,0.013319902122020721,0.2907460927963257,-1.652170483266012,-0.0,0.0011139328125864267,1.4405333995819092,0.0,0.006951324176043272,0.7099863290786743,2.270664961788183e-18,0.03650091588497162
224.0,308.0,1.4381,-0.3739,9.2453,-0.0287,0.0119,-0.1261,-1.916668554345602,0.00032360153272747993,3.5603995323181152,-1.578622817993164,1.57247886818368e-05,2.0875205993652344,4.8656875667865656,0.007430363912135363,0.2980552911758423,-1.6522062460528772,-0.0,0.002837692154571414,1.440497636795044,0.0,-0.006061417981982231,0.7100469470024109,5.48338832383981e-24,-0.002921653911471367
224.0,308.0,1.4381,-0.3739,9.2453,-0.0287,0.0119,-0.1261,-1.9166318378844203,0.0002136939438059926,3.5327210426330566,-1.578598976135254,3.250030522483627e-10,2.1109347343444824,4.865642878204145,0.0014644734328612685,0.2949371933937073,-1.6522381941424769,-0.0,0.008296296000480652,1.4404776096343994,0.0,-0.013152704574167728,0.7099826335906982,1.3241735846532747e-29,0.012066887691617012
224.0,308.0,1.4381,-0.3739,9.2453,-0.0287,0.0119,-0.1261,-1.9166237316527308,0.0001808415981940925,3.535308361053467,-1.5785629749298096,7.84844158843804e-16,2.057861089706421,4.865659224777975,6.401604082384438e-07,0.29338207840919495,-1.6521742979632776,-0.0,-0.011304853484034538,1.4404900074005127,0.0,-0.00431646965444088,0.7100427746772766,3.197723168672348e-35,0.04748664051294327
224.0,308.0,1.4381,-0.3739,9.2453,-0.0287,0.0119,-0.1261,-1.9166280231871546,0.00011299889592919499,3.539863109588623,-1.5785703659057617,2.542794993683322e-23,2.1357131004333496,4.86563919761733,1.1634601268517564e-11,0.3024468719959259,-1.6521862188922327,-0.0,0.012544558383524418,1.4404644966125488,0.0,-0.003045861143618822,0.7100505828857422,0.0002332405128981918,-0.0018129711970686913
224.0,308.0,1.4381,-0.3739,9.2453,-0.0287,0.0119,-0.1261,-1.9166647396483363,0.00010034412116510794,3.588294506072998,-1.5785744190216064,6.140550775249196e-29,2.013296604156494,4.865646990924635,3.2385339120708304e-15,0.29303330183029175,-1.6521623770343226,-0.0,-0.0060556442476809025,1.4405219554901123,0.0,-0.004039085935801268,0.7100305557250977,0.00024323607794940472,0.003372764214873314
224.0,308.0,1.4381,-0.3739,9.2453,-0.0287,0.0119,-0.1261,-1.9166442356505335,9.027835039887577e-05,3.5583362579345703,-1.5785263776779175,1.4828708559110794e-34,2.069910764694214,4.865679281740942,9.014578126451096e-19,0.29296305775642395,-1.6521742979632776,-0.0,0.014239990152418613,1.4405419826507568,0.0,0.009490466676652431,0.7100387215614319,0.0002499872643966228,0.053518518805503845
224.0,308.0,1.4381,-0.3739,9.2453,-0.0287,0.0119,-0.1261,-1.916692396203512,8.204795449273661e-05,3.5052685737609863,-1.5785703659057617,3.580962173643497e-40,2.083253860473633,4.865635099798002,2.509241079069672e-22,0.30008095502853394,-1.6521499792682093,-0.0,0.0022327667102217674,1.4405494928359985,0.0,-0.002876707585528493,0.7100266814231873,0.00022339825227390975,0.009471972472965717
224.0,308.0,1.4381,-0.3739,9.2453,-0.0287,0.0119,-0.1261,-1.9166604481139125,7.519297651015222e-05,3.522592782974243,-1.578582525253296,1.401298464324817e-45,2.0501961708068848,4.865615027933874,6.984564594065523e-26,0.2843950092792511,-1.6521666685687464,-0.0,-0.0013799745356664062,1.4405335187911987,0.0,0.003979859407991171,0.7100184559822083,0.00020191767544019967,-0.015959857031702995
224.0,308.0,1.4381,-0.3739,9.2453,-0.0287,0.0119,-0.1261,-1.9166680775084437,-5.579420394496992e-05,3.5434694290161133,-1.578579306602478,-0.0,2.0866189002990723,4.865711512952604,1.9441791838532432e-29,0.28079697489738464,-1.6521466414081019,-0.0,-0.008260857313871384,1.4405176639556885,0.0,-0.00789906270802021,0.7100469470024109,0.00018420575361233205,0.0004938188940286636
223.0,306.0,1.3735,-0.6197,9.256,-0.0531,0.0145,-0.1185,-1.9166919193663539,-0.00012659287312999368,3.5246315002441406,-1.5785629749298096,-0.0,1.9945793151855469,4.865683305054464,5.411694239883599e-33,0.2963981330394745,-1.6521943251239222,-0.0,0.001099061919376254,1.4405176639556885,0.0,-0.010467899963259697,0.7100024223327637,0.00016935067833401263,0.01886644959449768
223.0,306.0,1.3735,-0.6197,9.256,-0.0531,0.0145,-0.1185,-1.9167610607542933,-0.000757056288421154,3.5680599212646484,-1.5785589218139648,-0.0,2.1369576454162598,4.86565517166213,1.506364908479086e-36,0.30031687021255493,-1.6521580854998987,-0.0,0.007992235012352467,1.4404816627502441,0.0,-0.00467291846871376,0.7099862694740295,0.00015671277651563287,0.00203755428083241
223.0,306.0,1.3735,-0.6197,9.256,-0.0531,0.0145,-0.1185,-1.9167643986144007,-0.000996640883386135,3.557089328765869,-1.5785670280456543,-0.0,2.129878044128418,4.865667018085279,4.193021316891291e-40,0.3027433156967163,-1.6521466414081019,-0.0,-0.0011891352478414774,1.4405055046081543,0.0,-0.002819852437824011,0.7099423408508301,0.0001458301703678444,0.02088879980146885
223.0,306.0,1.3735,-0.6197,9.256,-0.0531,0.0145,-0.1185,-1.9167443714537562,-0.0007494922028854489,3.5672006607055664,-1.578579306602478,-0.0,2.1196374893188477,4.865615013032713,1.1630777253895982e-43,0.30758312344551086,-1.6521466414081019,-0.0,-0.0002932371571660042,1.4405016899108887,0.0,-0.012878604233264923,0.7099907994270325,0.0001363610354019329,-0.021019410341978073
223.0,306.0,1.3735,-0.6197,9.256,-0.0531,0.0145,-0.1185,-1.9167324505248011,-0.0005522790015675128,3.5446019172668457,-1.5785386562347412,-0.0,2.0852890014648438,4.865626874357023,0.0,0.30016714334487915,-1.6521461645709437,-0.0,4.40673902630806e-05,1.4405419826507568,0.0,-0.008763103745877743,0.7100027203559875,0.00012804647849407047,-0.002880717860534787
223.0,306.0,1.3735,-0.6197,9.256,-0.0531,0.0145,-0.1185,-1.9167124233641566,-0.00015413525397889316,3.507081985473633,-1.5785784721374512,-0.0,2.0684080123901367,4.86567114570693,0.0,0.3019751310348511,-1.652154270802633,-0.0,-0.0006592107238247991,1.440537929534912,0.0,0.017432905733585358,0.7100065350532532,0.00011841913510579616,-0.014586536213755608
223.0,306.0,1.3735,-0.6197,9.256,-0.0531,0.0145,-0.1185,-1.916703840295309,-1.0622223811651565e-07,3.508110761642456,-1.5785670280456543,-0.0,2.105281352996826,4.865663292794981,0.0,0.29059693217277527,-1.6521742979632776,-0.0,-0.005053923465311527,1.4405016899108887,0.0,-0.0034180916845798492,0.7100143432617188,0.00011209801596123725,0.007724275812506676
223.0,306.0,1.3735,-0.6197,9.256,-0.0531,0.0145,-0.1185,-1.9167005024352015,-2.5651418380893964e-13,3.528583288192749,-1.578546404838562,-0.0,2.0596556663513184,4.865658837347784,-4.0227714634966105e-05,0.295261025428772,-1.6521223227130335,-0.0,0.004507231526076794,1.440477728843689,0.0,0.003080182010307908,0.7100024223327637,0.00010641747212503105,-0.011086449027061462
223.0,306.0,1.3735,-0.6197,9.256,-0.0531,0.0145,-0.1185,-1.9166723690428675,-6.19451675900775e-19,3.545316696166992,-1.5785307884216309,0.0010987066198140383,2.0909316539764404,4.865667018085279,-3.7649631849490106e-05,0.2999902069568634,-1.652154270802633,-0.0,0.015478563494980335,1.440526008605957,0.0,-0.010222261771559715,0.710030734539032,0.00011575421376619488,-0.00010095536708831787
223.0,306.0,1.3735,-0.6197,9.256,-0.0531,0.0145,-0.1185,-1.9167005024352015,0.0005924019496887922,3.5363128185272217,-1.578554630279541,0.0014257143484428525,2.0788536071777344,4.865691515594282,-1.77185247594025e-05,0.2839488089084625,-1.652154270802633,-0.0,0.009904321283102036,1.4405255317687988,0.0,-0.007258463650941849,0.7100106477737427,9.535524441162124e-05,-0.01982136443257332
223.0,306.0,1.3735,-0.6197,9.256,-0.0531,0.0145,-0.1185,-1.9166604481139125,0.000442794116679579,3.582409381866455,-1.5785235166549683,0.0009713643812574446,2.099175453186035,4.86571945527152,-1.6725707610021345e-05,0.2871471643447876,-1.652170483266012,-0.0,0.0025642807595431805,1.4404935836791992,0.0,0.011941743083298206,0.7100065350532532,0.00010145321721211076,0.014544758014380932
223.0,306.0,1.3735,-0.6197,9.256,-0.0531,0.0145,-0.1185,-1.9166962109007777,0.00034184445394203067,3.5441596508026123,-1.5785109996795654,0.0006913549150340259,2.0458741188049316,4.865655156760969,-1.584243364050053e-05,0.28723084926605225,-1.6521785894977015,-0.0,0.005139668006449938,1.4405174255371094,0.0,0.0071660312823951244,0.7100225687026978,0.00010151888272957876,0.039113931357860565
223.0,306.0,1.3735,-0.6197,9.256,-0.0531,0.0145,-0.1185,-1.9166680775084437,0.00027838684036396444,3.5364885330200195,-1.5785152912139893,0.0005366968107409775,2.0964651107788086,4.865675228625097,-1.5047782653709874e-05,0.2994827330112457,-1.6521785894977015,-0.0,0.004484181292355061,1.440509557723999,0.0,-0.013360803946852684,0.7099944949150085,9.609907283447683e-05,0.009633520618081093
223.0,306.0,1.3735,-0.6197,9.256,-0.0531,0.0145,-0.1185,-1.916720529595846,0.00018784395069815218,3.5439352989196777,-1.5785027742385864,0.0003903192700818181,2.0620336532592773,4.865691515594282,-1.43290453706868e-05,0.2987130582332611,-1.6521785894977015,-0.0,-0.0018462291918694973,1.4404685497283936,0.0,-0.011431134305894375,0.7100667953491211,0.00010643320274539292,0.004668365232646465
223.0,306.0,1.3735,-0.6197,9.256,-0.0531,0.0145,-0.1185,-1.9166962109007777,0.00012181534839328378,3.5886311531066895,-1.5785627365112305,0.0003244684776291251,2.076941967010498,4.865675213723936,-2.7347690775059164e-05,0.29176226258277893,-1.6521785894977015,-0.0,0.011463083326816559,1.440517544746399,0.0,-0.003852211171761155,0.7100144028663635,0.00010129933070857078,0.016114559024572372
225.0,290.0,1.1019,-1.2784,9.3296,-0.0444,0.0168,-0.1048,-1.9167281589903773,0.00010729004861786962,3.522785186767578,-1.5785388946533203,0.0002810416044667363,2.10506010055542,4.865651371866026,-2.615917765069753e-05,0.2968471348285675,-1.6521862188922327,-0.0,0.01054496131837368,1.4404855966567993,0.0,-0.009803395718336105,0.7100346088409424,0.0001104431357816793,0.027557699009776115
225.0,290.0,1.1019,-1.2784,9.3296,-0.0444,0.0168,-0.1048,-1.9166799984373988,9.257484634872526e-05,3.577932357788086,-1.5785307884216309,0.0002384836843702942,2.0526785850524902,4.86568749228076,-3.546980951796286e-05,0.296413779258728,-1.6521785894977015,-0.0,0.012681926600635052,1.4405378103256226,0.0,0.002336687408387661,0.7100266814231873,0.00010405852663097903,0.004310222342610359
225.0,290.0,1.1019,-1.2784,9.3296,-0.0444,0.0168,-0.1048,-1.9166604481139125,8.394043834414333e-05,3.5019078254699707,-1.5785630941390991,0.00021416170056909323,2.088550090789795,4.865634965687551,-3.5615132219390944e-05,0.29614412784576416,-1.6521499792682093,-0.0,0.019407425075769424,1.4405055046081543,0.0,0.004190604668110609,0.7100829482078552,9.973438136512414e-05,0.012488428503274918
225.0,290.0,1.1019,-1.2784,9.3296,-0.0444,0.0168,-0.1048,-1.9166561565794886,0.00010201904660789296,3.5402026176452637,-1.5785388946533203,0.00019434203568380326,2.021056652069092,4.865623178869047,-3.4259839594597e-05,0.30185991525650024,-1.652170483266012,-0.0,-0.005175640806555748,1.4405136108398438,0.0,-0.014072215184569359,0.7099905014038086,9.575527656124905e-05,0.00017870403826236725
225.0,290.0,1.1019,-1.2784,9.3296,-0.0444,0.0168,-0.1048,-1.916664262811178,9.432548540644348e-05,3.5532894134521484,-1.5785069465637207,0.0001778800506144762,2.120059013366699,4.865643235832014,-4.4001506466884166e-05,0.29324427247047424,-1.6521104017840784,-0.0,0.001669176621362567,1.440509557723999,0.0,0.005691841244697571,0.7100708484649658,0.00013236129598226398,0.024786893278360367
225.0,290.0,1.1019,-1.2784,9.3296,-0.0444,0.0168,-0.1048,-1.916640420953268,2.602329186629504e-05,3.5215001106262207,-1.5785388946533203,0.000163989097927697,2.050185203552246,4.865655514388838,-4.283199450583197e-05,0.29631510376930237,-1.6522181669818323,-0.0,-0.004907283000648022,1.440529465675354,0.0,0.004629578907042742,0.7100383043289185,0.00017198885325342417,-0.03501832112669945
225.0,290.0,1.1019,-1.2784,9.3296,-0.0444,0.0168,-0.1048,-1.916652341882223,2.3936223442433402e-05,3.5365896224975586,-1.5785430669784546,0.00015211103891488165,2.1132936477661133,4.86568749228076,-5.8636658650357276e-05,0.2887531518936157,-1.6521905104266565,-0.0,0.01734089106321335,1.4404728412628174,0.0,-0.011201847344636917,0.7101189494132996,0.0010765197221189737,-0.013317115604877472
225.0,290.0,1.1019,-1.2784,9.3296,-0.0444,0.0168,-0.1048,-1.916664262811178,2.2167530914884992e-05,3.5228633880615234,-1.5785069465637207,0.00014183713938109577,2.097034215927124,4.865675616055288,-5.622450771625154e-05,0.28178870677948,-1.6521862188922327,-0.0,-0.008103063330054283,1.4405015707015991,0.0,-0.006511693820357323,0.7101148366928101,0.0036207037046551704,0.03834284842014313
225.0,290.0,1.1019,-1.2784,9.3296,-0.0444,0.0168,-0.1048,-1.9166799984373988,2.064223554043565e-05,3.5085110664367676,-1.5785508155822754,0.00013286333705764264,2.098756790161133,4.865611302643575,-7.025521335890517e-05,0.2843659818172455,-1.652158562337057,-0.0,0.014518005773425102,1.4405537843704224,0.0,-0.0010844576172530651,0.7101547718048096,0.00773394713178277,-0.014342939481139183
225.0,290.0,1.1019,-1.2784,9.3296,-0.0444,0.0168,-0.1048,-1.9166604481139125,1.931335100380238e-05,3.555163621902466,-1.578466773033142,0.00014280535106081516,2.0803563594818115,4.865699592023649,-6.663999374723062e-05,0.27519887685775757,-1.6521623770343226,-2.066163688141387e-06,0.00609956681728363,1.4405016899108887,0.0,-0.013916064985096455,0.7101787328720093,0.01152365654706955,0.014726320281624794
225.0,290.0,1.1019,-1.2784,9.3296,-0.0444,0.0168,-0.1048,-1.9166766605772914,1.8145203284802847e-05,3.566432476043701,-1.5785152912139893,0.00013478843902703375,2.0693130493164062,4.865659612208166,-6.313395715551451e-05,0.29032349586486816,-1.6522181669818323,-5.751243370433201e-10,0.011011019349098206,1.4405258893966675,0.0,0.00196842267177999,0.7102504968643188,0.0133437504991889,-0.017517393454909325
225.0,290.0,1.1019,-1.2784,9.3296,-0.0444,0.0168,-0.1048,-1.9166280231871546,6.1413949879352e-05,3.573061943054199,-1.5784627199172974,0.00010877630847971886,2.0822486877441406,4.865631300001898,-8.464496931992471e-05,0.2910813093185425,-1.6521981398211878,-1.0452599174387827e-14,0.008052382618188858,1.440489649772644,0.0,0.003091083839535713,0.7103502750396729,0.014361554756760597,0.04243278130888939
225.0,290.0,1.1019,-1.2784,9.3296,-0.0444,0.0168,-0.1048,-1.916636129418844,0.00022363499738276005,3.542757272720337,-1.5784624814987183,0.0008143021841533482,2.0839645862579346,4.865651014238157,-7.495566387660801e-05,0.2855975031852722,-1.6522777716266077,-2.909519709920038e-18,0.00864335149526596,1.4404857158660889,0.0,0.0036645764485001564,0.7105146646499634,0.015597476623952389,0.017398614436388016
225.0,290.0,1.1019,-1.2784,9.3296,-0.0444,0.0168,-0.1048,-1.9166280231871546,0.00025540037313476205,3.5035862922668457,-1.5784624814987183,0.0007967980345711112,2.136719226837158,4.865667375713148,-6.663034582743421e-05,0.28317850828170776,-1.6522262732135218,-8.098754529167285e-22,0.008628595620393753,1.4405055046081543,0.0,-0.00458298297598958,0.7105501294136047,0.01723981834948063,0.0483754463493824
222.0,298.0,1.3992,-0.2668,9.4337,-0.0556,0.0171,-0.106,-1.9166485271849574,0.0005658838199451566,3.54728364944458,-1.5784707069396973,0.0007861119229346514,2.031466007232666,4.865659224777975,-5.996971231070347e-05,0.29168185591697693,-1.652245823537008,-2.254318194607803e-25,0.005767259746789932,1.4404816627502441,0.0,0.00030992511892691255,0.710686445236206,0.019116133451461792,0.03867834061384201
222.0,298.0,1.3992,-0.2668,9.4337,-0.0556,0.0171,-0.106,-1.9166318378844203,0.0004959761863574386,3.5468621253967285,-1.5784990787506104,0.0005480225663632154,2.072694778442383,4.865671533137121,-5.451992910820991e-05,0.29234305024147034,-1.6521943251239222,-6.274978277954994e-29,0.005480464082211256,1.4405056238174438,0.0,-0.001385349198244512,0.7108429074287415,0.019759895280003548,0.07068885862827301
222.0,298.0,1.3992,-0.2668,9.4337,-0.0556,0.0171,-0.106,-1.9165994129576625,0.00032455037580803037,3.5480260848999023,-1.5784950256347656,0.00042007805313915014,2.020157814025879,4.865631314903059,-7.453226135112345e-05,0.28545281291007996,-1.652250115071432,-1.7466633824669907e-32,-0.002869072835892439,1.440509557723999,0.0,0.005359902512282133,0.7109264731407166,0.019339192658662796,0.08692006766796112
222.0,298.0,1.3992,-0.2668,9.4337,-0.0556,0.0171,-0.106,-1.9166604481139125,0.0002196358109358698,3.5131757259368896,-1.5785109996795654,0.00034057628363370895,2.089388370513916,4.865615013032713,-6.92024186719209e-05,0.28831717371940613,-1.6522262732135218,-4.8619017452001544e-36,-0.010203676298260689,1.4404816627502441,0.0,-0.009489869698882103,0.7110223770141602,0.01721857860684395,0.04770682379603386
222.0,298.0,1.3992,-0.2668,9.4337,-0.0556,0.0171,-0.106,-1.916668554345602,0.00013766776828560978,3.571465015411377,-1.5785109996795654,0.00024433076032437384,2.090519428253174,4.865611332445898,-8.321732457261533e-05,0.30403411388397217,-1.6522143522845667,-1.3533278139955856e-39,-0.005733706057071686,1.440489649772644,0.0,0.008870871737599373,0.7111225128173828,0.01489398255944252,0.04296133667230606
222.0,298.0,1.3992,-0.2668,9.4337,-0.0556,0.0171,-0.106,-1.9166680775084437,-0.00016664127178955823,3.533356189727783,-1.5785235166549683,0.00020589125051628798,2.0885794162750244,4.8656717715557,-0.00010652227501850575,0.29346907138824463,-1.6522181669818323,-3.769492869033758e-43,0.004586479626595974,1.4405335187911987,0.0,-0.010845163837075233,0.7112023830413818,0.013483276590704918,0.034620046615600586
222.0,298.0,1.3992,-0.2668,9.4337,-0.0556,0.0171,-0.106,-1.9167005024352015,-0.00023160417913459241,3.5252482891082764,-1.5785192251205444,0.0001810400717658922,2.064833879470825,4.865607085614958,-0.00011139149137306958,0.28813785314559937,-1.6521862188922327,-0.0,0.0012268377467989922,1.4405055046081543,0.0,0.003285622224211693,0.7112983465194702,0.011965902522206306,0.09565767645835876
222.0,298.0,1.3992,-0.2668,9.4337,-0.0556,0.0171,-0.106,-1.9167124233641566,-0.0005778336781077087,3.583710193634033,-1.5785192251205444,0.0001615423389011994,2.0778756141662598,4.865619066148557,-0.00011538765102159232,0.293561726808548,-1.6522262732135218,-0.0,-0.003856775350868702,1.440456509590149,0.0,-0.008704370819032192,0.7113946676254272,0.012398495338857174,0.05741261690855026
222.0,298.0,1.3992,-0.2668,9.4337,-0.0556,0.0171,-0.106,-1.9167567692198695,-0.0005346877733245492,3.523016929626465,-1.578527569770813,0.00019443636119831353,2.0901472568511963,4.8656755713518045,-0.0001190264374599792,0.29591017961502075,-1.652182404194967,-0.0,-0.004310230258852243,1.4405856132507324,0.0,0.00203528581187129,0.7114502191543579,0.012653297744691372,0.044384539127349854
222.0,298.0,1.3992,-0.2668,9.4337,-0.0556,0.0171,-0.106,-1.9166838131346644,-0.0005103202420286834,3.55891489982605,-1.578490972518921,0.0001669425400905311,2.063021659851074,4.865603062301435,-0.00011209835793124512,0.2933751344680786,-1.6522100607501429,-0.0,0.00018462142907083035,1.4404568672180176,0.0,-0.016485843807458878,0.7115424871444702,0.012455970980226994,0.028657961636781693
222.0,298.0,1.3992,-0.2668,9.4337,-0.0556,0.0171,-0.106,-1.9167405567564906,-0.0005339428898878396,3.5521626472473145,-1.5784990787506104,0.0009318937081843615,2.0503451824188232,4.865623491793432,-9.444916940992698e-05,0.29062509536743164,-1.652221981679098,-0.0,0.0031890631653368473,1.440521478652954,0.0,-0.008264882490038872,0.7116024494171143,0.011556067503988743,0.030390024185180664
222.0,298.0,1.3992,-0.2668,9.4337,-0.0556,0.0171,-0.106,-1.9167643986144007,-0.0006329095340333879,3.5165205001831055,-1.5784106254577637,0.001813562004826963,2.0506865978240967,4.865635382920065,-0.0001222088176291436,0.3014895021915436,-1.6522024313556116,-2.403726102784276e-05,-0.0025369427166879177,1.440517544746399,0.0,-0.001682615140452981,0.7116743922233582,0.010774236172437668,0.011199443601071835
222.0,298.0,1.3992,-0.2668,9.4337,-0.0556,0.0171,-0.106,-1.9167682133116664,-0.0006749479216523468,3.553677797317505,-1.5784070491790771,0.002676773816347122,2.0854220390319824,4.865627306490698,-0.00010774366091936827,0.29250702261924744,-1.652158562337057,-3.365391239640303e-05,0.0030418005771934986,1.440477728843689,1.3697243339549914e-09,-0.0007655977387912571,0.711722195148468,0.01080426573753357,0.05248870328068733
222.0,298.0,1.3992,-0.2668,9.4337,-0.0556,0.0171,-0.106,-1.916772028008932,-0.0005845979903824627,3.5420165061950684,-1.578423023223877,0.0047989943996071815,2.0727908611297607,4.865555467992582,-0.00012825836893171072,0.2992725372314453,-1.6521905104266565,-3.186937829013914e-05,0.009482860565185547,1.4404857158660889,3.8126777126071265e-13,-0.0012968985829502344,0.7117779850959778,0.011213579215109348,0.041630420833826065
222.0,298.0,1.3992,-0.2668,9.4337,-0.0556,0.0171,-0.106,-1.9167400799193324,-0.00047986675053834915,3.5548534393310547,-1.578391432762146,0.00813479907810688,2.1112470626831055,4.865615370660581,-9.918984869727865e-05,0.28377100825309753,-1.6521666685687464,-3.0261957363109104e-05,0.00490666925907135,1.4404609203338623,1.0612727920799835e-16,-0.010465324856340885,0.7119105458259583,0.011035947129130363,0.0002712355926632881
230.0,304.0,1.1737,-0.9571,9.4355,-0.0457,0.0408,-0.1235,-1.9167481861510218,-0.0004292177618481219,3.542811870574951,-1.5783112049102783,0.008580617606639862,2.108710765838623,4.865623536496916,-0.00012752157635986805,0.28491994738578796,-1.6521905104266565,-2.880895226553548e-05,-0.008568010292947292,1.4404900074005127,2.954092027034728e-20,-0.00996205024421215,0.711958646774292,0.010003630071878433,0.01648922637104988
230.0,304.0,1.1737,-0.9571,9.4355,-0.0457,0.0408,-0.1235,-1.9167639217772425,-0.00035228364868089557,3.5204997062683105,-1.5782716274261475,0.0069314343854784966,2.1223955154418945,4.86559938171462,-0.00011171275400556624,0.2972732186317444,-1.6521862188922327,-2.7489055355545133e-05,0.00809262041002512,1.4404250383377075,8.222823385342388e-24,-0.0224074125289917,0.7120223045349121,0.009687251411378384,0.021917829290032387
230.0,304.0,1.1737,-0.9571,9.4355,-0.0457,0.0408,-0.1235,-1.9167443714537562,-0.0002946144377347082,3.5147619247436523,-1.5781869888305664,0.005609273910522461,2.018282175064087,4.865627559810438,-0.0001324803160969168,0.29555195569992065,-1.6521385351764124,-2.628480979183223e-05,-0.003660724265500903,1.4404525756835938,2.2888531460725388e-27,-0.022036004811525345,0.7120099067687988,0.008350633084774017,-0.03912695124745369
230.0,304.0,1.1737,-0.9571,9.4355,-0.0457,0.0408,-0.1235,-1.9167396030821742,-0.0002531720674596727,3.55440616607666,-1.578167200088501,0.003556029638275504,2.1389973163604736,4.86559938171462,-0.0001193234056700021,0.29335975646972656,-1.6522381941424769,-2.5181652745231986e-05,0.012228501960635185,1.4404900074005127,6.371106971004788e-31,-0.014934602193534374,0.7120538949966431,0.006077675148844719,0.007459334097802639
230.0,304.0,1.1737,-0.9571,9.4355,-0.0457,0.0408,-0.1235,-1.916703840295309,-0.00017765763914212584,3.462739944458008,-1.578147530555725,0.002270340919494629,2.062626361846924,4.865555467992582,-0.00010535392357269302,0.2892807126045227,-1.652170483266012,-2.3847196644055657e-05,-0.005557968281209469,1.4404940605163574,1.157917036857648e-35,-0.024466387927532196,0.7121382355690002,0.0032442323863506317,-0.016355857253074646
230.0,304.0,1.1737,-0.9571,9.4355,-0.0457,0.0408,-0.1235,-1.9167443714537562,-0.0001588435552548617,3.5653278827667236,-1.5782032012939453,0.002622015308588743,2.1105072498321533,4.865607517748632,-0.00012064190377714112,0.2818220555782318,-1.6521623770343226,-2.293560464750044e-05,0.004635864403098822,1.4404048919677734,3.2231041770180825e-39,-0.02882840484380722,0.7120898962020874,0.0013757828855887055,0.02651344984769821
230.0,304.0,1.1737,-0.9571,9.4355,-0.0457,0.0408,-0.1235,-1.9167405567564906,-0.00014363278751261532,3.4940783977508545,-1.5781230926513672,0.0031513336580246687,2.0995781421661377,4.865587460785665,-0.00020938212401233613,0.2895467281341553,-1.6521981398211878,-2.2091164282755926e-05,-0.002940972801297903,1.4405100345611572,8.96831017167883e-43,-0.029043816030025482,0.7120778560638428,0.0008598443819209933,-0.010125280357897282
230.0,304.0,1.1737,-0.9571,9.4355,-0.0457,0.0408,-0.1235,-1.9167119465269984,-0.00013108094572089612,3.5055747032165527,-1.5781198740005493,0.0030787764117121696,2.1059212684631348,4.8655432788427255,-0.00025366758927702904,0.2903652787208557,-1.6522062460528772,-2.13066869036993e-05,0.005547863431274891,1.440425157546997,0.0,-0.04238719120621681,0.7121100425720215,0.0005817059427499771,-0.020491108298301697
230.0,304.0,1.1737,-0.9571,9.4355,-0.0457,0.0408,-0.1235,-1.9167520008482875,-0.0001363955088891089,3.5078749656677246,-1.5781195163726807,0.0024306538980454206,2.099292755126953,4.865535381227293,-0.0006948852678760886,0.27769285440444946,-1.6521347204791468,-2.0576022507157177e-05,0.010548580437898636,1.4404171705245972,0.0,-0.029483992606401443,0.7120819687843323,0.00043958306196145713,-0.017804311588406563
230.0,304.0,1.1737,-0.9571,9.4355,-0.0457,0.0408,-0.1235,-1.916760583917135,-0.00013389541709329933,3.516813278198242,-1.5781282186508179,0.0016465989174321294,2.089736223220825,4.865507545858183,-0.0006811462226323783,0.27720996737480164,-1.6521905104266565,-1.989379416045267e-05,0.0098482146859169,1.4404940605163574,0.0,-0.03969886153936386,0.7120539546012878,0.0003532841510605067,0.026620447635650635
230.0,304.0,1.1737,-0.9571,9.4355,-0.0457,0.0408,-0.1235,-1.9167400799193324,-0.00012462487211450934,3.4890475273132324,-1.5780913829803467,0.0011775264283642173,2.076594829559326,4.865515696793356,-0.0007029343978501856,0.27481594681739807,-1.6521623770343226,-5.537511338360446e-09,0.011689662002027035,1.4404808282852173,0.0,-0.024642689153552055,0.712105929851532,0.00029531397740356624,0.05785740166902542
230.0,304.0,1.1737,-0.9571,9.4355,-0.0457,0.0408,-0.1235,-1.9167200527586878,-0.00011655516573227942,3.494467258453369,-1.5780675411224365,0.0007926916587166488,2.082280158996582,4.865523534804144,-0.000598252285271883,0.27968963980674744,-1.652158562337057,-1.5413864845950642e-12,0.009660284034907818,1.4404489994049072,0.0,-0.042615603655576706,0.7120497822761536,0.00021200260380282998,-0.00766837690025568
230.0,304.0,1.1737,-0.9571,9.4355,-0.0457,0.0408,-0.1235,-1.9167281589903773,-0.00010946695692837238,3.441406726837158,-1.5781078338623047,0.00045995385153219104,2.092799425125122,4.865551772504606,-0.0005328262923285365,0.2744514048099518,-1.6522143522845667,-4.2905064279737495e-16,0.0017583558801561594,1.440433144569397,0.0,-0.0513111837208271,0.7120700478553772,0.0001852907007560134,-0.028438908979296684
230.0,304.0,1.1737,-0.9571,9.4355,-0.0457,0.0408,-0.1235,-1.9167324505248011,-0.00010319132707081735,3.4332504272460938,-1.5780433416366577,0.0004222529532853514,2.093911647796631,4.865523549705305,-0.00043619866482913494,0.27622905373573303,-1.6521905104266565,-1.1942783277722036e-19,0.008588233031332493,1.4404847621917725,0.0,-0.044817280024290085,0.7120416164398193,0.00016491800488438457,-0.022832265123724937
230.0,304.0,1.1737,-0.9571,9.4355,-0.0457,0.0408,-0.1235,-1.916760583917135,-9.586376836523414e-05,3.4859397411346436,-1.5780634880065918,0.0006138834869489074,2.091982364654541,4.865547689586439,-0.000295195757644251,0.28445738554000854,-1.6521981398211878,-2.1705419060304302e-24,0.014654574915766716,1.440453052520752,0.0,-0.06267721205949783,0.7120819687843323,0.000143832279718481,-0.03430705517530441
228.0,303.0,1.0522,-0.8841,9.585,-0.0286,0.0134,-0.1237,-1.916760583917135,-0.00010617763473419473,3.4635324478149414,-1.578083872795105,0.001348352525383234,2.093536853790283,4.865503775864401,-0.0002460214600432664,0.28165075182914734,-1.652182404194967,-6.041782346946213e-28,0.0044239782728254795,1.440425157546997,0.0,-0.04524606093764305,0.7121344208717346,0.00014849683793727309,0.026636609807610512
228.0,303.0,1.0522,-0.8841,9.585,-0.0286,0.0134,-0.1237,-1.9167963467040003,-0.00011549148621270433,3.4600181579589844,-1.578035593032837,0.0015237971674650908,2.059284210205078,4.865551727801122,-0.00025071893469430506,0.27049097418785095,-1.6521785894977015,-1.6817523787030726e-31,0.004956502467393875,1.440445065498352,0.0,-0.05963032692670822,0.7121261954307556,0.00014482454571407288,-0.0055910274386405945
228.0,303.0,1.0522,-0.8841,9.585,-0.0286,0.0134,-0.1237,-1.9167801342406214,-7.980005466379225e-05,3.4243414402008057,-1.5780236721038818,0.001387941651046276,2.0660312175750732,4.865531685739317,-0.0002222871989943087,0.26856324076652527,-1.6521461645709437,-4.681219711298189e-35,-0.0053771366365253925,1.4404529333114624,-0.0001511181762907654,-0.058585308492183685,0.7121546864509583,0.0001340398157481104,-0.03293627128005028
228.0,303.0,1.0522,-0.8841,9.585,-0.0286,0.0134,-0.1237,-1.9167763195433558,-9.086969657801092e-05,3.396636486053467,-1.5780280828475952,0.0012941283639520407,2.031491279602051,4.865495699435034,-0.00023078586673364043,0.28016844391822815,-1.6522100607501429,-1.3030346515915822e-38,0.0018844578880816698,1.440433144569397,-0.00014940398978069425,-0.04734367877244949,0.7121179699897766,0.00012475010589696467,-0.03868573158979416
228.0,303.0,1.0522,-0.8841,9.585,-0.0286,0.0134,-0.1237,-1.9167481861510218,-0.00010089804709423333,3.4438257217407227,-1.5780396461486816,0.0012329533929005265,2.1439948081970215,4.865516054421224,-0.0002560483990237117,0.2596369981765747,-1.6521461645709437,-3.6265604256726266e-42,0.019541148096323013,1.440425157546997,-0.00013587274588644505,-0.05938190966844559,0.7121261954307556,0.0001166646761703305,-0.02270021289587021
228.0,303.0,1.0522,-0.8841,9.585,-0.0286,0.0134,-0.1237,-1.916731973687643,-0.00010986215056618676,3.4298095703125,-1.5780519247055054,0.0010705229360610247,2.0399880409240723,4.865471485048094,-0.00027863733703270555,0.26645627617836,-1.652198616658346,-1.401298464324817e-45,0.011674469336867332,1.4404410123825073,-0.0001245866296812892,-0.06522732973098755,0.712114155292511,0.00010956338519463316,0.005809201393276453
228.0,303.0,1.0522,-0.8841,9.585,-0.0286,0.0134,-0.1237,-1.9167801342406214,-0.0003213144082110375,3.431753396987915,-1.5780079364776611,0.0009058081195689738,2.1102278232574463,4.865471455245771,-0.00032189174089580774,0.2545431852340698,-1.652170483266012,-0.0,0.014644493348896503,1.4404093027114868,-0.00011503182031447068,-0.07036995887756348,0.7120860815048218,0.00010327718337066472,-0.03873775899410248
228.0,303.0,1.0522,-0.8841,9.585,-0.0286,0.0134,-0.1237,-1.916783948937887,-0.0003730505704879761,3.4130682945251465,-1.5780158042907715,0.0007317116251215339,2.075626850128174,4.8654756275709055,-0.0006758436211384833,0.2566490173339844,-1.6521905104266565,-0.0,-0.006238216999918222,1.440381407737732,-0.00012815700029022992,-0.06543855369091034,0.7120737433433533,9.76731171249412e-05,-0.017225246876478195
228.0,303.0,1.0522,-0.8841,9.585,-0.0286,0.0134,-0.1237,-1.9167996845641078,-0.0007570559973828495,3.405089855194092,-1.5779719352722168,0.0006198033224791288,2.0910451412200928,4.865463989764013,-0.000907577050384134,0.26950615644454956,-1.6521785894977015,-0.0,0.009541764855384827,1.440393328666687,-0.00011968103353865445,-0.06835420429706573,0.7121261954307556,9.264597611036152e-05,-0.05706667900085449
228.0,303.0,1.0522,-0.8841,9.585,-0.0286,0.0134,-0.1237,-1.9167877636351527,-0.0012491076486185193,3.3972525596618652,-1.578019618988037,0.0004928138805553317,2.077892541885376,4.865464287787237,-0.001129535143263638,0.2587747573852539,-1.6522143522845667,-0.0,0.01003813836723566,1.4404529333114624,-0.00011221942986594513,-0.06234494969248772,0.7121385335922241,8.811094448901713e-05,-0.0009184405207633972
228.0,303.0,1.0522,-0.8841,9.585,-0.0286,0.0134,-0.1237,-1.9168082676329554,-0.0018186453962698579,3.401965618133545,-1.5779879093170166,0.0003868774510920048,2.067356824874878,4.865455853730001,-0.0019450997933745384,0.2592339515686035,-1.6521785894977015,-0.0,-0.001861706143245101,1.4404728412628174,-0.00012029071513097733,-0.060377150774002075,0.712105929851532,8.271258411696181e-05,-0.07047875225543976
228.0,303.0,1.0522,-0.8841,9.585,-0.0286,0.0134,-0.1237,-1.9168440304198207,-0.0029427255503833294,3.414332628250122,-1.5779919624328613,0.000333165138727054,2.0353715419769287,4.865383299976148,-0.004599212668836117,0.2519097924232483,-1.652170483266012,-0.0,0.01987667754292488,1.4404290914535522,-0.00011429560981923714,-0.07141534984111786,0.7120981216430664,7.907891267677769e-05,-0.03511853516101837
228.0,303.0,1.0522,-0.8841,9.585,-0.0286,0.0134,-0.1237,-1.9168883762755335,-0.003489474765956402,3.369202136993408,-1.5779838562011719,0.00022378424182534218,2.06658673286438,4.865367951780119,-0.01729733683168888,0.24676713347434998,-1.652170483266012,-0.0,0.008846324868500233,1.440361499786377,-0.00010839597234735265,-0.06633798032999039,0.7121341228485107,7.575102790724486e-05,0.02659836784005165
228.0,303.0,1.0522,-0.8841,9.585,-0.0286,0.0134,-0.1237,-1.9169002972044886,-0.00444144057109952,3.387868881225586,-1.577995777130127,0.00027203504578210413,2.095032215118408,4.865260097175398,-0.02299954555928707,0.23917058110237122,-1.652221981679098,-0.0,0.004566991701722145,1.4404808282852173,-0.00010307550837751478,-0.0749669075012207,0.7121542692184448,7.269187335623428e-05,-0.02839462086558342
228.0,295.0,1.0588,-0.8016,9.4816,-0.0441,0.0203,-0.1145,-1.9168878994383753,-0.0036824652925133705,3.36159086227417,-1.5779719352722168,0.0006899607833474874,2.0780601501464844,4.8650759039218805,-0.014165316708385944,0.24384427070617676,-1.6521943251239222,-0.0,0.01559329405426979,1.4403972625732422,-9.825286542763934e-05,-0.05884861201047897,0.7121220827102661,6.98702860972844e-05,-0.039950136095285416
228.0,295.0,1.0588,-0.8016,9.4816,-0.0441,0.0203,-0.1145,-1.9168878994383753,-0.0025226473808288574,3.368830680847168,-1.578023910522461,0.0006658880156464875,2.1225690841674805,4.865129011660375,-0.003942699171602726,0.24425336718559265,-1.6521785894977015,-0.0,-0.007824627682566643,1.4404410123825073,-9.386131569044665e-05,-0.07846550643444061,0.7121341228485107,8.95270422915928e-05,-0.043709054589271545
228.0,295.0,1.0588,-0.8016,9.4816,-0.0441,0.0203,-0.1145,-1.916891714135641,-0.0020244030747562647,3.3668646812438965,-1.5779919624328613,0.0005214896518737078,2.0772042274475098,4.865121665387907,0.0007433756836690009,0.2619679868221283,-1.652170483266012,-0.0,-0.006533137988299131,1.440401315689087,-8.984561281977221e-05,-0.06054290384054184,0.7121664881706238,8.73383178259246e-05,-0.01829851046204567
228.0,295.0,1.0588,-0.8016,9.4816,-0.0441,0.0203,-0.1145,-1.916959901849264,-0.0023083402775228024,3.3390088081359863,-1.5779759883880615,0.00042838850640691817,2.0963146686553955,4.865080731898107,0.0005100067937746644,0.25689470767974854,-1.652233902608053,-0.0,0.01301954872906208,1.4404410123825073,-8.615941624157131e-05,-0.059691108763217926,0.7121540904045105,0.0012677079066634178,-0.073754221200943
228.0,295.0,1.0588,-0.8016,9.4816,-0.0441,0.0203,-0.1145,-1.9170404873290003,-0.002487364923581481,3.3392982482910156,-1.5780079364776611,0.0003634975291788578,2.05047345161438,4.865068870573797,0.00026196293765679,0.24652263522148132,-1.6522100607501429,-0.0,0.014384059235453606,1.4404529333114624,-8.27637777547352e-05,-0.05231822282075882,0.712137758731842,0.00229008961468935,-0.015515533275902271
228.0,295.0,1.0588,-0.8016,9.4816,-0.0441,0.0203,-0.1145,-1.9169799290099085,-0.0021702665835618973,3.3668808937072754,-1.5779842138290405,0.0003156805469188839,2.0554871559143066,4.865072953491964,9.454927203478292e-05,0.25720083713531494,-1.6521862188922327,-0.0,0.016638752073049545,1.440433144569397,-7.962560630403459e-05,-0.058326371014118195,0.7122105360031128,0.0023212360683828592,0.010062044486403465
228.0,295.0,1.0588,-0.8016,9.4816,-0.0441,0.0203,-0.1145,-1.917032381097311,-0.0016604919219389558,3.359309673309326,-1.577911615371704,0.00027898349799215794,2.079352617263794,4.865037190705099,3.601573553169146e-05,0.24631887674331665,-1.6521943251239222,-0.0,0.016092324629426003,1.440464973449707,-7.671679486520588e-05,-0.06367920339107513,0.7121821641921997,0.0017970007611438632,-0.06500528752803802
228.0,295.0,1.0588,-0.8016,9.4816,-0.0441,0.0203,-0.1145,-1.9170204601683558,-0.0009041865123435855,3.315520763397217,-1.5780843496322632,0.0002079374680761248,2.053502321243286,4.865040692477979,6.545682884606663e-10,0.24218226969242096,-1.6522143522845667,-0.0,0.009759357199072838,1.4403409957885742,-7.315356924664229e-05,-0.05393842235207558,0.7122143507003784,0.0011495822109282017,-0.011330962181091309
228.0,295.0,1.0588,-0.8016,9.4816,-0.0441,0.0203,-0.1145,-1.916988035241598,-0.0007979106158018112,3.2994649410247803,-1.577963948249817,0.0002010943426284939,2.0774357318878174,4.86505317965106,1.8220148968132316e-13,0.24207857251167297,-1.6521943251239222,-0.0,0.007745714392513037,1.440393328666687,-7.069110142765567e-05,-0.06250984966754913,0.7121817469596863,0.0008843834511935711,-0.05763150751590729
228.0,295.0,1.0588,-0.8016,9.4816,-0.0441,0.0203,-0.1145,-1.916988035241598,-0.0004999792436137795,3.2839198112487793,-1.5779800415039062,0.0002322281216038391,2.068321704864502,4.865065100580015,-0.0006024388130754232,0.24467286467552185,-1.6521785894977015,-0.0,0.01802918314933777,1.4403973817825317,-1.1598834817050374e-06,-0.06715165078639984,0.7122383117675781,0.0008851457387208939,-0.030833296477794647
228.0,295.0,1.0588,-0.8016,9.4816,-0.0441,0.0203,-0.1145,-1.9170156917967738,-0.0005963112926110625,3.296966075897217,-1.5780001878738403,0.0006429741624742746,2.0873212814331055,4.865041288524427,-0.0017269793897867203,0.23538504540920258,-1.6521666685687464,-0.0,0.015710201114416122,1.440425157546997,-3.2285787932018195e-10,-0.0606890507042408,0.7122782468795776,0.0014746719971299171,-0.018596621230244637
228.0,295.0,1.0588,-0.8016,9.4816,-0.0441,0.0203,-0.1145,-1.9170276127257289,-0.000944126455578953,3.282701015472412,-1.5779919624328613,0.001054738531820476,2.0318408012390137,4.865033793240347,-0.002740275813266635,0.2313692271709442,-1.6521623770343226,-0.0,0.004970984533429146,1.4403893947601318,-8.986867104437621e-14,-0.0534103624522686,0.7122341990470886,0.0025316353421658278,0.02579895779490471
228.0,295.0,1.0588,-0.8016,9.4816,-0.0441,0.0203,-0.1145,-1.917039533654684,-0.0013677722308784723,3.2968573570251465,-1.5779800415039062,0.0009377493988722563,2.0625064373016357,4.865030365973272,-0.0033407814335078,0.22376704216003418,-1.6522062460528772,-0.0,0.030760252848267555,1.4404807090759277,-2.5015275138750992e-17,-0.06595132499933243,0.7122420072555542,0.002717738738283515,-0.030620239675045013
228.0,295.0,1.0588,-0.8016,9.4816,-0.0441,0.0203,-0.1145,-1.9170557461180628,-0.0019629697781056166,3.2722949981689453,-1.577988624572754,0.001010869280435145,2.0527396202087402,4.864932778268614,-0.003528665518388152,0.2272011637687683,-1.6522024313556116,-0.0,0.020694714039564133,1.4403854608535767,-6.963094113165581e-21,-0.08353418111801147,0.7122941613197327,0.0026826118119060993,-0.02068345807492733
228.0,295.0,1.0588,-0.8016,9.4816,-0.0441,0.0203,-0.1145,-1.9171043835081996,-0.0022969746496528387,3.2668676376342773,-1.5779638290405273,0.0008934630313888192,2.066709041595459,4.864957499295034,-0.0035173005890101194,0.2249457836151123,-1.6521499792682093,-0.0,0.02031860686838627,1.4404093027114868,-1.9382032395658907e-24,-0.06144370138645172,0.7123264074325562,0.002693556249141693,-0.034974727779626846
230.0,303.0,1.1713,-0.7095,9.2315,-0.0541,0.0125,-0.1199,-1.917084356347555,-0.0023094131611287594,3.2630038261413574,-1.577944278717041,0.0007963100797496736,2.051098346710205,4.864925223379888,-0.0028735545929521322,0.21859470009803772,-1.652182404194967,-0.0,0.014622660353779793,1.4403893947601318,-5.395059404963354e-28,-0.05688510835170746,0.7123223543167114,0.0030920926947146654,-0.0132837425917387
230.0,303.0,1.1713,-0.7095,9.2315,-0.0541,0.0125,-0.1199,-1.917063375512594,-0.002923276275396347,3.262300968170166,-1.57795250415802,0.0005527540924958885,2.0581231117248535,4.864873337536611,-0.002087939530611038,0.20029762387275696,-1.6521623770343226,-0.0,0.009357472881674767,1.440413236618042,-1.5017348228294458e-31,-0.05885257571935654,0.7123260498046875,0.0030502069275826216,-0.010599637404084206
230.0,303.0,1.1713,-0.7095,9.2315,-0.0541,0.0125,-0.1199,-1.9171520672240199,-0.0041435230523347855,3.268937349319458,-1.5779597759246826,0.00044469645945355296,2.0505542755126953,4.86489366272048,-0.0014323233626782894,0.21117037534713745,-1.6521666685687464,-0.0,0.004024099092930555,1.4404290914535522,-2.7293288837724765e-36,-0.06309649348258972,0.7123500108718872,0.003568961750715971,-0.005853717215359211
230.0,303.0,1.1713,-0.7095,9.2315,-0.0541,0.0125,-0.1199,-1.9171563587584437,-0.0047396644949913025,3.2571182250976562,-1.5779318809509277,0.0004160087846685201,2.0622873306274414,4.8649097857768915,-0.0014189314097166061,0.22237621247768402,-1.6521461645709437,-0.0,0.022616378962993622,1.4404093027114868,-1.6702944805047082e-08,-0.06944778561592102,0.7123537659645081,0.0031816731207072735,-0.004419377073645592
230.0,303.0,1.1713,-0.7095,9.2315,-0.0541,0.0125,-0.1199,-1.9172445736327113,-0.005235209129750729,3.182241916656494,-1.5779157876968384,0.00039681498310528696,2.045668601989746,4.86485335507945,-0.001709244679659605,0.21133074164390564,-1.652182404194967,-0.0,0.0016073137521743774,1.4403973817825317,-4.6493260630331434e-12,-0.07320062816143036,0.7123779058456421,0.003149446565657854,-0.06163506954908371
230.0,303.0,1.1713,-0.7095,9.2315,-0.0541,0.0125,-0.1199,-1.9172684154906214,-0.0059432522393763065,3.2240822315216064,-1.5778998136520386,0.00029268470825627446,2.049957036972046,4.864865603833952,-0.0029789498075842857,0.18488168716430664,-1.6521742979632776,-0.0,0.02051626704633236,1.4404093027114868,-1.2941568643961383e-15,-0.06908821314573288,0.7124100923538208,0.0029660367872565985,-0.05465186387300491
230.0,303.0,1.1713,-0.7095,9.2315,-0.0541,0.0125,-0.1199,-1.9172316990294398,-0.006282451096922159,3.174086093902588,-1.5779080390930176,0.0002938122197519988,2.0232770442962646,4.86487044671134,-0.0047515020705759525,0.19471068680286407,-1.6521342436419886,-0.0,0.03124397248029709,1.4403854608535767,-3.6023335690590464e-19,-0.08220174163579941,0.7124100923538208,0.0026652070228010416,-0.038086384534835815
230.0,303.0,1.1713,-0.7095,9.2315,-0.0541,0.0125,-0.1199,-1.9172960720457972,-0.006533854175359011,3.2038989067077637,-1.577928066253662,0.0003350558108650148,2.0789990425109863,4.864797818451681,-0.006914134602993727,0.19901078939437866,-1.6521499792682093,-0.0,0.01759912446141243,1.4403973817825317,-1.0027228005659834e-22,-0.06458541750907898,0.7124459743499756,0.002563166432082653,-0.008611248806118965
230.0,303.0,1.1713,-0.7095,9.2315,-0.0541,0.0125,-0.1199,-1.9172917805113734,-0.007480925880372524,3.1735410690307617,-1.5778961181640625,0.0005160700529813766,2.0261306762695312,4.864717486291685,-0.008399055339396,0.19433395564556122,-1.6521180311786097,-0.0,0.00036719650961458683,1.4404370784759521,-2.7911159155275005e-26,-0.07790347933769226,0.7124015092849731,0.002267552772536874,-0.012709802947938442
230.0,303.0,1.1713,-0.7095,9.2315,-0.0541,0.0125,-0.1199,-1.9173881016173304,-0.008968825452029705,3.1255288124084473,-1.5779002904891968,0.000999464769847691,2.076843738555908,4.864677625685491,-0.00880830455571413,0.18900799751281738,-1.6521428267108362,-0.0,0.014104535803198814,1.4403774738311768,-7.769173559951882e-30,-0.07716771215200424,0.7124861478805542,0.002105632098391652,-0.031158221885561943
230.0,303.0,1.1713,-0.7095,9.2315,-0.0541,0.0125,-0.1199,-1.9174233875670375,-0.010204817168414593,3.1374473571777344,-1.5779002904891968,0.0015508168144151568,2.066786766052246,4.864650088339605,-0.008317907340824604,0.18702682852745056,-1.652210537587301,-0.0,0.02926449291408062,1.440433144569397,-2.162577712029894e-33,-0.08324575424194336,0.7124539017677307,0.001781258499249816,-0.05243879184126854
230.0,303.0,1.1713,-0.7095,9.2315,-0.0541,0.0125,-0.1199,-1.9175039730467738,-0.010205507278442383,3.1034913063049316,-1.5778924226760864,0.002657733391970396,2.0065386295318604,4.864643233805456,-0.00704584876075387,0.19192549586296082,-1.6521742979632776,-0.0,0.009515304118394852,1.440425157546997,-6.01961543459297e-37,-0.07010303437709808,0.7125222682952881,0.001994231017306447,-0.023706045001745224
230.0,303.0,1.1713,-0.7095,9.2315,-0.0541,0.0125,-0.1199,-1.9175640545287074,-0.01013715099543333,3.1138603687286377,-1.5778400897979736,0.006986576598137617,2.0975446701049805,4.864578309446134,-0.006032882258296013,0.18597489595413208,-1.6521785894977015,-0.0,0.018064968287944794,1.440433144569397,-1.6755886257317568e-40,-0.07364256680011749,0.712498128414154,0.001835723058320582,-0.03334183990955353
230.0,303.0,1.1713,-0.7095,9.2315,-0.0541,0.0125,-0.1199,-1.9176718197264613,-0.012235332280397415,3.102323532104492,-1.577691674232483,0.013646047562360764,2.0440869331359863,4.864554974227705,-0.006307987961918116,0.174783855676651,-1.652170483266012,-0.0,0.022726595401763916,1.4404094219207764,-2.802596928649634e-45,-0.07074720412492752,0.7124978303909302,0.0018322402611374855,0.017470892518758774
230.0,303.0,1.1713,-0.7095,9.2315,-0.0541,0.0125,-0.1199,-1.9177757702269496,-0.015276088379323483,3.0804314613342285,-1.5776361227035522,0.014916847459971905,2.0980403423309326,4.864510762482443,-0.006482228171080351,0.1865743100643158,-1.652182404194967,-0.0,0.010213211178779602,1.4404093027114868,-0.0,-0.07799945026636124,0.7124857902526855,0.0021225197706371546,-0.012275942601263523
226.0,303.0,0.1579,0.661,10.1516,-0.1249,-0.0452,-0.1278,-1.9178554020323695,-0.017845824360847473,3.088132381439209,-1.5775562524795532,0.016196133568882942,2.065786838531494,4.86448352315978,-0.007018127478659153,0.18415585160255432,-1.6521862188922327,-0.0,0.014452029019594193,1.4403854608535767,-0.0,-0.07577119022607803,0.7125057578086853,0.0018848469480872154,-0.039950404316186905
226.0,303.0,0.1579,0.661,10.1516,-0.1249,-0.0452,-0.1278,-1.9179312191405238,-0.020739562809467316,3.138906955718994,-1.5774407386779785,0.019480880349874496,2.0916662216186523,4.864427077561178,-0.00778465811163187,0.1767481416463852,-1.652182404194967,-0.0,0.026273809373378754,1.440433144569397,-0.0,-0.06688819080591202,0.7125300168991089,0.0017320051556453109,0.036271773278713226
226.0,303.0,0.1579,0.661,10.1516,-0.1249,-0.0452,-0.1278,-1.9180876217284144,-0.021865438669919968,3.069105625152588,-1.5773165225982666,0.02177553065121174,2.0787887573242188,4.864379155426779,-0.008978096768260002,0.18829455971717834,-1.652170483266012,-0.0,0.005235263146460056,1.440364956855774,-9.77474483079277e-05,-0.06107927858829498,0.712537944316864,0.0014447667635977268,-0.0168601181358099
226.0,303.0,0.1579,0.661,10.1516,-0.1249,-0.0452,-0.1278,-1.918255468408102,-0.022666674107313156,3.0949923992156982,-1.5772252082824707,0.025411605834960938,2.084878921508789,4.864294606238165,-0.012915060855448246,0.17621231079101562,-1.652182404194967,-0.0,0.0158056803047657,1.440421223640442,-9.23310435609892e-05,-0.07788638025522232,0.7125701308250427,0.0015144622884690762,-0.025670558214187622
226.0,303.0,0.1579,0.661,10.1516,-0.1249,-0.0452,-0.1278,-1.918358942071432,-0.025901667773723602,3.093261241912842,-1.5769611597061157,0.03148500993847847,2.099125385284424,4.864194902568617,-0.020023947581648827,0.17347726225852966,-1.6521309057818812,-0.0,0.010371624492108822,1.440401315689087,-0.00010422091872896999,-0.0676087811589241,0.7125577926635742,0.002194289118051529,-0.0478050597012043
226.0,303.0,0.1579,0.661,10.1516,-0.1249,-0.0452,-0.1278,-1.9185191593565882,-0.028658654540777206,3.080453395843506,-1.5767937898635864,0.03673220053315163,2.138725757598877,4.864035236626425,-0.03153759986162186,0.18055197596549988,-1.6521619001971644,-0.0,0.0032085247803479433,1.440364956855774,-0.00011453899060143158,-0.07446441799402237,0.712622344493866,0.002598106861114502,-0.05767405778169632
226.0,303.0,0.1579,0.661,10.1516,-0.1249,-0.0452,-0.1278,-1.918711324731344,-0.03384038805961609,3.060528039932251,-1.5766024589538574,0.04453420639038086,2.1296937465667725,4.86380315104083,-0.053691666573286057,0.158172145485878,-1.652182404194967,-0.0,0.021943675354123116,1.4404252767562866,-0.00011678773444145918,-0.08423944562673569,0.712614119052887,0.0026449821889400482,-0.06269197165966034
226.0,303.0,0.1579,0.661,10.1516,-0.1249,-0.0452,-0.1278,-1.9188982448973597,-0.03810282051563263,3.0779361724853516,-1.576202154159546,0.054756514728069305,2.1113834381103516,4.863364341645994,-0.08939114212989807,0.12424944341182709,-1.6521580854998987,-0.0,0.0008549881167709827,1.4403935670852661,-0.00019256104133091867,-0.08127007633447647,0.7125940918922424,0.00207337224856019,-0.042259715497493744
226.0,303.0,0.1579,0.661,10.1516,-0.1249,-0.0452,-0.1278,-1.9192711315550746,-0.04295135289430618,3.070370674133301,-1.5757395029067993,0.06906720995903015,2.1272292137145996,4.862426656275549,-0.13768339157104492,0.13104693591594696,-1.6522062460528772,-0.0,0.009528787806630135,1.4403611421585083,-0.0003035628469660878,-0.0779900997877121,0.7126743197441101,0.0011093395296484232,-0.06009898707270622
226.0,303.0,0.1579,0.661,10.1516,-0.1249,-0.0452,-0.1278,-1.919518610040182,-0.046261977404356,3.0967726707458496,-1.5752443075180054,0.0810592919588089,2.194917678833008,4.861476766854086,-0.153042271733284,0.11266244202852249,-1.652170483266012,-0.0,0.001628931611776352,1.4404133558273315,-0.0005924901342950761,-0.0797269344329834,0.7126421332359314,0.0008471335750073195,-0.019660618156194687
226.0,303.0,0.1579,0.661,10.1516,-0.1249,-0.0452,-0.1278,-1.919859071771139,-0.050509944558143616,3.0259180068969727,-1.5746886730194092,0.09361239522695541,2.1900811195373535,4.860486495285787,-0.1603756844997406,0.11855572462081909,-1.6521499792682093,-0.0,0.0002040707040578127,1.440321445465088,-0.000672586786095053,-0.08211712539196014,0.7126462459564209,0.0006259837537072599,-0.0036919559352099895
226.0,303.0,0.1579,0.661,10.1516,-0.1249,-0.0452,-0.1278,-1.9201380215086878,-0.055239979177713394,3.026834011077881,-1.5741699934005737,0.1032523363828659,2.1580729484558105,4.859478252917089,-0.18641534447669983,0.09586875885725021,-1.652170483266012,-0.0,-0.01306516770273447,1.4403412342071533,-0.0007685816963203251,-0.088724784553051,0.7126421332359314,0.000482192583149299,0.01981685683131218
226.0,303.0,0.1579,0.661,10.1516,-0.1249,-0.0452,-0.1278,-1.9204617939391078,-0.05854179337620735,3.095428466796875,-1.5734869241714478,0.1105751171708107,2.1970815658569336,4.858253720193662,-0.2127637267112732,0.09527546912431717,-1.6521785894977015,-0.0,0.0041074506007134914,1.4403729438781738,-0.0007371946121565998,-0.08387294411659241,0.712589681148529,0.0003921330498997122,-0.04346999526023865
226.0,303.0,0.1579,0.661,10.1516,-0.1249,-0.0452,-0.1278,-1.9208299122252406,-0.061237119138240814,3.0251173973083496,-1.5727680921554565,0.11508112400770187,2.205271005630493,4.8569689122732065,-0.21474266052246094,0.08434233069419861,-1.6521385351764124,-0.0,-0.0014577754773199558,1.4403769969940186,-0.0008501383708789945,-0.09492094069719315,0.7126140594482422,0.0003775486839003861,-0.0393865741789341
226.0,303.0,0.1579,0.661,10.1516,-0.1249,-0.0452,-0.1278,-1.921173711816305,-0.059441737830638885,3.006096363067627,-1.5720572471618652,0.11592734605073929,2.163827896118164,4.855632605939665,-0.2462485432624817,0.07909220457077026,-1.6521580854998987,-0.0,-0.0033233172725886106,1.4403855800628662,-0.0008643685723654926,-0.08893635869026184,0.7126462459564209,0.0003262842365074903,-0.05301910638809204
226.0,326.0,1.1862,-0.7537,9.9182,-0.1929,-0.1845,-0.1084,-1.9215694866576136,-0.060065023601055145,3.0681653022766113,-1.5713876485824585,0.12320946156978607,2.1846513748168945,4.854125711112776,-0.2525918483734131,0.06521908938884735,-1.6521623770343226,-0.0,-0.0017398810014128685,1.4403650760650635,-0.0008342981454916298,-0.10162701457738876,0.7126218676567078,0.0002872321056202054,-0.026151280850172043
