ramyac6/ROB537/final_project/csv/good/good_85.csv
tof_0,tof_1,accelx,accely,accelz,gyrox,gyroy,gyroz,shoulder_lift_joint_position,shoulder_lift_joint_velocity,shoulder_lift_joint_effort,elbow_joint_position,elbow_joint_velocity,elbow_joint_effort,wrist_1_joint_position,wrist_1_joint_velocity,wrist_1_joint_effort,wrist_2_joint_position,wrist_2_joint_velocity,wrist_2_joint_effort,wrist_3_joint_position,wrist_3_joint_velocity,wrist_3_joint_effort,shoulder_pan_joint_position,shoulder_pan_joint_velocity,shoulder_pan_joint_effort
148.0,266.0,0.5743,0.1412,9.551,-0.0394,0.0241,-0.1145,-2.008165021935934,0.0,3.887718439102173,-1.5057727098464966,-0.0,2.013761043548584,4.980660337000646,-0.0,0.2815573215484619,-1.6657450834857386,-0.0,-0.0018174811266362667,1.371518850326538,0.0,0.00488234031945467,0.8204713463783264,0.0,-0.03166068717837334
148.0,266.0,0.5743,0.1412,9.551,-0.0394,0.0241,-0.1145,-2.008165021935934,0.0,3.9218688011169434,-1.505684494972229,-0.0,2.0548839569091797,4.98070045092658,-0.0,0.27764081954956055,-1.66569692293276,-0.0,0.004259177483618259,1.3715307712554932,0.0,-0.0046890187077224255,0.8204188942909241,0.0,0.025264129042625427
148.0,266.0,0.5743,0.1412,9.551,-0.0394,0.0241,-0.1145,-2.0081407032408656,0.0,3.918496608734131,-1.5057966709136963,-0.0,2.045266628265381,4.980720656901159,-0.0,0.27779683470726013,-1.6657293478595179,-0.0,0.0001403697533532977,1.3715548515319824,0.0,-0.004638887941837311,0.8204593062400818,0.0,0.044226039201021194
148.0,266.0,0.5743,0.1412,9.551,-0.0394,0.0241,-0.1145,-2.0081407032408656,0.0,3.9158225059509277,-1.5057203769683838,-0.0,2.001004695892334,4.9806759832199,-0.0,0.28687915205955505,-1.665673557912008,-0.0,0.00104857562109828,1.3714947700500488,0.0,0.005991555284708738,0.8204832673072815,0.0,0.0060653104446828365
148.0,266.0,0.5743,0.1412,9.551,-0.0394,0.0241,-0.1145,-2.008108755151266,0.0,3.8788838386535645,-1.505716323852539,-0.0,2.0613222122192383,4.9806963978107355,-0.0,0.27894121408462524,-1.6657050291644495,-0.0,-0.004820134490728378,1.371506929397583,0.0,-0.004505211021751165,0.8204551935195923,0.0,0.0076292227022349834
148.0,266.0,0.5743,0.1412,9.551,-0.0394,0.0241,-0.1145,-2.00816073040151,0.0,3.902904987335205,-1.5057727098464966,-0.0,2.0485291481018066,4.980708735972204,-0.0,0.2785244584083557,-1.6657493750201624,-0.0,-0.0020292410627007484,1.371478796005249,0.0,0.00959658995270729,0.8204914331436157,0.0,0.007440153509378433
148.0,266.0,0.5743,0.1412,9.551,-0.0394,0.0241,-0.1145,-2.008165021935934,0.0,3.8399531841278076,-1.505772590637207,-0.0,2.083552598953247,4.980684149056234,-0.0,0.2894937992095947,-1.6657493750201624,-0.0,0.015020003542304039,1.371546745300293,0.0,0.0067403498105704784,0.8204914927482605,0.0,0.03239991515874863
148.0,266.0,0.5743,0.1412,9.551,-0.0394,0.0241,-0.1145,-2.008141180078024,0.0,3.915759563446045,-1.5057166814804077,-0.0,2.0733413696289062,4.980688351183691,-0.0,0.2921629250049591,-1.66569692293276,-0.0,-0.009690799750387669,1.3715226650238037,0.0,-0.0009089164086617529,0.8204713463783264,0.0,-0.012138783000409603
148.0,266.0,0.5743,0.1412,9.551,-0.0394,0.0241,-0.1145,-2.0081449947752894,0.0,3.902832508087158,-1.5057568550109863,-0.0,2.0439584255218506,4.980684149056234,-0.0,0.280453622341156,-1.6657293478595179,-0.0,-0.0004712896188721061,1.3715673685073853,0.0,0.000456514535471797,0.8204510807991028,0.0,-0.024901200085878372
148.0,266.0,0.5743,0.1412,9.551,-0.0394,0.0241,-0.1145,-2.0081449947752894,0.0,3.893958568572998,-1.5057487487792969,-0.0,2.0715250968933105,4.980700480728903,-0.0,0.29464977979660034,-1.6657136122332972,-0.0,0.010593695566058159,1.371546745300293,0.0,-0.006069652270525694,0.8204754590988159,0.0,-0.013589991256594658
148.0,266.0,0.5743,0.1412,9.551,-0.0394,0.0241,-0.1145,-2.0081244907774867,0.0,3.9037859439849854,-1.5058006048202515,-0.0,2.0392935276031494,4.980688291579046,-0.0,0.29095619916915894,-1.6657136122332972,-0.0,0.006114139687269926,1.371442437171936,0.0,-0.00906728021800518,0.820511519908905,0.0,0.021486368030309677
155.0,264.0,0.6078,0.1394,9.4271,-0.0318,0.029,-0.1202,-2.0081407032408656,0.0,3.8951334953308105,-1.5057244300842285,-0.0,2.0742390155792236,4.980684149056234,-0.0,0.2767265737056732,-1.665741268788473,-0.0,0.0038092259783297777,1.3715429306030273,0.0,0.0014763923827558756,0.820487380027771,0.0,-0.029366806149482727
155.0,264.0,0.6078,0.1394,9.4271,-0.0318,0.029,-0.1202,-2.0081287823119105,0.0,3.890746593475342,-1.505732774734497,-0.0,2.068655490875244,4.98070045092658,-0.0,0.2778281271457672,-1.6657136122332972,-0.0,0.00943498220294714,1.3715147972106934,0.0,-0.013476203195750713,0.8204672336578369,0.0,-0.027774885296821594
155.0,264.0,0.6078,0.1394,9.4271,-0.0318,0.029,-0.1202,-2.008148809472555,0.0,3.8678789138793945,-1.5057244300842285,-0.0,2.0719614028930664,4.9806841788585565,-0.0,0.2734416723251343,-1.665753189717428,-0.0,0.003009229665622115,1.371518850326538,0.0,0.01627195253968239,0.8204997777938843,0.0,0.0027581662870943546
155.0,264.0,0.6078,0.1394,9.4271,-0.0318,0.029,-0.1202,-2.0081244907774867,0.0,3.902620792388916,-1.5057368278503418,-0.0,2.0469441413879395,4.980736720352926,-0.0,0.28317248821258545,-1.6657331625567835,-0.0,-0.0008232648251578212,1.3715426921844482,0.0,0.002952959854155779,0.820487380027771,0.0,0.004862376023083925
155.0,264.0,0.6078,0.1394,9.4271,-0.0318,0.029,-0.1202,-2.008120676080221,0.0,3.8530290126800537,-1.5057083368301392,-0.0,2.0590224266052246,4.980736690550604,-0.0,0.2778838276863098,-1.6657455603228968,-0.0,0.002392454771324992,1.3714706897735596,0.0,0.011171765625476837,0.8205037117004395,0.0,0.0026844895910471678
155.0,264.0,0.6078,0.1394,9.4271,-0.0318,0.029,-0.1202,-2.0081449947752894,0.0,3.9089882373809814,-1.505732536315918,-0.0,2.0853641033172607,4.980696368008413,-0.0,0.29291412234306335,-1.665753189717428,-0.0,-0.006178570911288261,1.3715147972106934,0.0,0.005440383683890104,0.8204188942909241,0.0,0.00789940357208252
155.0,264.0,0.6078,0.1394,9.4271,-0.0318,0.029,-0.1202,-2.0081693134703578,0.0,3.8983662128448486,-1.505732774734497,-0.0,2.01275372505188,4.980736660748281,-0.0,0.2909909188747406,-1.6657450834857386,-0.0,-0.0046018389984965324,1.3715307712554932,0.0,-0.008861360140144825,0.820479154586792,0.0,0.0034023523330688477
155.0,264.0,0.6078,0.1394,9.4271,-0.0318,0.029,-0.1202,-2.008120676080221,0.0,3.8825085163116455,-1.505732774734497,-0.0,2.074758529663086,4.980700510531225,-0.0,0.2864147126674652,-1.665741268788473,-0.0,0.004540181718766689,1.3715226650238037,0.0,-0.005863296799361706,0.8204431533813477,0.0,0.0035086125135421753
155.0,264.0,0.6078,0.1394,9.4271,-0.0318,0.029,-0.1202,-2.0081569157042445,0.0,3.8777081966400146,-1.5057727098464966,-0.0,2.0274295806884766,4.98070045092658,-0.0,0.28362277150154114,-1.6657293478595179,-0.0,0.0014512271154671907,1.3714665174484253,0.0,-0.00870390422642231,0.8204390406608582,0.0,-0.01089619379490614
155.0,264.0,0.6078,0.1394,9.4271,-0.0318,0.029,-0.1202,-2.008165021935934,0.0,3.8952293395996094,-1.505716323852539,-0.0,2.0610451698303223,4.980716484576025,-0.0,0.2927667498588562,-1.6657331625567835,-0.0,0.004816141910851002,1.3715107440948486,0.0,-0.002774728462100029,0.8204431533813477,0.0,-0.05424973741173744
155.0,264.0,0.6078,0.1394,9.4271,-0.0318,0.029,-0.1202,-2.008181234399313,0.0,3.906970977783203,-1.5057083368301392,-0.0,2.0588431358337402,4.980720656901159,-0.0,0.2760675847530365,-1.6657088438617151,-0.0,0.0005468593444675207,1.3715269565582275,0.0,-0.008048312738537788,0.8204631805419922,0.0,-0.018665026873350143
155.0,264.0,0.6078,0.1394,9.4271,-0.0318,0.029,-0.1202,-2.008120676080221,0.0,3.8456990718841553,-1.505732774734497,-0.0,2.0362701416015625,4.980700480728903,-0.0,0.2804386615753174,-1.6657050291644495,-0.0,-0.002800083253532648,1.3715147972106934,0.0,0.005967504344880581,0.8204551935195923,0.0,-0.02000136859714985
155.0,264.0,0.6078,0.1394,9.4271,-0.0318,0.029,-0.1202,-2.0081364117064417,0.0,3.8807871341705322,-1.5057367086410522,-0.0,2.018795967102051,4.980724262982168,-0.0,0.28602689504623413,-1.6657293478595179,-0.0,0.020394790917634964,1.3715267181396484,0.0,0.006611872464418411,0.8205037117004395,0.0,-0.019539155066013336
155.0,264.0,0.6078,0.1394,9.4271,-0.0318,0.029,-0.1202,-2.0081526241698207,0.0,3.8973169326782227,-1.5057287216186523,-0.0,2.0533499717712402,4.980712371855535,-0.0,0.28202396631240845,-1.6656692663775843,-0.0,-0.0030137572903186083,1.371546745300293,0.0,0.012411677278578281,0.8204995393753052,0.0,0.03066987730562687
155.0,264.0,0.6078,0.1394,9.4271,-0.0318,0.029,-0.1202,-2.008120676080221,0.0,3.90578556060791,-1.5057207345962524,-0.0,2.1022281646728516,4.980720627098837,-0.0,0.2739514410495758,-1.6657136122332972,-0.0,-0.00406856881454587,1.3715548515319824,0.0,-0.002837968058884144,0.8204795718193054,0.0,0.0015257117338478565
155.0,264.0,0.6078,0.1394,9.4271,-0.0318,0.029,-0.1202,-2.0080963573851527,0.0,3.8405861854553223,-1.505732774734497,-0.0,2.0579652786254883,4.9807283757026575,-0.0,0.2861703336238861,-1.6657136122332972,-0.0,0.00946460198611021,1.3715147972106934,0.0,0.0003500526072457433,0.8204717040061951,0.0,-0.007645887788385153
155.0,264.0,0.6078,0.1394,9.4271,-0.0318,0.029,-0.1202,-2.008080144921774,0.0,3.8990509510040283,-1.50567626953125,-0.0,2.093518018722534,4.9807083187396906,-0.0,0.28325513005256653,-1.6657174269305628,-0.0,-0.0003195736790075898,1.371518611907959,0.0,0.0014830761356279254,0.8204510807991028,0.0,-0.004034775774925947
155.0,264.0,0.6078,0.1394,9.4271,-0.0318,0.029,-0.1202,-2.0081287823119105,0.0,3.9194910526275635,-1.5057727098464966,-0.0,2.065078020095825,4.980668175011434,-0.0,0.2846267521381378,-1.6657293478595179,-0.0,0.0072059896774590015,1.3715107440948486,0.0,-0.0005650222301483154,0.8204672336578369,0.0,0.009232381358742714
155.0,264.0,0.6078,0.1394,9.4271,-0.0318,0.029,-0.1202,-2.0081006489195765,0.0,3.87320613861084,-1.5057244300842285,-0.0,2.03995418548584,4.980680066138067,-0.0,0.28079894185066223,-1.6656773726092737,-0.0,0.012748460285365582,1.371518611907959,0.0,-0.0027981605380773544,0.8204147815704346,0.0,0.030103176832199097
155.0,264.0,0.6078,0.1394,9.4271,-0.0318,0.029,-0.1202,-2.0081006489195765,0.0,3.851194143295288,-1.5057846307754517,-0.0,2.0430779457092285,4.980700480728903,-0.0,0.2875507175922394,-1.6657136122332972,-0.0,0.007193278521299362,1.3714709281921387,0.0,0.00015150499530136585,0.8204308152198792,0.0,0.02729572169482708
154.0,258.0,0.5904,0.1669,9.4331,-0.0322,0.0214,-0.1216,-2.0081244907774867,0.0,3.889089584350586,-1.505780577659607,-0.0,2.040020704269409,4.980696368008413,-0.0,0.2831249237060547,-1.6657093206988733,-0.0,0.00923901330679655,1.3715107440948486,0.0,-0.006099223159253597,0.8204713463783264,0.0,0.03208320587873459
154.0,258.0,0.5904,0.1669,9.4331,-0.0322,0.0214,-0.1216,-2.008120676080221,0.0,3.89329195022583,-1.5057487487792969,-0.0,2.062553882598877,4.980716484576025,-0.0,0.28609055280685425,-1.6656854788409632,-0.0,0.01025847066193819,1.3715304136276245,0.0,-0.007814965210855007,0.8204510807991028,0.0,-0.047553855925798416
154.0,258.0,0.5904,0.1669,9.4331,-0.0322,0.0214,-0.1216,-2.008104463616842,0.0,3.9443845748901367,-1.5057607889175415,-0.0,2.068117618560791,4.980756687908926,-0.0,0.28679612278938293,-1.6657174269305628,-0.0,0.005591103807091713,1.3714509010314941,0.0,0.0011260148603469133,0.8204431533813477,0.0,0.003110151272267103
154.0,258.0,0.5904,0.1669,9.4331,-0.0322,0.0214,-0.1216,-2.0081407032408656,0.0,3.902057647705078,-1.505780577659607,-0.0,2.0452325344085693,4.980736720352926,-0.0,0.27796587347984314,-1.665689770375387,-0.0,0.007104489486664534,1.371506690979004,0.0,-0.003432429861277342,0.8204551935195923,0.0,0.011965865269303322
154.0,258.0,0.5904,0.1669,9.4331,-0.0322,0.0214,-0.1216,-2.0081693134703578,0.0,3.888279438018799,-1.5057487487792969,-0.0,2.0887017250061035,4.980716484576025,-0.0,0.27856382727622986,-1.665741268788473,-0.0,-0.0019129423890262842,1.3714866638183594,0.0,0.008703622967004776,0.8204469680786133,0.0,0.033981937915086746
154.0,258.0,0.5904,0.1669,9.4331,-0.0322,0.0214,-0.1216,-2.008148809472555,0.0,3.8578195571899414,-1.5057969093322754,-0.0,2.0921990871429443,4.980720627098837,-0.0,0.28061556816101074,-1.6657374540912073,-0.0,-0.004565961193293333,1.371506929397583,0.0,-0.004189260303974152,0.8204631209373474,0.0,0.007192004006356001
154.0,258.0,0.5904,0.1669,9.4331,-0.0322,0.0214,-0.1216,-2.0081168613829554,0.0,3.935863494873047,-1.505732774734497,-0.0,2.0435616970062256,4.980716484576025,-0.0,0.2860151529312134,-1.6657255331622522,-0.0,0.0017201825976371765,1.3714988231658936,0.0,-0.0016554472967982292,0.8204713463783264,0.0,-0.028041843324899673
154.0,258.0,0.5904,0.1669,9.4331,-0.0322,0.0214,-0.1216,-2.0081244907774867,0.0,3.8947367668151855,-1.5057446956634521,-0.0,2.0576417446136475,4.980688321381368,-0.0,0.27765384316444397,-1.6657493750201624,-0.0,0.010643517598509789,1.3715267181396484,0.0,-0.00011325511150062084,0.8204955458641052,0.0,-0.0067941793240606785
154.0,258.0,0.5904,0.1669,9.4331,-0.0322,0.0214,-0.1216,-2.0081330738463343,0.0,3.913337469100952,-1.5057488679885864,-0.0,2.0867090225219727,4.980708706169882,-0.0,0.2854553461074829,-1.6657174269305628,-0.0,0.0069481679238379,1.3715307712554932,0.0,0.002736238529905677,0.8204469680786133,0.0,0.013739055953919888
154.0,258.0,0.5904,0.1669,9.4331,-0.0322,0.0214,-0.1216,-2.0081569157042445,0.0,3.8973264694213867,-1.5057568550109863,-0.0,2.044825792312622,4.9806963978107355,-0.0,0.2871223986148834,-1.66569692293276,-0.0,-0.0031616506166756153,1.3714587688446045,0.0,0.003325922880321741,0.8204914927482605,0.0,0.019089920446276665
154.0,258.0,0.5904,0.1669,9.4331,-0.0322,0.0214,-0.1216,-2.0081569157042445,0.0,3.8756258487701416,-1.5057528018951416,-0.0,2.0370049476623535,4.9807083187396906,-0.0,0.3004167079925537,-1.665741268788473,-0.0,0.008267060853540897,1.3715226650238037,0.0,-0.004365704953670502,0.8204510807991028,0.0,-0.003537554293870926
154.0,258.0,0.5904,0.1669,9.4331,-0.0322,0.0214,-0.1216,-2.0081287823119105,0.0,3.88310170173645,-1.5057487487792969,-0.0,2.102876663208008,4.9806759534175775,-0.0,0.2893105745315552,-1.6657255331622522,-0.0,0.007420390844345093,1.3714988231658936,0.0,-0.009847334586083889,0.8204510807991028,0.0,0.025263985618948936
154.0,258.0,0.5904,0.1669,9.4331,-0.0322,0.0214,-0.1216,-2.0081449947752894,0.0,3.870206832885742,-1.505808711051941,-0.0,2.056877613067627,4.980684089451589,-0.0,0.28921186923980713,-1.66569692293276,-0.0,0.0025042658671736717,1.371506690979004,0.0,-0.011970145627856255,0.8204832673072815,0.0,-0.014668487012386322
154.0,258.0,0.5904,0.1669,9.4331,-0.0322,0.0214,-0.1216,-2.0081168613829554,0.0,3.9279956817626953,-1.5057487487792969,-0.0,2.0440592765808105,4.980692255287924,-0.0,0.2822081446647644,-1.6657093206988733,-0.0,0.0030550751835107803,1.371478796005249,0.0,0.008601066656410694,0.8204631805419922,0.0,0.017842845991253853
154.0,258.0,0.5904,0.1669,9.4331,-0.0322,0.0214,-0.1216,-2.0081287823119105,0.0,3.8859920501708984,-1.5057122707366943,-0.0,2.08162522315979,4.9806963978107355,-0.0,0.2929646074771881,-1.6657331625567835,-0.0,0.007906461134552956,1.3715633153915405,0.0,-0.007931425236165524,0.8204995393753052,0.0,-0.01298493891954422
154.0,258.0,0.5904,0.1669,9.4331,-0.0322,0.0214,-0.1216,-2.008181234399313,0.0,3.887289524078369,-1.5057487487792969,-0.0,2.049530506134033,4.9807206867034814,-0.0,0.29411739110946655,-1.6657174269305628,-0.0,0.0009749156888574362,1.3715304136276245,0.0,-0.01285228505730629,0.8204631805419922,0.0,0.004551672376692295
154.0,258.0,0.5904,0.1669,9.4331,-0.0322,0.0214,-0.1216,-2.0081006489195765,0.0,3.9248900413513184,-1.5057568550109863,-0.0,2.0355117321014404,4.980724710017004,-0.0,0.28518325090408325,-1.6657174269305628,-0.0,0.01795075461268425,1.371450662612915,0.0,-0.004813580773770809,0.8204230666160583,0.0,-0.01572732999920845
154.0,258.0,0.5904,0.1669,9.4331,-0.0322,0.0214,-0.1216,-2.0081287823119105,0.0,3.8935675621032715,-1.5057647228240967,-0.0,2.1267874240875244,4.980688321381368,-0.0,0.2890893816947937,-1.66569692293276,-0.0,0.001068958081305027,1.371506690979004,0.0,-0.0007846305961720645,0.820479154586792,0.0,-0.008913779631257057
154.0,258.0,0.5904,0.1669,9.4331,-0.0322,0.0214,-0.1216,-2.0081569157042445,0.0,3.9166040420532227,-1.5057487487792969,-0.0,2.062513828277588,4.9806841788585565,-0.0,0.29345768690109253,-1.6657050291644495,-0.0,0.008507526479661465,1.371490716934204,0.0,0.014218996278941631,0.8204510807991028,0.0,0.03328560292720795
154.0,258.0,0.5904,0.1669,9.4331,-0.0322,0.0214,-0.1216,-2.008177419702047,0.0,3.8552682399749756,-1.5057647228240967,-0.0,2.0427472591400146,4.9806963978107355,-0.0,0.2891993224620819,-1.6657012144671839,-0.0,0.016537299379706383,1.3715109825134277,0.0,-0.005154249258339405,0.8204832077026367,0.0,0.01460602693259716
154.0,258.0,0.5904,0.1669,9.4331,-0.0322,0.0214,-0.1216,-2.008177419702047,0.0,3.8807103633880615,-1.5057244300842285,-0.0,2.0961813926696777,4.980700510531225,-0.0,0.2883014678955078,-1.6657012144671839,-0.0,-0.005436398088932037,1.3715267181396484,0.0,0.0001630715560168028,0.8205036520957947,0.0,-0.0031343000009655952
153.0,258.0,0.5755,0.1161,9.5821,-0.0421,0.0267,-0.1151,-2.008120676080221,0.0,3.842634439468384,-1.5057448148727417,-0.0,1.975245714187622,4.980684149056234,-0.0,0.29041093587875366,-1.6657331625567835,-0.0,0.00927921012043953,1.37156343460083,0.0,0.0026412217412143946,0.82049560546875,0.0,-0.01653687283396721
153.0,258.0,0.5755,0.1161,9.5821,-0.0421,0.0267,-0.1151,-2.0080963573851527,0.0,3.879418134689331,-1.505732774734497,-0.0,2.073101282119751,4.980700480728903,-0.0,0.2866750955581665,-1.6657450834857386,-0.0,-0.000280768028460443,1.371490716934204,0.0,0.001661087153479457,0.8204428553581238,0.0,-0.018557259812951088
153.0,258.0,0.5755,0.1161,9.5821,-0.0421,0.0267,-0.1151,-2.0081693134703578,0.0,3.8733487129211426,-1.5057246685028076,-0.0,2.0888962745666504,4.980672317534246,-0.0,0.2766300439834595,-1.6657212416278284,-0.0,0.0032226189505308867,1.3715026378631592,0.0,0.008321483619511127,0.8204148411750793,0.0,0.005107326898723841
153.0,258.0,0.5755,0.1161,9.5821,-0.0421,0.0267,-0.1151,-2.0081125698485316,0.0,3.8942394256591797,-1.5057644844055176,-0.0,2.067363739013672,4.980680066138067,-0.0,0.28178924322128296,-1.6656931082354944,-0.0,0.01761881820857525,1.3715147972106934,0.0,-0.00038652168586850166,0.820451021194458,0.0,-0.011764458380639553
153.0,258.0,0.5755,0.1161,9.5821,-0.0421,0.0267,-0.1151,-2.0081688366331996,0.0,3.876291513442993,-1.505760669708252,-0.0,2.079287052154541,4.980704653054037,-0.0,0.2889045476913452,-1.665741268788473,-0.0,0.010465869680047035,1.3715028762817383,0.0,-0.008229258470237255,0.8204551935195923,0.0,0.00033755600452423096
153.0,258.0,0.5755,0.1161,9.5821,-0.0421,0.0267,-0.1151,-2.0081449947752894,0.0,3.870300769805908,-1.5057568550109863,-0.0,2.0347228050231934,4.980720656901159,-0.0,0.28618720173835754,-1.6656854788409632,-0.0,0.0022211913019418716,1.3714944124221802,0.0,0.00044317898573353887,0.8204469680786133,0.0,-0.02466409280896187
153.0,258.0,0.5755,0.1161,9.5821,-0.0421,0.0267,-0.1151,-2.0081569157042445,0.0,3.874907970428467,-1.5057247877120972,-0.0,2.0618765354156494,4.980700480728903,-0.0,0.28500857949256897,-1.6657293478595179,-0.0,0.0032537425868213177,1.3715425729751587,0.0,-0.004362272564321756,0.8204510807991028,0.0,0.003061592346057296
153.0,258.0,0.5755,0.1161,9.5821,-0.0421,0.0267,-0.1151,-2.008148809472555,0.0,3.864614486694336,-1.5056928396224976,-0.0,2.0384416580200195,4.980692314892568,-0.0,0.28259924054145813,-1.6657493750201624,-0.0,0.007253051735460758,1.371506690979004,0.0,0.0032068053260445595,0.8204672336578369,0.0,0.02817295677959919
153.0,258.0,0.5755,0.1161,9.5821,-0.0421,0.0267,-0.1151,-2.0081526241698207,0.0,3.9201436042785645,-1.5057528018951416,-0.0,2.050752639770508,4.980736660748281,-0.0,0.28785815834999084,-1.6656816641436976,-0.0,0.007920370437204838,1.3715226650238037,0.0,0.0038656520191580057,0.8204631805419922,0.0,0.03883207589387894
153.0,258.0,0.5755,0.1161,9.5821,-0.0421,0.0267,-0.1151,-2.0081449947752894,0.0,3.864065170288086,-1.5057649612426758,-0.0,2.02280330657959,4.980692314892568,-0.0,0.2749693989753723,-1.665741268788473,-0.0,0.002268617507070303,1.3714666366577148,0.0,0.01075456477701664,0.8204390406608582,0.0,-0.014149145223200321
153.0,258.0,0.5755,0.1161,9.5821,-0.0421,0.0267,-0.1151,-2.0081244907774867,0.0,3.8972227573394775,-1.505740761756897,-0.0,2.059037685394287,4.980688321381368,-0.0,0.29355451464653015,-1.6657212416278284,-0.0,0.0058096954599022865,1.371486783027649,0.0,0.0020211325027048588,0.8204551935195923,0.0,-0.0049221208319067955
153.0,258.0,0.5755,0.1161,9.5821,-0.0421,0.0267,-0.1151,-2.0081244907774867,0.0,3.898022174835205,-1.505760669708252,-0.0,2.052743911743164,4.980716484576025,-0.0,0.2923867404460907,-1.6657012144671839,-0.0,0.009774889796972275,1.3715267181396484,0.0,-0.0033765018451958895,0.8204713463783264,0.0,0.010055015794932842
153.0,258.0,0.5755,0.1161,9.5821,-0.0421,0.0267,-0.1151,-2.0081006489195765,0.0,3.876685380935669,-1.505760669708252,-0.0,2.045250654220581,4.980724739819326,-0.0,0.28356072306632996,-1.6657174269305628,-0.0,0.006213652901351452,1.371490716934204,0.0,-0.0013387046055868268,0.8204348683357239,0.0,0.04166143015027046
153.0,258.0,0.5755,0.1161,9.5821,-0.0421,0.0267,-0.1151,-2.0081244907774867,0.0,3.837721824645996,-1.505780816078186,-0.0,2.099094867706299,4.980700480728903,-0.0,0.286659300327301,-1.6657088438617151,-0.0,0.016052300110459328,1.3715307712554932,0.0,-0.003208842594176531,0.8204469680786133,0.0,0.02984224632382393
153.0,258.0,0.5755,0.1161,9.5821,-0.0421,0.0267,-0.1151,-2.008165021935934,0.0,3.9079127311706543,-1.5057487487792969,-0.0,2.072514057159424,4.980720627098837,-0.0,0.29024842381477356,-1.6657374540912073,-0.0,0.006719217170029879,1.3714947700500488,0.0,0.009643265046179295,0.8204749822616577,0.0,0.017724230885505676
153.0,258.0,0.5755,0.1161,9.5821,-0.0421,0.0267,-0.1151,-2.0081287823119105,0.0,3.8858325481414795,-1.5057847499847412,-0.0,2.0708365440368652,4.980704653054037,-0.0,0.2971026301383972,-1.665741268788473,-0.0,0.020705871284008026,1.3715147972106934,0.0,-0.000914792763069272,0.8204470276832581,0.0,-0.00954569224268198
153.0,258.0,0.5755,0.1161,9.5821,-0.0421,0.0267,-0.1151,-2.008096834222311,0.0,3.890620231628418,-1.5057528018951416,-0.0,2.0948281288146973,4.980736660748281,-0.0,0.2850731909275055,-1.6657174269305628,-0.0,0.0011165727628394961,1.3715267181396484,0.0,0.00159728922881186,0.8204551935195923,0.0,0.021725183352828026
153.0,258.0,0.5755,0.1161,9.5821,-0.0421,0.0267,-0.1151,-2.008193155328268,0.0,3.8814196586608887,-1.505748987197876,-0.0,2.022489309310913,4.980688321381368,-0.0,0.28644484281539917,-1.6657331625567835,-0.0,0.007570285350084305,1.371490716934204,0.0,-0.007305768318474293,0.8204631209373474,0.0,0.031042223796248436
153.0,258.0,0.5755,0.1161,9.5821,-0.0421,0.0267,-0.1151,-2.0081168613829554,0.0,3.892702341079712,-1.505792498588562,-0.0,2.091832399368286,4.980668145209112,-0.0,0.2903916537761688,-1.665753189717428,-0.0,0.005836821626871824,1.3715633153915405,0.0,0.0028792847879230976,0.8204914927482605,0.0,-0.014420570805668831
153.0,258.0,0.5755,0.1161,9.5821,-0.0421,0.0267,-0.1151,-2.008116384545797,0.0,3.8971924781799316,-1.5057408809661865,-0.0,2.0690391063690186,4.980700480728903,-0.0,0.27801215648651123,-1.6657174269305628,-0.0,-0.0038209634367376566,1.3714789152145386,0.0,-0.007606074213981628,0.8204510807991028,0.0,0.0011909976601600647
150.0,263.0,0.6556,0.1669,9.2847,-0.0379,0.0267,-0.1234,-2.0081287823119105,0.0,3.8658130168914795,-1.5057886838912964,-0.0,2.039233684539795,4.980700480728903,-0.0,0.2891424000263214,-1.6657450834857386,-0.0,-0.005003371275961399,1.3715147972106934,0.0,0.00398533558472991,0.8204873204231262,0.0,-0.016254546120762825
150.0,263.0,0.6556,0.1669,9.2847,-0.0379,0.0267,-0.1234,-2.0081287823119105,0.0,3.919856548309326,-1.505760908126831,-0.0,2.070448398590088,4.9807485220725916,-0.0,0.2869643270969391,-1.66569692293276,-0.0,0.013452112674713135,1.3715345859527588,0.0,-0.015519652515649796,0.820487380027771,0.0,-0.024237440899014473
150.0,263.0,0.6556,0.1669,9.2847,-0.0379,0.0267,-0.1234,-2.008132597009176,0.0,3.888962745666504,-1.5057928562164307,-0.0,2.0273067951202393,4.980708706169882,-0.0,0.30075517296791077,-1.665741268788473,-0.0,0.011576575227081776,1.3715107440948486,0.0,0.0015271073207259178,0.820491373538971,0.0,-0.008990935049951077
150.0,263.0,0.6556,0.1669,9.2847,-0.0379,0.0267,-0.1234,-2.008104463616842,0.0,3.857853412628174,-1.5057487487792969,-0.0,2.0559937953948975,4.980700480728903,-0.0,0.2816983759403229,-1.6657088438617151,-0.0,0.012525317259132862,1.3715027570724487,0.0,-0.004467651713639498,0.8204631209373474,0.0,-0.03314190357923508
150.0,263.0,0.6556,0.1669,9.2847,-0.0379,0.0267,-0.1234,-2.0081526241698207,0.0,3.893521785736084,-1.5057284832000732,-0.0,2.0459821224212646,4.980668175011434,-0.0,0.29716190695762634,-1.6657174269305628,-0.0,-0.012224768288433552,1.3715466260910034,0.0,0.00024576287250965834,0.8204348683357239,0.0,-0.02521667443215847
150.0,263.0,0.6556,0.1669,9.2847,-0.0379,0.0267,-0.1234,-2.008132597009176,0.0,3.8832855224609375,-1.505780577659607,-0.0,2.089993715286255,4.980684208660879,-0.0,0.27310770750045776,-1.665753189717428,-0.0,0.027106070891022682,1.3715386390686035,0.0,-0.0020513529889285564,0.8204593062400818,0.0,0.000454743392765522
150.0,263.0,0.6556,0.1669,9.2847,-0.0379,0.0267,-0.1234,-2.0081688366331996,0.0,3.8780603408813477,-1.5057487487792969,-0.0,2.018235445022583,4.980659949570455,-0.0,0.29042184352874756,-1.6657174269305628,-0.0,-0.0022268076427280903,1.3714625835418701,0.0,-0.0065027810633182526,0.8204713463783264,0.0,-0.004810528829693794
150.0,263.0,0.6556,0.1669,9.2847,-0.0379,0.0267,-0.1234,-2.008092542687887,0.0,3.876494884490967,-1.505732536315918,-0.0,2.0075955390930176,4.9807402966316126,-0.0,0.2785176634788513,-1.6657136122332972,-0.0,-0.008371684700250626,1.371486783027649,0.0,0.0034234586637467146,0.8204634189605713,0.0,-0.013212055899202824
150.0,263.0,0.6556,0.1669,9.2847,-0.0379,0.0267,-0.1234,-2.008096834222311,0.0,3.8965048789978027,-1.5057049989700317,-0.0,2.074711322784424,4.980716484576025,-0.0,0.28714412450790405,-1.6657293478595179,-0.0,0.006194200366735458,1.3715226650238037,0.0,0.009896930307149887,0.820451021194458,0.0,-0.004456307739019394
150.0,263.0,0.6556,0.1669,9.2847,-0.0379,0.0267,-0.1234,-2.008132597009176,0.0,3.8999972343444824,-1.5057528018951416,-0.0,2.057039499282837,4.980668145209112,-0.0,0.28851816058158875,-1.6657174269305628,-0.0,0.028651725500822067,1.3715672492980957,0.0,-0.0011073914356529713,0.8204672336578369,0.0,0.030100395902991295
150.0,263.0,0.6556,0.1669,9.2847,-0.0379,0.0267,-0.1234,-2.0081244907774867,0.0,3.8908538818359375,-1.505780577659607,-0.0,2.1005618572235107,4.980643945723333,-0.0,0.28516221046447754,-1.6656768957721155,-0.0,-0.007018817588686943,1.3714709281921387,0.0,-0.01188163086771965,0.8204469680786133,0.0,-9.54573042690754e-05
150.0,263.0,0.6556,0.1669,9.2847,-0.0379,0.0267,-0.1234,-2.0081449947752894,0.0,3.8496475219726562,-1.505732536315918,-0.0,2.0685627460479736,4.980712818890371,-0.0,0.30263644456863403,-1.6657293478595179,-0.0,0.0016402271576225758,1.3715506792068481,0.0,0.000772837083786726,0.8204633593559265,0.0,0.014371363446116447
150.0,263.0,0.6556,0.1669,9.2847,-0.0379,0.0267,-0.1234,-2.008116384545797,0.0,3.871323585510254,-1.5057847499847412,-0.0,2.0881106853485107,4.980716484576025,-0.0,0.29278096556663513,-1.665656868611471,-0.0,0.014526382088661194,1.3714908361434937,0.0,0.0032756738364696503,0.8204593062400818,0.0,-0.03612048178911209
150.0,263.0,0.6556,0.1669,9.2847,-0.0379,0.0267,-0.1234,-2.008144517938131,0.0,3.902374267578125,-1.5057244300842285,-0.0,2.0410571098327637,4.980692434101858,-0.0,0.28094032406806946,-1.6657093206988733,-0.0,0.007627685554325581,1.371518611907959,0.0,-0.005353385582566261,0.8204349279403687,0.0,-0.003207859816029668
150.0,263.0,0.6556,0.1669,9.2847,-0.0379,0.0267,-0.1234,-2.0080844364561976,0.0,3.869187355041504,-1.5057566165924072,-0.0,2.0754597187042236,4.9807408330734155,-0.0,0.2864041328430176,-1.6657331625567835,-0.0,0.00657025258988142,1.3715027570724487,0.0,0.006135828793048859,0.8204551935195923,0.0,-0.03373204544186592
150.0,263.0,0.6556,0.1669,9.2847,-0.0379,0.0267,-0.1234,-2.008177419702047,0.0,3.902128219604492,-1.5057368278503418,-0.0,2.0251548290252686,4.980716514378347,-0.0,0.28638339042663574,-1.6657493750201624,-0.0,0.003784292144700885,1.3714789152145386,0.0,-0.005674135871231556,0.8205077648162842,0.0,0.004315033555030823
150.0,263.0,0.6556,0.1669,9.2847,-0.0379,0.0267,-0.1234,-2.008120676080221,0.0,3.908501148223877,-1.5057528018951416,-0.0,2.0247297286987305,4.9806963978107355,-0.0,0.28984567523002625,-1.6657574812518519,-0.0,-0.003812576411291957,1.3715226650238037,0.0,2.1530897356569767e-05,0.8204713463783264,0.0,-0.008706309832632542
150.0,263.0,0.6556,0.1669,9.2847,-0.0379,0.0267,-0.1234,-2.0081449947752894,0.0,3.874969959259033,-1.5057129859924316,-0.0,2.0716707706451416,4.980692285090246,-0.0,0.28159651160240173,-1.6657331625567835,-0.0,-0.00022260635159909725,1.3715267181396484,0.0,-0.0035949409939348698,0.8204832077026367,0.0,0.056580059230327606
150.0,263.0,0.6556,0.1669,9.2847,-0.0379,0.0267,-0.1234,-2.0081125698485316,0.0,3.872246503829956,-1.505716323852539,-0.0,2.060819625854492,4.980708348542013,-0.0,0.28542810678482056,-1.6657374540912073,-0.0,0.008672649040818214,1.371506690979004,0.0,-0.008690163493156433,0.820487380027771,0.0,0.024218223989009857
150.0,263.0,0.6556,0.1669,9.2847,-0.0379,0.0267,-0.1234,-2.0081449947752894,0.0,3.870049238204956,-1.5057647228240967,-0.0,2.098069190979004,4.9807046232517145,-0.0,0.2900015413761139,-1.6657136122332972,-0.0,0.021090200170874596,1.3715187311172485,0.0,0.0020357409957796335,0.8204551935195923,0.0,-0.03424179181456566
148.0,263.0,0.521,0.1232,9.585,-0.0342,0.0255,-0.1213,-2.0081449947752894,0.0,3.9167885780334473,-1.5057368278503418,-0.0,2.0552618503570557,4.9807689664657495,-0.0,0.2894018888473511,-1.665741268788473,-0.0,0.005274275317788124,1.3715506792068481,0.0,0.00776408426463604,0.820479154586792,0.0,0.04414748400449753
148.0,263.0,0.521,0.1232,9.585,-0.0342,0.0255,-0.1213,-2.008104463616842,0.0,3.845546007156372,-1.505740761756897,-0.0,2.0546486377716064,4.9806841788585565,-0.0,0.3013659119606018,-1.6656935850726526,-0.0,-0.0025988388806581497,1.3714947700500488,0.0,-0.012924738228321075,0.8204230070114136,0.0,-0.001991444267332554
148.0,263.0,0.521,0.1232,9.585,-0.0342,0.0255,-0.1213,-2.0081330738463343,0.0,3.893923759460449,-1.505716323852539,-0.0,2.0495362281799316,4.9807128486926935,-0.0,0.2904980182647705,-1.6656931082354944,-0.0,0.005756827536970377,1.371518611907959,0.0,0.013931157067418098,0.8204311728477478,0.0,-0.02849964052438736
148.0,263.0,0.521,0.1232,9.585,-0.0342,0.0255,-0.1213,-2.0081287823119105,0.0,3.9248456954956055,-1.5057448148727417,-0.0,2.048748731613159,4.9806963978107355,-0.0,0.28201937675476074,-1.6657088438617151,-0.0,0.006019480526447296,1.3715829849243164,0.0,-0.0052425190806388855,0.8204593062400818,0.0,-0.03576795384287834
148.0,263.0,0.521,0.1232,9.585,-0.0342,0.0255,-0.1213,-2.00816073040151,0.0,3.8895599842071533,-1.5057568550109863,-0.0,2.074615716934204,4.980684149056234,-0.0,0.2937910556793213,-1.665753189717428,-0.0,0.001414064085111022,1.3715226650238037,0.0,0.006705133710056543,0.82049560546875,0.0,-0.008424496278166771
148.0,263.0,0.521,0.1232,9.585,-0.0342,0.0255,-0.1213,-2.0081125698485316,0.0,3.9095778465270996,-1.505760669708252,-0.0,2.092437744140625,4.980760681420126,-0.0,0.2900082468986511,-1.6656854788409632,-0.0,-0.0031529786065220833,1.3715347051620483,0.0,-0.0002114136004820466,0.820442795753479,0.0,0.04465460032224655
148.0,263.0,0.521,0.1232,9.585,-0.0342,0.0255,-0.1213,-2.0081244907774867,0.0,3.8771486282348633,-1.5057446956634521,-0.0,2.01218843460083,4.9807283757026575,-0.0,0.29667550325393677,-1.6656649748431605,-0.0,-0.0009467931231483817,1.3715027570724487,0.0,0.0028134509921073914,0.820487380027771,0.0,-0.010977799072861671
148.0,263.0,0.521,0.1232,9.585,-0.0342,0.0255,-0.1213,-2.0081526241698207,0.0,3.8963499069213867,-1.5057649612426758,-0.0,2.0867066383361816,4.9806759534175775,-0.0,0.28723227977752686,-1.6657012144671839,-0.0,0.0070368265733122826,1.371506690979004,0.0,-0.0061076730489730835,0.820507287979126,0.0,-0.02273222804069519
148.0,263.0,0.521,0.1232,9.585,-0.0342,0.0255,-0.1213,-2.0081407032408656,0.0,3.8901968002319336,-1.5057446956634521,-0.0,2.0894837379455566,4.980688351183691,-0.0,0.2884232997894287,-1.6656854788409632,-0.0,0.0012581715127453208,1.371438980102539,0.0,0.004323837347328663,0.8204470276832581,0.0,-0.06950674951076508
148.0,263.0,0.521,0.1232,9.585,-0.0342,0.0255,-0.1213,-2.0081449947752894,0.0,3.867854118347168,-1.505740761756897,-0.0,2.0483531951904297,4.980732488423147,-0.0,0.2888261675834656,-1.6657293478595179,-0.0,0.010135496035218239,1.3715425729751587,0.0,-0.011353145353496075,0.8204308152198792,0.0,-0.024617303162813187
148.0,263.0,0.521,0.1232,9.585,-0.0342,0.0255,-0.1213,-2.0081211529173792,0.0,3.914921760559082,-1.5057284832000732,-0.0,2.0714616775512695,4.980696487217703,-0.0,0.2898947596549988,-1.6656931082354944,-0.0,0.011133727617561817,1.3714908361434937,0.0,0.006567596923559904,0.8204672336578369,0.0,-0.016358496621251106
148.0,263.0,0.521,0.1232,9.585,-0.0342,0.0255,-0.1213,-2.00816073040151,0.0,3.8749194145202637,-1.5057568550109863,-0.0,2.0586209297180176,4.980668204813757,-0.0,0.27940213680267334,-1.6657093206988733,-0.0,-0.002963237464427948,1.371538519859314,0.0,-0.0007461024215444922,0.820507824420929,0.0,0.004129605833441019
148.0,263.0,0.521,0.1232,9.585,-0.0342,0.0255,-0.1213,-2.008148809472555,0.0,3.849109172821045,-1.505708932876587,-0.0,2.1324005126953125,4.980692314892568,-0.0,0.2784821093082428,-1.6657093206988733,-0.0,0.011331656016409397,1.3715187311172485,0.0,0.006324076093733311,0.8204510807991028,0.0,-0.004798667039722204
148.0,263.0,0.521,0.1232,9.585,-0.0342,0.0255,-0.1213,-2.008116384545797,0.0,3.9346022605895996,-1.505760669708252,-0.0,2.036297082901001,4.980720239668646,-0.0,0.2798144519329071,-1.6657293478595179,-0.0,-0.001755792647600174,1.3715306520462036,0.0,0.004192613996565342,0.8204790949821472,0.0,-0.0034425491467118263
148.0,263.0,0.521,0.1232,9.585,-0.0342,0.0255,-0.1213,-2.0081244907774867,0.0,3.856452465057373,-1.5057368278503418,-0.0,2.0490894317626953,4.980716484576025,-0.0,0.2902070879936218,-1.6656973997699183,-0.0,0.006156735587865114,1.3714947700500488,0.0,0.0057137771509587765,0.8204713463783264,0.0,0.018810734152793884
148.0,263.0,0.521,0.1232,9.585,-0.0342,0.0255,-0.1213,-2.0081407032408656,0.0,3.885495185852051,-1.5057965517044067,-0.0,2.0995538234710693,4.980688351183691,-0.0,0.2908000946044922,-1.6657136122332972,-0.0,0.021718811243772507,1.3715671300888062,0.0,-0.004386251792311668,0.820479154586792,0.0,0.0008052750490605831
148.0,263.0,0.521,0.1232,9.585,-0.0342,0.0255,-0.1213,-2.0081244907774867,0.0,3.91908597946167,-1.505772590637207,-0.0,2.1065192222595215,4.980724352389135,-0.0,0.29836785793304443,-1.665713135396139,-0.0,-0.004696463234722614,1.3714908361434937,0.0,-0.006096115801483393,0.8204589486122131,0.0,0.0370679572224617
148.0,263.0,0.521,0.1232,9.585,-0.0342,0.0255,-0.1213,-2.008092542687887,0.0,3.8641257286071777,-1.5057408809661865,-0.0,2.0392253398895264,4.9806963978107355,-0.0,0.2881320118904114,-1.6657331625567835,-0.0,-0.0031846510246396065,1.3714511394500732,0.0,0.002909849863499403,0.8204749822616577,0.0,0.018941789865493774
148.0,263.0,0.521,0.1232,9.585,-0.0342,0.0255,-0.1213,-2.0081364117064417,0.0,3.8979897499084473,-1.5057568550109863,-0.0,2.0759897232055664,4.980656343489446,-0.0,0.29170677065849304,-1.6657050291644495,-0.0,-0.010147744789719582,1.3715027570724487,0.0,-0.010428202338516712,0.8204230070114136,0.0,-0.0011483021080493927
148.0,263.0,0.521,0.1232,9.585,-0.0342,0.0255,-0.1213,-2.0081287823119105,0.0,3.846468448638916,-1.5057368278503418,-0.0,2.073075771331787,4.980688351183691,-0.0,0.282469242811203,-1.6657293478595179,-0.0,0.001358098117634654,1.3715505599975586,0.0,-0.005475013516843319,0.8204672336578369,0.0,0.012941977940499783
148.0,263.0,0.521,0.1232,9.585,-0.0342,0.0255,-0.1213,-2.0081364117064417,0.0,3.8657188415527344,-1.5057005882263184,-0.0,2.0446083545684814,4.9807046232517145,-0.0,0.30357423424720764,-1.6657255331622522,-0.0,0.01084164809435606,1.3715671300888062,0.0,-0.0052917650900781155,0.8204754590988159,0.0,0.04350651055574417
147.0,259.0,0.5462,0.1208,9.5797,-0.0325,0.0289,-0.1187,-2.008120676080221,0.0,3.8652639389038086,-1.5057647228240967,-0.0,2.0470130443573,4.980688321381368,-0.0,0.2943194508552551,-1.6657136122332972,-0.0,0.008089778013527393,1.3714908361434937,0.0,0.011590206064283848,0.8204836845397949,0.0,-0.020898927003145218
147.0,259.0,0.5462,0.1208,9.5797,-0.0325,0.0289,-0.1187,-2.0081211529173792,0.0,3.9271979331970215,-1.5057487487792969,-0.0,2.062337636947632,4.980708735972204,-0.0,0.2893487215042114,-1.6657374540912073,-0.0,0.011783882975578308,1.3714789152145386,0.0,-0.010435005649924278,0.8204108476638794,0.0,-0.003275394905358553
147.0,259.0,0.5462,0.1208,9.5797,-0.0325,0.0289,-0.1187,-2.0081449947752894,0.0,3.907651424407959,-1.5057568550109863,-0.0,2.076810836791992,4.980716454773702,-0.0,0.2871636152267456,-1.6657493750201624,-0.0,-0.005894052796065807,1.3714829683303833,0.0,0.024233609437942505,0.8204189538955688,0.0,-0.022683463990688324
147.0,259.0,0.5462,0.1208,9.5797,-0.0325,0.0289,-0.1187,-2.008108755151266,0.0,3.876594305038452,-1.5057408809661865,-0.0,2.067565679550171,4.980732488423147,-0.0,0.28143247961997986,-1.665765110646383,-0.0,0.008368145674467087,1.371546983718872,0.0,-0.002361884107813239,0.8204915523529053,0.0,-0.011460740119218826
147.0,259.0,0.5462,0.1208,9.5797,-0.0325,0.0289,-0.1187,-2.008144517938131,0.0,3.9001636505126953,-1.5057728290557861,-0.0,2.030076026916504,4.980724352389135,-0.0,0.2928299903869629,-1.6657093206988733,-0.0,0.010212955996394157,1.3715425729751587,0.0,0.009889695793390274,0.8204672336578369,0.0,-0.006017304956912994
147.0,259.0,0.5462,0.1208,9.5797,-0.0325,0.0289,-0.1187,-2.0081287823119105,0.0,3.904386520385742,-1.505676507949829,-0.0,2.082709312438965,4.980712789088049,-0.0,0.2816838026046753,-1.6657012144671839,-0.0,0.0026070638559758663,1.3715949058532715,0.0,7.087644189596176e-05,0.8204510807991028,0.0,0.018062908202409744
147.0,259.0,0.5462,0.1208,9.5797,-0.0325,0.0289,-0.1187,-2.0081287823119105,0.0,3.8427014350891113,-1.5057368278503418,-0.0,2.068061351776123,4.980692314892568,-0.0,0.28035229444503784,-1.6657293478595179,-0.0,0.003889060579240322,1.371546983718872,0.0,-0.0042178272269666195,0.8204873204231262,0.0,0.0016721570864319801
147.0,259.0,0.5462,0.1208,9.5797,-0.0325,0.0289,-0.1187,-2.0081569157042445,0.0,3.920224666595459,-1.5057408809661865,-0.0,2.1080169677734375,4.9807206867034814,-0.0,0.2844291925430298,-1.6657174269305628,-0.0,0.010145746171474457,1.3715107440948486,0.0,0.004165824968367815,0.8204510807991028,0.0,-0.007174583617597818
147.0,259.0,0.5462,0.1208,9.5797,-0.0325,0.0289,-0.1187,-2.008193632165426,0.0,3.9045169353485107,-1.50576913356781,-0.0,2.043301582336426,4.980688380986013,-0.0,0.2831812798976898,-1.665673557912008,-0.0,0.00663897255435586,1.3714430332183838,0.0,0.0008730247500352561,0.8204593062400818,0.0,-0.029919762164354324
147.0,259.0,0.5462,0.1208,9.5797,-0.0325,0.0289,-0.1187,-2.0081287823119105,0.0,3.9375193119049072,-1.505676507949829,-0.0,2.063991069793701,4.9807046232517145,-0.0,0.2905205488204956,-1.6657212416278284,-0.0,0.011632107198238373,1.3714827299118042,0.0,-0.010394535027444363,0.8204510807991028,0.0,0.023491013795137405
147.0,259.0,0.5462,0.1208,9.5797,-0.0325,0.0289,-0.1187,-2.0081364117064417,0.0,3.8590850830078125,-1.505740761756897,-0.0,2.086758613586426,4.980752694397726,-0.0,0.2802118957042694,-1.6657012144671839,-0.0,0.009124423377215862,1.371486783027649,0.0,-0.007829640060663223,0.8204832673072815,0.0,0.024921827018260956
147.0,259.0,0.5462,0.1208,9.5797,-0.0325,0.0289,-0.1187,-2.00816073040151,0.0,3.878988027572632,-1.5057687759399414,-0.0,2.047800064086914,4.980700480728903,-0.0,0.2765113115310669,-1.6656854788409632,-0.0,0.009250739589333534,1.3714988231658936,0.0,-0.0013014633441343904,0.8204308152198792,0.0,-0.026940565556287766
147.0,259.0,0.5462,0.1208,9.5797,-0.0325,0.0289,-0.1187,-2.0081449947752894,0.0,3.89456844329834,-1.5057730674743652,-0.0,2.060377597808838,4.980688202172079,-0.0,0.28847789764404297,-1.665765110646383,-0.0,0.0045644911006093025,1.3715187311172485,0.0,0.00023181058350019157,0.8204308748245239,0.0,0.012095814570784569
147.0,259.0,0.5462,0.1208,9.5797,-0.0325,0.0289,-0.1187,-2.008096834222311,0.0,3.91335391998291,-1.5057082176208496,-0.0,2.1100475788116455,4.980744409352102,-0.0,0.29489508271217346,-1.66569692293276,-0.0,0.0025913307908922434,1.371458888053894,0.0,0.003510250709950924,0.8204954862594604,0.0,0.026344960555434227
147.0,259.0,0.5462,0.1208,9.5797,-0.0325,0.0289,-0.1187,-2.0081449947752894,0.0,3.883509397506714,-1.505748987197876,-0.0,2.0757555961608887,4.980732488423147,-0.0,0.2963598966598511,-1.6656854788409632,-0.0,-0.0003965370124205947,1.3715226650238037,0.0,0.005601819604635239,0.8204226493835449,0.0,0.023167524486780167
147.0,259.0,0.5462,0.1208,9.5797,-0.0325,0.0289,-0.1187,-2.0081449947752894,0.0,3.9332821369171143,-1.5057368278503418,-0.0,2.022538661956787,4.98072840550498,-0.0,0.2940429151058197,-1.6657493750201624,-0.0,0.0040086908265948296,1.3714749813079834,0.0,-0.001262596808373928,0.8204713463783264,0.0,-0.03286629542708397
147.0,259.0,0.5462,0.1208,9.5797,-0.0325,0.0289,-0.1187,-2.008148809472555,0.0,3.8677234649658203,-1.505708932876587,-0.0,2.048427104949951,4.9807206867034814,-0.0,0.28664886951446533,-1.6657770315753382,-0.0,-0.0007322152960114181,1.3715187311172485,0.0,-0.018336787819862366,0.8204749822616577,0.0,-0.04052423685789108
147.0,259.0,0.5462,0.1208,9.5797,-0.0325,0.0289,-0.1187,-2.0081449947752894,0.0,3.860292911529541,-1.5056884288787842,-0.0,2.0745251178741455,4.980700510531225,-0.0,0.28316596150398254,-1.6657174269305628,-0.0,0.0036170086823403835,1.3715265989303589,0.0,0.001321669202297926,0.8204510807991028,0.0,0.014697902835905552
147.0,259.0,0.5462,0.1208,9.5797,-0.0325,0.0289,-0.1187,-2.0081244907774867,0.0,3.9206550121307373,-1.505760669708252,-0.0,2.065446376800537,4.980700480728903,-0.0,0.2822386622428894,-1.6657331625567835,-0.0,0.005804210901260376,1.3714827299118042,0.0,0.004514443688094616,0.8204428553581238,0.0,-0.022082792595028877
147.0,259.0,0.5462,0.1208,9.5797,-0.0325,0.0289,-0.1187,-2.0081974468626917,0.0,3.879021644592285,-1.5057728290557861,-0.0,2.057955265045166,4.980708735972204,-0.0,0.2943529188632965,-1.6657255331622522,-0.0,0.0003508275840431452,1.3715068101882935,0.0,0.0018893585074692965,0.8204631209373474,0.0,0.04307796061038971
155.0,258.0,0.5007,0.1119,9.5773,-0.0397,0.0211,-0.1216,-2.0081287823119105,0.0,3.881680965423584,-1.505716323852539,-0.0,2.0969743728637695,4.980700480728903,-0.0,0.28843754529953003,-1.6657217184649866,-0.0,0.012262546457350254,1.3714869022369385,0.0,0.003749217838048935,0.8204271197319031,0.0,0.033491816371679306
155.0,258.0,0.5007,0.1119,9.5773,-0.0397,0.0211,-0.1216,-2.0081693134703578,-2.772112566162832e-07,3.9123804569244385,-1.5057408809661865,-0.0,2.069441318511963,4.980692314892568,-0.0,0.27343761920928955,-1.6656854788409632,-0.0,0.009986595250666142,1.3714908361434937,0.0,-0.0016117221675813198,0.8204713463783264,0.0,0.008039304055273533
155.0,258.0,0.5007,0.1119,9.5773,-0.0397,0.0211,-0.1216,-2.008181234399313,-6.694326625152069e-13,3.856657028198242,-1.50567626953125,-0.0,2.064100503921509,4.980680095940389,-0.0,0.27508682012557983,-1.6657331625567835,-0.0,-0.0016629117308184505,1.3715306520462036,0.0,-0.003665967844426632,0.8204548954963684,0.0,0.05010267347097397
155.0,258.0,0.5007,0.1119,9.5773,-0.0397,0.0211,-0.1216,-2.0081244907774867,-2.1688766134019884e-20,3.9141316413879395,-1.5057690143585205,-0.0,2.0958986282348633,4.9807283757026575,-0.0,0.27948877215385437,-1.6657293478595179,-0.0,0.001684472430497408,1.3715345859527588,0.0,0.0002556543331593275,0.8204593062400818,0.0,0.048142869025468826
155.0,258.0,0.5007,0.1119,9.5773,-0.0397,0.0211,-0.1216,-2.008153101006979,-5.237581583051852e-26,3.953737735748291,-1.5057244300842285,-0.0,2.0188567638397217,4.980688321381368,-0.0,0.29154616594314575,-1.6657050291644495,-0.0,0.009401649236679077,1.371467113494873,0.0,0.005727180279791355,0.820438802242279,0.0,-0.007565945386886597
155.0,258.0,0.5007,0.1119,9.5773,-0.0397,0.0211,-0.1216,-2.00816073040151,-1.264814171520084e-31,3.824234962463379,-1.505748987197876,-0.0,2.041891574859619,4.980684149056234,-0.0,0.2946920692920685,-1.66569692293276,-0.0,0.011310281231999397,1.3715226650238037,0.0,-0.001639729831367731,0.8204631805419922,0.0,0.007599137723445892
155.0,258.0,0.5007,0.1119,9.5773,-0.0397,0.0211,-0.1216,-2.008120676080221,-4.097836717403563e-39,3.888458490371704,-1.505788803100586,-0.0,2.0844943523406982,4.980752694397726,-0.0,0.2866429388523102,-1.66569692293276,-0.0,0.025836560875177383,1.3715027570724487,0.0,-0.009069503284990788,0.820479154586792,0.0,-0.001273650792427361
155.0,258.0,0.5007,0.1119,9.5773,-0.0397,0.0211,-0.1216,-2.0081244907774867,-9.80908925027372e-45,3.8796310424804688,-1.505704641342163,-0.0,2.035951614379883,4.98072429278449,-0.0,0.2808617949485779,-1.6657136122332972,-0.0,0.007479199208319187,1.3715265989303589,0.0,-0.00011341343633830547,0.8204832077026367,0.0,-0.03152020648121834
155.0,258.0,0.5007,0.1119,9.5773,-0.0397,0.0211,-0.1216,-2.0081244907774867,0.0,3.848389148712158,-1.5057368278503418,-0.0,2.0686252117156982,4.980752724200048,-0.0,0.27365684509277344,-1.665689770375387,-0.0,0.0027180875185877085,1.3715226650238037,0.0,0.002898942679166794,0.8204510807991028,0.0,0.010337547399103642
155.0,258.0,0.5007,0.1119,9.5773,-0.0397,0.0211,-0.1216,-2.00816073040151,0.0,3.8507702350616455,-1.5057568550109863,-0.0,2.0575313568115234,4.980684149056234,-0.0,0.2898133397102356,-1.6657493750201624,-0.0,0.00966565776616335,1.3714829683303833,0.0,0.006312502548098564,0.8204754590988159,0.0,-0.017098544165492058
155.0,258.0,0.5007,0.1119,9.5773,-0.0397,0.0211,-0.1216,-2.0081449947752894,0.0,3.895704984664917,-1.5056642293930054,-0.0,2.027076482772827,4.980716484576025,-0.0,0.2954556345939636,-1.665753189717428,-0.0,0.00010515912435948849,1.3715027570724487,0.0,-0.006086156237870455,0.8204914927482605,0.0,-0.004522949922829866
155.0,258.0,0.5007,0.1119,9.5773,-0.0397,0.0211,-0.1216,-2.0081731281676234,0.0,3.8751220703125,-1.5056965351104736,-0.0,2.0530614852905273,4.980716454773702,-0.0,0.2882779836654663,-1.6657255331622522,-0.0,0.010233564302325249,1.3715544939041138,0.0,0.0058280969969928265,0.8204469680786133,0.0,-0.007122944574803114
155.0,258.0,0.5007,0.1119,9.5773,-0.0397,0.0211,-0.1216,-2.0081526241698207,0.0,3.918004035949707,-1.5057368278503418,-0.0,2.0987396240234375,4.98072840550498,-0.0,0.2828427851200104,-1.6657293478595179,-0.0,0.0016383994370698929,1.3715550899505615,0.0,-0.00322724343277514,0.8204552531242371,0.0,-0.02299167960882187
155.0,258.0,0.5007,0.1119,9.5773,-0.0397,0.0211,-0.1216,-2.0081364117064417,0.0,3.8891043663024902,-1.5057048797607422,-0.0,2.0362260341644287,4.9807485220725916,-0.0,0.2853456735610962,-1.6657136122332972,-0.0,0.005328782834112644,1.3715265989303589,0.0,-0.0012971075484529138,0.8204265832901001,0.0,0.006815199740231037
155.0,258.0,0.5007,0.1119,9.5773,-0.0397,0.0211,-0.1216,-2.0081330738463343,0.0,3.890476703643799,-1.5057408809661865,-0.0,2.094432830810547,4.98066412189559,-0.0,0.2857952415943146,-1.6657293478595179,-0.0,0.010569705627858639,1.3714749813079834,0.0,0.0006117241573520005,0.8204470276832581,0.0,0.02860739640891552
155.0,258.0,0.5007,0.1119,9.5773,-0.0397,0.0211,-0.1216,-2.0081244907774867,0.0,3.8576934337615967,-1.5057284832000732,-0.0,2.0666253566741943,4.980716484576025,-0.0,0.28591489791870117,-1.6657136122332972,-0.0,0.001622276846319437,1.3715187311172485,0.0,-0.010612063109874725,0.8204470276832581,0.0,-0.04526379704475403
155.0,258.0,0.5007,0.1119,9.5773,-0.0397,0.0211,-0.1216,-2.00816073040151,0.0,3.93792724609375,-1.505732536315918,-0.0,2.093341827392578,4.9807083187396906,-0.0,0.28236228227615356,-1.6657450834857386,-0.0,0.009200058877468109,1.3715465068817139,0.0,-0.0004280542489141226,0.8204713463783264,0.0,-0.008796138688921928
155.0,258.0,0.5007,0.1119,9.5773,-0.0397,0.0211,-0.1216,-2.0081526241698207,0.0,3.8517017364501953,-1.5057048797607422,-0.0,2.065145969390869,4.980732488423147,-0.0,0.2817755937576294,-1.6657293478595179,-0.0,0.0016991307493299246,1.3715187311172485,0.0,0.013316316530108452,0.8204510807991028,0.0,0.01961584761738777
155.0,258.0,0.5007,0.1119,9.5773,-0.0397,0.0211,-0.1216,-2.008148332635397,0.0,3.893035411834717,-1.5057768821716309,-0.0,2.054595470428467,4.98072840550498,-0.0,0.2825900614261627,-1.6657136122332972,-0.0,0.010862702503800392,1.3715146780014038,0.0,0.012947537936270237,0.8205198049545288,0.0,0.027858437970280647
155.0,258.0,0.5007,0.1119,9.5773,-0.0397,0.0211,-0.1216,-2.0081893406310023,0.0,3.943936347961426,-1.5057284832000732,-0.0,2.047391891479492,4.980732488423147,-0.0,0.29350215196609497,-1.6657174269305628,-0.0,-0.0061343638226389885,1.3714789152145386,0.0,-0.01239312905818224,0.8204593062400818,0.0,-0.020620418712496758
155.0,258.0,0.5007,0.1119,9.5773,-0.0397,0.0211,-0.1216,-2.0081731281676234,0.0,3.8921217918395996,-1.505708932876587,-0.0,2.063110828399658,4.980659949570455,-0.0,0.289449006319046,-1.665765110646383,-0.0,0.001134619815275073,1.3715028762817383,0.0,-0.003963080234825611,0.8204749822616577,0.0,0.012784037739038467
146.0,251.0,0.6078,0.1262,9.5085,-0.0279,0.0293,-0.1225,-2.008181234399313,0.0,3.8900012969970703,-1.5057244300842285,-0.0,2.106597423553467,4.9807402966316126,-0.0,0.28410404920578003,-1.6657050291644495,-0.0,-0.0025150931905955076,1.3715265989303589,0.0,-0.018718833103775978,0.8204749822616577,-1.041128072643005e-08,0.0036602201871573925
146.0,251.0,0.6078,0.1262,9.5085,-0.0279,0.0293,-0.1225,-2.0081969700255335,0.0,3.894718885421753,-1.505692481994629,-0.0,2.062808036804199,4.980708348542013,-0.0,0.29329001903533936,-1.66569692293276,-0.0,0.010755505412817001,1.371498703956604,0.0,0.0013068335829302669,0.8204631805419922,-2.5142016493360196e-14,-0.01026672963052988
146.0,251.0,0.6078,0.1262,9.5085,-0.0279,0.0293,-0.1225,-2.008148332635397,0.0,3.8874311447143555,-1.5056805610656738,-0.0,2.095005512237549,4.9807283757026575,-0.0,0.2966483235359192,-1.665741268788473,-0.0,0.00757239107042551,1.3715187311172485,0.0,0.013253826647996902,0.8205237984657288,-6.071501818730102e-20,-0.015399673953652382
146.0,251.0,0.6078,0.1262,9.5085,-0.0279,0.0293,-0.1225,-2.0081402264037074,0.0,3.857766628265381,-1.505732536315918,-0.0,2.0805702209472656,4.980716067343511,-0.0,0.2973884642124176,-1.6657570044146937,-0.0,0.0034903124906122684,1.3715027570724487,0.0,-0.016035977751016617,0.8205234408378601,-1.9670897636007132e-27,-0.013708818703889847
146.0,251.0,0.6078,0.1262,9.5085,-0.0279,0.0293,-0.1225,-2.008132597009176,0.0,3.898125648498535,-1.5057244300842285,-0.0,2.0754482746124268,4.980780797987737,-0.0,0.3006986677646637,-1.6657374540912073,-0.0,0.01378639042377472,1.3715425729751587,0.0,0.009995194151997566,0.8204913139343262,-4.750290955791915e-33,0.003939094953238964
146.0,251.0,0.6078,0.1262,9.5085,-0.0279,0.0293,-0.1225,-2.008205076257223,0.0,3.9140734672546387,-1.505716323852539,-0.0,2.083308219909668,4.980712401657858,-0.0,0.2902107834815979,-1.6657493750201624,-0.0,-0.0013593935873359442,1.371538519859314,0.0,-0.00569587666541338,0.8204667568206787,-1.1471394967862141e-38,-0.030405253171920776
146.0,251.0,0.6078,0.1262,9.5085,-0.0279,0.0293,-0.1225,-2.008181234399313,0.0,3.8397860527038574,-1.5057129859924316,-0.0,1.9942517280578613,4.980708348542013,-0.0,0.28802812099456787,-1.6657174269305628,-0.0,0.006828463636338711,1.3715345859527588,0.0,-0.00023659155704081059,0.8204589486122131,-0.0,0.017012719064950943
146.0,251.0,0.6078,0.1262,9.5085,-0.0279,0.0293,-0.1225,-2.0081731281676234,0.0,3.8510618209838867,-1.5056724548339844,-0.0,2.076686382293701,4.980732428818502,-0.0,0.28583717346191406,-1.6657012144671839,-0.0,0.00033492431975901127,1.3715107440948486,0.0,-0.005039801821112633,0.8204749226570129,0.0,-0.0009506158530712128
146.0,251.0,0.6078,0.1262,9.5085,-0.0279,0.0293,-0.1225,-2.0081693134703578,0.0,3.9051766395568848,-1.5057048797607422,-0.0,2.0800299644470215,4.980732130795278,-0.0,0.2772066295146942,-1.6657374540912073,-0.0,-0.0007159766391851008,1.3715107440948486,0.0,-0.00212649442255497,0.8205276727676392,0.0,0.019168326631188393
146.0,251.0,0.6078,0.1262,9.5085,-0.0279,0.0293,-0.1225,-2.008200784722799,-0.00014573158114217222,3.9072012901306152,-1.5057284832000732,-0.0,2.04345703125,4.980760770827093,-0.0,0.2957126200199127,-1.665765110646383,-0.0,0.0027360073290765285,1.3715345859527588,0.0,0.005928592756390572,0.8204913139343262,0.0,-0.014756073243916035
146.0,251.0,0.6078,0.1262,9.5085,-0.0279,0.0293,-0.1225,-2.008144517938131,-0.00014234063564799726,3.8918094635009766,-1.505708932876587,-0.0,2.0960147380828857,4.980756717711248,-0.0,0.27873578667640686,-1.6657775084124964,-0.0,0.006503438577055931,1.3715265989303589,0.0,0.0033951918594539165,0.8204590082168579,0.0,0.025323688983917236
146.0,251.0,0.6078,0.1262,9.5085,-0.0279,0.0293,-0.1225,-2.0081402264037074,-0.00015389428881462663,3.8769774436950684,-1.505732774734497,-0.0,2.0649900436401367,4.980732488423147,-0.0,0.28659018874168396,-1.6657455603228968,-0.0,-0.003023217897862196,1.371487021446228,0.0,-0.0012602054048329592,0.8205073475837708,0.00014555086090695113,0.0018441966967657208
146.0,251.0,0.6078,0.1262,9.5085,-0.0279,0.0293,-0.1225,-2.0081006489195765,-0.00014009035658091307,3.908830165863037,-1.505692481994629,-0.0,2.0755701065063477,4.980732488423147,-0.0,0.2913742959499359,-1.6657450834857386,-0.0,0.014429010450839996,1.371458888053894,0.0,0.004522914532572031,0.8205474615097046,0.0009837003890424967,0.007251075003296137
146.0,251.0,0.6078,0.1262,9.5085,-0.0279,0.0293,-0.1225,-2.008127828637594,-7.641845877515152e-05,3.9079365730285645,-1.5056965351104736,-0.0,2.099363088607788,4.980727988272466,-0.0,0.29307305812835693,-1.6657331625567835,-0.0,0.005655176937580109,1.3715306520462036,0.0,0.00015483517199754715,0.8205392360687256,0.0014001782983541489,0.0031167790293693542
146.0,251.0,0.6078,0.1262,9.5085,-0.0279,0.0293,-0.1225,-2.008172651330465,-4.7745452320668846e-05,3.891402244567871,-1.5057244300842285,-0.0,2.090740203857422,4.980704235821523,-0.0,0.28498077392578125,-1.6657136122332972,-0.0,0.012424241751432419,1.3715226650238037,0.0,-0.002741469070315361,0.820527195930481,0.0016563751269131899,-0.02739550918340683
146.0,251.0,0.6078,0.1262,9.5085,-0.0279,0.0293,-0.1225,-2.0081731281676234,-3.93867667298764e-05,3.907632827758789,-1.5056803226470947,-0.0,2.0738978385925293,4.980732100992956,-0.0,0.30173707008361816,-1.6656973997699183,-0.0,0.0014704896602779627,1.371447205543518,0.0,0.0019174929475411773,0.8205471634864807,0.0022385031916201115,0.0003260606899857521
146.0,251.0,0.6078,0.1262,9.5085,-0.0279,0.0293,-0.1225,-2.0081364117064417,-6.551887781824917e-05,3.8890204429626465,-1.505732774734497,-0.0,2.058617115020752,4.9806963978107355,-0.0,0.28902071714401245,-1.6657293478595179,-0.0,0.014881137758493423,1.371487021446228,0.0,0.00666106678545475,0.8205430507659912,0.003108261153101921,0.045508015900850296
146.0,251.0,0.6078,0.1262,9.5085,-0.0279,0.0293,-0.1225,-2.008172651330465,-8.287568198284134e-05,3.898336887359619,-1.5057528018951416,-0.0,2.0914158821105957,4.980688261776724,-0.0,0.28975173830986023,-1.6657255331622522,-0.0,-0.0034019798040390015,1.3715468645095825,0.0,-0.003983976319432259,0.8205509185791016,0.00412675179541111,-0.01672552153468132
146.0,251.0,0.6078,0.1262,9.5085,-0.0279,0.0293,-0.1225,-2.008205076257223,-8.083180000539869e-05,3.873784065246582,-1.5057446956634521,-0.0,1.9822711944580078,4.980700510531225,-5.448377513039837e-11,0.2859734892845154,-1.6657331625567835,-0.0,0.013944623991847038,1.3715265989303589,0.0,0.0016637579537928104,0.820675790309906,0.005583696998655796,0.02867729216814041
146.0,251.0,0.6078,0.1262,9.5085,-0.0279,0.0293,-0.1225,-2.0081645450987757,-0.0008332301513291895,3.907137870788574,-1.5057446956634521,-0.0,2.035330057144165,4.980684149056234,-1.516575730828914e-14,0.27812910079956055,-1.6657169500934046,-0.0,0.016390159726142883,1.3715265989303589,0.0,-0.0051023876294493675,0.8206714391708374,0.006880736444145441,-0.008538704365491867
149.0,263.0,0.4738,0.1023,9.5468,-0.0385,0.0226,-0.1155,-2.008188863793844,-0.0010717384284362197,3.8644890785217285,-1.505772590637207,-0.0,2.0674426555633545,4.980716901808538,-4.221444291451085e-18,0.2940974533557892,-1.6657689253436487,-0.0,0.007676553912460804,1.3714710474014282,0.0,0.009525100700557232,0.8206990361213684,0.007552738301455975,0.0023594002705067396
149.0,263.0,0.4738,0.1023,9.5468,-0.0385,0.0226,-0.1155,-2.008205076257223,-0.000875238562002778,3.9459304809570312,-1.505732774734497,-0.0,2.0822362899780273,4.980639982014456,-7.672266788852514e-23,0.2805173099040985,-1.665753189717428,-0.0,0.016078105196356773,1.3715068101882935,0.0,-0.001591708161868155,0.8208034038543701,0.009598476812243462,0.013539078645408154
149.0,263.0,0.4738,0.1023,9.5468,-0.0385,0.0226,-0.1155,-2.0082203350462855,-0.0007062439108267426,3.8143134117126465,-1.5057048797607422,-0.0,2.0328805446624756,4.980684149056234,-2.135603626316741e-26,0.293852299451828,-1.6657093206988733,-0.0,0.017570290714502335,1.371546983718872,0.0,-0.009573932737112045,0.8208474516868591,0.010885928757488728,-0.02220976911485195
149.0,263.0,0.4738,0.1023,9.5468,-0.0385,0.0226,-0.1155,-2.00821652034902,-0.00046028877841308713,3.917342185974121,-1.5057528018951416,-0.0,2.047367572784424,4.980660396605291,-5.944530979678955e-30,0.27222058176994324,-1.665793244038717,-0.0,0.005678486544638872,1.3715226650238037,0.0,0.00011466312571428716,0.8209194540977478,0.011618133634328842,-0.0021144025959074497
149.0,263.0,0.4738,0.1023,9.5468,-0.0385,0.0226,-0.1155,-2.0082408390440882,-0.0003915800480172038,3.8971846103668213,-1.5057287216186523,-0.0,2.037660837173462,4.980680066138067,-1.0803891666179612e-34,0.2730332612991333,-1.6657331625567835,-0.0,0.008594495244324207,1.3716264963150024,0.0,0.0038460108917206526,0.8210117220878601,0.012998906895518303,-0.009341325610876083
149.0,263.0,0.4738,0.1023,9.5468,-0.0385,0.0226,-0.1155,-2.0082127056517542,-0.00032182407448999584,3.8965747356414795,-1.5056884288787842,-0.0,2.030545473098755,4.980756628304281,-3.0073028122135964e-38,0.28663116693496704,-1.665765110646383,-0.0,0.011731855571269989,1.371518611907959,0.0,-0.0030616726726293564,0.8211479783058167,0.013874119147658348,-0.017916882410645485
149.0,263.0,0.4738,0.1023,9.5468,-0.0385,0.0226,-0.1155,-2.008200784722799,-0.00027300702640786767,3.8777403831481934,-1.5057244300842285,-0.0,2.060831069946289,4.980720180064001,-8.371357025876457e-42,0.2725850045681,-1.6657927672015589,-0.0,0.003059926675632596,1.3714511394500732,0.0,-0.0021537099964916706,0.8212237358093262,0.014446333050727844,0.02488449215888977
149.0,263.0,0.4738,0.1023,9.5468,-0.0385,0.0226,-0.1155,-2.0081964931883753,-0.00026492783217690885,3.8438072204589844,-1.5057728290557861,-0.0,2.0693697929382324,4.980700480728903,-0.0,0.28174108266830444,-1.665816609059469,-7.919521885924041e-05,0.004372395575046539,1.371530532836914,0.0,-0.01438218355178833,0.8213359713554382,0.015875253826379776,0.006683990824967623
149.0,263.0,0.4738,0.1023,9.5468,-0.0385,0.0226,-0.1155,-2.0082532368102015,-0.0002688489039428532,3.91141939163208,-1.5057408809661865,-0.0,2.044527769088745,4.980692374497213,-0.0,0.2747703492641449,-1.6657927672015589,-7.526459376094863e-05,0.00959396455436945,1.3715145587921143,0.0,0.00021957093849778175,0.8214846849441528,0.01644083298742771,0.06219536438584328
149.0,263.0,0.4738,0.1023,9.5468,-0.0385,0.0226,-0.1155,-2.0082408390440882,-0.0002119527489412576,3.872183084487915,-1.505724549293518,-0.0,1.9983305931091309,4.980656343489446,-0.0,0.2722213566303253,-1.6657851378070276,-9.845793101703748e-05,0.013316122815012932,1.3715027570724487,0.0,-0.009170536883175373,0.8215562105178833,0.01739739440381527,0.03179660439491272
149.0,263.0,0.4738,0.1023,9.5468,-0.0385,0.0226,-0.1155,-2.0082088909544886,-0.00020926467550452799,3.886178493499756,-1.50566828250885,-0.0,2.0914292335510254,4.9807046232517145,-0.0,0.26624953746795654,-1.6657689253436487,-0.0001060417271219194,0.01679767668247223,1.3715628385543823,0.0,0.0009531934629194438,0.8217285871505737,0.018593445420265198,-0.0014559199335053563
149.0,263.0,0.4738,0.1023,9.5468,-0.0385,0.0226,-0.1155,-2.0082084141173304,-0.0001886122627183795,3.8545408248901367,-1.5057048797607422,-0.0,2.0343563556671143,4.980688321381368,-0.0,0.2736987769603729,-1.6657450834857386,-0.00010316747648175806,0.009143133647739887,1.371530532836914,0.0,-0.006925945170223713,0.8218125700950623,0.01880810409784317,0.04114271700382233
149.0,263.0,0.4738,0.1023,9.5468,-0.0385,0.0226,-0.1155,-2.008261343041891,-0.00017072292394004762,3.847555160522461,-1.505708932876587,-0.0,2.0609588623046875,4.9806841788585565,-0.0,0.2782237231731415,-1.665753189717428,-0.0002418750082142651,0.004320686683058739,1.3715345859527588,0.0,0.007889747619628906,0.8219004273414612,0.01771833933889866,0.08172544091939926
149.0,263.0,0.4738,0.1023,9.5468,-0.0385,0.0226,-0.1155,-2.0082408390440882,-0.0001768151269061491,3.894287109375,-1.5057129859924316,-0.0,2.0604465007781982,4.980704653054037,-0.0,0.2790988087654114,-1.6657770315753382,-0.0002286223170813173,0.007190375588834286,1.3714948892593384,0.0,0.005114404018968344,0.822024405002594,0.017114577814936638,0.05063801631331444
149.0,263.0,0.4738,0.1023,9.5468,-0.0385,0.0226,-0.1155,-2.0082246265807093,-0.00016308425983879715,3.871495246887207,-1.505716323852539,-0.0,2.0287976264953613,4.980732488423147,-0.0,0.266075998544693,-1.6657808462726038,-0.00021100333833601326,0.01114637590944767,1.3715306520462036,0.0,-0.017301471903920174,0.8221769332885742,0.016329342499375343,0.0720214694738388
149.0,263.0,0.4738,0.1023,9.5468,-0.0385,0.0226,-0.1155,-2.0082408390440882,-0.0001513321476522833,3.8889570236206055,-1.5057203769683838,-0.0,2.0835747718811035,4.9806963978107355,-0.0,0.2763522267341614,-1.6657770315753382,-0.00018886313773691654,0.009710516780614853,1.371506690979004,0.0,0.010920275002717972,0.8222329616546631,0.013216112740337849,0.08968554437160492
149.0,263.0,0.4738,0.1023,9.5468,-0.0385,0.0226,-0.1155,-2.0082246265807093,-0.00013806618517264724,3.852281093597412,-1.5057568550109863,-0.0,2.066303253173828,4.980692314892568,-0.0,0.28245824575424194,-1.6658089796649378,-0.00016568202408961952,-0.0031351514626294374,1.3715345859527588,0.0,0.016983097419142723,0.8223410844802856,0.009561192244291306,0.11700308322906494
149.0,263.0,0.4738,0.1023,9.5468,-0.0385,0.0226,-0.1155,-2.0082203350462855,-0.00012954892008565366,3.853224277496338,-1.505716323852539,-0.0,2.0602831840515137,4.980724352389135,-0.0,0.2800299823284149,-1.6657727400409144,-0.00015171605627983809,-0.0002124379388988018,1.371487021446228,0.0,-0.0030722396913915873,0.8223768472671509,0.0059990305453538895,0.07809589803218842
149.0,263.0,0.4738,0.1023,9.5468,-0.0385,0.0226,-0.1155,-2.0082203350462855,-0.00012202136713312939,3.902857542037964,-1.5057365894317627,-0.0,2.044783115386963,4.980712401657858,-0.0,0.28141915798187256,-1.665753189717428,-0.00013992158346809447,0.009123321622610092,1.3714669942855835,0.0,-0.00727681303396821,0.8222922682762146,0.0028416765853762627,0.05082453042268753
149.0,263.0,0.4738,0.1023,9.5468,-0.0385,0.0226,-0.1155,-2.00821652034902,-0.00011324788647470996,3.8969125747680664,-1.5057244300842285,-0.0,2.0670909881591797,4.980720627098837,-0.0,0.2824479341506958,-1.6657570044146937,-0.00012678070925176144,-0.002479847054928541,1.371506690979004,0.0,-0.010653870180249214,0.8223447203636169,7.270305650308728e-05,0.04069451242685318
146.0,270.0,0.6885,0.1687,9.5192,-0.0301,0.0124,-0.1126,-2.0082127056517542,-0.00010745319741545245,3.877573013305664,-1.5057326555252075,-0.0,2.0377941131591797,4.980716484576025,-0.0,0.28477275371551514,-1.6657450834857386,-0.00010129078873433173,0.006370656192302704,1.3715027570724487,0.0,0.014308251440525055,0.8222963809967041,1.755693090910171e-10,0.05079261213541031
146.0,270.0,0.6885,0.1687,9.5192,-0.0301,0.0124,-0.1126,-2.0082246265807093,-0.00010222275886917487,3.850465774536133,-1.505708932876587,-0.0,2.0223536491394043,4.98071243146018,-0.0,0.28056618571281433,-1.6657574812518519,-9.26057473407127e-05,0.0028132451698184013,1.3714631795883179,0.0,0.007938135415315628,0.8223048448562622,-0.0013838284648954868,0.02054879441857338
146.0,270.0,0.6885,0.1687,9.5192,-0.0301,0.0124,-0.1126,-2.008204599420065,-4.046839239890687e-05,3.88783860206604,-1.505716323852539,-0.0,2.086071014404297,4.980732488423147,-0.0,0.27396348118782043,-1.665741268788473,-8.556171087548137e-05,0.01206961553543806,1.3714829683303833,0.0,-0.004402162041515112,0.8222806453704834,-0.0036526164039969444,-0.03397851064801216
146.0,270.0,0.6885,0.1687,9.5192,-0.0301,0.0124,-0.1126,-2.008244653741354,-3.788516187341884e-05,3.909543037414551,-1.505788803100586,-0.0,2.0431017875671387,4.980736660748281,-0.0,0.28270775079727173,-1.6657450834857386,-8.094451914075762e-05,-0.011669454164803028,1.3715028762817383,0.0,-0.00592850660905242,0.8222243785858154,-0.0026958934031426907,-0.0009426474571228027
146.0,270.0,0.6885,0.1687,9.5192,-0.0301,0.0124,-0.1126,-2.0081569157042445,-3.563507561921142e-05,3.822268486022949,-1.505748987197876,-0.0,2.042729616165161,4.9807083187396906,-0.0,0.3032890558242798,-1.665741268788473,-6.92376124789007e-05,-0.0043021515011787415,1.371530532836914,0.0,-0.013902995735406876,0.8221880793571472,-0.0014214387629181147,0.03241261839866638
146.0,270.0,0.6885,0.1687,9.5192,-0.0301,0.0124,-0.1126,-2.008205076257223,-3.3020249247783795e-05,3.83640193939209,-1.5056884288787842,-0.0,2.0406033992767334,4.98071243146018,-0.0,0.27703621983528137,-1.6657174269305628,-2.5748352072696434e-06,0.00865909643471241,1.3715187311172485,0.0,-0.0025499239563941956,0.8222123384475708,-0.0008535805391147733,-0.028451116755604744
146.0,270.0,0.6885,0.1687,9.5192,-0.0301,0.0124,-0.1126,-2.0081807575621546,-1.5673891539336182e-05,3.839602470397949,-1.5057005882263184,8.971361967269331e-05,2.0309879779815674,4.980724739819326,-0.0,0.2915627360343933,-1.6657770315753382,-7.167147986208988e-10,0.014429359696805477,1.3714393377304077,0.0,0.003514564596116543,0.8222164511680603,-0.0004598436353262514,0.009877743199467659
146.0,270.0,0.6885,0.1687,9.5192,-0.0301,0.0124,-0.1126,-2.0082127056517542,-5.936610705248313e-07,3.8672473430633545,-1.505704641342163,0.00012957383296452463,2.090299129486084,4.980724322586813,-0.0,0.2837875187397003,-1.6657612959491175,-1.995001792888182e-13,0.008958462625741959,1.371530532836914,0.0,-0.004114803858101368,0.822248637676239,-0.0003514190320856869,0.005663121119141579
146.0,270.0,0.6885,0.1687,9.5192,-0.0301,0.0124,-0.1126,-2.0081926784911097,-1.9233865124505464e-14,3.816481590270996,-1.5056607723236084,0.0006031717639416456,2.0662450790405273,4.98072429278449,-0.0,0.28606876730918884,-1.665765110646383,-3.625816761360332e-18,-0.0034386380575597286,1.3715027570724487,0.0,0.008189745247364044,0.8222485780715942,-0.0002677595184650272,-0.04047480970621109
146.0,270.0,0.6885,0.1687,9.5192,-0.0301,0.0124,-0.1126,-2.008176942864889,-4.6447519407476564e-20,3.912043571472168,-1.5056689977645874,0.00043395208194851875,2.054776191711426,4.980671840697088,-0.0,0.28205758333206177,-1.6657217184649866,-1.0092594030008406e-21,0.014329493045806885,1.371530532836914,0.0,-0.003048484679311514,0.8222445249557495,-0.00018176186131313443,-0.03750148415565491
146.0,270.0,0.6885,0.1687,9.5192,-0.0301,0.0124,-0.1126,-2.00816073040151,-1.1216529714449753e-25,3.872250556945801,-1.5056726932525635,0.000336552708176896,2.049555540084839,4.980716067343511,-0.0,0.28174537420272827,-1.6657331625567835,-2.809310930676665e-25,-0.005380612798035145,1.3714592456817627,0.0,-0.007378723472356796,0.8222445249557495,9.726843563839793e-05,-0.01492585800588131
146.0,270.0,0.6885,0.1687,9.5192,-0.0301,0.0124,-0.1126,-2.0082527599730433,-3.634012500234285e-33,3.906561851501465,-1.505652904510498,0.0003108512028120458,2.054279327392578,4.980692344694891,-0.0,0.282134473323822,-1.6657331625567835,-5.105783222683622e-30,0.0072522335685789585,1.3715225458145142,0.0,-0.003819204866886139,0.8222321271896362,0.00022983532107900828,0.01782073825597763
146.0,270.0,0.6885,0.1687,9.5192,-0.0301,0.0124,-0.1126,-2.008200784722799,-8.775712908145098e-39,3.8547110557556152,-1.5056648254394531,0.00026506968424655497,2.046337127685547,4.980704295426168,-0.0,0.30286291241645813,-1.6657331625567835,-1.421213628775432e-33,0.003959146793931723,1.3715028762817383,0.0,-0.003596664173528552,0.8223007917404175,0.0005996980471536517,0.0060468981973826885
146.0,270.0,0.6885,0.1687,9.5192,-0.0301,0.0124,-0.1126,-2.0082127056517542,-2.1019476964872256e-44,3.862516403198242,-1.505692481994629,0.00023104324645828456,2.0700924396514893,4.98072840550498,-0.0,0.28044673800468445,-1.665741268788473,-3.956000537857042e-37,0.0011224451009184122,1.3715304136276245,0.0,-0.010450536385178566,0.8223048448562622,0.0006000119028612971,0.0024743606336414814
146.0,270.0,0.6885,0.1687,9.5192,-0.0301,0.0124,-0.1126,-2.0081807575621546,0.0,3.882664203643799,-1.5057048797607422,0.00019727852486539632,2.0730509757995605,4.980732488423147,-0.0,0.284168004989624,-1.6657450834857386,-7.190062420450636e-42,0.018895262852311134,1.371475100517273,0.0,-0.007696489803493023,0.8223124742507935,0.0006515460554510355,-0.0021810284815728664
146.0,270.0,0.6885,0.1687,9.5192,-0.0301,0.0124,-0.1126,-2.0082408390440882,0.0,3.9040369987487793,-1.5056967735290527,0.0001777920260792598,2.0525851249694824,4.980716484576025,-0.0,0.2898910939693451,-1.6657093206988733,-1.401298464324817e-45,-0.0009039044380187988,1.3715146780014038,0.0,0.007231957279145718,0.8223327994346619,0.0011602467857301235,0.02476085163652897
146.0,270.0,0.6885,0.1687,9.5192,-0.0301,0.0124,-0.1126,-2.0082246265807093,0.0,3.8856139183044434,-1.5056325197219849,0.00016180933744180948,2.0715479850769043,4.980716484576025,-0.0,0.2756848931312561,-1.665753189717428,-0.0,0.014819463714957237,1.3715068101882935,0.0,-0.00920804962515831,0.8223447203636169,0.0010568508878350258,0.051570240408182144
146.0,270.0,0.6885,0.1687,9.5192,-0.0301,0.0124,-0.1126,-2.008216997186178,0.0,3.9015953540802,-1.505680799484253,0.0001682404545135796,2.079967975616455,4.980724710017004,-0.0,0.29782772064208984,-1.6657374540912073,-0.0,0.00858052633702755,1.3714869022369385,0.0,-0.00770575413480401,0.8222724199295044,0.0007884547230787575,0.008344055153429508
146.0,270.0,0.6885,0.1687,9.5192,-0.0301,0.0124,-0.1126,-2.008176466027731,0.0,3.8736472129821777,-1.5056686401367188,0.0001783024927135557,2.075402021408081,4.9807283757026575,-0.0,0.2863047122955322,-1.6656931082354944,-0.0,0.014204110018908978,1.3715107440948486,0.0,-0.00245260214433074,0.8223410844802856,0.0006550576072186232,-0.025563929229974747
146.0,270.0,0.6885,0.1687,9.5192,-0.0301,0.0124,-0.1126,-2.008200307885641,0.0,3.9180831909179688,-1.5056726932525635,0.00014549678598996252,2.082061767578125,4.980724322586813,-0.0,0.2869397699832916,-1.6657093206988733,-0.0,0.008377745747566223,1.371506690979004,0.0,0.008048031479120255,0.8223204612731934,0.00044682901352643967,0.013850219547748566
146.0,270.0,0.6885,0.1687,9.5192,-0.0301,0.0124,-0.1126,-2.0081926784911097,0.0,3.884671449661255,-1.5056610107421875,0.0001534465845907107,2.102605104446411,4.980688321381368,-0.0,0.2823806405067444,-1.665753189717428,-0.0,-0.0038404404185712337,1.3714591264724731,0.0,-0.005862115416675806,0.8223207592964172,0.0003183994849678129,-0.0378020778298378
154.0,255.0,0.591,0.1244,9.5557,-0.0429,0.0195,-0.1109,-2.0082322559752406,0.0,3.854262590408325,-1.50563645362854,0.00016324775060638785,2.09273362159729,4.980684149056234,-0.0,0.2847217619419098,-1.6657293478595179,-0.0,0.009261063300073147,1.3715146780014038,0.0,-0.015886399894952774,0.8223204612731934,0.00026263942709192634,0.005876439623534679
154.0,255.0,0.591,0.1244,9.5557,-0.0429,0.0195,-0.1109,-2.0082489452757777,0.0,3.8623852729797363,-1.50563645362854,0.00015309690206777304,2.089905261993408,4.980684149056234,-0.0,0.27326148748397827,-1.6657331625567835,-0.0,0.005541901104152203,1.3715027570724487,0.0,-0.0025790128856897354,0.8223286867141724,0.00026819767663255334,-0.007836240343749523
154.0,255.0,0.591,0.1244,9.5557,-0.0429,0.0195,-0.1109,-2.00821652034902,0.0,3.833509922027588,-1.5056689977645874,0.0002698591852094978,2.076878070831299,4.980676072626867,-0.0,0.2829831838607788,-1.665741268788473,-0.0,0.002339559607207775,1.3714592456817627,0.0,-0.0022909436374902725,0.8223406076431274,0.00022374703257810324,0.0023193852975964546
154.0,255.0,0.591,0.1244,9.5557,-0.0429,0.0195,-0.1109,-2.0082322559752406,0.0,3.9270577430725098,-1.5056729316711426,0.0002738040348049253,2.026460647583008,4.980684149056234,-0.0,0.2866724729537964,-1.6657093206988733,-0.0,-0.004189347382634878,1.3715542554855347,0.0,0.003231253009289503,0.8223125338554382,0.0001990078599192202,0.03358173370361328
154.0,255.0,0.591,0.1244,9.5557,-0.0429,0.0195,-0.1109,-2.0081964931883753,0.0,3.845790386199951,-1.5056607723236084,0.00023813835287000984,2.06821870803833,4.980656283884802,-0.0,0.28605788946151733,-1.6657450834857386,-0.0,0.0038736523129045963,1.3715265989303589,0.0,-0.010155814699828625,0.8223125338554382,0.00017919520905707031,-0.03154459968209267
154.0,255.0,0.591,0.1244,9.5557,-0.0429,0.0195,-0.1109,-2.008204599420065,0.0,3.876878261566162,-1.5056447982788086,0.00023616504040546715,2.0727968215942383,4.980708735972204,-0.0,0.2834213078022003,-1.66569692293276,-0.0,-0.00907165091484785,1.3715226650238037,0.0,0.001980263041332364,0.8223084211349487,0.00018456242105457932,-0.01535961776971817
154.0,255.0,0.591,0.1244,9.5557,-0.0429,0.0195,-0.1109,-2.0082203350462855,0.0,3.842862367630005,-1.5056610107421875,0.00024261233920697123,2.0581436157226562,4.980684149056234,-0.0,0.28342634439468384,-1.6657174269305628,-0.0,0.015416351146996021,1.3714988231658936,0.0,-0.010601281188428402,0.8223245739936829,0.0001943008101079613,0.007722670678049326
154.0,255.0,0.591,0.1244,9.5557,-0.0429,0.0195,-0.1109,-2.0082408390440882,0.0,3.8865785598754883,-1.5056331157684326,0.0003208121925126761,2.064807891845703,4.98070045092658,-0.0,0.29015854001045227,-1.6657331625567835,-0.0,0.0008143807062879205,1.3714909553527832,0.0,0.00595041923224926,0.8223287463188171,0.000175491877598688,0.006913761608302593
154.0,255.0,0.591,0.1244,9.5557,-0.0429,0.0195,-0.1109,-2.008273263970846,0.0,3.8854846954345703,-1.5056331157684326,0.0010896100429818034,2.0751726627349854,4.980720656901159,-0.0,0.28416553139686584,-1.6657374540912073,-0.0,0.008828112855553627,1.371475100517273,0.0,-0.004121900536119938,0.8223485946655273,0.00020699801098089665,0.019447416067123413
154.0,255.0,0.591,0.1244,9.5557,-0.0429,0.0195,-0.1109,-2.0082532368102015,0.0,3.87253737449646,-1.5055768489837646,0.0037127018440514803,2.0952701568603516,4.980732488423147,-0.0,0.28062233328819275,-1.6657293478595179,-0.0,0.0012331778416410089,1.3715550899505615,0.0,-0.00037751253694295883,0.8223205208778381,0.000450036081019789,0.0068007162772119045
154.0,255.0,0.591,0.1244,9.5557,-0.0429,0.0195,-0.1109,-2.0082246265807093,0.0,3.867100715637207,-1.5055606365203857,0.009265391156077385,2.079800844192505,4.980724710017004,-0.0,0.28294095396995544,-1.6657212416278284,-0.0,0.004740597680211067,1.3715709447860718,0.0,-0.0056593893095850945,0.8223686218261719,0.00034644734114408493,0.024525154381990433
154.0,255.0,0.591,0.1244,9.5557,-0.0429,0.0195,-0.1109,-2.0082365475096644,0.0,3.8682899475097656,-1.505436897277832,0.012083379551768303,2.0859155654907227,4.980656373291769,-0.0,0.26885050535202026,-1.665677849446432,-0.0,0.006708119064569473,1.3715509176254272,0.0,9.690225124359131e-05,0.8223485946655273,0.00026486499700695276,-0.03856328874826431
154.0,255.0,0.591,0.1244,9.5557,-0.0429,0.0195,-0.1109,-2.0082489452757777,-0.0003109757963102311,3.8736581802368164,-1.5053608417510986,0.010090655647218227,2.045830249786377,4.980684208660879,-0.0,0.27625182271003723,-1.6657055060016077,-0.0,0.02598969079554081,1.3715068101882935,0.0,-0.0048518399707973,0.8223246335983276,0.00029963062843307853,0.04241286218166351
154.0,255.0,0.591,0.1244,9.5557,-0.0429,0.0195,-0.1109,-2.0082489452757777,-0.0003741222608368844,3.8654003143310547,-1.5053327083587646,0.00952361524105072,2.097317695617676,4.980708706169882,-0.0,0.280388742685318,-1.6657331625567835,-0.0,-0.005108344368636608,1.371546983718872,0.0,0.01411740854382515,0.8223603963851929,0.00037212480674497783,-0.021621540188789368
154.0,255.0,0.591,0.1244,9.5557,-0.0429,0.0195,-0.1109,-2.008228441277975,-0.00031019540620036423,3.863536834716797,-1.5052086114883423,0.006594600155949593,2.0754549503326416,4.9806924042995355,-0.0,0.2727612853050232,-1.665689770375387,-0.0,0.00017285940703004599,1.3715143203735352,0.0,0.00410010339692235,0.8224291801452637,0.0016548798885196447,0.005452531855553389
154.0,255.0,0.591,0.1244,9.5557,-0.0429,0.0195,-0.1109,-2.0083047352232875,-0.00027469039196148515,3.8758492469787598,-1.5051970481872559,0.004929528571665287,2.103257179260254,4.980740594654836,-0.0,0.26711368560791016,-1.6657212416278284,-0.0,0.0029839319176971912,1.3715468645095825,0.0,-0.0015889721689745784,0.8223726153373718,0.002143396995961666,-0.008124647662043571
154.0,255.0,0.591,0.1244,9.5557,-0.0429,0.0195,-0.1109,-2.0082408390440882,-0.0002464788849465549,3.9031028747558594,-1.505096673965454,0.004829070530831814,2.1116394996643066,4.980700480728903,-0.0,0.27382463216781616,-1.665741268788473,-0.0,0.011147881858050823,1.3715553283691406,0.0,0.012622993439435959,0.8224648237228394,0.0024714753963053226,0.02015680819749832
154.0,255.0,0.591,0.1244,9.5557,-0.0429,0.0195,-0.1109,-2.0082408390440882,-0.0001900679199025035,3.8468432426452637,-1.5051569938659668,0.004794192034751177,2.0673162937164307,4.980700480728903,-0.0,0.2883507013320923,-1.6657174269305628,-0.0,0.00020673498511314392,1.3716036081314087,0.0,-0.0031739594414830208,0.8224809169769287,0.0033118429128080606,-0.004847838543355465
154.0,255.0,0.591,0.1244,9.5557,-0.0429,0.0195,-0.1109,-2.0082322559752406,-0.00019883124332409352,3.880675792694092,-1.5051214694976807,0.003946980461478233,2.0987460613250732,4.9806841788585565,-0.0,0.27935895323753357,-1.6657293478595179,-0.0,-0.0008810912258923054,1.3715553283691406,0.0,-0.005398351699113846,0.8225133419036865,0.004554579965770245,0.012576091103255749
154.0,255.0,0.591,0.1244,9.5557,-0.0429,0.0195,-0.1109,-2.008273263970846,-0.00018658326007425785,3.8344688415527344,-1.505125641822815,0.0033952498342841864,2.0586516857147217,4.980740654259481,-0.0,0.26966217160224915,-1.6657088438617151,-0.0,-0.000891281699296087,1.3715143203735352,0.0,0.015438789501786232,0.8225088119506836,0.005433868616819382,0.044183116406202316
146.0,269.0,0.6012,0.0323,9.6814,-0.0383,0.0235,-0.1173,-2.008268495599264,-0.00025435138377361,3.857163906097412,-1.5050288438796997,0.002601695479825139,2.030424118041992,4.980712818890371,-0.0,0.2751670777797699,-1.66569692293276,-0.0,0.009304728358983994,1.3715345859527588,0.0,0.02112811617553234,0.8225409984588623,0.0062613412737846375,0.05322080850601196
146.0,269.0,0.6012,0.0323,9.6814,-0.0383,0.0235,-0.1173,-2.0082770786681117,-0.0009554665884934366,3.8543243408203125,-1.5050891637802124,0.0014788821572437882,2.0952441692352295,4.980672347336569,-0.0,0.2745956480503082,-1.66569692293276,-0.0,0.0029780869372189045,1.3714947700500488,0.0,-0.002565906150266528,0.8225970268249512,0.006681700702756643,0.052578359842300415
146.0,269.0,0.6012,0.0323,9.6814,-0.0383,0.0235,-0.1173,-2.0082889995970667,-0.0013916041934862733,3.7736687660217285,-1.5050572156906128,0.0009915059199556708,2.065479278564453,4.980688321381368,-0.0,0.27545487880706787,-1.665741268788473,-0.0,0.007313203997910023,1.3714988231658936,0.0,0.017997248098254204,0.822600781917572,0.007861511781811714,-0.00045806635171175003
146.0,269.0,0.6012,0.0323,9.6814,-0.0383,0.0235,-0.1173,-2.008280416528219,-0.001799635123461485,3.8537323474884033,-1.5050570964813232,0.0006391915958374739,2.023922920227051,4.980652230768957,-5.845596388098784e-05,0.28075405955314636,-1.665689770375387,-0.0,0.0012259085197001696,1.371458649635315,0.0,0.002380392048507929,0.8226768970489502,0.0090246070176363,0.008983118459582329
146.0,269.0,0.6012,0.0323,9.6814,-0.0383,0.0235,-0.1173,-2.008340974847311,-0.002251256722956896,3.868673801422119,-1.505081057548523,0.000504727941006422,2.057035446166992,4.980696487217703,-5.626511119771749e-05,0.2776450216770172,-1.6657255331622522,-0.0,0.0025358865968883038,1.3715426921844482,0.0,-0.008886802941560745,0.8227208256721497,0.010544671677052975,0.031125741079449654
146.0,269.0,0.6012,0.0323,9.6814,-0.0383,0.0235,-0.1173,-2.008320470849508,-0.002610380994156003,3.781445026397705,-1.5050652027130127,0.00029309510136954486,2.094266891479492,4.9806924042995355,-5.4230924433795735e-05,0.2700905203819275,-1.6657012144671839,-0.0,0.0041993968188762665,1.3715429306030273,0.0,0.003980919253081083,0.8227808475494385,0.010395671240985394,0.08438913524150848
146.0,269.0,0.6012,0.0323,9.6814,-0.0383,0.0235,-0.1173,-2.008381506005758,-0.0021106365602463484,3.8167994022369385,-1.5050289630889893,0.0002790111757349223,2.0705065727233887,4.980716901808538,-6.207273690961301e-05,0.27162665128707886,-1.6657174269305628,-0.0,0.0023736224975436926,1.371506690979004,0.0,0.006750007625669241,0.822860836982727,0.011846647597849369,-0.006997573655098677
146.0,269.0,0.6012,0.0323,9.6814,-0.0383,0.0235,-0.1173,-2.0083891354002894,-0.0020174409728497267,3.8203988075256348,-1.5050493478775024,0.0002818248176481575,2.0752625465393066,4.980672347336569,-6.0014415794285014e-05,0.2570749521255493,-1.6656854788409632,-0.0,0.001797681674361229,1.3715143203735352,0.0,-0.005285808350890875,0.8229854702949524,0.012331525795161724,-0.027493417263031006
146.0,269.0,0.6012,0.0323,9.6814,-0.0383,0.0235,-0.1173,-2.0083357296385707,-0.0018052426166832447,3.820401668548584,-1.5050407648086548,0.00028397265123203397,2.081836462020874,4.9806604264076135,-6.501493743371611e-08,0.2537088394165039,-1.665689770375387,-0.0,0.01961776614189148,1.3715102672576904,0.0,0.022359997034072876,0.823004961013794,0.01182568445801735,0.004925586748868227
146.0,269.0,0.6012,0.0323,9.6814,-0.0383,0.0235,-0.1173,-2.0083805523314417,-0.0014917124062776566,3.812439441680908,-1.5050849914550781,0.0002452766930218786,2.054750442504883,4.980684625893392,-1.1816143766565923e-12,0.26023370027542114,-1.6656854788409632,-0.0,0.0053594764322042465,1.371551275253296,0.0,0.01112790685147047,0.8230889439582825,0.012086289934813976,0.054915741086006165
146.0,269.0,0.6012,0.0323,9.6814,-0.0383,0.0235,-0.1173,-2.008416791955465,-0.0012928687501698732,3.845137119293213,-1.5050607919692993,0.00022253340284805745,2.0705344676971436,4.980688679009237,-3.2890675800666667e-16,0.2557979226112366,-1.665685002003805,-0.0,0.01897009275853634,1.3715753555297852,0.0,-0.002629809081554413,0.8232337236404419,0.011816086247563362,0.011857662349939346
146.0,269.0,0.6012,0.0323,9.6814,-0.0383,0.0235,-0.1173,-2.0084129772581996,-0.001064759329892695,3.8116097450256348,-1.5050489902496338,0.00020365037198644131,2.085615873336792,4.9806522009666345,-0.00014998648839537054,0.26272374391555786,-1.66567308107485,-0.0,0.009959730319678783,1.3715715408325195,0.0,-0.003824705956503749,0.8232735395431519,0.011950011365115643,0.008942289277911186
146.0,269.0,0.6012,0.0323,9.6814,-0.0383,0.0235,-0.1173,-2.008432527581686,-0.0008856686763465405,3.8056063652038574,-1.5050729513168335,0.00016853759007062763,2.0652170181274414,4.980664479523458,-0.00013396376743912697,0.26017656922340393,-1.6657255331622522,-0.0,0.004075131379067898,1.3715267181396484,0.0,-0.01512802392244339,0.8233857750892639,0.012360546737909317,0.026213418692350388
146.0,269.0,0.6012,0.0323,9.6814,-0.0383,0.0235,-0.1173,-2.0084568462767542,-0.0006439380231313407,3.765279531478882,-1.5050534009933472,0.00018174783326685429,2.0827255249023438,4.980700599938192,-0.00014754680159967393,0.23921294510364532,-1.6656935850726526,-0.0,0.017503805458545685,1.3715428113937378,0.0,0.0008949575712904334,0.8234695196151733,0.011900275014340878,0.01274873036891222
146.0,269.0,0.6012,0.0323,9.6814,-0.0383,0.0235,-0.1173,-2.008404394189352,-0.00044533846084959805,3.7876219749450684,-1.5050370693206787,0.0002200294693466276,2.0432045459747314,4.9806887088115595,-0.00015892401279415935,0.2576785683631897,-1.6657255331622522,-0.0,0.014528285712003708,1.371506690979004,0.0,-0.002869853749871254,0.8235296010971069,0.011648747138679028,-0.03375254571437836
146.0,269.0,0.6012,0.0323,9.6814,-0.0383,0.0235,-0.1173,-2.0084201298155726,-0.0004116852942388505,3.75612211227417,-1.5050653219223022,0.000669818720780313,2.019784927368164,4.9806924042995355,-0.00014791582361795008,0.2565275728702545,-1.6656773726092737,-0.0,0.010754957795143127,1.3715593814849854,0.0,-0.006209259852766991,0.8236218690872192,0.011529308743774891,0.00771102961152792
146.0,269.0,0.6012,0.0323,9.6814,-0.0383,0.0235,-0.1173,-2.008360525170797,-0.0003156671591568738,3.77070951461792,-1.5049734115600586,0.002577402861788869,2.073997735977173,4.980696487217703,-0.0001352165563730523,0.24579119682312012,-1.665673557912008,-0.0,0.02182740904390812,1.3715835809707642,0.0,-0.00787265133112669,0.8237138986587524,0.01081762183457613,0.018282771110534668
146.0,269.0,0.6012,0.0323,9.6814,-0.0383,0.0235,-0.1173,-2.008432527581686,-0.00026856386102735996,3.752568244934082,-1.5049290657043457,0.0028678576927632093,2.10530948638916,4.980620252877035,-0.0001270364737138152,0.2460154891014099,-1.6657255331622522,-0.0,0.02355780266225338,1.3715147972106934,0.0,-0.006675549782812595,0.823782205581665,0.010964615270495415,0.044282685965299606
146.0,269.0,0.6012,0.0323,9.6814,-0.0383,0.0235,-0.1173,-2.008376260797018,-0.00023369304835796356,3.761688232421875,-1.5049246549606323,0.0030065556056797504,2.038640260696411,4.980648177653112,-0.00011978980910498649,0.2536658048629761,-1.6656773726092737,-0.0,0.016700245440006256,1.3714947700500488,0.0,-0.0041021620854735374,0.8238744139671326,0.010952092707157135,-0.014839502051472664
146.0,269.0,0.6012,0.0323,9.6814,-0.0383,0.0235,-0.1173,-2.008416315118307,-0.00023235387925524265,3.790627956390381,-1.5049049854278564,0.0037331273779273033,2.0761516094207764,4.980636346131124,-0.00012708772555924952,0.24720653891563416,-1.665713135396139,-0.0,0.015154624357819557,1.371518611907959,0.0,-0.008824095129966736,0.8239585161209106,0.010233278386294842,0.04170430451631546
146.0,269.0,0.6012,0.0323,9.6814,-0.0383,0.0235,-0.1173,-2.0084086857237757,-0.0002356212498852983,3.727356433868408,-1.5049166679382324,0.0028981927316635847,2.09067964553833,4.980628150492468,-0.00014020525850355625,0.2448400855064392,-1.66567308107485,-0.0,0.01465720497071743,1.37147057056427,0.0,0.0018302511889487505,0.8239777088165283,0.009418857283890247,0.0002497835084795952
151.0,258.0,0.4953,0.1974,9.3206,-0.0189,0.0154,-0.1116,-2.008416315118307,-0.00017190870130434632,3.7487847805023193,-1.5049209594726562,0.0024265225511044264,2.0443193912506104,4.980652260571279,-0.00015655496099498123,0.25215214490890503,-1.66569692293276,-0.0,0.005894882138818502,1.3714988231658936,0.0,-0.007330621592700481,0.8240380883216858,0.008300925604999065,0.001169523224234581
151.0,258.0,0.4953,0.1974,9.3206,-0.0189,0.0154,-0.1116,-2.0084568462767542,-0.0002086459135171026,3.7743966579437256,-1.5048203468322754,0.0017953235656023026,2.033733367919922,4.980572271137991,-0.0006827474571764469,0.24768447875976562,-1.6656697432147425,6.273124017752707e-05,0.00835893489420414,1.3714946508407593,0.0,-0.00901349913328886,0.8240779042243958,0.006371051538735628,-0.029886970296502113
151.0,258.0,0.4953,0.1974,9.3206,-0.0189,0.0154,-0.1116,-2.008448740045065,-0.0005352682201191783,3.7663681507110596,-1.5049090385437012,0.0014738616300746799,2.092484951019287,4.980612504273214,-0.0009708376019261777,0.2398230880498886,-1.6656935850726526,6.184037920320407e-05,-0.009527478367090225,1.3714786767959595,0.0,0.005406537093222141,0.8241018652915955,0.005505378358066082,-0.007774137891829014
151.0,258.0,0.4953,0.1974,9.3206,-0.0189,0.0154,-0.1116,-2.008444925347799,-0.00055347551824525,3.6913061141967773,-1.504868745803833,0.0013288434129208326,2.0487444400787354,4.98060022571639,-0.0010860688053071499,0.2347465455532074,-1.665661636983053,5.939228140050545e-05,0.008685552515089512,1.3715267181396484,0.0,-0.0030896796379238367,0.8241420984268188,0.004320307169109583,0.06091490760445595
151.0,258.0,0.4953,0.1974,9.3206,-0.0189,0.0154,-0.1116,-2.0084239445128382,-0.0006573078571818769,3.7676916122436523,-1.5048531293869019,0.0013290101196616888,2.0778050422668457,4.980608391552725,-0.0012661697110161185,0.24408045411109924,-1.6656773726092737,5.641407551593147e-05,0.023112600669264793,1.3715468645095825,0.0,-0.009206721559166908,0.8241900205612183,0.003023507073521614,-0.024204149842262268
151.0,258.0,0.4953,0.1974,9.3206,-0.0189,0.0154,-0.1116,-2.008412023583883,-0.0006396924145519733,3.7129030227661133,-1.5049176216125488,0.0015247403644025326,2.0331733226776123,4.980592715531149,-0.0014860474038869143,0.24511024355888367,-1.6657169500934046,5.436926949187182e-05,0.001631571794860065,1.3715553283691406,0.0,-0.013585352338850498,0.8241980671882629,0.0026991066988557577,0.017625348642468452
151.0,258.0,0.4953,0.1974,9.3206,-0.0189,0.0154,-0.1116,-2.008448740045065,-0.0005383399548009038,3.7475690841674805,-1.5048328638076782,0.002275829203426838,2.1191651821136475,4.980552482395925,-0.0016380979213863611,0.2285684049129486,-1.665713135396139,5.246753426035866e-05,0.022412879392504692,1.3714747428894043,0.0,0.003042337018996477,0.8242063522338867,0.0023144164588302374,0.0054736509919166565
151.0,258.0,0.4953,0.1974,9.3206,-0.0189,0.0154,-0.1116,-2.008472581902975,-0.0005066240555606782,3.7293310165405273,-1.504817247390747,0.0028798538260161877,2.0722830295562744,4.980616557389059,-0.00353050883859396,0.2422078549861908,-1.6656935850726526,5.012963811168447e-05,0.014306281693279743,1.3715028762817383,0.0,0.0047469777055084705,0.824250340461731,0.0018075854750350118,-0.003085475414991379
151.0,258.0,0.4953,0.1974,9.3206,-0.0189,0.0154,-0.1116,-2.0084201298155726,-0.0004684141604229808,3.721888542175293,-1.504817247390747,0.003202286083251238,2.081325054168701,4.98055254200057,-0.008753330446779728,0.23507660627365112,-1.665689770375387,1.0713393550076944e-07,0.02361149713397026,1.3715307712554932,0.0,-0.008165864273905754,0.8241816759109497,0.0014294253196567297,-0.0021150773391127586
151.0,258.0,0.4953,0.1974,9.3206,-0.0189,0.0154,-0.1116,-2.008476873437399,-0.0003790019254665822,3.7672171592712402,-1.5047972202301025,0.003973156679421663,2.1234352588653564,4.980468588858404,-0.012117631733417511,0.23844721913337708,-1.665661636983053,2.9821121266815354e-11,0.014265975914895535,1.3715226650238037,0.0,0.005006578750908375,0.8242261409759521,0.0009078279254026711,-0.017398076131939888
151.0,258.0,0.4953,0.1974,9.3206,-0.0189,0.0154,-0.1116,-2.0084239445128382,-0.00044678067206405103,3.661959171295166,-1.5047650337219238,0.0040485854260623455,2.0165016651153564,4.980465340405264,-0.004838420078158379,0.23057466745376587,-1.6656773726092737,5.419840898169127e-16,0.024734383448958397,1.3715107440948486,0.0,0.004022948909550905,0.8242058753967285,0.0006025141337886453,-0.011079225689172745
151.0,258.0,0.4953,0.1974,9.3206,-0.0189,0.0154,-0.1116,-2.008440156976217,-0.0006265977863222361,3.7117300033569336,-1.5047333240509033,0.004050187300890684,2.0995841026306152,4.980424868851461,-0.0012297595385462046,0.22313812375068665,-1.665685002003805,1.5086322929486136e-19,0.018821395933628082,1.3715349435806274,0.0,0.0033093965612351894,0.8242017030715942,0.00045136193512007594,-0.0010282625444233418
151.0,258.0,0.4953,0.1974,9.3206,-0.0189,0.0154,-0.1116,-2.008456369439596,-0.0010411310940980911,3.7215003967285156,-1.5046968460083008,0.003995297942310572,2.0772905349731445,4.980373102217474,-0.0006617788458243012,0.2316540777683258,-1.6657055060016077,4.1993331593434253e-23,0.008466150611639023,1.371551275253296,0.0,-0.012524797581136227,0.8242303133010864,0.0003607494290918112,-0.023624831810593605
151.0,258.0,0.4953,0.1974,9.3206,-0.0189,0.0154,-0.1116,-2.008456369439596,-0.001093901926651597,3.703740119934082,-1.5046615600585938,0.0036810655146837234,2.079756021499634,4.980409192829885,-0.00041633579530753195,0.23985476791858673,-1.665673557912008,7.632080961407571e-28,0.02082747407257557,1.3714463710784912,0.0,0.007710666861385107,0.8242141008377075,0.00023722842161078006,-0.01385815441608429
151.0,258.0,0.4953,0.1974,9.3206,-0.0189,0.0154,-0.1116,-2.0084644756712855,-0.0009589431574568152,3.7238006591796875,-1.5046412944793701,0.0041293189860880375,2.0925679206848145,4.980385261565008,-0.0003258143551647663,0.22190740704536438,-1.6656811873065394,2.124417572797593e-31,0.014569796621799469,1.371518850326538,0.0,0.0061386264860630035,0.8241939544677734,0.0001779666927177459,0.004560661967843771
151.0,258.0,0.4953,0.1974,9.3206,-0.0189,0.0154,-0.1116,-2.008500715295309,-0.0007180899847298861,3.698861598968506,-1.5046781301498413,0.004468671046197414,2.0446572303771973,4.98040126541213,-0.00026764563517645,0.21975651383399963,-1.665605370198385,9.509695519227535e-05,0.012788654305040836,1.3715349435806274,0.0,-0.0003181883948855102,0.8241657614707947,0.00014417558850254864,-0.051862914115190506
151.0,258.0,0.4953,0.1974,9.3206,-0.0189,0.0154,-0.1116,-2.00846066097402,-0.0005467789596877992,3.692533254623413,-1.5045770406723022,0.005754199344664812,2.111279010772705,4.980377244740286,-0.000259427324635908,0.2347019910812378,-1.6656611601458948,8.817334310151637e-05,0.021198982372879982,1.3714746236801147,0.0,-0.009307153522968292,0.824177622795105,9.320295794168487e-05,-0.012205788865685463
151.0,258.0,0.4953,0.1974,9.3206,-0.0189,0.0154,-0.1116,-2.0084601841368617,-0.000495763320941478,3.693178653717041,-1.5045124292373657,0.0069983224384486675,2.0661723613739014,4.980432945280828,-0.00022674309730064124,0.22113242745399475,-1.665661636983053,9.147501987172291e-05,0.008604293689131737,1.3714905977249146,0.0,-0.005322522483766079,0.8242141008377075,8.445354615105316e-05,-0.012314906343817711
151.0,258.0,0.4953,0.1974,9.3206,-0.0189,0.0154,-0.1116,-2.0084763966002406,-0.00041087804129347205,3.732908248901367,-1.5045132637023926,0.007832895033061504,2.0836753845214844,4.980364876776495,-0.0002013716148212552,0.2257309854030609,-1.6656573454486292,9.467481140745804e-05,0.004863350186496973,1.3714988231658936,0.0,0.005143394228070974,0.8242261409759521,-5.8120825997320935e-05,0.02083364501595497
151.0,258.0,0.4953,0.1974,9.3206,-0.0189,0.0154,-0.1116,-2.0084763966002406,-0.00026220237486995757,3.7374625205993652,-1.504441738128662,0.009255722165107727,2.1227641105651855,4.980401235609808,-0.00019684861763380468,0.23495061695575714,-1.6656692663775843,8.847237040754408e-05,0.010537834838032722,1.3715267181396484,0.0,-0.0025903687346726656,0.8241817355155945,-5.153136589797214e-05,-0.003767961636185646
152.0,256.0,0.5324,0.0993,9.7328,-0.0325,0.025,-0.1008,-2.0084926090636195,-0.0002678136224858463,3.706338405609131,-1.5044255256652832,0.010363893583416939,2.102505683898926,4.980405348330297,-0.00018629530677571893,0.22198550403118134,-1.665661636983053,8.432757022092119e-05,0.008372265845537186,1.3714988231658936,0.0,-0.0059685721062123775,0.8241739869117737,-7.114483014447615e-05,-0.0052803559228777885
152.0,256.0,0.5324,0.0993,9.7328,-0.0325,0.025,-0.1008,-2.00848450283193,-0.000306240952340886,3.7040483951568604,-1.5042895078659058,0.011203987523913383,2.089804172515869,4.980373012810507,-0.0001960707304533571,0.2228410840034485,-1.6656416098224085,9.0522960817907e-05,0.017834801226854324,1.3714462518692017,0.0,-0.0009037595591507852,0.8241578340530396,-8.785085810814053e-05,-0.031769901514053345
152.0,256.0,0.5324,0.0993,9.7328,-0.0325,0.025,-0.1008,-2.008444448510641,-0.00045560867874883115,3.6696550846099854,-1.5042335987091064,0.01240442879498005,2.115419864654541,4.980405318527975,-0.00017443155229557306,0.2192678451538086,-1.6656654516803187,8.86873749550432e-05,0.020059242844581604,1.3714988231658936,0.0,-0.001848201034590602,0.8241940140724182,-8.012415491975844e-05,0.02621554583311081
152.0,256.0,0.5324,0.0993,9.7328,-0.0325,0.025,-0.1008,-2.0084763966002406,-0.0010526644764468074,3.688875198364258,-1.5041651725769043,0.013949386775493622,2.079216718673706,4.980357008963384,-0.0009917686693370342,0.2237539291381836,-1.6656296888934534,8.509376493748277e-05,0.013044977560639381,1.3715070486068726,0.0,-0.0033669963013380766,0.8242223858833313,-8.746205276111141e-05,0.023653723299503326
152.0,256.0,0.5324,0.0993,9.7328,-0.0325,0.025,-0.1008,-2.008467813531393,-0.0012656968319788575,3.6791670322418213,-1.5040656328201294,0.014916544780135155,2.1082675457000732,4.980361151486196,-0.0015585076762363315,0.22759559750556946,-1.6656530539142054,8.178001007763669e-05,0.025495540350675583,1.3714869022369385,0.0,0.003966766409575939,0.8242305517196655,-8.835619519231841e-05,0.013563184067606926
152.0,256.0,0.5324,0.0993,9.7328,-0.0325,0.025,-0.1008,-2.00854029277944,-0.0016994322650134563,3.687206983566284,-1.5038599967956543,0.017461394891142845,2.049384117126465,4.980365264206686,-0.0017186033073812723,0.21618381142616272,-1.665677849446432,7.774327968945727e-05,0.015575842931866646,1.371518611907959,0.0,-0.007875418290495872,0.8242063522338867,-6.619250780204311e-05,-0.03471001237630844
152.0,256.0,0.5324,0.0993,9.7328,-0.0325,0.025,-0.1008,-2.0085565052428187,-0.0019079983467236161,3.6689863204956055,-1.5037732124328613,0.019475890323519707,2.1216602325439453,4.98034559467391,-0.0017147947801277041,0.2151479423046112,-1.6656292120562952,7.496790931327268e-05,0.012241055257618427,1.3715147972106934,0.0,-0.01048026792705059,0.8242385387420654,-6.214380118763074e-05,0.0009562119375914335
152.0,256.0,0.5324,0.0993,9.7328,-0.0325,0.025,-0.1008,-2.00854029277944,-0.002465727971866727,3.636687994003296,-1.5036731958389282,0.02245122753083706,2.1098101139068604,4.98036156871871,-0.0014503365382552147,0.21986475586891174,-1.6656892935382288,7.238392572617158e-05,0.008566108532249928,1.371458649635315,0.0,-0.017289889976382256,0.8241817355155945,-5.908405364607461e-05,0.0009858068078756332
152.0,256.0,0.5324,0.0993,9.7328,-0.0325,0.025,-0.1008,-2.008604665795797,-0.0028812086675316095,3.6496410369873047,-1.5034937858581543,0.025891385972499847,2.0882833003997803,4.980329292803564,-0.0009126765071414411,0.210313618183136,-1.6656535307513636,1.778086334525142e-05,0.008421801030635834,1.371506690979004,0.0,-0.0027060031425207853,0.8242021799087524,-2.5290555640822276e-05,-0.02653690055012703
152.0,256.0,0.5324,0.0993,9.7328,-0.0325,0.025,-0.1008,-2.008616109887594,-0.003206262132152915,3.640925168991089,-1.5033057928085327,0.028568491339683533,2.128229856491089,4.980321454792776,-0.0006785126170143485,0.2203781008720398,-1.6656573454486292,4.94936847061922e-09,0.01390869915485382,1.3714746236801147,0.0,-0.004141734912991524,0.8242585062980652,-2.32229103858117e-05,0.022673532366752625
