ramyac6/ROB537/final_project/csv/good/good_159.csv
tof_0,tof_1,accelx,accely,accelz,gyrox,gyroy,gyroz,shoulder_lift_joint_position,shoulder_lift_joint_velocity,shoulder_lift_joint_effort,elbow_joint_position,elbow_joint_velocity,elbow_joint_effort,wrist_1_joint_position,wrist_1_joint_velocity,wrist_1_joint_effort,wrist_2_joint_position,wrist_2_joint_velocity,wrist_2_joint_effort,wrist_3_joint_position,wrist_3_joint_velocity,wrist_3_joint_effort,shoulder_pan_joint_position,shoulder_pan_joint_velocity,shoulder_pan_joint_effort
559.0,1090.0,0.2991,-0.1364,10.0349,-0.0289,0.011,-0.11,-1.5977159939207972,0.0,1.4568397998809814,-2.5176212787628174,-0.0,1.3212099075317383,5.543336200505056,0.0,0.2838614583015442,-1.583341423665182,0.0,-0.013998523354530334,0.8532388210296631,0.0,0.0017042426625266671,0.7783863544464111,0.0,-0.04124303534626961
559.0,1090.0,0.2991,-0.1364,10.0349,-0.0289,0.011,-0.11,-1.597692152062887,0.0,1.465598464012146,-2.517693519592285,-0.0,1.348268747329712,5.543340253620901,0.0,0.2826632261276245,-1.5833457151996058,0.0,-0.006834927946329117,0.8532873392105103,0.0,0.0008927043527364731,0.7784386277198792,0.0,-0.012344038113951683
559.0,1090.0,0.2991,-0.1364,10.0349,-0.0289,0.011,-0.11,-1.5977002582945765,0.0,1.4587171077728271,-2.517637014389038,-0.0,1.3417069911956787,5.543372916966238,0.0,0.29133713245391846,-1.5833500067340296,0.0,-0.0044487239792943,0.8533032536506653,0.0,-0.0026412555016577244,0.7784143686294556,0.0,-0.028321951627731323
559.0,1090.0,0.2991,-0.1364,10.0349,-0.0289,0.011,-0.11,-1.5977117023863734,0.0,1.4369490146636963,-2.517653465270996,-0.0,1.376490831375122,5.543336140900411,0.0,0.2870742678642273,-1.5833056608783167,0.0,0.003315375652164221,0.8532394766807556,0.0,0.00013182172551751137,0.778491199016571,0.0,-0.012328118085861206
559.0,1090.0,0.2991,-0.1364,10.0349,-0.0289,0.011,-0.11,-1.5977002582945765,0.0,1.4420077800750732,-2.5176212787628174,-0.0,1.329263687133789,5.543332087784567,0.0,0.2857046127319336,-1.5833824316607874,0.0,-0.0017086425796151161,0.853191614151001,0.0,-0.004615651443600655,0.7784385681152344,0.0,0.04923458397388458
559.0,1090.0,0.2991,-0.1364,10.0349,-0.0289,0.011,-0.11,-1.5977522335448207,0.0,1.476544737815857,-2.5176656246185303,-0.0,1.392570972442627,5.543372857361593,0.0,0.28430408239364624,-1.5833905378924769,0.0,-0.020403960719704628,0.853259265422821,0.0,-0.004426090512424707,0.7784267067909241,0.0,-0.009654904715716839
8190.0,8190.0,0.5791,-0.058,9.4911,-0.0386,0.0249,-0.1187,-1.5977078876891078,0.0,1.451827049255371,-2.517673969268799,-0.0,1.3048908710479736,5.543340849667349,0.0,0.28710198402404785,-1.583301846181051,0.0,-0.006616785190999508,0.8532346487045288,0.0,0.002447939943522215,0.7784385681152344,0.0,-0.005452727898955345
8190.0,8190.0,0.5791,-0.058,9.4911,-0.0386,0.0249,-0.1187,-1.5976840458311976,0.0,1.4974734783172607,-2.5176491737365723,-0.0,1.3260655403137207,5.543381261616506,0.0,0.28747421503067017,-1.5833385626422327,0.0,-0.006998601369559765,0.8532631397247314,0.0,-0.019380122423171997,0.7784146070480347,0.0,0.03827288746833801
8190.0,8190.0,0.5791,-0.058,9.4911,-0.0386,0.0249,-0.1187,-1.597692152062887,0.0,1.4478163719177246,-2.5176451206207275,-0.0,1.3212194442749023,5.543384837895193,0.0,0.2936088442802429,-1.5832975546466272,0.0,-0.0031879914458841085,0.8532831072807312,0.0,-0.0013176657957956195,0.7784386277198792,0.0,0.037315744906663895
8190.0,8190.0,0.5791,-0.058,9.4911,-0.0386,0.0249,-0.1187,-1.5977117023863734,0.0,1.4612255096435547,-2.5176615715026855,-0.0,1.327061414718628,5.54334448555068,0.0,0.2723830044269562,-1.5833423773394983,0.0,-0.003298359690234065,0.8532273769378662,0.0,-0.007141280919313431,0.7783941030502319,0.0,0.007207998540252447
8190.0,8190.0,0.5791,-0.058,9.4911,-0.0386,0.0249,-0.1187,-1.5976759395995082,0.0,1.4165990352630615,-2.517693519592285,-0.0,1.3386496305465698,5.543365227967062,0.0,0.2841874361038208,-1.5833423773394983,0.0,-0.007108180783689022,0.8532075881958008,0.0,0.0006936476565897465,0.7784143686294556,0.0,-0.016248540952801704
8190.0,8190.0,0.5791,-0.058,9.4911,-0.0386,0.0249,-0.1187,-1.597652097741598,0.0,1.425841212272644,-2.517629384994507,-0.0,1.31160569190979,5.543365227967062,0.0,0.2827533483505249,-1.5833342711078089,0.0,-0.018528610467910767,0.8532354235649109,0.0,-0.008998703211545944,0.7784385681152344,0.0,0.017958007752895355
8190.0,8190.0,0.5791,-0.058,9.4911,-0.0386,0.0249,-0.1187,-1.5977159939207972,0.0,1.475293517112732,-2.517690420150757,-0.0,1.3695933818817139,5.5432960269744775,0.0,0.29002952575683594,-1.583329979573385,0.0,-0.005986518692225218,0.8532235026359558,0.0,0.0027597316075116396,0.7783617973327637,0.0,-0.03310460224747658
8190.0,8190.0,0.5791,-0.058,9.4911,-0.0386,0.0249,-0.1187,-1.5976959667601527,0.0,1.4506882429122925,-2.517673969268799,-0.0,1.3202192783355713,5.543332028179922,0.0,0.29547715187072754,-1.5832932631122034,0.0,-0.02118699438869953,0.8532273769378662,0.0,-0.012339592911303043,0.7784631252288818,0.0,-0.014184979721903801
8190.0,8190.0,0.5791,-0.058,9.4911,-0.0386,0.0249,-0.1187,-1.5977241001524867,0.0,1.4241909980773926,-2.51769757270813,-0.0,1.3420863151550293,5.543356883316793,0.0,0.2834623456001282,-1.583301846181051,0.0,-0.013949264772236347,0.8532388210296631,0.0,-0.002896658144891262,0.7784385681152344,0.0,-0.003082877956330776
8190.0,8190.0,0.5791,-0.058,9.4911,-0.0386,0.0249,-0.1187,-1.5976764164366664,0.0,1.4318475723266602,-2.517669916152954,-0.0,1.39878511428833,5.543384837895193,0.0,0.2777157723903656,-1.5833538214312952,0.0,-0.015334480442106724,0.8532466888427734,0.0,-0.0020108495373278856,0.7783982157707214,0.0,-0.03762354329228401
8190.0,8190.0,0.5791,-0.058,9.4911,-0.0386,0.0249,-0.1187,-1.5977360210814417,0.0,1.4471004009246826,-2.517673969268799,-0.0,1.3389644622802734,5.543384837895193,0.0,0.28392812609672546,-1.5833457151996058,0.0,-0.012186678126454353,0.8532313704490662,0.0,0.011298881843686104,0.7784509658813477,0.0,-0.007390078157186508
606.0,8190.0,0.597,-0.0108,9.4935,-0.0394,0.0218,-0.113,-1.597743650475973,0.0,1.429850697517395,-2.517657518386841,-0.0,1.3424592018127441,5.543361115246572,0.0,0.3048970401287079,-1.5832975546466272,0.0,-0.020295169204473495,0.8532426953315735,0.0,-0.009930530562996864,0.7784385681152344,0.0,0.009096397086977959
606.0,8190.0,0.597,-0.0108,9.4935,-0.0394,0.0218,-0.113,-1.5977002582945765,0.0,1.4445455074310303,-2.51769757270813,-0.0,1.3571932315826416,5.543332087784567,0.0,0.2821587920188904,-1.583358112965719,0.0,-0.011034905910491943,0.8532193303108215,0.0,-0.008467663079500198,0.7784549593925476,0.0,0.0007126969285309315
606.0,8190.0,0.597,-0.0108,9.4935,-0.0394,0.0218,-0.113,-1.5976797542967738,0.0,1.4616628885269165,-2.5176491737365723,-0.0,1.3474602699279785,5.543352770596304,0.0,0.2891886532306671,-1.5833748022662562,0.0,0.0005663078045472503,0.8532553911209106,0.0,-0.00046253111213445663,0.7784870862960815,0.0,0.03366634622216225
606.0,8190.0,0.597,-0.0108,9.4935,-0.0394,0.0218,-0.113,-1.5977198086180628,0.0,1.473104476928711,-2.517673969268799,-0.0,1.319481611251831,5.543336140900411,0.0,0.2872769236564636,-1.5833218733416956,0.0,-0.006711713969707489,0.8531874418258667,0.0,0.001402965048328042,0.7783982157707214,0.0,0.019150730222463608
606.0,8190.0,0.597,-0.0108,9.4935,-0.0394,0.0218,-0.113,-1.5977198086180628,0.0,1.436793327331543,-2.5176491737365723,-0.0,1.326596975326538,5.543300080090322,0.0,0.2971194088459015,-1.5833342711078089,0.0,0.006504237186163664,0.8532472252845764,0.0,-0.0017489483579993248,0.7784303426742554,0.0,-0.025380875915288925
606.0,8190.0,0.597,-0.0108,9.4935,-0.0394,0.0218,-0.113,-1.5977117023863734,0.0,1.5015777349472046,-2.517629384994507,-0.0,1.300201654434204,5.543385255127706,0.0,0.27747488021850586,-1.583358112965719,0.0,-0.0019064457155764103,0.8531916737556458,0.0,-0.008281290531158447,0.7784303426742554,0.0,-0.006953420117497444
606.0,8190.0,0.597,-0.0108,9.4935,-0.0394,0.0218,-0.113,-1.597731729547018,0.0,1.4067554473876953,-2.517714262008667,-0.0,1.3343331813812256,5.54334448555068,0.0,0.28272736072540283,-1.5833423773394983,0.0,-0.014960264787077904,0.8532394170761108,0.0,0.003914650995284319,0.7783982157707214,0.0,0.01789219304919243
606.0,8190.0,0.597,-0.0108,9.4935,-0.0394,0.0218,-0.113,-1.5976916752257289,0.0,1.4403700828552246,-2.5176491737365723,-0.0,1.3593389987945557,5.543393122940817,0.0,0.29125553369522095,-1.5833662191974085,0.0,-0.018549948930740356,0.8531795144081116,0.0,-0.004902614746242762,0.7784105539321899,0.0,-0.021505745127797127
606.0,8190.0,0.597,-0.0108,9.4935,-0.0394,0.0218,-0.113,-1.5977117023863734,0.0,1.4094274044036865,-2.5176451206207275,-0.0,1.331261396408081,5.543348717480459,0.0,0.2841465473175049,-1.583329979573385,0.0,-0.007536250166594982,0.8532114624977112,0.0,-0.010277669876813889,0.7784303426742554,0.0,-0.01265455037355423
606.0,8190.0,0.597,-0.0108,9.4935,-0.0394,0.0218,-0.113,-1.5977121792235316,0.0,1.445690631866455,-2.517601490020752,-0.0,1.3332486152648926,5.543380725174703,0.0,0.27847200632095337,-1.583358112965719,0.0,0.005296106915920973,0.8532790541648865,0.0,0.003120332956314087,0.7784303426742554,0.0,0.04210395738482475
606.0,8190.0,0.597,-0.0108,9.4935,-0.0394,0.0218,-0.113,-1.5977322063841761,0.0,1.4199961423873901,-2.517669916152954,-0.0,1.3466582298278809,5.543348717480459,0.0,0.2944464087486267,-1.5833466688739222,0.0,-0.010586144402623177,0.8531916737556458,0.0,-0.01937372237443924,0.7784222364425659,0.0,-0.017027150839567184
547.0,8190.0,0.5456,-0.0832,9.6209,-0.042,0.0199,-0.1197,-1.5977159939207972,0.0,1.4384748935699463,-2.51769757270813,-0.0,1.3159842491149902,5.543336200505056,0.0,0.29711735248565674,-1.5833175818072718,0.0,-0.0045778569765388966,0.8532235026359558,0.0,0.005276964046061039,0.7784304022789001,0.0,0.0027721356600522995
547.0,8190.0,0.5456,-0.0832,9.6209,-0.042,0.0199,-0.1197,-1.5977117023863734,0.0,1.4349799156188965,-2.517673969268799,-0.0,1.2882640361785889,5.543377148896017,0.0,0.2876906394958496,-1.5833538214312952,0.0,-0.006172735244035721,0.8532306551933289,0.0,0.0037716422230005264,0.7784508466720581,0.0,0.0189152080565691
547.0,8190.0,0.5456,-0.0832,9.6209,-0.042,0.0199,-0.1197,-1.5977360210814417,0.0,1.450569748878479,-2.517686367034912,-0.0,1.29585862159729,5.543384837895193,0.0,0.28434517979621887,-1.5833385626422327,0.0,-0.0006634009769186378,0.8531477451324463,0.0,-0.007085475139319897,0.7784548997879028,0.0,-0.037654679268598557
547.0,8190.0,0.5456,-0.0832,9.6209,-0.042,0.0199,-0.1197,-1.5977360210814417,0.0,1.4740443229675293,-2.5176212787628174,-0.0,1.3382328748703003,5.543376612454214,0.0,0.28919047117233276,-1.5833662191974085,0.0,-0.013969159685075283,0.8531635999679565,0.0,0.005640833638608456,0.7783821821212769,0.0,-0.058630894869565964
547.0,8190.0,0.5456,-0.0832,9.6209,-0.042,0.0199,-0.1197,-1.5976878605284632,0.0,1.4158909320831299,-2.5176780223846436,-0.0,1.2984144687652588,5.543336140900411,0.0,0.2785871922969818,-1.5833824316607874,0.0,-0.015670116990804672,0.8531954288482666,0.0,-0.0020048366859555244,0.7784023284912109,0.0,-0.03795124590396881
547.0,8190.0,0.5456,-0.0832,9.6209,-0.042,0.0199,-0.1197,-1.5977360210814417,0.0,1.443220615386963,-2.5176854133605957,-0.0,1.3228497505187988,5.543361115246572,0.0,0.2938072085380554,-1.583358112965719,0.0,-0.01366412453353405,0.8532313704490662,0.0,-0.001095979823730886,0.7784226536750793,0.0,0.013788553886115551
547.0,8190.0,0.5456,-0.0832,9.6209,-0.042,0.0199,-0.1197,-1.5977040729918421,0.0,1.3991649150848389,-2.5176451206207275,-0.0,1.3245688676834106,5.543344664364614,0.0,0.2851221561431885,-1.5833457151996058,0.0,-0.013365516439080238,0.8532273769378662,0.0,0.0007970334263518453,0.7784386277198792,0.0,0.0015529496595263481
547.0,8190.0,0.5456,-0.0832,9.6209,-0.042,0.0199,-0.1197,-1.5977159939207972,0.0,1.4010730981826782,-2.5176615715026855,-0.0,1.3635764122009277,5.543380725174703,0.0,0.2834368348121643,-1.5833137671100062,0.0,0.0034137917682528496,0.8531675338745117,0.0,-0.0072093079797923565,0.7784426808357239,0.0,-0.005702304653823376
547.0,8190.0,0.5456,-0.0832,9.6209,-0.042,0.0199,-0.1197,-1.5977159939207972,0.0,1.448209285736084,-2.5176334381103516,-0.0,1.3206629753112793,5.543377148896017,0.0,0.2844199538230896,-1.583301846181051,0.0,0.00041687325574457645,0.8532153964042664,0.0,-0.001861759927123785,0.7784870862960815,0.0,0.01200285367667675
547.0,8190.0,0.5456,-0.0832,9.6209,-0.042,0.0199,-0.1197,-1.597764631310934,0.0,1.4543569087982178,-2.51764178276062,-0.0,1.333471417427063,5.543348717480459,0.0,0.2941049337387085,-1.5833342711078089,0.0,-0.012118369340896606,0.8532153964042664,0.0,-0.000263772439211607,0.7784225940704346,0.0,-0.01757723093032837
547.0,8190.0,0.5456,-0.0832,9.6209,-0.042,0.0199,-0.1197,-1.5977565250792445,0.0,1.447633981704712,-2.517657518386841,-0.0,1.304591417312622,5.543364691525259,0.0,0.28767192363739014,-1.5833175818072718,0.0,-0.006209775805473328,0.8531917333602905,0.0,0.015775520354509354,0.7784303426742554,0.0,-0.01388121023774147
586.0,8190.0,0.6185,-0.079,9.4887,-0.035,0.0252,-0.1223,-1.597708364526266,0.0,1.4583263397216797,-2.5176820755004883,-0.0,1.372445821762085,5.543348598271169,0.0,0.2884525954723358,-1.5833538214312952,0.0,-0.012225707992911339,0.8532346487045288,0.0,0.009400212205946445,0.7783944606781006,0.0,0.032857511192560196
586.0,8190.0,0.6185,-0.079,9.4887,-0.035,0.0252,-0.1223,-1.597720285455221,0.0,1.4621745347976685,-2.5176656246185303,-0.0,1.381091833114624,5.5433000204856775,0.0,0.2793199121952057,-1.5833342711078089,0.0,-0.002540507586672902,0.8532235622406006,0.0,-0.014473017305135727,0.7784549593925476,0.0,0.029618745669722557
586.0,8190.0,0.6185,-0.079,9.4887,-0.035,0.0252,-0.1223,-1.5976840458311976,0.0,1.4610172510147095,-2.5176491737365723,-0.0,1.3445725440979004,5.543381261616506,0.0,0.2812068462371826,-1.583329979573385,0.0,-0.0051372116431593895,0.8532426357269287,0.0,-0.0026870144065469503,0.7784102559089661,0.0,0.002438400639221072
586.0,8190.0,0.6185,-0.079,9.4887,-0.035,0.0252,-0.1223,-1.5977360210814417,0.0,1.458378553390503,-2.517657518386841,-0.0,1.357171654701233,5.543368804245748,0.0,0.2999228239059448,-1.583341423665182,0.0,-0.007017361931502819,0.8532553911209106,0.0,0.005743855144828558,0.7784185409545898,0.0,0.00887313112616539
586.0,8190.0,0.6185,-0.079,9.4887,-0.035,0.0252,-0.1223,-1.5977159939207972,0.0,1.4589452743530273,-2.517657518386841,-0.0,1.3446037769317627,5.543327975064077,0.0,0.28811410069465637,-1.5833094755755823,0.0,-0.009934145025908947,0.8532266616821289,0.0,-0.0002152399392798543,0.7784185409545898,0.0,0.012236627750098705
586.0,8190.0,0.6185,-0.079,9.4887,-0.035,0.0252,-0.1223,-1.5977241001524867,0.0,1.4744620323181152,-2.517629384994507,-0.0,1.3586410284042358,5.543376612454214,0.0,0.2907226085662842,-1.5833056608783167,0.0,-0.01597096398472786,0.8532950282096863,0.0,-0.003953037317842245,0.7784344553947449,0.0,0.005820537451654673
586.0,8190.0,0.6185,-0.079,9.4887,-0.035,0.0252,-0.1223,-1.5976916752257289,0.0,1.4061083793640137,-2.5176451206207275,-0.0,1.383163571357727,5.5434250114257715,0.0,0.2919771075248718,-1.5833662191974085,0.0,-0.008428920991718769,0.8532346487045288,0.0,-0.0064894030801951885,0.7784303426742554,0.0,0.00701956357806921
586.0,8190.0,0.6185,-0.079,9.4887,-0.035,0.0252,-0.1223,-1.597652097741598,0.0,1.4742300510406494,-2.5176377296447754,-0.0,1.3431645631790161,5.543368804245748,0.0,0.3009084165096283,-1.5833500067340296,0.0,-0.0171001348644495,0.8532153964042664,0.0,-0.007657679729163647,0.7784063816070557,0.0,0.00428807782009244
586.0,8190.0,0.6185,-0.079,9.4887,-0.035,0.0252,-0.1223,-1.5977241001524867,0.0,1.4505305290222168,-2.517657518386841,-0.0,1.3542940616607666,5.543316054135122,0.0,0.2734241187572479,-1.583329979573385,0.0,0.005162886343896389,0.8532273769378662,0.0,0.0020148069597780704,0.7785030603408813,0.0,0.03173961117863655
586.0,8190.0,0.6185,-0.079,9.4887,-0.035,0.0252,-0.1223,-1.5977002582945765,0.0,1.43605637550354,-2.517686367034912,-0.0,1.322645664215088,5.543332087784567,0.0,0.2801280915737152,-1.583329979573385,0.0,-0.0027478386182338,0.8532193899154663,0.0,-0.000983897945843637,0.7784262895584106,0.0,0.005708999466150999
586.0,8190.0,0.6185,-0.079,9.4887,-0.035,0.0252,-0.1223,-1.5976997814574183,0.0,1.4758915901184082,-2.5176451206207275,-0.0,1.308885097503662,5.543376672058859,0.0,0.29046326875686646,-1.5833094755755823,0.0,-0.004492802545428276,0.8532388210296631,0.0,-0.0004372171824797988,0.7784023880958557,0.0,-0.011980483308434486
557.0,8190.0,0.6389,-0.0473,9.4726,-0.0316,0.0257,-0.1222,-1.5976840458311976,0.0,1.4270360469818115,-2.5176451206207275,-0.0,1.3288660049438477,5.543368804245748,0.0,0.28241997957229614,-1.5833423773394983,0.0,-0.008372383192181587,0.8532313704490662,0.0,-0.005544640589505434,0.7784102559089661,0.0,0.0025212247855961323
557.0,8190.0,0.6389,-0.0473,9.4726,-0.0316,0.0257,-0.1222,-1.5977560482420863,0.0,1.4693338871002197,-2.5176212787628174,-0.0,1.3633308410644531,5.543384778290548,0.0,0.28248703479766846,-1.5833385626422327,0.0,-0.012632528319954872,0.8532713055610657,0.0,0.00686753261834383,0.7784105539321899,0.0,0.024963296949863434
557.0,8190.0,0.6389,-0.0473,9.4726,-0.0316,0.0257,-0.1222,-1.5976878605284632,0.0,1.4238941669464111,-2.51769757270813,-0.0,1.3415799140930176,5.543360638409414,0.0,0.2905921936035156,-1.583329979573385,0.0,-0.01689445599913597,0.8533267974853516,0.0,0.008271867409348488,0.7783863544464111,0.0,0.03464280068874359
557.0,8190.0,0.6389,-0.0473,9.4726,-0.0316,0.0257,-0.1222,-1.5977159939207972,0.0,1.4197652339935303,-2.5177340507507324,-0.0,1.3714234828948975,5.543368804245748,0.0,0.29248061776161194,-1.5833342711078089,0.0,-0.01917920634150505,0.8532388210296631,0.0,-0.005585306789726019,0.7784627079963684,0.0,-0.00977397058159113
557.0,8190.0,0.6389,-0.0473,9.4726,-0.0316,0.0257,-0.1222,-1.5977117023863734,0.0,1.4887635707855225,-2.5177018642425537,-0.0,1.335741400718689,5.543413269310751,0.0,0.28898507356643677,-1.5833385626422327,0.0,0.0011726187076419592,0.8531914949417114,0.0,-0.007105449214577675,0.7784023284912109,0.0,0.029604781419038773
557.0,8190.0,0.6389,-0.0473,9.4726,-0.0316,0.0257,-0.1222,-1.597692152062887,0.0,1.4628605842590332,-2.517693519592285,-0.0,1.3319482803344727,5.543377148896017,0.0,0.29037195444107056,-1.5833342711078089,0.0,-0.013645945116877556,0.8532154560089111,0.0,0.005567530170083046,0.7784709334373474,0.0,0.0302453450858593
557.0,8190.0,0.6389,-0.0473,9.4726,-0.0316,0.0257,-0.1222,-1.5977078876891078,0.0,1.4478040933609009,-2.517673969268799,-0.0,1.3307538032531738,5.543380725174703,0.0,0.28882819414138794,-1.5833781401263636,0.0,-0.017949847504496574,0.8532750606536865,0.0,-0.011080076918005943,0.7784585952758789,0.0,0.0595669224858284
557.0,8190.0,0.6389,-0.0473,9.4726,-0.0316,0.0257,-0.1222,-1.5977441273131312,0.0,1.4351141452789307,-2.5176451206207275,-0.0,1.3339015245437622,5.543336140900411,0.0,0.2878193259239197,-1.5833175818072718,0.0,-0.007130954880267382,0.8532313704490662,0.0,-0.012195654213428497,0.7784627079963684,0.0,0.016773652285337448
557.0,8190.0,0.6389,-0.0473,9.4726,-0.0316,0.0257,-0.1222,-1.5977078876891078,0.0,1.4283467531204224,-2.5176169872283936,-0.0,1.327906847000122,5.543385314732351,0.0,0.27736610174179077,-1.5833218733416956,0.0,-0.014244984835386276,0.8532592058181763,0.0,-0.0034615639597177505,0.7784708738327026,0.0,-0.01888924650847912
557.0,8190.0,0.6389,-0.0473,9.4726,-0.0316,0.0257,-0.1222,-1.5977241001524867,0.0,1.4623087644577026,-2.517637014389038,-0.0,1.2862446308135986,5.543356883316793,0.0,0.292802095413208,-1.5833342711078089,0.0,-0.0029048549477010965,0.8532154560089111,0.0,0.003273587441071868,0.7784585952758789,0.0,0.034502048045396805
557.0,8190.0,0.6389,-0.0473,9.4726,-0.0316,0.0257,-0.1222,-1.59776033977651,0.0,1.4562729597091675,-2.517653465270996,-0.0,1.3424941301345825,5.543368804245748,0.0,0.2822781503200531,-1.5833175818072718,0.0,-0.012442652136087418,0.8531917333602905,0.0,0.0028783692978322506,0.7784103155136108,0.0,0.005402620416134596
557.0,8190.0,0.6389,-0.0473,9.4726,-0.0316,0.0257,-0.1222,-1.5976878605284632,0.0,1.4428069591522217,-2.5176780223846436,-0.0,1.3589297533035278,5.543361115246572,0.0,0.28426966071128845,-1.5833457151996058,0.0,-0.005464969668537378,0.8532512187957764,0.0,-0.011483365669846535,0.7783981561660767,0.0,0.0036797714419662952
584.0,8190.0,0.5145,-0.0508,9.6664,-0.0339,0.0212,-0.1176,-1.5977117023863734,0.0,1.4686801433563232,-2.5176780223846436,-0.0,1.2915527820587158,5.543364751129904,0.0,0.2810724973678589,-1.583329979573385,0.0,-0.00961566437035799,0.8532194495201111,0.0,0.002305972622707486,0.7784303426742554,0.0,0.008263406343758106
584.0,8190.0,0.5145,-0.0508,9.6664,-0.0339,0.0212,-0.1176,-1.5977117023863734,0.0,1.4632301330566406,-2.517625331878662,-0.0,1.3055697679519653,5.543372559338369,0.0,0.2894493043422699,-1.583301846181051,0.0,-0.0058370111510157585,0.853203535079956,0.0,0.008576138876378536,0.7784185409545898,0.0,-0.013795599341392517
584.0,8190.0,0.5145,-0.0508,9.6664,-0.0339,0.0212,-0.1176,-1.5977159939207972,0.0,1.4593560695648193,-2.517669916152954,-0.0,1.3119548559188843,5.543396758824148,0.0,0.28368842601776123,-1.5833137671100062,0.0,-0.018539201468229294,0.8532750606536865,0.0,-0.0014310223050415516,0.7784508466720581,0.0,-0.006351401098072529
584.0,8190.0,0.5145,-0.0508,9.6664,-0.0339,0.0212,-0.1176,-1.5977117023863734,0.0,1.4738962650299072,-2.517669916152954,-0.0,1.3302228450775146,5.5433446047599695,0.0,0.3014175295829773,-1.5833342711078089,0.0,-0.007661967538297176,0.8532631993293762,0.0,0.0004150944296270609,0.7784102559089661,0.0,0.020102031528949738
584.0,8190.0,0.5145,-0.0508,9.6664,-0.0339,0.0212,-0.1176,-1.5977078876891078,0.0,1.445476770401001,-2.517657518386841,-0.0,1.3282870054244995,5.543368804245748,0.0,0.2928212881088257,-1.5833261648761194,0.0,0.006720400415360928,0.8531995415687561,0.0,0.0007210918702185154,0.7784626483917236,0.0,0.013163607567548752
584.0,8190.0,0.5145,-0.0508,9.6664,-0.0339,0.0212,-0.1176,-1.5976840458311976,0.0,1.4701122045516968,-2.517653226852417,-0.0,1.3272054195404053,5.543360638409414,0.0,0.30357810854911804,-1.5833423773394983,0.0,-0.009085075929760933,0.8532512187957764,0.0,-0.006611896678805351,0.7784345149993896,0.0,0.016485068947076797
584.0,8190.0,0.5145,-0.0508,9.6664,-0.0339,0.0212,-0.1176,-1.5976878605284632,0.0,1.4353339672088623,-2.517702102661133,-0.0,1.3366544246673584,5.543368863850393,0.0,0.28841060400009155,-1.5833342711078089,0.0,-0.003915825858712196,0.8532631993293762,0.0,-0.010365011170506477,0.7784185409545898,0.0,0.03991462662816048
584.0,8190.0,0.5145,-0.0508,9.6664,-0.0339,0.0212,-0.1176,-1.59776033977651,0.0,1.4418740272521973,-2.51769757270813,-0.0,1.3296717405319214,5.543360638409414,0.0,0.28397005796432495,-1.5833500067340296,0.0,-2.285378286615014e-05,0.8532194495201111,0.0,-0.008359837345778942,0.7784143686294556,0.0,0.028791509568691254
584.0,8190.0,0.5145,-0.0508,9.6664,-0.0339,0.0212,-0.1176,-1.5976878605284632,0.0,1.4737768173217773,-2.5177102088928223,-0.0,1.3095831871032715,5.543400811939993,0.0,0.2799152135848999,-1.583341423665182,0.0,0.0002071091439574957,0.8532432913780212,0.0,0.00769460154697299,0.7784267067909241,0.0,0.037093065679073334
584.0,8190.0,0.5145,-0.0508,9.6664,-0.0339,0.0212,-0.1176,-1.5976959667601527,0.0,1.4509730339050293,-2.5176615715026855,-0.0,1.3625848293304443,5.543360698014059,0.0,0.29073217511177063,-1.5833218733416956,0.0,-0.009955830872058868,0.8532388210296631,0.0,-0.0015229814453050494,0.7784467935562134,0.0,0.0028450144454836845
584.0,8190.0,0.5145,-0.0508,9.6664,-0.0339,0.0212,-0.1176,-1.5977002582945765,0.0,1.4128196239471436,-2.5176172256469727,-0.0,1.3593122959136963,5.543332087784567,0.0,0.28524935245513916,-1.5832975546466272,0.0,-0.011593875475227833,0.8531995415687561,0.0,0.0022295755334198475,0.7784385681152344,0.0,-0.029126454144716263
559.0,8190.0,0.594,-0.0562,9.5103,-0.0397,0.029,-0.1211,-1.597692152062887,0.0,1.4564588069915771,-2.517725706100464,-0.0,1.331890344619751,5.543364691525259,0.0,0.2933933734893799,-1.5833137671100062,0.0,-0.007361399941146374,0.853203535079956,0.0,0.004022468812763691,0.7784426212310791,0.0,-0.010808076709508896
559.0,8190.0,0.594,-0.0562,9.5103,-0.0397,0.029,-0.1211,-1.5977279148497523,0.0,1.4479281902313232,-2.5176780223846436,-0.0,1.3700315952301025,5.543348717480459,0.0,0.2906557321548462,-1.5833218733416956,0.0,-0.012379053980112076,0.8532426357269287,0.0,-0.002595145720988512,0.7784064412117004,0.0,-0.005735754035413265
559.0,8190.0,0.594,-0.0562,9.5103,-0.0397,0.029,-0.1211,-1.5976840458311976,0.0,1.4690368175506592,-2.51769757270813,-0.0,1.3667354583740234,5.543368804245748,0.0,0.2949601113796234,-1.5833786169635218,0.0,-0.010882238857448101,0.8532194495201111,0.0,-0.0012665278045460582,0.7784709334373474,0.0,0.027450408786535263
559.0,8190.0,0.594,-0.0562,9.5103,-0.0397,0.029,-0.1211,-1.5976878605284632,0.0,1.4292056560516357,-2.517625331878662,-0.0,1.347476601600647,5.543340253620901,0.0,0.2785174548625946,-1.5833137671100062,0.0,-0.011687465943396091,0.8532670736312866,0.0,0.0024655561428517103,0.7784788012504578,0.0,-0.02643365040421486
559.0,8190.0,0.594,-0.0562,9.5103,-0.0397,0.029,-0.1211,-1.5976721249022425,0.0,1.4277050495147705,-2.5176820755004883,-0.0,1.3597664833068848,5.54334448555068,0.0,0.29079893231391907,-1.5833261648761194,0.0,-0.015901828184723854,0.8532631397247314,0.0,-0.01177418977022171,0.7784143686294556,0.0,0.0020811017602682114
559.0,8190.0,0.594,-0.0562,9.5103,-0.0397,0.029,-0.1211,-1.5976840458311976,0.0,1.429832935333252,-2.5176451206207275,-0.0,1.3904414176940918,5.543348717480459,0.0,0.2998897135257721,-1.5833538214312952,0.0,-0.011619674041867256,0.8532313108444214,0.0,-0.00712444307282567,0.7784267067909241,0.0,0.00036223046481609344
559.0,8190.0,0.594,-0.0562,9.5103,-0.0397,0.029,-0.1211,-1.5977283916869105,0.0,1.426992416381836,-2.5176491737365723,-0.0,1.3258949518203735,5.543368804245748,0.0,0.2925461232662201,-1.5833385626422327,0.0,-0.0020359312184154987,0.8532553315162659,0.0,0.0076488894410431385,0.7783700227737427,0.0,0.035167843103408813
559.0,8190.0,0.594,-0.0562,9.5103,-0.0397,0.029,-0.1211,-1.5977117023863734,0.0,1.424670934677124,-2.5176491737365723,-0.0,1.4165877103805542,5.5433446047599695,0.0,0.285593718290329,-1.5833457151996058,0.0,-0.004831980913877487,0.8532505631446838,0.0,0.0012847130419686437,0.7784467935562134,0.0,-0.01736934669315815
559.0,8190.0,0.594,-0.0562,9.5103,-0.0397,0.029,-0.1211,-1.5977360210814417,0.0,1.4314881563186646,-2.5176491737365723,-0.0,1.33502197265625,5.5433000204856775,0.0,0.2766507863998413,-1.583341423665182,0.0,-0.013253011740744114,0.8532671332359314,-1.1713500924770415e-07,0.0034920894540846348,0.7784146070480347,0.0,0.015953291207551956
559.0,8190.0,0.594,-0.0562,9.5103,-0.0397,0.029,-0.1211,-1.5977403126158656,0.0,1.4506531953811646,-2.5176048278808594,-0.0,1.3269861936569214,5.5433528302009485,0.0,0.29413408041000366,-1.583329979573385,0.0,-0.017005398869514465,0.8532949090003967,-1.3900005820834116e-13,-0.005837215110659599,0.7784185409545898,0.0,0.0052840253338217735
559.0,8190.0,0.594,-0.0562,9.5103,-0.0397,0.029,-0.1211,-1.5976959667601527,0.0,1.4426753520965576,-2.5176780223846436,-0.0,1.3268954753875732,5.543320166855612,0.0,0.27819663286209106,-1.5833662191974085,0.0,-0.01382531225681305,0.8532388806343079,-2.5262577740076277e-18,-0.0013461030321195722,0.7784185409545898,0.0,0.012507198378443718
493.0,1083.0,0.6694,-0.0897,9.2871,-0.0371,0.0235,-0.1196,-1.597708364526266,0.0,1.4405713081359863,-2.5176491737365723,-0.0,1.3037796020507812,5.543396758824148,0.0,0.2897317409515381,-1.5833261648761194,0.0,-0.011370448395609856,0.8531917333602905,-4.5913487509508687e-23,-0.002397434785962105,0.7783899903297424,0.0,-0.023462839424610138
493.0,1083.0,0.6694,-0.0897,9.2871,-0.0371,0.0235,-0.1196,-1.5977360210814417,0.0,1.463093876838684,-2.517637014389038,-0.0,1.3023455142974854,5.543364751129904,0.0,0.28782305121421814,-1.5833175818072718,0.0,-0.015533462166786194,0.8532789945602417,-8.344549855384463e-28,0.004908525384962559,0.7784262895584106,0.0,-0.0059233070351183414
493.0,1083.0,0.6694,-0.0897,9.2871,-0.0371,0.0235,-0.1196,-1.5977159939207972,0.0,1.4436676502227783,-2.5176615715026855,-0.0,1.3301838636398315,5.54332851150588,0.0,0.29050973057746887,-1.5832698980914515,0.0,-0.015592813491821289,0.8531956076622009,-1.5165807875078734e-32,-0.0045737335458397865,0.7784548997879028,0.0,-0.004793452098965645
493.0,1083.0,0.6694,-0.0897,9.2871,-0.0371,0.0235,-0.1196,-1.5976840458311976,0.0,1.4682267904281616,-2.517641067504883,-0.0,1.3473395109176636,5.543364751129904,0.0,0.2951221466064453,-1.583374325429098,0.0,-0.004228540230542421,0.8531995415687561,-2.7563103588148282e-37,0.01340492907911539,0.7784668207168579,0.0,-0.021772215142846107
493.0,1083.0,0.6694,-0.0897,9.2871,-0.0371,0.0235,-0.1196,-1.5977002582945765,0.0,1.4304602146148682,-2.5176491737365723,-0.0,1.3349671363830566,5.543364751129904,0.0,0.2909281253814697,-1.583358112965719,0.0,-0.004616056568920612,0.8532465696334839,-5.009642009961221e-42,0.00664015207439661,0.7784549593925476,0.0,-0.03709039464592934
493.0,1083.0,0.6694,-0.0897,9.2871,-0.0371,0.0235,-0.1196,-1.5976997814574183,0.0,1.451385736465454,-2.517657518386841,-0.0,1.3128663301467896,5.543393182545461,0.0,0.28356531262397766,-1.5833705107318323,0.0,-0.011541162617504597,0.8532388210296631,-0.0,0.008816069923341274,0.7783900499343872,0.0,0.013553461991250515
493.0,1083.0,0.6694,-0.0897,9.2871,-0.0371,0.0235,-0.1196,-1.5976721249022425,0.0,1.4657485485076904,-2.517681360244751,-0.0,1.343261480331421,5.543393122940817,0.0,0.28415367007255554,-1.5833342711078089,0.0,-0.010561520233750343,0.853211522102356,-0.0,-0.005199097096920013,0.7784143686294556,0.0,0.01548922248184681
493.0,1083.0,0.6694,-0.0897,9.2871,-0.0371,0.0235,-0.1196,-1.5977360210814417,0.0,1.4231486320495605,-2.517641067504883,-0.0,1.3407645225524902,5.543364751129904,0.0,0.28058427572250366,-1.5833662191974085,0.0,-0.01928114891052246,0.8532235622406006,-0.0,-0.005651533603668213,0.7784467339515686,0.0,0.028711942955851555
493.0,1083.0,0.6694,-0.0897,9.2871,-0.0371,0.0235,-0.1196,-1.5977198086180628,0.0,1.4439102411270142,-2.5177102088928223,-0.0,1.3125537633895874,5.543389487057485,0.0,0.2883399724960327,-1.583329979573385,0.0,-0.006230826023966074,0.8532465696334839,-0.0,-0.006766910664737225,0.7784545421600342,0.0,0.028548898175358772
493.0,1083.0,0.6694,-0.0897,9.2871,-0.0371,0.0235,-0.1196,-1.597720285455221,0.0,1.439683198928833,-2.517657518386841,-0.0,1.3134169578552246,5.543381202011862,0.0,0.2918802499771118,-1.5833261648761194,0.0,-0.0036911030765622854,0.8532505035400391,-0.0,0.003996049985289574,0.7784221768379211,0.0,0.020481640473008156
493.0,1083.0,0.6694,-0.0897,9.2871,-0.0371,0.0235,-0.1196,-1.5976959667601527,0.0,1.4523470401763916,-2.5176491737365723,-0.0,1.3290131092071533,5.543380784779348,0.0,0.2846279740333557,-1.5833261648761194,0.0,-0.011994700878858566,0.8532670736312866,-0.0,-0.005563377868384123,0.7784060835838318,0.0,-0.015551617369055748
553.0,8190.0,0.5324,-0.1472,9.6174,-0.0391,0.0171,-0.1107,-1.5977040729918421,0.0,1.4132599830627441,-2.5176451206207275,-0.0,1.3653560876846313,5.543304073601522,0.0,0.2904466390609741,-1.583358112965719,0.0,-0.00955883413553238,0.8532750010490417,-0.0,-0.0024784617125988007,0.7784345149993896,0.0,-0.003948315978050232
553.0,8190.0,0.5324,-0.1472,9.6174,-0.0391,0.0171,-0.1107,-1.5976997814574183,0.0,1.4571832418441772,-2.517657518386841,-0.0,1.3052399158477783,5.543320166855612,0.0,0.29051855206489563,-1.5833385626422327,0.0,-0.003374130930751562,0.8532870411872864,-0.0,0.0018844138830900192,0.7784425616264343,0.0,0.01027868315577507
553.0,8190.0,0.5324,-0.1472,9.6174,-0.0391,0.0171,-0.1107,-1.5977040729918421,0.0,1.4537345170974731,-2.5176451206207275,-0.0,1.3478361368179321,5.543336140900411,0.0,0.2796160578727722,-1.5833705107318323,0.0,-0.00876939482986927,0.8532347083091736,-0.0,-0.0019183168187737465,0.778474748134613,8.995168172987178e-05,-0.03296781703829765
553.0,8190.0,0.5324,-0.1472,9.6174,-0.0391,0.0171,-0.1107,-1.5977241001524867,0.0,1.442521095275879,-2.5176451206207275,-0.0,1.2987401485443115,5.543348538666525,0.0,0.2916553318500519,-1.5833218733416956,0.0,-0.015977399423718452,0.8532347083091736,-0.0,-0.0001652620267122984,0.7785350680351257,0.00012094859266653657,-0.006428337190300226
553.0,8190.0,0.5324,-0.1472,9.6174,-0.0391,0.0171,-0.1107,-1.5977360210814417,0.0,1.4560867547988892,-2.517629384994507,-0.0,1.331287145614624,5.54333661773757,0.0,0.2704840302467346,-1.5833781401263636,0.0,-0.015368332155048847,0.8532235622406006,-0.0,0.010660246945917606,0.7784668207168579,0.00010920772183453664,-0.0018574255518615246
553.0,8190.0,0.5324,-0.1472,9.6174,-0.0391,0.0171,-0.1107,-1.5977159939207972,0.0,1.4409995079040527,-2.517693519592285,-0.0,1.3193836212158203,5.54340552070693,0.0,0.2855522930622101,-1.583329979573385,0.0,-0.005755235906690359,0.8532947897911072,-0.0,-0.0012518116272985935,0.7784466743469238,9.739030065247789e-05,0.043039143085479736
553.0,8190.0,0.5324,-0.1472,9.6174,-0.0391,0.0171,-0.1107,-1.5977117023863734,0.0,1.4681882858276367,-2.517657518386841,-0.0,1.3380930423736572,5.54333262422637,0.0,0.28241077065467834,-1.5833218733416956,0.0,6.529812526423484e-05,0.8532388210296631,-0.0,-0.003377968445420265,0.7784751057624817,0.00010545982513576746,0.022604065015912056
553.0,8190.0,0.5324,-0.1472,9.6174,-0.0391,0.0171,-0.1107,-1.5977241001524867,0.0,1.483056664466858,-2.517612934112549,-0.0,1.3369885683059692,5.543381261616506,0.0,0.2902337312698364,-1.5833781401263636,0.0,-0.0011827269336208701,0.8532472848892212,-0.0,-0.012251769192516804,0.7784384489059448,9.962024341803044e-05,-0.01704484410583973
553.0,8190.0,0.5324,-0.1472,9.6174,-0.0391,0.0171,-0.1107,-1.5977117023863734,0.0,1.4729969501495361,-2.517629384994507,-0.0,1.3130112886428833,5.543336677342214,0.0,0.28739142417907715,-1.583329979573385,0.0,-0.006380164995789528,0.8532388210296631,-0.0,0.0002503639552742243,0.778474748134613,9.277424396714196e-05,-0.017739221453666687
553.0,8190.0,0.5324,-0.1472,9.6174,-0.0391,0.0171,-0.1107,-1.5977198086180628,0.0,1.446054458618164,-2.5176377296447754,-0.0,1.3361921310424805,5.543268191605367,0.0,0.28383055329322815,-1.5833700338946741,0.0,-0.018175596371293068,0.8532307744026184,-0.0,-0.006335644982755184,0.7784180641174316,0.00010127677523996681,0.045821286737918854
553.0,8190.0,0.5324,-0.1472,9.6174,-0.0391,0.0171,-0.1107,-1.5977078876891078,0.0,1.4413158893585205,-2.517669916152954,-0.0,1.3418846130371094,5.543304312020101,-0.00019161477393936366,0.2842242121696472,-1.5833500067340296,0.0,-0.019696015864610672,0.8532347083091736,-0.0,-0.007154413033276796,0.7784987688064575,0.000159416304086335,0.026336979120969772
589.0,8190.0,0.5061,-0.2351,9.6544,-0.0281,0.0441,-0.1048,-1.597692152062887,0.0,1.4029004573822021,-2.5176615715026855,0.00020640107686631382,1.3525208234786987,5.543296086579122,-0.0001738190621836111,0.2701632082462311,-1.5833624045001429,0.0,-0.022119449451565742,0.8532829284667969,-0.0,0.004615143872797489,0.7784624099731445,0.0005524524603970349,0.06975020468235016
589.0,8190.0,0.5061,-0.2351,9.6544,-0.0281,0.0441,-0.1048,-1.597743650475973,0.0,1.465195655822754,-2.517629384994507,0.000683170510455966,1.3811936378479004,5.54331653097228,-0.00018013641238212585,0.2657933831214905,-1.5833624045001429,0.0,-0.008623003959655762,0.8532512187957764,-0.0,-0.0019069546833634377,0.7784825563430786,0.001027229125611484,0.033573172986507416
589.0,8190.0,0.5061,-0.2351,9.6544,-0.0281,0.0441,-0.1048,-1.5977322063841761,0.0,1.395864486694336,-2.517557144165039,0.0008045231807045639,1.4093552827835083,5.543300199299612,-0.00015933948452584445,0.275960773229599,-1.583374325429098,0.0,-0.024884391576051712,0.8532590866088867,-0.0,0.003291440661996603,0.778474748134613,0.001095636747777462,0.1255667805671692
589.0,8190.0,0.5061,-0.2351,9.6544,-0.0281,0.0441,-0.1048,-1.5977117023863734,0.0,1.4205528497695923,-2.5175974369049072,0.0008333739242516458,1.3809852600097656,5.543292450695791,-0.00014251704851631075,0.2628672420978546,-1.583374325429098,0.0,-0.02857143059372902,0.8532947897911072,-0.0,-0.0012319693341851234,0.7784784436225891,0.0008961593848653138,0.06722552329301834
589.0,8190.0,0.5061,-0.2351,9.6544,-0.0281,0.0441,-0.1048,-1.5977479420103968,0.0,1.4140013456344604,-2.517561197280884,0.0029277477879077196,1.3659248352050781,5.543356823712148,-0.0001414605212630704,0.26712217926979065,-1.583386246358053,0.0,-0.022679302841424942,0.8533151745796204,-0.0,-0.003488861722871661,0.7784984111785889,0.0018070912919938564,0.13413193821907043
589.0,8190.0,0.5061,-0.2351,9.6544,-0.0281,0.0441,-0.1048,-1.5976916752257289,0.0,1.3873757123947144,-2.517521858215332,0.005705742631107569,1.4250423908233643,5.543260443001547,-0.00023286123177967966,0.2668549120426178,-1.583341423665182,0.0,-0.032377634197473526,0.8531869649887085,-0.0,-0.006266878452152014,0.7785586714744568,0.0033801959361881018,0.08514297753572464
589.0,8190.0,0.5061,-0.2351,9.6544,-0.0281,0.0441,-0.1048,-1.5977355442442835,-0.00040593117591924965,1.4536190032958984,-2.517488718032837,0.007300300057977438,1.4197561740875244,5.543280529766836,-0.0012522415490821004,0.2772722840309143,-1.5833261648761194,0.0,-0.04235253483057022,0.8533111214637756,-0.0,0.00418630987405777,0.77851402759552,0.005778511520475149,0.15493476390838623
589.0,8190.0,0.5061,-0.2351,9.6544,-0.0281,0.0441,-0.1048,-1.5977674923338832,-0.0019917043391615152,1.3944661617279053,-2.5174129009246826,0.009620203636586666,1.4408462047576904,5.54328869560317,-0.0006687671411782503,0.2541327476501465,-1.583374325429098,0.0,-0.028640732169151306,0.8533148169517517,-0.0,0.003271270077675581,0.7785782217979431,0.007527386769652367,0.22399108111858368
589.0,8190.0,0.5061,-0.2351,9.6544,-0.0281,0.0441,-0.1048,-1.5978247127928675,-0.001902912394143641,1.3981032371520996,-2.5173537731170654,0.011994188651442528,1.494243860244751,5.543268608837881,-0.0005433430778793991,0.26575058698654175,-1.583358112965719,0.0,-0.057144515216350555,0.8532910346984863,-0.0,0.0006535113789141178,0.7786949872970581,0.00865692738443613,0.21774455904960632
589.0,8190.0,0.5061,-0.2351,9.6544,-0.0281,0.0441,-0.1048,-1.597787996331686,-0.0021467541810125113,1.3965356349945068,-2.5172574520111084,0.014529651030898094,1.477157711982727,5.543240356236257,-0.0004273774102330208,0.2763850688934326,-1.5833700338946741,0.0,-0.053400084376335144,0.8533030152320862,-0.0,0.018408022820949554,0.7787790298461914,0.010642743669450283,0.19511491060256958
589.0,8190.0,0.5061,-0.2351,9.6544,-0.0281,0.0441,-0.1048,-1.597799917260641,-0.0027448670007288456,1.3497254848480225,-2.5171093940734863,0.01795005239546299,1.5192949771881104,5.543248700886526,-0.00038327250513248146,0.2579115927219391,-1.5833538214312952,0.0,-0.05245516449213028,0.8533029556274414,-1.9032236764360277e-07,0.006822400260716677,0.7788228988647461,0.011326178908348083,0.3166179358959198
595.0,8190.0,0.3063,0.0042,9.9751,-0.0292,0.1054,-0.1095,-1.5978642902769984,-0.0036607326474040747,1.3617265224456787,-2.516961097717285,0.020423954352736473,1.5072576999664307,5.543276893883505,-0.0003165644302498549,0.26295021176338196,-1.583398167287008,3.8836808768927256e-10,-0.06520693004131317,0.8533431887626648,-3.4590147586499587e-12,0.023192938417196274,0.7789512276649475,0.013155143707990646,0.31789374351501465
595.0,8190.0,0.3063,0.0042,9.9751,-0.0292,0.1054,-0.1095,-1.5978881321349085,-0.0035106621216982603,1.3700876235961914,-2.516733407974243,0.023383690044283867,1.5103329420089722,5.543264674931326,-0.0002028528251685202,0.25960975885391235,-1.583358112965719,7.0583983943035486e-15,-0.06282832473516464,0.8532590866088867,-6.286587875526281e-17,0.009201914072036743,0.7790796756744385,0.014921235851943493,0.3531900644302368
595.0,8190.0,0.3063,0.0042,9.9751,-0.0292,0.1054,-0.1095,-1.5979448757567347,-0.003849860979244113,1.3344693183898926,-2.51652193069458,0.02392297238111496,1.5008971691131592,5.543228554516592,-0.00019852345576509833,0.2594364881515503,-1.583374325429098,8.375955757910232e-21,-0.08215615153312683,0.8533516526222229,-7.460075827122546e-23,0.01254657655954361,0.779158890247345,0.016429094597697258,0.3820874094963074
595.0,8190.0,0.3063,0.0042,9.9751,-0.0292,0.1054,-0.1095,-1.5979396305479945,-0.0035728798247873783,1.313187599182129,-2.5162734985351562,0.026301559060811996,1.5110666751861572,5.543236303120413,-0.0002019126113737002,0.26183387637138367,-1.5833624045001429,1.5222884313726267e-25,-0.08426378667354584,0.8532390594482422,-1.355831858578773e-27,0.006131356582045555,0.7793476581573486,0.017867768183350563,0.4330519437789917
595.0,8190.0,0.3063,0.0042,9.9751,-0.0292,0.1054,-0.1095,-1.5979882679381312,-0.0032204368617385626,1.29158353805542,-2.5161261558532715,0.027181290090084076,1.5887352228164673,5.5432326076324365,-0.00029609547345899045,0.24681228399276733,-1.583341423665182,2.7666841291801003e-30,-0.08870173245668411,0.8533152937889099,-2.4641573631548768e-32,0.031071949750185013,0.7794796824455261,0.017689291387796402,0.42691659927368164
595.0,8190.0,0.3063,0.0042,9.9751,-0.0292,0.1054,-0.1095,-1.5980125866331996,-0.002724642166867852,1.3078117370605469,-2.515838384628296,0.030190592631697655,1.5802452564239502,5.543248641281881,-0.00036613349220715463,0.24116051197052002,-1.583329979573385,5.028312542999168e-35,-0.08689233660697937,0.8532988429069519,-4.4784839749023535e-37,0.033663809299468994,0.7795875072479248,0.016149278730154037,0.39282727241516113
595.0,8190.0,0.3063,0.0042,9.9751,-0.0292,0.1054,-0.1095,-1.5980407200255335,-0.0027917269617319107,1.292041540145874,-2.5156381130218506,0.0343654528260231,1.627158761024475,5.543252694397726,-0.0007573464536108077,0.2363155633211136,-1.583374325429098,9.138708064940727e-40,-0.09942765533924103,0.8533149361610413,-8.138741480798538e-42,0.02037191390991211,0.7796633243560791,0.014212877489626408,0.423644483089447
595.0,8190.0,0.3063,0.0042,9.9751,-0.0292,0.1054,-0.1095,-1.5980726681151332,-0.0035033223684877157,1.2912471294403076,-2.5153348445892334,0.041331660002470016,1.6419395208358765,5.543265211373129,-0.0013399379095062613,0.22697141766548157,-1.583374325429098,1.6815581571897805e-44,-0.08500036597251892,0.8532907366752625,-0.0,0.01110708899796009,0.7797995209693909,0.012075287289917469,0.5096880197525024
595.0,8190.0,0.3063,0.0042,9.9751,-0.0292,0.1054,-0.1095,-1.5980597935118617,-0.003683249931782484,1.2189651727676392,-2.515010356903076,0.051097847521305084,1.601807951927185,5.543220567494192,-0.001542672049254179,0.23135820031166077,-1.5833624045001429,0.0,-0.10340556502342224,0.8533226847648621,-0.0,0.038876041769981384,0.7799033522605896,0.009965768083930016,0.4096890687942505
595.0,8190.0,0.3063,0.0042,9.9751,-0.0292,0.1054,-0.1095,-1.5980669460692347,-0.004335159435868263,1.273327350616455,-2.5144944190979004,0.06163853034377098,1.6706726551055908,5.543196368008413,-0.0032127045560628176,0.2321629375219345,-1.5833342711078089,0.0,-0.101066455245018,0.8532627820968628,-0.0,0.032997652888298035,0.7800202965736389,0.008057286962866783,0.4777209758758545
595.0,8190.0,0.3063,0.0042,9.9751,-0.0292,0.1054,-0.1095,-1.5981079540648402,-0.0037523151841014624,1.2517492771148682,-2.5139496326446533,0.07337231934070587,1.6646616458892822,5.543108272343435,-0.013087674044072628,0.21505016088485718,-1.5833495298968714,-5.1406415877863765e-05,-0.09581330418586731,0.853327214717865,-0.0,0.030126148834824562,0.7800114750862122,0.00741529418155551,0.47580933570861816
521.0,1112.0,-0.0473,-0.1801,10.6582,-0.0295,0.2627,-0.0805,-1.598135610620016,-0.0030251722782850266,1.216994047164917,-2.513145685195923,0.09160169214010239,1.6882531642913818,5.5429725525672815,-0.015545660629868507,0.21376049518585205,-1.583341423665182,-9.262006642529741e-05,-0.10663487017154694,0.8532544374465942,-0.0,0.02687317132949829,0.7801076173782349,0.008216781541705132,0.48857682943344116
521.0,1112.0,-0.0473,-0.1801,10.6582,-0.0295,0.2627,-0.0805,-1.5981837711729945,-0.002474598353728652,1.2679944038391113,-2.5123343467712402,0.10329373180866241,1.7693660259246826,5.542807984143057,-0.011397114023566246,0.21913860738277435,-1.583374325429098,-8.557461842428893e-05,-0.10279035568237305,0.8532182574272156,-0.0,0.028802184388041496,0.7802164554595947,0.009356271475553513,0.4682685136795044
521.0,1112.0,-0.0473,-0.1801,10.6582,-0.0295,0.2627,-0.0805,-1.5981556377806605,-0.0020264703780412674,1.264318585395813,-2.5114548206329346,0.11515343189239502,1.7289156913757324,5.542776274472036,-0.004791601095348597,0.21193364262580872,-1.5833218733416956,-9.515781857771799e-05,-0.11052515357732773,0.8532586693763733,-0.0,0.02588781528174877,0.7802313566207886,0.011951550841331482,0.5618953704833984
521.0,1112.0,-0.0473,-0.1801,10.6582,-0.0295,0.2627,-0.0805,-1.5982033214964808,-0.0021084544714540243,1.229508638381958,-2.5104873180389404,0.12510895729064941,1.8253672122955322,5.542812752514639,-0.0009666514815762639,0.22009605169296265,-1.5833342711078089,-8.912985504139215e-05,-0.10797466337680817,0.8532869815826416,-0.0,0.02226139046251774,0.7803519368171692,0.013959583826363087,0.5577095746994019
521.0,1112.0,-0.0473,-0.1801,10.6582,-0.0295,0.2627,-0.0805,-1.5982114277281703,-0.001649548183195293,1.2559521198272705,-2.5094594955444336,0.1353582888841629,1.7671525478363037,5.542829084187307,-0.0005163760506547987,0.21838414669036865,-1.5833781401263636,-8.360973151866347e-05,-0.10108814388513565,0.8533024787902832,-0.0,0.022387679666280746,0.7805444002151489,0.016314689069986343,0.5580857992172241
521.0,1112.0,-0.0473,-0.1801,10.6582,-0.0295,0.2627,-0.0805,-1.598243852654928,-0.0014743783976882696,1.2620916366577148,-2.50835919380188,0.15166376531124115,1.8280365467071533,5.542816805630483,-0.0005282028578221798,0.21780863404273987,-1.583341423665182,-7.87334720371291e-05,-0.10478979349136353,0.8532590270042419,-0.0,0.02041367068886757,0.7806603312492371,0.0192149318754673,0.5910221338272095
521.0,1112.0,-0.0473,-0.1801,10.6582,-0.0295,0.2627,-0.0805,-1.5982796154417933,-0.0029674184042960405,1.2372536659240723,-2.507007360458374,0.16808177530765533,1.900857925415039,5.5427324054534814,-0.0009515348938293755,0.21773631870746613,-1.5833662191974085,-7.439470937242731e-05,-0.11674819886684418,0.8532348871231079,-0.0,0.03288198634982109,0.7808490991592407,0.02206953428685665,0.5669803619384766
521.0,1112.0,-0.0473,-0.1801,10.6582,-0.0295,0.2627,-0.0805,-1.5982991657652796,-0.005325418431311846,1.2405176162719727,-2.505523920059204,0.17940576374530792,1.9043606519699097,5.542752134590902,-0.0015106686623767018,0.21377778053283691,-1.5833385626422327,-7.050913700368255e-05,-0.10140563547611237,0.8533390760421753,-0.0,0.019542567431926727,0.7810248732566833,0.026814477518200874,0.5502773523330688
521.0,1112.0,-0.0473,-0.1801,10.6582,-0.0295,0.2627,-0.0805,-1.5983640156187953,-0.005094478838145733,1.217715859413147,-2.503988265991211,0.195445716381073,1.9255714416503906,5.5427361009414575,-0.0008910541655495763,0.19426655769348145,-1.5833457151996058,-6.700929225189611e-05,-0.09481040388345718,0.8533393740653992,-0.0,0.018570750951766968,0.781257152557373,0.03280896320939064,0.5576955080032349
521.0,1112.0,-0.0473,-0.1801,10.6582,-0.0295,0.2627,-0.0805,-1.598391672173971,-0.003762295236811042,1.2089989185333252,-2.501936912536621,0.22371934354305267,1.932801365852356,5.5427124975021265,-0.002815083134919405,0.18511918187141418,-1.5833385626422327,-5.257900556898676e-05,-0.10549788177013397,0.8532983660697937,-0.0,0.04932843893766403,0.7816054821014404,0.040634311735630035,0.550894021987915
521.0,1112.0,-0.0473,-0.1801,10.6582,-0.0295,0.2627,-0.0805,-1.598431249658102,-0.007177993655204773,1.211977243423462,-2.500005006790161,0.2360302060842514,1.9478288888931274,5.5426602242286584,-0.007775918580591679,0.18424277007579803,-1.5833261648761194,-5.02312250318937e-05,-0.08511558175086975,0.8533108830451965,6.0716279222106095e-06,0.034798599779605865,0.7819376587867737,0.04518550634384155,0.5238313674926758
748.0,8190.0,-0.0586,-0.2632,10.3053,-0.0043,0.4804,-0.0024,-1.5984870396056117,-0.008821151219308376,1.2220205068588257,-2.497946262359619,0.2571800649166107,1.9941054582595825,5.5426081893737695,-0.006018240936100483,0.1866196095943451,-1.5833342711078089,-1.382769365676495e-08,-0.08175526559352875,0.8532906770706177,1.1034884117577803e-10,0.030323300510644913,0.7823503613471985,0.053807418793439865,0.5646213293075562
748.0,8190.0,-0.0586,-0.2632,10.3053,-0.0043,0.4804,-0.0024,-1.598567625085348,-0.007509639952331781,1.2069494724273682,-2.4957985877990723,0.28143563866615295,2.073948621749878,5.542552041798391,-0.003634266322478652,0.17943021655082703,-1.5832980314837855,-2.513115312640507e-13,-0.0756831020116806,0.8533351421356201,2.005535791081768e-15,0.0374445877969265,0.7827781438827515,0.05946402996778488,0.5593106150627136
748.0,8190.0,-0.0586,-0.2632,10.3053,-0.0043,0.4804,-0.0024,-1.5986515484251917,-0.00755497207865119,1.192684531211853,-2.49347186088562,0.2942507565021515,2.0785889625549316,5.542556631356039,-0.00525384396314621,0.16379430890083313,-1.5833137671100062,-4.567462627078448e-18,-0.06390049308538437,0.8532587885856628,3.6449623219269667e-20,0.02366667613387108,0.7833350896835327,0.06374466419219971,0.5508136749267578
748.0,8190.0,-0.0586,-0.2632,10.3053,-0.0043,0.4804,-0.0024,-1.5986830196776332,-0.006322649307549,1.2373852729797363,-2.491015911102295,0.320412278175354,2.1139872074127197,5.542528140335836,-0.0026837519835680723,0.1747242510318756,-1.583358112965719,-8.301137867252566e-23,-0.07482685148715973,0.8533390760421753,6.624540309836232e-25,0.0348370224237442,0.7838515639305115,0.07255514711141586,0.5659685730934143
748.0,8190.0,-0.0586,-0.2632,10.3053,-0.0043,0.4804,-0.0024,-1.5987473926939906,-0.005769665353000164,1.2233492136001587,-2.488401412963867,0.34100693464279175,2.1334269046783447,5.542480218201437,-0.0013817339204251766,0.16558420658111572,-1.5833056608783167,-1.508690703445352e-27,-0.07870042324066162,0.853294849395752,1.2039775005302826e-29,0.03105923719704151,0.784480094909668,0.08144254237413406,0.5015179514884949
748.0,8190.0,-0.0586,-0.2632,10.3053,-0.0043,0.4804,-0.0024,-1.5987745724120082,-0.005526023916900158,1.2270894050598145,-2.4855575561523438,0.3583142161369324,2.168795108795166,5.542452323227682,-0.004244484938681126,0.1544893980026245,-1.5833261648761194,1.607308331585955e-05,-0.07572866231203079,0.853306770324707,2.1881694179087453e-34,0.026390261948108673,0.7851404547691345,0.08456305414438248,0.5356737375259399
748.0,8190.0,-0.0586,-0.2632,10.3053,-0.0043,0.4804,-0.0024,-1.5988675556578578,-0.0052017103880643845,1.2225759029388428,-2.482621908187866,0.37901729345321655,2.1913743019104004,5.542444216995992,-0.0035234950482845306,0.16012810170650482,-1.5833504835711878,2.4311488232342526e-05,-0.042514584958553314,0.8533434867858887,3.976889245649224e-39,0.025441786274313927,0.7858574390411377,0.08546434342861176,0.5587803721427917
748.0,8190.0,-0.0586,-0.2632,10.3053,-0.0043,0.4804,-0.0024,-1.598886629144186,-0.004776481073349714,1.18671715259552,-2.4787042140960693,0.40891069173812866,2.211210012435913,5.542452382832327,-0.0018010145286098123,0.16532257199287415,-1.5833056608783167,2.277370913361665e-05,-0.050066955387592316,0.8533024787902832,4.203895392974451e-45,0.03566364943981171,0.7867059111595154,0.0871444046497345,0.45292043685913086
748.0,8190.0,-0.0586,-0.2632,10.3053,-0.0043,0.4804,-0.0024,-1.598931451837057,-0.004173472989350557,1.2047486305236816,-2.4753036499023438,0.4310973286628723,2.290254592895508,5.542335736542501,-0.004573082085698843,0.1561903953552246,-1.5833423773394983,2.167671118513681e-05,-0.05643872171640396,0.8533149361610413,0.0,0.029028862714767456,0.7873702645301819,0.08687066286802292,0.5301904678344727
748.0,8190.0,-0.0586,-0.2632,10.3053,-0.0043,0.4804,-0.0024,-1.5989381275572718,-0.004767682868987322,1.2239346504211426,-2.4718093872070312,0.4417090117931366,2.246188163757324,5.54231213310317,-0.008034574799239635,0.15440359711647034,-1.5833142439471644,3.100919275311753e-05,-0.04323185980319977,0.8533070683479309,0.0,0.03383221849799156,0.7881032228469849,0.08688931167125702,0.5087134838104248
748.0,8190.0,-0.0586,-0.2632,10.3053,-0.0043,0.4804,-0.0024,-1.599039217034811,-0.004986972082406282,1.2651386260986328,-2.468106985092163,0.46504512429237366,2.2682738304138184,5.5422401306922815,-0.0062837908044457436,0.1502320021390915,-1.583289925252096,7.620152700837934e-06,-0.050931476056575775,0.8532828688621521,0.0,0.0210430808365345,0.7887914180755615,0.08697301894426346,0.4816280007362366
8190.0,8190.0,-0.7298,-0.4421,10.1276,-0.0286,0.4039,0.0171,-1.5990344486632289,-0.005338640417903662,1.236630916595459,-2.464261770248413,0.48125171661376953,2.346451759338379,5.54215161779479,-0.009323359467089176,0.15821292996406555,-1.5833342711078089,1.3849249524966467e-10,-0.042094819247722626,0.853270947933197,0.0,0.02437785640358925,0.7895283102989197,0.090497687458992,0.46740782260894775
8190.0,8190.0,-0.7298,-0.4421,10.1276,-0.0286,0.4039,0.0171,-1.5991188488402308,-0.006583969108760357,1.2427310943603516,-2.4603192806243896,0.4922417402267456,2.3484227657318115,5.542075681477346,-0.014033832587301731,0.13282650709152222,-1.5832937399493616,2.517032941665512e-15,-0.03195064514875412,0.8532989025115967,0.0,0.023249302059412003,0.7902770042419434,0.09271940588951111,0.48285233974456787
8190.0,8190.0,-0.7298,-0.4421,10.1276,-0.0286,0.4039,0.0171,-1.599131246606344,-0.005570462439209223,1.2301888465881348,-2.456390857696533,0.5133218765258789,2.3712964057922363,5.541971790581503,-0.015358136035501957,0.136358380317688,-1.5833423773394983,4.574583114113578e-20,-0.03461919724941254,0.8533030152320862,0.0,0.026459183543920517,0.7910652756690979,0.09691479802131653,0.4423486888408661
8190.0,8190.0,-0.7298,-0.4421,10.1276,-0.0286,0.4039,0.0171,-1.5991908512511195,-0.00555779691785574,1.2047069072723389,-2.4522171020507812,0.5246142745018005,2.368774175643921,5.541751611023702,-0.02537449263036251,0.133346289396286,-1.5833142439471644,8.314079209288808e-25,-0.03333447128534317,0.853294312953949,0.0,0.024841949343681335,0.7918941974639893,0.10433904826641083,0.4792020320892334
8190.0,8190.0,-0.7298,-0.4421,10.1276,-0.0286,0.4039,0.0171,-1.5992628536620082,-0.008580825291574001,1.2696348428726196,-2.447937250137329,0.5371050834655762,2.36079740524292,5.541576075344839,-0.04740478843450546,0.11965061724185944,-1.583301846181051,1.5110428055752456e-29,-0.034064412117004395,0.8533271551132202,0.0,0.02585563063621521,0.7927548289299011,0.1084873154759407,0.47194385528564453
8190.0,8190.0,-0.7298,-0.4421,10.1276,-0.0286,0.4039,0.0171,-1.5993629894652308,-0.01038654986768961,1.2309941053390503,-2.4424843788146973,0.5587626695632935,2.3630385398864746,5.540778445988455,-0.09607690572738647,0.10187806189060211,-1.583301846181051,1.793102411781053e-35,-0.018935425207018852,0.8532983660697937,0.0,0.024343306198716164,0.7938437461853027,0.10663703829050064,0.4933306574821472
8190.0,8190.0,-0.7298,-0.4421,10.1276,-0.0286,0.4039,0.0171,-1.5994512043394984,-0.01126370020210743,1.2574020624160767,-2.4379401206970215,0.5675952434539795,2.4031105041503906,5.539793538838186,-0.13797248899936676,0.09041455388069153,-1.5833538214312952,3.258873721618438e-40,-0.029881713911890984,0.8532869815826416,0.0,0.024599507451057434,0.7946234345436096,0.10956526547670364,0.4724145233631134
8190.0,8190.0,-0.7298,-0.4421,10.1276,-0.0286,0.4039,0.0171,-1.5995384655394496,-0.013330941088497639,1.232948899269104,-2.4333176612854004,0.5733799934387207,2.4111618995666504,5.538741397648611,-0.14464356005191803,0.07789269834756851,-1.5833218733416956,5.605193857299268e-45,-0.04532385617494583,0.8533597588539124,0.0,0.012774307280778885,0.7955771088600159,0.10910344123840332,0.5154569149017334
8190.0,8190.0,-0.7298,-0.4421,10.1276,-0.0286,0.4039,0.0171,-1.599666257897848,-0.015506078489124775,1.2861806154251099,-2.4286458492279053,0.5837923288345337,2.409492015838623,5.5375932333763025,-0.1500726193189621,0.07988285273313522,-1.583301846181051,0.0,-0.03631134331226349,0.8532907366752625,0.0,0.02270263433456421,0.7964617013931274,0.11137138307094574,0.4630640149116516
8190.0,8190.0,-0.7298,-0.4421,10.1276,-0.0286,0.4039,0.0171,-1.599745889703268,-0.015734022483229637,1.2984809875488281,-2.42405366897583,0.5939042568206787,2.3827035427093506,5.536163615971365,-0.18557856976985931,0.07903972268104553,-1.5833218733416956,0.0,-0.036093391478061676,0.8532951474189758,0.0,0.009599259123206139,0.797410786151886,0.1253417730331421,0.49410948157310486
8190.0,8190.0,-0.7298,-0.4421,10.1276,-0.0286,0.4039,0.0171,-1.5999351940550746,-0.015798287466168404,1.296114206314087,-2.419346809387207,0.5923066735267639,2.42997670173645,5.5345865962798975,-0.203131765127182,0.05892491713166237,-1.5833342711078089,0.0,-0.04167559742927551,0.8532823920249939,0.0,0.006386079825460911,0.7984395027160645,0.13258284330368042,0.5083045959472656
8190.0,8190.0,-0.7298,-0.4421,10.1276,-0.0286,0.4039,0.0171,-1.600042005578512,-0.01749841496348381,1.288761019706726,-2.4145560264587402,0.6066303849220276,2.323561906814575,5.532785641938009,-0.24820576608181,0.03364456444978714,-1.5833342711078089,0.0,-0.020612267777323723,0.8532828688621521,0.0,0.0030178301967680454,0.7995283007621765,0.12687411904335022,0.5062660574913025
8190.0,8190.0,-2.2636,-0.743,10.3561,-0.0608,0.0872,-0.027,-1.6002594433226527,-0.019220490008592606,1.3304173946380615,-2.409672737121582,0.6143911480903625,2.3876705169677734,5.530628788262167,-0.2661621570587158,0.028803598135709763,-1.5833099524127405,0.0,-0.03084982931613922,0.8532947897911072,0.0,0.012833062559366226,0.8005251288414001,0.12562090158462524,0.46908238530158997
8190.0,8190.0,-2.2636,-0.743,10.3561,-0.0608,0.0872,-0.027,-1.6003662548460902,-0.022054946050047874,1.3526034355163574,-2.404717445373535,0.6122528910636902,2.3908190727233887,5.52834718206481,-0.29772329330444336,0.01704859361052513,-1.5833056608783167,0.0,-0.026539843529462814,0.8532989025115967,0.0,0.011569947935640812,0.8014217019081116,0.12057188898324966,0.48137402534484863
8190.0,8190.0,-2.2636,-0.743,10.3561,-0.0608,0.0872,-0.027,-1.6006509266295375,-0.025261832401156425,1.319865345954895,-2.398447036743164,0.6261523962020874,2.437835216522217,5.525238203793325,-0.34004998207092285,0.0027014738880097866,-1.5833056608783167,4.884252120973542e-05,-0.019891150295734406,0.8532832264900208,0.0,0.020130116492509842,0.8026267886161804,0.12006950378417969,0.4655257761478424
8190.0,8190.0,-2.2636,-0.743,10.3561,-0.0608,0.0872,-0.027,-1.600802560845846,-0.023819664493203163,1.3205928802490234,-2.3934085369110107,0.6392762064933777,2.396306276321411,5.522388505726614,-0.36875614523887634,0.003952824976295233,-1.5833175818072718,5.152010271558538e-05,-0.023525692522525787,0.8532471060752869,0.0,0.007782740984112024,0.8035591840744019,0.12670879065990448,0.43209487199783325
8190.0,8190.0,-2.2636,-0.743,10.3561,-0.0608,0.0872,-0.027,-1.6009861431517542,-0.024477267637848854,1.3680338859558105,-2.388317108154297,0.6362200975418091,2.4118242263793945,5.51923834064559,-0.4015718996524811,-0.018445752561092377,-1.583278004323141,7.69821235735435e-06,-0.016356639564037323,0.8532590866088867,0.0,0.02157662995159626,0.8046083450317383,0.1209525614976883,0.44107377529144287
8190.0,8190.0,-2.2636,-0.743,10.3561,-0.0608,0.0872,-0.027,-1.6012054882445277,-0.03081114962697029,1.33357572555542,-2.3832077980041504,0.645441472530365,2.366487741470337,5.51596091964797,-0.4313180446624756,-0.033769868314266205,-1.58331805864443,1.3991120761946974e-10,-0.02144085243344307,0.8532348871231079,0.0,0.008663270622491837,0.8054962754249573,0.11044371873140335,0.3738917112350464
8190.0,8190.0,-2.2636,-0.743,10.3561,-0.0608,0.0872,-0.027,-1.6015259228148402,-0.04247979819774628,1.349875807762146,-2.3779654502868652,0.6534885168075562,2.4235122203826904,5.512163090496816,-0.47784772515296936,-0.05083116143941879,-1.5833023230182093,2.5428168363381696e-15,-0.009444793686270714,0.8533111214637756,0.0,0.005796010140329599,0.8063855767250061,0.09867552667856216,0.31983283162117004
8190.0,8190.0,-2.2636,-0.743,10.3561,-0.0608,0.0872,-0.027,-1.6019140682616175,-0.05101295933127403,1.325312614440918,-2.3726744651794434,0.6489359736442566,2.4063920974731445,5.508235502033987,-0.5194612145423889,-0.07545946538448334,-1.5833099524127405,4.621444188284414e-20,0.009861918166279793,0.8532101511955261,0.0,0.009776489809155464,0.8071059584617615,0.08765876293182373,0.3229237198829651
8190.0,8190.0,-2.2636,-0.743,10.3561,-0.0608,0.0872,-0.027,-1.6023298702635707,-0.058383114635944366,1.372263789176941,-2.3673624992370605,0.6533557176589966,2.42535662651062,5.504045355110922,-0.5582137107849121,-0.06949757784605026,-1.5832818190204065,8.399246604768731e-25,-0.011235234327614307,0.8532349467277527,0.0,0.015150206163525581,0.8077501058578491,0.08421152085065842,0.28374049067497253
8190.0,8190.0,-2.2636,-0.743,10.3561,-0.0608,0.0872,-0.027,-1.6027971706786097,-0.06476985663175583,1.2992680072784424,-2.3621487617492676,0.6672139763832092,2.4266114234924316,5.499368297844686,-0.5874001383781433,-0.0620451420545578,-1.583306137715475,0.0001564931881148368,-0.0003003856400027871,0.8532869219779968,0.0,0.014577769674360752,0.8084995746612549,0.08490990847349167,0.26394379138946533
8190.0,8190.0,-2.2636,-0.743,10.3561,-0.0608,0.0872,-0.027,-1.6033412418761195,-0.0701795294880867,1.3240845203399658,-2.356873035430908,0.660709798336029,2.4577081203460693,5.494283306389608,-0.6352478861808777,-0.06972824782133102,-1.583261791859762,0.00015111159882508218,0.002170560648664832,0.8532750606536865,0.0,0.004835236817598343,0.8091112375259399,0.08599527180194855,0.2961055040359497
8190.0,1100.0,-0.9565,-0.1113,9.4241,-0.069,-0.4687,-0.1075,-1.6041156254210414,-0.08339507132768631,1.3621209859848022,-2.3503754138946533,0.6621645092964172,2.427851915359497,5.487695503025808,-0.6897658705711365,-0.05499446392059326,-1.5833142439471644,0.00016549952852074057,0.01373423170298338,0.8532668948173523,0.0,0.00752732390537858,0.809959888458252,0.08293833583593369,0.18494708836078644
8190.0,1100.0,-0.9565,-0.1113,9.4241,-0.069,-0.4687,-0.1075,-1.6048695049681605,-0.08781467378139496,1.4000396728515625,-2.3451931476593018,0.6616685390472412,2.4333672523498535,5.481944608479299,-0.7284477949142456,-0.05199257284402847,-1.5832861105548304,0.00015107171202544123,0.029061222448945045,0.8532668948173523,0.0,0.013960912823677063,0.8105759620666504,0.0808219313621521,0.24296241998672485
8190.0,1100.0,-0.9565,-0.1113,9.4241,-0.069,-0.4687,-0.1075,-1.6055275402464808,-0.08906257897615433,1.3650991916656494,-2.3399252891540527,0.6492111086845398,2.411837339401245,5.475846576481619,-0.7704294323921204,-0.039934076368808746,-1.5832861105548304,0.00013784893963020295,0.01067713089287281,0.8532389402389526,0.0,0.008698398247361183,0.8112008571624756,0.06799604743719101,0.20008206367492676
8190.0,1100.0,-0.9565,-0.1113,9.4241,-0.069,-0.4687,-0.1075,-1.6062547169127406,-0.09195348620414734,1.3510725498199463,-2.3345987796783447,0.6438575983047485,2.424224376678467,5.4696252820785425,-0.8081477880477905,-0.06352871656417847,-1.583273712788717,0.00012675470497924834,0.014578837901353836,0.8532875180244446,0.0,0.013622412458062172,0.8116849660873413,0.05514543503522873,0.17865577340126038
8190.0,1100.0,-0.9565,-0.1113,9.4241,-0.069,-0.4687,-0.1075,-1.606990476647848,-0.09452164173126221,1.4135775566101074,-2.3294668197631836,0.6532086133956909,2.443519353866577,5.462923574238577,-0.8383843302726746,-0.06438890844583511,-1.58331805864443,0.00011731302220141515,0.029076658189296722,0.8533111810684204,0.0,-0.001697733998298645,0.8120970129966736,0.04512206092476845,0.15889251232147217
8190.0,1100.0,-0.9565,-0.1113,9.4241,-0.069,-0.4687,-0.1075,-1.6077448330321253,-0.10005990415811539,1.3735103607177734,-2.3243796825408936,0.6381161212921143,2.4341626167297363,5.45602838972167,-0.8772131204605103,-0.0732828825712204,-1.5833099524127405,0.00010918073530774564,0.014273595996201038,0.8532951474189758,0.0,-0.004062198102474213,0.8124377727508545,0.03575628623366356,0.18048356473445892
8190.0,1100.0,-0.9565,-0.1113,9.4241,-0.069,-0.4687,-0.1075,-1.6085697613158167,-0.10674053430557251,1.3723335266113281,-2.3193068504333496,0.6349865198135376,2.4525909423828125,5.44890313127593,-0.9091191291809082,-0.054367490112781525,-1.5833099524127405,5.13058366777841e-05,0.01912429928779602,0.8532832264900208,0.0,-0.004208777099847794,0.8125969171524048,0.029985684901475906,0.11756841838359833
8190.0,1100.0,-0.9565,-0.1113,9.4241,-0.069,-0.4687,-0.1075,-1.609429498712057,-0.1062968298792839,1.4624065160751343,-2.3141860961914062,0.6377546787261963,2.4298129081726074,5.441592919617452,-0.9328660368919373,-0.04314035177230835,-1.5833099524127405,4.600949614541605e-05,0.0015617116587236524,0.8533108234405518,0.0,0.0021116866264492273,0.8128817081451416,0.026451323181390762,0.16094082593917847
8190.0,1100.0,-0.9565,-0.1113,9.4241,-0.069,-0.4687,-0.1075,-1.6102444134154261,-0.10578110069036484,1.464679479598999,-2.309101104736328,0.6258695721626282,2.4406111240386963,5.4338639853294275,-0.9571790099143982,-0.031236227601766586,-1.583273712788717,4.174145215074532e-05,0.007504375651478767,0.8532307744026184,0.0,-0.010974405333399773,0.8130334615707397,0.02232471853494644,0.16178575158119202
8190.0,1100.0,-0.9565,-0.1113,9.4241,-0.069,-0.4687,-0.1075,-1.6113282642760218,-0.11200655251741409,1.479310393333435,-2.3028290271759033,0.6197279095649719,2.41953182220459,5.424203145294943,-0.992592453956604,-0.02732541412115097,-1.5832856337176722,4.660357444663532e-05,-0.0005628152284771204,0.8532992005348206,0.0,0.008476153947412968,0.813278079032898,0.018749328330159187,0.1556035280227661
8190.0,1100.0,-0.9565,-0.1113,9.4241,-0.069,-0.4687,-0.1075,-1.612115045587057,-0.10928229242563248,1.4215422868728638,-2.2980828285217285,0.6260043382644653,2.390718698501587,5.416128265648641,-1.0119355916976929,-0.05263477563858032,-1.5832942167865198,-3.983139436058991e-07,0.00399261899292469,0.8532509207725525,0.0,0.003212394891306758,0.8133217096328735,0.014429078437387943,0.13233423233032227
1070.0,984.0,0.451,-0.4289,8.3886,-0.0852,-0.7288,-0.1177,-1.6129456959166468,-0.10256411135196686,1.48941969871521,-2.2931339740753174,0.6113277077674866,2.417778491973877,5.407834696560659,-1.0440998077392578,-0.0480308011174202,-1.58331805864443,-7.239159792449268e-12,0.001909662620164454,0.853279173374176,0.0,-0.005981212481856346,0.8134219646453857,0.008483996614813805,0.13090060651302338
1070.0,984.0,0.451,-0.4289,8.3886,-0.0852,-0.7288,-0.1177,-1.6138497791686,-0.10587351024150848,1.4362059831619263,-2.288250207901001,0.613537073135376,2.444584608078003,5.399285840779104,-1.0646594762802124,-0.0289607010781765,-1.5832698980914515,-1.3156817185913238e-16,0.00917981006205082,0.8533557653427124,0.0,0.0009247029665857553,0.8134738206863403,0.003796344855800271,0.1033448800444603
1070.0,984.0,0.451,-0.4289,8.3886,-0.0852,-0.7288,-0.1177,-1.6146570644774378,-0.10392405092716217,1.4904181957244873,-2.2833385467529297,0.6119608283042908,2.49365496635437,5.390663850098409,-1.0856711864471436,-0.05448029935359955,-1.5832861105548304,-2.3911864921250863e-21,0.023025430738925934,0.8532788157463074,0.0,0.0009549465030431747,0.813534140586853,0.0017013816395774484,0.12493577599525452
1070.0,984.0,0.451,-0.4289,8.3886,-0.0852,-0.7288,-0.1177,-1.6154724560179652,-0.10569746792316437,1.4739539623260498,-2.2784829139709473,0.5988682508468628,2.483131170272827,5.381827997952261,-1.1161655187606812,-0.035426538437604904,-1.583261791859762,-4.3458627684025443e-26,0.001775501063093543,0.8533108234405518,0.0,0.0069365911185741425,0.8134738206863403,0.0003852994996123016,0.0781264454126358
1070.0,984.0,0.451,-0.4289,8.3886,-0.0852,-0.7288,-0.1177,-1.6163045368590296,-0.10794657468795776,1.4567310810089111,-2.2737038135528564,0.5923770666122437,2.4838948249816895,5.372805344849386,-1.1393177509307861,-0.074458047747612,-1.5833266417132776,-7.89839104599992e-31,0.032287903130054474,0.8532631397247314,0.0,-0.00585869001224637,0.8134616017341614,-0.0004498067428357899,0.08772021532058716
1070.0,984.0,0.451,-0.4289,8.3886,-0.0852,-0.7288,-0.1177,-1.6170836887755335,-0.10623427480459213,1.4907019138336182,-2.268967390060425,0.6037585735321045,2.4756104946136475,5.363607036858358,-1.1493974924087524,-0.05722825601696968,-1.5832937399493616,-1.4354935548122078e-35,0.0011705753859132528,0.8532750606536865,0.0,0.017882205545902252,0.8134739398956299,-0.0004967007553204894,0.09030123054981232
1070.0,984.0,0.451,-0.4289,8.3886,-0.0852,-0.7288,-0.1177,-1.6179553471007289,-0.10113014280796051,1.495511531829834,-2.2642107009887695,0.5992683172225952,2.4904024600982666,5.354198205261984,-1.1678557395935059,-0.03387928754091263,-1.5832937399493616,-2.6089374808799444e-40,0.004515282344073057,0.8533030152320862,0.0,-0.004462669603526592,0.8134577870368958,-0.000452539068646729,0.09965818375349045
1070.0,984.0,0.451,-0.4289,8.3886,-0.0852,-0.7288,-0.1177,-1.6190372906126917,-0.10388950258493423,1.4806041717529297,-2.2582650184631348,0.5946380496025085,2.5087461471557617,5.34277235248641,-1.1862678527832031,-0.035977426916360855,-1.5832575003253382,-0.0,0.013883699662983418,0.8532508611679077,0.0,0.014033885672688484,0.8134335279464722,-0.0003960186440963298,0.0893533006310463
1070.0,984.0,0.451,-0.4289,8.3886,-0.0852,-0.7288,-0.1177,-1.619913717309469,-0.10338988900184631,1.5680606365203857,-2.2535040378570557,0.5981889367103577,2.4642908573150635,5.333081471710958,-1.1953251361846924,-0.06375635415315628,-1.583261791859762,-0.0,0.01568112149834633,0.8532951474189758,0.0,0.003480609506368637,0.8134657144546509,-0.000137258306494914,0.08241323381662369
1070.0,984.0,0.451,-0.4289,8.3886,-0.0852,-0.7288,-0.1177,-1.6207362614073695,-0.10686170309782028,1.5362427234649658,-2.2486791610717773,0.5859459638595581,2.440690279006958,5.323238181858816,-1.2091655731201172,-0.03390404209494591,-1.5833023230182093,-0.0,0.015305371955037117,0.8532069325447083,0.0,0.003957529552280903,0.8134574294090271,-0.00015775686188135296,0.012483085505664349
1070.0,984.0,0.451,-0.4289,8.3886,-0.0852,-0.7288,-0.1177,-1.621592184106344,-0.1117502897977829,1.5194650888442993,-2.243943691253662,0.5818601846694946,2.4400906562805176,5.313848125725546,-1.2153500318527222,-0.02681790292263031,-1.5832374731646937,-0.0,0.012001127004623413,0.8532668948173523,0.0,-0.000846699345856905,0.8135104179382324,-0.00017042073886841536,0.06490407139062881
8190.0,1019.0,2.1206,-0.198,10.4249,-0.0883,-0.5547,-0.1335,-1.622495790521139,-0.11197472363710403,1.5383334159851074,-2.239198923110962,0.5948790907859802,2.4515371322631836,5.304169940739431,-1.2098736763000488,-0.0497913733124733,-1.5832980314837855,-0.0,0.010369052179157734,0.8533030152320862,0.0,0.0029408480040729046,0.8135141730308533,-0.00010750310320872813,0.09909087419509888
8190.0,1019.0,2.1206,-0.198,10.4249,-0.0883,-0.5547,-0.1335,-1.6233788929381312,-0.10823062807321548,1.536685585975647,-2.234539270401001,0.5937278866767883,2.477356195449829,5.294381785183706,-1.1967601776123047,-0.04364177957177162,-1.5832741896258753,-0.0,0.016345202922821045,0.8533030152320862,0.0,0.01251262053847313,0.8134495615959167,-9.273326577385888e-05,0.06711180508136749
8190.0,1019.0,2.1206,-0.198,10.4249,-0.0883,-0.5547,-0.1335,-1.6243258915343226,-0.10587632656097412,1.5807379484176636,-2.229774236679077,0.5837390422821045,2.4433300495147705,5.284911203175344,-1.1972169876098633,-0.038158975541591644,-1.583261791859762,-0.0,0.018612509593367577,0.8533312678337097,0.0,0.0036933617666363716,0.8134856820106506,-8.153181261150166e-05,0.10274356603622437
8190.0,1019.0,2.1206,-0.198,10.4249,-0.0883,-0.5547,-0.1335,-1.6251403294005335,-0.10075363516807556,1.565972089767456,-2.2250618934631348,0.5977697372436523,2.44406795501709,5.275337683945455,-1.1810845136642456,0.005346239544451237,-1.5832374731646937,-0.0,0.027164380997419357,0.8533308506011963,0.0,0.02094702050089836,0.8134856820106506,0.00013432471314445138,0.07256112992763519
8190.0,1019.0,2.1206,-0.198,10.4249,-0.0883,-0.5547,-0.1335,-1.625951429406637,-0.09597623348236084,1.6754581928253174,-2.220381498336792,0.593009352684021,2.486097812652588,5.2659658072288416,-1.1675854921340942,-0.01149904727935791,-1.5833023230182093,-0.0,0.012532869353890419,0.8532983660697937,0.0,0.01873036101460457,0.8135059475898743,0.0007484257221221924,0.08306299149990082
8190.0,1019.0,2.1206,-0.198,10.4249,-0.0883,-0.5547,-0.1335,-1.6268912754454554,-0.09552817791700363,1.6533286571502686,-2.2144668102264404,0.5806875228881836,2.472532033920288,5.254532980709829,-1.1590970754623413,0.019910108298063278,-1.5833342711078089,-0.0,-0.004007348325103521,0.8532668352127075,0.0,0.018158113583922386,0.8135260343551636,0.00044196704402565956,0.13811080157756805
8190.0,1019.0,2.1206,-0.198,10.4249,-0.0883,-0.5547,-0.1335,-1.6276027164854945,-0.08952999860048294,1.641193151473999,-2.209695816040039,0.5928677916526794,2.4644651412963867,5.245280194073477,-1.1291509866714478,-0.0027550009544938803,-1.5832741896258753,-0.0,0.014708428643643856,0.8532870411872864,8.512313343089772e-08,0.014781363308429718,0.8134861588478088,0.0003329410683363676,0.11748698353767395
8190.0,1019.0,2.1206,-0.198,10.4249,-0.0883,-0.5547,-0.1335,-1.6283546886839808,-0.08497893810272217,1.719822883605957,-2.204983711242676,0.5992159843444824,2.452559471130371,5.236347722798147,-1.0994421243667603,-0.008857537992298603,-1.583273712788717,-0.0,0.006032575387507677,0.8533393740653992,1.5470709565854057e-12,0.022944847121834755,0.8134697079658508,0.0002670682151801884,0.15248402953147888
8190.0,1019.0,2.1206,-0.198,10.4249,-0.0883,-0.5547,-0.1335,-1.6290575466551722,-0.08704295754432678,1.6398634910583496,-2.200258493423462,0.5915519595146179,2.4384899139404297,5.227610575943746,-1.0913851261138916,0.01677124947309494,-1.5832937399493616,-0.0,-0.010370614007115364,0.8533030152320862,2.811725537538405e-17,0.01917807199060917,0.8134779334068298,0.00022295708185993135,0.10923423618078232
8190.0,1019.0,2.1206,-0.198,10.4249,-0.0883,-0.5547,-0.1335,-1.6298781834044398,-0.08726316690444946,1.7697150707244873,-2.1955244541168213,0.5990610122680664,2.4633138179779053,5.21927963474349,-1.063025712966919,0.025343989953398705,-1.5833099524127405,-0.0,-0.007082001771777868,0.8532828688621521,5.110172281568524e-22,0.02904399484395981,0.8134861588478088,0.00022195391647983342,0.13747167587280273
8190.0,1019.0,2.1206,-0.198,10.4249,-0.0883,-0.5547,-0.1335,-1.6304809055724085,-0.07559319585561752,1.7603280544281006,-2.1907622814178467,0.6013533473014832,2.4720194339752197,5.210729259043493,-1.0450154542922974,0.017138134688138962,-1.5832861105548304,-0.0,-0.0008384570246562362,0.853306770324707,9.287485926528432e-27,0.020234964787960052,0.8134902715682983,3.2356594601878896e-05,0.12634634971618652
1009.0,893.0,2.4359,0.2686,9.3398,-0.037,-0.4672,-0.1145,-1.6310235462584437,-0.06849946081638336,1.7454452514648438,-2.185962200164795,0.583093523979187,2.503636360168457,5.202326851874151,-1.036700963973999,0.02657483145594597,-1.5833342711078089,-0.0,-0.003086663084104657,0.8532627820968628,1.6879546395463162e-31,0.028009269386529922,0.8134495615959167,1.0483125869112375e-12,0.18005876243114471
1009.0,893.0,2.4359,0.2686,9.3398,-0.037,-0.4672,-0.1145,-1.6315227947630824,-0.06522126495838165,1.8008878231048584,-2.181208372116089,0.5832111835479736,2.464017868041992,5.194176274328985,-1.0264967679977417,0.018139123916625977,-1.58331805864443,-0.0,-0.010655004531145096,0.8533227443695068,3.067774434932682e-36,0.02482326328754425,0.8134536743164062,3.396399071498757e-20,0.13355126976966858
1009.0,893.0,2.4359,0.2686,9.3398,-0.037,-0.4672,-0.1145,-1.632054945031637,-0.062244005501270294,1.7463700771331787,-2.176518201828003,0.5909994840621948,2.42995548248291,5.186071920185842,-1.0099912881851196,0.027276504784822464,-1.5832861105548304,-0.0,-0.014799557626247406,0.8532705307006836,5.575486329855582e-41,0.027500726282596588,0.8134698867797852,1.100390088561358e-27,0.17055198550224304
1009.0,893.0,2.4359,0.2686,9.3398,-0.037,-0.4672,-0.1145,-1.632486959496969,-0.05500590428709984,1.7609446048736572,-2.1718642711639404,0.5879877209663391,2.5062501430511475,5.178010898619451,-0.9984839558601379,0.03558976948261261,-1.5832698980914515,-0.0,-0.012700147926807404,0.8533231019973755,1.401298464324817e-45,0.02799062803387642,0.8134376406669617,-0.0003211413568351418,0.15277013182640076
1009.0,893.0,2.4359,0.2686,9.3398,-0.037,-0.4672,-0.1145,-1.6330543957152308,-0.0565781369805336,1.790900468826294,-2.1659703254699707,0.5858285427093506,2.470913887023926,5.1681057689483545,-0.987190306186676,0.04055409133434296,-1.5833261648761194,-0.0,-0.018943842500448227,0.8533231019973755,0.0,0.011723224073648453,0.8134412169456482,-0.0003118827298749238,0.20784297585487366
1009.0,893.0,2.4359,0.2686,9.3398,-0.037,-0.4672,-0.1145,-1.633538385430807,-0.06093238294124603,1.767674207687378,-2.1614058017730713,0.5972285270690918,2.4937613010406494,5.160238015442648,-0.9658305644989014,0.008440107107162476,-1.5832937399493616,-0.0,-0.01360582746565342,0.8532750606536865,0.0,0.03110511600971222,0.8134055137634277,-2.6181923296064724e-09,0.18349863588809967
1009.0,893.0,2.4359,0.2686,9.3398,-0.037,-0.4672,-0.1145,-1.6340381107726039,-0.06473425775766373,1.7681286334991455,-2.1565892696380615,0.582484781742096,2.4802088737487793,5.152514117747106,-0.961031973361969,0.025095023214817047,-1.5833218733416956,-0.0,-0.02703258767724037,0.8532183766365051,0.0,0.0263573806732893,0.8134458661079407,-8.482611450278191e-17,0.2570500373840332
1009.0,893.0,2.4359,0.2686,9.3398,-0.037,-0.4672,-0.1145,-1.6345530949034632,-0.06538912653923035,1.7689331769943237,-2.151819944381714,0.5798428058624268,2.502213954925537,5.144976335554876,-0.950158953666687,0.0413937121629715,-1.5832980314837855,-0.0,-0.024139001965522766,0.8533070683479309,0.0,0.028198692947626114,0.8134618401527405,-2.748258273512249e-24,0.19556505978107452
1009.0,893.0,2.4359,0.2686,9.3398,-0.037,-0.4672,-0.1145,-1.635000844995016,-0.06124211847782135,1.89577054977417,-2.1471798419952393,0.5863737463951111,2.495737314224243,5.1375379143054865,-0.9219499826431274,0.04456169158220291,-1.5833056608783167,-0.0,-0.02424595132470131,0.8532704710960388,0.0,0.027598902583122253,0.8134821653366089,-8.904005304230073e-32,0.17721760272979736
1009.0,893.0,2.4359,0.2686,9.3398,-0.037,-0.4672,-0.1145,-1.6354972324767054,-0.0528290830552578,1.8120015859603882,-2.1425373554229736,0.5823866724967957,2.4645729064941406,5.130292582302847,-0.9015923142433167,0.05663372576236725,-1.583278004323141,-0.0,-0.03993953391909599,0.853246808052063,0.0,0.015251408331096172,0.8134417533874512,-2.884784484880749e-39,0.259231835603714
1009.0,893.0,2.4359,0.2686,9.3398,-0.037,-0.4672,-0.1145,-1.6359607181944789,-0.049637023359537125,1.85706627368927,-2.1378724575042725,0.5703652501106262,2.515472173690796,5.123060601740637,-0.8899289965629578,0.0664902776479721,-1.5832975546466272,-0.0,-0.030584678053855896,0.8533070683479309,0.0,0.01253397949039936,0.8134979605674744,-0.0,0.2757852077484131
980.0,905.0,1.7037,-0.1172,8.5478,-0.0553,-0.2447,-0.1196,-1.636343618432516,-0.051405955106019974,1.8442847728729248,-2.133416175842285,0.5738619565963745,2.503967046737671,5.115888970881262,-0.8807530403137207,0.05266749858856201,-1.5832575003253382,-0.0,-0.03309756517410278,0.8532788157463074,0.0,0.01612372323870659,0.8135219216346741,0.0002052144700428471,0.3168322741985321
980.0,905.0,1.7037,-0.1172,8.5478,-0.0553,-0.2447,-0.1196,-1.6366468868651332,-0.046750012785196304,1.8584818840026855,-2.128899097442627,0.5687513947486877,2.5334057807922363,5.108833122044363,-0.865230917930603,0.0704878568649292,-1.5833142439471644,-0.0,-0.04616071656346321,0.8533268570899963,0.0,0.013339852914214134,0.8134778738021851,0.001363879069685936,0.3058386743068695
980.0,905.0,1.7037,-0.1172,8.5478,-0.0553,-0.2447,-0.1196,-1.637134691277975,-0.04077736288309097,1.8906383514404297,-2.1232657432556152,0.5485506653785706,2.5249173641204834,5.100437867432394,-0.8618523478507996,0.05469652637839317,-1.5833056608783167,-0.0,-0.045516930520534515,0.8532907366752625,0.0,0.01298078615218401,0.8134533762931824,0.000502522278111428,0.3148657977581024
980.0,905.0,1.7037,-0.1172,8.5478,-0.0553,-0.2447,-0.1196,-1.6374584637083949,-0.03694136440753937,1.9316744804382324,-2.1188158988952637,0.5514373779296875,2.5501410961151123,5.093767034798422,-0.8418120741844177,0.04932144284248352,-1.5832980314837855,-0.0,-0.05914371833205223,0.8532627820968628,0.0,0.03406749665737152,0.813514232635498,0.000554677564650774,0.300299733877182
980.0,905.0,1.7037,-0.1172,8.5478,-0.0553,-0.2447,-0.1196,-1.6377068958678187,-0.03219974786043167,1.8840851783752441,-2.114443063735962,0.5522470474243164,2.5093493461608887,5.086939501553335,-0.8261286020278931,0.05271616578102112,-1.583289925252096,-0.0,-0.05638334900140762,0.8533185124397278,0.0,0.018903017044067383,0.8134980201721191,0.000490107573568821,0.32692819833755493
980.0,905.0,1.7037,-0.1172,8.5478,-0.0553,-0.2447,-0.1196,-1.6379624805846156,-0.029753876850008965,1.9140028953552246,-2.1101057529449463,0.5442265272140503,2.500587224960327,5.0803410587604425,-0.8116152286529541,0.04501141607761383,-1.5832937399493616,-0.0,-0.05561545491218567,0.8532509207725525,0.0,0.02674441784620285,0.8135301470756531,0.0003857552947010845,0.34091469645500183
980.0,905.0,1.7037,-0.1172,8.5478,-0.0553,-0.2447,-0.1196,-1.6382018528380335,-0.03133207559585571,1.9552218914031982,-2.105698347091675,0.5408115983009338,2.515733242034912,5.073823082237997,-0.8043469786643982,0.044650137424468994,-1.5833385626422327,-0.0,-0.06195763498544693,0.8532988429069519,0.0,0.008082199841737747,0.8134856224060059,0.00031766959000378847,0.32478663325309753
980.0,905.0,1.7037,-0.1172,8.5478,-0.0553,-0.2447,-0.1196,-1.6384746036925257,-0.03486114740371704,1.9295239448547363,-2.101377487182617,0.5504212379455566,2.5616345405578613,5.067540544062414,-0.7868948578834534,0.06913807988166809,-1.583306137715475,-0.0,-0.04158245772123337,0.8532627820968628,0.0,0.027186188846826553,0.8134574294090271,0.00028451596153900027,0.3099839687347412
980.0,905.0,1.7037,-0.1172,8.5478,-0.0553,-0.2447,-0.1196,-1.6386891804137171,-0.034869030117988586,1.9034926891326904,-2.0970921516418457,0.5429953932762146,2.5291991233825684,5.061341005354681,-0.7829887270927429,0.06245918571949005,-1.5832937399493616,-0.0,-0.060650534927845,0.8532668352127075,0.0,0.024775145575404167,0.8134574294090271,0.00014165297034196556,0.3208962678909302
980.0,905.0,1.7037,-0.1172,8.5478,-0.0553,-0.2447,-0.1196,-1.6389810047545375,-0.03917376324534416,1.9865834712982178,-2.092729330062866,0.5312643051147461,2.532987594604492,5.055039125471868,-0.7875815629959106,0.049183040857315063,-1.5832818190204065,-0.0,-0.055050551891326904,0.8533108234405518,0.0,0.013914242386817932,0.8134739398956299,-0.00025621321401558816,0.2939084470272064
980.0,905.0,1.7037,-0.1172,8.5478,-0.0553,-0.2447,-0.1196,-1.6393162212767542,-0.04291008040308952,1.90067458152771,-2.088386058807373,0.5366230607032776,2.524965286254883,5.048762607365408,-0.7688794136047363,0.06659351289272308,-1.583350960408346,-0.0,-0.04796784371137619,0.8532907366752625,0.0,0.014766465872526169,0.8135021328926086,-6.301925168372691e-05,0.3094050884246826
954.0,950.0,1.5583,0.015,9.1292,-0.0386,-0.2263,-0.137,-1.6397325001158656,-0.0375094898045063,1.9407787322998047,-2.083080530166626,0.529762864112854,2.533446788787842,5.041108178883352,-0.7595365643501282,0.04727760702371597,-1.5833142439471644,-0.0,-0.04612480103969574,0.8533029556274414,0.0,0.013787695206701756,0.8134458661079407,-0.0002999663702212274,0.27827200293540955
954.0,950.0,1.5583,0.015,9.1292,-0.0386,-0.2263,-0.137,-1.640081068078512,-0.03314352408051491,1.9684882164001465,-2.07883620262146,0.5261135101318359,2.47481632232666,5.035212504654684,-0.7508652806282043,0.05614294856786728,-1.5833056608783167,-0.0,-0.03795619308948517,0.8533350229263306,0.0,0.02581387385725975,0.8134536743164062,-0.0005714722210541368,0.2755599021911621
954.0,950.0,1.5583,0.015,9.1292,-0.0386,-0.2263,-0.137,-1.640303751031393,-0.02974962443113327,1.9633225202560425,-2.0746848583221436,0.5185088515281677,2.53117299079895,5.0292339501674554,-0.7369291186332703,0.06388604640960693,-1.583289925252096,-0.0,-0.03710440918803215,0.8532910943031311,0.0,0.0152004798874259,0.8134253025054932,-0.00030325143598020077,0.20964744687080383
954.0,950.0,1.5583,0.015,9.1292,-0.0386,-0.2263,-0.137,-1.640536447564596,-0.028675388544797897,2.00430965423584,-2.0706048011779785,0.5168094635009766,2.579399585723877,5.02330510595397,-0.737693727016449,0.05557636544108391,-1.5833142439471644,-0.0,-0.05354692041873932,0.8532869815826416,0.0,0.012594414874911308,0.8134903311729431,-7.930793799459934e-05,0.2774142622947693
954.0,950.0,1.5583,0.015,9.1292,-0.0386,-0.2263,-0.137,-1.6407276592650355,-0.02694988250732422,1.977645754814148,-2.066582202911377,0.5069394111633301,2.5852692127227783,5.017398077040472,-0.7358749508857727,0.05344448238611221,-1.5832937399493616,-0.0,-0.033692456781864166,0.8533230423927307,0.0,0.02683647908270359,0.8134615421295166,-5.823791434522718e-05,0.2483293116092682
954.0,950.0,1.5583,0.015,9.1292,-0.0386,-0.2263,-0.137,-1.640935560266012,-0.02757698856294155,1.952337384223938,-2.0624821186065674,0.49562713503837585,2.515674114227295,5.011550086527624,-0.7333368062973022,0.04518194496631622,-1.5832861105548304,-2.032696284004487e-05,-0.03697964921593666,0.8532751202583313,0.0,0.022849295288324356,0.8134698271751404,-9.252400195691735e-05,0.19787898659706116
954.0,950.0,1.5583,0.015,9.1292,-0.0386,-0.2263,-0.137,-1.6411997280516566,-0.029841413721442223,1.9765651226043701,-2.0584912300109863,0.4925229549407959,2.5237302780151367,5.005801456957617,-0.722743809223175,0.052701450884342194,-1.5833099524127405,-8.475426227505523e-08,-0.025221148505806923,0.8533070683479309,0.0,0.010568235069513321,0.8134861588478088,-5.4033313290347e-07,0.20349128544330597
954.0,950.0,1.5583,0.015,9.1292,-0.0386,-0.2263,-0.137,-1.6414109669127406,-0.0344759076833725,1.9866918325424194,-2.0545759201049805,0.4846798777580261,2.5513596534729004,5.000159251480856,-0.7135520577430725,0.046136464923620224,-1.58331805864443,-1.5403670092922761e-12,-0.03045748546719551,0.8532668948173523,0.0,0.014668406918644905,0.8134738206863403,-1.7506104259355088e-14,0.20002210140228271
954.0,950.0,1.5583,0.015,9.1292,-0.0386,-0.2263,-0.137,-1.6417633495726527,-0.03960317000746727,1.9642198085784912,-2.050774574279785,0.48194727301597595,2.5228896141052246,4.994422572642126,-0.6989396810531616,0.04036925733089447,-1.5832698980914515,-2.799541167115499e-17,-0.016403913497924805,0.8532910346984863,0.0,0.01946893148124218,0.8134856820106506,-5.671754913148417e-22,0.17476534843444824
954.0,950.0,1.5583,0.015,9.1292,-0.0386,-0.2263,-0.137,-1.642163415948385,-0.04467514157295227,1.9911270141601562,-2.046027898788452,0.47272732853889465,2.5303220748901367,4.987440484553137,-0.6815739870071411,0.04438554123044014,-1.5832698980914515,-3.32211825501585e-23,-0.02307528629899025,0.853294849395752,0.0,0.017522329464554787,0.8135383725166321,-2.465343613279009e-31,0.1981188803911209
954.0,950.0,1.5583,0.015,9.1292,-0.0386,-0.2263,-0.137,-1.6425510845580042,-0.04887742921710014,2.022216320037842,-2.0422799587249756,0.4626261591911316,2.4846153259277344,4.981974500208654,-0.6743130683898926,0.053566090762615204,-1.583289925252096,-6.037787486759068e-28,-0.026644788682460785,0.853294849395752,0.0,0.007385574746876955,0.813542366027832,0.0003273042675573379,0.16764213144779205
961.0,843.0,1.9101,0.0173,7.8126,-0.0542,-0.1878,-0.1219,-1.6429592571654261,-0.05548682063817978,1.9325885772705078,-2.0386319160461426,0.46505436301231384,2.5177206993103027,4.976771014719763,-0.6544307470321655,0.057536378502845764,-1.5832985083209437,-1.097338302830006e-32,-0.02148803323507309,0.853294849395752,0.0,0.015152445062994957,0.8135342001914978,0.0012811184860765934,0.17164728045463562
961.0,843.0,1.9101,0.0173,7.8126,-0.0542,-0.1878,-0.1219,-1.6434265575804652,-0.06173357740044594,1.9629871845245361,-2.034954071044922,0.45650312304496765,2.517914056777954,4.9717039344604395,-0.6467259526252747,0.06584163755178452,-1.5833104292498987,-1.9943580182661548e-37,-0.014472070150077343,0.8532989025115967,0.0,0.013968945480883121,0.8135416507720947,0.0019159973599016666,0.12889981269836426
961.0,843.0,1.9101,0.0173,7.8126,-0.0542,-0.1878,-0.1219,-1.643994470635885,-0.06632072478532791,2.0260281562805176,-2.0313992500305176,0.43864116072654724,2.4382123947143555,4.9666786072547815,-0.6323927044868469,0.044275037944316864,-1.5832861105548304,-3.625159127208302e-42,-0.024078603833913803,0.853318989276886,0.0,0.018201854079961777,0.8135535717010498,0.0024003784637898207,0.10000738501548767
961.0,843.0,1.9101,0.0173,7.8126,-0.0542,-0.1878,-0.1219,-1.64455046276235,-0.07567385584115982,2.009488344192505,-2.02789044380188,0.43537405133247375,2.496062755584717,4.961659285217085,-0.6162731647491455,0.04757518321275711,-1.5832818190204065,-0.0,-0.02118813805282116,0.8533271551132202,0.0,0.021102260798215866,0.813637912273407,0.0066796522587537766,0.09298090636730194
961.0,843.0,1.9101,0.0173,7.8126,-0.0542,-0.1878,-0.1219,-1.645104547540182,-0.07952732592821121,2.0116231441497803,-2.0244038105010986,0.42438042163848877,2.478496789932251,4.956887545972624,-0.5911620259284973,0.06523537635803223,-1.583261791859762,-0.0,-0.025512825697660446,0.8532865047454834,0.0,0.012624488212168217,0.8136938810348511,0.009508570656180382,0.08159631490707397
961.0,843.0,1.9101,0.0173,7.8126,-0.0542,-0.1878,-0.1219,-1.6457888088622035,-0.08217446506023407,1.9880863428115845,-2.0211174488067627,0.4089865982532501,2.4220995903015137,4.952175783901968,-0.582558274269104,0.059021152555942535,-1.58331805864443,-0.0,-0.03329852968454361,0.8533267974853516,0.0,0.006827306002378464,0.813789963722229,0.009193679317831993,0.1612437665462494
961.0,843.0,1.9101,0.0173,7.8126,-0.0542,-0.1878,-0.1219,-1.646412035027975,-0.08605989813804626,2.041018009185791,-2.0179049968719482,0.40130144357681274,2.4293415546417236,4.9477441040571115,-0.5486212372779846,0.05733267590403557,-1.5832861105548304,-0.0,-0.026835260912775993,0.8532710075378418,0.0,-0.006646011024713516,0.8138541579246521,0.0077096023596823215,0.1156717836856842
961.0,843.0,1.9101,0.0173,7.8126,-0.0542,-0.1878,-0.1219,-1.647411962548727,-0.09932521730661392,1.9958744049072266,-2.0140233039855957,0.38748058676719666,2.4298348426818848,4.942365664034643,-0.5225446224212646,0.05433923378586769,-1.5833099524127405,-0.0,-0.023637833073735237,0.8532265424728394,0.0,0.007410474121570587,0.8139021992683411,0.005120574962347746,0.06863686442375183
961.0,843.0,1.9101,0.0173,7.8126,-0.0542,-0.1878,-0.1219,-1.648235937158102,-0.11504199355840683,1.9984986782073975,-2.0109167098999023,0.3688840866088867,2.3994603157043457,4.938361543207922,-0.5018860697746277,0.0582815445959568,-1.58331805864443,-0.0,-0.0036498820409178734,0.8532669544219971,0.0,0.018478166311979294,0.8138898611068726,0.0021196305751800537,0.1302466243505478
961.0,843.0,1.9101,0.0173,7.8126,-0.0542,-0.1878,-0.1219,-1.6491419277586878,-0.1218770444393158,2.008666515350342,-2.0080277919769287,0.37088721990585327,2.398833751678467,4.934560569911756,-0.46473202109336853,0.05836579203605652,-1.583278004323141,-0.0,-0.030032042413949966,0.8532791137695312,0.0,0.01646260730922222,0.8138816356658936,0.00022018232266418636,0.09051372110843658
961.0,843.0,1.9101,0.0173,7.8126,-0.0542,-0.1878,-0.1219,-1.6502472362914027,-0.12688612937927246,2.0256752967834473,-2.0051896572113037,0.3572319746017456,2.397962808609009,4.9308939454849146,-0.4374958574771881,0.08210907876491547,-1.5832980314837855,-0.0,-0.017599910497665405,0.8532750606536865,0.0,0.007866605184972286,0.813870370388031,3.3254227149726034e-10,0.04189491271972656
949.0,846.0,1.4249,-0.3165,8.4963,0.0093,0.0985,-0.1158,-1.6513859234251917,-0.12954004108905792,2.0307703018188477,-2.0022990703582764,0.3399104177951813,2.383819580078125,4.92765029051856,-0.3992786705493927,0.11041997373104095,-1.5832937399493616,-0.0,-0.017704986035823822,0.8532549738883972,0.0,-0.0006850183708593249,0.8138620853424072,-0.001107715186662972,0.03311127796769142
949.0,846.0,1.4249,-0.3165,8.4963,0.0093,0.0985,-0.1158,-1.6525126896300257,-0.1491183042526245,2.036658763885498,-1.9996848106384277,0.3235335648059845,2.3622374534606934,4.924686211138525,-0.3669165074825287,0.11466388404369354,-1.5832904020892542,-0.0,-0.012829534709453583,0.8533030152320862,0.0,0.004615184385329485,0.8138620853424072,-0.0008416349883191288,0.07537586987018585
949.0,846.0,1.4249,-0.3165,8.4963,0.0093,0.0985,-0.1158,-1.6537515125670375,-0.17279866337776184,1.9716651439666748,-1.9970989227294922,0.3102051615715027,2.32098650932312,4.921940612583914,-0.31971463561058044,0.14550231397151947,-1.583278004323141,-0.0,-0.013344375416636467,0.8532869815826416,0.0,-0.005382605362683535,0.8138219714164734,-0.0006716480711475015,0.08104448020458221
949.0,846.0,1.4249,-0.3165,8.4963,0.0093,0.0985,-0.1158,-1.6552316151061,-0.18488754332065582,1.9902610778808594,-1.9946279525756836,0.290438711643219,2.3087682723999023,4.919610130577841,-0.2664065957069397,0.1534160077571869,-1.5832818190204065,-0.0,-0.007100192829966545,0.8533229827880859,0.0,-0.0035666669718921185,0.8138140439987183,-0.0026372375432401896,0.07965058088302612
949.0,846.0,1.4249,-0.3165,8.4963,0.0093,0.0985,-0.1158,-1.6567493877806605,-0.17638827860355377,2.046722412109375,-1.992350459098816,0.2832728326320648,2.3385510444641113,4.917812901526251,-0.21792840957641602,0.1899619996547699,-1.5832741896258753,-0.0,-0.0029540937393903732,0.8532549738883972,0.0,-0.005250598303973675,0.8137780427932739,-0.004117700736969709,0.03442569077014923
949.0,846.0,1.4249,-0.3165,8.4963,0.0093,0.0985,-0.1158,-1.6586791477599085,-0.1916840672492981,2.035973310470581,-1.9896236658096313,0.2684241235256195,2.268808364868164,4.916172417789259,-0.11830413341522217,0.23259346187114716,-1.5833023230182093,-0.0,-0.011953767389059067,0.8532910346984863,0.0,0.00508715957403183,0.8137698173522949,-0.0017022088868543506,0.010031912475824356
949.0,846.0,1.4249,-0.3165,8.4963,0.0093,0.0985,-0.1158,-1.6603428326048792,-0.22465209662914276,2.0526673793792725,-1.9875810146331787,0.24448537826538086,2.255568504333496,4.9154758779104135,-0.07192498445510864,0.256833553314209,-1.5832698980914515,-0.0,-0.00022484012879431248,0.8532549738883972,0.0,0.014060305431485176,0.8137742877006531,-0.0006660156650468707,0.0557224377989769
949.0,846.0,1.4249,-0.3165,8.4963,0.0093,0.0985,-0.1158,-1.6622358761229457,-0.2331271767616272,2.0189661979675293,-1.9856469631195068,0.23058636486530304,2.256016254425049,4.915169107704916,-0.029187116771936417,0.27282246947288513,-1.583245579396383,-0.0,0.003781289095059037,0.8533111214637756,0.0,-0.0060595073737204075,0.8137460350990295,-0.0013681604759767652,0.011411892250180244
949.0,846.0,1.4249,-0.3165,8.4963,0.0093,0.0985,-0.1158,-1.6639682255186976,-0.22996973991394043,2.0224556922912598,-1.9838205575942993,0.22620521485805511,2.190143585205078,4.915154191642561,0.012201247736811638,0.29827654361724854,-1.5832298437701624,-0.0,-0.009660945273935795,0.853291392326355,0.0,0.004201146773993969,0.81374192237854,-0.002583080204203725,-0.053956128656864166
949.0,846.0,1.4249,-0.3165,8.4963,0.0093,0.0985,-0.1158,-1.6658836803831996,-0.23997263610363007,2.018673896789551,-1.9821048974990845,0.21139414608478546,2.2520885467529297,4.915245282440939,0.01957210898399353,0.3073095381259918,-1.583249870930807,-0.0,9.030126966536045e-05,0.8533070683479309,0.0,0.009284885600209236,0.8137138485908508,-0.001584552926942706,-0.012927516363561153
949.0,846.0,1.4249,-0.3165,8.4963,0.0093,0.0985,-0.1158,-1.6678387127318324,-0.24568040668964386,2.059406042098999,-1.9804739952087402,0.19713294506072998,2.2133567333221436,4.915448847204008,0.018155774101614952,0.31005942821502686,-1.583193604146139,-0.0,0.009641449898481369,0.8532788157463074,0.0,-0.004320256412029266,0.813762366771698,-0.0005217419820837677,-0.05330922082066536
949.0,846.0,1.4249,-0.3165,8.4963,0.0093,0.0985,-0.1158,-1.6697765789427699,-0.24713504314422607,2.019113063812256,-1.979027509689331,0.20051425695419312,2.216339111328125,4.915504175215521,0.01733347401022911,0.3040635585784912,-1.5832822958575647,-0.0,0.0034076652955263853,0.8532389402389526,0.0,0.00978719163686037,0.8137019872665405,-0.0002476160298101604,0.003812188748270273
917.0,845.0,2.1966,-0.259,8.6094,-0.0408,-0.0121,-0.1231,-1.6717335186400355,-0.25897136330604553,2.066535472869873,-1.977440357208252,0.1882445216178894,2.2438580989837646,4.915607946902075,0.009023484773933887,0.30704060196876526,-1.5832417646991175,-0.0,0.0023233196698129177,0.8532910346984863,0.0,-0.002372900489717722,0.8136855959892273,-0.00024152638798113912,-0.03550960496068001
917.0,845.0,2.1966,-0.259,8.6094,-0.0408,-0.0121,-0.1231,-1.673795839349264,-0.2624238133430481,2.092069625854492,-1.9760653972625732,0.16862542927265167,2.1309585571289062,4.915679368167677,0.00513073243200779,0.31270813941955566,-1.583261791859762,-0.0,-0.01038048230111599,0.8532869815826416,0.0,0.0010890980483964086,0.8137060403823853,-0.00019041761697735637,-0.05607737600803375
917.0,845.0,2.1966,-0.259,8.6094,-0.0408,-0.0121,-0.1231,-1.6763931713499964,-0.26576998829841614,2.0879721641540527,-1.9743704795837402,0.16699457168579102,2.1675384044647217,4.915719124465742,0.013471105135977268,0.32428640127182007,-1.5832822958575647,-0.0,0.003990761935710907,0.8533355593681335,0.0,-0.009746456518769264,0.8137019276618958,-0.00015058783174026757,0.017903026193380356
917.0,845.0,2.1966,-0.259,8.6094,-0.0408,-0.0121,-0.1231,-1.6784211597838343,-0.26223236322402954,2.080935001373291,-1.973171591758728,0.15988893806934357,2.1422996520996094,4.915839257627287,0.01527349278330803,0.3203681707382202,-1.5832374731646937,-0.0,-0.012822916731238365,0.8533111214637756,0.0,-0.001689044525846839,0.8136696219444275,-7.056185131659731e-05,-0.03490351885557175
917.0,845.0,2.1966,-0.259,8.6094,-0.0408,-0.0121,-0.1231,-1.6805879078307093,-0.2710215747356415,2.1208443641662598,-1.9718847274780273,0.14671191573143005,2.1387743949890137,4.916046801000395,0.020969122648239136,0.31840384006500244,-1.5832942167865198,-0.0,-0.001018342562019825,0.8532471656799316,0.0,-0.001906139892525971,0.8136736750602722,-0.00012272784078959376,-0.035750679671764374
917.0,845.0,2.1966,-0.259,8.6094,-0.0408,-0.0121,-0.1231,-1.6828390560545863,-0.27127426862716675,2.122408866882324,-1.9706530570983887,0.13687388598918915,2.1382930278778076,4.916309761791982,0.041256874799728394,0.3315919041633606,-1.583221737538473,-0.0,-0.0018672315636649728,0.8533309102058411,0.0,-0.01537416037172079,0.8136897087097168,-0.00010800475138239563,0.004152047913521528
917.0,845.0,2.1966,-0.259,8.6094,-0.0408,-0.0121,-0.1231,-1.6850158176817835,-0.27584826946258545,2.132209539413452,-1.9697471857070923,0.1302439272403717,2.124699115753174,4.916684227972784,0.06954805552959442,0.349896639585495,-1.5832985083209437,-0.0,-0.018259895965456963,0.8533227443695068,0.0,-0.002839175518602133,0.8136778473854065,-0.0003598718612920493,-0.010417967103421688
917.0,845.0,2.1966,-0.259,8.6094,-0.0408,-0.0121,-0.1231,-1.6872850857176722,-0.2776176929473877,2.1450161933898926,-1.968675971031189,0.11883202195167542,2.1083943843841553,4.917382228165426,0.09572113305330276,0.3706781268119812,-1.5832741896258753,-0.0,-0.003951043821871281,0.853271484375,0.0,0.009934565983712673,0.8137184381484985,-0.001787599641829729,-0.042520489543676376
