ramyac6/ROB537/final_project/csv/good/good_201.csv
tof_0,tof_1,accelx,accely,accelz,gyrox,gyroy,gyroz,shoulder_lift_joint_position,shoulder_lift_joint_velocity,shoulder_lift_joint_effort,elbow_joint_position,elbow_joint_velocity,elbow_joint_effort,wrist_1_joint_position,wrist_1_joint_velocity,wrist_1_joint_effort,wrist_2_joint_position,wrist_2_joint_velocity,wrist_2_joint_effort,wrist_3_joint_position,wrist_3_joint_velocity,wrist_3_joint_effort,shoulder_pan_joint_position,shoulder_pan_joint_velocity,shoulder_pan_joint_effort
992.0,1010.0,1.8239,0.0706,9.2973,-0.0403,0.0218,-0.1196,-1.5619586205906053,0.0,1.8976905345916748,-2.0867741107940674,-0.0,1.9200023412704468,4.9596699056919,-0.0,0.2965201139450073,-1.5967214743243616,0.0,-0.00529136136174202,0.8254465460777283,-0.0,-0.00141238234937191,0.7737866044044495,0.0,0.022526947781443596
992.0,1010.0,1.8239,0.0706,9.2973,-0.0403,0.0218,-0.1196,-1.5619387694499274,0.0,1.9555573463439941,-2.086806058883667,-0.0,1.9657330513000488,4.959698560624876,-0.0,0.2929994463920593,-1.5967333952533167,0.0,-0.00837606843560934,0.825446605682373,-0.0,-0.00754019059240818,0.7738593220710754,0.0,-0.016877129673957825
992.0,1010.0,1.8239,0.0706,9.2973,-0.0403,0.0218,-0.1196,-1.5619185262224455,0.0,1.9496428966522217,-2.08679461479187,-0.0,1.9684333801269531,4.959678339749136,-0.0,0.2845602035522461,-1.5967133680926722,0.0,-0.005764654837548733,0.8254666924476624,-0.0,-0.007397237699478865,0.7738310098648071,0.0,-0.014650633558630943
992.0,1010.0,1.8239,0.0706,9.2973,-0.0403,0.0218,-0.1196,-1.5619020269117136,0.0,1.9465869665145874,-2.086721897125244,-0.0,1.9598637819290161,4.959690409689703,-0.0,0.283748984336853,-1.5967333952533167,0.0,-0.006895280443131924,0.8254904747009277,-0.0,0.002310920972377062,0.77378249168396,0.0,-0.03648262470960617
992.0,1010.0,1.8239,0.0706,9.2973,-0.0403,0.0218,-0.1196,-1.561938463976123,0.0,1.88511323928833,-2.086845874786377,-0.0,1.9916696548461914,4.959666195302763,-0.0,0.2915295362472534,-1.596790615712301,0.0,-0.0014481630641967058,0.8254224061965942,-0.0,-0.022406499832868576,0.773790717124939,0.0,0.03527367115020752
992.0,1010.0,1.8239,0.0706,9.2973,-0.0403,0.0218,-0.1196,-1.5619466996616502,0.0,1.928091287612915,-2.0868213176727295,-0.0,1.94279146194458,4.959669935494222,-0.0,0.2938525080680847,-1.5967214743243616,0.0,-0.0035593630746006966,0.8254827260971069,-0.0,-0.005476030521094799,0.7738474607467651,0.0,0.01825682446360588
1003.0,989.0,1.681,0.0431,9.5713,-0.0391,0.0179,-0.1122,-1.561942590666451,0.0,1.908968210220337,-2.0868101119995117,-0.0,1.9217708110809326,4.959654229670324,-0.0,0.29165804386138916,-1.5967133680926722,0.0,-0.012403611093759537,0.82541424036026,-0.0,-0.01374040450900793,0.7738510370254517,0.0,0.027603019028902054
1003.0,989.0,1.681,0.0431,9.5713,-0.0391,0.0179,-0.1122,-1.5619467406398435,0.0,1.964167594909668,-2.0868139266967773,-0.0,1.986743450164795,4.959698515921392,-0.0,0.2937428653240204,-1.5967419783221644,0.0,-0.017767786979675293,0.8254265189170837,-0.0,0.0018892176449298859,0.7738109827041626,0.0,-0.03710391744971275
1003.0,989.0,1.681,0.0431,9.5713,-0.0391,0.0179,-0.1122,-1.5619585637799283,0.0,1.9399259090423584,-2.08679461479187,-0.0,1.959322452545166,4.959706696658888,-0.0,0.28741455078125,-1.5967453161822718,0.0,-0.009731927886605263,0.8254786133766174,-0.0,0.004559051711112261,0.7737987041473389,0.0,-0.027201149612665176
1003.0,989.0,1.681,0.0431,9.5713,-0.0391,0.0179,-0.1122,-1.5619102793610473,0.0,1.911961555480957,-2.0867538452148438,-0.0,1.9545111656188965,4.959630417614736,-0.0,0.29570862650871277,-1.5967133680926722,0.0,-0.007116471882909536,0.825442910194397,-0.0,0.0009382259449921548,0.7737948298454285,0.0,-0.023892585188150406
1003.0,989.0,1.681,0.0431,9.5713,-0.0391,0.0179,-0.1122,-1.5619061331129451,0.0,1.8911768198013306,-2.086761951446533,-0.0,1.963773250579834,4.959702598839559,-0.0,0.29274192452430725,-1.5967701117144983,0.0,-0.0029506622813642025,0.8254544138908386,-0.0,-0.011181611567735672,0.7737945318222046,0.0,-0.021268337965011597
1003.0,989.0,1.681,0.0431,9.5713,-0.0391,0.0179,-0.1122,-1.5619305831244965,0.0,1.929756999015808,-2.086778163909912,-0.0,1.953933835029602,4.959654319077291,-0.0,0.295778751373291,-1.5967820326434534,0.0,-0.0019376587588340044,0.8254785537719727,-0.0,0.005065677687525749,0.7738229036331177,0.0,-0.014587700366973877
1003.0,989.0,1.681,0.0431,9.5713,-0.0391,0.0179,-0.1122,-1.5618900156444688,0.0,1.8832811117172241,-2.08679461479187,-0.0,1.9482922554016113,4.959718617587843,-0.0,0.30188435316085815,-1.5967333952533167,0.0,-0.011153485625982285,0.8254987001419067,-0.0,-0.009374327026307583,0.7738229036331177,0.0,-0.03218397870659828
1003.0,989.0,1.681,0.0431,9.5713,-0.0391,0.0179,-0.1122,-1.5619467406398435,0.0,1.8922001123428345,-2.0867576599121094,-0.0,1.96224045753479,4.959666210203924,-0.0,0.300786554813385,-1.5967538992511194,0.0,-0.0037213065661489964,0.8254867196083069,-0.0,-0.009952685795724392,0.7738069295883179,0.0,0.04324779659509659
1003.0,989.0,1.681,0.0431,9.5713,-0.0391,0.0179,-0.1122,-1.5619185346043487,0.0,1.8987243175506592,-2.086806535720825,-0.0,1.9511079788208008,4.95964606383399,-0.0,0.28750818967819214,-1.5967333952533167,0.0,-0.00784264411777258,0.8255347609519958,-0.0,-0.012426409870386124,0.7738069295883179,0.0,0.008104448206722736
1003.0,989.0,1.681,0.0431,9.5713,-0.0391,0.0179,-0.1122,-1.5619020352936168,0.0,1.917389154434204,-2.086782693862915,-0.0,1.949497938156128,4.959730538516798,-0.0,0.28670257329940796,-1.5967376867877405,0.0,-0.009790010750293732,0.8254589438438416,-0.0,-0.0010965014807879925,0.7738068699836731,0.0,0.004871990531682968
1003.0,989.0,1.681,0.0431,9.5713,-0.0391,0.0179,-0.1122,-1.5619585963762184,0.0,1.9332358837127686,-2.0868020057678223,-0.0,1.960485816001892,4.959686296969213,-0.0,0.29607611894607544,-1.5967662970172327,0.0,-0.003922289237380028,0.8255305886268616,-0.0,-0.007556165102869272,0.7738269567489624,0.0,0.01109648309648037
1008.0,1021.0,1.7898,0.0867,9.2303,-0.0406,0.0252,-0.1205,-1.5619305337644,0.0,1.9186290502548218,-2.0867981910705566,-0.0,1.985752820968628,4.959657984762945,-0.0,0.2945755422115326,-1.5967982451068323,0.0,-0.017724618315696716,0.8254785537719727,-0.0,-0.009298031218349934,0.7738146781921387,0.0,0.001162529457360506
1008.0,1021.0,1.7898,0.0867,9.2303,-0.0406,0.0252,-0.1205,-1.5619665591842313,0.0,1.9131357669830322,-2.0868139266967773,-0.0,1.9249664545059204,4.959642666369238,-0.0,0.29791221022605896,-1.5967782179461878,0.0,-0.003931150771677494,0.8254265189170837,-0.0,-0.009463254362344742,0.7738675475120544,0.0,-0.013643737882375717
1008.0,1021.0,1.7898,0.0867,9.2303,-0.0406,0.0252,-0.1205,-1.561982973744609,0.0,1.923788070678711,-2.086862325668335,-0.0,1.9499397277832031,4.959638613253393,-0.0,0.29504477977752686,-1.5967662970172327,0.0,-0.015558280050754547,0.8254625797271729,-0.0,-0.004750099964439869,0.7738671898841858,0.0,0.01208359282463789
1008.0,1021.0,1.7898,0.0867,9.2303,-0.0406,0.0252,-0.1205,-1.5619061331129451,0.0,1.9268561601638794,-2.086798667907715,-0.0,1.947660207748413,4.9596702484186075,-0.0,0.2929988205432892,-1.5967419783221644,0.0,0.0006815136875957251,0.825446605682373,-0.0,-0.01683640480041504,0.7738146781921387,0.0,-0.008875085972249508
1008.0,1021.0,1.7898,0.0867,9.2303,-0.0406,0.0252,-0.1205,-1.5619626727751275,0.0,1.9063971042633057,-2.08679461479187,-0.0,1.9639523029327393,4.959673973708906,-0.0,0.30106791853904724,-1.5967252890216272,0.0,-0.0015687260311096907,0.8254023194313049,-0.0,-0.009367554448544979,0.7738068699836731,0.0,-0.0336461141705513
1008.0,1021.0,1.7898,0.0867,9.2303,-0.0406,0.0252,-0.1205,-1.56189829975877,0.0,1.934523105621338,-2.0867342948913574,-0.0,1.947535514831543,4.959654289274969,-0.0,0.29345008730888367,-1.5966933409320276,0.0,-0.00437853392213583,0.825498640537262,-0.0,0.0059027173556387424,0.7738510370254517,0.0,0.010442504659295082
1008.0,1021.0,1.7898,0.0867,9.2303,-0.0406,0.0252,-0.1205,-1.561934395959117,0.0,1.9023723602294922,-2.0868024826049805,-0.0,1.9842798709869385,4.959670293122091,-0.0,0.29916587471961975,-1.596729580556051,0.0,-0.00797989685088396,0.8254584670066833,-0.0,-0.0018603273201733828,0.773790717124939,0.0,0.010655607096850872
1008.0,1021.0,1.7898,0.0867,9.2303,-0.0406,0.0252,-0.1205,-1.5619223232245822,0.0,1.8721699714660645,-2.0867700576782227,-0.0,1.9768859148025513,4.959698575526037,-0.0,0.2925325930118561,-1.596705738698141,0.0,-0.013358421623706818,0.8254424929618835,-0.0,0.0035366429947316647,0.7737907767295837,0.0,-0.014588474296033382
1008.0,1021.0,1.7898,0.0867,9.2303,-0.0406,0.0252,-0.1205,-1.5618900072625657,0.0,1.9164769649505615,-2.0868375301361084,-0.0,1.9467976093292236,4.959698530822553,-0.0,0.2924163341522217,-1.596757713948385,0.0,-0.004290783777832985,0.825434684753418,-0.0,-0.002300526248291135,0.7738229036331177,0.0,0.01830909587442875
1008.0,1021.0,1.7898,0.0867,9.2303,-0.0406,0.0252,-0.1205,-1.5619668320617457,0.0,1.9483702182769775,-2.086742401123047,-0.0,1.9357035160064697,4.9597026137407205,-0.0,0.28800785541534424,-1.5967214743243616,0.0,0.0015505534829571843,0.8254703879356384,-0.0,-0.0027344725094735622,0.7738269567489624,0.0,-0.024694398045539856
1008.0,1021.0,1.7898,0.0867,9.2303,-0.0406,0.0252,-0.1205,-1.561930557978787,0.0,1.889267921447754,-2.086778163909912,-0.0,1.9802639484405518,4.959670293122091,-0.0,0.28607019782066345,-1.596717659627096,0.0,0.001037832349538803,0.8254826664924622,-0.0,-0.0025589175056666136,0.7738229036331177,0.0,0.006208203267306089
1007.0,973.0,1.7563,0.0742,9.3775,-0.0389,0.0307,-0.12,-1.5619585637799283,0.0,1.9512052536010742,-2.086782217025757,-0.0,1.946591854095459,4.9597103772457025,-0.0,0.2929929494857788,-1.5967333952533167,0.0,-0.00922116357833147,0.8254424929618835,-0.0,-0.011329841800034046,0.7738593220710754,0.0,0.03251352533698082
1007.0,973.0,1.7563,0.0742,9.3775,-0.0389,0.0307,-0.12,-1.5619061647779127,0.0,1.877040147781372,-2.0867741107940674,-0.0,1.9565794467926025,4.959673973708906,-0.0,0.29570597410202026,-1.596705738698141,0.0,0.0017046986613422632,0.8253659605979919,-0.0,0.004312979057431221,0.7738310098648071,0.0,0.0208372063934803
1007.0,973.0,1.7563,0.0742,9.3775,-0.0389,0.0307,-0.12,-1.5618781347623845,0.0,1.913193702697754,-2.086790084838867,-0.0,1.8989462852478027,4.959666210203924,-0.0,0.29253965616226196,-1.5967496077166956,0.0,-0.010941772721707821,0.8254506587982178,-0.0,-0.008537184447050095,0.7738310098648071,0.0,0.009470447897911072
1007.0,973.0,1.7563,0.0742,9.3775,-0.0389,0.0307,-0.12,-1.561930557978787,0.0,1.9006881713867188,-2.0868101119995117,-0.0,1.9870715141296387,4.9596699056919,-0.0,0.2947586178779602,-1.5967538992511194,0.0,-0.012438185513019562,0.8254625797271729,-0.0,0.009904841892421246,0.7738474011421204,0.0,0.06409525871276855
1007.0,973.0,1.7563,0.0742,9.3775,-0.0389,0.0307,-0.12,-1.5619384481436391,0.0,1.9213825464248657,-2.086806058883667,-0.0,1.9539551734924316,4.959682214051046,-0.0,0.2936234474182129,-1.5967782179461878,0.0,-0.006457902491092682,0.8254826664924622,-0.0,0.004943983629345894,0.7738027572631836,0.0,-0.014596819877624512
1007.0,973.0,1.7563,0.0742,9.3775,-0.0389,0.0307,-0.12,-1.561874009003379,0.0,1.9466519355773926,-2.0867538452148438,-0.0,1.9714388847351074,4.959698530822553,-0.0,0.2944837808609009,-1.5967372099505823,0.0,0.011594806797802448,0.825390100479126,-0.0,0.00048593757674098015,0.7737829685211182,0.0,0.0038222381845116615
1007.0,973.0,1.7563,0.0742,9.3775,-0.0389,0.0307,-0.12,-1.5619305700859805,0.0,1.9417343139648438,-2.0868139266967773,-0.0,1.9333438873291016,4.959686296969213,-0.0,0.284747838973999,-1.5967620054828089,0.0,0.0026483070105314255,0.8254666924476624,-0.0,-0.0031160484068095684,0.7738150954246521,0.0,0.002954295836389065
1007.0,973.0,1.7563,0.0742,9.3775,-0.0389,0.0307,-0.12,-1.561938463976123,0.0,1.9021492004394531,-2.0867536067962646,-0.0,1.9682190418243408,4.959662052779951,-0.0,0.2903851568698883,-1.596729580556051,0.0,0.0038170472253113985,0.8254387378692627,-0.0,-0.0058688269928097725,0.7738187313079834,0.0,0.017879482358694077
1007.0,973.0,1.7563,0.0742,9.3775,-0.0389,0.0307,-0.12,-1.5619384313798328,0.0,1.8880982398986816,-2.0867905616760254,-0.0,1.9575258493423462,4.959657984762945,-0.0,0.30000072717666626,-1.596757713948385,0.0,-0.014795337803661823,0.825510561466217,-0.0,-0.00940408930182457,0.7738392353057861,0.0,-0.015363303013145924
1007.0,973.0,1.7563,0.0742,9.3775,-0.0389,0.0307,-0.12,-1.5618982345661898,0.0,1.964050054550171,-2.0867905616760254,-0.0,1.974112629890442,4.959682214051046,-0.0,0.28296709060668945,-1.5967419783221644,0.0,0.005881931632757187,0.8254265785217285,-0.0,-0.008162114769220352,0.7738469839096069,0.0,0.0015798639506101608
1007.0,973.0,1.7563,0.0742,9.3775,-0.0389,0.0307,-0.12,-1.5619668320617457,0.0,1.8916914463043213,-2.0867700576782227,-0.0,1.950861930847168,4.959678056627073,-0.0,0.2979559004306793,-1.5967333952533167,0.0,-0.0017373706214129925,0.8254503607749939,-0.0,-0.014588364399969578,0.7738229036331177,0.0,0.013227878138422966
999.0,971.0,1.7797,0.0538,9.3452,-0.0342,0.0261,-0.1246,-1.5619182458943506,0.0,1.9469791650772095,-2.0867741107940674,-0.0,1.9489526748657227,4.959666210203924,-0.0,0.28724920749664307,-1.5967419783221644,0.0,-0.0076282089576125145,0.8254384398460388,-0.0,0.0027919840067625046,0.7738027572631836,0.0,-0.013669914565980434
999.0,971.0,1.7797,0.0538,9.3452,-0.0342,0.0261,-0.1246,-1.5619788721999903,0.0,1.9157837629318237,-2.0867741107940674,-0.0,1.9725412130355835,4.959686222463407,-0.0,0.2924081087112427,-1.5967133680926722,0.0,-0.0013439987087622285,0.8254588842391968,-0.0,-0.007185047492384911,0.7738593220710754,0.0,0.04548363387584686
999.0,971.0,1.7797,0.0538,9.3452,-0.0342,0.0261,-0.1246,-1.5619544370896001,0.0,1.9077935218811035,-2.0868213176727295,-0.0,1.9686849117279053,4.9597186026866815,-0.0,0.29281020164489746,-1.5967782179461878,0.0,-0.012681271880865097,0.8254867196083069,-0.0,-0.005739622283726931,0.7738027572631836,0.0,-0.011158127337694168
999.0,971.0,1.7797,0.0538,9.3452,-0.0342,0.0261,-0.1246,-1.5619102830863376,0.0,1.9143186807632446,-2.086778163909912,-0.0,1.9794237613677979,4.959682199149885,-0.0,0.2956024408340454,-1.5967376867877405,0.0,-0.0036292485892772675,0.8254663348197937,-0.0,0.008614573627710342,0.7738310694694519,0.0,-0.01207243837416172
999.0,971.0,1.7797,0.0538,9.3452,-0.0342,0.0261,-0.1246,-1.5619747538915654,0.0,1.9540355205535889,-2.086782217025757,-0.0,2.0121963024139404,4.959718647390165,-0.0,0.2861311733722687,-1.5967333952533167,0.0,-0.002165741054341197,0.8253979682922363,-0.0,0.010404457338154316,0.7738392353057861,0.0,0.012105448171496391
999.0,971.0,1.7797,0.0538,9.3452,-0.0342,0.0261,-0.1246,-1.5618822446889062,0.0,1.899139404296875,-2.086766242980957,-0.0,1.9569294452667236,4.959658357291975,-0.0,0.30519184470176697,-1.5967333952533167,0.0,-0.020849350839853287,0.825486421585083,-0.0,-0.009982194751501083,0.7738109827041626,0.0,0.013875916600227356
999.0,971.0,1.7797,0.0538,9.3452,-0.0342,0.0261,-0.1246,-1.561930557978787,0.0,1.9577335119247437,-2.086749792098999,-0.0,1.97544527053833,4.959690305381574,-0.0,0.2925277352333069,-1.5967333952533167,0.0,0.0017499305540695786,0.8254625797271729,-0.0,-0.01062445342540741,0.7738552093505859,0.0,0.0347861722111702
999.0,971.0,1.7797,0.0538,9.3452,-0.0342,0.0261,-0.1246,-1.561942610224225,0.0,1.9229016304016113,-2.086782217025757,-0.0,1.9627048969268799,4.959718662291326,-0.0,0.2915383577346802,-1.5967453161822718,0.0,0.0021344516426324844,0.8254544138908386,-0.0,-0.012728016823530197,0.7737948298454285,0.0,-0.017360270023345947
999.0,971.0,1.7797,0.0538,9.3452,-0.0342,0.0261,-0.1246,-1.5619585311836381,0.0,1.9060002565383911,-2.0867905616760254,-0.0,1.9501924514770508,4.959686282068052,-0.0,0.2877333164215088,-1.5967257658587855,0.0,-0.00043375371024012566,0.825510561466217,-0.0,0.0010226741433143616,0.7738109827041626,0.0,0.011661691591143608
999.0,971.0,1.7797,0.0538,9.3452,-0.0342,0.0261,-0.1246,-1.5619182458943506,0.0,1.9034364223480225,-2.086761951446533,-0.0,1.9557983875274658,4.959718572884359,-0.0,0.2903496325016022,-1.5967777411090296,0.0,2.7073780074715614e-05,0.8254826068878174,-0.0,0.007815062068402767,0.7737907767295837,0.0,-0.008009381592273712
1007.0,8190.0,1.7575,0.0544,9.347,-0.0385,0.0214,-0.1219,-1.561938752686121,0.0,1.9100770950317383,-2.08679461479187,-0.0,1.992953896522522,4.959690364986219,-0.0,0.28971797227859497,-1.5967701117144983,0.0,-0.002009733347222209,0.8254625797271729,-0.0,-0.009071850217878819,0.7737866044044495,0.0,-0.02273113839328289
1007.0,8190.0,1.7575,0.0544,9.347,-0.0385,0.0214,-0.1219,-1.561970636514463,0.0,1.9639381170272827,-2.0868256092071533,-0.0,1.923465609550476,4.959686282068052,-0.0,0.29696357250213623,-1.5967252890216272,0.0,-0.016779743134975433,0.8253819346427917,-0.0,0.001231661532074213,0.7738069295883179,0.0,0.005504392087459564
1007.0,8190.0,1.7575,0.0544,9.347,-0.0385,0.0214,-0.1219,-1.5619585963762184,0.0,1.9210493564605713,-2.0867862701416016,-0.0,1.9702422618865967,4.959702643543043,-0.0,0.28928399085998535,-1.5967662970172327,0.0,-0.0021065487526357174,0.8254782557487488,-0.0,0.006982910446822643,0.7738150954246521,0.0,-0.016823481768369675
1007.0,8190.0,1.7575,0.0544,9.347,-0.0385,0.0214,-0.1219,-1.5619384807399292,0.0,1.9315314292907715,-2.0867865085601807,-0.0,1.9496421813964844,4.9596780864293954,-0.0,0.2941153645515442,-1.5967257658587855,0.0,-0.002469886327162385,0.8254305720329285,-0.0,0.0020188114140182734,0.7738350629806519,0.0,0.056910544633865356
1007.0,8190.0,1.7575,0.0544,9.347,-0.0385,0.0214,-0.1219,-1.5619061647779127,0.0,1.9005109071731567,-2.0867979526519775,-0.0,1.9984447956085205,4.9597182897622965,-0.0,0.2982757091522217,-1.596705738698141,0.0,-0.011085901409387589,0.8254704475402832,-0.0,-0.003053852589800954,0.7738187313079834,0.0,0.07140820473432541
1007.0,8190.0,1.7575,0.0544,9.347,-0.0385,0.0214,-0.1219,-1.5619668320617457,0.0,1.888707160949707,-2.0867979526519775,-0.0,1.8982733488082886,4.9597103772457025,-0.0,0.2850356101989746,-1.5967333952533167,0.0,0.00361598189920187,0.825402021408081,-0.0,-0.005687402561306953,0.7738109827041626,0.0,-0.02298261970281601
1007.0,8190.0,1.7575,0.0544,9.347,-0.0385,0.0214,-0.1219,-1.5619185178405424,0.0,1.8955929279327393,-2.086778163909912,-0.0,1.9875755310058594,4.959670308023252,-0.0,0.29643499851226807,-1.5967214743243616,0.0,-0.003963949158787727,0.8254184126853943,-0.0,-0.002905103377997875,0.7738109827041626,0.0,0.016204895451664925
1007.0,8190.0,1.7575,0.0544,9.347,-0.0385,0.0214,-0.1219,-1.5619223232245822,0.0,1.9634978771209717,-2.0867538452148438,-0.0,1.9515531063079834,4.9596740184123895,-0.0,0.28898030519485474,-1.5967419783221644,0.0,-0.006592950318008661,0.8254629969596863,-0.0,-0.0038454891182482243,0.7738350629806519,0.0,-0.025543980300426483
1007.0,8190.0,1.7575,0.0544,9.347,-0.0385,0.0214,-0.1219,-1.5619182458943506,0.0,1.9422645568847656,-2.0868101119995117,-0.0,1.936744213104248,4.959686267166891,-0.0,0.2841394543647766,-1.5967538992511194,0.0,-0.016103608533740044,0.8254544138908386,-0.0,-0.013869068585336208,0.7738350629806519,0.0,0.014926707372069359
1007.0,8190.0,1.7575,0.0544,9.347,-0.0385,0.0214,-0.1219,-1.5619264731979747,0.0,1.8910653591156006,-2.086825370788574,-0.0,1.9484055042266846,4.9597264406974695,-0.0,0.2910521626472473,-1.5967662970172327,0.0,-0.01023682951927185,0.8254785537719727,-0.0,-0.004935290198773146,0.7738350629806519,0.0,-0.04178880155086517
1007.0,8190.0,1.7575,0.0544,9.347,-0.0385,0.0214,-0.1219,-1.5619102830863376,0.0,1.9408752918243408,-2.0867300033569336,-0.0,1.9911468029022217,4.95964606383399,-0.0,0.2894588112831116,-1.5967744032489222,0.0,0.0019676669035106897,0.825434684753418,-0.0,-0.005264577455818653,0.7738432884216309,0.0,-0.015415078960359097
992.0,995.0,1.8413,0.0903,9.2877,-0.0383,0.024,-0.1188,-1.5619061647779127,0.0,1.894855260848999,-2.0868101119995117,-0.0,1.9323508739471436,4.959673973708906,-0.0,0.28162044286727905,-1.5967419783221644,0.0,-0.007736275438219309,0.8254867196083069,-0.0,-0.012265073135495186,0.7738392353057861,0.0,0.01531132310628891
992.0,995.0,1.8413,0.0903,9.2877,-0.0383,0.024,-0.1188,-1.5619467164254566,0.0,1.9106414318084717,-2.0867700576782227,-0.0,1.95281982421875,4.9596703229244135,-0.0,0.300021767616272,-1.596757713948385,0.0,-0.02165118232369423,0.8254707455635071,-0.0,-0.0070547256618738174,0.7738392353057861,0.0,0.04682252183556557
992.0,995.0,1.8413,0.0903,9.2877,-0.0383,0.024,-0.1188,-1.5619384807399292,0.0,1.9320061206817627,-2.0867464542388916,-0.0,1.9194021224975586,4.959673973708906,-0.0,0.30284905433654785,-1.59674579301943,0.0,0.015368475578725338,0.8254904747009277,-0.0,0.0028194901533424854,0.77378249168396,0.0,0.03433699160814285
992.0,995.0,1.8413,0.0903,9.2877,-0.0383,0.024,-0.1188,-1.5619264406016846,0.0,1.9159190654754639,-2.086778163909912,-0.0,1.946265459060669,4.9596699056919,-0.0,0.2791990339756012,-1.5967257658587855,0.0,-0.02079167030751705,0.8254506587982178,-0.0,-0.00217486172914505,0.7737948298454285,0.0,0.026680978015065193
992.0,995.0,1.8413,0.0903,9.2877,-0.0383,0.024,-0.1188,-1.561922595170774,0.0,1.9175739288330078,-2.0868256092071533,-0.0,1.9197030067443848,4.959666210203924,-0.0,0.2953348457813263,-1.5967372099505823,0.0,-0.009487024508416653,0.8254745006561279,-0.0,0.0010319945868104696,0.7738510370254517,0.0,-0.005699712783098221
992.0,995.0,1.8413,0.0903,9.2877,-0.0383,0.024,-0.1188,-1.5619102830863376,0.0,1.9106501340866089,-2.0867905616760254,-0.0,1.9575260877609253,4.959690290480413,-0.0,0.29454270005226135,-1.5967333952533167,0.0,-0.005819541402161121,0.8254704475402832,-0.0,-0.01281353086233139,0.7738109827041626,0.0,0.001245761290192604
992.0,995.0,1.8413,0.0903,9.2877,-0.0383,0.024,-0.1188,-1.5619305505282064,0.0,1.960378885269165,-2.0868418216705322,-0.0,1.949798345565796,4.959690364986219,-0.0,0.2854900062084198,-1.5967333952533167,0.0,-0.006017353385686874,0.8255187273025513,-0.0,0.00846089143306017,0.7738187313079834,0.0,-0.005496158264577389
992.0,995.0,1.8413,0.0903,9.2877,-0.0383,0.024,-0.1188,-1.5619061647779127,0.0,1.9335319995880127,-2.0867979526519775,-0.0,1.9756746292114258,4.959666210203924,-0.0,0.3012359142303467,-1.5967333952533167,0.0,-0.009179515764117241,0.825386106967926,-0.0,-0.005891172681003809,0.7738229036331177,0.0,0.006816389039158821
992.0,995.0,1.8413,0.0903,9.2877,-0.0383,0.024,-0.1188,-1.561954478999116,0.0,1.9143472909927368,-2.086798667907715,-0.0,1.9509303569793701,4.9597263661916635,-0.0,0.30448776483535767,-1.5967333952533167,0.0,-0.005870717577636242,0.8254265785217285,-0.0,0.0015844882000237703,0.7738229036331177,0.0,-0.01769137755036354
992.0,995.0,1.8413,0.0903,9.2877,-0.0383,0.024,-0.1188,-1.5619182458943506,0.0,1.8865057229995728,-2.0867741107940674,-0.0,1.977746605873108,4.959686296969213,-0.0,0.28408271074295044,-1.5967620054828089,0.0,0.0022299133706837893,0.8254544734954834,-0.0,-0.00497467303648591,0.7737907767295837,0.0,0.0031383512541651726
992.0,995.0,1.8413,0.0903,9.2877,-0.0383,0.024,-0.1188,-1.5619061647779127,0.0,1.9136734008789062,-2.08679461479187,-0.0,1.9393081665039062,4.959641980915823,-0.0,0.29313164949417114,-1.5967138449298304,0.0,-0.004913897253572941,0.825506865978241,-0.0,-0.0075736925937235355,0.7738350629806519,0.0,-0.04492436349391937
1031.0,1013.0,1.7952,0.1029,9.2692,-0.0431,0.0312,-0.1225,-1.5619264406016846,0.0,1.9127483367919922,-2.0868141651153564,-0.0,1.9476561546325684,4.959694358497419,-0.0,0.2801334261894226,-1.596757713948385,0.0,-0.006153193302452564,0.8254585266113281,-0.0,-0.0030524618923664093,0.7738229036331177,0.0,0.003637080080807209
1031.0,1013.0,1.7952,0.1029,9.2692,-0.0431,0.0312,-0.1225,-1.561930557978787,0.0,1.9072526693344116,-2.08679461479187,-0.0,1.9740934371948242,4.959682214051046,-0.0,0.3090211749076843,-1.596773926411764,0.0,-0.0005013227928429842,0.8254785537719727,-0.0,-0.005011952016502619,0.7737907767295837,0.0,0.05962342396378517
1031.0,1013.0,1.7952,0.1029,9.2692,-0.0431,0.0312,-0.1225,-1.5619264406016846,0.0,1.9607312679290771,-2.0867576599121094,-0.0,1.948305368423462,4.959682214051046,-0.0,0.2911119759082794,-1.5967333952533167,0.0,-0.013891962356865406,0.8254224061965942,-0.0,0.00038680899888277054,0.7738069295883179,0.0,-0.038527023047208786
1031.0,1013.0,1.7952,0.1029,9.2692,-0.0431,0.0312,-0.1225,-1.5619264406016846,0.0,1.9089957475662231,-2.0868775844573975,-0.0,1.9733200073242188,4.959698530822553,-0.0,0.29677262902259827,-1.5967496077166956,0.0,-0.008569713681936264,0.8255228996276855,-0.0,-0.0026945231948047876,0.7737945318222046,0.0,0.01476037222892046
1031.0,1013.0,1.7952,0.1029,9.2692,-0.0431,0.0312,-0.1225,-1.5619467164254566,0.0,1.8935338258743286,-2.086817502975464,-0.0,1.9881561994552612,4.959722685604849,-0.0,0.3010913133621216,-1.5967333952533167,0.0,-0.010817069560289383,0.825434684753418,-0.0,-0.0013584629632532597,0.7738311290740967,0.0,-0.014475597999989986
1031.0,1013.0,1.7952,0.1029,9.2692,-0.0431,0.0312,-0.1225,-1.5619627137533207,0.0,1.9056789875030518,-2.0867741107940674,-0.0,2.0000967979431152,4.959650221257963,-0.0,0.2969326078891754,-1.596717659627096,0.0,-0.010500810109078884,0.8254707455635071,-0.0,-0.010631667450070381,0.7738187313079834,0.0,-0.0005871495231986046
1031.0,1013.0,1.7952,0.1029,9.2692,-0.0431,0.0312,-0.1225,-1.5619384807399292,0.0,1.9407448768615723,-2.0867464542388916,-0.0,1.9952080249786377,4.959662052779951,-0.0,0.2983977198600769,-1.5967257658587855,0.0,-0.00607555964961648,0.8254585266113281,-0.0,-0.006816049572080374,0.7738269567489624,0.0,-0.06690004467964172
1031.0,1013.0,1.7952,0.1029,9.2692,-0.0431,0.0312,-0.1225,-1.561894124639668,0.0,1.89792799949646,-2.0868375301361084,-0.0,1.971372127532959,4.95969437339858,-0.0,0.29824575781822205,-1.596757713948385,0.0,-0.011200463399291039,0.8254749178886414,-0.0,-0.009279677644371986,0.7738672494888306,0.0,0.003906687721610069
1031.0,1013.0,1.7952,0.1029,9.2692,-0.0431,0.0312,-0.1225,-1.5619141285172482,0.0,1.909388542175293,-2.0867464542388916,-0.0,1.9188218116760254,4.959653901844778,-0.0,0.2977311909198761,-1.5967701117144983,0.0,-0.005098823457956314,0.8255306482315063,-0.0,-0.007665916811674833,0.7738552689552307,0.0,-0.010754418559372425
1031.0,1013.0,1.7952,0.1029,9.2692,-0.0431,0.0312,-0.1225,-1.5619182216799636,0.0,1.910527229309082,-2.086782693862915,-0.0,1.9682621955871582,4.959698545723715,-0.0,0.2997550070285797,-1.5967538992511194,0.0,-0.0005320983473211527,0.8254945874214172,-0.0,-0.011698879301548004,0.7737866044044495,0.0,0.049949340522289276
1031.0,1013.0,1.7952,0.1029,9.2692,-0.0431,0.0312,-0.1225,-1.5619061647779127,0.0,1.9698386192321777,-2.0868024826049805,-0.0,1.9567058086395264,4.9597186026866815,-0.0,0.2905544638633728,-1.5967782179461878,0.0,-0.01215957012027502,0.8254625797271729,-0.0,0.008655685931444168,0.7737947702407837,0.0,-0.0005013458430767059
1001.0,1008.0,1.8347,-0.0742,9.2961,-0.0441,0.0255,-0.1141,-1.5619504016688843,0.0,1.8936371803283691,-2.08679461479187,-0.0,1.9671268463134766,4.95973456183032,-0.0,0.2866511344909668,-1.5966971556292933,0.0,-0.010361481457948685,0.8254749178886414,-0.0,-0.007154243532568216,0.7738469839096069,0.0,-0.014151842333376408
1001.0,1008.0,1.8347,-0.0742,9.2961,-0.0441,0.0255,-0.1141,-1.561942610224225,0.0,1.8767309188842773,-2.0867738723754883,-0.0,1.9307172298431396,4.9596943882997415,-0.0,0.29196685552597046,-1.596757713948385,0.0,0.002750180196017027,0.8254462480545044,-0.0,-0.004292524419724941,0.7737863063812256,0.0,0.03346172347664833
1001.0,1008.0,1.8347,-0.0742,9.2961,-0.0441,0.0255,-0.1141,-1.5619508701241394,0.0,1.9234275817871094,-2.0867621898651123,-0.0,1.9471933841705322,4.9597424296434305,-0.0,0.2886680066585541,-1.5967376867877405,0.0,-0.0023248009383678436,0.8255109786987305,-0.0,-0.000781676615588367,0.7738229036331177,0.0,0.010702635161578655
1001.0,1008.0,1.8347,-0.0742,9.2961,-0.0441,0.0255,-0.1141,-1.561885929932334,0.0,1.9173436164855957,-2.0867502689361572,-0.0,1.9347493648529053,4.959678056627073,-0.0,0.2805711627006531,-1.5967620054828089,0.0,-0.00981213990598917,0.8254142999649048,-0.0,-0.0009136758744716644,0.7738469839096069,0.0,0.004192901309579611
1001.0,1008.0,1.8347,-0.0742,9.2961,-0.0441,0.0255,-0.1141,-1.56198305011306,0.0,1.9354474544525146,-2.086778163909912,-0.0,1.9538707733154297,4.9596943882997415,-0.0,0.3021808862686157,-1.5967701117144983,0.0,-0.0021035633981227875,0.8254663348197937,-0.0,-0.0032469965517520905,0.7738552689552307,0.0,-0.004551802761852741
1001.0,1008.0,1.8347,-0.0742,9.2961,-0.0441,0.0255,-0.1141,-1.5619182216799636,0.0,1.8908358812332153,-2.0867865085601807,2.669415253078733e-12,1.974853277206421,4.959698530822553,-0.0,0.2903532087802887,-1.596717659627096,0.0,-0.00474736699834466,0.8254782557487488,-0.0,0.007114709354937077,0.7738391757011414,0.0,-0.022169671952724457
1001.0,1008.0,1.8347,-0.0742,9.2961,-0.0441,0.0255,-0.1141,-1.5618982308408995,0.0,1.9164154529571533,-2.0867865085601807,8.648566215032867e-20,1.9855868816375732,4.959674376040258,-0.0,0.29887956380844116,-1.5967376867877405,0.0,-0.01696961186826229,0.8254547119140625,-0.0,0.003941279835999012,0.7738428711891174,0.0,0.00248761847615242
1001.0,1008.0,1.8347,-0.0742,9.2961,-0.0441,0.0255,-0.1141,-1.56191440046344,0.0,1.9371204376220703,-2.0867741107940674,2.8020254612532786e-27,2.0044872760772705,4.959702569037237,-0.0,0.3008768558502197,-1.5967372099505823,0.0,-0.005703989416360855,0.825462281703949,-0.0,0.008575301617383957,0.7738470435142517,0.0,0.029597166925668716
1001.0,1008.0,1.8347,-0.0742,9.2961,-0.0441,0.0255,-0.1141,-1.5619023603251954,0.0,1.9017207622528076,-2.08679461479187,9.078206266099991e-35,1.9516137838363647,4.959714534669676,-0.0,0.2922810912132263,-1.5967496077166956,0.0,-0.013682834804058075,0.8254904747009277,-0.0,-0.002897682599723339,0.7738432884216309,0.0,-0.052750587463378906
1001.0,1008.0,1.8347,-0.0742,9.2961,-0.0441,0.0255,-0.1141,-1.561962441807129,0.0,1.9291777610778809,-2.0868542194366455,2.941325476617791e-42,1.9661808013916016,4.959678056627073,-0.0,0.3002673387527466,-1.5967982451068323,0.0,-0.010119015350937843,0.8254904747009277,-0.0,-0.01413735095411539,0.7738873958587646,0.0,-0.02386956661939621
1001.0,1008.0,1.8347,-0.0742,9.2961,-0.0441,0.0255,-0.1141,-1.561970636514463,0.0,1.8888596296310425,-2.0868215560913086,-0.0,1.990229845046997,4.959654244571485,-0.0,0.2926312983036041,-1.5967453161822718,0.0,-0.01118561439216137,0.8254504203796387,-0.0,-1.3706739991903305e-05,0.7738791704177856,0.0,0.027795054018497467
1006.0,8190.0,1.9549,-0.0885,9.2489,-0.0402,0.0192,-0.1042,-1.5619102709791441,0.0,1.9012542963027954,-2.08679461479187,-0.0,1.9298131465911865,4.95969037988738,-0.0,0.2930922508239746,-1.5967701117144983,0.0,0.008260371163487434,0.8254706859588623,-0.0,0.009270737878978252,0.7738310098648071,8.744274236960337e-05,0.0031214850023388863
1006.0,8190.0,1.9549,-0.0885,9.2489,-0.0402,0.0192,-0.1042,-1.561942610224225,0.0,1.921136736869812,-2.0867700576782227,-0.0,1.9983159303665161,4.959694447904386,-0.0,0.27739670872688293,-1.5967496077166956,0.0,-0.011061633937060833,0.8254544734954834,-0.0,0.01031905971467495,0.7738590240478516,9.736379433888942e-05,0.009871633723378181
1006.0,8190.0,1.9549,-0.0885,9.2489,-0.0402,0.0192,-0.1042,-1.5619264406016846,0.0,1.896366834640503,-2.0867700576782227,-0.0,1.979501724243164,4.9596822438533685,-0.0,0.2860317826271057,-1.5967581907855433,0.0,-0.0059928009286522865,0.8254625797271729,-0.0,0.005762733984738588,0.7738268375396729,9.081429743673652e-05,0.030651656910777092
1006.0,8190.0,1.9549,-0.0885,9.2489,-0.0402,0.0192,-0.1042,-1.5619223232245822,0.0,1.9560997486114502,-2.086766242980957,-0.0,1.9386491775512695,4.959630402713575,-0.0,0.3016646206378937,-1.5967939535724085,0.0,-0.006997126620262861,0.825446605682373,-0.0,0.0016573469620198011,0.7738469839096069,8.509035251336172e-05,0.004400824196636677
1006.0,8190.0,1.9549,-0.0885,9.2489,-0.0402,0.0192,-0.1042,-1.5619344034096976,0.0,1.9361883401870728,-2.086813449859619,-0.0,1.9624438285827637,4.959678056627073,-0.0,0.28339919447898865,-1.5967453161822718,0.0,-0.00049103848868981,0.8255387544631958,-0.0,0.008054452948272228,0.7738709449768066,7.887601532274857e-05,0.010842746123671532
1006.0,8190.0,1.9549,-0.0885,9.2489,-0.0402,0.0192,-0.1042,-1.5619264406016846,0.0,1.9063310623168945,-2.086778163909912,-0.0,1.9804275035858154,4.959658372193136,-0.0,0.299802303314209,-1.596757713948385,0.0,-0.012173648923635483,0.8255387544631958,-0.0,0.004090968985110521,0.7738672494888306,8.644761692266911e-05,-0.006268352270126343
1006.0,8190.0,1.9549,-0.0885,9.2489,-0.0402,0.0192,-0.1042,-1.5619384807399292,0.0,1.9712932109832764,-2.0867741107940674,-0.0,1.9295456409454346,4.959698575526037,-0.0,0.2889910340309143,-1.5967901388751429,0.0,-0.0071420525200665,0.8254544734954834,-0.0,-0.006331542506814003,0.7738791704177856,9.581202903063968e-05,-0.0212554968893528
1006.0,8190.0,1.9549,-0.0885,9.2489,-0.0402,0.0192,-0.1042,-1.5619384807399292,0.0,1.9261667728424072,-2.0867576599121094,-0.0,1.9638017416000366,4.959662365704336,-0.0,0.29041311144828796,-1.5967701117144983,0.0,-0.005423467140644789,0.825462281703949,-0.0,0.0009890024084597826,0.7738667130470276,8.424450788879767e-05,0.03228160738945007
1006.0,8190.0,1.9549,-0.0885,9.2489,-0.0402,0.0192,-0.1042,-1.5619182216799636,0.0,1.9235949516296387,-2.0867464542388916,-0.0,1.9508998394012451,4.959662365704336,-0.0,0.29253679513931274,-1.5967453161822718,0.0,-0.010113278403878212,0.8254945278167725,-0.0,-0.007383179385215044,0.7738954424858093,7.489661948056892e-05,-0.03840463608503342
1006.0,8190.0,1.9549,-0.0885,9.2489,-0.0402,0.0192,-0.1042,-1.5619061405635257,0.0,1.946979284286499,-2.0867865085601807,-0.0,1.9553135633468628,4.95964606383399,-0.0,0.28869104385375977,-1.5967982451068323,0.0,-0.0026800029445439577,0.8254585266113281,-0.0,-0.010888362303376198,0.7738186717033386,6.741618562955409e-05,-0.023160196840763092
1006.0,8190.0,1.9549,-0.0885,9.2489,-0.0402,0.0192,-0.1042,-1.561942610224225,0.0,1.9090492725372314,-2.0867700576782227,-0.0,1.9448292255401611,4.959650221257963,-0.0,0.2981252074241638,-1.596729580556051,0.0,-0.0018657782347872853,0.8254585266113281,-0.0,-0.012117315083742142,0.7738388180732727,7.991044549271464e-05,0.015067694708704948
1013.0,983.0,1.7527,-0.0885,9.2297,-0.0394,0.0223,-0.1022,-1.5619665712914248,0.0,1.913587212562561,-2.086778163909912,-0.0,1.9574429988861084,4.9597186026866815,-0.0,0.2868381142616272,-1.5967939535724085,0.0,-0.01575588434934616,0.8254544734954834,-0.0,0.010685578919947147,0.7738507986068726,7.339497824432328e-05,0.03654950112104416
1013.0,983.0,1.7527,-0.0885,9.2297,-0.0394,0.0223,-0.1022,-1.5619866701639076,0.0,1.9130135774612427,-2.0867502689361572,-0.0,1.9518100023269653,4.959638628154554,-0.0,0.28396642208099365,-1.5967453161822718,0.0,-0.01000667642802,0.8255183696746826,-0.0,-0.008967007510364056,0.7738590240478516,6.400507118087262e-05,0.031058399006724358
1013.0,983.0,1.7527,-0.0885,9.2297,-0.0394,0.0223,-0.1022,-1.5619784512421866,0.0,1.8879084587097168,-2.086749792098999,-0.0,1.955937385559082,4.959626379400053,-0.0,0.30537816882133484,-1.5967538992511194,0.0,0.005437815561890602,0.8254783153533936,-0.0,-0.0012770958710461855,0.7738832235336304,5.6003638746915385e-05,-0.018371744081377983
1013.0,983.0,1.7527,-0.0885,9.2297,-0.0394,0.0223,-0.1022,-1.56197066072885,0.0,1.917204737663269,-2.086782217025757,-0.0,1.977468490600586,4.959650221257963,-0.0,0.2921314239501953,-1.5967538992511194,0.0,-0.007425603922456503,0.8255265951156616,-0.0,-0.007521446794271469,0.7738507986068726,4.980519588571042e-05,0.05530613660812378
1013.0,983.0,1.7527,-0.0885,9.2297,-0.0394,0.0223,-0.1022,-1.5619504016688843,0.0,1.9132912158966064,-2.086766004562378,-0.0,1.9065759181976318,4.959670293122091,-0.0,0.30240368843078613,-1.5967620054828089,0.0,-0.004599270410835743,0.8254901170730591,-2.476577947163605e-07,-0.00182022200897336,0.7738466262817383,4.375212301965803e-05,-0.017880938947200775
1013.0,983.0,1.7527,-0.0885,9.2297,-0.0394,0.0223,-0.1022,-1.5619864028743287,0.0,1.942466378211975,-2.0868256092071533,-0.0,1.9380855560302734,4.959606307535925,-0.0,0.28589949011802673,-1.5967662970172327,0.0,-0.003449672367423773,0.8255102038383484,-4.501057946498799e-12,0.005663895979523659,0.7738507986068726,5.981258800602518e-05,-0.0254544485360384
1013.0,983.0,1.7527,-0.0885,9.2297,-0.0394,0.0223,-0.1022,-1.561990544465818,-0.0006627812399528921,1.883026361465454,-2.0868141651153564,-0.0,1.9867132902145386,4.95959838011817,-0.0,0.2886849641799927,-1.5967538992511194,0.0,0.008876431733369827,0.825502336025238,-8.18045163693543e-17,-0.0007842460181564093,0.7738913297653198,7.317305426113307e-05,0.06232170760631561
1013.0,983.0,1.7527,-0.0885,9.2297,-0.0394,0.0223,-0.1022,-1.562006222350039,-0.001221118145622313,1.9518845081329346,-2.0867576599121094,-0.0,1.9427599906921387,4.959650847106733,-1.0786307029775344e-06,0.29767197370529175,-1.5967820326434534,0.0,-0.020598499104380608,0.8254778981208801,-1.4867565807649824e-21,-0.003731760196387768,0.7739273905754089,0.001040079165250063,0.05179639905691147
1013.0,983.0,1.7527,-0.0885,9.2297,-0.0394,0.0223,-0.1022,-1.5620301955244322,-0.0011018033837899566,1.9113528728485107,-2.0868101119995117,-0.0,1.9874017238616943,4.959658372193136,-1.9603579176630248e-11,0.29004940390586853,-1.596757713948385,0.0,-0.015291113406419754,0.8255585432052612,-2.702106829068909e-26,0.006522790994495153,0.773894727230072,0.0021766750141978264,0.013420619070529938
1013.0,983.0,1.7527,-0.0885,9.2297,-0.0394,0.0223,-0.1022,-1.5620744556984683,-0.0014448992442339659,1.9462215900421143,-2.0868334770202637,-0.0,2.0002222061157227,4.959674376040258,-2.3262889702334953e-17,0.30786633491516113,-1.5967820326434534,0.0,-0.01588190533220768,0.8255904316902161,-3.2064976209993e-32,0.007408847101032734,0.773967444896698,0.0029253775719553232,0.032300930470228195
1013.0,983.0,1.7527,-0.0885,9.2297,-0.0394,0.0223,-0.1022,-1.5620580187863489,-0.0019655439537018538,1.9289469718933105,-2.0867741107940674,-0.0,2.0117220878601074,4.959674674063482,-4.227915293879138e-22,0.3017612099647522,-1.596802059804098,0.0,-0.00425155833363533,0.8255465626716614,-5.827650997445727e-37,0.015624186024069786,0.774007260799408,0.003913965076208115,0.020246494561433792
1022.0,963.0,1.6385,0.283,9.1603,-0.0221,0.0249,-0.1173,-1.562118256730475,-0.002461365656927228,1.9465595483779907,-2.0867576599121094,-0.0,1.9313850402832031,4.959662365704336,-7.684026758681595e-27,0.3007935583591461,-1.5967820326434534,0.0,-0.008934665471315384,0.8255221843719482,-1.0591013793366967e-41,0.01956862024962902,0.7740350961685181,0.005583219695836306,0.05797133594751358
1022.0,963.0,1.6385,0.283,9.1603,-0.0221,0.0249,-0.1173,-1.5621381088024755,-0.0037846749182790518,1.8734221458435059,-2.0868213176727295,-0.0,2.022684097290039,4.959634530335226,-1.3965338383531701e-31,0.2893916964530945,-1.5967376867877405,0.0,-0.009815050289034843,0.8255584836006165,-0.0,0.03305620700120926,0.7740627527236938,0.007267341949045658,0.0190968606621027
1022.0,963.0,1.6385,0.283,9.1603,-0.0221,0.0249,-0.1173,-1.5621861454895516,-0.00530581921339035,1.90486741065979,-2.086698055267334,4.164913303128515e-09,1.9873509407043457,4.959622609406271,-0.00017769854457583278,0.3015395998954773,-1.5967662970172327,0.0,-0.01719195395708084,0.825550377368927,-0.0,0.010521984659135342,0.7741431593894958,0.008987749926745892,0.03402460366487503
1022.0,963.0,1.6385,0.283,9.1603,-0.0221,0.0249,-0.1173,-1.5622625977597018,-0.006116367876529694,1.868873119354248,-2.086709976196289,1.349379071513264e-16,1.9395973682403564,4.959663155465879,-0.00018554675625637174,0.2970595955848694,-1.596701447163717,0.0,-0.016848450526595116,0.8255422115325928,-0.0,0.023163754492998123,0.7742474675178528,0.01007821410894394,0.03679780662059784
1022.0,963.0,1.6385,0.283,9.1603,-0.0221,0.0249,-0.1173,-1.5623662204346438,-0.008089348673820496,1.9257452487945557,-2.0867502689361572,0.000986205879598856,1.9732052087783813,4.959638613253393,-0.00018476028344593942,0.29780304431915283,-1.5967333952533167,0.0,-0.012871580198407173,0.8256102204322815,-0.0,0.017428899183869362,0.7743353247642517,0.01089042704552412,0.02982565574347973
1022.0,963.0,1.6385,0.283,9.1603,-0.0221,0.0249,-0.1173,-1.5624382396093388,-0.010379635728895664,1.9017809629440308,-2.086717367172241,0.0007540034130215645,1.9603193998336792,4.95964668968276,-0.00018587280646897852,0.30314427614212036,-1.5967333952533167,6.919660677784378e-11,-0.008026711642742157,0.825522243976593,-0.0,0.02646160125732422,0.7744194269180298,0.009843675419688225,0.06052016466856003
1022.0,963.0,1.6385,0.283,9.1603,-0.0221,0.0249,-0.1173,-1.562546058823802,-0.013197051361203194,1.8937721252441406,-2.086698532104492,0.0005105671589262784,1.9542138576507568,4.959646704583921,-0.0001710280921543017,0.30345460772514343,-1.5967095533954065,1.2576141689856933e-15,-0.021718349307775497,0.8255860805511475,-0.0,0.020137280225753784,0.7745116353034973,0.008474307134747505,0.03184670954942703
1022.0,963.0,1.6385,0.283,9.1603,-0.0221,0.0249,-0.1173,-1.5627142575434227,-0.01600678265094757,1.949735403060913,-2.0867698192596436,0.00038555290666408837,1.9793891906738281,4.959590318589964,-0.00019799009896814823,0.3028770685195923,-1.5967496077166956,2.2856515745571746e-20,-0.020310617983341217,0.8256464004516602,-0.0,0.020916707813739777,0.7745555639266968,0.006578235886991024,-0.00871922168880701
1022.0,963.0,1.6385,0.283,9.1603,-0.0221,0.0249,-0.1173,-1.5628702084398647,-0.01765432022511959,1.8864264488220215,-2.086709976196289,0.0003097244771197438,1.9314098358154297,4.959590214281835,-0.00016867619706317782,0.29708245396614075,-1.5967701117144983,4.154058203460734e-25,-0.001120901433750987,0.8255500793457031,-0.0,0.035884466022253036,0.7745874524116516,0.0042256866581737995,0.007586565800011158
1022.0,963.0,1.6385,0.283,9.1603,-0.0221,0.0249,-0.1173,-1.563053957918175,-0.019435476511716843,1.8252160549163818,-2.0867464542388916,0.00028412454412318766,1.9117106199264526,4.959630372911253,-0.00016948403208516538,0.2936967611312866,-1.5967701117144983,4.929476467376671e-31,-0.017963510006666183,0.8255820274353027,-0.0,0.027448121458292007,0.7745512127876282,0.0010357032297179103,-0.024249978363513947
1022.0,963.0,1.6385,0.283,9.1603,-0.0221,0.0249,-0.1173,-1.5632578686675807,-0.021128542721271515,1.8569092750549316,-2.086766481399536,0.00024538900470361114,2.0070064067840576,4.959674674063482,-0.00015134827117435634,0.28569015860557556,-1.596705738698141,8.959080704314951e-36,-0.0079186437651515,0.8256101012229919,-0.0,0.03627737984061241,0.7745673656463623,0.00036108712083660066,0.03449130803346634
1046.0,1022.0,1.3573,-0.2136,8.9551,-0.0464,0.007,-0.12,-1.5633854528753837,-0.022798608988523483,1.8796495199203491,-2.086737871170044,0.0001731877273414284,1.9551074504852295,4.95965904274539,-0.0001360901806037873,0.28869524598121643,-1.5967376867877405,1.6282667765915077e-40,-0.008227282203733921,0.8255301117897034,-0.0,0.02808137983083725,0.7745513916015625,-0.00024971162201836705,0.06047772243618965
1046.0,1022.0,1.3573,-0.2136,8.9551,-0.0464,0.007,-0.12,-1.56361765860159,-0.024260638281702995,1.8118317127227783,-2.0867180824279785,0.0008151211077347398,2.0132763385772705,4.959586220770635,-0.0001236271345987916,0.29376280307769775,-1.5967138449298304,2.802596928649634e-45,-0.01636500284075737,0.8255503177642822,-0.0,0.027910655364394188,0.7745634913444519,-0.000312951160594821,-0.00253218412399292
1046.0,1022.0,1.3573,-0.2136,8.9551,-0.0464,0.007,-0.12,-1.5637731927311798,-0.027279432862997055,1.8779199123382568,-2.086702585220337,0.003232646966353059,1.9171967506408691,4.9596303580100916,-0.00013196586223784834,0.28641748428344727,-1.596677605305807,0.0,-0.003006171667948365,0.8255901336669922,-0.0,0.031724777072668076,0.7745920419692993,-0.0007241615676321089,0.0012009348720312119
1046.0,1022.0,1.3573,-0.2136,8.9551,-0.0464,0.007,-0.12,-1.564045050447323,-0.031578537076711655,1.8315677642822266,-2.0866336822509766,0.005144570022821426,1.9818040132522583,4.95962259450511,-0.00012190392590127885,0.28790247440338135,-1.5967219511615198,0.0,-0.00712619349360466,0.8255860805511475,-0.0,0.032166577875614166,0.7745275497436523,-0.0009586562518961728,-0.03952258080244064
1046.0,1022.0,1.3573,-0.2136,8.9551,-0.0464,0.007,-0.12,-1.5643725002049287,-0.04180993139743805,1.795428991317749,-2.0866143703460693,0.00609121099114418,2.009671688079834,4.959610643773832,-0.00011115019879071042,0.2896989583969116,-1.5967219511615198,0.0,0.0034466509241610765,0.8255460858345032,7.882065983721986e-05,0.03359609469771385,0.7745679020881653,-0.0008568004122935236,-0.04233609139919281
1046.0,1022.0,1.3573,-0.2136,8.9551,-0.0464,0.007,-0.12,-1.5647847534022112,-0.05039633437991142,1.7430005073547363,-2.0865347385406494,0.007044075522571802,1.9495362043380737,4.959614354162969,-0.00010382314212620258,0.2812008857727051,-1.5966857115374964,0.0,0.0006871710065752268,0.8254778385162354,0.00010909744742093608,0.03433559089899063,0.7745275497436523,-0.000505529111251235,-0.0649193525314331
1046.0,1022.0,1.3573,-0.2136,8.9551,-0.0464,0.007,-0.12,-1.5651882246932765,-0.05848047137260437,1.752708077430725,-2.0864667892456055,0.007379101123660803,1.9927144050598145,4.959650221257963,-9.74024151219055e-05,0.28632718324661255,-1.596733872090475,0.0,0.0032312232069671154,0.8255538940429688,9.945318015525118e-05,0.03554817661643028,0.7745516896247864,-0.0003487466892693192,-0.06219622865319252
1046.0,1022.0,1.3573,-0.2136,8.9551,-0.0464,0.007,-0.12,-1.5657038211687286,-0.06935388594865799,1.7892189025878906,-2.0863826274871826,0.007344455923885107,2.005032777786255,4.959590199380674,-9.172957652481273e-05,0.2747255563735962,-1.5966818968402308,0.0,0.012600734829902649,0.8256219625473022,0.00010964464308926836,0.03258857876062393,0.7745475769042969,-0.0002662060724105686,-0.0684177502989769
1046.0,1022.0,1.3573,-0.2136,8.9551,-0.0464,0.007,-0.12,-1.566307319128402,-0.08291005343198776,1.7431427240371704,-2.086338758468628,0.0077901240438222885,1.9546513557434082,4.95966653802947,-8.66812260937877e-05,0.27884936332702637,-1.5967019240008753,0.0,0.012270726263523102,0.8255901336669922,0.00010141298844246194,0.04523562267422676,0.7745634913444519,-0.00017223549366462976,-0.00739182299003005
1046.0,1022.0,1.3573,-0.2136,8.9551,-0.0464,0.007,-0.12,-1.567166543831565,-0.09376434236764908,1.7127162218093872,-2.0862631797790527,0.008038726635277271,1.9909106492996216,4.959658342390814,-3.5104410926578566e-05,0.27920395135879517,-1.5966857115374964,0.0,0.01443740725517273,0.8255860805511475,0.00011576498218346387,0.04213278740644455,0.7745270729064941,-0.00010423396452097222,-0.0547938235104084
987.0,1020.0,0.9326,0.015,9.5306,-0.0328,-0.0567,-0.1193,-1.5679380742697795,-0.09059295803308487,1.7328717708587646,-2.086219549179077,0.007562551647424698,1.9462854862213135,4.959702658444204,-2.9750943213002756e-05,0.2794463038444519,-1.5967381636248987,0.0,0.03086736798286438,0.825622022151947,0.00011566671309992671,0.054200850427150726,0.7745473384857178,-9.02854444575496e-05,-0.043299347162246704
987.0,1020.0,0.9326,0.015,9.5306,-0.0328,-0.0567,-0.1193,-1.568693293058761,-0.09148859977722168,1.7341032028198242,-2.0861752033233643,0.00470919581130147,1.9561688899993896,4.959666210203924,-2.7905949536943808e-05,0.2723933458328247,-1.5966656843768519,0.0,0.00881982408463955,0.8255739808082581,0.00015236134640872478,0.027032794430851936,0.774579644203186,0.00012215538299642503,-0.06061389297246933
987.0,1020.0,0.9326,0.015,9.5306,-0.0328,-0.0567,-0.1193,-1.5694724822281678,-0.09884072095155716,1.6950583457946777,-2.086127519607544,0.0013522538356482983,2.0475821495056152,4.959646659880438,-3.9407150325132534e-05,0.2710111141204834,-1.596694294606344,0.0,0.003743052016943693,0.8255538940429688,0.00016231722838710994,0.044338956475257874,0.7746159434318542,0.0007097987690940499,-0.022125227376818657
987.0,1020.0,0.9326,0.015,9.5306,-0.0328,-0.0567,-0.1193,-1.5702638344703992,-0.10935850441455841,1.6874027252197266,-2.086087226867676,0.0007206245209090412,1.9475314617156982,4.959658372193136,-3.7240137316985056e-05,0.2864193916320801,-1.5967100302325647,0.0,0.025357156991958618,0.8256139755249023,0.00016844180936459452,0.04245132580399513,0.774547278881073,0.0005429754382930696,-0.02616007626056671
987.0,1020.0,0.9326,0.015,9.5306,-0.0328,-0.0567,-0.1193,-1.5713468990721644,-0.12004201114177704,1.6594488620758057,-2.0861196517944336,0.0021271200384944677,1.9775028228759766,4.959666225105085,3.8756716094212607e-05,0.2665371894836426,-1.5966818968402308,0.0,0.003049510531127453,0.8256179094314575,0.00014922049012966454,0.05357568338513374,0.7746200561523438,0.0003794265794567764,-0.04937219247221947
987.0,1020.0,0.9326,0.015,9.5306,-0.0328,-0.0567,-0.1193,-1.5723301372923792,-0.12730315327644348,1.666088342666626,-2.086071491241455,0.006230087019503117,1.997671127319336,4.959622251778402,3.494715929264203e-05,0.2687254250049591,-1.5967062155352991,0.0,0.010089300572872162,0.8256058692932129,0.0001557555078761652,0.05578812211751938,0.7745755910873413,0.00030575902201235294,-0.14702704548835754
987.0,1020.0,0.9326,0.015,9.5306,-0.0328,-0.0567,-0.1193,-1.5734011135497035,-0.13445636630058289,1.6726431846618652,-2.0859909057617188,0.008223135024309158,1.969541072845459,4.959706696658888,3.024827856279444e-05,0.2737973630428314,-1.5966737906085413,0.0,0.01306566409766674,0.8256058692932129,0.00020244040933903307,0.05186834931373596,0.7746195793151855,0.00027949162176810205,-0.07405216991901398
987.0,1020.0,0.9326,0.015,9.5306,-0.0328,-0.0567,-0.1193,-1.5745002231993617,-0.14155100286006927,1.6162269115447998,-2.0859553813934326,0.008345546200871468,1.9507267475128174,4.959674376040258,3.522079396134359e-06,0.28153079748153687,-1.5966938177691858,0.0,0.0130145363509655,0.8255977034568787,0.00020627812773454934,0.05036820471286774,0.774635910987854,0.0010022287024185061,-0.07829839736223221
987.0,1020.0,0.9326,0.015,9.5306,-0.0328,-0.0567,-0.1193,-1.5757433376707972,-0.15164630115032196,1.674606204032898,-2.0858514308929443,0.005893632769584656,1.954556941986084,4.959610390454092,6.401205260297971e-11,0.2589815855026245,-1.5966818968402308,0.0,0.006060997024178505,0.8256499171257019,0.00020902334654238075,0.05268194526433945,0.7746518850326538,0.0007743807509541512,-0.04640330374240875
987.0,1020.0,0.9326,0.015,9.5306,-0.0328,-0.0567,-0.1193,-1.5769549808897914,-0.1657658964395523,1.6293134689331055,-2.085860013961792,0.004432763904333115,1.9739923477172852,4.959642711072721,1.1633874710760463e-15,0.2641665041446686,-1.5967538992511194,0.0,0.00710006058216095,0.8256580233573914,0.00021101166203152388,0.05255455523729324,0.7746436595916748,0.0004628401075024158,-0.05735378712415695
987.0,1020.0,0.9326,0.015,9.5306,-0.0328,-0.0567,-0.1193,-1.578569074670309,-0.16758808493614197,1.6343518495559692,-2.085791826248169,0.004946602974087,1.9532630443572998,4.959694298892774,1.3805518205765197e-21,0.2677152156829834,-1.5967620054828089,0.0,0.005654633045196533,0.8255977630615234,0.00028248384478501976,0.06202779710292816,0.7745833992958069,0.0003056171699427068,-0.016222719103097916
986.0,930.0,1.0684,0.2231,9.3003,-0.0357,-0.1668,-0.1196,-1.5798961124815882,-0.1720714420080185,1.661543369293213,-2.0857481956481934,0.00680879782885313,1.9858720302581787,4.959686267166891,2.5090847374385758e-26,0.2702477276325226,-1.5967095533954065,0.0,0.019737184047698975,0.8256340026855469,0.00028273259522393346,0.0459623783826828,0.7745875120162964,0.00019225665892008692,-0.06317009776830673
986.0,930.0,1.0684,0.2231,9.3003,-0.0357,-0.1668,-0.1196,-1.581278463403219,-0.18080109357833862,1.5976779460906982,-2.08564829826355,0.005974409636110067,1.9635398387908936,4.959718945413389,4.5601375529415295e-31,0.2538984417915344,-1.5967219511615198,0.0,0.02303185872733593,0.8256100416183472,0.000273669051239267,0.06320420652627945,0.7745833992958069,0.00015841360436752439,-0.09446179121732712
986.0,930.0,1.0684,0.2231,9.3003,-0.0357,-0.1668,-0.1196,-1.582761903802389,-0.1907186657190323,1.6166051626205444,-2.0856478214263916,0.0040630679577589035,1.99188232421875,4.9596508769090555,8.287824929374017e-36,0.2665020525455475,-1.5966699759112757,8.358268743791086e-09,0.005251276306807995,0.8256299495697021,0.0003018556162714958,0.06161502003669739,0.7745714783668518,0.00013470261183101684,-0.058319948613643646
986.0,930.0,1.0684,0.2231,9.3003,-0.0357,-0.1668,-0.1196,-1.5842768154540003,-0.1952013224363327,1.606539249420166,-2.085644483566284,0.004391383845359087,1.9334688186645508,4.95969437339858,1.5062697322873891e-40,0.2581954598426819,-1.5966857115374964,1.5190743086167247e-13,0.016335995867848396,0.8256140351295471,0.0002860759850591421,0.081553615629673,0.7746036052703857,8.787991828285158e-05,-0.0791076272726059
986.0,930.0,1.0684,0.2231,9.3003,-0.0357,-0.1668,-0.1196,-1.5863505802550257,-0.2081199735403061,1.5994869470596313,-2.0855565071105957,0.0063582598231732845,1.9760291576385498,4.959670293122091,0.0,0.2634733021259308,-1.5966857115374964,1.8026328329183027e-19,0.021013503894209862,0.8256218433380127,0.00030154237174429,0.0816546231508255,0.7746361494064331,-0.00013993566972203553,-0.060096174478530884
986.0,930.0,1.0684,0.2231,9.3003,-0.0357,-0.1668,-0.1196,-1.5881058178343714,-0.21172672510147095,1.6124449968338013,-2.085524320602417,0.00939539261162281,1.9811762571334839,4.959649833827772,0.0,0.2648816406726837,-1.5966413656817835,3.2761963345832642e-24,0.019731352105736732,0.825617790222168,0.00035484664840623736,0.049864426255226135,0.7745837569236755,-0.0001325477205682546,-0.10713732242584229
986.0,930.0,1.0684,0.2231,9.3003,-0.0357,-0.1668,-0.1196,-1.589776178399557,-0.2102586328983307,1.5889978408813477,-2.0853970050811768,0.013309448026120663,1.9400869607925415,4.9597186026866815,0.0,0.26183193922042847,-1.5966699759112757,5.954325386689103e-29,0.023135097697377205,0.825637936592102,0.0003387698670849204,0.06357165426015854,0.7745915055274963,-0.00011857666686410084,-0.0718289390206337
986.0,930.0,1.0684,0.2231,9.3003,-0.0357,-0.1668,-0.1196,-1.591658731500143,-0.22800904512405396,1.6058553457260132,-2.0852296352386475,0.015495412051677704,1.9670922756195068,4.9597103772457025,0.0,0.26466622948646545,-1.5967100302325647,1.0821691910811175e-33,0.02649441547691822,0.8256221413612366,0.0002793828316498548,0.06356558203697205,0.774555504322052,-0.00010727021435741335,-0.0705409049987793
986.0,930.0,1.0684,0.2231,9.3003,-0.0357,-0.1668,-0.1196,-1.5935455761351527,-0.2410719096660614,1.5992364883422852,-2.0851616859436035,0.017563045024871826,1.954801082611084,4.959678056627073,0.0,0.26096969842910767,-1.5967262426959437,1.9667893767464755e-38,0.0220553670078516,0.8255459070205688,0.0002372840972384438,0.07017313688993454,0.7745879292488098,-0.00021757454669568688,-0.042387597262859344
986.0,930.0,1.0684,0.2231,9.3003,-0.0357,-0.1668,-0.1196,-1.5959998569884242,-0.23404985666275024,1.5688343048095703,-2.084925651550293,0.028523912653326988,1.991411566734314,4.959698143392362,0.0,0.25742095708847046,-1.5966981093036097,2.382207389352189e-44,0.021252846345305443,0.8257056474685669,0.0002281995548401028,0.05205795168876648,0.7745634317398071,-0.0002453148481436074,-0.09181882441043854
986.0,930.0,1.0684,0.2231,9.3003,-0.0357,-0.1668,-0.1196,-1.5979820690550746,-0.24740056693553925,1.5803442001342773,-2.084670066833496,0.034845318645238876,1.974618673324585,4.9597103772457025,0.0,0.2679106593132019,-1.5966900030719202,0.0,0.04030485451221466,0.8256259560585022,0.0002025232242885977,0.058487482368946075,0.7746038436889648,-0.00021225916862022132,-0.07364223897457123
955.0,8190.0,2.6925,0.2889,9.6706,-0.025,-0.1512,-0.1281,-1.6000009975829066,-0.250803679227829,1.612776517868042,-2.0843632221221924,0.040898289531469345,1.9824392795562744,4.959706294327535,0.0,0.2626097500324249,-1.5967019240008753,0.0,0.007879438810050488,0.8256977200508118,0.00018203996296506375,0.059836246073246,0.7745634913444519,-0.00018705034744925797,-0.09418021142482758
955.0,8190.0,2.6925,0.2889,9.6706,-0.025,-0.1512,-0.1281,-1.601995130578512,-0.2536865770816803,1.648712396621704,-2.0840234756469727,0.047748863697052,1.996858835220337,4.9597182152564905,0.0,0.2687515616416931,-1.5966981093036097,0.0,0.03504587709903717,0.8256337642669678,0.00016531955043319613,0.060229308903217316,0.7745634317398071,-0.0001671936479397118,-0.04069386050105095
955.0,8190.0,2.6925,0.2889,9.6706,-0.025,-0.1512,-0.1281,-1.6040336094298304,-0.2645677924156189,1.6294512748718262,-2.0835728645324707,0.05456541106104851,2.024135112762451,4.959722313075819,0.0,0.2679617404937744,-1.5966575781451624,0.0,0.03093915432691574,0.8256659507751465,0.00015141270705498755,0.05956669896841049,0.7745838165283203,-0.00015114842972252518,-0.09035280346870422
955.0,8190.0,2.6925,0.2889,9.6706,-0.025,-0.1512,-0.1281,-1.6060639820494593,-0.25848159193992615,1.6744325160980225,-2.0831375122070312,0.0626978874206543,2.0427238941192627,4.959725963860311,0.00021659066260326654,0.2779102623462677,-1.5967262426959437,3.0413966669584624e-05,0.026608005166053772,0.8256780505180359,0.00013966418919153512,0.06321559101343155,0.7745956778526306,-0.00013791333185508847,-0.06880106776952744
955.0,8190.0,2.6925,0.2889,9.6706,-0.025,-0.1512,-0.1281,-1.6086098156371058,-0.25593817234039307,1.6596455574035645,-2.082322835922241,0.0782407596707344,2.069861888885498,4.959730151086607,0.0009204357047565281,0.2793828248977661,-1.5966818968402308,3.1745330488774925e-05,0.03468681871891022,0.8256699442863464,0.00012731578317470849,0.05703575909137726,0.7745997309684753,-0.00012430729111656547,-0.05671408772468567
955.0,8190.0,2.6925,0.2889,9.6706,-0.025,-0.1512,-0.1281,-1.6106006107726039,-0.2573167383670807,1.6505436897277832,-2.0816924571990967,0.08613016456365585,2.0640130043029785,4.959693941264906,0.0005816452321596444,0.272668719291687,-1.5966818968402308,2.96534453809727e-05,0.009047410450875759,0.8256740570068359,0.00011890527093783021,0.06440682709217072,0.7745915651321411,-2.509560545149725e-05,-0.0833330973982811
955.0,8190.0,2.6925,0.2889,9.6706,-0.025,-0.1512,-0.1281,-1.6126710377135218,-0.26490965485572815,1.6619818210601807,-2.080958127975464,0.09108411520719528,2.088587760925293,4.959778445750036,0.0004246746830176562,0.28955742716789246,-1.5967257658587855,2.7820149625767954e-05,0.007881301455199718,0.8256740570068359,0.0001115372942877002,0.054497938603162766,0.774563193321228,-2.2481322957901284e-05,-0.08696503192186356
955.0,8190.0,2.6925,0.2889,9.6706,-0.025,-0.1512,-0.1281,-1.6146899662413539,-0.2635437250137329,1.7164194583892822,-2.080155372619629,0.0973265990614891,2.06050705909729,4.959770235210218,0.0003577546449378133,0.2946160137653351,-1.5966976324664515,2.6200390493613668e-05,0.012966216541826725,0.8256059288978577,0.00010502908116905019,0.06846751272678375,0.7745673656463623,-2.0439099898794666e-05,-0.0381191112101078
955.0,8190.0,2.6925,0.2889,9.6706,-0.025,-0.1512,-0.1281,-1.6168128452696742,-0.26103475689888,1.707707405090332,-2.079357147216797,0.11103907972574234,2.0704119205474854,4.959773900895872,0.0003197180631104857,0.28477367758750916,-1.5967062155352991,2.475883775332477e-05,0.0055879149585962296,0.8256380558013916,9.923862671712413e-05,0.05888925492763519,0.7745837569236755,-1.873703149612993e-05,-0.09850624948740005
955.0,8190.0,2.6925,0.2889,9.6706,-0.025,-0.1512,-0.1281,-1.6194631061949671,-0.25903066992759705,1.728489637374878,-2.0781912803649902,0.12874262034893036,2.0714704990386963,4.959766152292051,0.00029266386991366744,0.29899606108665466,-1.5967500845538538,2.3165663151303306e-05,0.00010927370749413967,0.8256259560585022,9.284047700930387e-05,0.057815928012132645,0.7745673656463623,-1.697051447990816e-05,-0.034116100519895554
955.0,8190.0,2.6925,0.2889,9.6706,-0.025,-0.1512,-0.1281,-1.6216212711729945,-0.25789400935173035,1.826050877571106,-2.077125072479248,0.1434752345085144,2.1132922172546387,4.959750133543768,0.00025172895402647555,0.29100027680397034,-1.5967062155352991,1.1110682862636168e-05,-0.007810279726982117,0.8256661295890808,8.828681893646717e-05,0.059153907001018524,0.774571418762207,-1.0063306854490861e-09,-0.04859702289104462
906.0,907.0,2.7655,-0.0951,8.9222,-0.0354,-0.0774,-0.1284,-1.6237594089903773,-0.27869099378585815,1.7705003023147583,-2.0759360790252686,0.15071310102939606,2.0745511054992676,4.959746482759275,0.0002208406658610329,0.2900635600090027,-1.5967181364642542,1.050160608428996e-05,-0.015970950946211815,0.8256579041481018,8.415906631853431e-05,0.04527810215950012,0.7746560573577881,-3.260383669575737e-17,-0.013950830325484276
906.0,907.0,2.7655,-0.0951,8.9222,-0.0354,-0.0774,-0.1284,-1.6260301075377406,-0.27485164999961853,1.7784202098846436,-2.074641704559326,0.15317854285240173,2.086122989654541,4.959766152292051,0.00021144615311641246,0.29470688104629517,-1.5966900030719202,1.0033311809820589e-05,-0.012612573802471161,0.8256100416183472,8.039998647291213e-05,0.04751473292708397,0.7746195793151855,-1.0563229132372249e-24,0.01767023466527462
906.0,907.0,2.7655,-0.0951,8.9222,-0.0354,-0.0774,-0.1284,-1.628256460229391,-0.2728959321975708,1.7225050926208496,-2.0734126567840576,0.1732727438211441,2.1467878818511963,4.959773915797033,0.00026486956630833447,0.28707432746887207,-1.5967095533954065,1.4000383075085665e-09,-0.004466519691050053,0.8257015347480774,2.2132484289727472e-08,0.055674076080322266,0.774579644203186,-3.422352179272858e-32,0.017721477895975113
906.0,907.0,2.7655,-0.0951,8.9222,-0.0354,-0.0774,-0.1284,-1.630542894402975,-0.27716007828712463,1.799320101737976,-2.0719997882843018,0.18539825081825256,2.143066167831421,4.959725963860311,0.00022005397477187216,0.2966969311237335,-1.5967095533954065,2.5445006954856637e-14,-0.012676330283284187,0.8256498575210571,4.0224700198314423e-13,0.039922334253787994,0.7746038436889648,-1.1087984293739764e-39,-0.0008054934442043304
906.0,907.0,2.7655,-0.0951,8.9222,-0.0354,-0.0774,-0.1284,-1.6332279644408167,-0.2789906859397888,1.788000226020813,-2.070143938064575,0.18774110078811646,2.1179964542388916,4.95974229553298,0.00013690420018974692,0.2942102551460266,-1.5966857115374964,3.0194709609342416e-20,-0.011959526687860489,0.8256299495697021,4.773325340871204e-19,0.04181952774524689,0.7745673060417175,0.0001818359160097316,0.07872200757265091
906.0,907.0,2.7655,-0.0951,8.9222,-0.0354,-0.0774,-0.1284,-1.6354743442931117,-0.29147112369537354,1.7667810916900635,-2.0685906410217285,0.19347377121448517,2.193859577178955,4.959738227515974,0.00010495480091776699,0.2970105707645416,-1.5966981093036097,5.487739483377783e-25,-0.031129591166973114,0.8256100416183472,8.675283235001857e-24,0.047350265085697174,0.7746036052703857,0.00025972581352107227,0.04153519868850708
906.0,907.0,2.7655,-0.0951,8.9222,-0.0354,-0.0774,-0.1284,-1.6377092800536097,-0.2834908366203308,1.7689290046691895,-2.06695818901062,0.20794859528541565,2.179569721221924,4.959770265012541,8.50992655614391e-05,0.2956259548664093,-1.5966900030719202,9.973696793958577e-30,-0.0041167158633470535,0.8256300091743469,1.5766898731036966e-28,0.04837372153997421,0.7745792269706726,0.00022297684336081147,0.04669000953435898
906.0,907.0,2.7655,-0.0951,8.9222,-0.0354,-0.0774,-0.1284,-1.639918943444723,-0.2776848077774048,1.8197622299194336,-2.065208911895752,0.21957653760910034,2.205411434173584,4.959774303227224,7.156313222367316e-05,0.29310402274131775,-1.5967095533954065,1.8126699157418065e-34,-0.025414247065782547,0.8256498575210571,2.8655556599162696e-33,0.037217751145362854,0.7745833992958069,0.00014730976545251906,-0.0036744624376296997
906.0,907.0,2.7655,-0.0951,8.9222,-0.0354,-0.0774,-0.1284,-1.6421572170653285,-0.27842867374420166,1.843084692955017,-2.063369035720825,0.22256308794021606,2.1705820560455322,4.959750133543768,6.17427213001065e-05,0.2963452637195587,-1.5967138449298304,3.294438676643002e-39,-0.007177966181188822,0.8256936073303223,5.208005896935342e-38,0.03178546950221062,0.7746396064758301,0.0004481892683543265,0.030596069991588593
906.0,907.0,2.7655,-0.0951,8.9222,-0.0354,-0.0774,-0.1284,-1.6449266872801722,-0.2897864580154419,1.785388708114624,-2.0611255168914795,0.24051858484745026,2.2364964485168457,4.959725963860311,2.812384809658397e-05,0.2774583101272583,-1.596705738698141,4.203895392974451e-45,-0.021269701421260834,0.8256180286407471,6.165713243029195e-44,0.02483014389872551,0.7746195793151855,0.002135980874300003,0.033390648663043976
906.0,907.0,2.7655,-0.0951,8.9222,-0.0354,-0.0774,-0.1284,-1.6472369633116664,-0.2931058406829834,1.826805591583252,-2.059161901473999,0.2421218901872635,2.222480058670044,4.959738272219457,1.879441713370511e-09,0.286273717880249,-1.596694294606344,0.0,-0.025121737271547318,0.8256058692932129,0.0,0.011395882815122604,0.7746557593345642,0.0011136983521282673,0.05034905672073364
885.0,902.0,2.5765,-0.2022,9.676,-0.0609,-0.0258,-0.1148,-1.649639745751852,-0.2982400059700012,1.765120267868042,-2.0571229457855225,0.25231215357780457,2.199531078338623,4.959790292173185,3.415792835755917e-14,0.2920365333557129,-1.5967181364642542,0.0,-0.006159645039588213,0.8256539106369019,0.0,0.04397394508123398,0.774671733379364,0.0005299239419400692,0.027692046016454697
885.0,902.0,2.5765,-0.2022,9.676,-0.0609,-0.0258,-0.1148,-1.6520449123778285,-0.2894633710384369,1.8394970893859863,-2.055046319961548,0.27297136187553406,2.2339372634887695,4.959782126336851,6.208034958168397e-19,0.2819809317588806,-1.5966976324664515,0.0,-0.015302094630897045,0.8255978226661682,0.0,0.04336374253034592,0.7746516466140747,0.00035012999433092773,0.09068360924720764
885.0,902.0,2.5765,-0.2022,9.676,-0.0609,-0.0258,-0.1148,-1.6544538937010707,-0.29856714606285095,1.819251298904419,-2.052910804748535,0.2791062295436859,2.215942621231079,4.959758284478941,1.1282796692893873e-23,0.28757911920547485,-1.5967581907855433,0.0,-0.019989188760519028,0.8256379961967468,0.0,0.037214066833257675,0.7746635675430298,0.0002670110552571714,0.037065815180540085
885.0,902.0,2.5765,-0.2022,9.676,-0.0609,-0.0258,-0.1148,-1.6576553783812464,-0.3042820990085602,1.8624377250671387,-2.050037384033203,0.2919047772884369,2.252387762069702,4.959770205407896,1.3388903977673775e-29,0.2830966114997864,-1.5967500845538538,0.0,-0.021967537701129913,0.8256458640098572,0.0,0.03536463528871536,0.7746800184249878,0.00028827955247834325,0.05637705326080322
885.0,902.0,2.5765,-0.2022,9.676,-0.0609,-0.0258,-0.1148,-1.6601406536498011,-0.3176196217536926,1.876335859298706,-2.0476291179656982,0.30004972219467163,2.2076289653778076,4.959721925645628,2.4333672079969567e-34,0.2941000461578369,-1.596689526234762,0.0,-0.01574357971549034,0.8256260752677917,0.0,0.025960946455597878,0.7746557593345642,0.0002436757495161146,0.027405625209212303
885.0,902.0,2.5765,-0.2022,9.676,-0.0609,-0.0258,-0.1148,-1.6626745663084925,-0.31318241357803345,1.8877742290496826,-2.045245885848999,0.3087584972381592,2.258382797241211,4.959734144597807,4.422524578079945e-39,0.29330745339393616,-1.5966976324664515,0.0,-0.024884486570954323,0.8256017565727234,8.819958452477294e-08,0.029312146827578545,0.7746236324310303,8.405808330280706e-05,0.05971721559762955
885.0,902.0,2.5765,-0.2022,9.676,-0.0609,-0.0258,-0.1148,-1.66514315227651,-0.3134446442127228,1.8735997676849365,-2.042715549468994,0.3108971416950226,2.222506046295166,4.959774243622579,7.987401246651457e-44,0.29143595695495605,-1.5967181364642542,0.0,-0.028609098866581917,0.8256058692932129,1.6029838047215694e-12,0.028123889118433,0.7746396064758301,6.664255488431081e-05,0.05828419327735901
885.0,902.0,2.5765,-0.2022,9.676,-0.0609,-0.0258,-0.1148,-1.6675921879210414,-0.3170197010040283,1.8977439403533936,-2.040172815322876,0.33113008737564087,2.3100666999816895,4.959730136185446,0.0,0.29435214400291443,-1.59674579301943,0.0,-0.029791399836540222,0.8256380558013916,2.9133440140460544e-17,0.022690296173095703,0.7746516466140747,6.119478348409757e-05,0.042786210775375366
885.0,902.0,2.5765,-0.2022,9.676,-0.0609,-0.0258,-0.1148,-1.6701380215086878,-0.31485480070114136,1.9227737188339233,-2.037545680999756,0.3267110288143158,2.3019611835479736,4.959738212614813,0.0,0.2966766357421875,-1.5967219511615198,0.0,-0.011054879054427147,0.8256260752677917,5.294859134521419e-22,0.026029163971543312,0.7746676206588745,2.8020540412398987e-05,0.04560726508498192
885.0,902.0,2.5765,-0.2022,9.676,-0.0609,-0.0258,-0.1148,-1.6732078991331996,-0.31375858187675476,1.939009428024292,-2.034252643585205,0.3381651043891907,2.3021063804626465,4.959754216461935,0.0,0.28476396203041077,-1.5967019240008753,0.0,-0.018155870959162712,0.825617790222168,6.283226072941833e-28,0.01814863830804825,0.7746516466140747,2.3428719941875897e-05,-0.005234960932284594
885.0,902.0,2.5765,-0.2022,9.676,-0.0609,-0.0258,-0.1148,-1.6757246456541957,-0.31942620873451233,1.9731817245483398,-2.0314748287200928,0.33711159229278564,2.320068359375,4.959782141238012,0.0,0.2921832501888275,-1.5967257658587855,0.0,-0.015339327976107597,0.8256058692932129,1.1419453012394379e-32,0.028373487293720245,0.7746154069900513,4.2438368836883456e-05,0.018012821674346924
944.0,900.0,2.4227,0.1591,9.6467,-0.0249,0.0573,-0.1284,-1.6781250439085902,-0.31545954942703247,1.9850268363952637,-2.0287933349609375,0.34664419293403625,2.321287155151367,4.959786209255018,0.0,0.30210477113723755,-1.5967062155352991,0.0,-0.022719696164131165,0.8256098628044128,2.0754293001405885e-37,0.030814986675977707,0.7746396660804749,1.939067260536831e-05,-0.007860170677304268
944.0,900.0,2.4227,0.1591,9.6467,-0.0249,0.0573,-0.1284,-1.680702348748678,-0.3183058202266693,1.981854796409607,-2.0259032249450684,0.34642255306243896,2.3290395736694336,4.959738212614813,0.0,0.29570329189300537,-1.596649471913473,0.0,-0.010860509239137173,0.8255780339241028,3.7722954659624076e-42,0.020038681104779243,0.7746800184249878,1.7852040400612168e-05,-0.06144393980503082
944.0,900.0,2.4227,0.1591,9.6467,-0.0249,0.0573,-0.1284,-1.6833163700499476,-0.31557905673980713,1.9664127826690674,-2.0231564044952393,0.35465240478515625,2.3212971687316895,4.959802526026525,0.0,0.2920038104057312,-1.5966737906085413,0.0,-0.021310079842805862,0.825562059879303,0.0,0.027332697063684464,0.7746071815490723,3.307943552499637e-05,0.03851956129074097
944.0,900.0,2.4227,0.1591,9.6467,-0.0249,0.0573,-0.1284,-1.6866051159300746,-0.32789021730422974,1.9818685054779053,-2.019554376602173,0.36432120203971863,2.3422322273254395,4.959794375091352,0.0,0.30466318130493164,-1.5967257658587855,0.0,-0.006499479059129953,0.8256499171257019,0.0,0.03167106956243515,0.7746354937553406,3.029573053936474e-05,-0.012109804898500443
944.0,900.0,2.4227,0.1591,9.6467,-0.0249,0.0573,-0.1284,-1.689249654809469,-0.32349637150764465,2.033684730529785,-2.016616106033325,0.3681967258453369,2.357728958129883,4.959773900895872,0.0,0.30724048614501953,-1.5967300573932093,0.0,-0.023484382778406143,0.8255938291549683,0.0,0.013606750406324863,0.7746961712837219,2.838478576450143e-05,-0.0064918422140181065
944.0,900.0,2.4227,0.1591,9.6467,-0.0249,0.0573,-0.1284,-1.6919824085631312,-0.33911147713661194,2.007720947265625,-2.013678550720215,0.37555962800979614,2.362598419189453,4.959754216461935,0.0,0.29659733176231384,-1.5966900030719202,0.0,-0.021471630781888962,0.8255501389503479,0.0,0.025186613202095032,0.7746354937553406,2.6700605303631164e-05,0.01683339662849903
944.0,900.0,2.4227,0.1591,9.6467,-0.0249,0.0573,-0.1284,-1.6946999035277308,-0.33471935987472534,2.0147695541381836,-2.0106561183929443,0.37616080045700073,2.3802754878997803,4.959773900895872,0.0,0.3067800998687744,-1.5967219511615198,0.0,-0.014578541740775108,0.8255979418754578,0.0,0.01899123750627041,0.7746557593345642,2.5205090423696674e-05,0.019854694604873657
944.0,900.0,2.4227,0.1591,9.6467,-0.0249,0.0573,-0.1284,-1.6973573170103968,-0.34263044595718384,2.030811071395874,-2.0076582431793213,0.38163018226623535,2.326747179031372,4.95970997491435,0.0,0.3028622269630432,-1.5966981093036097,0.0,-0.02866402268409729,0.8256058692932129,0.0,0.006987131200730801,0.7746436595916748,2.386822052358184e-05,-0.015099807642400265
944.0,900.0,2.4227,0.1591,9.6467,-0.0249,0.0573,-0.1284,-1.7007252178587855,-0.3338090181350708,2.0698647499084473,-2.003812551498413,0.3870042860507965,2.354149341583252,4.95981444695548,0.0,0.3149150609970093,-1.5967138449298304,0.0,-0.02877224236726761,0.8255939483642578,0.0,0.01271679438650608,0.7746434807777405,1.119211628974881e-05,0.013729413971304893
944.0,900.0,2.4227,0.1591,9.6467,-0.0249,0.0573,-0.1284,-1.7033778629698695,-0.33176761865615845,2.0900604724884033,-2.0006260871887207,0.3836328983306885,2.3458070755004883,4.959762054472723,0.0,0.3164060115814209,-1.5967300573932093,0.0,-0.029980821534991264,0.8256459832191467,0.0,0.018109451979398727,0.7746758460998535,1.0661753549356945e-05,-0.03707131743431091
944.0,900.0,2.4227,0.1591,9.6467,-0.0249,0.0573,-0.1284,-1.7059833012022914,-0.3333251476287842,2.0980546474456787,-1.9975371360778809,0.3912777304649353,2.3746747970581055,4.959778058319845,0.0,0.3140784502029419,-1.5966818968402308,0.0,-0.013566708192229271,0.8256220817565918,0.0,0.02545277029275894,0.7746436595916748,2.0358169422252104e-05,0.033105406910181046
944.0,915.0,2.2708,0.0592,9.3739,-0.0359,0.091,-0.1301,-1.7085839710631312,-0.33228474855422974,2.141817092895508,-1.9943722486495972,0.3872620165348053,2.3631110191345215,4.959782141238012,0.0,0.3156273365020752,-1.5966699759112757,0.0,-0.0025858350563794374,0.8255581855773926,0.0,0.012237787246704102,0.7746354937553406,1.0499741520675343e-08,-0.004275807179510593
944.0,915.0,2.2708,0.0592,9.3739,-0.0359,0.091,-0.1301,-1.7112251720824183,-0.3320084512233734,2.0824246406555176,-1.9911304712295532,0.39179757237434387,2.341399669647217,4.959802526026525,0.0,0.3016693592071533,-1.5967181364642542,0.0,-0.029094427824020386,0.8255700469017029,0.0,0.013131755404174328,0.7746396660804749,3.4017825190555925e-16,-0.03811473771929741
944.0,915.0,2.2708,0.0592,9.3739,-0.0359,0.091,-0.1301,-1.7138668499388636,-0.3236408829689026,2.159719944000244,-1.9880298376083374,0.403280645608902,2.398852825164795,4.959806251316824,0.00042594518163241446,0.3109537661075592,-1.5966938177691858,0.0,-0.022862615063786507,0.8255701065063477,0.0,0.005015935283154249,0.7746636271476746,1.1021343734215568e-23,-0.029184479266405106
944.0,915.0,2.2708,0.0592,9.3739,-0.0359,0.091,-0.1301,-1.7172347507872523,-0.32822471857070923,2.199293613433838,-1.9840164184570312,0.4101882874965668,2.367370843887329,4.959769817977705,0.0009686742560006678,0.30479711294174194,-1.5967181364642542,0.0,-0.014553162269294262,0.8255660533905029,0.0,0.03243112191557884,0.7745871543884277,4.790651921669383e-33,-0.0051295873709023
944.0,915.0,2.2708,0.0592,9.3739,-0.0359,0.091,-0.1301,-1.7199589214720667,-0.32397839426994324,2.2011218070983887,-1.9807018041610718,0.40945112705230713,2.3449676036834717,4.959814059525289,0.000599258579313755,0.31742292642593384,-1.5967181364642542,0.0,-0.01747876964509487,0.8256058692932129,0.0,0.017819959670305252,0.7746478319168091,1.5521062050554539e-40,-0.00037304963916540146
944.0,915.0,2.2708,0.0592,9.3739,-0.0359,0.091,-0.1301,-1.7225853405394496,-0.336516797542572,2.2325778007507324,-1.977439284324646,0.4240589439868927,2.385859251022339,4.959773841291227,0.0004958196077495813,0.30471211671829224,-1.5966857115374964,0.0,-0.018091611564159393,0.825657844543457,0.0,0.02563851699233055,0.7746557593345642,0.0,-0.017223447561264038
944.0,915.0,2.2708,0.0592,9.3739,-0.0359,0.091,-0.1301,-1.7253295383849085,-0.33257633447647095,2.2243471145629883,-1.9741941690444946,0.42360344529151917,2.3966236114501953,4.959782066732206,0.0003887962957378477,0.3110550343990326,-1.5966900030719202,0.0,-0.021789606660604477,0.8256339430809021,0.0,0.009079517796635628,0.7746477723121643,0.0,-0.006201895885169506
944.0,915.0,2.2708,0.0592,9.3739,-0.0359,0.091,-0.1301,-1.727964540521139,-0.33404073119163513,2.2242918014526367,-1.9707852602005005,0.42031362652778625,2.373485565185547,4.9597418932016275,0.0003099863533861935,0.3085561692714691,-1.5967620054828089,0.0,-0.025258347392082214,0.8255939483642578,0.0,0.018268568441271782,0.7746440768241882,0.0,0.013538360595703125
944.0,915.0,2.2708,0.0592,9.3739,-0.0359,0.091,-0.1301,-1.7311717472472132,-0.3308107852935791,2.2683286666870117,-1.9664503335952759,0.42572811245918274,2.372664213180542,4.959818127542295,0.0001771447859937325,0.318567156791687,-1.596705738698141,0.0,-0.03459564596414566,0.8255501985549927,0.0,0.0004773261025547981,0.7745953798294067,0.0,-0.034220464527606964
944.0,915.0,2.2708,0.0592,9.3739,-0.0359,0.091,-0.1301,-1.7337829075255335,-0.3255293071269989,2.2836968898773193,-1.962979793548584,0.42700713872909546,2.4007012844085693,4.959814432054319,0.0001519080251455307,0.30803853273391724,-1.59674579301943,0.0,-0.0326908640563488,0.8256419897079468,0.0,0.010666299611330032,0.7746155261993408,0.0,0.03737322986125946
947.0,937.0,2.0997,0.0263,10.0636,-0.0224,0.1539,-0.1203,-1.7362777195372523,-0.3182089030742645,2.2416763305664062,-1.959620714187622,0.4262177050113678,2.4037086963653564,4.95983416119174,0.00013383432815317065,0.3185560703277588,-1.5966857115374964,0.0,-0.02410116046667099,0.8256140351295471,0.0,0.01933150738477707,0.7746436595916748,0.0,0.05016038566827774
947.0,937.0,2.0997,0.0263,10.0636,-0.0224,0.1539,-0.1203,-1.7387601337828578,-0.31633713841438293,2.2802038192749023,-1.9562046527862549,0.4310966432094574,2.4168829917907715,4.959798055678167,0.00011960484698647633,0.3144727945327759,-1.5966938177691858,0.0,-0.029267551377415657,0.825581967830658,0.0,0.013093898072838783,0.7746721506118774,0.0,0.01615135930478573
947.0,937.0,2.0997,0.0263,10.0636,-0.0224,0.1539,-0.1203,-1.7413402996458949,-0.31284818053245544,2.343592882156372,-1.95282781124115,0.4326910674571991,2.4399073123931885,4.959814476757803,0.00010811028187163174,0.3196358382701874,-1.5967543760882776,0.0,-0.02568582072854042,0.8256180286407471,0.0,0.016357211396098137,0.7746436595916748,0.0,0.015503971837460995
947.0,937.0,2.0997,0.0263,10.0636,-0.0224,0.1539,-0.1203,-1.7438069782652796,-0.31174436211586,2.3100385665893555,-1.9493197202682495,0.42808830738067627,2.4030988216400146,4.959773856192388,4.681087739299983e-05,0.3160100281238556,-1.5966938177691858,0.0,-0.02504611760377884,0.8256098628044128,0.0,0.009452706202864647,0.7746516466140747,0.0,0.006441679783165455
947.0,937.0,2.0997,0.0263,10.0636,-0.0224,0.1539,-0.1203,-1.7469545803465785,-0.3083311915397644,2.3761258125305176,-1.9449849128723145,0.44150203466415405,2.422647714614868,4.959793957858839,6.812413630541414e-05,0.3077085316181183,-1.5967138449298304,0.0,-0.0314922071993351,0.8255899548530579,0.0,0.03563447669148445,0.7746031880378723,0.0,0.09162718057632446
947.0,937.0,2.0997,0.0263,10.0636,-0.0224,0.1539,-0.1203,-1.749582429925436,-0.313018262386322,2.332217216491699,-1.9414201974868774,0.4471395015716553,2.46014404296875,4.95983416119174,5.919681643717922e-05,0.31654059886932373,-1.5967138449298304,0.0,-0.0319279208779335,0.8256098031997681,0.0,0.013550983741879463,0.7746113538742065,0.0,0.022111766040325165
947.0,937.0,2.0997,0.0263,10.0636,-0.0224,0.1539,-0.1203,-1.7521773777403773,-0.30997422337532043,2.3699629306793213,-1.9378775358200073,0.4364681541919708,2.441655158996582,4.959810378938474,5.2314419008325785e-05,0.3065072298049927,-1.596733872090475,0.0,-0.03577876836061478,0.8255939483642578,0.0,0.017634524032473564,0.7746355533599854,-8.088164804576081e-07,-0.01473914459347725
947.0,937.0,2.0997,0.0263,10.0636,-0.0224,0.1539,-0.1203,-1.7547689876952113,-0.3246990144252777,2.353572130203247,-1.9343013763427734,0.4411488473415375,2.4613547325134277,4.959853830724516,7.019308395683765e-05,0.3189319372177124,-1.5967062155352991,0.0,-0.02493741735816002,0.8256177306175232,0.0,0.025260193273425102,0.7746113538742065,-2.6204626101954294e-14,-0.008638870902359486
947.0,937.0,2.0997,0.0263,10.0636,-0.0224,0.1539,-0.1203,-1.7573029003539027,-0.3153060972690582,2.3674724102020264,-1.9307563304901123,0.44064950942993164,2.484157085418701,4.959830033570089,6.366743036778644e-05,0.3146364986896515,-1.5967019240008753,0.0,-0.03744068369269371,0.8255900144577026,0.0,0.012197567149996758,0.7746354937553406,-8.489966934155468e-22,0.009813533164560795
947.0,937.0,2.0997,0.0263,10.0636,-0.0224,0.1539,-0.1203,-1.7604595623412074,-0.31754404306411743,2.431053638458252,-1.9264017343521118,0.4346034824848175,2.500900983810425,4.959842312126913,5.695238724001683e-05,0.31066766381263733,-1.5967019240008753,0.0,-0.029825937002897263,0.8255780339241028,0.0,0.014300616458058357,0.7746073007583618,-3.6903368557200723e-31,0.041850779205560684
947.0,937.0,2.0997,0.0263,10.0636,-0.0224,0.1539,-0.1203,-1.7629877529540003,-0.3087279796600342,2.429119110107422,-1.9229340553283691,0.437326043844223,2.420048713684082,4.959821823030271,7.002524216659367e-05,0.3209569752216339,-1.5966737906085413,0.0,-0.026105232536792755,0.8256177306175232,0.0,-0.0008180424338206649,0.7746718525886536,-1.1956224618340027e-38,-0.03179626911878586
942.0,865.0,1.7683,-0.0724,9.1053,-0.0382,0.1895,-0.129,-1.7653614483275355,-0.30405107140541077,2.4577109813690186,-1.9194934368133545,0.43659770488739014,2.4522743225097656,4.959814059525289,0.00010706117609515786,0.31304624676704407,-1.5967181364642542,0.0,-0.020332161337137222,0.825613796710968,0.0,0.005369644612073898,0.7746722102165222,-0.0,0.011064521968364716
942.0,865.0,1.7683,-0.0724,9.1053,-0.0382,0.1895,-0.129,-1.7677036724486292,-0.3009352684020996,2.485002040863037,-1.9160739183425903,0.4350273907184601,2.424405574798584,4.959817829519071,9.293985203839839e-05,0.3146982192993164,-1.5966938177691858,0.0,-0.0384657122194767,0.8255939483642578,0.0,0.020270049571990967,0.7746195197105408,0.0,-0.011721797287464142
942.0,865.0,1.7683,-0.0724,9.1053,-0.0382,0.1895,-0.129,-1.7700587711729945,-0.304231196641922,2.4317336082458496,-1.9125813245773315,0.4322241544723511,2.4134349822998047,4.959805878787794,8.424015686614439e-05,0.3156374394893646,-1.5967538992511194,0.0,-0.03510167449712753,0.8256176710128784,0.0,0.02356085367500782,0.7745953798294067,0.0,-0.004391704685986042
942.0,865.0,1.7683,-0.0724,9.1053,-0.0382,0.1895,-0.129,-1.773039003411764,-0.2994188666343689,2.479137420654297,-1.9082977771759033,0.42447108030319214,2.3575210571289062,4.959749746113577,5.672720726579428e-05,0.29947352409362793,-1.5967257658587855,0.0,-0.03844163939356804,0.8256098628044128,0.0,0.006002566311508417,0.7746436595916748,0.0,0.017846493050456047
942.0,865.0,1.7683,-0.0724,9.1053,-0.0382,0.1895,-0.129,-1.7754141292967738,-0.29498031735420227,2.4874863624572754,-1.9048057794570923,0.4229877293109894,2.3893179893493652,4.959845739393987,5.033540219301358e-05,0.3115565776824951,-1.5967262426959437,0.0,-0.028644053265452385,0.8256018161773682,0.0,0.01902257837355137,0.7746598124504089,0.0,0.0462334081530571
942.0,865.0,1.7683,-0.0724,9.1053,-0.0382,0.1895,-0.129,-1.777781148950094,-0.28934305906295776,2.539592981338501,-1.9013751745224,0.4267090857028961,2.4035418033599854,4.9598300633724115,7.327913772314787e-05,0.30799591541290283,-1.5966976324664515,0.0,-0.028049375861883163,0.8256216645240784,0.0,0.01418679766356945,0.7746436595916748,0.0,-0.015851842239499092
942.0,865.0,1.7683,-0.0724,9.1053,-0.0382,0.1895,-0.129,-1.780168195764059,-0.2977079153060913,2.489377975463867,-1.8979915380477905,0.41991695761680603,2.3969902992248535,4.9598300633724115,6.314177880994976e-05,0.3129881024360657,-1.59674579301943,0.0,-0.02362827956676483,0.8256497383117676,0.0,0.016351286321878433,0.7746113538742065,0.0,0.08435209840536118
942.0,865.0,1.7683,-0.0724,9.1053,-0.0382,0.1895,-0.129,-1.782623907128805,-0.29165467619895935,2.503190517425537,-1.8945800065994263,0.4176327586174011,2.435938596725464,4.959821823030271,7.939679926494136e-05,0.3074193000793457,-1.5966900030719202,0.0,-0.027779143303632736,0.8256220817565918,0.0,0.012386010959744453,0.7746676802635193,0.0,0.034661803394556046
942.0,865.0,1.7683,-0.0724,9.1053,-0.0382,0.1895,-0.129,-1.7850071392455042,-0.301106333732605,2.5139589309692383,-1.8913830518722534,0.4183197021484375,2.410266160964966,4.9598498223121545,9.860437421593815e-05,0.30062970519065857,-1.5967219511615198,0.0,-0.04080086946487427,0.8255701065063477,0.0,0.010935577563941479,0.7746837735176086,0.0,0.034003764390945435
942.0,865.0,1.7683,-0.0724,9.1053,-0.0382,0.1895,-0.129,-1.7880522213377894,-0.29467126727104187,2.613607883453369,-1.8872355222702026,0.4062994420528412,2.4040565490722656,4.959809976607122,6.505376222776249e-05,0.3198206424713135,-1.5966938177691858,0.0,-0.024408895522356033,0.825597882270813,0.0,0.028714165091514587,0.7746396064758301,0.0,0.026765361428260803
942.0,865.0,1.7683,-0.0724,9.1053,-0.0382,0.1895,-0.129,-1.7903672657408656,-0.3002135157585144,2.504938840866089,-1.8839794397354126,0.40791502594947815,2.4440298080444336,4.959845739393987,5.9329573559807613e-05,0.30485931038856506,-1.5967333952533167,0.0,-0.038355909287929535,0.8256497383117676,0.0,0.022919198498129845,0.7746314406394958,6.977743760216981e-05,0.02184184268116951
929.0,914.0,1.9304,-0.0502,8.2816,-0.0339,0.1174,-0.1268,-1.792734762231344,-0.30037954449653625,2.5784568786621094,-1.8808329105377197,0.40264061093330383,2.4086132049560547,4.959821823030271,5.4536005336558446e-05,0.3038268983364105,-1.5967620054828089,0.0,-0.04195050150156021,0.8256098031997681,0.0,0.028960786759853363,0.7746272683143616,0.00023966787557583302,0.04453561455011368
929.0,914.0,1.9304,-0.0502,8.2816,-0.0339,0.1174,-0.1268,-1.7951060734190882,-0.2955764830112457,2.535113573074341,-1.8776779174804688,0.394794762134552,2.395136833190918,4.959782051831045,5.045908619649708e-05,0.3044135570526123,-1.596705738698141,0.0,-0.029673632234334946,0.8256140947341919,0.0,0.018454598262906075,0.7746917605400085,0.00020805600797757506,0.047525521367788315
929.0,914.0,1.9304,-0.0502,8.2816,-0.0339,0.1174,-0.1268,-1.7974292240538539,-0.2927919030189514,2.59407377243042,-1.874462604522705,0.3869531750679016,2.392425060272217,4.95987397709445,4.6949418901931494e-05,0.30875855684280396,-1.5967376867877405,0.0,-0.028037361800670624,0.825626015663147,0.0,0.023090660572052002,0.7746920585632324,0.0002099081757478416,0.11008467525243759
929.0,914.0,1.9304,-0.0502,8.2816,-0.0339,0.1174,-0.1268,-1.8003822765746058,-0.2932983934879303,2.588921070098877,-1.8705830574035645,0.3837403357028961,2.367258310317993,4.959830078273573,4.319399886298925e-05,0.3010125458240509,-1.5967744032489222,0.0,-0.042814671993255615,0.825530469417572,0.0,0.0077667562291026115,0.7746673822402954,0.00031845137709751725,0.08678649365901947
929.0,914.0,1.9304,-0.0502,8.2816,-0.0339,0.1174,-0.1268,-1.8027011356749476,-0.2898339033126831,2.645083427429199,-1.867491602897644,0.3737770915031433,2.366445541381836,4.959818142443456,3.8895545003470033e-05,0.3046410083770752,-1.596733872090475,0.0,-0.06177425757050514,0.8255939483642578,0.0,0.01723822019994259,0.7746553421020508,0.00025772335357032716,0.1547923982143402
929.0,914.0,1.9304,-0.0502,8.2816,-0.0339,0.1174,-0.1268,-1.805000444451803,-0.2948133945465088,2.583446741104126,-1.8645579814910889,0.3677006959915161,2.409604072570801,4.959825980454244,5.135371247888543e-05,0.30508172512054443,-1.5967419783221644,0.0,-0.042043112218379974,0.8255542516708374,0.0,0.007531038951128721,0.7746393084526062,0.0002400755911367014,0.11425577104091644
929.0,914.0,1.9304,-0.0502,8.2816,-0.0339,0.1174,-0.1268,-1.8073398075499476,-0.2875266373157501,2.5894575119018555,-1.8615649938583374,0.36804500222206116,2.3899545669555664,4.959797757654943,4.974324838258326e-05,0.30035892128944397,-1.596733872090475,0.0,-0.04703252390027046,0.8256418704986572,0.0,0.017685696482658386,0.7746154069900513,0.00021759275114163756,0.12982065975666046
929.0,914.0,1.9304,-0.0502,8.2816,-0.0339,0.1174,-0.1268,-1.8096796474852503,-0.29013457894325256,2.6212477684020996,-1.858746886253357,0.3665895462036133,2.4169840812683105,4.95980583408431,-5.4277268645819277e-05,0.28785157203674316,-1.596729580556051,0.0,-0.03714325278997421,0.8255384564399719,0.0,0.03406589850783348,0.7746516466140747,0.00019117964257020503,0.10557565093040466
929.0,914.0,1.9304,-0.0502,8.2816,-0.0339,0.1174,-0.1268,-1.812699934045309,-0.2936543822288513,2.6345205307006836,-1.855115294456482,0.357779860496521,2.340312957763672,4.959853800922193,-5.7350160176383724e-08,0.2969248294830322,-1.59674579301943,0.0,-0.0349082350730896,0.8255820870399475,0.0,0.010430308058857918,0.7746676206588745,0.0001659934059716761,0.10757128894329071
929.0,914.0,1.9304,-0.0502,8.2816,-0.0339,0.1174,-0.1268,-1.8151351414122523,-0.29994091391563416,2.6250627040863037,-1.8523091077804565,0.3610925078392029,2.3909122943878174,4.959857928543844,-1.0423107689450095e-12,0.30287227034568787,-1.5967181364642542,0.0,-0.04664576053619385,0.8255661725997925,0.0,0.011669079773128033,0.7746272683143616,0.00015016669931355864,0.10555073618888855
929.0,914.0,1.9304,-0.0502,8.2816,-0.0339,0.1174,-0.1268,-1.8176151714720667,-0.30583930015563965,2.6811628341674805,-1.849501609802246,0.3530096709728241,2.3698415756225586,4.9598538158233545,-1.894348489248105e-17,0.2986142337322235,-1.5967257658587855,0.0,-0.04507937654852867,0.825530469417572,0.0,0.030959488824009895,0.7746516466140747,0.0001370954851154238,0.08993363380432129
919.0,884.0,2.0758,0.0556,9.3069,-0.0342,0.0684,-0.1295,-1.8200580082335414,-0.30053776502609253,2.6423184871673584,-1.846613883972168,0.34531736373901367,2.311622142791748,4.959866079479017,-3.4428848447783896e-22,0.2876555323600769,-1.5966976324664515,0.0,-0.053599320352077484,0.8256220817565918,0.0,0.008279765024781227,0.7746354937553406,0.00012611772399395704,0.0375792533159256
919.0,884.0,2.0758,0.0556,9.3069,-0.0342,0.0684,-0.1295,-1.8224898777403773,-0.30980461835861206,2.654967784881592,-1.843867540359497,0.33831170201301575,2.3435120582580566,4.9598058489854715,-6.25727397434822e-27,0.29547739028930664,-1.5967381636248987,0.0,-0.038074687123298645,0.8255819082260132,0.0,0.01890583522617817,0.7746434807777405,0.00011676769645418972,0.0629974901676178
919.0,884.0,2.0758,0.0556,9.3069,-0.0342,0.0684,-0.1295,-1.824865003625387,-0.30434751510620117,2.697531223297119,-1.841172218322754,0.33206087350845337,2.358017683029175,4.959785926132955,-1.1372286007694047e-31,0.29969340562820435,-1.5967100302325647,0.0,-0.05070437490940094,0.8256017565727234,-1.9428596509385443e-09,-0.011295337229967117,0.7746557593345642,0.00010870820551645011,0.11242459714412689
919.0,884.0,2.0758,0.0556,9.3069,-0.0342,0.0684,-0.1295,-1.8278418980040492,-0.2977667450904846,2.71165132522583,-1.837846279144287,0.3258029520511627,2.2886204719543457,4.959882142930784,-1.3495100604074405e-37,0.31312739849090576,-1.5967419783221644,0.0,-0.04455433040857315,0.8255859613418579,-2.305524156054903e-15,0.009265615604817867,0.7746516466140747,3.6203804484102875e-05,0.015002025291323662
919.0,884.0,2.0758,0.0556,9.3069,-0.0342,0.0684,-0.1295,-1.8301927051939906,-0.29354092478752136,2.7260026931762695,-1.835251808166504,0.32160940766334534,2.3128137588500977,4.959830093174734,-2.45227231256843e-42,0.30984073877334595,-1.5967095533954065,0.0,-0.030058622360229492,0.8255661725997925,-4.190176450706274e-20,0.005491696298122406,0.7746516466140747,1.675401654210873e-05,0.058693334460258484
919.0,884.0,2.0758,0.0556,9.3069,-0.0342,0.0684,-0.1295,-1.8324719868102015,-0.2911413908004761,2.742475986480713,-1.832715630531311,0.31915026903152466,2.356062650680542,4.9598658112581155,-0.0,0.3022219240665436,-1.5966818968402308,0.0,-0.032217297703027725,0.8256098628044128,-7.615438846683726e-25,0.0020469450391829014,0.7746557593345642,1.5592944691888988e-05,0.08424630761146545
919.0,884.0,2.0758,0.0556,9.3069,-0.0342,0.0684,-0.1295,-1.8347393474974574,-0.2882670760154724,2.7526156902313232,-1.830175518989563,0.3138473331928253,2.3207790851593018,4.959861698537626,-0.0,0.32505884766578674,-1.59674579301943,0.0,-0.03168901428580284,0.8256057500839233,-1.3840683508276718e-29,-0.0021916539408266544,0.7746557593345642,2.3225297240969667e-08,0.030852381139993668
919.0,884.0,2.0758,0.0556,9.3069,-0.0342,0.0684,-0.1295,-1.837050577203268,-0.289030522108078,2.7557311058044434,-1.827673077583313,0.31453362107276917,2.3720767498016357,4.959881695895948,0.00028283725259825587,0.3124313950538635,-1.5967300573932093,0.0,-0.034374020993709564,0.8255900740623474,-2.5154754884018935e-34,0.014245477505028248,0.774671733379364,7.524702419623895e-16,0.03250502422451973
919.0,884.0,2.0758,0.0556,9.3069,-0.0342,0.0684,-0.1295,-1.8399049244322718,-0.27975091338157654,2.783766746520996,-1.8245387077331543,0.31134065985679626,2.287179708480835,4.959857526212492,0.0009739891975186765,0.31686103343963623,-1.596705738698141,0.0,-0.04903879016637802,0.8255542516708374,-2.985031975720082e-40,0.00202118419110775,0.7746272683143616,3.2707642383899124e-25,0.020108437165617943
919.0,884.0,2.0758,0.0556,9.3069,-0.0342,0.0684,-0.1295,-1.8421665630736292,-0.28868672251701355,2.758316993713379,-1.8220676183700562,0.3180927634239197,2.3446943759918213,4.959893646627226,0.0014852687017992139,0.32382792234420776,-1.5967095533954065,0.0,-0.028409849852323532,0.8255383968353271,-5.605193857299268e-45,-0.0020277793519198895,0.7746639847755432,1.0596859698104204e-32,0.02958390861749649
919.0,884.0,2.0758,0.0556,9.3069,-0.0342,0.0684,-0.1295,-1.844557901422018,-0.2773410975933075,2.81170916557312,-1.8195713758468628,0.317009299993515,2.335197687149048,4.959889116674223,0.0027526021003723145,0.3229184150695801,-1.5967095533954065,0.0,-0.02550031989812851,0.8255424499511719,-0.0,0.001563939731568098,0.7746113538742065,3.433251302519018e-40,0.004208455793559551
925.0,872.0,1.9819,0.0712,9.1394,-0.0286,0.073,-0.1301,-1.846856256524557,-0.2862510681152344,2.8612897396087646,-1.8169724941253662,0.3230212330818176,2.268928050994873,4.959969851165571,0.00388807593844831,0.3179517388343811,-1.5967300573932093,0.0,-0.032626163214445114,0.8255383968353271,-0.0,0.017141852527856827,0.7746031880378723,0.0,0.04248533397912979
925.0,872.0,1.9819,0.0712,9.1394,-0.0286,0.073,-0.1301,-1.849227090875143,-0.2872588634490967,2.862333297729492,-1.8143967390060425,0.312216192483902,2.3062896728515625,4.959961640625753,0.0013996876077726483,0.30776089429855347,-1.596717659627096,0.0,-0.04284176975488663,0.8256787061691284,-0.0,-0.005756614729762077,0.7746557593345642,0.0,0.00462159002199769
925.0,872.0,1.9819,0.0712,9.1394,-0.0286,0.073,-0.1301,-1.851452966729635,-0.28154227137565613,2.8631134033203125,-1.8118818998336792,0.3178817331790924,2.260324716567993,4.959969746857443,0.001101478235796094,0.3112759590148926,-1.5966818968402308,0.0,-0.019255951046943665,0.8256503939628601,-0.0,0.005384694319218397,0.7746635675430298,0.0,0.008887185715138912
925.0,872.0,1.9819,0.0712,9.1394,-0.0286,0.073,-0.1301,-1.854295393029684,-0.2820315659046173,2.8565568923950195,-1.8086942434310913,0.3095035254955292,2.313662528991699,4.9599816528852365,0.0012803137069568038,0.32008904218673706,-1.5966900030719202,0.0,-0.026050318032503128,0.8256102800369263,-0.0,0.002824891824275255,0.7746516466140747,0.0,0.004521598108112812
925.0,872.0,1.9819,0.0712,9.1394,-0.0286,0.073,-0.1301,-1.85644592861318,-0.271755188703537,2.8470356464385986,-1.8062267303466797,0.30847904086112976,2.3339128494262695,4.959977599769392,0.0007960502989590168,0.3191480040550232,-1.5967095533954065,0.0,-0.02985532581806183,0.8256545662879944,-0.0,0.002679689321666956,0.7746272683143616,0.0,0.007224781904369593
925.0,872.0,1.9819,0.0712,9.1394,-0.0286,0.073,-0.1301,-1.8586732349791468,-0.2671854496002197,2.919738292694092,-1.8037768602371216,0.3089575469493866,2.332853317260742,4.960009637265959,0.0011919854441657662,0.3169137239456177,-1.5967300573932093,0.0,-0.026218144223093987,0.8255942463874817,-2.8835525881731883e-05,0.005494323093444109,0.774695873260498,0.0,-0.021091589704155922
925.0,872.0,1.9819,0.0712,9.1394,-0.0286,0.073,-0.1301,-1.860699316064352,-0.25991296768188477,2.9292898178100586,-1.801368236541748,0.3088528513908386,2.3760056495666504,4.960089820414343,0.0009442085865885019,0.3207264840602875,-1.5967419783221644,0.0,-0.031807634979486465,0.8255258798599243,-2.7230042178416625e-05,0.011077167466282845,0.7747161388397217,0.0,0.0730937197804451
925.0,872.0,1.9819,0.0712,9.1394,-0.0286,0.073,-0.1301,-1.8627215824522914,-0.2578205168247223,2.9333934783935547,-1.798940658569336,0.30203238129615784,2.34716534614563,4.960001367121496,0.0005920241819694638,0.32056698203086853,-1.5967095533954065,0.0,-0.030637383460998535,0.8255980014801025,-2.5676301447674632e-05,-0.0022760452702641487,0.7746314406394958,0.0,-0.01937098242342472
925.0,872.0,1.9819,0.0712,9.1394,-0.0286,0.073,-0.1301,-1.8652965031065882,-0.2526540160179138,2.9203896522521973,-1.7959023714065552,0.303790807723999,2.3064870834350586,4.960033643036642,0.00040266706491820514,0.31100785732269287,-1.596705738698141,0.0,-0.04224810749292374,0.8256062269210815,-2.39668988797348e-05,0.004561636131256819,0.7746594548225403,3.6519144487101585e-05,0.06100330501794815
925.0,872.0,1.9819,0.0712,9.1394,-0.0286,0.073,-0.1301,-1.8672105274596156,-0.25849926471710205,2.878464460372925,-1.7935322523117065,0.30105772614479065,2.326463222503662,4.959985407977857,0.00032065354753285646,0.3225782513618469,-1.5966618696795862,0.0,-0.04609787091612816,0.8255583047866821,-2.2754971723770723e-05,-0.0013691508211195469,0.7746516466140747,5.066867379355244e-05,0.09742437303066254
925.0,872.0,1.9819,0.0712,9.1394,-0.0286,0.073,-0.1301,-1.869293829003805,-0.24789883196353912,2.9898953437805176,-1.7910947799682617,0.30599042773246765,2.320330858230591,4.960001382022657,0.00026640252326615155,0.3123474717140198,-1.5967419783221644,0.0,-0.04851837456226349,0.8256664276123047,-2.1659723643097095e-05,0.020572712644934654,0.7746635675430298,4.7130874008871615e-05,0.08532603085041046
916.0,868.0,1.6289,0.0263,8.8511,-0.0338,0.0702,-0.1237,-1.8713046512999476,-0.25056177377700806,2.968099594116211,-1.7886407375335693,0.30680540204048157,2.3312301635742188,4.960045251041212,0.00022785525652579963,0.3166867196559906,-1.5966976324664515,0.0,-0.05328208953142166,0.8255382180213928,-2.0665065676439553e-05,-0.0016198107041418552,0.7746553421020508,5.871639950782992e-05,0.08855976164340973
916.0,868.0,1.6289,0.0263,8.8511,-0.0338,0.0702,-0.1237,-1.8733593426146449,-0.2588845491409302,2.9149770736694336,-1.7860952615737915,0.3150031566619873,2.32023286819458,4.959993350296774,0.00019905435328837484,0.3105603754520416,-1.5967419783221644,0.0,-0.04586167261004448,0.8256140351295471,-5.076451998320408e-06,0.003095905063673854,0.7746999859809875,0.00024295282491948456,0.09449164569377899
916.0,868.0,1.6289,0.0263,8.8511,-0.0338,0.0702,-0.1237,-1.8759938679137171,-0.25318577885627747,2.9321072101593018,-1.783047080039978,0.3061818778514862,2.2791032791137695,4.960021796613493,0.00017189595382660627,0.2971813380718231,-1.5966976324664515,0.0,-0.05544956773519516,0.8256262540817261,-6.024049314934388e-12,0.02179638110101223,0.7746917605400085,0.00022972814622335136,0.14990292489528656
916.0,868.0,1.6289,0.0263,8.8511,-0.0338,0.0702,-0.1237,-1.8781172237791957,-0.2661660313606262,2.9369282722473145,-1.780521035194397,0.31091544032096863,2.330495595932007,4.960017683893003,0.00015498044376727194,0.30498212575912476,-1.5967300573932093,0.0,-0.05724916607141495,0.8256020545959473,-1.0948411710008145e-16,0.011639170348644257,0.774687647819519,0.0005130566423758864,0.1653072088956833
916.0,868.0,1.6289,0.0263,8.8511,-0.0338,0.0702,-0.1237,-1.8802505932249964,-0.2648890018463135,2.9256932735443115,-1.7780439853668213,0.30611804127693176,2.2896475791931152,4.960053491383352,0.00014109599578659981,0.3031068742275238,-1.596733872090475,0.0,-0.04102431982755661,0.8255660533905029,-1.989819718103604e-21,0.012454650364816189,0.7746714949607849,0.0010520208161324263,0.14369823038578033
