ramyac6/ROB537/final_project/csv/good/good_139.csv
tof_0,tof_1,accelx,accely,accelz,gyrox,gyroy,gyroz,shoulder_lift_joint_position,shoulder_lift_joint_velocity,shoulder_lift_joint_effort,elbow_joint_position,elbow_joint_velocity,elbow_joint_effort,wrist_1_joint_position,wrist_1_joint_velocity,wrist_1_joint_effort,wrist_2_joint_position,wrist_2_joint_velocity,wrist_2_joint_effort,wrist_3_joint_position,wrist_3_joint_velocity,wrist_3_joint_effort,shoulder_pan_joint_position,shoulder_pan_joint_velocity,shoulder_pan_joint_effort
899.0,762.0,4.0415,-0.3069,8.528,-0.0289,0.0243,-0.1237,-1.6173893413939417,0.0,2.3843772411346436,-1.7042689323425293,-0.0,2.1440794467926025,4.384747667903564,0.0,0.30100101232528687,-1.5830023924456995,0.0,-0.0084606958553195,0.8638813495635986,-0.0,0.0004936899058520794,0.7977775931358337,0.0,-0.041528746485710144
899.0,762.0,4.0415,-0.3069,8.528,-0.0289,0.0243,-0.1237,-1.6173931560912074,0.0,2.334136962890625,-1.7042402029037476,-0.0,2.1890203952789307,4.384747667903564,0.0,0.29919978976249695,-1.5829861799823206,0.0,-0.010917846113443375,0.8639405965805054,-0.0,-0.0010754106333479285,0.7977812886238098,0.0,-0.03208613768219948
899.0,762.0,4.0415,-0.3069,8.528,-0.0289,0.0243,-0.1237,-1.6173693142332972,0.0,2.381136894226074,-1.7042566537857056,-0.0,2.1397922039031982,4.384739561671875,0.0,0.3001885712146759,-1.5829981009112757,0.0,-0.0033977285493165255,0.8639092445373535,-0.0,-0.013876614160835743,0.797805666923523,0.0,-0.013477860949933529
899.0,762.0,4.0415,-0.3069,8.528,-0.0289,0.0243,-0.1237,-1.6173488102354945,0.0,2.3926854133605957,-1.7042768001556396,-0.0,2.1864964962005615,4.384751959437988,0.0,0.29243922233581543,-1.5830143133746546,0.0,0.0034496376756578684,0.863909125328064,-0.0,9.489769581705332e-05,0.797813892364502,0.0,-0.009819231927394867
899.0,762.0,4.0415,-0.3069,8.528,-0.0289,0.0243,-0.1237,-1.6173612080016078,0.0,2.3412253856658936,-1.7043050527572632,-0.0,2.1481144428253174,4.3847314554401855,0.0,0.28690069913864136,-1.5829981009112757,0.0,-0.004622119944542646,0.8638849854469299,-0.0,0.0020111792255192995,0.7977895140647888,0.0,-0.006307078525424004
899.0,762.0,4.0415,-0.3069,8.528,-0.0289,0.0243,-0.1237,-1.6174169979491175,0.0,2.398594856262207,-1.7042567729949951,-0.0,2.162470817565918,4.384707136745117,0.0,0.2935647964477539,-1.5830023924456995,0.0,-0.006057658698409796,0.863913357257843,-0.0,-0.003104782197624445,0.7977571487426758,0.0,-0.032227709889411926
879.0,796.0,4.1264,-0.2913,8.3515,-0.0363,0.0273,-0.1162,-1.6173693142332972,0.0,2.381659507751465,-1.704345464706421,-0.0,2.178706169128418,4.384707136745117,0.0,0.2991006076335907,-1.5829904715167444,0.0,-0.009030688554048538,0.8639606237411499,-0.0,-0.011202571913599968,0.7977854013442993,0.0,-0.044791754335165024
879.0,796.0,4.1264,-0.2913,8.3515,-0.0363,0.0273,-0.1162,-1.6174012623228968,0.0,2.3930206298828125,-1.7042608261108398,-0.0,2.1215529441833496,4.384747667903564,0.0,0.2978096902370453,-1.5829656759845179,0.0,-0.02031528949737549,0.863913357257843,-0.0,0.003632650012150407,0.7977936267852783,0.0,0.0035005018580704927
879.0,796.0,4.1264,-0.2913,8.3515,-0.0363,0.0273,-0.1162,-1.6173731289305628,0.0,2.3361034393310547,-1.7043168544769287,-0.0,2.1868972778320312,4.384707136745117,0.0,0.2881006896495819,-1.5829938093768519,0.0,-0.011477174237370491,0.8639016151428223,-0.0,-0.00630096485838294,0.797825813293457,0.0,-0.008771359920501709
879.0,796.0,4.1264,-0.2913,8.3515,-0.0363,0.0273,-0.1162,-1.6173893413939417,0.0,2.419325351715088,-1.7042808532714844,-0.0,2.179022789001465,4.384747667903564,0.0,0.2931451201438904,-1.5830143133746546,0.0,-0.0076730079017579556,0.8639051914215088,-0.0,-0.007206144277006388,0.7977977395057678,0.0,0.0023168965708464384
879.0,796.0,4.1264,-0.2913,8.3515,-0.0363,0.0273,-0.1162,-1.617413183251852,0.0,2.3314809799194336,-1.704296350479126,-0.0,2.1734845638275146,4.384727163905762,0.0,0.3044520318508148,-1.5829818884478968,0.0,-0.01741318590939045,0.8639092445373535,-0.0,-0.004472394473850727,0.7977775931358337,0.0,0.0005382075905799866
879.0,796.0,4.1264,-0.2913,8.3515,-0.0363,0.0273,-0.1162,-1.6174327335753382,0.0,2.3319013118743896,-1.7042731046676636,-0.0,2.1641430854797363,4.384719057674072,0.0,0.2877533435821533,-1.5829938093768519,0.0,-0.013126017525792122,0.8639131784439087,-0.0,0.00033886823803186417,0.7978097796440125,0.0,-0.002833048114553094
879.0,796.0,4.1264,-0.2913,8.3515,-0.0363,0.0273,-0.1162,-1.6174050770201625,0.0,2.3602278232574463,-1.7042608261108398,-0.0,2.173952579498291,4.384743853206299,0.0,0.30690914392471313,-1.5830023924456995,0.0,0.0006867542397230864,0.8639484643936157,-0.0,-0.0026764757931232452,0.7978015542030334,0.0,-0.01939210295677185
879.0,796.0,4.1264,-0.2913,8.3515,-0.0363,0.0273,-0.1162,-1.6173812351622523,0.0,2.379899501800537,-1.7042567729949951,-0.0,2.1402745246887207,4.384755774135254,0.0,0.28228476643562317,-1.5830181280719202,0.0,-0.004251950420439243,0.8639171123504639,-0.0,-0.007808717433363199,0.797825813293457,0.0,-0.0076033021323382854
879.0,796.0,4.1264,-0.2913,8.3515,-0.0363,0.0273,-0.1162,-1.6173693142332972,0.0,2.310708999633789,-1.704337239265442,-0.0,2.172722578048706,4.384722872371338,0.0,0.2932165563106537,-1.5829904715167444,0.0,-0.013774676248431206,0.8639405965805054,-0.0,-0.004113893024623394,0.7977734804153442,0.0,-0.02678951621055603
879.0,796.0,4.1264,-0.2913,8.3515,-0.0363,0.0273,-0.1162,-1.6174012623228968,0.0,2.3795037269592285,-1.7043253183364868,-0.0,2.1339850425720215,4.384747667903564,0.0,0.3005274832248688,-1.5829737822162073,0.0,-0.007115671876817942,0.8639211654663086,-0.0,-0.011700000613927841,0.797805666923523,0.0,0.006226722151041031
879.0,796.0,4.1264,-0.2913,8.3515,-0.0363,0.0273,-0.1162,-1.617425104180807,0.0,2.386524200439453,-1.7043253183364868,-0.0,2.1679272651672363,4.384755297298096,0.0,0.2951732575893402,-1.5830262343036097,0.0,-0.0001710325013846159,0.8638851642608643,-0.0,-0.00044094823533669114,0.7977854013442993,0.0,-0.013239342719316483
878.0,779.0,4.1474,-0.2847,8.3569,-0.0273,0.0195,-0.1139,-1.6173931560912074,0.0,2.3939015865325928,-1.7043254375457764,-0.0,2.1549062728881836,4.384687109584473,0.0,0.29641878604888916,-1.58299428621401,0.0,-0.01005109678953886,0.8638690710067749,-0.0,-0.004961718339473009,0.7978098392486572,0.0,-0.00043019093573093414
878.0,779.0,4.1474,-0.2847,8.3569,-0.0273,0.0195,-0.1139,-1.6173931560912074,0.0,2.372541904449463,-1.7042808532714844,-0.0,2.1715073585510254,4.384670897121094,0.0,0.28798842430114746,-1.5829818884478968,0.0,-0.018126733601093292,0.8639405965805054,-0.0,-0.0013926905812695622,0.7977854013442993,0.0,-0.0004418478347361088
878.0,779.0,4.1474,-0.2847,8.3569,-0.0273,0.0195,-0.1139,-1.6173893413939417,0.0,2.3803374767303467,-1.7043046951293945,-0.0,2.1837985515594482,4.384702845210693,0.0,0.3015413284301758,-1.5830181280719202,0.0,-0.01148207113146782,0.8639011383056641,-0.0,-0.002172458916902542,0.7978015542030334,0.0,-0.02885446883738041
878.0,779.0,4.1474,-0.2847,8.3569,-0.0273,0.0195,-0.1139,-1.617413183251852,0.0,2.3928027153015137,-1.7043168544769287,-0.0,2.161364793777466,4.3846751886555175,0.0,0.29613804817199707,-1.58299428621401,0.0,-0.005645607598125935,0.8638525009155273,-0.0,-0.015917126089334488,0.7978097796440125,0.0,0.005754220299422741
878.0,779.0,4.1474,-0.2847,8.3569,-0.0273,0.0195,-0.1139,-1.6173931560912074,0.0,2.3692286014556885,-1.7043335437774658,-0.0,2.1555421352386475,4.384722872371338,0.0,0.2985216975212097,-1.5829861799823206,0.0,0.005766254849731922,0.8638772964477539,-0.0,-0.01133923139423132,0.797797679901123,0.0,0.009878447279334068
878.0,779.0,4.1474,-0.2847,8.3569,-0.0273,0.0195,-0.1139,-1.6174208126463832,0.0,2.3336071968078613,-1.7042768001556396,-0.0,2.1468100547790527,4.384695215816162,0.0,0.2869568467140198,-1.5829780737506312,0.0,-0.01322975754737854,0.8638405203819275,-0.0,-0.00959901325404644,0.7978019118309021,0.0,0.001378773245960474
878.0,779.0,4.1474,-0.2847,8.3569,-0.0273,0.0195,-0.1139,-1.6173812351622523,0.0,2.378431558609009,-1.704272747039795,-0.0,2.1694674491882324,4.384715242976807,0.0,0.3019925355911255,-1.5830181280719202,0.0,-0.009267604909837246,0.8639092445373535,-0.0,-0.004660458769649267,0.7977653741836548,0.0,0.052708014845848083
878.0,779.0,4.1474,-0.2847,8.3569,-0.0273,0.0195,-0.1139,-1.6173573933043421,0.0,2.3840699195861816,-1.704312801361084,-0.0,2.148240089416504,4.384715242976807,0.0,0.28548750281333923,-1.5830343405352991,0.0,-0.009257614612579346,0.8638813495635986,-0.0,-0.013166449964046478,0.7977613210678101,0.0,-0.0033358712680637836
878.0,779.0,4.1474,-0.2847,8.3569,-0.0273,0.0195,-0.1139,-1.6173774204649867,0.0,2.3119263648986816,-1.7042968273162842,-0.0,2.180481433868408,4.384743853206299,0.0,0.3064698874950409,-1.5829818884478968,0.0,0.0014263892080634832,0.8638973236083984,-0.0,-0.0012164131039753556,0.7978262305259705,0.0,-0.049357060343027115
878.0,779.0,4.1474,-0.2847,8.3569,-0.0273,0.0195,-0.1139,-1.6173693142332972,0.0,2.416581630706787,-1.704312801361084,-0.0,2.1344308853149414,4.384739561671875,0.0,0.3011768162250519,-1.5830023924456995,0.0,-0.017529893666505814,0.8639132976531982,-0.0,0.0018564981874078512,0.7977936267852783,0.0,-0.004122926387935877
878.0,779.0,4.1474,-0.2847,8.3569,-0.0273,0.0195,-0.1139,-1.6174050770201625,0.0,2.4303627014160156,-1.7042808532714844,-0.0,2.1856744289398193,4.384763403529785,0.0,0.2956053614616394,-1.5829780737506312,0.0,-0.004587977193295956,0.8639011383056641,-0.0,0.00888494960963726,0.7978221774101257,0.0,0.011655306443572044
877.0,796.0,4.0857,-0.3141,8.3898,-0.0344,0.0292,-0.1135,-1.6173893413939417,0.0,2.304731845855713,-1.7042689323425293,-0.0,2.16190242767334,4.384722872371338,0.0,0.3002581000328064,-1.5829780737506312,0.0,-0.0021697860211133957,0.8639052510261536,-0.0,-0.010670468211174011,0.7978019118309021,0.0,0.0007662605494260788
877.0,796.0,4.0857,-0.3141,8.3898,-0.0344,0.0292,-0.1135,-1.6173693142332972,0.0,2.3815324306488037,-1.7043005228042603,-0.0,2.205780029296875,4.384775801295898,0.0,0.30628716945648193,-1.583050552998678,0.0,-0.021535668522119522,0.8638812303543091,-0.0,-0.007181468885391951,0.797817587852478,0.0,0.029627081006765366
877.0,796.0,4.0857,-0.3141,8.3898,-0.0344,0.0292,-0.1135,-1.617408891717428,0.0,2.3909878730773926,-1.7043087482452393,-0.0,2.131405830383301,4.384702845210693,0.0,0.29787158966064453,-1.5829737822162073,0.0,-0.008413145318627357,0.8639211654663086,-0.0,0.00176161655690521,0.797773540019989,0.0,0.01781586930155754
877.0,796.0,4.0857,-0.3141,8.3898,-0.0344,0.0292,-0.1135,-1.617425104180807,0.0,2.4127357006073,-1.704268455505371,-0.0,2.182657480239868,4.3847314554401855,0.0,0.3021813631057739,-1.5829938093768519,0.0,0.0033407940063625574,0.8639447093009949,-0.0,-0.014899885281920433,0.797773540019989,0.0,-0.019143298268318176
877.0,796.0,4.0857,-0.3141,8.3898,-0.0344,0.0292,-0.1135,-1.617425104180807,0.0,2.3761963844299316,-1.704329490661621,-0.0,2.140193462371826,4.384739561671875,0.0,0.28259867429733276,-1.5830100218402308,0.0,-0.015306001529097557,0.863948404788971,-0.0,-0.00558673869818449,0.7978015542030334,0.0,0.016708966344594955
877.0,796.0,4.0857,-0.3141,8.3898,-0.0344,0.0292,-0.1135,-1.617385049859518,0.0,2.3741161823272705,-1.7043005228042603,-0.0,2.167440891265869,4.384771509761475,0.0,0.2905677855014801,-1.5830181280719202,0.0,-0.014492504298686981,0.8638851642608643,-0.0,-0.011949919164180756,0.7978217005729675,0.0,0.04950233921408653
877.0,796.0,4.0857,-0.3141,8.3898,-0.0344,0.0292,-0.1135,-1.617385049859518,0.0,2.350627899169922,-1.7042768001556396,-0.0,2.1759231090545654,4.384747667903564,0.0,0.30039292573928833,-1.5829861799823206,0.0,-0.007062228862196207,0.8639011383056641,-0.0,-0.006617027334868908,0.7977451682090759,0.0,-0.02553408220410347
877.0,796.0,4.0857,-0.3141,8.3898,-0.0344,0.0292,-0.1135,-1.6173931560912074,0.0,2.359043598175049,-1.704284906387329,-0.0,2.159893035888672,4.384743853206299,0.0,0.2996445894241333,-1.5830100218402308,0.0,-0.008667105808854103,0.8639092445373535,-0.0,0.003743454348295927,0.7978298664093018,0.0,0.018755603581666946
877.0,796.0,4.0857,-0.3141,8.3898,-0.0344,0.0292,-0.1135,-1.617396970788473,0.0,2.3381130695343018,-1.7042442560195923,-0.0,2.174384593963623,4.384687109584473,0.0,0.3022690713405609,-1.5829861799823206,0.0,-0.005033967085182667,0.8638972640037537,-0.0,0.005305984988808632,0.797825813293457,0.0,0.0014051292091608047
877.0,796.0,4.0857,-0.3141,8.3898,-0.0344,0.0292,-0.1135,-1.617396970788473,0.0,2.360304832458496,-1.704321265220642,-0.0,2.164212703704834,4.384767695064209,0.0,0.2926117777824402,-1.5829818884478968,0.0,-0.0037556830793619156,0.8639132976531982,-0.0,-0.0022117102053016424,0.7977817058563232,0.0,0.019771549850702286
877.0,796.0,4.0857,-0.3141,8.3898,-0.0344,0.0292,-0.1135,-1.6174012623228968,0.0,2.4043657779693604,-1.704248309135437,-0.0,2.1966347694396973,4.3846751886555175,0.0,0.2904324233531952,-1.5830023924456995,0.0,-0.003154776291921735,0.8639324307441711,-0.0,-0.014531944878399372,0.7977936267852783,0.0,-0.004622746258974075
903.0,808.0,4.1372,-0.2806,8.3462,-0.0382,0.022,-0.1188,-1.6174050770201625,0.0,2.376220703125,-1.704268455505371,-0.0,2.1107869148254395,4.384722872371338,0.0,0.29933589696884155,-1.5830023924456995,0.0,0.0009378618560731411,0.8639092445373535,-0.0,0.0008911727927625179,0.7977168560028076,0.0,-0.003807533998042345
903.0,808.0,4.1372,-0.2806,8.3462,-0.0382,0.022,-0.1188,-1.6174012623228968,0.0,2.4111549854278564,-1.7043572664260864,-0.0,2.193844795227051,4.384727163905762,0.0,0.30568981170654297,-1.5830181280719202,0.0,-0.0035066050477325916,0.8639643788337708,-0.0,0.002875469857826829,0.7977977395057678,0.0,0.013447459787130356
903.0,808.0,4.1372,-0.2806,8.3462,-0.0382,0.022,-0.1188,-1.617425104180807,0.0,2.4092283248901367,-1.7042644023895264,-0.0,2.212327718734741,4.3847314554401855,0.0,0.30454811453819275,-1.5829694906817835,0.0,-0.013643110170960426,0.8639051914215088,-0.0,-0.005020851269364357,0.7977812886238098,0.0,0.024863746017217636
903.0,808.0,4.1372,-0.2806,8.3462,-0.0382,0.022,-0.1188,-1.6174169979491175,0.0,2.3264639377593994,-1.7042689323425293,-0.0,2.185710906982422,4.384715242976807,0.0,0.29627424478530884,-1.582961384450094,0.0,-0.009905846789479256,0.8639524579048157,-0.0,0.003243714803829789,0.7978501915931702,0.0,0.05418231338262558
903.0,808.0,4.1372,-0.2806,8.3462,-0.0382,0.022,-0.1188,-1.6173931560912074,0.0,2.3996658325195312,-1.7042648792266846,-0.0,2.163999557495117,4.384747667903564,0.0,0.29134702682495117,-1.5830100218402308,0.0,0.0024632997810840607,0.8639524579048157,-0.0,-0.01175631582736969,0.7977368831634521,0.0,-0.0009497185237705708
903.0,808.0,4.1372,-0.2806,8.3462,-0.0382,0.022,-0.1188,-1.617413183251852,0.0,2.3882761001586914,-1.704312801361084,-0.0,2.137467384338379,4.384739561671875,0.0,0.2955090403556824,-1.5829861799823206,0.0,-0.008304595947265625,0.8639011383056641,-0.0,-0.007730861660093069,0.7977775931358337,0.0,-0.020599115639925003
903.0,808.0,4.1372,-0.2806,8.3462,-0.0382,0.022,-0.1188,-1.6174327335753382,0.0,2.365151882171631,-1.704272747039795,-0.0,2.2566978931427,4.384755297298096,0.0,0.3041841387748718,-1.5830062071429651,0.0,0.0002979366108775139,0.8639010787010193,-0.0,-0.007032852154225111,0.7977977395057678,0.0,0.010441009886562824
903.0,808.0,4.1372,-0.2806,8.3462,-0.0382,0.022,-0.1188,-1.6173411808409632,0.0,2.427236318588257,-1.704268455505371,-0.0,2.1778101921081543,4.384710951442383,0.0,0.2972099184989929,-1.583022419606344,0.0,-0.0018558618612587452,0.8638812899589539,-0.0,-0.0012044766917824745,0.7977694272994995,0.0,0.011727947741746902
903.0,808.0,4.1372,-0.2806,8.3462,-0.0382,0.022,-0.1188,-1.6173654995360316,0.0,2.4233758449554443,-1.7042771577835083,-0.0,2.2107481956481934,4.384755297298096,0.0,0.3045165240764618,-1.5830300490008753,0.0,-0.013567183166742325,0.8639091849327087,-0.0,0.003465406596660614,0.797753095626831,0.0,-0.01363890990614891
903.0,808.0,4.1372,-0.2806,8.3462,-0.0382,0.022,-0.1188,-1.6174012623228968,0.0,2.352452278137207,-1.7043046951293945,-0.0,2.1570961475372314,4.384747667903564,0.0,0.2937890291213989,-1.5830143133746546,0.0,-0.016777537763118744,0.8638772964477539,-0.0,-0.007296266034245491,0.797825813293457,0.0,0.03915494307875633
903.0,808.0,4.1372,-0.2806,8.3462,-0.0382,0.022,-0.1188,-1.6173812351622523,0.0,2.3719966411590576,-1.7043087482452393,-0.0,2.172401189804077,4.384742899531982,0.0,0.28539007902145386,-1.5830100218402308,0.0,-0.012317518703639507,0.8639171123504639,-0.0,-0.007154722232371569,0.797817587852478,0.0,-0.022655338048934937
883.0,747.0,4.1228,-0.2686,8.3928,-0.0492,0.0261,-0.1142,-1.6173774204649867,0.0,2.3367397785186768,-1.704272747039795,-0.0,2.1668858528137207,4.384739561671875,0.0,0.28976067900657654,-1.5829938093768519,0.0,-0.010175550356507301,0.8639445900917053,-0.0,-0.016124200075864792,0.7977451086044312,0.0,-0.027435027062892914
883.0,747.0,4.1228,-0.2686,8.3928,-0.0492,0.0261,-0.1142,-1.617385049859518,0.0,2.34560489654541,-1.7042731046676636,-0.0,2.1759557723999023,4.384722872371338,0.0,0.2967151403427124,-1.5830262343036097,0.0,-0.0063487207517027855,0.8639171123504639,-0.0,-0.010167025960981846,0.7978019118309021,0.0,0.030589263886213303
883.0,747.0,4.1228,-0.2686,8.3928,-0.0492,0.0261,-0.1142,-1.6173931560912074,0.0,2.4277713298797607,-1.7042927742004395,-0.0,2.1935300827026367,4.384767695064209,0.0,0.28586339950561523,-1.5829904715167444,0.0,-0.011760616675019264,0.8639051914215088,-0.0,-0.002484816126525402,0.7977414727210999,0.0,0.006202169694006443
883.0,747.0,4.1228,-0.2686,8.3928,-0.0492,0.0261,-0.1142,-1.617385049859518,0.0,2.3390326499938965,-1.7042328119277954,-0.0,2.1814193725585938,4.384702845210693,0.0,0.3001919090747833,-1.583010498677389,0.0,3.282632678747177e-05,0.863889217376709,-0.0,-0.011538548395037651,0.7977936267852783,0.0,-0.024362917989492416
883.0,747.0,4.1228,-0.2686,8.3928,-0.0492,0.0261,-0.1142,-1.6173812351622523,0.0,2.3749823570251465,-1.7042927742004395,-0.0,2.159675121307373,4.384727163905762,0.0,0.28560879826545715,-1.5829451719867151,0.0,-0.00984303280711174,0.8638812899589539,-0.0,0.00463631609454751,0.7978097796440125,0.0,-0.001868557184934616
883.0,747.0,4.1228,-0.2686,8.3928,-0.0492,0.0261,-0.1142,-1.6174012623228968,0.0,2.374248504638672,-1.7042402029037476,-0.0,2.2175042629241943,4.384727163905762,0.0,0.30070626735687256,-1.5829737822162073,0.0,-0.009907480329275131,0.863948404788971,-0.0,0.0037844504695385695,0.7977895140647888,0.0,-0.031822603195905685
883.0,747.0,4.1228,-0.2686,8.3928,-0.0492,0.0261,-0.1142,-1.6173254452147425,0.0,2.3525753021240234,-1.7042648792266846,-0.0,2.1580026149749756,4.384695215816162,0.0,0.3026003837585449,-1.5830181280719202,0.0,-0.010068826377391815,0.8639647364616394,-0.0,0.0017087662126868963,0.7977451086044312,0.0,0.012761817313730717
883.0,747.0,4.1228,-0.2686,8.3928,-0.0492,0.0261,-0.1142,-1.617396970788473,0.0,2.389697551727295,-1.704312801361084,-0.0,2.1719350814819336,4.3846751886555175,0.0,0.29748961329460144,-1.5830143133746546,0.0,-0.008813614025712013,0.8639164566993713,-0.0,-0.006317205261439085,0.7977409958839417,0.0,0.012234596535563469
883.0,747.0,4.1228,-0.2686,8.3928,-0.0492,0.0261,-0.1142,-1.6173931560912074,0.0,2.3354578018188477,-1.704256534576416,-0.0,2.224097967147827,4.384715242976807,0.0,0.29608020186424255,-1.5830181280719202,0.0,-0.005115853622555733,0.8638446927070618,-0.0,-0.01866759918630123,0.7977694272994995,0.0,-0.002311555901542306
883.0,747.0,4.1228,-0.2686,8.3928,-0.0492,0.0261,-0.1142,-1.617396970788473,0.0,2.3783352375030518,-1.7042768001556396,-0.0,2.1744210720062256,4.384739561671875,0.0,0.2832987904548645,-1.5829451719867151,0.0,-0.012549515813589096,0.8638932704925537,-0.0,-0.016412904486060143,0.7977977395057678,0.0,0.01428776141256094
883.0,747.0,4.1228,-0.2686,8.3928,-0.0492,0.0261,-0.1142,-1.6173812351622523,0.0,2.3720502853393555,-1.704284429550171,-0.0,2.172231912612915,4.384746714229248,0.0,0.29730916023254395,-1.5829981009112757,0.0,-0.015338250435888767,0.8639524579048157,-0.0,-0.00015882845036685467,0.7977817058563232,0.0,0.0002551032230257988
883.0,747.0,4.1228,-0.2686,8.3928,-0.0492,0.0261,-0.1142,-1.6174012623228968,0.0,2.3816850185394287,-1.7042608261108398,-0.0,2.203106164932251,4.384759111995361,0.0,0.2977082133293152,-1.5829575697528284,0.0,-0.008069194853305817,0.8639211058616638,-0.0,0.005807171575725079,0.7977775931358337,0.0,0.03311848267912865
869.0,836.0,4.0869,-0.2776,8.3312,-0.0334,0.0192,-0.1205,-1.617385049859518,0.0,2.331523895263672,-1.7043132781982422,-0.0,2.157078266143799,4.384759111995361,0.0,0.2974148690700531,-1.5829537550555628,0.0,0.0032293894328176975,0.8639324307441711,-0.0,-0.011414208449423313,0.7977858781814575,0.0,-0.045321911573410034
869.0,836.0,4.0869,-0.2776,8.3312,-0.0334,0.0192,-0.1205,-1.617396970788473,0.0,2.3761744499206543,-1.7042927742004395,-0.0,2.168597936630249,4.384743853206299,0.0,0.29065752029418945,-1.5830062071429651,0.0,0.0019305315800011158,0.8638933300971985,-0.0,-0.002142781624570489,0.7978015542030334,0.0,-0.025317750871181488
869.0,836.0,4.0869,-0.2776,8.3312,-0.0334,0.0192,-0.1205,-1.6173693142332972,0.0,2.3770017623901367,-1.7043087482452393,-0.0,2.2022690773010254,4.384727163905762,0.0,0.29773709177970886,-1.583010498677389,0.0,-0.017207497730851173,0.8638772368431091,-0.0,-0.005304568912833929,0.7977776527404785,0.0,-0.01852726936340332
869.0,836.0,4.0869,-0.2776,8.3312,-0.0334,0.0192,-0.1205,-1.6173612080016078,0.0,2.399129867553711,-1.7042317390441895,-0.0,2.2112362384796143,4.3847314554401855,0.0,0.30348873138427734,-1.5830023924456995,0.0,-0.006972909439355135,0.8638813495635986,-0.0,-0.001310024643316865,0.7977736592292786,0.0,0.0032780494075268507
869.0,836.0,4.0869,-0.2776,8.3312,-0.0334,0.0192,-0.1205,-1.617396970788473,0.0,2.39408540725708,-1.7043254375457764,-0.0,2.188030481338501,4.384722872371338,0.0,0.30355462431907654,-1.5830062071429651,0.0,-0.00545087456703186,0.8638692498207092,-0.0,-0.002493981271982193,0.7977451086044312,0.0,-0.03870443254709244
869.0,836.0,4.0869,-0.2776,8.3312,-0.0334,0.0192,-0.1205,-1.6173774204649867,0.0,2.3431203365325928,-1.7042567729949951,-0.0,2.211287260055542,4.384775801295898,0.0,0.28319627046585083,-1.583050552998678,0.0,-0.012434658594429493,0.8639051914215088,-0.0,-0.005586730781942606,0.797813892364502,0.0,0.033366646617650986
869.0,836.0,4.0869,-0.2776,8.3312,-0.0334,0.0192,-0.1205,-1.6173654995360316,0.0,2.3490424156188965,-1.7042450904846191,-0.0,2.192664861679077,4.384751959437988,0.0,0.2827466130256653,-1.5829899946795862,0.0,-0.013088365085422993,0.8639285564422607,-0.0,-0.0042411936447024345,0.7978221774101257,0.0,-0.023305511102080345
869.0,836.0,4.0869,-0.2776,8.3312,-0.0334,0.0192,-0.1205,-1.6173931560912074,0.0,2.341940402984619,-1.7042968273162842,-0.0,2.1545939445495605,4.384735270137451,0.0,0.30995893478393555,-1.58299428621401,0.0,-0.011282797902822495,0.863873302936554,-0.0,-0.008382697589695454,0.797834038734436,0.0,0.027578558772802353
869.0,836.0,4.0869,-0.2776,8.3312,-0.0334,0.0192,-0.1205,-1.617396970788473,0.0,2.355175495147705,-1.7043050527572632,-0.0,2.1965060234069824,4.384739561671875,0.0,0.2919946014881134,-1.5829780737506312,0.0,-0.005008161533623934,0.8639292120933533,-0.0,0.003968372009694576,0.7977817058563232,0.0,-0.047906506806612015
869.0,836.0,4.0869,-0.2776,8.3312,-0.0334,0.0192,-0.1205,-1.6173812351622523,0.0,2.3765792846679688,-1.704300880432129,-0.0,2.203348159790039,4.3847314554401855,0.0,0.2898479104042053,-1.583022419606344,0.0,-0.013267682865262032,0.8639646768569946,-0.0,0.002984364051371813,0.7978217005729675,0.0,0.0042657312005758286
869.0,836.0,4.0869,-0.2776,8.3312,-0.0334,0.0192,-0.1205,-1.617413183251852,0.0,2.347727060317993,-1.704300880432129,-0.0,2.1514053344726562,4.384767218227051,0.0,0.29088783264160156,-1.5830219427691858,0.0,-0.013892043381929398,0.8639292120933533,-0.0,-0.0024782007094472647,0.7977895140647888,0.0,0.043959859758615494
901.0,751.0,4.0822,-0.2471,8.403,-0.0408,0.0223,-0.1214,-1.617385049859518,0.0,2.3742761611938477,-1.7043335437774658,-0.0,2.1211600303649902,4.384722872371338,0.0,0.2903349697589874,-1.5829737822162073,0.0,-0.006095216143876314,0.863924503326416,-0.0,-0.00415312685072422,0.797805666923523,0.0,-0.03317031264305115
901.0,751.0,4.0822,-0.2471,8.403,-0.0408,0.0223,-0.1214,-1.617413183251852,0.0,2.3950119018554688,-1.7042968273162842,-0.0,2.208807945251465,4.384763403529785,0.0,0.27526724338531494,-1.5829904715167444,0.0,-0.018031928688287735,0.863869309425354,-0.0,-0.00933321937918663,0.7978180646896362,0.0,0.028227992355823517
901.0,751.0,4.0822,-0.2471,8.403,-0.0408,0.0223,-0.1214,-1.6173893413939417,0.0,2.35813307762146,-1.7042968273162842,-0.0,2.159769058227539,4.384719057674072,0.0,0.2945733666419983,-1.5829938093768519,0.0,-0.017221787944436073,0.8639324307441711,-0.0,-4.001753404736519e-05,0.7977812886238098,0.0,-0.004472709260880947
901.0,751.0,4.0822,-0.2471,8.403,-0.0408,0.0223,-0.1214,-1.617396970788473,0.0,2.3433613777160645,-1.704256534576416,-0.0,2.1854894161224365,4.384759111995361,0.0,0.3012723922729492,-1.5829938093768519,0.0,-0.008920700289309025,0.8639444708824158,-0.0,-0.013528140261769295,0.7977734804153442,0.0,-0.00451612938195467
901.0,751.0,4.0822,-0.2471,8.403,-0.0408,0.0223,-0.1214,-1.6174050770201625,0.0,2.4025557041168213,-1.7042927742004395,-0.0,2.184053421020508,4.384739561671875,0.0,0.29237791895866394,-1.5829938093768519,0.0,0.003002931596711278,0.8639604449272156,-0.0,-7.966393604874611e-05,0.7977817058563232,0.0,-0.031591564416885376
901.0,751.0,4.0822,-0.2471,8.403,-0.0408,0.0223,-0.1214,-1.6174050770201625,0.0,2.3980765342712402,-1.7042968273162842,-0.0,2.1739554405212402,4.384715242976807,0.0,0.29576003551483154,-1.5829981009112757,0.0,-0.011465072631835938,0.8639051914215088,-0.0,-0.015219910070300102,0.7977977395057678,0.0,0.0184320118278265
901.0,751.0,4.0822,-0.2471,8.403,-0.0408,0.0223,-0.1214,-1.617385049859518,0.0,2.3522846698760986,-1.704268455505371,-0.0,2.203688859939575,4.3847314554401855,0.0,0.30080336332321167,-1.5830100218402308,0.0,-0.0009154207073152065,0.8639291524887085,-0.0,-0.002792040118947625,0.7978059649467468,0.0,0.017622491344809532
901.0,751.0,4.0822,-0.2471,8.403,-0.0408,0.0223,-0.1214,-1.6174289188780726,0.0,2.3705132007598877,-1.7043087482452393,-0.0,2.118520498275757,4.384747667903564,0.0,0.3029062747955322,-1.5830023924456995,0.0,-0.00995242316275835,0.8638772964477539,-0.0,0.0003759434330277145,0.7977858781814575,0.0,0.027914322912693024
901.0,751.0,4.0822,-0.2471,8.403,-0.0408,0.0223,-0.1214,-1.6173731289305628,0.0,2.3341426849365234,-1.7043536901474,-0.0,2.201131820678711,4.384755297298096,0.0,0.297014057636261,-1.5830023924456995,0.0,-0.00042541982838883996,0.863873302936554,-0.0,-0.001874738372862339,0.797805666923523,0.0,-0.008780212141573429
901.0,751.0,4.0822,-0.2471,8.403,-0.0408,0.0223,-0.1214,-1.6173693142332972,0.0,2.422253131866455,-1.7042968273162842,-0.0,2.1757164001464844,4.384747667903564,0.0,0.29158177971839905,-1.5829656759845179,0.0,-0.019481804221868515,0.863885223865509,-0.0,-0.002333283657208085,0.797813892364502,0.0,-9.105633944272995e-05
901.0,751.0,4.0822,-0.2471,8.403,-0.0408,0.0223,-0.1214,-1.6173449955382289,0.0,2.362940549850464,-1.7042567729949951,-0.0,2.1384687423706055,4.384727163905762,0.0,0.27504074573516846,-1.5830062071429651,0.0,-0.01952442340552807,0.863869309425354,-0.0,-0.011027172207832336,0.7978501915931702,0.0,-0.008799085393548012
904.0,778.0,4.1599,-0.2865,8.3976,-0.0357,0.016,-0.1228,-1.6173931560912074,0.0,2.3492088317871094,-1.704281210899353,-0.0,2.1664071083068848,4.384767695064209,0.0,0.28923943638801575,-1.583005730305807,0.0,-0.018635708838701248,0.863889217376709,-0.0,-0.013800512067973614,0.797805666923523,0.0,-0.015777312219142914
904.0,778.0,4.1599,-0.2865,8.3976,-0.0357,0.016,-0.1228,-1.6173893413939417,0.0,2.375600576400757,-1.7042927742004395,-0.0,2.1422994136810303,4.384739561671875,0.0,0.2876523733139038,-1.582961384450094,0.0,-0.002309913747012615,0.8638932704925537,-0.0,0.002086979802697897,0.7977936267852783,0.0,0.008800036273896694
904.0,778.0,4.1599,-0.2865,8.3976,-0.0357,0.016,-0.1228,-1.617396970788473,0.0,2.357174873352051,-1.7042644023895264,-0.0,2.1640207767486572,4.384719057674072,0.0,0.27581432461738586,-1.5829780737506312,0.0,7.849931716918945e-05,0.8638813495635986,-0.0,-0.014061498455703259,0.7977854609489441,0.0,-0.020537056028842926
904.0,778.0,4.1599,-0.2865,8.3976,-0.0357,0.016,-0.1228,-1.617385049859518,0.0,2.343101978302002,-1.704268455505371,-0.0,2.218538761138916,4.384743853206299,0.0,0.2852681875228882,-1.58299428621401,0.0,-0.01979316584765911,0.863924503326416,-0.0,-0.004583108238875866,0.7978059649467468,0.0,0.006358246318995953
904.0,778.0,4.1599,-0.2865,8.3976,-0.0357,0.016,-0.1228,-1.6174012623228968,0.0,2.387439250946045,-1.704321026802063,-0.0,2.1439201831817627,4.384719057674072,0.0,0.2970044016838074,-1.5830023924456995,0.0,-0.01639357954263687,0.8639051914215088,-0.0,-0.006824512034654617,0.7977776527404785,0.0,0.0166469793766737
904.0,778.0,4.1599,-0.2865,8.3976,-0.0357,0.016,-0.1228,-1.6173445187010707,0.0,2.367128849029541,-1.7043087482452393,-0.0,2.18917179107666,4.384702845210693,0.0,0.2981618642807007,-1.5829818884478968,0.0,-0.005393131170421839,0.863885223865509,-0.0,-0.008367672562599182,0.7977694869041443,0.0,0.014286527410149574
904.0,778.0,4.1599,-0.2865,8.3976,-0.0357,0.016,-0.1228,-1.617396970788473,0.0,2.3239104747772217,-1.704268455505371,-0.0,2.181331157684326,4.384735270137451,0.0,0.2778446674346924,-1.5829981009112757,0.0,-0.011981702409684658,0.8638693690299988,-0.0,0.0019361552549526095,0.7977775931358337,0.0,-0.0016948562115430832
904.0,778.0,4.1599,-0.2865,8.3976,-0.0357,0.016,-0.1228,-1.6173931560912074,0.0,2.3798255920410156,-1.704272747039795,-0.0,2.210824728012085,4.384763403529785,0.0,0.2868841290473938,-1.5830023924456995,0.0,-0.017262829467654228,0.8639444708824158,-0.0,0.001070182304829359,0.7977612614631653,0.0,-0.006277970038354397
904.0,778.0,4.1599,-0.2865,8.3976,-0.0357,0.016,-0.1228,-1.6173654995360316,0.0,2.362097978591919,-1.704284906387329,-0.0,2.114736557006836,4.384755297298096,0.0,0.29806017875671387,-1.5830424467669886,0.0,-0.0043410854414105415,0.8639014363288879,-0.0,-0.010051450692117214,0.7977895140647888,0.0,-0.01565682142972946
904.0,778.0,4.1599,-0.2865,8.3976,-0.0357,0.016,-0.1228,-1.6173774204649867,0.0,2.3041701316833496,-1.7042768001556396,-0.0,2.141299247741699,4.384735746974609,0.0,0.2942555844783783,-1.5829938093768519,0.0,-0.004723361227661371,0.8639444708824158,-0.0,-0.007749143522232771,0.7977936267852783,0.0,-0.012449316680431366
904.0,778.0,4.1599,-0.2865,8.3976,-0.0357,0.016,-0.1228,-1.6174408398070277,0.0,2.326267957687378,-1.7042968273162842,-0.0,2.1882388591766357,4.3846985536762695,0.0,0.2880691885948181,-1.5830143133746546,0.0,-0.007470337674021721,0.8639051914215088,-0.0,-0.003270171582698822,0.7977936267852783,0.0,-0.007545832544565201
885.0,784.0,4.1701,-0.2788,8.3462,-0.0403,0.022,-0.1112,-1.6174050770201625,0.0,2.3661205768585205,-1.704296350479126,-0.0,2.144796371459961,4.384759111995361,0.0,0.30038946866989136,-1.5829861799823206,0.0,0.0021914253011345863,0.8639364242553711,-0.0,-0.013131905347108841,0.7977776527404785,0.0,-0.010493706911802292
885.0,784.0,4.1701,-0.2788,8.3462,-0.0403,0.022,-0.1112,-1.6173931560912074,0.0,2.341388702392578,-1.704268455505371,-0.0,2.150333881378174,4.3847314554401855,0.0,0.29259592294692993,-1.5829818884478968,0.0,-0.0179614145308733,0.8639563322067261,-0.0,-0.003324258141219616,0.797753095626831,0.0,0.005819058511406183
885.0,784.0,4.1701,-0.2788,8.3462,-0.0403,0.022,-0.1112,-1.6173531017699183,0.0,2.3606433868408203,-1.704284906387329,-0.0,2.1444168090820312,4.384735270137451,0.0,0.2892843186855316,-1.5829904715167444,0.0,-0.007693242281675339,0.8638615012168884,-0.0,0.009617996402084827,0.79776531457901,0.0,-0.025702062994241714
885.0,784.0,4.1701,-0.2788,8.3462,-0.0403,0.022,-0.1112,-1.617408891717428,0.0,2.377271890640259,-1.7042887210845947,-0.0,2.216726779937744,4.384722872371338,0.0,0.29345041513442993,-1.5830181280719202,0.0,-0.0065634045749902725,0.8639291524887085,-0.0,-0.009491981007158756,0.7977088689804077,0.0,0.010336436331272125
885.0,784.0,4.1701,-0.2788,8.3462,-0.0403,0.022,-0.1112,-1.6174007854857386,0.0,2.349876642227173,-1.704268455505371,-0.0,2.1878719329833984,4.384727163905762,0.0,0.2814743220806122,-1.5829981009112757,0.0,0.0014761141501367092,0.8639051914215088,-0.0,-0.0029768291860818863,0.7978298664093018,0.0,-0.009693797677755356
885.0,784.0,4.1701,-0.2788,8.3462,-0.0403,0.022,-0.1112,-1.617356916467184,0.0,2.3596088886260986,-1.7042608261108398,-0.0,2.176532030105591,4.384739561671875,0.0,0.2909715175628662,-1.5830100218402308,0.0,-0.015297973528504372,0.8638733625411987,-0.0,-0.013908673077821732,0.797805666923523,0.0,-0.017565879970788956
885.0,784.0,4.1701,-0.2788,8.3462,-0.0403,0.022,-0.1112,-1.6173893413939417,0.0,2.378246784210205,-1.7042731046676636,-0.0,2.1743733882904053,4.384747667903564,0.0,0.2997944951057434,-1.582949463521139,0.0,-0.014303797855973244,0.8639171123504639,-0.0,-0.007214193232357502,0.7977935671806335,0.0,-0.006862485781311989
885.0,784.0,4.1701,-0.2788,8.3462,-0.0403,0.022,-0.1112,-1.617413183251852,0.0,2.352520227432251,-1.7042890787124634,-0.0,2.1871984004974365,4.384759111995361,0.0,0.2914506196975708,-1.583022419606344,0.0,-0.010159038007259369,0.8638733625411987,-0.0,-0.0033014442306011915,0.7977776527404785,0.0,0.01781277358531952
885.0,784.0,4.1701,-0.2788,8.3462,-0.0403,0.022,-0.1112,-1.6173731289305628,0.0,2.413823366165161,-1.7043004035949707,-0.0,2.1835219860076904,4.384775801295898,0.0,0.29931211471557617,-1.5830023924456995,0.0,-0.007969883270561695,0.8639250993728638,-0.0,-0.009834278374910355,0.7977936267852783,0.0,-0.018038326874375343
885.0,784.0,4.1701,-0.2788,8.3462,-0.0403,0.022,-0.1112,-1.6174127064146937,0.0,2.3953311443328857,-1.7043373584747314,-0.0,2.17388653755188,4.384702845210693,0.0,0.2968640923500061,-1.5830262343036097,0.0,-0.008781205862760544,0.8639245629310608,-0.0,0.0015498201828449965,0.7977451682090759,0.0,0.027356654405593872
885.0,784.0,4.1701,-0.2788,8.3462,-0.0403,0.022,-0.1112,-1.6173974476256312,0.0,2.3582873344421387,-1.704312801361084,-0.0,2.156766891479492,4.3847033220478515,0.0,0.29852771759033203,-1.5830100218402308,0.0,-0.0030270337592810392,0.8639205694198608,-0.0,0.00429162010550499,0.797797679901123,0.0,-0.00856178067624569
868.0,833.0,4.1061,-0.2746,8.4174,-0.0399,0.0287,-0.1182,-1.6173931560912074,0.0,2.3904829025268555,-1.7042442560195923,-0.0,2.1163740158081055,4.384710951442383,0.0,0.2894528806209564,-1.583005730305807,0.0,-0.002763270866125822,0.8639211058616638,-0.0,-0.013088131323456764,0.7977776527404785,0.0,-0.00023839296773076057
868.0,833.0,4.1061,-0.2746,8.4174,-0.0399,0.0287,-0.1182,-1.6173812351622523,0.0,2.4209914207458496,-1.7042608261108398,-0.0,2.197329521179199,4.384759111995361,0.0,0.2925286293029785,-1.5830262343036097,0.0,-0.0026264814659953117,0.8639211058616638,-0.0,0.01041920855641365,0.7978016138076782,0.0,0.009321863763034344
868.0,833.0,4.1061,-0.2746,8.4174,-0.0399,0.0287,-0.1182,-1.617413183251852,0.0,2.4073004722595215,-1.7042689323425293,-0.0,2.1799652576446533,4.384707136745117,0.0,0.29947251081466675,-1.5830100218402308,0.0,-0.004077588208019733,0.8639171123504639,-0.0,-7.517659105360508e-05,0.797805666923523,0.0,-0.050854213535785675
868.0,833.0,4.1061,-0.2746,8.4174,-0.0399,0.0287,-0.1182,-1.6173731289305628,0.0,2.361722469329834,-1.7042927742004395,-0.0,2.1665000915527344,4.384707613582275,0.0,0.305003821849823,-1.5830181280719202,0.0,-0.009433262050151825,0.8639132976531982,-0.0,-0.0049635847099125385,0.7978138327598572,0.0,-0.015064897015690804
868.0,833.0,4.1061,-0.2746,8.4174,-0.0399,0.0287,-0.1182,-1.6173769436278285,0.0,2.366453170776367,-1.7042768001556396,-0.0,2.1941943168640137,4.384722872371338,0.0,0.28986698389053345,-1.5829818884478968,0.0,-0.008137550204992294,0.8639290928840637,-0.0,-0.00642844382673502,0.7977694869041443,0.0,0.0019989036954939365
868.0,833.0,4.1061,-0.2746,8.4174,-0.0399,0.0287,-0.1182,-1.6174293957152308,0.0,2.378106117248535,-1.7042608261108398,-0.0,2.1821956634521484,4.384710951442383,0.0,0.2898259162902832,-1.5830343405352991,0.0,-0.002225446980446577,0.8639132976531982,-0.0,-0.005705977324396372,0.7978296279907227,0.0,-0.0004917792975902557
868.0,833.0,4.1061,-0.2746,8.4174,-0.0399,0.0287,-0.1182,-1.6173888645567835,0.0,2.345158576965332,-1.7042803764343262,-0.0,2.159059524536133,4.384707136745117,0.0,0.29581302404403687,-1.5829981009112757,0.0,0.002930882852524519,0.8639562726020813,-0.0,-0.0019140641670674086,0.7977977395057678,0.0,-0.016276950016617775
868.0,833.0,4.1061,-0.2746,8.4174,-0.0399,0.0287,-0.1182,-1.6174375019469203,0.0,2.3799924850463867,-1.704312801361084,-0.0,2.1327743530273438,4.384719057674072,0.0,0.306344598531723,-1.5830143133746546,0.0,-0.003255294868722558,0.8639403581619263,-0.0,-6.214715540409088e-06,0.7977817058563232,0.0,-0.006473246030509472
868.0,833.0,4.1061,-0.2746,8.4174,-0.0399,0.0287,-0.1182,-1.6173650226988734,0.0,2.3956902027130127,-1.7042927742004395,-0.0,2.186317205429077,4.384739561671875,0.0,0.301968514919281,-1.5829861799823206,0.0,-0.010150602087378502,0.8639093041419983,-0.0,-0.007124567404389381,0.797797679901123,0.0,-0.036870598793029785
868.0,833.0,4.1061,-0.2746,8.4174,-0.0399,0.0287,-0.1182,-1.6173812351622523,0.0,2.375889778137207,-1.7042524814605713,-0.0,2.1493849754333496,4.384767695064209,0.0,0.2984478175640106,-1.5830424467669886,0.0,-0.004924705717712641,0.8638733625411987,-0.0,-0.011743836104869843,0.7978216409683228,0.0,-0.027317166328430176
868.0,833.0,4.1061,-0.2746,8.4174,-0.0399,0.0287,-0.1182,-1.6173974476256312,0.0,2.404789447784424,-1.704284906387329,-0.0,2.1980133056640625,4.384722872371338,0.0,0.2878110408782959,-1.5830181280719202,0.0,-0.003382391296327114,0.8639245629310608,-0.0,-0.0036461236886680126,0.7978381514549255,0.0,0.01342643890529871
871.0,836.0,4.1324,-0.2919,8.3599,-0.0385,0.0301,-0.1167,-1.6173931560912074,0.0,2.397097110748291,-1.704248309135437,-0.0,2.185537815093994,4.384755297298096,0.0,0.2876947224140167,-1.5829861799823206,0.0,-0.009177232161164284,0.8639250993728638,-0.0,-0.01429520919919014,0.797822117805481,0.0,-0.016977915540337563
871.0,836.0,4.1324,-0.2919,8.3599,-0.0385,0.0301,-0.1167,-1.6173974476256312,0.0,2.3972511291503906,-1.704284906387329,-0.0,2.1641759872436523,4.384735270137451,0.0,0.28298550844192505,-1.5829818884478968,0.0,-0.005076199769973755,0.8639442920684814,-0.0,-0.015824100002646446,0.7977653741836548,0.0,-0.017771059647202492
871.0,836.0,4.1324,-0.2919,8.3599,-0.0385,0.0301,-0.1167,-1.6173931560912074,0.0,2.418797016143799,-1.7042968273162842,-0.0,2.1315114498138428,4.384722872371338,0.0,0.2916036546230316,-1.5830143133746546,0.0,-0.004203001968562603,0.8639840483665466,-0.0,-0.0037002067547291517,0.7977936267852783,0.0,-0.025967296212911606
871.0,836.0,4.1324,-0.2919,8.3599,-0.0385,0.0301,-0.1167,-1.6174012623228968,0.0,2.347827672958374,-1.7042442560195923,-0.0,2.1580066680908203,4.384751005763672,0.0,0.27721524238586426,-1.583022419606344,0.0,0.008114678785204887,0.8638773560523987,-0.0,-0.008816465735435486,0.7977975010871887,0.0,-0.02813100814819336
871.0,836.0,4.1324,-0.2919,8.3599,-0.0385,0.0301,-0.1167,-1.617380758325094,0.0,2.3848512172698975,-1.704284429550171,-0.0,2.1789355278015137,4.384735270137451,0.0,0.29203924536705017,-1.5829537550555628,0.0,-0.005805940367281437,0.8638734221458435,-0.0,0.0016276042442768812,0.79776531457901,0.0,-0.031109333038330078
871.0,836.0,4.1324,-0.2919,8.3599,-0.0385,0.0301,-0.1167,-1.617380758325094,0.0,2.344461441040039,-1.7042731046676636,-0.0,2.1517534255981445,4.384727163905762,0.0,0.2988610565662384,-1.5829537550555628,0.0,-0.005908814258873463,0.863897442817688,-0.0,0.0007399895112030208,0.7977613210678101,0.0,-0.01244543120265007
871.0,836.0,4.1324,-0.2919,8.3599,-0.0385,0.0301,-0.1167,-1.617413183251852,0.0,2.385348320007324,-1.7042081356048584,-0.0,2.200446844100952,4.384747667903564,0.0,0.306351900100708,-1.5829737822162073,0.0,-0.006247897632420063,0.8639051914215088,-0.0,-0.006346326787024736,0.7978059649467468,0.0,-0.004865878261625767
871.0,836.0,4.1324,-0.2919,8.3599,-0.0385,0.0301,-0.1167,-1.6174093685545863,0.0,2.375156879425049,-1.704345464706421,-0.0,2.1571366786956787,4.384695215816162,0.0,0.29316169023513794,-1.582961384450094,0.0,-0.009972956031560898,0.8639011979103088,-0.0,-0.0016146166017279029,0.797773540019989,0.0,-0.01811397075653076
871.0,836.0,4.1324,-0.2919,8.3599,-0.0385,0.0301,-0.1167,-1.6173974476256312,0.0,2.424811840057373,-1.7043050527572632,-0.0,2.182575225830078,4.384690924281738,0.0,0.2975468933582306,-1.5829857031451624,0.0,-0.011786123737692833,0.863856852054596,-0.0,-0.006926190108060837,0.7978097796440125,0.0,0.044248875230550766
871.0,836.0,4.1324,-0.2919,8.3599,-0.0385,0.0301,-0.1167,-1.6173931560912074,0.0,2.3588249683380127,-1.7042644023895264,-0.0,2.129223346710205,4.384767695064209,0.0,0.2877235412597656,-1.5829656759845179,0.0,-0.007388113997876644,0.863929033279419,-0.0,0.0006890707882121205,0.7978138327598572,0.0,-0.025293022394180298
871.0,836.0,4.1324,-0.2919,8.3599,-0.0385,0.0301,-0.1167,-1.6174093685545863,0.0,2.329770088195801,-1.7043373584747314,-0.0,2.1713058948516846,4.384767218227051,0.0,0.29374995827674866,-1.5830424467669886,0.0,-0.008371919393539429,0.863929033279419,-0.0,0.005753626115620136,0.797813892364502,0.0,-0.049106910824775696
886.0,824.0,4.1252,-0.6694,8.4526,-0.0376,0.0342,-0.1173,-1.617368837396139,0.0,2.336308002471924,-1.704248309135437,-0.0,2.17252779006958,4.384747667903564,0.0,0.2962164878845215,-1.5830462614642542,0.0,-0.009819194674491882,0.8639482855796814,-0.0,0.0012211109278723598,0.7978419661521912,0.0,-0.008569910190999508
886.0,824.0,4.1252,-0.6694,8.4526,-0.0376,0.0342,-0.1173,-1.6173888645567835,0.0,2.3372838497161865,-1.704284906387329,-0.0,2.13344669342041,4.384746714229248,0.0,0.2851484417915344,-1.5829981009112757,0.0,-0.004689689259976149,0.8639171123504639,-0.0,-0.007368640508502722,0.7977776527404785,0.0,-0.005410096142441034
886.0,824.0,4.1252,-0.6694,8.4526,-0.0376,0.0342,-0.1173,-1.6173731289305628,0.0,2.4264707565307617,-1.7042887210845947,-0.0,2.1951799392700195,4.384727163905762,0.0,0.29934757947921753,-1.5829861799823206,0.0,-0.00443419162184,0.8639245629310608,-0.0,-0.006238979287445545,0.7978216409683228,0.0,0.03440380096435547
886.0,824.0,4.1252,-0.6694,8.4526,-0.0376,0.0342,-0.1173,-1.6173931560912074,0.0,2.421848773956299,-1.704272747039795,-0.0,2.1516451835632324,4.384735270137451,0.0,0.29886114597320557,-1.5830100218402308,0.0,-0.003005279926583171,0.8638411164283752,-0.0,-0.004171198233962059,0.7978015542030334,0.0,0.018639972433447838
886.0,824.0,4.1252,-0.6694,8.4526,-0.0376,0.0342,-0.1173,-1.6173769436278285,0.0,2.4069058895111084,-1.704345464706421,-0.0,2.20590877532959,4.384707136745117,0.0,0.30722343921661377,-1.5829818884478968,0.0,-0.022923357784748077,0.8638733625411987,-0.0,0.000651405774988234,0.797817587852478,0.0,-0.03145261108875275
886.0,824.0,4.1252,-0.6694,8.4526,-0.0376,0.0342,-0.1173,-1.6173931560912074,0.0,2.367738962173462,-1.7042803764343262,-0.0,2.1536922454833984,4.384755297298096,0.0,0.28968483209609985,-1.5830023924456995,0.0,-0.008841060101985931,0.8639012575149536,-0.0,-0.012331552803516388,0.7978097796440125,0.0,-0.017222624272108078
886.0,824.0,4.1252,-0.6694,8.4526,-0.0376,0.0342,-0.1173,-1.6174055538573207,0.0,2.397000312805176,-1.7042969465255737,-0.0,2.1881558895111084,4.384751005763672,0.0,0.29692351818084717,-1.5829861799823206,0.0,-0.001409988384693861,0.8639132976531982,-0.0,-0.0028055361472070217,0.797817587852478,0.0,0.0028634872287511826
886.0,824.0,4.1252,-0.6694,8.4526,-0.0376,0.0342,-0.1173,-1.6173936329283656,0.0,2.3616344928741455,-1.7043087482452393,-0.0,2.1614990234375,4.384795351619385,0.0,0.2987147569656372,-1.5829780737506312,0.0,-0.006104458589106798,0.8639093041419983,-0.0,0.0039930883795022964,0.7977895140647888,0.0,0.021784255281090736
886.0,824.0,4.1252,-0.6694,8.4526,-0.0376,0.0342,-0.1173,-1.6173373661436976,0.0,2.372058391571045,-1.7043211460113525,-0.0,2.1469712257385254,4.384775801295898,0.0,0.289128839969635,-1.5829938093768519,0.0,-0.005963044241070747,0.8639211058616638,-0.0,-0.008428999222815037,0.7977975010871887,0.0,0.009702220559120178
886.0,824.0,4.1252,-0.6694,8.4526,-0.0376,0.0342,-0.1173,-1.61732878307485,0.0005897730006836355,2.356048822402954,-1.704281210899353,0.0010233324719592929,2.1872060298919678,4.384787245387695,0.0,0.28988900780677795,-1.5829938093768519,0.0,0.0032781928312033415,0.8639091849327087,-0.0,0.00100608984939754,0.7978015542030334,0.0,0.017685219645500183
886.0,824.0,4.1252,-0.6694,8.4526,-0.0376,0.0342,-0.1173,-1.6173206768431605,0.0004292891244404018,2.344625949859619,-1.7042648792266846,0.0007916031172499061,2.13010835647583,4.3847996431538085,0.0,0.2961834669113159,-1.5829938093768519,0.0,0.0034926696680486202,0.8638853430747986,-0.0,-0.01857311651110649,0.7978134751319885,0.0,-0.0038520554080605507
864.0,787.0,3.9242,-0.4828,8.4395,-0.0432,0.0431,-0.1286,-1.6173893413939417,0.0003373302461113781,2.365748405456543,-1.7042648792266846,0.0004965179250575602,2.1812705993652344,4.384779615993164,0.0,0.29772916436195374,-1.5830100218402308,0.0,-0.020207297056913376,0.8639444708824158,-0.0,0.006462509278208017,0.7977409958839417,0.0,-0.01670987904071808
864.0,787.0,3.9242,-0.4828,8.4395,-0.0432,0.0431,-0.1286,-1.6173535786070765,0.00027782138204202056,2.3802685737609863,-1.7043377161026,0.0003444345493335277,2.166390895843506,4.384779615993164,0.0,0.2973101735115051,-1.5830181280719202,0.0,-0.014149473048746586,0.8639011979103088,-0.0,-0.004008322488516569,0.7977895140647888,0.0,-0.010345153510570526
864.0,787.0,3.9242,-0.4828,8.4395,-0.0432,0.0431,-0.1286,-1.6173817119994105,0.0002361608640057966,2.3923912048339844,-1.7042605876922607,0.00026368664111942053,2.143448829650879,4.384699030513428,0.0,0.29665717482566833,-1.5830300490008753,0.0,-0.0008964568260125816,0.8639285564422607,-0.0,0.00046797236427664757,0.7978016138076782,0.0,-0.019177976995706558
864.0,787.0,3.9242,-0.4828,8.4395,-0.0432,0.0431,-0.1286,-1.6173693142332972,0.0002053669304586947,2.3824870586395264,-1.704188346862793,0.00025612697936594486,2.1673288345336914,4.384746714229248,0.0,0.3055060803890228,-1.5830023924456995,0.0,-0.011628609150648117,0.8638451099395752,-0.0,-0.0061075990088284016,0.7978216409683228,0.0,0.0028097713366150856
864.0,787.0,3.9242,-0.4828,8.4395,-0.0432,0.0431,-0.1286,-1.6173774204649867,0.0001816770964069292,2.364027976989746,-1.7042605876922607,0.0003810310736298561,2.2231431007385254,4.384743853206299,0.0,0.295426607131958,-1.5829904715167444,0.0,-0.011534525081515312,0.8639562129974365,-0.0,-0.0002853921614587307,0.7978416681289673,0.0,-0.015394351445138454
864.0,787.0,3.9242,-0.4828,8.4395,-0.0432,0.0431,-0.1286,-1.61735262493276,0.00016288769256789237,2.363884449005127,-1.7042605876922607,0.0008756739553064108,2.1848440170288086,4.384699030513428,0.0,0.29777616262435913,-1.5829899946795862,0.0,0.0011327371466904879,0.8639011979103088,-0.0,-0.005997717380523682,0.7978296279907227,0.00038809215766377747,0.03154301643371582
864.0,787.0,3.9242,-0.4828,8.4395,-0.0432,0.0431,-0.1286,-1.61735262493276,0.0001476206089137122,2.3862273693084717,-1.7042326927185059,0.0005309787811711431,2.2048451900482178,4.384767695064209,0.0,0.3000895082950592,-1.5829780737506312,0.0,-0.007824696600437164,0.863909125328064,-0.0,0.0016063859220594168,0.7978255152702332,0.0007962895906530321,-0.00048107700422406197
864.0,787.0,3.9242,-0.4828,8.4395,-0.0432,0.0431,-0.1286,-1.6173693142332972,0.00013213921920396388,2.3793256282806396,-1.7042254209518433,0.0003559314354788512,2.1546714305877686,4.384763403529785,0.0,0.29876989126205444,-1.5830181280719202,0.0,-0.013595855794847012,0.8639523386955261,-0.0,-0.005194458179175854,0.7978016138076782,0.0005368862766772509,-0.010067904368042946
864.0,787.0,3.9242,-0.4828,8.4395,-0.0432,0.0431,-0.1286,-1.61735262493276,4.070532668265514e-05,2.356250762939453,-1.7042688131332397,0.0002816602063830942,2.2110414505004883,4.384707136745117,0.0,0.3001480996608734,-1.5829861799823206,0.0,-0.0023519229143857956,0.8638852834701538,-0.0,-0.003310637315735221,0.7978820204734802,0.0004003720823675394,0.02372068725526333
864.0,787.0,3.9242,-0.4828,8.4395,-0.0432,0.0431,-0.1286,-1.6174012623228968,3.7006520869908854e-05,2.3448290824890137,-1.704248309135437,0.00023303588386625051,2.1583633422851562,4.384710951442383,0.0,0.30308857560157776,-1.5829899946795862,0.0,0.0014338040491566062,0.8639402985572815,-0.0,-0.006287359166890383,0.7978416681289673,0.00031921511981636286,0.0021777357906103134
864.0,787.0,3.9242,-0.4828,8.4395,-0.0432,0.0431,-0.1286,-1.617340704003805,3.419449785724282e-05,2.405076265335083,-1.7042245864868164,0.00019872953998856246,2.1888694763183594,4.38478343069043,0.0,0.3060910701751709,-1.5830381552325647,0.0,0.0019571115262806416,0.8638932704925537,-0.0,-0.011655045673251152,0.7978134751319885,0.0002654171548783779,-0.014719418250024319
864.0,787.0,3.9242,-0.4828,8.4395,-0.0432,0.0431,-0.1286,-1.6174012623228968,3.17796366289258e-05,2.42659068107605,-1.7042523622512817,0.00017322821076959372,2.1194608211517334,4.384775801295898,0.0,0.28482022881507874,-1.5830300490008753,0.0,-0.00914929248392582,0.8639482259750366,-0.0,-0.005809147842228413,0.797817587852478,0.00022713835642207414,0.0024039428681135178
901.0,834.0,4.5535,-0.7866,8.2229,-0.058,-0.0185,-0.1275,-1.6173931560912074,2.9683371394639835e-05,2.344606399536133,-1.7042523622512817,0.0001535279006930068,2.154754161834717,4.384755297298096,0.0,0.28168985247612,-1.5830419699298304,0.0,-0.00026015215553343296,0.8639323711395264,-0.0,-0.006131267640739679,0.7977975010871887,0.0001985095877898857,5.7085417211055756e-05
901.0,834.0,4.5535,-0.7866,8.2229,-0.058,-0.0185,-0.1275,-1.6173693142332972,2.784657772281207e-05,2.356330156326294,-1.704256534576416,0.0001378508604830131,2.1708195209503174,4.384763403529785,0.0,0.2915632128715515,-1.5829938093768519,0.0,-0.00030707765836268663,0.8639442324638367,-0.0,0.0036669366527348757,0.7978336811065674,5.7534518418833613e-05,0.020212173461914062
901.0,834.0,4.5535,-0.7866,8.2229,-0.058,-0.0185,-0.1275,-1.6173855266966761,2.6223837267025374e-05,2.415313959121704,-1.7042771577835083,0.00012507870269473642,2.182741641998291,4.3847314554401855,0.0,0.3024172782897949,-1.583005730305807,0.0,-0.0010411562398076057,0.863877534866333,-0.0,-0.00333849573507905,0.7977891564369202,5.101220449432731e-05,-0.008485636673867702
901.0,834.0,4.5535,-0.7866,8.2229,-0.058,-0.0185,-0.1275,-1.6173650226988734,3.7112145946593955e-05,2.339445114135742,-1.7042771577835083,0.0001144728230428882,2.193735361099243,4.3847314554401855,0.0,0.286093533039093,-1.5830343405352991,0.0,-0.008223405107855797,0.8639482259750366,-0.0,-0.008195802569389343,0.7978457808494568,4.58181748399511e-05,-0.0008137598633766174
901.0,834.0,4.5535,-0.7866,8.2229,-0.058,-0.0185,-0.1275,-1.6173411808409632,3.522978295222856e-05,2.3562510013580322,-1.7042771577835083,0.0001055248940247111,2.170590400695801,4.384710951442383,0.0,0.30370089411735535,-1.5830100218402308,0.0,-0.007128498982638121,0.8639761805534363,-0.0,0.0022127984557300806,0.7978296279907227,4.158415686106309e-05,-0.017744695767760277
901.0,834.0,4.5535,-0.7866,8.2229,-0.058,-0.0185,-0.1275,-1.6173488102354945,4.4625408918363973e-05,2.386049509048462,-1.7042688131332397,9.787450835574418e-05,2.1924550533294678,4.384747667903564,0.0,0.2859770655632019,-1.5830381552325647,0.0,-0.013209354132413864,0.8638853430747986,-0.0,-0.020415786653757095,0.797809362411499,3.806650420301594e-05,0.016307028010487556
901.0,834.0,4.5535,-0.7866,8.2229,-0.058,-0.0185,-0.1275,-1.6173817119994105,4.253331644576974e-05,2.389580249786377,-1.7042605876922607,9.125830547418445e-05,2.1609995365142822,4.384719057674072,0.0,0.2977410554885864,-1.5830143133746546,0.0,-0.01014261320233345,0.8639722466468811,-0.0,-0.0020878196228295565,0.7978051900863647,3.5097546060569584e-05,0.013571150600910187
901.0,834.0,4.5535,-0.7866,8.2229,-0.058,-0.0185,-0.1275,-1.61735262493276,4.061398794874549e-05,2.4044485092163086,-1.7042121887207031,8.548006735509261e-05,2.1994969844818115,4.384710951442383,0.0,0.295169472694397,-1.5830100218402308,0.0,-0.011370157822966576,0.8638893365859985,-0.0,-0.007762276567518711,0.79776531457901,3.2558189559495077e-05,-0.015346264466643333
901.0,834.0,4.5535,-0.7866,8.2229,-0.058,-0.0185,-0.1275,-1.617356916467184,7.149068448342177e-09,2.4169373512268066,-1.7042728662490845,8.03900184109807e-05,2.1735892295837402,4.384771509761475,0.0,0.29105496406555176,-1.5830062071429651,0.0,-0.011184693314135075,0.8639365434646606,-0.0,-0.012155968695878983,0.797805666923523,1.5181725757429376e-05,0.05807279050350189
901.0,834.0,4.5535,-0.7866,8.2229,-0.058,-0.0185,-0.1275,-1.6173411808409632,2.316207094404352e-16,2.4103288650512695,-1.7042646408081055,7.587208529002964e-05,2.202241897583008,4.384751005763672,0.0,0.29228657484054565,-1.5830181280719202,0.0,-0.0064878929406404495,0.863925039768219,-0.0,-0.0038603260181844234,0.7977933883666992,1.4221270248526707e-05,-0.02034362033009529
901.0,834.0,4.5535,-0.7866,8.2229,-0.058,-0.0185,-0.1275,-1.6173693142332972,7.504216065757644e-24,2.388607978820801,-1.704256534576416,7.183490379247814e-05,2.1517117023468018,4.384763403529785,0.0,0.30492910742759705,-1.583033863698141,0.0,-0.0011778930202126503,0.8639212250709534,-0.0,-0.01134397555142641,0.797825813293457,6.222801829380842e-08,0.03391816467046738
843.0,810.0,4.27,-0.4217,8.2116,-0.0342,0.007,-0.1174,-1.617373605767721,2.431270498927204e-31,2.3494648933410645,-1.7041925191879272,6.820566341048107e-05,2.1377108097076416,4.384723349208496,0.0,0.29287269711494446,-1.583022419606344,0.0,-0.001416198443621397,0.863893449306488,-0.0,-0.0013957642950117588,0.7977975010871887,2.016108668087633e-15,0.0067878589034080505
843.0,810.0,4.27,-0.4217,8.2116,-0.0342,0.007,-0.1174,-1.6173693142332972,-1.3769952602160629e-05,2.369027853012085,-1.7042245864868164,6.492556713055819e-05,2.207167148590088,4.384710951442383,0.0,0.2994725704193115,-1.5829899946795862,0.0,-0.007183097768574953,0.8638569116592407,-0.0,-0.003878941759467125,0.7978016138076782,6.53193490265316e-23,-0.03445834293961525
843.0,810.0,4.27,-0.4217,8.2116,-0.0342,0.007,-0.1174,-1.6173931560912074,-2.5585857656551525e-05,2.3529629707336426,-1.7042450904846191,7.131268648663536e-05,2.163620948791504,4.384710951442383,0.0,0.3011614978313446,-1.5829780737506312,0.0,-0.010997574776411057,0.8639285564422607,-0.0,0.006590987555682659,0.7977975010871887,2.8392379209718925e-32,0.017699675634503365
843.0,810.0,4.27,-0.4217,8.2116,-0.0342,0.007,-0.1174,-1.617413183251852,-2.420966120553203e-05,2.3613088130950928,-1.7042088508605957,5.09641322423704e-05,2.2108564376831055,4.384755297298096,0.0,0.2917458117008209,-1.5830381552325647,0.0,-0.02660653181374073,0.863909125328064,-0.0,-0.01997692696750164,0.7978296279907227,9.198767717121689e-40,0.020369496196508408
843.0,810.0,4.27,-0.4217,8.2116,-0.0342,0.007,-0.1174,-1.6173974476256312,-3.4458433219697326e-05,2.343554973602295,-1.7042574882507324,1.218509071421181e-09,2.137916088104248,4.384755297298096,0.0,0.2973445653915405,-1.5830138365374964,0.0,-0.011020740494132042,0.8639441132545471,-0.0,-0.0019317278638482094,0.7978455424308777,0.0,-0.014612086117267609
843.0,810.0,4.27,-0.4217,8.2116,-0.0342,0.007,-0.1174,-1.6174212894835414,-3.9984766772249714e-05,2.41365909576416,-1.7042169570922852,0.0018696693005040288,2.163684368133545,4.384751005763672,0.0,0.29497233033180237,-1.5829737822162073,0.0,-0.007566320244222879,0.8639441728591919,-0.0,-0.008824212476611137,0.7978416681289673,0.0,-0.058750979602336884
843.0,810.0,4.27,-0.4217,8.2116,-0.0342,0.007,-0.1174,-1.6173731289305628,-0.0002190758241340518,2.364915370941162,-1.704192876815796,0.004653282463550568,2.1928634643554688,4.384719057674072,0.0,0.30766570568084717,-1.5830262343036097,0.0,-0.002103676088154316,0.8639093637466431,-0.0,-0.0015531762037426233,0.7978457808494568,0.0,0.009545005857944489
843.0,810.0,4.27,-0.4217,8.2116,-0.0342,0.007,-0.1174,-1.6174570522704066,-0.0002659127931110561,2.438368797302246,-1.7041693925857544,0.005498881451785564,2.11075496673584,4.384791536922119,0.0,0.29595860838890076,-1.5829861799823206,0.0,-0.011709400452673435,0.8638932704925537,-0.0,0.006816957611590624,0.7978817820549011,0.0006891482626087964,0.022337084636092186
843.0,810.0,4.27,-0.4217,8.2116,-0.0342,0.007,-0.1174,-1.6174208126463832,-0.0007323374738916755,2.325187921524048,-1.7040928602218628,0.003689706325531006,2.217682361602783,4.384759111995361,0.0,0.29186683893203735,-1.5830462614642542,0.0,-0.0005874177441000938,0.8639012575149536,-0.0,0.0026975953951478004,0.7978858947753906,0.0007306431652978063,0.014491342008113861
843.0,810.0,4.27,-0.4217,8.2116,-0.0342,0.007,-0.1174,-1.6174575291075648,-0.0006663144449703395,2.386796236038208,-1.7040928602218628,0.0016265804879367352,2.1472556591033936,4.384746714229248,0.0,0.2988602817058563,-1.5829656759845179,0.0,0.003827071748673916,0.8639171719551086,-0.0,-0.02043073996901512,0.7979139685630798,0.0009019427816383541,0.0029577920213341713
843.0,810.0,4.27,-0.4217,8.2116,-0.0342,0.007,-0.1174,-1.6174165211119593,-0.0005204987246543169,2.363738536834717,-1.7040804624557495,0.0008207526989281178,2.193568706512451,4.38478343069043,0.0,0.28251534700393677,-1.5830100218402308,0.0,-0.006653878837823868,0.8639285564422607,-0.0,-0.01040798518806696,0.7978491187095642,0.0010600339155644178,0.03446750342845917
899.0,802.0,4.1743,-0.5192,8.2989,-0.0402,0.0212,-0.1177,-1.6174570522704066,-0.0004470728163141757,2.38389253616333,-1.7041289806365967,0.0005394670879468322,2.1520650386810303,4.384702368373535,0.0,0.2960810661315918,-1.5830143133746546,0.0,-0.010695706121623516,0.8639323711395264,-0.0,0.0037439751904457808,0.7978935837745667,0.0012743341503664851,0.011847186833620071
899.0,802.0,4.1743,-0.5192,8.2989,-0.0402,0.0212,-0.1177,-1.6174570522704066,-0.0004154927155468613,2.4139108657836914,-1.7041010856628418,0.00040180431096814573,2.1790897846221924,4.3847877222248535,0.0,0.2974824905395508,-1.5829938093768519,0.0,-0.0006337527884170413,0.8639482259750366,-0.0,0.0020311144180595875,0.797857403755188,0.0012002617586404085,-0.0034620296210050583
899.0,802.0,4.1743,-0.5192,8.2989,-0.0402,0.0212,-0.1177,-1.61749329189443,-0.0007119115325622261,2.366177558898926,-1.704097032546997,0.00032012525480240583,2.1575353145599365,4.384795351619385,0.0,0.2985638976097107,-1.5830143133746546,0.0,-0.003068936290219426,0.8639330267906189,-0.0,0.0048596723936498165,0.7979099750518799,0.0009677076595835388,-0.028296882286667824
899.0,802.0,4.1743,-0.5192,8.2989,-0.0402,0.0212,-0.1177,-1.6174966297545375,-0.0008777602924965322,2.322375535964966,-1.704108476638794,0.00026604635058902204,2.1346447467803955,4.384762926692627,0.0,0.28465887904167175,-1.5830343405352991,0.0,-0.0006302578840404749,0.8639051914215088,-0.0,-0.006145542953163385,0.7979259490966797,0.0006858081906102598,-0.03268862143158913
899.0,802.0,4.1743,-0.5192,8.2989,-0.0402,0.0212,-0.1177,-1.6175204716124476,-0.0008699208847247064,2.3399510383605957,-1.7041051387786865,0.0002275987499160692,2.2204463481903076,4.38477532445874,0.0,0.29017341136932373,-1.5829656759845179,0.0,6.9798668846488e-05,0.8638933300971985,-0.0,-0.010707106441259384,0.7978976368904114,0.0004965581465512514,-0.02763526141643524
899.0,802.0,4.1743,-0.5192,8.2989,-0.0402,0.0212,-0.1177,-1.6175247631468714,-0.001117353793233633,2.366490364074707,-1.7040685415267944,0.00019886097288690507,2.166896343231201,4.384811087245605,0.0,0.29291099309921265,-1.5829861799823206,0.0,-0.0023548747412860394,0.8638813495635986,-0.0,0.001470099901780486,0.7979580760002136,0.00031060492619872093,-0.012083379551768303
899.0,802.0,4.1743,-0.5192,8.2989,-0.0402,0.0212,-0.1177,-1.6175414524474085,-0.0015120158204808831,2.3816919326782227,-1.7040283679962158,0.0001765671040629968,2.1455018520355225,4.384751005763672,0.0,0.30334973335266113,-1.5829818884478968,0.0,-0.0056258300319314,0.8639211654663086,-0.0,-0.0035458547063171864,0.7978570461273193,0.00023685982159804553,0.029747558757662773
899.0,802.0,4.1743,-0.5192,8.2989,-0.0402,0.0212,-0.1177,-1.6175929508604945,-0.002520597307011485,2.3838531970977783,-1.7040804624557495,0.00015876833640504628,2.1442391872406006,4.3847877222248535,0.0,0.299995481967926,-1.5829618612872522,0.0,0.004134053830057383,0.8638734817504883,-0.0,-0.0012327611912041903,0.7979177832603455,0.00019566135597415268,-0.024528831243515015
899.0,802.0,4.1743,-0.5192,8.2989,-0.0402,0.0212,-0.1177,-1.6176535091795863,-0.004090372938662767,2.3717973232269287,-1.7041010856628418,0.00014422915410250425,2.1995303630828857,4.384807749385498,3.977937534926923e-09,0.2946231961250305,-1.5829294363604944,0.0,-0.003168114461004734,0.8639293313026428,-0.0,-0.007297505624592304,0.7979298233985901,0.0002000066451728344,-0.012966450303792953
899.0,802.0,4.1743,-0.5192,8.2989,-0.0402,0.0212,-0.1177,-1.6176935635008753,-0.005249336827546358,2.3361573219299316,-1.7041051387786865,0.0001294153626076877,2.149649143218994,4.384771032924316,4.720480310213852e-15,0.297631174325943,-1.5830100218402308,0.0,-0.017734814435243607,0.8638565540313721,-0.0,-0.01651202328503132,0.7979701161384583,0.00022498914040625095,-0.0022995537146925926
899.0,802.0,4.1743,-0.5192,8.2989,-0.0402,0.0212,-0.1177,-1.6176930866637171,-0.005933317821472883,2.3278684616088867,-1.7040483951568604,0.00011958906543441117,2.1639015674591064,4.384831591243408,8.579240724882681e-20,0.288010835647583,-1.5829737822162073,0.0,-0.013841066509485245,0.8639171123504639,-0.0,-0.011174962855875492,0.7978731393814087,0.0002883249253500253,0.022600099444389343
869.0,765.0,3.8698,-0.4504,8.5711,-0.0405,0.0341,-0.1155,-1.6177450619139613,-0.007025155704468489,2.3626081943511963,-1.7040846347808838,0.00011114959488622844,2.1783409118652344,4.384795351619385,1.5592341648748771e-24,0.2927934527397156,-1.5829861799823206,0.0,-0.011836293153464794,0.8638772964477539,-0.0,-0.001593857305124402,0.797897219657898,0.0007115273620001972,-0.00837632641196251
869.0,765.0,3.8698,-0.4504,8.5711,-0.0405,0.0341,-0.1155,-1.617828985253805,-0.007611200213432312,2.366887331008911,-1.7040969133377075,0.00011865464330185205,2.1469006538391113,4.384779139156006,2.8338313757646075e-29,0.2855187952518463,-1.5829861799823206,0.0,-0.005985700991004705,0.863905131816864,-0.0,-0.006304038222879171,0.7979416847229004,0.000918246281798929,0.0013887519016861916
869.0,765.0,3.8698,-0.4504,8.5711,-0.0405,0.0341,-0.1155,-1.617880483666891,-0.007541195955127478,2.388850212097168,-1.7040324211120605,7.219456892926246e-05,2.1697731018066406,4.384851618404053,0.0001877279137261212,0.2936710715293884,-1.5829818884478968,0.0,-0.008099946193397045,0.8639016151428223,-0.0,0.005109699442982674,0.7979496717453003,0.0009220539941452444,-0.005423406139016151
869.0,765.0,3.8698,-0.4504,8.5711,-0.0405,0.0341,-0.1155,-1.6179529629149378,-0.008554026484489441,2.3900012969970703,-1.7041093111038208,9.428565681446344e-05,2.143507957458496,4.384851618404053,0.00019145026453770697,0.2978571355342865,-1.5830143133746546,0.0,-0.003049262333661318,0.863889217376709,-0.0,-0.005187313072383404,0.7979536652565002,0.0007705145399086177,-0.016426198184490204
869.0,765.0,3.8698,-0.4504,8.5711,-0.0405,0.0341,-0.1155,-1.6180244884886683,-0.008393683470785618,2.385815143585205,-1.7040122747421265,0.0006965300417505205,2.1780784130096436,4.384859247798584,0.00017098303942475468,0.30180710554122925,-1.5829899946795862,0.0,0.0005592289380729198,0.8639212250709534,-0.0,-0.004746512044221163,0.7979618310928345,0.0007295833784155548,0.01199368480592966
869.0,765.0,3.8698,-0.4504,8.5711,-0.0405,0.0341,-0.1155,-1.618056436578268,-0.009224425069987774,2.3458900451660156,-1.7040488719940186,0.000954186252783984,2.1516666412353516,4.384839697475098,0.00017705165373627096,0.28991782665252686,-1.5829456488238733,0.0,-0.005947356577962637,0.8638772368431091,-0.0,-0.020373795181512833,0.7980058789253235,0.000714785186573863,0.014389353804290295
869.0,765.0,3.8698,-0.4504,8.5711,-0.0405,0.0341,-0.1155,-1.618192812005514,-0.011155083775520325,2.3960912227630615,-1.703992486000061,0.0009669987484812737,2.1420483589172363,4.384827299708984,0.0001789040252333507,0.3063599169254303,-1.5829737822162073,0.0,-0.010432831943035126,0.8638973832130432,-0.0,-0.010372670367360115,0.7979981303215027,0.0007715775282122195,-0.03488218039274216
869.0,765.0,3.8698,-0.4504,8.5711,-0.0405,0.0341,-0.1155,-1.6182362041869105,-0.011432129889726639,2.3304381370544434,-1.7040767669677734,0.0009735804051160812,2.1686882972717285,4.384839220637939,0.00016520220378879458,0.30163753032684326,-1.5829737822162073,0.0,-0.0033720312640070915,0.8639051914215088,-0.0,-0.012178739532828331,0.798001766204834,0.0006575455772690475,0.05010003596544266
869.0,765.0,3.8698,-0.4504,8.5711,-0.0405,0.0341,-0.1155,-1.6183883152403773,-0.0120848985388875,2.3185935020446777,-1.7040410041809082,0.0007015698938630521,2.1776530742645264,4.384887381190918,0.00017425560508854687,0.2928122282028198,-1.583005730305807,0.0,-0.006701027974486351,0.8638606071472168,-0.0,-0.0182826966047287,0.7979536056518555,0.0005485592409968376,-0.07892774790525436
869.0,765.0,3.8698,-0.4504,8.5711,-0.0405,0.0341,-0.1155,-1.618472238580221,-0.013432991690933704,2.309600830078125,-1.7040492296218872,0.0006908643990755081,2.2141976356506348,4.384843035335205,0.0001537383795948699,0.2833733856678009,-1.5830062071429651,0.0,-0.00598355196416378,0.8639093041419983,-0.0,-0.011410249397158623,0.7979817390441895,0.000519102904945612,0.03446970134973526
869.0,765.0,3.8698,-0.4504,8.5711,-0.0405,0.0341,-0.1155,-1.618584772149557,-0.014913898892700672,2.3347394466400146,-1.7040492296218872,0.0006781590054742992,2.0821316242218018,4.3848792749592285,0.00016048266843426973,0.295453280210495,-1.5829737822162073,0.0,-0.010891049169003963,0.8638813495635986,-0.0,-0.01919841580092907,0.7979618310928345,0.0003892820968758315,-0.0013602254912257195
873.0,757.0,4.0379,-0.4146,8.528,-0.0411,-0.0128,-0.1155,-1.618760725060934,-0.015631332993507385,2.343689441680908,-1.7040369510650635,0.0005878044757992029,2.1997835636138916,4.3848511415668945,0.00014488383021671325,0.2924793064594269,-1.5829818884478968,0.0,0.006218942813575268,0.8638932704925537,-0.0,-0.019291330128908157,0.7979737520217896,0.0003848580818157643,-0.05687713623046875
873.0,757.0,4.0379,-0.4146,8.528,-0.0411,-0.0128,-0.1155,-1.618864198724264,-0.015484248287975788,2.37004017829895,-1.7040492296218872,0.000618518446572125,2.167484760284424,4.384875460261963,0.0001524556864751503,0.28924137353897095,-1.5829938093768519,0.0,-0.025331176817417145,0.8639016151428223,-0.0,-0.0018413178622722626,0.7979857921600342,0.0003678494249470532,0.0022005755454301834
873.0,757.0,4.0379,-0.4146,8.528,-0.0411,-0.0128,-0.1155,-1.6190368137755335,-0.014361385256052017,2.3456993103027344,-1.7040367126464844,0.0007538911304436624,2.1791133880615234,4.384891672725342,0.00013915989256929606,0.2978472411632538,-1.5830267111407679,0.0,-0.007476446218788624,0.8638851046562195,-0.0,-0.01603289321064949,0.7979936003684998,0.00037078899913467467,0.022667398676276207
873.0,757.0,4.0379,-0.4146,8.528,-0.0411,-0.0128,-0.1155,-1.6191078625121058,-0.014419881626963615,2.360161781311035,-1.704017162322998,0.0007971751037985086,2.1314749717712402,4.384895010585449,0.00014611762890126556,0.2890811562538147,-1.5829694906817835,0.0,-0.00477695744484663,0.8639529943466187,-0.0,-0.019737843424081802,0.7980181574821472,0.0007950370782054961,-0.053754888474941254
873.0,757.0,4.0379,-0.4146,8.528,-0.0411,-0.0128,-0.1155,-1.6192404232420863,-0.014115617610514164,2.3653759956359863,-1.7039690017700195,0.0005880087264813483,2.1637134552001953,4.384936018581055,0.00014572817599400878,0.3010843098163605,-1.5830143133746546,0.0,-0.003557328600436449,0.8638204336166382,-0.0,-0.00680449977517128,0.7980659604072571,0.0012214801972731948,-0.05240192264318466
873.0,757.0,4.0379,-0.4146,8.528,-0.0411,-0.0128,-0.1155,-1.6193438969054164,-0.013709329068660736,2.3672537803649902,-1.70400071144104,0.0005311957793310285,2.1583685874938965,4.384871168727539,0.000137994036776945,0.2965676784515381,-1.5829818884478968,0.0,0.0035952723119407892,0.863913357257843,-0.0,-0.012975082732737064,0.798041582107544,0.001926748431287706,-0.022537097334861755
873.0,757.0,4.0379,-0.4146,8.528,-0.0411,-0.0128,-0.1155,-1.6194797954955042,-0.013120857067406178,2.369032859802246,-1.7039966583251953,0.0003782385610975325,2.1911418437957764,4.3849074083515625,0.00011964746954618022,0.2950115203857422,-1.5829818884478968,0.0,-0.00412591639906168,0.8638606071472168,-0.0,-0.008758584968745708,0.7981061935424805,0.0027316282503306866,-0.015926193445920944
873.0,757.0,4.0379,-0.4146,8.528,-0.0411,-0.0128,-0.1155,-1.619547029534811,-0.013958682306110859,2.361607074737549,-1.7039966583251953,0.00030498713022097945,2.1474311351776123,4.384899302119873,0.00010814511915668845,0.2912325859069824,-1.583010498677389,0.0,-0.007366520818322897,0.8638772368431091,-0.0,-0.0016842393670231104,0.7981020212173462,0.004207226913422346,0.008915811777114868
873.0,757.0,4.0379,-0.4146,8.528,-0.0411,-0.0128,-0.1155,-1.6197148762144984,-0.014308830723166466,2.3958895206451416,-1.7039686441421509,0.00025550657301209867,2.1450090408325195,4.384890719051025,9.866070467978716e-05,0.2930871844291687,-1.5829904715167444,0.0,-0.008826582692563534,0.8638690710067749,-0.0,-0.010538228787481785,0.7981783151626587,0.004414648748934269,0.04179681837558746
873.0,757.0,4.0379,-0.4146,8.528,-0.0411,-0.0128,-0.1155,-1.6198631725706996,-0.015416374430060387,2.3733625411987305,-1.7039448022842407,0.00021984099294058979,2.1734046936035156,4.3848511415668945,9.070571104530245e-05,0.2957606315612793,-1.5830023924456995,0.0,0.0030444401782006025,0.8638731837272644,-0.0,-0.0162236038595438,0.7981414794921875,0.004787928890436888,-0.02719702012836933
873.0,757.0,4.0379,-0.4146,8.528,-0.0411,-0.0128,-0.1155,-1.6200033626952113,-0.01664368063211441,2.326223134994507,-1.7040367126464844,0.00019291345961391926,2.1395087242126465,4.384899302119873,8.393786993110552e-05,0.2924198508262634,-1.5829737822162073,0.0,-0.015350615605711937,0.863913357257843,-0.0,-0.019039858132600784,0.798238217830658,0.005146270152181387,-0.00026734586572274566
868.0,755.0,4.0475,-0.4337,8.4108,-0.0396,0.0082,-0.1118,-1.620131631890768,-0.018286053091287613,2.3540596961975098,-1.7039809226989746,0.0001964142284123227,2.1556010246276855,4.384883566493652,7.810995157342404e-05,0.2983201742172241,-1.5829413572894495,0.0,-0.013903051614761353,0.8638486862182617,-0.0,-0.004801072645932436,0.7982579469680786,0.005506700836122036,-0.001845098566263914
868.0,755.0,4.0475,-0.4337,8.4108,-0.0396,0.0082,-0.1118,-1.6203233204283656,-0.019751202315092087,2.3612451553344727,-1.704001545906067,0.00017709036183077842,2.158304452896118,4.384871168727539,7.303865277208388e-05,0.2899836301803589,-1.5829861799823206,0.0,-0.00739804282784462,0.8638972043991089,-0.0,-0.002831702586263418,0.7983059287071228,0.004743467550724745,0.023547912016510963
868.0,755.0,4.0475,-0.4337,8.4108,-0.0396,0.0082,-0.1118,-1.6204143963255824,-0.02306300587952137,2.3315765857696533,-1.70400071144104,0.0001612282358109951,2.184727668762207,4.3848792749592285,6.858583219582215e-05,0.2931552827358246,-1.5829818884478968,0.0,-0.014164101332426071,0.8638973832130432,-0.0,-0.008927835151553154,0.7983499765396118,0.0033261245116591454,0.0099977171048522
868.0,755.0,4.0475,-0.4337,8.4108,-0.0396,0.0082,-0.1118,-1.6206590137877406,-0.02785426378250122,2.3393123149871826,-1.7040088176727295,0.00014797411859035492,2.163914918899536,4.384883566493652,7.735317922197282e-05,0.2988254427909851,-1.5829694906817835,0.0,-0.010841683484613895,0.8638932704925537,-0.0,-0.0037160166539251804,0.7983701229095459,0.005759583320468664,-0.003271403955295682
868.0,755.0,4.0475,-0.4337,8.4108,-0.0396,0.0082,-0.1118,-1.6209236584105433,-0.03162378445267677,2.3643906116485596,-1.7039974927902222,9.679463983047754e-05,2.200258731842041,4.384923620814941,7.33583583496511e-05,0.29963016510009766,-1.583010498677389,0.0,-0.007820982486009598,0.8639607429504395,-0.0,-2.9137125238776207e-05,0.7984421253204346,0.007512358017265797,0.02178654819726944
868.0,755.0,4.0475,-0.4337,8.4108,-0.0396,0.0082,-0.1118,-1.6211587391295375,-0.03615019470453262,2.3412423133850098,-1.7040047645568848,0.00012403576693031937,2.1173417568206787,4.384890719051025,7.966138946358114e-05,0.290233314037323,-1.5830262343036097,0.0,-0.00823669321835041,0.8638851046562195,-0.0,-0.009334753267467022,0.7984620928764343,0.0070253172889351845,-0.0018599801696836948
868.0,755.0,4.0475,-0.4337,8.4108,-0.0396,0.0082,-0.1118,-1.621498247186178,-0.04187754541635513,2.316239356994629,-1.703977346420288,0.000598458806052804,2.1501524448394775,4.3849074083515625,7.719523273408413e-05,0.29151099920272827,-1.5829904715167444,0.0,-0.02055361308157444,0.863913357257843,-0.0,-0.009060950949788094,0.798534095287323,0.007492032367736101,0.044704459607601166
868.0,755.0,4.0475,-0.4337,8.4108,-0.0396,0.0082,-0.1118,-1.6218296490111292,-0.04979589581489563,2.338144540786743,-1.7040057182312012,0.0008035516948439181,2.1970221996307373,4.38496367513623,8.27313051559031e-05,0.2879032492637634,-1.5829861799823206,0.0,-0.003730216296389699,0.8639252781867981,-0.0,-0.007317261770367622,0.7985700368881226,0.004085470922291279,0.051008712500333786
868.0,755.0,4.0475,-0.4337,8.4108,-0.0396,0.0082,-0.1118,-1.6222740612425746,-0.058002665638923645,2.2887940406799316,-1.7039368152618408,0.0008538102265447378,2.1697726249694824,4.384935541743896,8.034719212446362e-05,0.29242461919784546,-1.5830143133746546,0.0,-0.011817827820777893,0.8638813495635986,-0.0,-0.003767965594306588,0.7985536456108093,0.001694564474746585,-0.022753460332751274
868.0,755.0,4.0475,-0.4337,8.4108,-0.0396,0.0082,-0.1118,-1.6227857075133265,-0.06746715307235718,2.3161261081695557,-1.7039446830749512,0.0011470483150333166,2.1677870750427246,4.38488690435376,6.921753083588555e-05,0.3025715947151184,-1.5829818884478968,0.0,-0.002707263920456171,0.8639051914215088,-0.0,0.0003451099619269371,0.7985780835151672,0.0007871253765188158,-0.008050378412008286
868.0,755.0,4.0475,-0.4337,8.4108,-0.0396,0.0082,-0.1118,-1.6233450374998988,-0.07425571978092194,2.2939701080322266,-1.703932762145996,0.002373783616349101,2.18251371383667,4.384935064906738,8.95998819032684e-05,0.3049171566963196,-1.5829938093768519,0.0,-0.006781265139579773,0.8639171123504639,-0.0,-0.007299784570932388,0.7985982894897461,0.0004142906691413373,0.016402844339609146
880.0,721.0,3.1442,-0.2381,8.4586,-0.027,-0.0383,-0.1223,-1.6239849529662074,-0.07415513694286346,2.310847282409668,-1.7038966417312622,0.003631794126704335,2.2156453132629395,4.384971304530762,0.00034568915725685656,0.2962781488895416,-1.5830023924456995,0.0,-0.010769815184175968,0.8639365434646606,-0.0,-0.005568963475525379,0.7985700964927673,0.00030275341123342514,-0.040075503289699554
880.0,721.0,3.1442,-0.2381,8.4586,-0.027,-0.0383,-0.1223,-1.624636789361471,-0.0747494250535965,2.2965445518493652,-1.703917145729065,0.0027401382103562355,2.1573143005371094,4.384846850032471,0.00037807144690304995,0.2939080595970154,-1.5829938093768519,0.0,-0.007588361389935017,0.8639051914215088,-0.0,-0.015302380546927452,0.7985700964927673,0.000238546883338131,0.02306188829243183
880.0,721.0,3.1442,-0.2381,8.4586,-0.027,-0.0383,-0.1223,-1.6254116497435511,-0.07359249144792557,2.29626727104187,-1.7039694786071777,0.0010406349319964647,2.176759719848633,4.384906931514404,0.0002800500369630754,0.28167909383773804,-1.5830023924456995,0.0,-0.00753210112452507,0.8639365434646606,-0.0,0.006542752962559462,0.7985942363739014,0.0001885630626929924,0.06501777470111847
880.0,721.0,3.1442,-0.2381,8.4586,-0.027,-0.0383,-0.1223,-1.6259991131224574,-0.07774906605482101,2.2844643592834473,-1.7039371728897095,0.000659241690300405,2.116058349609375,4.384882612819336,0.00023192500520963222,0.2913629412651062,-1.5829375425921839,0.0,0.007495456375181675,0.8639176487922668,-0.0,-0.011001985520124435,0.7985659837722778,0.00016149363364093006,-0.003988796845078468
880.0,721.0,3.1442,-0.2381,8.4586,-0.027,-0.0383,-0.1223,-1.6266709766783656,-0.08230316638946533,2.280475616455078,-1.7039048671722412,0.00047996360808610916,2.1815173625946045,4.384955092067383,0.0001979170774575323,0.3041055202484131,-1.5829656759845179,0.0,0.00595848448574543,0.8639175891876221,-0.0,-0.009723275899887085,0.7985742092132568,0.00011297654418740422,0.007407051045447588
880.0,721.0,3.1442,-0.2381,8.4586,-0.027,-0.0383,-0.1223,-1.62733854869985,-0.08979105949401855,2.280935287475586,-1.7038928270339966,0.00029008876299485564,2.142821788787842,4.384995146388672,0.00022627033467870206,0.29989662766456604,-1.5830262343036097,0.0,0.006665591616183519,0.8638485074043274,-0.0,-0.014744624495506287,0.7986024022102356,7.529606955358759e-05,-0.015544664114713669
880.0,721.0,3.1442,-0.2381,8.4586,-0.027,-0.0383,-0.1223,-1.6280542812743128,-0.09455999732017517,2.3012804985046387,-1.7038607597351074,0.0026639823336154222,2.192592144012451,4.3849708276936035,0.00280132913030684,0.2897646725177765,-1.5829904715167444,0.0,-0.013466857373714447,0.8638772964477539,-0.0,-0.013704945333302021,0.7985421419143677,6.772838969482109e-05,-0.003034368623048067
880.0,721.0,3.1442,-0.2381,8.4586,-0.027,-0.0383,-0.1223,-1.628885885278219,-0.10006889700889587,2.2918243408203125,-1.7037923336029053,0.004754177760332823,2.1868529319763184,4.385111494655273,0.03940241411328316,0.2988561689853668,-1.5829818884478968,0.0,-0.006344221532344818,0.8639293909072876,-0.0,-0.0016611518803983927,0.7985539436340332,6.155234586913139e-05,0.004164193756878376
880.0,721.0,3.1442,-0.2381,8.4586,-0.027,-0.0383,-0.1223,-1.6296888790526332,-0.10404881089925766,2.2772233486175537,-1.703736424446106,0.00541551411151886,2.2242331504821777,4.385447188014648,0.0559292696416378,0.3279273808002472,-1.5829532782184046,0.0,-0.007251102011650801,0.8639649152755737,-0.0,-8.779717609286308e-05,0.7985498309135437,5.6408556702081114e-05,-0.008463738486170769
880.0,721.0,3.1442,-0.2381,8.4586,-0.027,-0.0383,-0.1223,-1.6304880581297816,-0.0998394563794136,2.312401533126831,-1.703708529472351,0.0063570719212293625,2.1599318981170654,4.38588730871167,0.054015301167964935,0.3210790157318115,-1.5829618612872522,0.0,0.01068626344203949,0.8638245463371277,-0.0,-0.013954496942460537,0.7985982894897461,6.941093306522816e-05,0.024843130260705948
880.0,721.0,3.1442,-0.2381,8.4586,-0.027,-0.0383,-0.1223,-1.6313158474364222,-0.09611508995294571,2.3369321823120117,-1.7037208080291748,0.003213850548490882,2.188201665878296,4.386182947749756,0.029871242120862007,0.3178565800189972,-1.5829694906817835,0.0,-0.0115738520398736,0.8638772964477539,-0.0,-0.005064469762146473,0.7986263632774353,3.33019343088381e-05,0.003844368737190962
866.0,781.0,4.7198,-0.4253,8.2164,-0.0545,-0.0487,-0.1246,-1.6321355305113734,-0.10263533890247345,2.326009750366211,-1.703648567199707,0.00113078230060637,2.132890224456787,4.386322661037109,0.003884458215907216,0.2923741042613983,-1.5829861799823206,0.0,-0.021191544830799103,0.8638564944267273,-0.0,-0.012924445793032646,0.798582136631012,1.584815254318528e-05,0.018666405230760574
866.0,781.0,4.7198,-0.4253,8.2164,-0.0545,-0.0487,-0.1246,-1.632822176019186,-0.1094386950135231,2.3087422847747803,-1.7037088871002197,0.000657927303109318,2.189138889312744,4.38628260671582,-0.007550857029855251,0.30040958523750305,-1.5829694906817835,0.0,-0.009105910547077656,0.8638606071472168,-0.0,-0.0006719366647303104,0.7986024022102356,2.0195457750560308e-07,-0.006896235980093479
866.0,781.0,4.7198,-0.4253,8.2164,-0.0545,-0.0487,-0.1246,-1.633669992486471,-0.1082921251654625,2.2995498180389404,-1.7036892175674438,0.002384505933150649,2.136470079421997,4.386354609126709,0.0026310712564736605,0.2934221029281616,-1.5829575697528284,0.0,-0.00852926168590784,0.8639607429504395,-0.0,-0.010723484680056572,0.7986147403717041,6.5430711724905576e-15,0.04438089579343796
866.0,781.0,4.7198,-0.4253,8.2164,-0.0545,-0.0487,-0.1246,-1.63454069713735,-0.10457387566566467,2.3588173389434814,-1.7036250829696655,0.008021602407097816,2.161349058151245,4.386403246516846,0.001738688093610108,0.3013741374015808,-1.5829618612872522,0.0,-0.009319690987467766,0.8638811707496643,-0.0,-0.024074431508779526,0.7985780835151672,2.1198717055915746e-22,-0.07566960901021957
866.0,781.0,4.7198,-0.4253,8.2164,-0.0545,-0.0487,-0.1246,-1.6353403530516566,-0.10023445636034012,2.3241238594055176,-1.703556776046753,0.009797405451536179,2.2014927864074707,4.386339350337646,0.0007573129842057824,0.28298646211624146,-1.58299428621401,0.0,-0.009463008493185043,0.8638689517974854,-0.0,-0.005957265384495258,0.7986183762550354,6.868115198408161e-30,-1.5197321772575378e-05
866.0,781.0,4.7198,-0.4253,8.2164,-0.0545,-0.0487,-0.1246,-1.6361719570555628,-0.10149818658828735,2.298713207244873,-1.70348060131073,0.006489071529358625,2.2256968021392822,4.386343165034912,0.0004040143103338778,0.2996353507041931,-1.5829737822162073,0.0,-0.0030878547113388777,0.8639016151428223,-0.0,-0.013404063880443573,0.7985538840293884,2.2251821433872816e-37,-0.004836307838559151
866.0,781.0,4.7198,-0.4253,8.2164,-0.0545,-0.0487,-0.1246,-1.637015005151266,-0.10624288767576218,2.32563853263855,-1.7035012245178223,0.001818586140871048,2.1284565925598145,4.386354609126709,0.0002377527125645429,0.2954476773738861,-1.5830100218402308,0.0,-0.0023121570702642202,0.8639365434646606,-0.0,-0.015101772733032703,0.7985700964927673,7.006492321624085e-45,0.0020408611744642258
866.0,781.0,4.7198,-0.4253,8.2164,-0.0545,-0.0487,-0.1246,-1.6378427944579066,-0.10807235538959503,2.3461318016052246,-1.7034765481948853,0.0008430111920461059,2.1811165809631348,4.3863112169453125,0.00018805170839186758,0.29100850224494934,-1.5829618612872522,0.0,-0.0024302222300320864,0.863913357257843,-0.0,-0.027005717158317566,0.7986101508140564,0.0,-0.03592171519994736
866.0,781.0,4.7198,-0.4253,8.2164,-0.0545,-0.0487,-0.1246,-1.6386739216246546,-0.10598458349704742,2.3479807376861572,-1.703449010848999,0.0005489877657964826,2.1561458110809326,4.38628260671582,0.00015554219135083258,0.29490169882774353,-1.5829818884478968,0.0,-0.0049749575555324554,0.8639051914215088,-0.0,-0.003014341229572892,0.798590362071991,0.0,-0.011489761993288994
866.0,781.0,4.7198,-0.4253,8.2164,-0.0545,-0.0487,-0.1246,-1.6397854290404261,-0.10805852711200714,2.319936513900757,-1.7034649848937988,0.0018391306512057781,2.1729013919830322,4.386383219356201,6.470565858762711e-05,0.2975810170173645,-1.5830062071429651,0.0,-0.010383990593254566,0.8639650940895081,-0.0,-0.020706897601485252,0.7985621690750122,0.0,-0.05220452696084976
866.0,781.0,4.7198,-0.4253,8.2164,-0.0545,-0.0487,-0.1246,-1.6406494579710902,-0.10834405571222305,2.3029606342315674,-1.7034246921539307,0.0032910050358623266,2.1681149005889893,4.386354609126709,5.829781002830714e-05,0.2826857566833496,-1.5829694906817835,0.0,-0.00919028278440237,0.8639090061187744,-0.0,-0.008737094700336456,0.7985742092132568,0.0,-0.001471085473895073
851.0,741.0,3.4044,-0.1107,8.994,-0.0307,-0.0411,-0.1092,-1.6414796314635218,-0.10635002702474594,2.334306001663208,-1.703400731086731,0.0019236716907471418,2.1698546409606934,4.386378927821777,5.161092849448323e-05,0.29445111751556396,-1.5829737822162073,0.0,-0.012901624664664268,0.8639365434646606,-0.0,0.0016780041623860598,0.798573911190033,0.0,-0.016519084572792053
851.0,741.0,3.4044,-0.1107,8.994,-0.0307,-0.0411,-0.1092,-1.6423512897887171,-0.11539769172668457,2.344778060913086,-1.703449010848999,0.0009507382637821138,2.179434299468994,4.386407061214111,2.32031088671647e-05,0.2986692488193512,-1.5829618612872522,0.0,-0.011291326954960823,0.8638851046562195,-0.0,-0.010493051260709763,0.7985742092132568,0.0,-0.02255254238843918
851.0,741.0,3.4044,-0.1107,8.994,-0.0307,-0.0411,-0.1092,-1.6432749233641566,-0.11854906380176544,2.3384194374084473,-1.7034493684768677,0.0006220089271664619,2.1639771461486816,4.3863465028950195,2.0990344637539238e-05,0.29572176933288574,-1.5829904715167444,0.0,-0.01773199997842312,0.8639405965805054,-0.0,-0.0020875316113233566,0.7985742092132568,0.0,-0.001400765497237444
851.0,741.0,3.4044,-0.1107,8.994,-0.0307,-0.0411,-0.1092,-1.6441580257811488,-0.11726667732000351,2.356937885284424,-1.703376054763794,0.00036217644810676575,2.16914963722229,4.386342211360596,3.711743192980066e-05,0.2943832278251648,-1.5829737822162073,0.0,0.0003795174416154623,0.8638856410980225,-0.0,0.004316700156778097,0.7985379099845886,0.0,-0.06254233419895172
851.0,741.0,3.4044,-0.1107,8.994,-0.0307,-0.0411,-0.1092,-1.6450487575926722,-0.1120087057352066,2.3558766841888428,-1.7034049034118652,0.0023247895296663046,2.177426338195801,4.386363192195557,4.8503938160138205e-05,0.27329808473587036,-1.5829656759845179,0.0,-0.005158727522939444,0.8639176487922668,-0.0,-0.003957774490118027,0.7985783219337463,0.0,0.008846500888466835
851.0,741.0,3.4044,-0.1107,8.994,-0.0307,-0.0411,-0.1092,-1.64599670986318,-0.11118575185537338,2.335416316986084,-1.7034168243408203,0.002107104752212763,2.181053876876831,4.386358900661133,4.920073479297571e-05,0.2923974096775055,-1.582966152821676,0.0,-0.012094305828213692,0.8638855814933777,-0.0,-0.0030581685714423656,0.798582136631012,0.0,0.0476006418466568
851.0,741.0,3.4044,-0.1107,8.994,-0.0307,-0.0411,-0.1092,-1.6469160519041957,-0.11569364368915558,2.367297649383545,-1.703356385231018,0.00103225267957896,2.1154255867004395,4.3864027696796875,5.0004506192635745e-05,0.29417145252227783,-1.5829861799823206,0.0,-0.00246007670648396,0.8638731837272644,-0.0,-0.00022801815066486597,0.7985862493515015,0.0,0.01804453879594803
851.0,741.0,3.4044,-0.1107,8.994,-0.0307,-0.0411,-0.1092,-1.6478353939452113,-0.12646013498306274,2.3541512489318848,-1.703364610671997,0.0006558704189956188,2.1601696014404297,4.386371298427246,4.500409704633057e-05,0.29286423325538635,-1.5829985777484339,0.0,-0.014136177487671375,0.8638973832130432,-0.0,-0.002764608711004257,0.798590362071991,0.0,0.052538756281137466
851.0,741.0,3.4044,-0.1107,8.994,-0.0307,-0.0411,-0.1092,-1.6488667927184046,-0.13012439012527466,2.357177734375,-1.703332543373108,0.0004026136011816561,2.1375491619110107,4.386370821590088,6.000165012665093e-05,0.28773707151412964,-1.5829694906817835,0.0,-0.012269370257854462,0.863913357257843,-0.0,0.002522371243685484,0.7985945343971252,0.0,-0.008865056559443474
851.0,741.0,3.4044,-0.1107,8.994,-0.0307,-0.0411,-0.1092,-1.6499501667418421,-0.12882012128829956,2.350522518157959,-1.7033324241638184,0.003336602123454213,2.177600622177124,4.386366530055664,9.560809121467173e-05,0.2845412492752075,-1.5830023924456995,0.0,-0.011764861643314362,0.863909125328064,-0.0,-0.00910953525453806,0.798534095287323,0.0,-0.008298543281853199
851.0,741.0,3.4044,-0.1107,8.994,-0.0307,-0.0411,-0.1092,-1.6509443722166957,-0.11989420652389526,2.4197497367858887,-1.7033288478851318,0.005225961562246084,2.1489529609680176,4.38642327367749,0.0001405498042004183,0.28289490938186646,-1.5829861799823206,0.0,-0.01972530223429203,0.8639649152755737,-0.0,-0.010619423352181911,0.7985862493515015,0.0,-0.011291153728961945
851.0,741.0,3.4044,-0.1107,8.994,-0.0307,-0.0411,-0.1092,-1.6519671879210414,-0.11914610117673874,2.3750710487365723,-1.7033411264419556,0.0034987363032996655,2.194199323654175,4.386410875911377,0.00015514902770519257,0.2905651330947876,-1.5829218069659632,0.0,-0.004364934284240007,0.8638973236083984,-0.0,0.0015281499363481998,0.7985780239105225,0.0,-0.043676137924194336
890.0,779.0,3.7561,0.128,9.1663,-0.0377,-0.0875,-0.1188,-1.6529375515379847,-0.13455303013324738,2.373955726623535,-1.7033369541168213,0.0007267197361215949,2.1175448894500732,4.386370821590088,0.000132333196233958,0.3061884045600891,-1.5830023924456995,0.0,-0.003887346014380455,0.8638564944267273,-0.0,-3.505259519442916e-05,0.7985862493515015,0.0,0.005791796371340752
890.0,779.0,3.7561,0.128,9.1663,-0.0377,-0.0875,-0.1188,-1.6541010342040003,-0.14882586896419525,2.2786264419555664,-1.7033411264419556,0.0002181138697778806,2.1469459533691406,4.3864146906086425,0.00011536772944964468,0.29143112897872925,-1.582949463521139,0.0,-0.013943699188530445,0.8639093041419983,-0.0,-0.013438353314995766,0.7985865473747253,0.0,0.05337939038872719
890.0,779.0,3.7561,0.128,9.1663,-0.0377,-0.0875,-0.1188,-1.6552559338011683,-0.14610004425048828,2.3753373622894287,-1.7032246589660645,0.005108844488859177,2.1303255558013916,4.386427088374756,0.0003277617506682873,0.2874988913536072,-1.583022419606344,0.0,0.00032454077154397964,0.8638326525688171,-0.0,-0.006476945243775845,0.7985945343971252,-0.0008304681978188455,0.018913282081484795
890.0,779.0,3.7561,0.128,9.1663,-0.0377,-0.0875,-0.1188,-1.6564389667906703,-0.12656690180301666,2.3862993717193604,-1.7031242847442627,0.01157187856733799,2.1763548851013184,4.386459513301514,0.003238860983401537,0.3038116991519928,-1.5829981009112757,0.0,-0.010576313361525536,0.8638647198677063,-0.0,-0.0038527250289916992,0.7985220551490784,-0.0008197520510293543,0.015270773321390152
890.0,779.0,3.7561,0.128,9.1663,-0.0377,-0.0875,-0.1188,-1.6577888927855433,-0.12683217227458954,2.3919992446899414,-1.7030692100524902,0.009525494650006294,2.2294111251831055,4.3864428240009765,0.0018502258462831378,0.2896903455257416,-1.5829699675189417,0.0,-0.00829147920012474,0.8639097809791565,-0.0,0.005177768878638744,0.7985906600952148,-0.0002811191079672426,-0.0007075602188706398
890.0,779.0,3.7561,0.128,9.1663,-0.0377,-0.0875,-0.1188,-1.6588999233641566,-0.14784960448741913,2.3876376152038574,-1.7030608654022217,0.0025577410124242306,2.2034823894500732,4.386491461391113,0.0005580040160566568,0.29878073930740356,-1.5829418341266077,0.0,-0.009000297635793686,0.8639175891876221,-0.0,-0.015514105558395386,0.7985420227050781,-0.00013257093087304384,-0.010883396491408348
890.0,779.0,3.7561,0.128,9.1663,-0.0377,-0.0875,-0.1188,-1.6600667438902796,-0.16069799661636353,2.4000778198242188,-1.7030448913574219,0.00048250335385091603,2.1768226623535156,4.3864709573933105,0.0001059219503076747,0.30761367082595825,-1.5829618612872522,0.0,-0.021773584187030792,0.8639293313026428,-0.0,0.0006662313244305551,0.7985178828239441,-0.00018711850862018764,0.03352125734090805
890.0,779.0,3.7561,0.128,9.1663,-0.0377,-0.0875,-0.1188,-1.6612817249693812,-0.14878815412521362,2.365415096282959,-1.703013300895691,0.005968911107629538,2.151665687561035,4.386522932643555,0.003010464832186699,0.3132537603378296,-1.5829418341266077,0.0,-0.017432982102036476,0.8639016151428223,-0.0,-0.010301358997821808,0.7985223531723022,-0.00022082932991907,-0.0029268022626638412
890.0,779.0,3.7561,0.128,9.1663,-0.0377,-0.0875,-0.1188,-1.6623560390868128,-0.11926832050085068,2.4499306678771973,-1.7029979228973389,0.011903704144060612,2.2358789443969727,4.38652674734082,0.007947423495352268,0.2991959750652313,-1.5829818884478968,0.0,-0.013210064731538296,0.8638771176338196,-0.0,-7.330300286412239e-05,0.7985059022903442,-0.0001179840910481289,-0.07322800904512405
890.0,779.0,3.7561,0.128,9.1663,-0.0377,-0.0875,-0.1188,-1.6634351215758265,-0.11783715337514877,2.443458318710327,-1.7028568983078003,0.009358522482216358,2.1697492599487305,4.386594458217285,0.006577535532414913,0.3048593997955322,-1.5829985777484339,0.0,-0.008095087483525276,0.8639057278633118,-0.0,-0.001116577535867691,0.7985543608665466,-7.528451106963985e-08,-0.047335296869277954
890.0,779.0,3.7561,0.128,9.1663,-0.0377,-0.0875,-0.1188,-1.6644417248167933,-0.14064921438694,2.4406468868255615,-1.7028733491897583,0.0009956626454368234,2.2571358680725098,4.386591120357178,0.0009172232821583748,0.3108423352241516,-1.5829780737506312,0.0,-0.017413903027772903,0.8639016151428223,-0.0,-0.01033996045589447,0.7985420227050781,-2.4391224276605877e-15,-0.011765419505536556
802.0,752.0,4.9095,-0.0981,9.2363,-0.0455,-0.1217,-0.1191,-1.6655451260008753,-0.15355443954467773,2.4447031021118164,-1.7028008699417114,-0.001731015625409782,2.2096571922302246,4.386566324824951,-1.988803705899045e-05,0.3185187876224518,-1.5829780737506312,0.0,-0.010243449360132217,0.8638166785240173,-0.0,-0.014965299516916275,0.7985621690750122,-7.902446934665143e-23,0.01593445986509323
802.0,752.0,4.9095,-0.0981,9.2363,-0.0455,-0.1217,-0.1191,-1.6666518650450648,-0.14068835973739624,2.4001593589782715,-1.7027523517608643,0.0060027283616364,2.229339599609375,4.386695547694824,0.0014879372902214527,0.3163567781448364,-1.5829575697528284,0.0,-0.013823205605149269,0.8638771176338196,-0.0,-0.02849455364048481,0.79850172996521,-2.560292335695492e-30,-0.001031101681292057
802.0,752.0,4.9095,-0.0981,9.2363,-0.0455,-0.1217,-0.1191,-1.6675979099669398,-0.11633336544036865,2.478879928588867,-1.7026808261871338,0.01244160532951355,2.2005441188812256,4.386687441463135,0.007581840734928846,0.3151051104068756,-1.5830023924456995,0.0,-0.01005897019058466,0.8638492226600647,-0.0,-0.025731274858117104,0.7985543608665466,-0.00024878900148905814,-0.041521601378917694
802.0,752.0,4.9095,-0.0981,9.2363,-0.0455,-0.1217,-0.1191,-1.6686016521849574,-0.10610784590244293,2.510812759399414,-1.7025803327560425,0.012910881079733372,2.2534172534942627,4.386726542110107,0.008617248386144638,0.3261837959289551,-1.58299428621401,0.0,-0.007054207846522331,0.8638730645179749,-0.0,-0.01899343729019165,0.7985382676124573,-1.3623865697809379e-06,0.029718438163399696
802.0,752.0,4.9095,-0.0981,9.2363,-0.0455,-0.1217,-0.1191,-1.669516225854391,-0.11570519953966141,2.517374038696289,-1.7025490999221802,0.004326328169554472,2.2474327087402344,4.386790915126465,0.003297265153378248,0.3254292905330658,-1.582949463521139,0.0,-0.003093476640060544,0.8639016151428223,-0.0,-0.019783135503530502,0.798590362071991,-4.4139591612833706e-14,0.029341865330934525
802.0,752.0,4.9095,-0.0981,9.2363,-0.0455,-0.1217,-0.1191,-1.670459886590475,-0.12919411063194275,2.4972023963928223,-1.7025566101074219,4.411478130350588e-06,2.230069160461426,4.386730356807373,0.000408210267778486,0.3070221543312073,-1.5829618612872522,0.0,-0.009504863992333412,0.8639365434646606,-0.0,-0.014944532886147499,0.7985497713088989,-1.4300666379786486e-21,-0.04213264212012291
802.0,752.0,4.9095,-0.0981,9.2363,-0.0455,-0.1217,-0.1191,-1.6713301144041957,-0.1250990629196167,2.4815568923950195,-1.7025326490402222,0.000537077896296978,2.2466883659362793,4.386795206660889,0.000423758989199996,0.3224722743034363,-1.5829618612872522,0.0,-0.013972658663988113,0.863913357257843,-0.0,-0.017917200922966003,0.7985506057739258,-4.6332349450428934e-29,0.03657379373908043
802.0,752.0,4.9095,-0.0981,9.2363,-0.0455,-0.1217,-0.1191,-1.6722737751402796,-0.10250931978225708,2.565922260284424,-1.7024725675582886,0.007207300513982773,2.259681224822998,4.386859102840088,0.004985633306205273,0.32754141092300415,-1.5829861799823206,0.0,-0.02391813136637211,0.8638565540313721,-0.0,-0.00565964262932539,0.798534095287323,-0.00012820996926166117,-0.003539789468050003
802.0,752.0,4.9095,-0.0981,9.2363,-0.0455,-0.1217,-0.1191,-1.6731044254698695,-0.0933988094329834,2.5459821224212646,-1.702420711517334,0.010635335929691792,2.2328107357025146,4.386894388789795,0.01034063845872879,0.3301199674606323,-1.58299428621401,0.0,-0.0010628881864249706,0.863836944103241,-0.0,-0.005904472433030605,0.7985864877700806,-5.944481927144807e-06,0.023628070950508118
802.0,752.0,4.9095,-0.0981,9.2363,-0.0455,-0.1217,-0.1191,-1.6738673649229945,-0.09870206564664841,2.5484414100646973,-1.702392816543579,0.006582572124898434,2.2576234340667725,4.386954947108887,0.010852324776351452,0.3238775134086609,-1.5829985777484339,0.0,-0.010369495488703251,0.863905668258667,-0.0,-0.011164147406816483,0.7985420227050781,-1.9259367592481397e-13,-0.028235651552677155
802.0,752.0,4.9095,-0.0981,9.2363,-0.0455,-0.1217,-0.1191,-1.674711366693014,-0.10879697650671005,2.499932289123535,-1.7023849487304688,0.0016960535431280732,2.272050619125366,4.38703887044873,0.007782140746712685,0.3284621834754944,-1.5829780737506312,0.0,-0.0050570047460496426,0.8638689517974854,-0.0,-0.019229471683502197,0.7985502481460571,-6.239789694870098e-21,0.018054911866784096
819.0,673.0,5.0991,-0.3332,8.3731,-0.0556,-0.1074,-0.1164,-1.6756254635252894,-0.104240283370018,2.4920763969421387,-1.702377200126648,2.245278615808921e-11,2.2803611755371094,4.387139006251953,0.008968939073383808,0.32333385944366455,-1.5829618612872522,0.0,-0.0115257753059268,0.8639016151428223,-0.0,-0.008600120432674885,0.7985585331916809,-2.712250841414991e-30,0.0335535928606987
819.0,673.0,5.0991,-0.3332,8.3731,-0.0556,-0.1074,-0.1164,-1.6763960323729457,-0.08726769685745239,2.5668399333953857,-1.702272653579712,0.004559412598609924,2.2342193126678467,4.38725916921582,0.01713677868247032,0.3280182182788849,-1.5829904715167444,0.0,-0.017191598191857338,0.8638937473297119,-0.0,-0.015532417222857475,0.7985502481460571,-8.787348730073465e-38,-0.0065909577533602715
819.0,673.0,5.0991,-0.3332,8.3731,-0.0556,-0.1074,-0.1164,-1.6770674190916957,-0.07732271403074265,2.568958282470703,-1.70231294631958,0.006995955482125282,2.267007350921631,4.387410326594971,0.03244588524103165,0.3276444971561432,-1.5829451719867151,0.0,-0.016728652641177177,0.8638405203819275,-0.0,-0.006110791116952896,0.7985502481460571,-2.802596928649634e-45,0.004631214775145054
819.0,673.0,5.0991,-0.3332,8.3731,-0.0556,-0.1074,-0.1164,-1.6777306995787562,-0.0802142396569252,2.5514655113220215,-1.702280879020691,0.003443182213231921,2.2371292114257812,4.387762709254883,0.0580005943775177,0.34784114360809326,-1.5829618612872522,0.0,-0.015623445622622967,0.8638166785240173,-0.0,-0.025872167199850082,0.7986271381378174,0.0,-0.009498782455921173
819.0,673.0,5.0991,-0.3332,8.3731,-0.0556,-0.1074,-0.1164,-1.6784025631346644,-0.09247797727584839,2.526679515838623,-1.702232837677002,-0.000557757681235671,2.259819269180298,4.388435526485107,0.10180170834064484,0.3718223571777344,-1.5829818884478968,0.0,-0.012271039187908173,0.8638813495635986,-0.0,-0.026868615299463272,0.7985783219337463,6.374248187057674e-05,-0.008524300530552864
819.0,673.0,5.0991,-0.3332,8.3731,-0.0556,-0.1074,-0.1164,-1.6791416607298792,-0.09956244379281998,2.5503129959106445,-1.702280879020691,-0.0004574522899929434,2.2698512077331543,4.389495535487793,0.13992151618003845,0.384365439414978,-1.5829780737506312,0.0,-0.017917614430189133,0.8638813495635986,-0.0,-0.014479471370577812,0.7985461354255676,7.366470526903868e-05,0.03862980380654335
819.0,673.0,5.0991,-0.3332,8.3731,-0.0556,-0.1074,-0.1164,-1.6799046001830042,-0.0928942933678627,2.580376386642456,-1.7022125720977783,0.00446931691840291,2.219566822052002,4.390739126796387,0.16582484543323517,0.3918064832687378,-1.5829904715167444,0.0,-0.0041614556685090065,0.8639252781867981,-0.0,-0.03676662594079971,0.7985783219337463,1.3675786059152983e-09,0.041792791336774826
819.0,673.0,5.0991,-0.3332,8.3731,-0.0556,-0.1074,-0.1164,-1.6806484661498011,-0.08527422696352005,2.5563390254974365,-1.7021771669387817,0.007653951644897461,2.2846198081970215,4.392315073604248,0.21720845997333527,0.4117661714553833,-1.58299428621401,0.0,-0.005657800007611513,0.8638245463371277,-0.0,-0.011547684669494629,0.7985457181930542,4.430781701483962e-17,-0.03609312325716019
819.0,673.0,5.0991,-0.3332,8.3731,-0.0556,-0.1074,-0.1164,-1.6813751659789027,-0.08676102012395859,2.5622718334198,-1.7021771669387817,0.004347548820078373,2.2050089836120605,4.394158526057861,0.24166257679462433,0.43314898014068604,-1.5829618612872522,0.0,-0.022910427302122116,0.8638689517974854,-0.0,-0.022897619754076004,0.7985703945159912,1.4355169118938395e-24,-0.035442814230918884
