ramyac6/ROB537/final_project/csv/good/good_182.csv
tof_0,tof_1,accelx,accely,accelz,gyrox,gyroy,gyroz,shoulder_lift_joint_position,shoulder_lift_joint_velocity,shoulder_lift_joint_effort,elbow_joint_position,elbow_joint_velocity,elbow_joint_effort,wrist_1_joint_position,wrist_1_joint_velocity,wrist_1_joint_effort,wrist_2_joint_position,wrist_2_joint_velocity,wrist_2_joint_effort,wrist_3_joint_position,wrist_3_joint_velocity,wrist_3_joint_effort,shoulder_pan_joint_position,shoulder_pan_joint_velocity,shoulder_pan_joint_effort
922.0,939.0,1.614,0.6802,9.3589,-0.0386,0.026,-0.1223,-1.757388254205221,0.0,2.7879085540771484,-1.8684827089309692,-0.0,1.980668067932129,4.921880382090368,-0.0,0.2894936501979828,-1.6520665327655237,-0.0,-0.002565464237704873,0.7881277203559875,0.0,-0.012766038998961449,0.7987784147262573,0.0,0.019351555034518242
922.0,939.0,1.614,0.6802,9.3589,-0.0386,0.026,-0.1223,-1.7573920689024867,0.0,2.776052951812744,-1.8684662580490112,-0.0,1.9900294542312622,4.921860369830885,-0.0,0.2766937017440796,-1.6520827452289026,-0.0,0.0037627127021551132,0.7881481051445007,0.0,-0.000990011147223413,0.7988103628158569,0.0,0.06745646893978119
922.0,939.0,1.614,0.6802,9.3589,-0.0386,0.026,-0.1223,-1.7573677502074183,0.0,2.7870655059814453,-1.8685511350631714,-0.0,1.966152310371399,4.921856391220846,-0.0,0.29943346977233887,-1.652062718068258,-0.0,-0.002351084491237998,0.7881317734718323,0.0,-0.009455343708395958,0.7987625002861023,0.0,0.012692434713244438
922.0,939.0,1.614,0.6802,9.3589,-0.0386,0.026,-0.1223,-1.7573520145811976,0.0,2.7934346199035645,-1.868546962738037,-0.0,1.9582433700561523,4.921864333539762,-0.0,0.2887391746044159,-1.652062718068258,-0.0,-0.0072051589377224445,0.7880997657775879,0.0,0.006732885260134935,0.7987703084945679,0.0,-0.042463645339012146
922.0,939.0,1.614,0.6802,9.3589,-0.0386,0.026,-0.1223,-1.7573520145811976,0.0,2.7807412147521973,-1.868485927581787,-0.0,1.9835340976715088,4.921836542874136,-0.0,0.3030617833137512,-1.6520784536944788,-0.0,-0.004675926640629768,0.7881520986557007,0.0,-0.00438162125647068,0.7987983226776123,0.0,-0.014930637553334236
922.0,939.0,1.614,0.6802,9.3589,-0.0386,0.026,-0.1223,-1.7574039898314417,0.0,2.7908263206481934,-1.8685221672058105,-0.0,1.947363018989563,4.92182822802619,-0.0,0.2893317639827728,-1.6520708242999476,-0.0,-0.0026537165977060795,0.7881357669830322,0.0,0.0032866420224308968,0.7987784147262573,0.0,-0.019978787750005722
922.0,939.0,1.614,0.6802,9.3589,-0.0386,0.026,-0.1223,-1.7573920689024867,0.0,2.781507968902588,-1.8685179948806763,-0.0,1.9608148336410522,4.921840506583013,-0.0,0.29942160844802856,-1.6520984808551233,-0.0,-0.006016181781888008,0.7881317138671875,0.0,0.011505582369863987,0.7987342476844788,0.0,-0.018803048878908157
907.0,913.0,1.5781,0.7011,9.4511,-0.0464,0.022,-0.1199,-1.7573958835997523,0.0,2.8102426528930664,-1.8684662580490112,-0.0,1.984259843826294,4.921820285707273,-0.0,0.28543975949287415,-1.6520865599261683,-0.0,0.004414904862642288,0.788123607635498,0.0,0.008475528098642826,0.7987903952598572,0.0,0.005453296937048435
907.0,913.0,1.5781,0.7011,9.4511,-0.0464,0.022,-0.1199,-1.7573963604369105,0.0,2.7657384872436523,-1.8685023784637451,-0.0,1.9555407762527466,4.9218365279729746,-0.0,0.29602497816085815,-1.652062718068258,-0.0,0.005556260235607624,0.7880716919898987,0.0,0.0016725240275263786,0.7987903952598572,0.0,-0.028471413999795914
907.0,913.0,1.5781,0.7011,9.4511,-0.0464,0.022,-0.1199,-1.7573963604369105,0.0,2.798135757446289,-1.868505597114563,-0.0,1.9751794338226318,4.921840491681852,-0.0,0.2818603515625,-1.6521104017840784,-0.0,-0.0068059260956943035,0.7880517244338989,0.0,-0.007156325504183769,0.7988022565841675,0.0,0.04541490972042084
907.0,913.0,1.5781,0.7011,9.4511,-0.0464,0.022,-0.1199,-1.7573920689024867,0.0,2.805617332458496,-1.8685551881790161,-0.0,1.9763284921646118,4.921848538308897,-0.0,0.30665501952171326,-1.652050797139303,-0.0,0.0050910040736198425,0.7880915999412537,0.0,0.0026053895708173513,0.7987382411956787,0.0,0.03175177797675133
907.0,913.0,1.5781,0.7011,9.4511,-0.0464,0.022,-0.1199,-1.7574082813658656,0.0,2.7489938735961914,-1.868505597114563,-0.0,1.9970333576202393,4.92184046187953,-0.0,0.28765442967414856,-1.6520746389972132,-0.0,-0.00030686846002936363,0.788055419921875,0.0,-0.011795060709118843,0.7987663745880127,0.0,0.00440698117017746
907.0,913.0,1.5781,0.7011,9.4511,-0.0464,0.022,-0.1199,-1.7574082813658656,0.0,2.7632367610931396,-1.8684744834899902,-0.0,1.9986510276794434,4.921852412610807,-0.0,0.29181137681007385,-1.6520946661578577,-0.0,-0.0009364234283566475,0.788084089756012,0.0,0.00869661569595337,0.7988103628158569,0.0,-0.008581267669796944
907.0,913.0,1.5781,0.7011,9.4511,-0.0464,0.022,-0.1199,-1.7573801479735316,0.0,2.813119411468506,-1.8684983253479004,-0.0,1.974111795425415,4.921840491681852,-0.0,0.2909284830093384,-1.6520746389972132,-0.0,-0.010971351526677608,0.788075864315033,0.0,-0.005659222602844238,0.7987623810768127,0.0,-0.02848745323717594
907.0,913.0,1.5781,0.7011,9.4511,-0.0464,0.022,-0.1199,-1.7572952709593714,0.0,2.7765116691589355,-1.8684818744659424,-0.0,1.9764070510864258,4.921848538308897,-0.0,0.29485490918159485,-1.6520746389972132,-0.0,0.005121199414134026,0.788123607635498,0.0,-0.00143528007902205,0.7987864017486572,0.0,0.0009790528565645218
907.0,913.0,1.5781,0.7011,9.4511,-0.0464,0.022,-0.1199,-1.7573839626707972,0.0,2.735919952392578,-1.8684941530227661,-0.0,1.9713345766067505,4.921836513071813,-0.0,0.2901323437690735,-1.6520903746234339,-0.0,-0.0068863192573189735,0.7880963087081909,0.0,-0.017037034034729004,0.7987623810768127,0.0,-0.03921738266944885
907.0,913.0,1.5781,0.7011,9.4511,-0.0464,0.022,-0.1199,-1.7573920689024867,0.0,2.786836624145508,-1.8684899806976318,-0.0,1.9507354497909546,4.921836513071813,-0.0,0.28923022747039795,-1.6521146933185022,-0.0,-0.004173920955508947,0.788103461265564,0.0,-0.006753765512257814,0.7988103628158569,0.0,0.0033171912655234337
907.0,913.0,1.5781,0.7011,9.4511,-0.0464,0.022,-0.1199,-1.7573520145811976,0.0,2.7884387969970703,-1.868453860282898,-0.0,1.9728951454162598,4.921832534461775,-0.0,0.2946682274341583,-1.6520546118365687,-0.0,0.002618071623146534,0.7880759239196777,0.0,0.003778391517698765,0.7987903356552124,0.0,0.01206151768565178
907.0,913.0,1.5781,0.7011,9.4511,-0.0464,0.022,-0.1199,-1.7573839626707972,0.0,2.776716470718384,-1.8685179948806763,-0.0,1.9779291152954102,4.921820255904951,-0.0,0.2884253263473511,-1.6520264784442347,-0.0,-0.0037126056849956512,0.7880677580833435,0.0,0.0017398013733327389,0.7987463474273682,0.0,0.006519084796309471
907.0,913.0,1.5781,0.7011,9.4511,-0.0464,0.022,-0.1199,-1.7574330768980921,0.0,2.7989845275878906,-1.8685024976730347,-0.0,1.9858322143554688,4.921828242927351,-0.0,0.2859313189983368,-1.6520589033709925,-0.0,0.009072261862456799,0.7881194353103638,0.0,-0.01440968457609415,0.7987262606620789,0.0,-0.0277293361723423
907.0,913.0,1.5781,0.7011,9.4511,-0.0464,0.022,-0.1199,-1.7573920689024867,0.0,2.791618824005127,-1.8685015439987183,-0.0,1.9649659395217896,4.921892154007711,-0.0,0.28899478912353516,-1.6520946661578577,-0.0,0.0047338674776256084,0.7880997657775879,0.0,-0.005746255628764629,0.7987743616104126,0.0,0.04455734044313431
940.0,940.0,1.672,0.7268,9.1394,-0.036,0.0202,-0.1222,-1.7573439083495082,0.0,2.806978225708008,-1.8684983253479004,-0.0,1.9558088779449463,4.9218603549297235,-0.0,0.2929726243019104,-1.6520231405841272,-0.0,-0.001929132267832756,0.788148045539856,0.0,-0.009633984416723251,0.7987462878227234,0.0,0.042115770280361176
940.0,940.0,1.672,0.7268,9.1394,-0.036,0.0202,-0.1222,-1.7573677502074183,0.0,2.786149501800537,-1.8685139417648315,-0.0,1.946964979171753,4.921872305661001,-0.0,0.2988322675228119,-1.6520903746234339,-0.0,-0.01037655957043171,0.7880874276161194,0.0,-0.010475861839950085,0.7987664341926575,0.0,-0.003926392178982496
940.0,940.0,1.672,0.7268,9.1394,-0.036,0.0202,-0.1222,-1.7573195896544398,0.0,2.7620835304260254,-1.8685263395309448,-0.0,1.9667754173278809,4.921868312149801,-0.0,0.28626471757888794,-1.652130428944723,-0.0,0.005238244775682688,0.7881882190704346,0.0,-0.004489208105951548,0.7987343072891235,0.0,0.010974738746881485
940.0,940.0,1.672,0.7268,9.1394,-0.036,0.0202,-0.1222,-1.757360120812887,0.0,2.743284225463867,-1.868477702140808,-0.0,1.9827685356140137,4.921884360700407,-0.0,0.298814058303833,-1.6520946661578577,-0.0,0.004879278130829334,0.7881239056587219,0.0,-0.002239672001451254,0.7987824082374573,0.0,0.028445441275835037
940.0,940.0,1.672,0.7268,9.1394,-0.036,0.0202,-0.1222,-1.7573920689024867,0.0,2.7748637199401855,-1.8684983253479004,-0.0,1.9447022676467896,4.921844470291891,-0.0,0.2930969297885895,-1.6520784536944788,-0.0,-0.007680114358663559,0.788123607635498,0.0,0.009708007797598839,0.7987663745880127,0.0,-0.01005964819341898
940.0,940.0,1.672,0.7268,9.1394,-0.036,0.0202,-0.1222,-1.7573677502074183,0.0,2.773684024810791,-1.868485927581787,-0.0,1.9768664836883545,4.921856391220846,-0.0,0.2947043180465698,-1.6520383993731897,-0.0,-0.011764063499867916,0.7880957722663879,0.0,-0.005264999344944954,0.7987505197525024,0.0,-0.024976544082164764
940.0,940.0,1.672,0.7268,9.1394,-0.036,0.0202,-0.1222,-1.7574120960631312,0.0,2.777475357055664,-1.8684498071670532,-0.0,1.982245922088623,4.921820255904951,-0.0,0.30363038182258606,-1.6520784536944788,-0.0,0.009138228371739388,0.7881641387939453,0.0,0.005258947145193815,0.7987663745880127,0.0,0.002832603408023715
940.0,940.0,1.672,0.7268,9.1394,-0.036,0.0202,-0.1222,-1.7573720417418421,0.0,2.8105249404907227,-1.8685344457626343,-0.0,1.9809998273849487,4.921868312149801,-0.0,0.29880523681640625,-1.6521146933185022,-0.0,-0.004364092834293842,0.7881481051445007,0.0,-0.010453064925968647,0.7987824082374573,0.0,0.006073147989809513
940.0,940.0,1.672,0.7268,9.1394,-0.036,0.0202,-0.1222,-1.7573920689024867,0.0,2.8114452362060547,-1.868546962738037,-0.0,1.9901907444000244,4.921876299172201,-0.0,0.2954510748386383,-1.6520422140704554,-0.0,-0.0035273986868560314,0.7880800366401672,0.0,0.00600490951910615,0.7987782955169678,0.0,0.03124643862247467
940.0,940.0,1.672,0.7268,9.1394,-0.036,0.0202,-0.1222,-1.757360120812887,0.0,2.7831974029541016,-1.8685147762298584,-0.0,1.940399169921875,4.921832310944357,-0.0,0.29362016916275024,-1.6520827452289026,-0.0,-0.006080775987356901,0.7880997657775879,0.0,-0.00602259486913681,0.7987823486328125,0.0,0.04050873592495918
940.0,940.0,1.672,0.7268,9.1394,-0.036,0.0202,-0.1222,-1.757364412347311,0.0,2.7722558975219727,-1.8684899806976318,-0.0,1.9791288375854492,4.921812328487196,-0.0,0.2993980050086975,-1.6520946661578577,-0.0,0.0027691025752574205,0.788123607635498,0.0,-0.00295398966409266,0.7987703084945679,0.0,0.02771824598312378
940.0,940.0,1.672,0.7268,9.1394,-0.036,0.0202,-0.1222,-1.7573477230467738,0.0,2.817556858062744,-1.8685263395309448,-0.0,2.0124385356903076,4.921884226589956,-0.0,0.29871666431427,-1.6521065870868128,-0.0,-0.0038718124851584435,0.7880915999412537,0.0,-0.009032516740262508,0.7987784147262573,0.0,-0.01976502314209938
940.0,940.0,1.672,0.7268,9.1394,-0.036,0.0202,-0.1222,-1.7573520145811976,0.0,2.746155023574829,-1.8685263395309448,-0.0,1.9953504800796509,4.921828242927351,-0.0,0.28640228509902954,-1.6520784536944788,-0.0,-0.005581403151154518,0.7880880832672119,0.0,1.2699398212134838e-05,0.7987382411956787,0.0,-0.013459669426083565
942.0,930.0,1.5685,0.7083,9.4343,-0.0376,0.0289,-0.1234,-1.7573276958861292,0.0,2.7422609329223633,-1.8685345649719238,-0.0,1.9937866926193237,4.921896460443296,-0.0,0.2887663245201111,-1.6520546118365687,-0.0,0.011163869872689247,0.7880994081497192,0.0,0.0008815282490104437,0.7987903952598572,0.0,0.018680516630411148
942.0,930.0,1.5685,0.7083,9.4343,-0.0376,0.0289,-0.1234,-1.757388254205221,0.0,2.8328986167907715,-1.8685179948806763,-0.0,2.0076746940612793,4.921824249416151,-0.0,0.28545132279396057,-1.652102295552389,-0.0,-0.008891266770660877,0.788084089756012,0.0,-0.008841218426823616,0.7987703084945679,0.0,-0.023610880598425865
942.0,930.0,1.5685,0.7083,9.4343,-0.0376,0.0289,-0.1234,-1.7573677502074183,0.0,2.7973852157592773,-1.8684735298156738,-0.0,1.981956958770752,4.921896281629362,-0.0,0.29706305265426636,-1.6520188490497034,-0.0,-0.0002093676885124296,0.7880800366401672,0.0,-0.003662737552076578,0.7987663745880127,0.0,-0.038072340190410614
942.0,930.0,1.5685,0.7083,9.4343,-0.0376,0.0289,-0.1234,-1.7573520145811976,0.0,2.767129421234131,-1.8684899806976318,-0.0,1.9656540155410767,4.921836483269491,-0.0,0.29418742656707764,-1.6521065870868128,-0.0,0.00047929270658642054,0.7881276607513428,0.0,-0.0019800877198576927,0.7987703084945679,0.0,0.010850783437490463
942.0,930.0,1.5685,0.7083,9.4343,-0.0376,0.0289,-0.1234,-1.757376333276266,0.0,2.765265941619873,-1.868530511856079,-0.0,1.9887020587921143,4.921832310944357,-0.0,0.2952200770378113,-1.6520746389972132,-0.0,-0.012171057052910328,0.788111686706543,0.0,-0.007907237857580185,0.7987743616104126,0.0,-0.011344993487000465
942.0,930.0,1.5685,0.7083,9.4343,-0.0376,0.0289,-0.1234,-1.757376333276266,0.0,2.790285587310791,-1.8685139417648315,-0.0,1.9985878467559814,4.921836483269491,-0.0,0.30438631772994995,-1.652062718068258,-0.0,0.015632372349500656,0.7880637049674988,0.0,0.004037350416183472,0.7987824082374573,0.0,-0.014835074543952942
942.0,930.0,1.5685,0.7083,9.4343,-0.0376,0.0289,-0.1234,-1.7573958835997523,0.0,2.771171808242798,-1.8684827089309692,-0.0,1.977596402168274,4.921804788499632,-0.0,0.29968538880348206,-1.6520708242999476,-0.0,-0.008579542860388756,0.7880997657775879,0.0,0.00220330897718668,0.7987544536590576,0.0,-0.0011744601652026176
942.0,930.0,1.5685,0.7083,9.4343,-0.0376,0.0289,-0.1234,-1.7573720417418421,0.0,2.774362087249756,-1.8684743642807007,-0.0,1.9741206169128418,4.921840476780691,-0.0,0.304210364818573,-1.6520903746234339,-0.0,0.012910359539091587,0.7881317734718323,0.0,-0.011480440385639668,0.7987663745880127,0.0,-0.032189641147851944
942.0,930.0,1.5685,0.7083,9.4343,-0.0376,0.0289,-0.1234,-1.757376333276266,0.0,2.749772071838379,-1.868477702140808,-0.0,1.955864667892456,4.921860384732046,-0.0,0.2987293004989624,-1.6520746389972132,-0.0,0.001948192366398871,0.7880957126617432,0.0,-0.0072541143745183945,0.7987585067749023,0.0,0.018713954836130142
942.0,930.0,1.5685,0.7083,9.4343,-0.0376,0.0289,-0.1234,-1.7574249706664027,0.0,2.765756607055664,-1.8684983253479004,-0.0,1.9964776039123535,4.921844470291891,-0.0,0.3026883900165558,-1.6520589033709925,-0.0,0.0057487646117806435,0.7880800366401672,0.0,-0.0165896937251091,0.7987703680992126,0.0,0.01131395809352398
942.0,930.0,1.5685,0.7083,9.4343,-0.0376,0.0289,-0.1234,-1.7574006519713343,0.0,2.7978224754333496,-1.868477702140808,-0.0,1.9536464214324951,4.921848538308897,-0.0,0.2999250292778015,-1.6520546118365687,-0.0,-0.0025664973072707653,0.7881399393081665,0.0,-0.0050268955528736115,0.7987385392189026,0.0,0.011449197307229042
942.0,930.0,1.5685,0.7083,9.4343,-0.0376,0.0289,-0.1234,-1.7574206791319789,0.0,2.767625331878662,-1.8684899806976318,-0.0,1.9343860149383545,4.921820255904951,-0.0,0.29981663823127747,-1.6520746389972132,-0.0,-0.0027805736754089594,0.7881037592887878,0.0,-0.00553595507517457,0.7987824082374573,0.0,-0.0002143029123544693
942.0,930.0,1.5685,0.7083,9.4343,-0.0376,0.0289,-0.1234,-1.7573801479735316,0.0,2.783930540084839,-1.8684899806976318,-0.0,1.9342591762542725,4.921840476780691,-0.0,0.3013186454772949,-1.6520708242999476,-0.0,-0.011687330901622772,0.7881481647491455,0.0,-0.0032253125682473183,0.7987303137779236,0.0,0.027543140575289726
942.0,930.0,1.5685,0.7083,9.4343,-0.0376,0.0289,-0.1234,-1.7574082813658656,0.0,2.815195083618164,-1.868505597114563,-0.0,1.976434350013733,4.921864318638601,-0.0,0.29774919152259827,-1.6520546118365687,-0.0,-0.008197121322154999,0.7881481051445007,0.0,0.0008396519697271287,0.7987425327301025,0.0,0.009241514839231968
931.0,892.0,1.6678,0.7328,9.2907,-0.0356,0.0246,-0.1242,-1.7573839626707972,0.0,2.7815487384796143,-1.8685139417648315,-0.0,1.9418737888336182,4.921864452749052,-0.0,0.29811692237854004,-1.6520708242999476,-0.0,-0.0043857516720891,0.7880598902702332,0.0,-0.00632439274340868,0.7987942695617676,0.0,-0.010206268168985844
931.0,892.0,1.6678,0.7328,9.2907,-0.0356,0.0246,-0.1242,-1.757360120812887,0.0,2.750185012817383,-1.868477702140808,-0.0,1.9469234943389893,4.921832310944357,-0.0,0.30912625789642334,-1.6520865599261683,-0.0,0.0041113607585430145,0.7881194949150085,0.0,0.003117951564490795,0.7987663745880127,0.0,0.00451362831518054
931.0,892.0,1.6678,0.7328,9.2907,-0.0356,0.0246,-0.1242,-1.7573958835997523,0.0,2.7650907039642334,-1.8685107231140137,-0.0,1.9635210037231445,4.921848553210058,-0.0,0.3024521470069885,-1.6520946661578577,-0.0,-0.0016013003187254071,0.7881357669830322,0.0,-0.0028730537742376328,0.7987663745880127,0.0,-0.007286521606147289
931.0,892.0,1.6678,0.7328,9.2907,-0.0356,0.0246,-0.1242,-1.7574039898314417,0.0,2.789691686630249,-1.8684579133987427,-0.0,1.9650098085403442,4.921844470291891,-0.0,0.3016933500766754,-1.6520465056048792,-0.0,-0.0033613513223826885,0.7881035208702087,0.0,0.009663746692240238,0.7987423539161682,0.0,0.008282173424959183
931.0,892.0,1.6678,0.7328,9.2907,-0.0356,0.0246,-0.1242,-1.757388254205221,0.0,2.757535934448242,-1.8685221672058105,-0.0,1.9972556829452515,4.921848434000768,-0.0,0.2965089976787567,-1.6520746389972132,-0.0,0.006465497426688671,0.7880800366401672,0.0,-0.009137747809290886,0.7987464666366577,0.0,0.018244843930006027
931.0,892.0,1.6678,0.7328,9.2907,-0.0356,0.0246,-0.1242,-1.7573839626707972,0.0,2.79683256149292,-1.8684693574905396,-0.0,1.9496681690216064,4.921856406122007,-0.0,0.297664076089859,-1.6520503203021448,-0.0,-0.000595747958868742,0.788059651851654,0.0,-0.007945116609334946,0.7987303733825684,0.0,0.009125318378210068
931.0,892.0,1.6678,0.7328,9.2907,-0.0356,0.0246,-0.1242,-1.7573400936522425,0.0,2.7609500885009766,-1.8685097694396973,-0.0,1.9415556192398071,4.921856391220846,-0.0,0.29558074474334717,-1.6520665327655237,-0.0,0.0020924354903399944,0.7881280183792114,0.0,-0.017243467271327972,0.7987343072891235,0.0,-0.013536514714360237
931.0,892.0,1.6678,0.7328,9.2907,-0.0356,0.0246,-0.1242,-1.7574001751341761,0.0,2.759390354156494,-1.8684933185577393,-0.0,1.9842751026153564,4.921864497452535,-0.0,0.29216665029525757,-1.6520827452289026,-0.0,-0.00023333242279477417,0.7881076335906982,0.0,0.000311410054564476,0.7987863421440125,0.0,-0.01117391511797905
931.0,892.0,1.6678,0.7328,9.2907,-0.0356,0.0246,-0.1242,-1.757376333276266,0.0,2.775573253631592,-1.8684735298156738,-0.0,2.00230073928833,4.9218685058648965,-0.0,0.29643628001213074,-1.652114216481344,-0.0,-0.0056833247654139996,0.7880963087081909,0.0,0.0016220513498410583,0.7987343072891235,0.0,-0.0076843430288136005
931.0,892.0,1.6678,0.7328,9.2907,-0.0356,0.0246,-0.1242,-1.7573596439757289,0.0,2.7631187438964844,-1.8685139417648315,-0.0,1.9619176387786865,4.9218763438756845,-0.0,0.2989599108695984,-1.652130428944723,-0.0,-0.0013049440458416939,0.7881157398223877,0.0,-0.012207793071866035,0.7987743616104126,0.0,0.01671907864511013
931.0,892.0,1.6678,0.7328,9.2907,-0.0356,0.0246,-0.1242,-1.7573358021178187,0.0,2.83284854888916,-1.8684941530227661,-0.0,1.9837329387664795,4.921836513071813,-0.0,0.2935539186000824,-1.6520708242999476,-0.0,-0.003243614686653018,0.788148045539856,0.0,-0.0073813796043396,0.7987663745880127,0.0,0.022909175604581833
931.0,892.0,1.6678,0.7328,9.2907,-0.0356,0.0246,-0.1242,-1.757360120812887,0.0,2.785449981689453,-1.8685221672058105,-0.0,2.0036818981170654,4.9218444404895685,-0.0,0.28691011667251587,-1.6520827452289026,-0.0,0.003134774975478649,0.7880800366401672,0.0,-0.013661698438227177,0.7987824082374573,0.0,0.004548304248601198
931.0,892.0,1.6678,0.7328,9.2907,-0.0356,0.0246,-0.1242,-1.7573720417418421,0.0,2.7823257446289062,-1.8684941530227661,-0.0,1.9584345817565918,4.921856406122007,-0.0,0.30087122321128845,-1.6520589033709925,-0.0,0.0008205017657019198,0.7880676984786987,0.0,-0.003963235300034285,0.7987703084945679,0.0,-0.029738938435912132
948.0,900.0,1.5835,0.7125,9.332,-0.0405,0.0302,-0.1188,-1.757432600060934,0.0,2.793121814727783,-1.8684579133987427,-0.0,1.9982969760894775,4.921856391220846,-0.0,0.2921399474143982,-1.6520708242999476,-0.0,-0.007722514681518078,0.7880319952964783,0.0,-0.000757108093239367,0.7987663745880127,0.0,0.015134270302951336
948.0,900.0,1.5835,0.7125,9.332,-0.0405,0.0302,-0.1188,-1.7573477230467738,0.0,2.7883152961730957,-1.8684693574905396,-0.0,1.980546474456787,4.92190449216918,-0.0,0.2967788577079773,-1.6520465056048792,-0.0,0.013056786730885506,0.7881481051445007,0.0,-0.0035450186114758253,0.7987502813339233,0.0,0.0046531339175999165
948.0,900.0,1.5835,0.7125,9.332,-0.0405,0.0302,-0.1188,-1.757331987420553,0.0,2.8135123252868652,-1.8684579133987427,-0.0,1.99857759475708,4.921892273217001,-0.0,0.29233360290527344,-1.6520665327655237,-0.0,-0.004507693462073803,0.7880880832672119,0.0,-0.0008840906084515154,0.7987982630729675,0.0,-0.0024642338976264
948.0,900.0,1.5835,0.7125,9.332,-0.0405,0.0302,-0.1188,-1.757360120812887,0.0,2.780745267868042,-1.8685139417648315,-0.0,1.979862928390503,4.92184046187953,-0.0,0.28803300857543945,-1.6520589033709925,-0.0,-0.002177138812839985,0.7880637049674988,0.0,-0.005939744412899017,0.7987303137779236,0.0,-0.01336878351867199
948.0,900.0,1.5835,0.7125,9.332,-0.0405,0.0302,-0.1188,-1.7573758564391078,0.0,2.78979754447937,-1.8684983253479004,-0.0,1.9572396278381348,4.921884420305052,-0.0,0.2942647933959961,-1.6520269552813929,-0.0,-0.003580516902729869,0.7881357669830322,0.0,0.0028705932199954987,0.7987703084945679,0.0,0.012696981430053711
948.0,900.0,1.5835,0.7125,9.332,-0.0405,0.0302,-0.1188,-1.7573796711363734,0.0,2.7815160751342773,-1.8685221672058105,-0.0,1.9421038627624512,4.921888249903478,-0.0,0.2900160253047943,-1.6520784536944788,-0.0,0.020138194784522057,0.7881076335906982,0.0,0.009850794449448586,0.7987663745880127,0.0,0.0020415140315890312
948.0,900.0,1.5835,0.7125,9.332,-0.0405,0.0302,-0.1188,-1.7573276958861292,0.0,2.754775047302246,-1.8685511350631714,-0.0,1.983520269393921,4.92188041189269,-0.0,0.2825762629508972,-1.6520865599261683,-0.0,-7.964321412146091e-05,0.7881640791893005,0.0,-0.0011282172054052353,0.7987942695617676,0.0,0.0056879641488194466
948.0,900.0,1.5835,0.7125,9.332,-0.0405,0.0302,-0.1188,-1.7573358021178187,0.0,2.777918577194214,-1.8685065507888794,-0.0,1.9834470748901367,4.921892213612356,-0.0,0.27925634384155273,-1.6520903746234339,-0.0,-0.008206992410123348,0.7881157994270325,0.0,-0.0012083675246685743,0.7987505197525024,0.0,0.036683324724435806
948.0,900.0,1.5835,0.7125,9.332,-0.0405,0.0302,-0.1188,-1.75734343151235,0.0,2.808913230895996,-1.8685511350631714,-0.0,1.9471435546875,4.921876328974523,-0.0,0.29338380694389343,-1.6520345846759241,-0.0,0.006315863691270351,0.7880357503890991,0.0,0.0002460808027535677,0.7987743616104126,0.0,-0.015375606715679169
948.0,900.0,1.5835,0.7125,9.332,-0.0405,0.0302,-0.1188,-1.757360120812887,0.0,2.7688491344451904,-1.8685386180877686,-0.0,2.0140810012817383,4.92188041189269,-0.0,0.2971443831920624,-1.652062718068258,-0.0,-0.004188092425465584,0.7880915999412537,0.0,0.0009703901596367359,0.7987623810768127,0.0,-0.017339400947093964
948.0,900.0,1.5835,0.7125,9.332,-0.0405,0.0302,-0.1188,-1.7573677502074183,0.0,2.7672019004821777,-1.868530511856079,-0.0,1.9517300128936768,4.921856391220846,-0.0,0.29671579599380493,-1.652062718068258,-0.0,0.0018920914735645056,0.7880554795265198,0.0,-0.014761035330593586,0.7987623810768127,0.0,0.03832539916038513
948.0,900.0,1.5835,0.7125,9.332,-0.0405,0.0302,-0.1188,-1.7574125729002894,0.0,2.8343701362609863,-1.868485927581787,-0.0,1.9659885168075562,4.921792688756742,-0.0,0.29657331109046936,-1.6520784536944788,-0.0,0.0027127894572913647,0.788063645362854,0.0,-0.00472333375364542,0.7987743616104126,0.0,-0.0015613132854923606
948.0,900.0,1.5835,0.7125,9.332,-0.0405,0.0302,-0.1188,-1.7573558292784632,0.0,2.8244290351867676,-1.8684983253479004,-0.0,1.958391547203064,4.921864482551374,-0.0,0.2909298837184906,-1.6520546118365687,-0.0,0.005866780877113342,0.7880915999412537,0.0,-0.010287774726748466,0.7987824082374573,0.0,-0.0032108710147440434
948.0,900.0,1.5835,0.7125,9.332,-0.0405,0.0302,-0.1188,-1.7573439083495082,0.0,2.7817249298095703,-1.8684827089309692,-0.0,1.993224859237671,4.921864482551374,-0.0,0.29092156887054443,-1.6520465056048792,-0.0,0.006923971232026815,0.7880517840385437,0.0,0.0004408998356666416,0.7987544536590576,0.0,-0.01421179249882698
945.0,933.0,1.6385,0.7316,9.277,-0.037,0.0254,-0.1223,-1.7574001751341761,0.0,2.801274299621582,-1.8685179948806763,-0.0,1.9712597131729126,4.921856391220846,-0.0,0.29884886741638184,-1.6520708242999476,-0.0,-0.008670318871736526,0.7880752086639404,0.0,-0.012304514646530151,0.7987465262413025,0.0,0.008042115718126297
945.0,933.0,1.6385,0.7316,9.277,-0.037,0.0254,-0.1223,-1.7573477230467738,0.0,2.7936336994171143,-1.8684539794921875,-0.0,1.9808253049850464,4.921864482551374,-0.0,0.30607202649116516,-1.6520746389972132,-0.0,0.0084332674741745,0.7880957126617432,0.0,0.006871981546282768,0.7987663745880127,0.0,0.0004181414842605591
945.0,933.0,1.6385,0.7316,9.277,-0.037,0.0254,-0.1223,-1.7573963604369105,0.0,2.7743492126464844,-1.868477702140808,-0.0,1.972981333732605,4.921824219613828,-0.0,0.28980034589767456,-1.652050797139303,-0.0,-0.0019395025447010994,0.7881600260734558,0.0,-0.010300670750439167,0.7988021969795227,0.0,0.0015016654506325722
945.0,933.0,1.6385,0.7316,9.277,-0.037,0.0254,-0.1223,-1.7573796711363734,0.0,2.7892937660217285,-1.8684579133987427,-0.0,1.944305419921875,4.921832459955969,-0.0,0.2914372682571411,-1.6520827452289026,-0.0,0.010178268887102604,0.7880915999412537,0.0,-0.008197961375117302,0.7987704873085022,0.0,-0.05480533093214035
945.0,933.0,1.6385,0.7316,9.277,-0.037,0.0254,-0.1223,-1.7573439083495082,0.0,2.7664289474487305,-1.868477702140808,-0.0,1.988447904586792,4.921888249903478,-0.0,0.2920193672180176,-1.6520541349994105,-0.0,-0.0032077543437480927,0.7880997657775879,0.0,0.00848247017711401,0.7987864017486572,0.0,0.009882131591439247
945.0,933.0,1.6385,0.7316,9.277,-0.037,0.0254,-0.1223,-1.7573839626707972,0.0,2.749645233154297,-1.8684498071670532,-0.0,1.9798989295959473,4.921832310944357,-0.0,0.29757750034332275,-1.6520465056048792,-0.0,-0.00015688082203269005,0.7881398797035217,0.0,-0.0006370882038027048,0.7987343072891235,0.0,-0.033271826803684235
945.0,933.0,1.6385,0.7316,9.277,-0.037,0.0254,-0.1223,-1.7574039898314417,0.0,2.838870048522949,-1.8684899806976318,-0.0,1.9806571006774902,4.921848553210058,-0.0,0.2974104583263397,-1.652050797139303,-0.0,-0.0038073179312050343,0.7881481051445007,0.0,0.010738780722022057,0.7987584471702576,0.0,-0.0064590685069561005
945.0,933.0,1.6385,0.7316,9.277,-0.037,0.0254,-0.1223,-1.7573839626707972,0.0,2.8024027347564697,-1.868462085723877,-0.0,1.936213493347168,4.92184046187953,-0.0,0.2846433222293854,-1.6520946661578577,-0.0,-0.012737279757857323,0.7880799174308777,0.0,-0.0016985801048576832,0.7987823486328125,0.0,-0.043523624539375305
945.0,933.0,1.6385,0.7316,9.277,-0.037,0.0254,-0.1223,-1.75734343151235,0.0,2.811307430267334,-1.868485927581787,-0.0,1.9386069774627686,4.921892243414678,-0.0,0.2938847839832306,-1.6520784536944788,-0.0,-0.0002476345398463309,0.788148045539856,0.0,0.0014339443296194077,0.7987584471702576,0.0,0.042973872274160385
945.0,933.0,1.6385,0.7316,9.277,-0.037,0.0254,-0.1223,-1.7573796711363734,0.0,2.788386344909668,-1.8684498071670532,-0.0,1.9870858192443848,4.921852382808485,-0.0,0.29902592301368713,-1.6520784536944788,-0.0,0.012296783737838268,0.7881236672401428,0.0,-0.009555445984005928,0.7987663745880127,0.0,-0.009298136457800865
945.0,933.0,1.6385,0.7316,9.277,-0.037,0.0254,-0.1223,-1.7573477230467738,0.0,2.7677271366119385,-1.8685179948806763,-0.0,1.9952218532562256,4.921852561622419,-0.0,0.2912411391735077,-1.6520865599261683,-0.0,0.004300884902477264,0.7881119847297668,0.0,0.004280951339751482,0.7987784147262573,0.0,0.00043649738654494286
945.0,933.0,1.6385,0.7316,9.277,-0.037,0.0254,-0.1223,-1.7574206791319789,0.0,2.7636842727661133,-1.8685427904129028,-0.0,1.9896785020828247,4.921848553210058,-0.0,0.29005706310272217,-1.6520665327655237,-0.0,-0.0027124290354549885,0.7880997657775879,0.0,-0.014134291559457779,0.7988101840019226,0.0,-0.010525685735046864
945.0,933.0,1.6385,0.7316,9.277,-0.037,0.0254,-0.1223,-1.757364412347311,0.0,2.75393009185791,-1.8685510158538818,-0.0,1.9575676918029785,4.921860399633207,-0.0,0.2977212965488434,-1.6521223227130335,-0.0,-0.0026595094241201878,0.7880676984786987,0.0,-0.009278126060962677,0.7987663745880127,0.0,-6.963266059756279e-05
927.0,923.0,1.6092,0.8339,9.3685,-0.0386,0.0345,-0.1258,-1.7573558292784632,0.0,2.752368927001953,-1.8685023784637451,-0.0,2.008815288543701,4.92186430373744,-0.0,0.2926687002182007,-1.6520589033709925,-0.0,-0.0005096001550555229,0.7880957126617432,0.0,-0.004753587767481804,0.7987544536590576,0.0,0.003428936004638672
927.0,923.0,1.6092,0.8339,9.3685,-0.0386,0.0345,-0.1258,-1.7573720417418421,0.0,2.767169952392578,-1.8685345649719238,-0.0,1.9385418891906738,4.921860399633207,-0.0,0.3076475262641907,-1.6520465056048792,-0.0,-0.009348352439701557,0.7880915999412537,0.0,-0.005659181624650955,0.7987505197525024,0.0,0.009550819173455238
927.0,923.0,1.6092,0.8339,9.3685,-0.0386,0.0345,-0.1258,-1.7574082813658656,0.0,2.7493388652801514,-1.8684983253479004,-0.0,1.9668097496032715,4.921872320562162,-0.0,0.29566097259521484,-1.6520903746234339,-0.0,0.00833351444453001,0.7880915403366089,0.0,-0.008509325794875622,0.7987784147262573,0.0,0.04010501503944397
927.0,923.0,1.6092,0.8339,9.3685,-0.0386,0.0345,-0.1258,-1.7573639355101527,0.0,2.764850616455078,-1.868453860282898,-0.0,1.9468035697937012,4.921888249903478,-0.0,0.29091548919677734,-1.652062718068258,-0.0,-0.0018163229105994105,0.7881357669830322,0.0,0.0005874261260032654,0.7987544536590576,0.0,-0.0010550834704190493
927.0,923.0,1.6092,0.8339,9.3685,-0.0386,0.0345,-0.1258,-1.7573558292784632,0.0,2.745223045349121,-1.8685181140899658,-0.0,2.000833034515381,4.921824219613828,-0.0,0.3011184632778168,-1.6520784536944788,-0.0,-0.003918658010661602,0.7881399393081665,0.0,-0.011218689382076263,0.7987942695617676,0.0,0.0013675568625330925
927.0,923.0,1.6092,0.8339,9.3685,-0.0386,0.0345,-0.1258,-1.7573677502074183,0.0,2.7574260234832764,-1.8685221672058105,-0.0,1.957083821296692,4.921868312149801,-0.0,0.2945477068424225,-1.6521065870868128,-0.0,-0.002266260329633951,0.7881317734718323,0.0,-0.009755397215485573,0.7987303733825684,0.0,0.040146443992853165
927.0,923.0,1.6092,0.8339,9.3685,-0.0386,0.0345,-0.1258,-1.7574001751341761,0.0,2.771188735961914,-1.8684539794921875,-0.0,1.9437754154205322,4.92184046187953,-0.0,0.2977427840232849,-1.652114216481344,-0.0,-0.0010530996369197965,0.7880679965019226,0.0,-0.0026848451234400272,0.7987543940544128,0.0,0.0020844130776822567
927.0,923.0,1.6092,0.8339,9.3685,-0.0386,0.0345,-0.1258,-1.7573639355101527,0.0,2.768353223800659,-1.868485927581787,-0.0,1.950743317604065,4.921812298684873,-0.0,0.2931278944015503,-1.6521380583392542,-0.0,-1.049888669513166e-05,0.7881317734718323,0.0,-0.004510511644184589,0.7987422943115234,0.0,0.009748444892466068
927.0,923.0,1.6092,0.8339,9.3685,-0.0386,0.0345,-0.1258,-1.757360120812887,0.0,2.7615246772766113,-1.868485927581787,-0.0,1.9552958011627197,4.921856391220846,-0.0,0.30189213156700134,-1.6520465056048792,-0.0,-0.001191523508168757,0.788084089756012,0.0,-0.006962294224649668,0.7987824082374573,0.0,0.013357658870518208
927.0,923.0,1.6092,0.8339,9.3685,-0.0386,0.0345,-0.1258,-1.7573520145811976,0.0,2.7786593437194824,-1.8685625791549683,-0.0,1.978318691253662,4.92182822802619,-0.0,0.29549935460090637,-1.6520708242999476,-0.0,-0.016637321561574936,0.7881037592887878,0.0,-0.0028263404965400696,0.7987383008003235,0.0,0.01513436809182167
927.0,923.0,1.6092,0.8339,9.3685,-0.0386,0.0345,-0.1258,-1.7573677502074183,0.0,2.7859601974487305,-1.8684941530227661,-0.0,1.9837791919708252,4.921844485193052,-0.0,0.2975102365016937,-1.6520903746234339,-0.0,-0.010312878526747227,0.7881076335906982,0.0,0.005536053329706192,0.7987385988235474,0.0,-0.049690812826156616
927.0,923.0,1.6092,0.8339,9.3685,-0.0386,0.0345,-0.1258,-1.7574125729002894,0.0,2.781367778778076,-1.8685263395309448,-0.0,2.0318210124969482,4.921832325845518,-0.0,0.293717622756958,-1.6520541349994105,-0.0,0.01036051381379366,0.7881317734718323,0.0,-0.0021206974051892757,0.7987544536590576,0.0,-0.0022227063309401274
927.0,923.0,1.6092,0.8339,9.3685,-0.0386,0.0345,-0.1258,-1.7573958835997523,0.0,2.8005807399749756,-1.868505597114563,-0.0,1.9903711080551147,4.92182822802619,-0.0,0.29712045192718506,-1.6520746389972132,-0.0,-0.0057205199263989925,0.7881357669830322,0.0,0.003970475867390633,0.7987824082374573,0.0,-0.0010596754727885127
927.0,923.0,1.6092,0.8339,9.3685,-0.0386,0.0345,-0.1258,-1.7574082813658656,0.0,2.776355028152466,-1.868453860282898,-0.0,2.014042377471924,4.92184046187953,-0.0,0.2950432300567627,-1.6520345846759241,-0.0,-0.012932591140270233,0.7881559133529663,0.0,-0.003035812173038721,0.7987623810768127,0.0,-0.016501618549227715
954.0,933.0,1.7486,1.2508,9.1101,-0.0617,-0.0102,-0.1054,-1.7573400936522425,0.0,2.7602121829986572,-1.8685221672058105,-0.0,1.9943815469741821,4.921832310944357,-0.0,0.2974574565887451,-1.6521380583392542,-0.0,-0.0006392592913471162,0.7881317138671875,0.0,-0.014759504236280918,0.7987863421440125,0.0,-0.07268217206001282
954.0,933.0,1.7486,1.2508,9.1101,-0.0617,-0.0102,-0.1054,-1.7574006519713343,0.0,2.791292667388916,-1.8685914278030396,-0.0,1.9977760314941406,4.921848374396124,-0.0,0.28632470965385437,-1.652062718068258,-0.0,-0.005710103549063206,0.7881157398223877,0.0,-0.0033392596524208784,0.7987544536590576,0.0,0.014357255771756172
954.0,933.0,1.7486,1.2508,9.1101,-0.0617,-0.0102,-0.1054,-1.7573520145811976,0.0,2.760179042816162,-1.8685064315795898,-0.0,1.9790785312652588,4.921836453467169,-0.0,0.3017505407333374,-1.6520665327655237,-0.0,0.004001533146947622,0.788135826587677,0.0,0.007615653797984123,0.7987544536590576,0.0,-0.028313353657722473
954.0,933.0,1.7486,1.2508,9.1101,-0.0617,-0.0102,-0.1054,-1.7573520145811976,0.0,2.7498972415924072,-1.868442416191101,-0.0,1.978592872619629,4.921864482551374,-0.0,0.30147185921669006,-1.6520422140704554,-0.0,0.003043180564418435,0.788031280040741,0.0,-0.015743643045425415,0.7987585067749023,0.0,-0.04207034781575203
954.0,933.0,1.7486,1.2508,9.1101,-0.0617,-0.0102,-0.1054,-1.7573839626707972,0.0,2.795424222946167,-1.8685346841812134,-0.0,1.9708144664764404,4.921836438566007,-0.0,0.2859967052936554,-1.652114216481344,-0.0,-0.008935505524277687,0.7880759239196777,0.0,-0.008684977889060974,0.7988184094429016,0.0,-0.0033929473720490932
954.0,933.0,1.7486,1.2508,9.1101,-0.0617,-0.0102,-0.1054,-1.757416387597555,0.0,2.8102550506591797,-1.8684818744659424,-0.0,2.0033209323883057,4.92182822802619,-0.0,0.28568440675735474,-1.652102295552389,-0.0,-0.00038245608448050916,0.7881357073783875,0.0,-0.01681763306260109,0.7988224029541016,0.0005439051310531795,0.01560887135565281
954.0,933.0,1.7486,1.2508,9.1101,-0.0617,-0.0102,-0.1054,-1.7574483356871546,0.0,2.7787270545959473,-1.8684662580490112,-0.0,1.9416310787200928,4.921856391220846,-0.0,0.2923066020011902,-1.6521499792682093,-0.0,-0.006848794873803854,0.7880717515945435,0.0,-0.0030848593451082706,0.7987983822822571,0.0006908383220434189,-0.005649242550134659
954.0,933.0,1.7486,1.2508,9.1101,-0.0617,-0.0102,-0.1054,-1.7574082813658656,0.0,2.7488250732421875,-1.8685065507888794,-0.0,2.0078721046447754,4.92188041189269,-0.0,0.2906859815120697,-1.6521342436419886,-0.0,0.007243577390909195,0.7880997657775879,0.0,-0.005340822506695986,0.7988343834877014,0.0011915594805032015,0.02254221774637699
954.0,933.0,1.7486,1.2508,9.1101,-0.0617,-0.0102,-0.1054,-1.7574202022948207,0.0,2.768505573272705,-1.8684983253479004,-0.0,1.9562344551086426,4.921864482551374,-0.0,0.29247432947158813,-1.6521065870868128,-0.0,0.008399920538067818,0.7880517840385437,0.0,0.006471082102507353,0.7988105416297913,0.001125996233895421,-0.003544868901371956
954.0,933.0,1.7486,1.2508,9.1101,-0.0617,-0.0102,-0.1054,-1.7574001751341761,0.0,2.7588343620300293,-1.8685023784637451,-0.0,1.9907259941101074,4.9218404469783685,-9.070201478778017e-09,0.29782846570014954,-1.6521342436419886,-0.0,-0.0025235782377421856,0.7881276607513428,0.0,-0.0033927434124052525,0.7988423109054565,0.0011868573492392898,0.0013419706374406815
954.0,933.0,1.7486,1.2508,9.1101,-0.0617,-0.0102,-0.1054,-1.7574202022948207,0.0,2.765171527862549,-1.8685139417648315,-0.0,2.013500690460205,4.921844470291891,-1.648464486659132e-13,0.28817543387413025,-1.6521261374102991,-0.0,-0.010366963222622871,0.788123607635498,0.0,0.0019701451528817415,0.7988824844360352,0.0021176659502089024,-0.04133288189768791
954.0,933.0,1.7486,1.2508,9.1101,-0.0617,-0.0102,-0.1054,-1.7574202022948207,0.0,2.8248519897460938,-1.8685551881790161,-0.0,1.9836668968200684,4.921880471497335,-4.588561440244777e-17,0.28973424434661865,-1.6521223227130335,-0.0,0.002947349799796939,0.788111686706543,0.0,0.0006373467622324824,0.7988903522491455,0.0024109238293021917,0.004969310015439987
954.0,933.0,1.7486,1.2508,9.1101,-0.0617,-0.0102,-0.1054,-1.7573958835997523,0.0,2.7835278511047363,-1.8684496879577637,-0.0,1.9753148555755615,4.9218404469783685,-1.2772431214945945e-20,0.2913677990436554,-1.6520865599261683,-0.0,-0.01618047244846821,0.7881317138671875,0.0,-0.002607389586046338,0.7989183068275452,0.0032063506077975035,0.024528244510293007
911.0,916.0,1.5224,0.8387,9.4451,-0.0209,0.036,-0.1225,-1.7574125729002894,0.0,2.8046436309814453,-1.8685147762298584,-0.0,1.9758169651031494,4.921820181399145,-2.3213265050876046e-25,0.30459874868392944,-1.6521261374102991,-0.0,0.0006165621452964842,0.7881037592887878,0.0,-0.0017299845349043608,0.7989023923873901,0.004361685831099749,0.03129291534423828
911.0,916.0,1.5224,0.8387,9.4451,-0.0209,0.036,-0.1225,-1.7574039898314417,0.0,2.7685561180114746,-1.8685139417648315,-0.0,1.927809238433838,4.9218404469783685,-6.461497972684714e-29,0.2940313220024109,-1.6521104017840784,-0.0,0.011967822909355164,0.7880717515945435,0.0,-0.001359559129923582,0.798954427242279,0.0040197474882006645,-0.009972365573048592
911.0,916.0,1.5224,0.8387,9.4451,-0.0209,0.036,-0.1225,-1.7573915920653285,-0.0001438867038814351,2.7811741828918457,-1.8685263395309448,-0.0,1.9492342472076416,4.921828213125028,-1.7985817353333464e-32,0.29554441571235657,-1.652102295552389,-0.0,-0.0040917182341217995,0.7881919741630554,0.0,0.0006541803013533354,0.7989585399627686,0.0031293181236833334,-0.03683587536215782
911.0,916.0,1.5224,0.8387,9.4451,-0.0209,0.036,-0.1225,-1.7574683628477992,-0.0001837160816648975,2.7897250652313232,-1.8685179948806763,-0.0,1.9420061111450195,4.92184858301238,-5.0064185302362145e-36,0.2951178252696991,-1.6520865599261683,-0.0,-0.0039891768246889114,0.7880997657775879,0.0,-0.00594126433134079,0.7989945411682129,0.002183999167755246,-0.03878322243690491
911.0,916.0,1.5224,0.8387,9.4451,-0.0209,0.036,-0.1225,-1.7574483356871546,-0.000508224475197494,2.776015281677246,-1.868546962738037,-0.0,2.016364812850952,4.921864512353697,-9.098911188553902e-41,0.2977737486362457,-1.6521185080157679,-0.0,0.00947639625519514,0.7881280183792114,0.0,-0.0005998013075441122,0.7989624738693237,0.0012038217391818762,0.04531211778521538
911.0,916.0,1.5224,0.8387,9.4451,-0.0209,0.036,-0.1225,-1.7574321232237757,-0.000539720116648823,2.806105136871338,-1.868546962738037,-0.0,1.965114712715149,4.921820166497984,-2.5223372357846707e-44,0.2906882166862488,-1.652102295552389,-0.0,-0.0007608099840581417,0.788123607635498,0.0,-0.007244813721626997,0.7989945411682129,0.0007319393334910274,0.007216687314212322
911.0,916.0,1.5224,0.8387,9.4451,-0.0209,0.036,-0.1225,-1.757451673547262,-0.0007716333493590355,2.758859634399414,-1.8684899806976318,-0.0,1.9842796325683594,4.921852397709646,-0.0,0.28929808735847473,-1.6520984808551233,-0.0,-0.011695204302668571,0.7881357669830322,0.0,-0.01168110128492117,0.7989664077758789,0.0005828713765367866,-0.012964961118996143
911.0,916.0,1.5224,0.8387,9.4451,-0.0209,0.036,-0.1225,-1.7574597797789515,-0.0013481357600539923,2.7686595916748047,-1.8684818744659424,-0.0,1.959484577178955,4.921872335463323,-0.0,0.3002636432647705,-1.6520903746234339,-0.0,-0.0027925423346459866,0.7880237698554993,0.0,-0.0045115891844034195,0.7990384697914124,0.0005372460000216961,-0.004267551004886627
911.0,916.0,1.5224,0.8387,9.4451,-0.0209,0.036,-0.1225,-1.7575122318663539,-0.0026816793251782656,2.7841625213623047,-1.8685139417648315,-0.0,1.953520655632019,4.921844470291891,-0.0,0.3072603940963745,-1.6520946661578577,-0.0,-0.008951270021498203,0.7881239056587219,0.0,-0.0012441161088645458,0.7990105152130127,0.000444428704213351,0.005802735686302185
911.0,916.0,1.5224,0.8387,9.4451,-0.0209,0.036,-0.1225,-1.7575723133482875,-0.005649867467582226,2.7799861431121826,-1.8685221672058105,-0.0,2.0032010078430176,4.9218483594949625,-0.0,0.29765990376472473,-1.6520946661578577,-0.0,0.002404822502285242,0.7880997657775879,0.0,-0.00296391686424613,0.7989945411682129,0.0004520824586506933,-0.027278803288936615
911.0,916.0,1.5224,0.8387,9.4451,-0.0209,0.036,-0.1225,-1.757580419579977,-0.007327106781303883,2.744227886199951,-1.8685139417648315,-0.0,1.9898686408996582,4.921872335463323,-0.0,0.30104321241378784,-1.6520784536944788,-0.0,0.00372206955216825,0.7881038188934326,0.0,-0.014717074111104012,0.7989907264709473,0.0009405847522430122,-0.04832267016172409
911.0,916.0,1.5224,0.8387,9.4451,-0.0209,0.036,-0.1225,-1.7576686344542445,-0.009374350309371948,2.7587931156158447,-1.8684899806976318,-0.0,1.9893466234207153,4.92188826480464,-0.0,0.2879822254180908,-1.6520546118365687,-0.0,0.0002863348927348852,0.7880395650863647,0.0,-0.005809160880744457,0.7990425825119019,0.0013622455298900604,0.007332373410463333
911.0,916.0,1.5224,0.8387,9.4451,-0.0209,0.036,-0.1225,-1.7576762638487757,-0.010594314895570278,2.730907440185547,-1.8685345649719238,-0.0,1.9760438203811646,4.921860414534368,-0.0,0.29423877596855164,-1.652062718068258,-0.0,-0.006998701952397823,0.7881357669830322,0.0,-0.017488528043031693,0.7990944385528564,0.0019552630838006735,0.015864647924900055
911.0,916.0,1.5224,0.8387,9.4451,-0.0209,0.036,-0.1225,-1.7578088245787562,-0.012678035534918308,2.7108266353607178,-1.8685106039047241,-0.0,1.9751728773117065,4.9218483594949625,-0.0,0.2923283874988556,-1.6520665327655237,-0.0,0.00417676055803895,0.7881680130958557,0.0,-0.008107151836156845,0.7990506887435913,0.0029064633417874575,0.0018104054033756256
954.0,918.0,1.4046,0.1095,9.0867,-0.0565,0.0224,-0.1084,-1.7579127750792445,-0.016156861558556557,2.732916831970215,-1.8685221672058105,-0.0,2.0094659328460693,4.9218483594949625,-0.0,0.31420353055000305,-1.652062718068258,-0.0,0.011406748555600643,0.7881559133529663,0.0,-0.01104484312236309,0.7990987300872803,0.004298400599509478,0.014086542651057243
954.0,918.0,1.4046,0.1095,9.0867,-0.0565,0.0224,-0.1084,-1.7580496273436488,-0.01889260672032833,2.755340337753296,-1.8685023784637451,-0.0,1.9729256629943848,4.921868312149801,-0.0,0.2958906888961792,-1.6520589033709925,-0.0,0.0001812379341572523,0.7880874276161194,0.0,-0.00144258514046669,0.7990825176239014,0.00535842590034008,0.0027493429370224476
954.0,918.0,1.4046,0.1095,9.0867,-0.0565,0.0224,-0.1084,-1.7581774197020472,-0.02164216712117195,2.7362961769104004,-1.8685139417648315,-0.0,1.9801228046417236,4.921928050905027,-0.0,0.30555516481399536,-1.6520984808551233,-0.0,-3.0723167583346367e-06,0.7881640791893005,0.0,-0.006611925549805164,0.7991386651992798,0.005421344190835953,-0.01491739135235548
954.0,918.0,1.4046,0.1095,9.0867,-0.0565,0.0224,-0.1084,-1.7583257160582484,-0.024103976786136627,2.676982879638672,-1.8685221672058105,-0.0,1.989746332168579,4.921880233078756,-0.0,0.2896186411380768,-1.6520541349994105,-0.0,0.005446611903607845,0.7880957126617432,0.0,-0.005395486019551754,0.7992148399353027,0.006239481270313263,-0.04575229436159134
954.0,918.0,1.4046,0.1095,9.0867,-0.0565,0.0224,-0.1084,-1.7584849796690882,-0.025050507858395576,2.7639150619506836,-1.8684662580490112,-0.0,2.0410451889038086,4.921824309020796,-0.0,0.3031126856803894,-1.6520465056048792,-0.0,-0.001321661751717329,0.7881357669830322,0.0,-0.005168679170310497,0.7992587089538574,0.005924254190176725,-0.028969556093215942
954.0,918.0,1.4046,0.1095,9.0867,-0.0565,0.0224,-0.1084,-1.7586456737914027,-0.0276486799120903,2.7603001594543457,-1.8685386180877686,-0.0,1.987642765045166,4.921912434488096,-0.0,0.2942180037498474,-1.6520665327655237,-0.0,-0.009132638573646545,0.7880800366401672,0.0,-0.0035388143733143806,0.7992986440658569,0.0061993966810405254,-0.036759134382009506
954.0,918.0,1.4046,0.1095,9.0867,-0.0565,0.0224,-0.1084,-1.7588545284666957,-0.028183188289403915,2.7058658599853516,-1.8685511350631714,-0.0,1.9525418281555176,4.921928050905027,-0.0,0.2945987284183502,-1.6520746389972132,-0.0,0.002395475748926401,0.7881719470024109,0.0,-0.0077642048709094524,0.799342930316925,0.006090532056987286,0.039357833564281464
954.0,918.0,1.4046,0.1095,9.0867,-0.0565,0.0224,-0.1084,-1.7590981922545375,-0.03161786496639252,2.7263550758361816,-1.8685386180877686,-0.0,1.9527862071990967,4.921939882427015,-0.0,0.29144442081451416,-1.6520903746234339,-0.0,0.00896016787737608,0.7880554795265198,0.0,-0.004367773421108723,0.7993868589401245,0.005749354138970375,0.03643549978733063
954.0,918.0,1.4046,0.1095,9.0867,-0.0565,0.0224,-0.1084,-1.7592865429320277,-0.03133288398385048,2.705190658569336,-1.8685386180877686,-0.0,1.9552052021026611,4.921915995865621,0.00027047397452406585,0.29076915979385376,-1.6520503203021448,-0.0,-0.011378944851458073,0.7881800532341003,0.0,-0.004963579587638378,0.7993790507316589,0.0053264303132891655,0.020117636770009995
954.0,918.0,1.4046,0.1095,9.0867,-0.0565,0.0224,-0.1084,-1.7594262562193812,-0.032331593334674835,2.699406623840332,-1.868530511856079,-0.0,1.9803657531738281,4.921931940108099,0.0002750240091700107,0.28707295656204224,-1.652062718068258,-0.0,-0.013593491166830063,0.7881599068641663,0.0,0.012216043658554554,0.7994227409362793,0.006212955806404352,0.005189310759305954
954.0,918.0,1.4046,0.1095,9.0867,-0.0565,0.0224,-0.1084,-1.7597271404662074,-0.03341840207576752,2.722289562225342,-1.868497371673584,-0.0,1.9780080318450928,4.921911972552099,0.000266697519691661,0.29337573051452637,-1.6520307699786585,-0.0,0.00312466430477798,0.7881357669830322,0.0,-0.0006193820154294372,0.7994908690452576,0.006373781245201826,-0.02782074734568596
954.0,918.0,1.4046,0.1095,9.0867,-0.0565,0.0224,-0.1084,-1.7599879703917445,-0.03306243196129799,2.7419509887695312,-1.8685221672058105,-0.0,1.9928785562515259,4.921911972552099,0.0002704450162127614,0.299863338470459,-1.6520946661578577,-0.0,0.00029571610502898693,0.788123607635498,0.0,-0.005785003304481506,0.7995709180831909,0.0070444499142467976,0.03195511922240257
954.0,918.0,1.4046,0.1095,9.0867,-0.0565,0.0224,-0.1084,-1.7601639233031214,-0.033136993646621704,2.6620757579803467,-1.8684899806976318,-0.0,1.9473865032196045,4.921923953085699,0.00024306956038344651,0.29809102416038513,-1.6520746389972132,-0.0,0.0005922956624999642,0.7881357669830322,0.0,-0.003633582964539528,0.7996109127998352,0.00754832848906517,0.0510406494140625
938.0,928.0,1.3998,0.5121,9.463,-0.0371,-0.0032,-0.1107,-1.7604357204832972,-0.033957339823246,2.7445156574249268,-1.8685625791549683,-0.0,1.971008539199829,4.921952131181516,0.00021414771617855877,0.28857237100601196,-1.6520383993731897,-0.0,-0.00533845042809844,0.7881677746772766,0.0,-0.02202305570244789,0.7996432781219482,0.008354553952813148,0.02746906317770481
938.0,928.0,1.3998,0.5121,9.463,-0.0371,-0.0032,-0.1107,-1.760644098321432,-0.036247313022613525,2.725156307220459,-1.868546962738037,-0.0,1.9662468433380127,4.921907874732771,0.0001994667254621163,0.2974766492843628,-1.6520827452289026,-0.0,-0.001344690565019846,0.7881559729576111,0.0,-0.00233499170280993,0.7996950745582581,0.00783492997288704,-0.02369927428662777
938.0,928.0,1.3998,0.5121,9.463,-0.0371,-0.0032,-0.1107,-1.7608725033202113,-0.0379699245095253,2.7362520694732666,-1.8685139417648315,-0.0,1.9572949409484863,4.921915995865621,0.0001766739587765187,0.29040464758872986,-1.6520708242999476,-0.0,-0.0049700429663062096,0.788103461265564,0.0,-0.00030213198624551296,0.7997109889984131,0.0074364678002893925,0.04906017333269119
938.0,928.0,1.3998,0.5121,9.463,-0.0371,-0.0032,-0.1107,-1.7611576519408167,-0.041858043521642685,2.738609552383423,-1.868514060974121,-0.0,2.021453857421875,4.9219760475452325,0.00018952105892822146,0.30207985639572144,-1.6520584265338343,-0.0,-0.007635117508471012,0.7881999611854553,0.0,0.007546721957623959,0.7997711300849915,0.006396347191184759,0.07218828797340393
938.0,928.0,1.3998,0.5121,9.463,-0.0371,-0.0032,-0.1107,-1.7614456615843714,-0.04298994690179825,2.697831153869629,-1.8685097694396973,-0.0,1.920619249343872,4.921967941313543,0.00036879023537039757,0.2902989685535431,-1.6520708242999476,-0.0,0.0007177121588028967,0.7881153225898743,0.0,-0.005159234162420034,0.7997668981552124,0.004985438659787178,0.019139112904667854
938.0,928.0,1.3998,0.5121,9.463,-0.0371,-0.0032,-0.1107,-1.7617174587645472,-0.04577403888106346,2.666750431060791,-1.8684818744659424,-0.0,2.001980781555176,4.9219598201806924,0.0004460593336261809,0.28980979323387146,-1.6520426909076136,-0.0,-0.009845688939094543,0.7881959676742554,0.0,0.0023167291656136513,0.7998070120811462,0.0037022102624177933,-0.021432479843497276
938.0,928.0,1.3998,0.5121,9.463,-0.0371,-0.0032,-0.1107,-1.76200594524526,-0.04825466498732567,2.656658411026001,-1.8685097694396973,-0.0,1.9907866716384888,4.922003942518987,0.0004267924523446709,0.29209133982658386,-1.6520302931415003,-0.0,-0.007027277257293463,0.788223922252655,0.0,0.003996110055595636,0.799826979637146,0.00263337604701519,-0.053094521164894104
938.0,928.0,1.3998,0.5121,9.463,-0.0371,-0.0032,-0.1107,-1.7624145946898402,-0.052239663898944855,2.6654415130615234,-1.868505597114563,-0.0,1.9646239280700684,4.921983974962988,0.000500648922752589,0.29339176416397095,-1.6520584265338343,-0.0,0.008500316180288792,0.7881357669830322,0.0,0.009273665025830269,0.7998433113098145,0.0015791024779900908,-0.044344332069158554
938.0,928.0,1.3998,0.5121,9.463,-0.0371,-0.0032,-0.1107,-1.7627064190306605,-0.0564340315759182,2.65166974067688,-1.8684622049331665,-0.0,1.9489398002624512,4.921964022308149,0.0004726599727291614,0.2941647171974182,-1.6519988218890589,-0.0,0.01180350687354803,0.7881312966346741,0.0,0.007028217893093824,0.7998591661453247,0.0009384367731399834,-0.032388847321271896
938.0,928.0,1.3998,0.5121,9.463,-0.0371,-0.0032,-0.1107,-1.7630917034544886,-0.06248043477535248,2.6257638931274414,-1.8684744834899902,8.355356158062932e-07,1.982826590538025,4.9219799665506265,0.0003866273327730596,0.30191904306411743,-1.6520026365863245,5.537457764148712e-05,0.013816826045513153,0.7881878614425659,0.0,0.00837638508528471,0.7998551726341248,0.0006875814869999886,-0.04107023403048515
938.0,928.0,1.3998,0.5121,9.463,-0.0371,-0.0032,-0.1107,-1.7635046444334925,-0.06906270235776901,2.6455233097076416,-1.8684580326080322,2.0177201923154975e-12,2.0078465938568115,4.921983974962988,0.0003731187607627362,0.30040082335472107,-1.6519983450519007,5.343204247765243e-05,-0.008929720148444176,0.7881353497505188,0.0,0.008396186865866184,0.7998433113098145,0.000580398365855217,0.024417340755462646
938.0,928.0,1.3998,0.5121,9.463,-0.0371,-0.0032,-0.1107,-1.7640372715392054,-0.07606099545955658,2.630739688873291,-1.8684744834899902,0.0007061055512167513,1.9575358629226685,4.921983974962988,0.0004185307479929179,0.27064698934555054,-1.652010742818014,6.0869704611832276e-05,0.010411325842142105,0.788103461265564,0.0,0.009937186725437641,0.7998551726341248,0.00048465767758898437,-0.06855665147304535
938.0,928.0,1.3998,0.5121,9.463,-0.0371,-0.0032,-0.1107,-1.7644654713072718,-0.07911855727434158,2.6021928787231445,-1.8684827089309692,0.0019285917514935136,2.035623550415039,4.92201184013442,0.0004019757907371968,0.285844624042511,-1.652010742818014,7.70967199059669e-06,0.020630665123462677,0.7881596088409424,0.0,-0.00018701748922467232,0.7998989820480347,0.00040321837877854705,-0.09503510594367981
938.0,928.0,1.3998,0.5121,9.463,-0.0371,-0.0032,-0.1107,-1.7649742565550746,-0.07913047820329666,2.620704174041748,-1.868470311164856,0.0015963417245075107,1.9943273067474365,4.922027784376898,0.0004852336714975536,0.27626973390579224,-1.6520345846759241,2.146015143367208e-09,0.013623008504509926,0.7881996631622314,0.0,0.016312062740325928,0.7999151349067688,0.0003452135424595326,-0.08119311183691025
927.0,913.0,1.2245,0.6299,9.1914,-0.0299,-0.0411,-0.1222,-1.7655869923033656,-0.08196890354156494,2.63108229637146,-1.868434190750122,0.0012243827804923058,1.9812169075012207,4.922067555576124,0.0004070836293976754,0.2806660532951355,-1.651994530354635,3.900276369234179e-14,0.007381778676062822,0.7881357669830322,0.0,0.009914776310324669,0.7998751997947693,0.0002534502709750086,-0.07187972962856293
927.0,913.0,1.2245,0.6299,9.1914,-0.0299,-0.0411,-0.1222,-1.7661072216429652,-0.08668935298919678,2.588438034057617,-1.8684546947479248,0.0007558991783298552,1.9932198524475098,4.921971934824743,0.0003320776449982077,0.27881699800491333,-1.6520465056048792,1.0856563560023727e-17,0.01440737210214138,0.7881317734718323,0.0,0.01612137258052826,0.7998591661453247,0.0002261543122585863,-0.08790178596973419
927.0,913.0,1.2245,0.6299,9.1914,-0.0299,-0.0411,-0.1222,-1.766616006890768,-0.09113770723342896,2.562333583831787,-1.8684546947479248,0.0005322366487234831,2.0011913776397705,4.922015729337492,0.0002803371171467006,0.2805539667606354,-1.6520302931415003,3.021964417727013e-21,0.015073584392666817,0.7881715893745422,0.0,0.008266337215900421,0.799835205078125,0.00020416654297150671,-0.11923716217279434
927.0,913.0,1.2245,0.6299,9.1914,-0.0299,-0.0411,-0.1222,-1.7673207722105921,-0.09381425380706787,2.571051597595215,-1.8684258460998535,0.0005080130649730563,2.0108485221862793,4.922051626234808,0.0002708076499402523,0.28389644622802734,-1.6519787947284144,5.492270872980695e-26,0.016016963869333267,0.7881959676742554,4.320149099568127e-11,0.01453714445233345,0.7998512387275696,2.963417318824213e-05,-0.06787776201963425
927.0,913.0,1.2245,0.6299,9.1914,-0.0299,-0.0411,-0.1222,-1.7678576908507289,-0.09291020035743713,2.5736141204833984,-1.8684217929840088,0.0005107318866066635,1.978916883468628,4.922059657960691,0.0002740560448728502,0.28503623604774475,-1.6520698706256312,1.5287938611314197e-29,0.019050700590014458,0.7881673574447632,1.2025292870851412e-14,0.022790029644966125,0.799835205078125,7.156302633815059e-11,-0.16333606839179993
927.0,913.0,1.2245,0.6299,9.1914,-0.0299,-0.0411,-0.1222,-1.768442770043844,-0.0951434001326561,2.6238512992858887,-1.868366003036499,0.0023430921137332916,2.0059285163879395,4.922007608204641,0.0002055169316008687,0.2791854441165924,-1.65198260942568,4.255453751843811e-33,0.016475267708301544,0.7881836891174316,3.347284162803261e-18,0.026103705167770386,0.7998310923576355,1.7281629411025265e-16,-0.11197049915790558
927.0,913.0,1.2245,0.6299,9.1914,-0.0299,-0.0411,-0.1222,-1.7689792118468226,-0.09658566117286682,2.5691068172454834,-1.868346095085144,0.002590209012851119,2.043482542037964,4.9220838127429865,0.00021680885402020067,0.2950788140296936,-1.6519983450519007,1.1845211343762857e-36,0.004831488244235516,0.7881836891174316,9.317287900840753e-22,0.023616429418325424,0.7998190522193909,4.1733102158019946e-22,-0.14051145315170288
927.0,913.0,1.2245,0.6299,9.1914,-0.0299,-0.0411,-0.1222,-1.7697278461852015,-0.10176410526037216,2.549229621887207,-1.8683626651763916,0.0022100252099335194,1.9929208755493164,4.922071713000097,0.0002469400642439723,0.26804685592651367,-1.6519749800311487,2.1528148307422165e-41,0.027147985994815826,0.7881353497505188,1.6933709761889617e-26,0.027474647387862206,0.7997987866401672,1.3520995688468896e-29,-0.13839125633239746
927.0,913.0,1.2245,0.6299,9.1914,-0.0299,-0.0411,-0.1222,-1.7703525028624476,-0.10128623992204666,2.5386085510253906,-1.8683182001113892,0.0020366860553622246,2.036794662475586,4.922079595714369,0.0005118244444020092,0.2766263484954834,-1.6519783178912562,9.749488526722416e-05,0.012866164557635784,0.7881796956062317,4.713560442503509e-30,0.038468606770038605,0.7998191714286804,3.2651617043181926e-35,-0.13480308651924133
927.0,913.0,1.2245,0.6299,9.1914,-0.0299,-0.0411,-0.1222,-1.770949502984518,-0.10146597772836685,2.553725242614746,-1.8683140277862549,0.0015432871878147125,1.970775842666626,4.922067659884252,0.0004780305316671729,0.2632485628128052,-1.6519950071917933,9.261830564355478e-05,0.014145450666546822,0.7881472706794739,1.3120370195489197e-33,0.02108296938240528,0.7998431324958801,7.884966328909313e-41,-0.08915133774280548
927.0,913.0,1.2245,0.6299,9.1914,-0.0299,-0.0411,-0.1222,-1.7717343769469203,-0.10801496356725693,2.5638537406921387,-1.868330478668213,0.0007847301312722266,2.018399715423584,4.922099548369207,0.00037889365921728313,0.2717278301715851,-1.6519907156573694,9.39952369662933e-05,0.020411988720297813,0.7881832718849182,2.3845624115513333e-38,0.03247372806072235,0.7998111248016357,-0.00032010843278840184,-0.13275142014026642
927.0,913.0,1.2245,0.6299,9.1914,-0.0299,-0.0411,-0.1222,-1.7724796734251917,-0.11638741195201874,2.4929862022399902,-1.8683419227600098,0.0006369366310536861,1.9632303714752197,4.922119501024046,0.00035795834264717996,0.2735733687877655,-1.6520069281207483,9.714350017020479e-05,0.03251142054796219,0.7881472706794739,6.637950825506658e-42,0.022712498903274536,0.7998475432395935,-0.000316131190629676,-0.14034056663513184
927.0,913.0,1.2245,0.6299,9.1914,-0.0299,-0.0411,-0.1222,-1.7730757198729457,-0.12237309664487839,2.5707571506500244,-1.8683098554611206,0.0006669345893897116,2.00014591217041,4.922075572400846,0.00040244535193778574,0.27474626898765564,-1.6520188490497034,0.00010651274351403117,0.016044627875089645,0.7881673574447632,1.401298464324817e-45,0.02963855490088463,0.7997668385505676,-0.00034507529926486313,-0.14638730883598328
918.0,924.0,1.4782,0.6419,9.2261,-0.0429,-0.0811,-0.1168,-1.7740570507445277,-0.12218780070543289,2.5205860137939453,-1.8682775497436523,0.004430544096976519,2.0089073181152344,4.922131421953001,0.0011154403910040855,0.2599199414253235,-1.6519106070147913,0.00010066045797429979,0.03501196950674057,0.788175642490387,0.0,0.029384098947048187,0.799770712852478,-0.0004953495226800442,-0.1393028348684311
918.0,924.0,1.4782,0.6419,9.2261,-0.0429,-0.0811,-0.1168,-1.7748261890807093,-0.11995149403810501,2.5310723781585693,-1.8682498931884766,0.0057211690582334995,2.001819610595703,4.92216722944335,0.0016315936809405684,0.26397499442100525,-1.6519864241229456,9.605616651242599e-05,0.029930921271443367,0.7881636619567871,0.0,0.033127427101135254,0.799787163734436,-0.00038917516940273345,-0.16800671815872192
918.0,924.0,1.4782,0.6419,9.2261,-0.0429,-0.0811,-0.1168,-1.775612016717428,-0.11960800737142563,2.561598777770996,-1.8682177066802979,0.004519888199865818,1.9334261417388916,4.922159272223272,0.0011811150470748544,0.257367879152298,-1.6519988218890589,9.185462113237008e-05,0.026898372918367386,0.7881596088409424,0.0,0.027723385021090508,0.7998393177986145,-0.0003199789789505303,-0.15219666063785553
918.0,924.0,1.4782,0.6419,9.2261,-0.0429,-0.0811,-0.1168,-1.7763892612852992,-0.12456098943948746,2.4702272415161133,-1.8681938648223877,0.0023845192044973373,1.9805864095687866,4.9220754382903955,0.0006648583803325891,0.2759643793106079,-1.6519950071917933,8.800524665275589e-05,0.033216942101716995,0.7881395816802979,0.0,0.03034113720059395,0.7997992038726807,-0.00027167837833985686,-0.16952386498451233
918.0,924.0,1.4782,0.6419,9.2261,-0.0429,-0.0811,-0.1168,-1.777370115319723,-0.1392616629600525,2.5097341537475586,-1.8682022094726562,0.0008986946195363998,1.977492094039917,4.922119366913595,0.000417554285377264,0.266806423664093,-1.6519907156573694,9.446695912629366e-05,0.0370103120803833,0.7881399989128113,0.0,0.025933902710676193,0.7997992038726807,-0.00026332683046348393,-0.15418939292430878
918.0,924.0,1.4782,0.6419,9.2261,-0.0429,-0.0811,-0.1168,-1.7781712017455042,-0.1490553319454193,2.4856317043304443,-1.8682299852371216,0.0007190970936790109,2.0010838508605957,4.922127279430189,0.0003872736997436732,0.256425678730011,-1.6519869009601038,9.161837806459516e-05,0.03577554225921631,0.7881312966346741,0.0,0.028552506119012833,0.7997631430625916,-0.000288382638245821,-0.16231736540794373
918.0,924.0,1.4782,0.6419,9.2261,-0.0429,-0.0811,-0.1168,-1.7791129551329554,-0.15629607439041138,2.516929864883423,-1.868161678314209,0.0016261431155726314,2.0046660900115967,4.92215512970046,0.00042737816693261266,0.25548607110977173,-1.6519468466388147,8.824968972476199e-05,0.031991321593523026,0.7881796360015869,0.0,0.03199765458703041,0.7997630834579468,-0.0012355722719803452,-0.18823915719985962
918.0,924.0,1.4782,0.6419,9.2261,-0.0429,-0.0811,-0.1168,-1.7803102932372035,-0.1484723836183548,2.481553554534912,-1.8681304454803467,0.009270193986594677,1.9883885383605957,4.922194975405493,0.00856101606041193,0.26888221502304077,-1.6520069281207483,0.00010530823783483356,0.035559795796871185,0.7881755828857422,0.0,0.023197632282972336,0.7997552752494812,-0.0011739581823349,-0.13408702611923218
918.0,924.0,1.4782,0.6419,9.2261,-0.0429,-0.0811,-0.1168,-1.7812844715514125,-0.13815030455589294,2.564915418624878,-1.8680498600006104,0.010801510885357857,2.0340969562530518,4.922290774970808,0.015831269323825836,0.26480424404144287,-1.652010742818014,0.00010128898429684341,0.031766850501298904,0.7881673574447632,0.0,0.017485346645116806,0.7997912168502808,-0.0008638828876428306,-0.13836094737052917
918.0,924.0,1.4782,0.6419,9.2261,-0.0429,-0.0811,-0.1168,-1.7822009525694789,-0.1476718932390213,2.5009875297546387,-1.8680384159088135,0.00784403644502163,1.9783198833465576,4.922374594002523,0.011463824659585953,0.27095648646354675,-1.652010742818014,9.488256910117343e-05,0.028840795159339905,0.7881555557250977,0.0,0.019653748720884323,0.7997792363166809,-0.0005653651896864176,-0.20816108584403992
918.0,924.0,1.4782,0.6419,9.2261,-0.0429,-0.0811,-0.1168,-1.7832876644530238,-0.16931171715259552,2.5256705284118652,-1.8680145740509033,0.002853383542969823,1.99461030960083,4.922366294055738,0.004922500345855951,0.27981647849082947,-1.6520150343524378,8.923770656110719e-05,0.03438913822174072,0.788151741027832,0.0,0.0333433672785759,0.7997589707374573,-0.000439423049101606,-0.1716737449169159
918.0,924.0,1.4782,0.6419,9.2261,-0.0429,-0.0811,-0.1168,-1.784621377984518,-0.1933823525905609,2.4963889122009277,-1.8680548667907715,0.000334938958985731,2.00040340423584,4.922405931144514,0.0014526232844218612,0.2596297264099121,-1.651954476033346,9.914174006553367e-05,0.03514721244573593,0.788151741027832,0.0,0.016134172677993774,0.7997630834579468,-0.0003065751225221902,-0.18794628977775574
918.0,924.0,1.4782,0.6419,9.2261,-0.0429,-0.0811,-0.1168,-1.7857595882811488,-0.19195885956287384,2.5294008255004883,-1.8679741621017456,0.0007594253402203321,1.9509611129760742,4.92250636497096,0.002327484544366598,0.2722741961479187,-1.6519830862628382,9.403187868883833e-05,0.03806844726204872,0.7881436347961426,0.0,0.01802736148238182,0.7997515797615051,-0.0016106967814266682,-0.18235701322555542
918.0,924.0,1.4782,0.6419,9.2261,-0.0429,-0.0811,-0.1168,-1.7868930302061976,-0.17680159211158752,2.472048759460449,-1.8678860664367676,0.0074365753680467606,2.030802011489868,4.922541829734602,0.010080651380121708,0.26684632897377014,-1.6519268194781702,8.93635005922988e-05,0.021027985960245132,0.7881395220756531,0.0,0.03819642215967178,0.7997515201568604,-0.003032654756680131,-0.21092413365840912
927.0,898.0,1.6857,0.7801,9.594,-0.0357,-0.1772,-0.1167,-1.7883383236327113,-0.165182963013649,2.5522475242614746,-1.8679149150848389,0.010185987688601017,1.9875173568725586,4.922654303699293,0.016491923481225967,0.28813832998275757,-1.651971165333883,8.381524094147608e-05,0.028686385601758957,0.7881072163581848,0.0,0.010269440710544586,0.7997150421142578,-0.003188546746969223,-0.1626867651939392
927.0,898.0,1.6857,0.7801,9.594,-0.0357,-0.1772,-0.1167,-1.789436479608053,-0.18260066211223602,2.50875186920166,-1.8678135871887207,0.006049285642802715,1.995631217956543,4.922693240433492,0.018484018743038177,0.28660696744918823,-1.6520026365863245,8.008610893739387e-05,0.023054836317896843,0.7882079482078552,0.0,0.01618555188179016,0.799658477306366,-0.0018867634935304523,-0.20762458443641663
927.0,898.0,1.6857,0.7801,9.594,-0.0357,-0.1772,-0.1167,-1.7905942402281703,-0.20141208171844482,2.4452450275421143,-1.8678383827209473,0.0021589563693851233,1.997901439666748,4.922820943384924,0.01899607479572296,0.29361552000045776,-1.6519830862628382,7.667464524274692e-05,0.018415363505482674,0.7881596088409424,1.0951617696264293e-05,0.028142651543021202,0.7997112274169922,-0.0009389583137817681,-0.17717239260673523
927.0,898.0,1.6857,0.7801,9.594,-0.0357,-0.1772,-0.1167,-1.7921368084349574,-0.20536929368972778,2.5001304149627686,-1.867825984954834,0.0005518803372979164,2.0173280239105225,4.923032182246008,0.02628162130713463,0.2781120538711548,-1.6519387404071253,7.255391392391175e-05,0.01792225055396557,0.7881996631622314,2.4962943712125707e-07,0.017288684844970703,0.7996548414230347,-0.0014113332144916058,-0.1425766944885254
927.0,898.0,1.6857,0.7801,9.594,-0.0357,-0.1772,-0.1167,-1.7932130299010218,-0.19487300515174866,2.566610813140869,-1.8677618503570557,0.004456299357116222,2.0225977897644043,4.9232152728135965,0.04075585678219795,0.3020069897174835,-1.6519830862628382,6.974274583626539e-05,0.004864072427153587,0.7881194353103638,6.948526476424632e-11,0.01790313422679901,0.7996712923049927,-0.003957454580813646,-0.1399906575679779
927.0,898.0,1.6857,0.7801,9.594,-0.0357,-0.1772,-0.1167,-1.7944361172118128,-0.18491210043430328,2.591797351837158,-1.867709994316101,0.009036985225975513,2.03692626953125,4.923566254764356,0.06438964605331421,0.30326151847839355,-1.6519625822650355,6.714124901918694e-05,0.023528452962636948,0.7881636619567871,1.9341482354520018e-14,0.011770794168114662,0.7996471524238586,-0.003523254068568349,-0.2101285457611084
927.0,898.0,1.6857,0.7801,9.594,-0.0357,-0.1772,-0.1167,-1.7955252132811488,-0.18309684097766876,2.5921900272369385,-1.8676345348358154,0.011348209343850613,2.0462968349456787,4.9240082679088495,0.09339607506990433,0.3367115259170532,-1.6520312468158167,6.472691893577576e-05,0.02420940063893795,0.7881596088409424,-6.85976556269452e-05,0.008650724776089191,0.7996108531951904,-0.0016821755561977625,-0.16352379322052002
927.0,898.0,1.6857,0.7801,9.594,-0.0357,-0.1772,-0.1167,-1.7970758877196253,-0.18390455842018127,2.6459293365478516,-1.8676187992095947,0.010494696907699108,2.071756362915039,4.92497372904376,0.1220233216881752,0.345608651638031,-1.6519625822650355,6.176553142722696e-05,0.0008307474199682474,0.7881436347961426,-5.279971082927659e-05,0.024801451712846756,0.7996273636817932,-0.0005285899387672544,-0.1487066149711609
927.0,898.0,1.6857,0.7801,9.594,-0.0357,-0.1772,-0.1167,-1.798140665093893,-0.19164107739925385,2.6318185329437256,-1.867542028427124,0.00882479827851057,2.0310206413269043,4.925720336824217,0.12835857272148132,0.34812131524086,-1.651959244404928,5.971645805402659e-05,0.021472081542015076,0.7881919145584106,-4.4895325117977336e-05,-0.0014021731913089752,0.7996314167976379,-0.0003590905398596078,-0.18595503270626068
927.0,898.0,1.6857,0.7801,9.594,-0.0357,-0.1772,-0.1167,-1.799258371392721,-0.19585229456424713,2.6025946140289307,-1.8675141334533691,0.006455321330577135,1.9856462478637695,4.926441627531805,0.12032580375671387,0.3652554750442505,-1.6520069281207483,1.662229820453831e-08,0.017348673194646835,0.7881677746772766,-3.904976256308146e-05,0.00950807798653841,0.7996309399604797,-8.043210982577875e-05,-0.13679377734661102
927.0,898.0,1.6857,0.7801,9.594,-0.0357,-0.1772,-0.1167,-1.800732275048727,-0.19439353048801422,2.605767250061035,-1.8674063682556152,0.007353666238486767,2.016037940979004,4.927481296449461,0.15133801102638245,0.35794156789779663,-1.6519506613360804,3.0210209334136096e-13,0.02251490205526352,0.7881755828857422,-3.327383819851093e-05,0.005743399262428284,0.7995827198028564,-0.0001766961213434115,-0.18319591879844666
927.0,898.0,1.6857,0.7801,9.594,-0.0357,-0.1772,-0.1167,-1.801854749719137,-0.180094376206398,2.630985736846924,-1.8673701286315918,0.008913750760257244,2.054964542388916,4.928601833968916,0.18689951300621033,0.39576154947280884,-1.651971165333883,8.40912273942551e-17,0.020475177094340324,0.7882079482078552,-2.9951292162877508e-05,0.0032030544243752956,0.7996150255203247,-0.0005042536067776382,-0.1585410237312317
927.0,898.0,1.6857,0.7801,9.594,-0.0357,-0.1772,-0.1167,-1.802931924859518,-0.17570292949676514,2.631986618041992,-1.8673264980316162,0.01094529964029789,2.0582451820373535,4.929798367410459,0.2055061012506485,0.3855067193508148,-1.651942555104391,2.3407098147279552e-20,0.02282317914068699,0.7881673574447632,-2.7232166758039966e-05,0.014519313350319862,0.7996070384979248,-0.00038523433613590896,-0.13029234111309052
935.0,872.0,3.137,0.5498,9.323,-0.0483,-0.0481,-0.1399,-1.804394384423727,-0.18251052498817444,2.6422605514526367,-1.8672022819519043,0.013920819386839867,2.0235342979431152,4.931648137956419,0.2500707507133484,0.4136412739753723,-1.6519506613360804,4.254125702326085e-25,0.024232134222984314,0.7881837487220764,-2.4291815861943178e-05,0.0226273275911808,0.7995665073394775,-0.00022956039174459875,-0.16149693727493286
935.0,872.0,3.137,0.5498,9.323,-0.0483,-0.0481,-0.1399,-1.8054915867247523,-0.18391409516334534,2.6693873405456543,-1.867162823677063,0.014113756828010082,2.0678184032440186,4.933222937374868,0.2612527906894684,0.4255538284778595,-1.6519787947284144,1.1841515262929297e-28,0.016827767714858055,0.788151741027832,-6.7617169641209784e-09,0.0016280808486044407,0.7996070384979248,-0.00019331206567585468,-0.1361263394355774
935.0,872.0,3.137,0.5498,9.323,-0.0483,-0.0481,-0.1399,-1.8065487347044886,-0.17929333448410034,2.6946189403533936,-1.8670912981033325,0.01396001223474741,2.0877161026000977,4.934908571630277,0.287295937538147,0.43045303225517273,-1.651966396962301,3.296129359123087e-32,0.0029761327896267176,0.7881960272789001,-1.8821487337422615e-12,0.01178666204214096,0.7995908856391907,-0.00012985221110284328,-0.10829789191484451
935.0,872.0,3.137,0.5498,9.323,-0.0483,-0.0481,-0.1399,-1.8076664410033167,-0.17804081737995148,2.6388778686523438,-1.866950511932373,0.015282618813216686,2.1158699989318848,4.93675388672904,0.30608832836151123,0.44047313928604126,-1.651970688496725,9.174896990145485e-36,0.019211018458008766,0.7881436347961426,-5.239030068874672e-16,0.0229048989713192,0.7995908856391907,-0.00015886085748206824,-0.15196362137794495
935.0,872.0,3.137,0.5498,9.323,-0.0483,-0.0481,-0.1399,-1.8091050587096156,-0.17992869019508362,2.7252769470214844,-1.8668501377105713,0.016172418370842934,2.0637059211730957,4.9393759099538705,0.3566306531429291,0.4740179181098938,-1.6519468466388147,1.6674891206079593e-40,0.015403534285724163,0.7881755828857422,-9.521676031097902e-21,0.008594546467065811,0.7995949983596802,-0.00041745384805835783,-0.07321145385503769
935.0,872.0,3.137,0.5498,9.323,-0.0483,-0.0481,-0.1399,-1.8101703129210414,-0.18506954610347748,2.654726266860962,-1.8666542768478394,0.017736131325364113,2.1034536361694336,4.941634404450216,0.38575980067253113,0.48891642689704895,-1.6519830862628382,4.624284932271896e-44,0.003700805129483342,0.7881878614425659,-2.6503933729018882e-24,0.01721091940999031,0.79957515001297,-0.0011829601135104895,-0.13228583335876465
935.0,872.0,3.137,0.5498,9.323,-0.0483,-0.0481,-0.1399,-1.811296125451559,-0.18033267557621002,2.6796555519104004,-1.8666024208068848,0.02237868495285511,2.047048568725586,4.944135921984472,0.4222162067890167,0.5054724812507629,-1.6519787947284144,0.0,0.0168557558208704,0.7881796956062317,-7.377467726452232e-28,0.007220735773444176,0.7995548844337463,-0.0015548082301393151,-0.12478114664554596
935.0,872.0,3.137,0.5498,9.323,-0.0483,-0.0481,-0.1399,-1.8127299747862757,-0.16585753858089447,2.7163467407226562,-1.866410732269287,0.02559955045580864,2.08040189743042,4.947791549354353,0.47129425406455994,0.5202234983444214,-1.65198260942568,0.0,0.0019651406910270452,0.7882041931152344,-1.3408182273106357e-32,0.013680893927812576,0.7995508313179016,-0.0012961673783138394,-0.10782729089260101
935.0,872.0,3.137,0.5498,9.323,-0.0483,-0.0481,-0.1399,-1.813791414300436,-0.16650763154029846,2.753164291381836,-1.8663103580474854,0.023814432322978973,2.068582534790039,4.9507396695907495,0.5169692635536194,0.543452262878418,-1.651970688496725,0.0,-0.0020309174433350563,0.7881677746772766,-3.7322171640023955e-36,-0.0021305810660123825,0.7996031641960144,-0.0008455683710053563,-0.1329805999994278
935.0,872.0,3.137,0.5498,9.323,-0.0483,-0.0481,-0.1399,-1.814812799493307,-0.17760199308395386,2.702274799346924,-1.866166353225708,0.019855258986353874,2.069516181945801,4.9540356425340555,0.5548830628395081,0.5370787382125854,-1.651954476033346,0.0,0.013733013533055782,0.7881596088409424,-1.0388764386010967e-39,0.022893521934747696,0.7995911240577698,-0.0005404805415309966,-0.10040047019720078
935.0,872.0,3.137,0.5498,9.323,-0.0483,-0.0481,-0.1399,-1.8159429035582484,-0.18897630274295807,2.681962490081787,-1.8660097122192383,0.015587294474244118,2.0570056438446045,4.957461702614584,0.5813084840774536,0.5356215238571167,-1.6519988218890589,0.0,0.014032894745469093,0.7881234884262085,-2.886674836509123e-43,0.011593787930905819,0.7995870113372803,-0.0003972601261921227,-0.09749659895896912
935.0,872.0,3.137,0.5498,9.323,-0.0483,-0.0481,-0.1399,-1.8174048862852992,-0.17916417121887207,2.719923496246338,-1.8658627271652222,0.018332380801439285,2.0888020992279053,4.9624222097690485,0.6303118467330933,0.538046658039093,-1.651971165333883,0.0,-0.014143078587949276,0.7882000803947449,-0.0,0.008907472714781761,0.7995510697364807,-0.0004223466676194221,-0.1175217255949974
935.0,872.0,3.137,0.5498,9.323,-0.0483,-0.0481,-0.1399,-1.8184620342650355,-0.16303826868534088,2.703146457672119,-1.8658066987991333,0.0222981758415699,2.043616771697998,4.966372269182958,0.6687415242195129,0.5358497500419617,-1.6519349257098597,0.0,0.0189258623868227,0.7880717515945435,-0.0,0.02160225808620453,0.7995589971542358,-0.0016570978332310915,-0.15430551767349243
935.0,872.0,3.137,0.5498,9.323,-0.0483,-0.0481,-0.1399,-1.8194595775999964,-0.15478692948818207,2.729893922805786,-1.8656752109527588,0.020124806091189384,2.0817322731018066,4.970461654454031,0.697999119758606,0.5421779155731201,-1.6519668737994593,0.0,0.013067523017525673,0.7881317138671875,-0.0,0.013064449653029442,0.7995589971542358,-0.0011358697665855289,-0.14563840627670288
920.0,880.0,3.7304,0.5174,8.2469,-0.0463,0.369,-0.1669,-1.8207408390440882,-0.16751480102539062,2.712385654449463,-1.8655953407287598,0.015029576607048512,2.033637285232544,4.976064818888464,0.725123941898346,0.5371794700622559,-1.6519830862628382,0.0,0.006939116399735212,0.788127601146698,-0.0,0.019480643793940544,0.7995507717132568,-0.00045681657502427697,-0.11634056270122528
920.0,880.0,3.7304,0.5174,8.2469,-0.0463,0.369,-0.1669,-1.8217627010741175,-0.17986683547496796,2.6964378356933594,-1.865519642829895,0.00988355465233326,2.0377767086029053,4.980425882130422,0.7503961324691772,0.5345160365104675,-1.6519625822650355,0.0,0.021320383995771408,0.7881035208702087,-0.0,0.013666434213519096,0.7995387315750122,-0.00024621860939078033,-0.17417718470096588
920.0,880.0,3.7304,0.5174,8.2469,-0.0463,0.369,-0.1669,-1.8228208027281703,-0.1757306456565857,2.6985363960266113,-1.865362286567688,0.007696549408137798,2.0266494750976562,4.984981047898092,0.7681407332420349,0.5023552775382996,-1.6519792715655726,0.0,0.011564028449356556,0.7881436347961426,-0.0,0.0028010874520987272,0.7995428442955017,-0.0001515467301942408,-0.21381597220897675
920.0,880.0,3.7304,0.5174,8.2469,-0.0463,0.369,-0.1669,-1.824045797387594,-0.15587490797042847,2.719012498855591,-1.8653228282928467,0.009533253498375416,2.0645029544830322,4.991290497570791,0.7922456860542297,0.5268313884735107,-1.6519830862628382,0.0,0.010920336470007896,0.7881476879119873,-0.0,0.008719591423869133,0.7995189428329468,-0.001013208762742579,-0.1556655913591385
920.0,880.0,3.7304,0.5174,8.2469,-0.0463,0.369,-0.1669,-1.8250156841673792,-0.14799538254737854,2.6733150482177734,-1.8651903867721558,0.010636916384100914,2.0158631801605225,4.996093022614279,0.8013834953308105,0.5054391622543335,-1.6520069281207483,0.0,0.03193425387144089,0.7881837487220764,-0.0,0.013053893111646175,0.7994904518127441,-0.0007683743024244905,-0.16399909555912018
920.0,880.0,3.7304,0.5174,8.2469,-0.0463,0.369,-0.1669,-1.8258887730040492,-0.14692886173725128,2.700331687927246,-1.865271806716919,0.00875795353204012,1.9993150234222412,5.0010001240070245,0.809006929397583,0.5205816030502319,-1.6519907156573694,0.0,0.02242792584002018,0.7881072759628296,-0.0,0.008428179658949375,0.7995466589927673,-0.00016962987137958407,-0.17848488688468933
920.0,880.0,3.7304,0.5174,8.2469,-0.0463,0.369,-0.1669,-1.8268262348570765,-0.15199647843837738,2.6894288063049316,-1.8651831150054932,0.005491975694894791,1.9865143299102783,5.005835521012106,0.8101572394371033,0.5072931051254272,-1.6519950071917933,0.0,0.03217003121972084,0.788207471370697,-0.0,0.0188603438436985,0.79957515001297,-7.008006175368564e-09,-0.13587892055511475
920.0,880.0,3.7304,0.5174,8.2469,-0.0463,0.369,-0.1669,-1.8279677830138148,-0.15198580920696259,2.651266098022461,-1.8651580810546875,0.0027153887785971165,1.9974268674850464,5.012228715210714,0.8096649050712585,0.4970400631427765,-1.6519549528705042,0.0,0.026545722037553787,0.7881436347961426,-0.0,0.010040730237960815,0.7995548844337463,-2.270504637641858e-16,-0.15676777064800262
920.0,880.0,3.7304,0.5174,8.2469,-0.0463,0.369,-0.1669,-1.8288570843138636,-0.15152832865715027,2.6789710521698,-1.8651788234710693,0.0016503141960129142,2.0065879821777344,5.017046499043264,0.8014349341392517,0.4955812692642212,-1.6519830862628382,0.0,0.0289566982537508,0.7881596088409424,-0.0,0.01644732989370823,0.7995548844337463,-5.483001324456927e-22,-0.194311261177063
920.0,880.0,3.7304,0.5174,8.2469,-0.0463,0.369,-0.1669,-1.829722066918844,-0.14568090438842773,2.6598472595214844,-1.8651509284973145,0.0012109943199902773,1.9522955417633057,5.0217990455921075,0.7968313097953796,0.4988064765930176,-1.6519787947284144,0.0,0.022463630884885788,0.788175642490387,-0.0,0.00676451763138175,0.799587070941925,-1.3240803034401245e-27,-0.1623435765504837
920.0,880.0,3.7304,0.5174,8.2469,-0.0463,0.369,-0.1669,-1.830844064752096,-0.13936325907707214,2.604194402694702,-1.8651312589645386,0.001639127847738564,1.9957051277160645,5.028077202826299,0.7768583297729492,0.4739404320716858,-1.6519468466388147,0.0,0.04180501401424408,0.7882403135299683,-0.0,0.012378290295600891,0.7995589375495911,-4.28985126498389e-35,-0.16083845496177673
920.0,880.0,3.7304,0.5174,8.2469,-0.0463,0.369,-0.1669,-1.8316370449461878,-0.1398443579673767,2.6284608840942383,-1.8650826215744019,0.0016834056004881859,1.9593864679336548,5.0326387760932825,0.7612946629524231,0.48036739230155945,-1.6519830862628382,0.0,0.041714996099472046,0.7881513833999634,-0.0,0.008811673149466515,0.7995548248291016,-1.0359519287060508e-40,-0.15062884986400604
920.0,880.0,3.7304,0.5174,8.2469,-0.0463,0.369,-0.1669,-1.8325263462462367,-0.13998748362064362,2.597522258758545,-1.8651032447814941,0.0015045135514810681,1.9748666286468506,5.037107008486547,0.743498682975769,0.44615453481674194,-1.6519869009601038,0.0,0.03480561822652817,0.7881518602371216,-0.0,0.03150337189435959,0.799595057964325,0.0007154741906560957,-0.17673295736312866
914.0,911.0,0.7836,0.6694,9.186,-0.0438,0.7282,-0.1521,-1.8335958919920863,-0.13626304268836975,2.614047050476074,-1.86512291431427,0.0012752969050779939,1.9633746147155762,5.042916226177969,0.7197004556655884,0.4756844639778137,-1.6519830862628382,0.0,0.0385311022400856,0.788227915763855,-0.0,0.028687546029686928,0.7995665669441223,0.0006238166242837906,-0.21962511539459229
914.0,911.0,0.7836,0.6694,9.186,-0.0438,0.7282,-0.1521,-1.8343683681883753,-0.1414930522441864,2.5891594886779785,-1.8651270866394043,0.0007495038444176316,1.975268840789795,5.0470778224761865,0.6967126727104187,0.44878119230270386,-1.6519668737994593,0.0,0.040309056639671326,0.7881755828857422,-0.0,0.01411769911646843,0.7995466589927673,0.0005863940459676087,-0.1757870316505432
914.0,911.0,0.7836,0.6694,9.186,-0.0438,0.7282,-0.1521,-1.8352023563780726,-0.14585758745670319,2.547769784927368,-1.8650826215744019,0.0006134797586128116,1.9558451175689697,5.051237571030416,0.667054295539856,0.44147923588752747,-1.6519668737994593,0.0,0.052838411182165146,0.7881596088409424,-0.0,0.023623716086149216,0.7996231913566589,0.0004491774598136544,-0.15222319960594177
914.0,911.0,0.7836,0.6694,9.186,-0.0438,0.7282,-0.1521,-1.836055418054098,-0.14669716358184814,2.5263190269470215,-1.8650702238082886,0.0005133850499987602,1.9782660007476807,5.055203366070547,0.6481518149375916,0.45052725076675415,-1.6519625822650355,0.0,0.050202012062072754,0.788119375705719,-0.0,0.037618570029735565,0.7996070384979248,0.0003594544541556388,-0.14191628992557526
914.0,911.0,0.7836,0.6694,9.186,-0.0438,0.7282,-0.1521,-1.837191721002096,-0.1351771354675293,2.5687012672424316,-1.8650915622711182,0.006592994090169668,1.9279537200927734,5.0602687177951715,0.6144545078277588,0.4553599953651428,-1.6519349257098597,0.0,0.04575972631573677,0.7881878614425659,-0.0,0.024483976885676384,0.7996070384979248,0.00028386153280735016,-0.20649242401123047
914.0,911.0,0.7836,0.6694,9.186,-0.0438,0.7282,-0.1521,-1.8380195103087367,-0.12659341096878052,2.6139965057373047,-1.865043044090271,0.007899624295532703,2.0236268043518066,5.063860881119528,0.5916023850440979,0.44133448600769043,-1.6519625822650355,0.0,0.06107253581285477,0.7881476879119873,-0.0,0.03067389503121376,0.7995908856391907,0.00028121130890212953,-0.15157830715179443
914.0,911.0,0.7836,0.6694,9.186,-0.0438,0.7282,-0.1521,-1.8388353786864222,-0.13083592057228088,2.5889737606048584,-1.8649386167526245,0.007235949393361807,1.9646590948104858,5.067107069283285,0.5627003908157349,0.42742621898651123,-1.6519787947284144,0.0,0.04146462306380272,0.7882198691368103,-0.0,0.04386260733008385,0.7996355891227722,0.00028347349143587053,-0.15730543434619904
914.0,911.0,0.7836,0.6694,9.186,-0.0438,0.7282,-0.1521,-1.8399745426573695,-0.14513246715068817,2.5842456817626953,-1.8649146556854248,0.004537354223430157,2.0061333179473877,5.07141803482131,0.5183144211769104,0.4301328957080841,-1.6520031134234827,5.381161827244796e-07,0.050728995352983475,0.7881956100463867,-0.0,0.04605477303266525,0.7996191382408142,0.00019988782878499478,-0.17890246212482452
914.0,911.0,0.7836,0.6694,9.186,-0.0438,0.7282,-0.1521,-1.8408261738219203,-0.15575401484966278,2.512983798980713,-1.8648712635040283,0.004453517496585846,1.929198145866394,5.0743840513523,0.4974730908870697,0.42944878339767456,-1.6519587675677698,1.497866275457227e-10,0.04816890135407448,0.7881836891174316,-0.0,0.040849342942237854,0.7995991110801697,0.00014526760787703097,-0.15686121582984924
914.0,911.0,0.7836,0.6694,9.186,-0.0438,0.7282,-0.1521,-1.8416973553099574,-0.15445177257061005,2.5887222290039062,-1.8648637533187866,0.009055214002728462,1.9766243696212769,5.077310430794515,0.4777109920978546,0.43713799118995667,-1.6519787947284144,4.1693648452365353e-14,0.05476289987564087,0.7881349921226501,-0.0,0.027403591200709343,0.7995988726615906,-0.000214514002436772,-0.2409219592809677
914.0,911.0,0.7836,0.6694,9.186,-0.0438,0.7282,-0.1521,-1.842649599114889,-0.1428254246711731,2.5853564739227295,-1.86467444896698,0.01616169512271881,2.019620895385742,5.080053466349401,0.4509519934654236,0.42665380239486694,-1.6519911924945276,1.1605581394954781e-17,0.04125863313674927,0.7881472706794739,-0.0,0.043291546404361725,0.7995587587356567,-0.00032947486033663154,-0.22997263073921204
914.0,911.0,0.7836,0.6694,9.186,-0.0438,0.7282,-0.1521,-1.8438569507994593,-0.1271907538175583,2.6769158840179443,-1.864595651626587,0.023516109213232994,1.9854285717010498,5.083535152464666,0.4167028069496155,0.40238937735557556,-1.6519625822650355,2.1092572981219e-22,0.07172051072120667,0.7881555557250977,-0.0,0.035920336842536926,0.7996111512184143,-0.00013154737825971097,-0.2562558054924011
914.0,911.0,0.7836,0.6694,9.186,-0.0438,0.7282,-0.1521,-1.8447324238219203,-0.1361929327249527,2.6357078552246094,-1.8645074367523193,0.023862691596150398,2.016942024230957,5.085849243193426,0.3744809627532959,0.39589887857437134,-1.6519830862628382,5.871194662125369e-26,0.0644993856549263,0.788175642490387,-0.0,0.033307500183582306,0.7995988726615906,-2.326618453452056e-09,-0.1838386356830597
914.0,911.0,0.7836,0.6694,9.186,-0.0438,0.7282,-0.1521,-1.845590730706686,-0.15578417479991913,2.6297378540039062,-1.8643790483474731,0.020870832726359367,1.9963736534118652,5.088001924544134,0.33966881036758423,0.38738638162612915,-1.6519745031939905,1.634268467778725e-29,0.06347186863422394,0.7882360816001892,-0.0,0.025552967563271523,0.7995988726615906,-5.618509723090545e-15,-0.21183550357818604
915.0,906.0,-0.7591,0.6251,9.5874,-0.038,0.3635,-0.1339,-1.8468743763365687,-0.17124848067760468,2.6407570838928223,-1.8640871047973633,0.0247404333204031,1.9570165872573853,5.09047349074439,0.2866927683353424,0.35302793979644775,-1.6519349257098597,2.9702010139268505e-34,0.06957369297742844,0.788115382194519,-0.0,0.038454569876194,0.799562394618988,-1.8203255688787969e-22,-0.23607033491134644
915.0,906.0,-0.7591,0.6251,9.5874,-0.038,0.3635,-0.1339,-1.8478056393065394,-0.16666975617408752,2.596928119659424,-1.8639347553253174,0.03456217795610428,1.9799045324325562,5.092142867832937,0.2409292608499527,0.33606529235839844,-1.6519506613360804,8.267663181593964e-38,0.060188159346580505,0.7882079482078552,-0.0,0.04125295206904411,0.7995991110801697,-0.0004161113465670496,-0.23281951248645782
915.0,906.0,-0.7591,0.6251,9.5874,-0.038,0.3635,-0.1339,-1.8487330875792445,-0.14362359046936035,2.6334404945373535,-1.8636631965637207,0.04551272839307785,2.032784938812256,5.093434828310766,0.21220213174819946,0.3154866695404053,-1.6519387404071253,2.301352467960647e-41,0.05757037550210953,0.7881596088409424,-0.0,0.03057832643389702,0.7995747327804565,-0.0003953464620281011,-0.1829942762851715
915.0,906.0,-0.7591,0.6251,9.5874,-0.038,0.3635,-0.1339,-1.8499518833556117,-0.1305074244737625,2.703641891479492,-1.8633348941802979,0.05089833587408066,2.0369873046875,5.094889628678121,0.17461857199668884,0.3093913793563843,-1.6519587675677698,0.0,0.05848502367734909,0.7882279753684998,-0.0,0.032994866371154785,0.7996191382408142,-0.0001026262907544151,-0.2313750982284546
915.0,906.0,-0.7591,0.6251,9.5874,-0.038,0.3635,-0.1339,-1.8509003124632777,-0.1380307823419571,2.6925487518310547,-1.8630075454711914,0.0497315414249897,2.0601389408111572,5.095794218569555,0.12849049270153046,0.3032580316066742,-1.6519587675677698,0.0,0.058848656713962555,0.788191556930542,-0.0,0.024914611130952835,0.799626886844635,-2.4783039509479465e-10,-0.22869056463241577
915.0,906.0,-0.7591,0.6251,9.5874,-0.038,0.3635,-0.1339,-1.8517028294005335,-0.15365776419639587,2.705350875854492,-1.8627153635025024,0.04517341032624245,2.039393424987793,5.09643583276824,0.09773175418376923,0.27778345346450806,-1.6519668737994593,0.0,0.06534210592508316,0.7881472706794739,-0.0,0.03036472573876381,0.7996471524238586,0.0010397866135463119,-0.2624337077140808
915.0,906.0,-0.7591,0.6251,9.5874,-0.038,0.3635,-0.1339,-1.8525868854918421,-0.16536761820316315,2.665834426879883,-1.862442970275879,0.0435793362557888,1.998403549194336,5.096862363606252,0.06856906414031982,0.26002708077430725,-1.6519869009601038,0.0,0.044192567467689514,0.7882000803947449,-0.0,0.03741101175546646,0.7996470928192139,0.0007456893799826503,-0.2335093915462494
915.0,906.0,-0.7591,0.6251,9.5874,-0.038,0.3635,-0.1339,-1.8537174663939417,-0.15261907875537872,2.7196455001831055,-1.8620026111602783,0.05245286226272583,2.0217390060424805,5.097260701447286,0.025555770844221115,0.2301080971956253,-1.6519950071917933,0.0,0.0566403791308403,0.7881677746772766,-0.0,0.03578721731901169,0.7996392250061035,-0.000176225250470452,-0.23969820141792297
915.0,906.0,-0.7591,0.6251,9.5874,-0.038,0.3635,-0.1339,-1.8545810184874476,-0.12755855917930603,2.7567198276519775,-1.8616546392440796,0.06627339124679565,2.0639755725860596,5.097332465439596,3.483330829112674e-06,0.24237440526485443,-1.6519587675677698,0.0,0.06369175761938095,0.7881312966346741,-0.0,0.03347121179103851,0.7996152639389038,-0.0003360471746418625,-0.24253731966018677
915.0,906.0,-0.7591,0.6251,9.5874,-0.038,0.3635,-0.1339,-1.8553806744017542,-0.11202546209096909,2.7423348426818848,-1.8612308502197266,0.07935219258069992,2.046088218688965,5.097292619734564,-0.013233144767582417,0.2421669214963913,-1.6519668737994593,0.0,0.06244705617427826,0.7881919145584106,-0.0,0.019387338310480118,0.7996392250061035,-0.00027999115991406143,-0.23334471881389618
915.0,906.0,-0.7591,0.6251,9.5874,-0.038,0.3635,-0.1339,-1.8563806019225062,-0.11634613573551178,2.751115322113037,-1.8606112003326416,0.08658408373594284,2.0990047454833984,5.097168910294332,-0.014317548833787441,0.23256874084472656,-1.6519468466388147,0.0,0.06114555522799492,0.7881996631622314,-0.0,0.04380738362669945,0.7996471524238586,-2.9758448483185873e-10,-0.18531548976898193
915.0,906.0,-0.7591,0.6251,9.5874,-0.038,0.3635,-0.1339,-1.857119699517721,-0.13464386761188507,2.765392541885376,-1.860067367553711,0.0887029692530632,2.1360700130462646,5.097057330399313,-0.011131569743156433,0.22391828894615173,-1.6519392172442835,0.0,0.05879104882478714,0.7881555557250977,-0.0,0.03521427512168884,0.7996471524238586,0.0005778743070550263,-0.18222901225090027
915.0,906.0,-0.7591,0.6251,9.5874,-0.038,0.3635,-0.1339,-1.85797180751943,-0.148615300655365,2.728684425354004,-1.8595037460327148,0.09215585142374039,2.111422300338745,5.097001242428579,-0.004705649800598621,0.2289922535419464,-1.6519430319415491,0.0,0.05522334203124046,0.7881796360015869,-0.0,0.019218552857637405,0.7996347546577454,0.0005057919770479202,-0.25929003953933716
939.0,910.0,1.121,1.2903,11.5807,-0.0208,-0.1095,-0.1258,-1.8589626751341761,-0.13919907808303833,2.704721450805664,-1.8586437702178955,0.10607735812664032,2.1367340087890625,5.097089576512136,0.000892316922545433,0.23120500147342682,-1.6519110838519495,0.0,0.045934006571769714,0.7882799506187439,-0.0,0.034842345863580704,0.7995583415031433,-0.0011958528775721788,-0.2180348038673401
939.0,910.0,1.121,1.2903,11.5807,-0.0208,-0.1095,-0.1258,-1.8597060642638148,-0.12542858719825745,2.737732410430908,-1.8579516410827637,0.11814245581626892,2.1059319972991943,5.097069251328268,0.0017189820064231753,0.23619630932807922,-1.651947323475973,0.0,0.057545218616724014,0.7881473898887634,-0.0,0.021916784346103668,0.7996029257774353,-0.0012081319000571966,-0.2639882564544678
939.0,910.0,1.121,1.2903,11.5807,-0.0208,-0.1095,-0.1258,-1.860434194604391,-0.10984079539775848,2.7485451698303223,-1.857215166091919,0.1283644288778305,2.172163486480713,5.097065138607778,0.0010134967742487788,0.23955869674682617,-1.6519511381732386,6.15796961938031e-05,0.07181231677532196,0.7881755232810974,-0.0,0.028952043503522873,0.7996350526809692,-0.000704058853443712,-0.28202110528945923
939.0,910.0,1.121,1.2903,11.5807,-0.0208,-0.1095,-0.1258,-1.8611451588072718,-0.10350534319877625,2.8078370094299316,-1.856472373008728,0.1359485238790512,2.18403959274292,5.097069251328268,0.0007121188100427389,0.2300003170967102,-1.6519630591021937,5.91765419812873e-05,0.05458846688270569,0.7881596088409424,-0.0,0.02323634922504425,0.7996793985366821,-9.703836985863745e-05,-0.24260717630386353
939.0,910.0,1.121,1.2903,11.5807,-0.0208,-0.1095,-0.1258,-1.8619963131346644,-0.10969136655330658,2.775878429412842,-1.8553483486175537,0.1473863124847412,2.145679473876953,5.097049462586202,9.349366882815957e-05,0.22566020488739014,-1.6519392172442835,4.497711779549718e-05,0.05377675220370293,0.7881715297698975,-0.0,0.030626829713582993,0.799659013748169,-3.143920236994835e-12,-0.2240815907716751
939.0,910.0,1.121,1.2903,11.5807,-0.0208,-0.1095,-0.1258,-1.8626719913878382,-0.12060046195983887,2.758430004119873,-1.8544448614120483,0.1559772938489914,2.1986520290374756,5.097001242428579,8.186769662188453e-08,0.23338358104228973,-1.651971165333883,4.335661287768744e-05,0.050284434109926224,0.7882000803947449,-0.0,0.021823015064001083,0.7996190786361694,-7.592197015798547e-18,-0.28474026918411255
939.0,910.0,1.121,1.2903,11.5807,-0.0208,-0.1095,-0.1258,-1.8633924923338832,-0.12219736725091934,2.7821590900421143,-1.853463888168335,0.16576845943927765,2.200878620147705,5.097041654377737,2.278817586021109e-11,0.24432891607284546,-1.651931111012594,5.742605571867898e-05,0.05634402483701706,0.7882320284843445,-0.0,0.027000347152352333,0.7995624542236328,-1.8334264974761643e-23,-0.21625638008117676
939.0,910.0,1.121,1.2903,11.5807,-0.0208,-0.1095,-0.1258,-1.8641954861082972,-0.10990893840789795,2.8031740188598633,-1.8521045446395874,0.17326609790325165,2.216804027557373,5.097077327757635,4.14163879930703e-16,0.24250879883766174,-1.6519349257098597,4.575032653519884e-05,0.07298220694065094,0.7881353497505188,-0.0,0.026256389915943146,0.7996149659156799,-5.940068709083686e-31,-0.2699566185474396
939.0,910.0,1.121,1.2903,11.5807,-0.0208,-0.1095,-0.1258,-1.864786764184469,-0.10059592872858047,2.761291742324829,-1.8510123491287231,0.1869737058877945,2.2126941680908203,5.0970855233962915,0.00018216819444205612,0.23225492238998413,-1.6519630591021937,3.969504177803174e-05,0.0649617463350296,0.7881755828857422,-0.0,0.028634868562221527,0.7996190786361694,-1.4344565491070566e-36,-0.27374565601348877
939.0,910.0,1.121,1.2903,11.5807,-0.0208,-0.1095,-0.1258,-1.8654428921141566,-0.09697985649108887,2.7946438789367676,-1.849845051765442,0.2024032324552536,2.275292158126831,5.097057330399313,0.00011050749162677675,0.22966687381267548,-1.6519988218890589,3.505563290673308e-05,0.07092292606830597,0.788191556930542,-0.0,0.01775156706571579,0.7996553778648376,-3.464009803810948e-42,-0.31134033203125
939.0,910.0,1.121,1.2903,11.5807,-0.0208,-0.1095,-0.1258,-1.866054197350973,-0.10106196999549866,2.8157310485839844,-1.8486493825912476,0.21380332112312317,2.262460708618164,5.097049462586202,2.117549456670531e-06,0.2407168447971344,-1.651947323475973,3.138739339192398e-05,0.0664852038025856,0.7881796956062317,-0.0,0.02594764344394207,0.7996391654014587,-0.0,-0.3050297796726227
939.0,910.0,1.121,1.2903,11.5807,-0.0208,-0.1095,-0.1258,-1.8668815098204554,-0.11090511083602905,2.8119494915008545,-1.8468371629714966,0.2158839851617813,2.244412899017334,5.097025382309713,3.848541624273949e-11,0.22275882959365845,-1.651971165333883,2.754445085884072e-05,0.06707336008548737,0.7881956100463867,-0.0,0.014239275828003883,0.7996794581413269,0.0,-0.275874525308609
939.0,910.0,1.121,1.2903,11.5807,-0.0208,-0.1095,-0.1258,-1.8675452671446742,-0.11726683378219604,2.7901673316955566,-1.8454636335372925,0.22515536844730377,2.251234292984009,5.0970091102416895,1.0712556126999014e-14,0.239235520362854,-1.651971165333883,4.712731606559828e-05,0.059930868446826935,0.7881472706794739,-0.0,0.03476453945040703,0.7995988726615906,9.413701627636328e-05,-0.33371976017951965
939.0,910.0,1.121,1.2903,11.5807,-0.0208,-0.1095,-0.1258,-1.8682533703246058,-0.11100716888904572,2.783430576324463,-1.8440297842025757,0.2388860434293747,2.2817635536193848,5.097005355149069,2.9818791951594923e-18,0.22343461215496063,-1.6519268194781702,4.654088115785271e-05,0.06358308345079422,0.7882198691368103,-0.0,0.021668538451194763,0.7996430397033691,8.138017437886447e-05,-0.2927325963973999
917.0,921.0,0.9523,1.0546,10.4836,-0.0113,0.1373,-0.1332,-1.8691288433470667,-0.09771296381950378,2.786515235900879,-1.842069387435913,0.25429579615592957,2.2680602073669434,5.097013193159857,5.419418251971899e-23,0.2212936282157898,-1.6518986860858362,4.2179093725280836e-05,0.06518597900867462,0.7882238626480103,-0.0,0.033793166279792786,0.7996389865875244,3.445809488766827e-05,-0.30040648579597473
917.0,921.0,0.9523,1.0546,10.4836,-0.0113,0.1373,-0.1332,-1.8697196445860804,-0.09883939474821091,2.7454090118408203,-1.8405441045761108,0.2573833763599396,2.249445676803589,5.097061562329092,1.5085148275228305e-26,0.22763997316360474,-1.6519110838519495,3.9408601878676564e-05,0.06397777050733566,0.7881996631622314,-0.0,0.02725115604698658,0.7996507883071899,3.098839442827739e-05,-0.24973048269748688
917.0,921.0,0.9523,1.0546,10.4836,-0.0113,0.1373,-0.1332,-1.8703633747496546,-0.10804125666618347,2.768860101699829,-1.8388668298721313,0.2671021521091461,2.287874698638916,5.097057628422537,4.19900688045931e-30,0.22501865029335022,-1.651947323475973,3.697964712046087e-05,0.07116186618804932,0.7882198691368103,-0.0,0.027551110833883286,0.7996671199798584,0.00012269035505596548,-0.30743327736854553
917.0,921.0,0.9523,1.0546,10.4836,-0.0113,0.1373,-0.1332,-1.8713113270201625,-0.12164479494094849,2.7536516189575195,-1.8367228507995605,0.2792928218841553,2.340364456176758,5.096977489977636,-0.0003024661273229867,0.21883396804332733,-1.6519911924945276,3.417147308937274e-05,0.07252919673919678,0.7881919145584106,-0.0,0.02735663205385208,0.7996712923049927,0.00014463820843957365,-0.2826395630836487
917.0,921.0,0.9523,1.0546,10.4836,-0.0113,0.1373,-0.1332,-1.872059007684225,-0.12835997343063354,2.812784433364868,-1.8350017070770264,0.28488507866859436,2.2673027515411377,5.097021537810125,-0.0010254030348733068,0.2225179374217987,-1.6519230047809046,4.432718924363144e-05,0.07214280962944031,0.7882156372070312,-0.0,0.017695721238851547,0.7996430397033691,0.0001802913611754775,-0.3339323103427887
917.0,921.0,0.9523,1.0546,10.4836,-0.0113,0.1373,-0.1332,-1.8727861843504847,-0.12984398007392883,2.765503406524658,-1.8332206010818481,0.2984583377838135,2.325697898864746,5.097009408264913,-0.0003318287490401417,0.2329234480857849,-1.6519468466388147,4.601449109031819e-05,0.06599269807338715,0.788159191608429,-0.0,0.021238170564174652,0.7996630668640137,0.00013864703942090273,-0.3058415651321411
917.0,921.0,0.9523,1.0546,10.4836,-0.0113,0.1373,-0.1332,-1.8735619984068812,-0.12187151610851288,2.787334680557251,-1.8313969373703003,0.31412607431411743,2.362196922302246,5.09702946522788,-0.00020198646234348416,0.22967419028282166,-1.6519148985492151,4.377738878247328e-05,0.07481319457292557,0.7881796360015869,-0.0,0.029522165656089783,0.799602746963501,0.00011261759209446609,-0.3353656530380249
917.0,921.0,0.9523,1.0546,10.4836,-0.0113,0.1373,-0.1332,-1.8745886288084925,-0.11597474664449692,2.8331336975097656,-1.828864574432373,0.32551833987236023,2.3338890075683594,5.096929508238592,-0.00028974979068152606,0.22066059708595276,-1.6519387404071253,4.111109592486173e-05,0.07543083280324936,0.7882603406906128,-0.0,0.02210640162229538,0.7996794581413269,0.00013447311357595026,-0.298921138048172
917.0,921.0,0.9523,1.0546,10.4836,-0.0113,0.1373,-0.1332,-1.8754407368102015,-0.12552468478679657,2.8263535499572754,-1.8269193172454834,0.33087214827537537,2.388749599456787,5.09696992018775,-0.002688512671738863,0.22525781393051147,-1.6519110838519495,3.9315207686740905e-05,0.0747610405087471,0.7881755232810974,-0.0,0.032171256840229034,0.799674928188324,0.0001611987390788272,-0.344595342874527
917.0,921.0,0.9523,1.0546,10.4836,-0.0113,0.1373,-0.1332,-1.876155515710348,-0.14393770694732666,2.760561943054199,-1.8249157667160034,0.3286004662513733,2.349020004272461,5.09695793965415,-0.0059202248230576515,0.20581716299057007,-1.6519587675677698,3.766966983675957e-05,0.07255236804485321,0.7881996631622314,-0.0,0.0398610383272171,0.7996343970298767,0.0008194389520213008,-0.3408155143260956
