ramyac6/ROB537/final_project/csv/good/good_237.csv
tof_0,tof_1,accelx,accely,accelz,gyrox,gyroy,gyroz,shoulder_lift_joint_position,shoulder_lift_joint_velocity,shoulder_lift_joint_effort,elbow_joint_position,elbow_joint_velocity,elbow_joint_effort,wrist_1_joint_position,wrist_1_joint_velocity,wrist_1_joint_effort,wrist_2_joint_position,wrist_2_joint_velocity,wrist_2_joint_effort,wrist_3_joint_position,wrist_3_joint_velocity,wrist_3_joint_effort,shoulder_pan_joint_position,shoulder_pan_joint_velocity,shoulder_pan_joint_effort
168.0,190.0,-6.8764,0.6245,7.2724,-0.0307,0.0217,-0.1116,-2.6295558414854945,0.0,5.810854434967041,-0.7130036354064941,-0.0,2.063849449157715,5.50617681720809,-0.0,0.17209076881408691,-1.7278693358050745,0.0,0.009208356961607933,0.6107760667800903,0.0,0.0036511868238449097,1.1346440315246582,0.0,0.004629143513739109
168.0,190.0,-6.8764,0.6245,7.2724,-0.0307,0.0217,-0.1116,-2.629559179345602,0.0,5.818272590637207,-0.7130242586135864,-0.0,2.0780117511749268,5.506241190224447,-0.0,0.1758580505847931,-1.7278736273394983,0.0,0.00745360367000103,0.6107403635978699,0.0,-0.00540370587259531,1.1346681118011475,0.0,-0.04344708472490311
168.0,190.0,-6.8764,0.6245,7.2724,-0.0307,0.0217,-0.1116,-2.629531522790426,0.0,5.807106018066406,-0.7130279541015625,-0.0,2.0569815635681152,5.506253051548757,-0.0,0.1698780357837677,-1.7278855482684534,0.0,0.005440767388790846,0.610827624797821,0.0,0.00449859956279397,1.1346358060836792,0.0,-0.017198314890265465
168.0,190.0,-6.8764,0.6245,7.2724,-0.0307,0.0217,-0.1116,-2.6295272312560023,0.0,5.799407958984375,-0.7129793167114258,-0.0,2.1140596866607666,5.506241190224447,-0.0,0.15876269340515137,-1.7278693358050745,0.0,0.008439346216619015,0.61073237657547,0.0,-0.010024257004261017,1.134575366973877,0.0,-0.007206610403954983
168.0,190.0,-6.8764,0.6245,7.2724,-0.0307,0.0217,-0.1116,-2.629571577111715,0.0,5.800166130065918,-0.7130199670791626,-0.0,2.0549821853637695,5.506176399975576,-0.0,0.16432997584342957,-1.7278779188739222,0.0,-0.006145475897938013,0.6107479333877563,0.0,0.008537174202501774,1.1346845626831055,0.0,-0.007865563966333866
168.0,190.0,-6.8764,0.6245,7.2724,-0.0307,0.0217,-0.1116,-2.6295396290221156,0.0,5.865750312805176,-0.7130077481269836,-0.0,2.0234506130218506,5.506233083992758,-0.0,0.1599159687757492,-1.7279017607318323,0.0,0.005212246440351009,0.6107519865036011,0.0,0.013179665431380272,1.1346559524536133,0.0,-0.005106976721435785
168.0,190.0,-6.8764,0.6245,7.2724,-0.0307,0.0217,-0.1116,-2.629571577111715,0.0,5.853155136108398,-0.7129912972450256,-0.0,2.0393781661987305,5.506241309433737,-0.0,0.17018505930900574,-1.72784930864443,0.0,-0.006446400657296181,0.6107879877090454,0.0,0.005563097074627876,1.134648084640503,0.0,-0.024997711181640625
168.0,190.0,-6.8764,0.6245,7.2724,-0.0307,0.0217,-0.1116,-2.6295515499510707,0.0,5.838197708129883,-0.7130522131919861,-0.0,2.1003870964050293,5.506269442826071,-0.0,0.16586312651634216,-1.7278574148761194,0.0,0.004832153208553791,0.6108236312866211,0.0,-0.0129397576674819,1.1346276998519897,0.0,-0.04314674437046051
171.0,190.0,-6.9272,0.6221,7.2993,-0.0409,0.0237,-0.1197,-2.6295958958067835,0.0,5.81632137298584,-0.7130118608474731,-0.0,2.0582187175750732,5.506208824902334,-0.0,0.15707238018512726,-1.727861229573385,0.0,0.0026002998929470778,0.6108394861221313,0.0,-0.0103245098143816,1.134656310081482,0.0,0.02373475208878517
171.0,190.0,-6.9272,0.6221,7.2993,-0.0409,0.0237,-0.1197,-2.629575868646139,0.0,5.839631080627441,-0.7129313349723816,-0.0,2.05912184715271,5.506237137108602,-0.0,0.16439436376094818,-1.7278693358050745,0.0,0.010270414873957634,0.610784113407135,0.0,-0.001163496170192957,1.1346276998519897,0.0,0.034048549830913544
171.0,190.0,-6.9272,0.6221,7.2993,-0.0409,0.0237,-0.1197,-2.6295515499510707,0.0,5.799068450927734,-0.7130160331726074,-0.0,1.9848322868347168,5.5062046525772,-0.0,0.16865618526935577,-1.7278779188739222,0.0,0.011679379269480705,0.6108037829399109,0.0,0.0026021727826446295,1.1346358060836792,0.0,-0.007681476883590221
171.0,190.0,-6.9272,0.6221,7.2993,-0.0409,0.0237,-0.1197,-2.6295796833434046,0.0,5.789083957672119,-0.7130118012428284,-0.0,2.0763142108917236,5.506216573506155,-0.0,0.1628974974155426,-1.7279494444476526,0.0,0.0014650947414338589,0.61073237657547,0.0,0.0028809569776058197,1.1346317529678345,0.0,-0.03741521015763283
171.0,190.0,-6.9272,0.6221,7.2993,-0.0409,0.0237,-0.1197,-2.6295515499510707,0.0,5.863558292388916,-0.7130119204521179,-0.0,2.088897466659546,5.506233024388113,-0.0,0.16021385788917542,-1.7278412024127405,0.0,0.006813212297856808,0.6107479929924011,0.0,-0.01475686114281416,1.1346640586853027,0.0,-0.00970680732280016
171.0,190.0,-6.9272,0.6221,7.2993,-0.0409,0.0237,-0.1197,-2.6295558414854945,0.0,5.826117038726807,-0.7129632830619812,-0.0,2.0446972846984863,5.5062046525772,-0.0,0.16213658452033997,-1.7278536001788538,0.0,-0.013774579390883446,0.6107364296913147,0.0,0.004621237516403198,1.1346640586853027,0.0,-0.039330147206783295
171.0,190.0,-6.9272,0.6221,7.2993,-0.0409,0.0237,-0.1197,-2.6295000515379847,0.0,5.793262481689453,-0.7130324244499207,-0.0,2.071951389312744,5.506241190224447,-0.0,0.15916679799556732,-1.7278731505023401,0.0,0.0017683302285149693,0.6107442378997803,0.0,0.001268215011805296,1.1346681118011475,0.0,0.014911082573235035
171.0,190.0,-6.9272,0.6221,7.2993,-0.0409,0.0237,-0.1197,-2.629543443719381,0.0,5.803591728210449,-0.7130118608474731,-0.0,2.04815411567688,5.506184923439779,-0.0,0.15595033764839172,-1.7278936545001429,0.0,0.017727570608258247,0.6107840538024902,0.0,0.0036609696689993143,1.1346640586853027,0.0,0.02052718959748745
171.0,190.0,-6.9272,0.6221,7.2993,-0.0409,0.0237,-0.1197,-2.6295353374876917,0.0,5.804746627807617,-0.7130362391471863,-0.0,2.0692338943481445,5.506208884506979,-0.0,0.165005624294281,-1.7278655211078089,0.0,-0.007049313746392727,0.6108196973800659,0.0,-0.004860433284193277,1.1346521377563477,0.0,0.004704127553850412
171.0,190.0,-6.9272,0.6221,7.2993,-0.0409,0.0237,-0.1197,-2.629571100274557,0.0,5.801906585693359,-0.7129995822906494,-0.0,2.043522357940674,5.506201016693868,-0.0,0.15873068571090698,-1.7278454939471644,0.0,0.0009486968629062176,0.6107403635978699,0.0,0.005925378762185574,1.1346640586853027,0.0,0.045504163950681686
171.0,190.0,-6.9272,0.6221,7.2993,-0.0409,0.0237,-0.1197,-2.6295553646483363,0.0,5.807038307189941,-0.7130077481269836,-0.0,2.0524709224700928,5.506201016693868,-0.0,0.1704583466053009,-1.7278855482684534,0.0,-0.003725279588252306,0.6107598543167114,0.0,0.004354940727353096,1.134656310081482,0.0,0.012470973655581474
171.0,190.0,-6.9272,0.6221,7.2993,-0.0409,0.0237,-0.1197,-2.6295515499510707,0.0,5.777365207672119,-0.7130563259124756,-0.0,2.0806941986083984,5.506228911667623,-0.0,0.17574633657932281,-1.7278454939471644,0.0,-0.0028444211930036545,0.6107519865036011,0.0,0.0029846318066120148,1.1346238851547241,0.0,-0.02150367945432663
171.0,190.0,-6.9272,0.6221,7.2993,-0.0409,0.0237,-0.1197,-2.629575391808981,0.0,5.813169479370117,-0.7129834890365601,-0.0,1.9958720207214355,5.506228971272268,-0.0,0.15049618482589722,-1.7278693358050745,0.0,-0.007090084720402956,0.6107918620109558,0.0,0.00975562073290348,1.1346681118011475,0.0,-0.01854807883501053
171.0,190.0,-6.9272,0.6221,7.2993,-0.0409,0.0237,-0.1197,-2.6295834980406703,0.0,5.81409215927124,-0.7130036354064941,-0.0,2.0587687492370605,5.506233024388113,-0.0,0.17203158140182495,-1.7279136816607874,0.0,-0.01101164985448122,0.6107678413391113,0.0,0.0007080507930368185,1.134648084640503,0.0,-0.0017652488313615322
171.0,190.0,-6.9272,0.6221,7.2993,-0.0409,0.0237,-0.1197,-2.6295353374876917,0.0,5.847187519073486,-0.7129715085029602,-0.0,2.0202651023864746,5.506180929928579,-0.0,0.1681426763534546,-1.7278536001788538,0.0,-0.007322278339415789,0.6107519865036011,0.0,0.008913710713386536,1.1347084045410156,0.0,0.038848794996738434
177.0,197.0,-6.8495,0.5982,7.3717,-0.0377,0.0246,-0.1095,-2.629531522790426,0.0,5.788873672485352,-0.7129834890365601,-0.0,2.082695722579956,5.506196963578024,-0.0,0.16850128769874573,-1.7279017607318323,0.0,0.007783066481351852,0.6107678413391113,0.0,-0.005505690351128578,1.1346521377563477,0.0,0.0007788129150867462
177.0,197.0,-6.8495,0.5982,7.3717,-0.0377,0.0246,-0.1095,-2.6295515499510707,0.0,5.851009368896484,-0.7130077481269836,-0.0,2.046271800994873,5.506237017899313,-0.0,0.16539254784584045,-1.7278855482684534,0.0,-0.00037918658927083015,0.6107162237167358,0.0,0.008928155526518822,1.1346440315246582,0.0,0.017921380698680878
177.0,197.0,-6.8495,0.5982,7.3717,-0.0377,0.0246,-0.1095,-2.6295834980406703,0.0,5.8111114501953125,-0.7130398750305176,-0.0,2.055567502975464,5.506224858551779,-0.0,0.16970297694206238,-1.7278817335711878,0.0,0.0006791763007640839,0.6107756495475769,0.0,0.011243733577430248,1.1346482038497925,0.0,0.05783385410904884
177.0,197.0,-6.8495,0.5982,7.3717,-0.0377,0.0246,-0.1095,-2.629563947717184,0.0,5.804033279418945,-0.7130362391471863,-0.0,2.098134756088257,5.5062370775039575,-0.0,0.17444266378879547,-1.727837387715475,0.0,0.01472130510956049,0.6107482314109802,0.0,0.014193004928529263,1.134656310081482,0.0,0.008126385509967804
177.0,197.0,-6.8495,0.5982,7.3717,-0.0377,0.0246,-0.1095,-2.6295234165587367,0.0,5.79720401763916,-0.7129632830619812,-0.0,2.087869167327881,5.506176876812734,-0.0,0.1584264189004898,-1.7278416792498987,0.0,0.006111585069447756,0.6108077168464661,0.0,0.005373734049499035,1.1346559524536133,0.0,0.01642473042011261
177.0,197.0,-6.8495,0.5982,7.3717,-0.0377,0.0246,-0.1095,-2.6295234165587367,0.0,5.843399524688721,-0.7130361795425415,-0.0,2.045398712158203,5.506225275784292,-0.0,0.16493003070354462,-1.7278855482684534,0.0,0.006865818984806538,0.6107756495475769,0.0,0.008651027455925941,1.1346280574798584,0.0,0.020171979442238808
177.0,197.0,-6.8495,0.5982,7.3717,-0.0377,0.0246,-0.1095,-2.6295720539488734,0.0,5.781670570373535,-0.7130118608474731,-0.0,2.067439317703247,5.5061886785324,-0.0,0.1727103292942047,-1.7279017607318323,0.0,0.015550910495221615,0.6107205748558044,0.0,0.010431411676108837,1.1346358060836792,0.0,0.01630161702632904
177.0,197.0,-6.8495,0.5982,7.3717,-0.0377,0.0246,-0.1095,-2.629519601861471,0.0,5.8005290031433105,-0.7130160331726074,-0.0,2.0737338066101074,5.506241190224447,-0.0,0.1598246991634369,-1.7278416792498987,0.0,0.016646988689899445,0.6107559204101562,0.0,0.005893867462873459,1.134648084640503,0.0,0.015458881855010986
177.0,197.0,-6.8495,0.5982,7.3717,-0.0377,0.0246,-0.1095,-2.6295834980406703,0.0,5.7944159507751465,-0.7130599617958069,-0.0,2.0569634437561035,5.506273197918691,-0.0,0.1618039458990097,-1.7278817335711878,0.0,0.0007719075656495988,0.6108037233352661,0.0,0.013585961423814297,1.1346681118011475,0.0,0.015230602584779263
177.0,197.0,-6.8495,0.5982,7.3717,-0.0377,0.0246,-0.1095,-2.6295553646483363,0.0,5.788137912750244,-0.7129879593849182,-0.0,2.1224660873413086,5.506237137108602,-0.0,0.17827452719211578,-1.7278693358050745,0.0,0.007602235302329063,0.6107638478279114,0.0,-0.0005174130201339722,1.134687900543213,0.0,-0.004675841424614191
177.0,197.0,-6.8495,0.5982,7.3717,-0.0377,0.0246,-0.1095,-2.6295634708800257,0.0,5.790412425994873,-0.7130324244499207,-0.0,2.0809690952301025,5.5062370775039575,-0.0,0.15303803980350494,-1.7278817335711878,0.0,-0.0038739757146686316,0.6108196973800659,0.0,0.00549650052562356,1.1346640586853027,0.0,-0.03691218048334122
177.0,197.0,-6.8495,0.5982,7.3717,-0.0377,0.0246,-0.1095,-2.6295439205565394,0.0,5.796649932861328,-0.7130399346351624,-0.0,2.043658971786499,5.506205069809713,-0.0,0.164263054728508,-1.7278693358050745,0.0,0.010605567134916782,0.6107003688812256,0.0,0.012949993833899498,1.1346640586853027,0.0,0.020833278074860573
177.0,197.0,-6.8495,0.5982,7.3717,-0.0377,0.0246,-0.1095,-2.6295558414854945,0.0,5.802323341369629,-0.713032066822052,-0.0,2.0352835655212402,5.506201016693868,-0.0,0.16628947854042053,-1.7278574148761194,0.0,0.0060748569667339325,0.6107797026634216,0.0,-0.00046584667870774865,1.1346919536590576,0.0,-0.026423465460538864
177.0,197.0,-6.8495,0.5982,7.3717,-0.0377,0.0246,-0.1095,-2.6295916042723597,0.0,5.85940408706665,-0.7130036354064941,-0.0,2.053900718688965,5.506216990738668,-0.0,0.17444944381713867,-1.7279136816607874,0.0,0.0064297206699848175,0.6107559204101562,0.0,0.011958671733736992,1.1346681118011475,0.0,-0.017507653683423996
177.0,197.0,-6.8495,0.5982,7.3717,-0.0377,0.0246,-0.1095,-2.6295677624144496,0.0,5.816875457763672,-0.7130118608474731,-0.0,2.076871871948242,5.506201016693868,-0.0,0.16653944551944733,-1.7278254667865198,0.0,0.008518933318555355,0.6107598543167114,0.0,0.01464746706187725,1.1346842050552368,0.0,-0.03390435129404068
172.0,194.0,-6.8285,0.6,7.2808,-0.0365,0.0241,-0.1193,-2.629531522790426,0.0,5.79470157623291,-0.7130036354064941,-0.0,2.0420045852661133,5.506193268090048,-0.0,0.1608513444662094,-1.727905575429098,0.0,0.0006993107963353395,0.6107162237167358,0.0,-0.0020734784193336964,1.1346722841262817,0.0,-0.05323582887649536
172.0,194.0,-6.8285,0.6,7.2808,-0.0365,0.0241,-0.1193,-2.629503389398092,0.0,5.833774566650391,-0.7129876017570496,-0.0,2.0258123874664307,5.506192850857534,-0.0,0.1754540055990219,-1.7279098669635218,0.0,0.006257077679038048,0.6107441782951355,0.0,0.0028000767342746258,1.134680151939392,0.0,-0.02229764498770237
172.0,194.0,-6.8285,0.6,7.2808,-0.0365,0.0241,-0.1193,-2.6295439205565394,0.0,5.786403179168701,-0.7129995822906494,-0.0,2.1061787605285645,5.506224858551779,-0.0,0.17473948001861572,-1.7279256025897425,0.0,0.010243822820484638,0.6107518076896667,0.0,-0.009986192919313908,1.134668231010437,0.0,-0.0028507173992693424
172.0,194.0,-6.8285,0.6,7.2808,-0.0365,0.0241,-0.1193,-2.629563947717184,0.0,5.8419036865234375,-0.7130404114723206,-0.0,2.0685346126556396,5.506164598255911,-0.0,0.17492805421352386,-1.7278855482684534,0.0,0.009764227084815502,0.6107476949691772,0.0,0.007315012626349926,1.1346276998519897,0.0,0.007474996615201235
172.0,194.0,-6.8285,0.6,7.2808,-0.0365,0.0241,-0.1193,-2.62955965618276,0.0,5.83736515045166,-0.7129432559013367,-0.0,2.0495505332946777,5.506220686226644,-0.0,0.17310455441474915,-1.7278655211078089,0.0,0.010246777907013893,0.6107484102249146,0.0,-0.004402942024171352,1.1346681118011475,0.0,0.024604614824056625
172.0,194.0,-6.8285,0.6,7.2808,-0.0365,0.0241,-0.1193,-2.629531522790426,0.0,5.81704044342041,-0.7130036354064941,-0.0,2.084458589553833,5.506253468781271,-0.0,0.15627801418304443,-1.727877442036764,0.0,-0.009001286700367928,0.6107919216156006,0.0,0.009241344407200813,1.1346759796142578,0.0,0.03905630484223366
172.0,194.0,-6.8285,0.6,7.2808,-0.0365,0.0241,-0.1193,-2.6295558414854945,0.0,5.825753211975098,-0.7129995822906494,-0.0,2.0588479042053223,5.506205129414358,-0.0,0.16530780494213104,-1.7278574148761194,0.0,-0.0018522590398788452,0.610816240310669,0.0,-0.01168317161500454,1.134696125984192,0.0,-0.008710798807442188
172.0,194.0,-6.8285,0.6,7.2808,-0.0365,0.0241,-0.1193,-2.6295396290221156,0.0,5.7886962890625,-0.7130321264266968,-0.0,2.0538947582244873,5.506225275784292,-0.0,0.15515607595443726,-1.7278335730182093,0.0,0.006183205172419548,0.6107518076896667,0.0,0.009391071274876595,1.1346521377563477,0.0,-0.03272900730371475
172.0,194.0,-6.8285,0.6,7.2808,-0.0365,0.0241,-0.1193,-2.6296001873412074,0.0,5.83463191986084,-0.7130321860313416,-0.0,2.0373921394348145,5.506241190224447,-0.0,0.17087458074092865,-1.7278936545001429,0.0,-0.0035435445606708527,0.610775887966156,0.0,0.010923073627054691,1.134660005569458,0.0,0.028584139421582222
172.0,194.0,-6.8285,0.6,7.2808,-0.0365,0.0241,-0.1193,-2.6295234165587367,0.0,5.817707061767578,-0.7130324840545654,-0.0,2.0387167930603027,5.506208884506979,-0.0,0.16437187790870667,-1.727861229573385,0.0,0.00822381116449833,0.6108002066612244,0.0,0.004130781628191471,1.1346317529678345,0.0,0.014739803038537502
172.0,194.0,-6.8285,0.6,7.2808,-0.0365,0.0241,-0.1193,-2.629559179345602,0.0,5.823220252990723,-0.7129912972450256,-0.0,2.0380489826202393,5.506188738137045,-0.0,0.1673642247915268,-1.7278536001788538,0.0,0.0010740576544776559,0.6107394695281982,0.0,-0.0006640059873461723,1.1346157789230347,0.0,0.02407696656882763
172.0,194.0,-6.8285,0.6,7.2808,-0.0365,0.0241,-0.1193,-2.6295515499510707,0.0,5.8187360763549805,-0.7129592895507812,-0.0,2.0413641929626465,5.506236958294668,-0.0,0.175635427236557,-1.7278979460345667,0.0,0.001839261967688799,0.6107681393623352,0.0,0.009657522663474083,1.1346640586853027,0.0,-0.012919049710035324
172.0,194.0,-6.8285,0.6,7.2808,-0.0365,0.0241,-0.1193,-2.62955965618276,0.0,5.784333229064941,-0.7129995822906494,-0.0,2.109318971633911,5.506192791252889,-0.0,0.161076620221138,-1.7279136816607874,0.0,0.00746100302785635,0.610771894454956,0.0,0.0007874639704823494,1.1346763372421265,0.0,0.009631887078285217
172.0,194.0,-6.8285,0.6,7.2808,-0.0365,0.0241,-0.1193,-2.6295515499510707,0.0,5.845448017120361,-0.7130361795425415,-0.0,2.092057228088379,5.506217050343313,-0.0,0.155718594789505,-1.7278693358050745,0.0,0.004902143031358719,0.6107484102249146,0.0,0.007942392490804195,1.134648084640503,0.0,-0.02757037803530693
172.0,194.0,-6.8285,0.6,7.2808,-0.0365,0.0241,-0.1193,-2.6295558414854945,0.0,5.796919822692871,-0.7130118608474731,-0.0,2.0157368183135986,5.506233024388113,-0.0,0.1575271338224411,-1.7278855482684534,0.0,0.007289489731192589,0.6107442378997803,0.0,0.010636324062943459,1.134648084640503,0.0,-0.022241486236453056
166.0,197.0,-6.9033,0.5719,7.3256,-0.04,0.0273,-0.1165,-2.629531522790426,0.0,5.811288833618164,-0.7130283117294312,-0.0,2.039924144744873,5.5062612173850916,-0.0,0.17473694682121277,-1.7278974691974085,0.0,0.0033174038399010897,0.6107518672943115,0.0,-0.008661353960633278,1.1346960067749023,0.0,-0.014851831831037998
166.0,197.0,-6.9033,0.5719,7.3256,-0.04,0.0273,-0.1165,-2.6295677624144496,0.0,5.773103713989258,-0.7130481004714966,-0.0,2.085951805114746,5.506257223873892,-0.0,0.17377042770385742,-1.7278817335711878,0.0,0.0014134632656350732,0.6107320189476013,0.0,-0.0010520827490836382,1.1346358060836792,0.0,0.010580544359982014
166.0,197.0,-6.9033,0.5719,7.3256,-0.04,0.0273,-0.1165,-2.6295114956297816,0.0,5.851937770843506,-0.7130160331726074,-0.0,2.102048397064209,5.506189095764913,-0.0,0.17032857239246368,-1.727861229573385,0.0,0.0065771713852882385,0.6107596158981323,0.0,0.004380478523671627,1.1346640586853027,0.0,0.03790002316236496
166.0,197.0,-6.9033,0.5719,7.3256,-0.04,0.0273,-0.1165,-2.629571100274557,0.0,5.805258274078369,-0.7130039930343628,-0.0,2.0377938747406006,5.506241249829092,-0.0,0.17310106754302979,-1.7278779188739222,0.0,0.007145463954657316,0.6107079386711121,0.0,-0.0032149674370884895,1.1346882581710815,0.0,0.021308347582817078
166.0,197.0,-6.9033,0.5719,7.3256,-0.04,0.0273,-0.1165,-2.629519601861471,0.0,5.84221076965332,-0.7129995822906494,-0.0,2.024291753768921,5.5062046525772,-0.0,0.14884774386882782,-1.727917496358053,0.0,0.010852941311895847,0.6107801198959351,0.0,0.0164897870272398,1.1346440315246582,0.0,0.06524338573217392
166.0,197.0,-6.9033,0.5719,7.3256,-0.04,0.0273,-0.1165,-2.6295672855772914,0.0,5.830893516540527,-0.7129710912704468,-0.0,2.080018997192383,5.506196963578024,-0.0,0.16979539394378662,-1.727917496358053,0.0,0.016283588483929634,0.6107841730117798,0.0,0.01278415136039257,1.1347001791000366,0.0,0.026985742151737213
166.0,197.0,-6.9033,0.5719,7.3256,-0.04,0.0273,-0.1165,-2.6295439205565394,0.0,5.873068809509277,-0.7130563855171204,-0.0,2.072011947631836,5.506233024388113,-0.0,0.1745316982269287,-1.7278936545001429,0.0,0.0020156963728368282,0.6107922792434692,0.0,0.002874058671295643,1.134648084640503,0.0,0.01900300942361355
166.0,197.0,-6.9033,0.5719,7.3256,-0.04,0.0273,-0.1165,-2.6295672855772914,0.0,5.790111541748047,-0.7130076885223389,-0.0,2.072601079940796,5.506237137108602,-0.0,0.15799197554588318,-1.7279017607318323,0.0,-0.009230888448655605,0.6107518076896667,0.0,0.003671519923955202,1.134656310081482,0.0,-0.0006559398607350886
166.0,197.0,-6.9033,0.5719,7.3256,-0.04,0.0273,-0.1165,-2.6295353374876917,0.0,5.818873405456543,-0.7130160331726074,-0.0,2.0444817543029785,5.5062129376228235,-0.0,0.16444669663906097,-1.727837387715475,0.0,0.013018136844038963,0.6107599139213562,0.0,0.022290093824267387,1.1346681118011475,0.0,0.010060633532702923
166.0,197.0,-6.9033,0.5719,7.3256,-0.04,0.0273,-0.1165,-2.6295272312560023,0.0,5.813260078430176,-0.7130522131919861,-0.0,2.080284595489502,5.506241190224447,-0.0,0.1687312126159668,-1.7278855482684534,0.0,0.005232282914221287,0.6107599139213562,0.0,-0.005825683008879423,1.1346240043640137,0.0,0.006531155668199062
166.0,197.0,-6.9033,0.5719,7.3256,-0.04,0.0273,-0.1165,-2.6295353374876917,0.0,5.834566116333008,-0.7130724191665649,-0.0,2.0505805015563965,5.506224858551779,-0.0,0.16941706836223602,-1.7278855482684534,0.0,-0.00021525542251765728,0.6107361316680908,0.0,0.008540120907127857,1.134648084640503,0.0,-0.01852317899465561
166.0,197.0,-6.9033,0.5719,7.3256,-0.04,0.0273,-0.1165,-2.6295515499510707,0.0,5.806328296661377,-0.712971568107605,-0.0,2.0374536514282227,5.506205129414358,-0.0,0.15949943661689758,-1.7278412024127405,0.0,0.007293018512427807,0.6107559204101562,0.0,0.007907424122095108,1.1346440315246582,0.0,0.0019407374784350395
166.0,197.0,-6.9033,0.5719,7.3256,-0.04,0.0273,-0.1165,-2.629571577111715,0.0,5.805444717407227,-0.7130036354064941,-0.0,2.061178207397461,5.506172764092245,-0.0,0.1691523790359497,-1.7278536001788538,0.0,0.003926451783627272,0.6107677221298218,0.0,-0.0017826649127528071,1.134652018547058,0.0,-0.014511466026306152
166.0,197.0,-6.9033,0.5719,7.3256,-0.04,0.0273,-0.1165,-2.629519601861471,0.0,5.879110336303711,-0.7130118012428284,-0.0,2.0848982334136963,5.506233024388113,-0.0,0.16253653168678284,-1.7278655211078089,0.0,0.004399115219712257,0.6106836795806885,0.0,0.007506411522626877,1.1346358060836792,0.0,0.017802873626351357
166.0,197.0,-6.9033,0.5719,7.3256,-0.04,0.0273,-0.1165,-2.6295677624144496,0.0,5.860779762268066,-0.7130036354064941,-0.0,2.031981945037842,5.506224858551779,-0.0,0.16711321473121643,-1.7278736273394983,0.0,0.0028091282583773136,0.6107719540596008,0.0,-0.007574747316539288,1.1346235275268555,0.0,0.004202398471534252
176.0,196.0,-6.8483,0.6048,7.2604,-0.0321,0.0224,-0.1109,-2.6295396290221156,0.0,5.857504367828369,-0.7130481004714966,-0.0,2.0855257511138916,5.506200599461355,-0.0,0.16375213861465454,-1.7279017607318323,0.0,0.011062290519475937,0.6107599139213562,0.0,0.006268466357141733,1.134700059890747,0.0,0.005636633839458227
176.0,196.0,-6.8483,0.6048,7.2604,-0.0321,0.0224,-0.1109,-2.629587789575094,0.0,5.800179481506348,-0.7129793763160706,-0.0,2.0399317741394043,5.506241190224447,-0.0,0.1651010513305664,-1.7278536001788538,0.0,0.0022434256970882416,0.6107319593429565,0.0,0.007221503183245659,1.1346681118011475,0.0,-0.0032083014957606792
176.0,196.0,-6.8483,0.6048,7.2604,-0.0321,0.0224,-0.1109,-2.6295634708800257,0.0,5.803858757019043,-0.7130361795425415,-0.0,2.0430591106414795,5.506217050343313,-0.0,0.16366267204284668,-1.7278655211078089,0.0,0.01134580746293068,0.6107963919639587,0.0,0.006968379486352205,1.134623646736145,0.0,-0.039383914321660995
176.0,196.0,-6.8483,0.6048,7.2604,-0.0321,0.0224,-0.1109,-2.6295558414854945,0.0,5.839603900909424,-0.7129798531532288,-0.0,2.06559419631958,5.506261276989736,-0.0,0.16426274180412292,-1.7278898398028772,0.0,0.0037913853302598,0.6108001470565796,0.0,0.006755341775715351,1.134688377380371,0.0,0.007000787649303675
176.0,196.0,-6.8483,0.6048,7.2604,-0.0321,0.0224,-0.1109,-2.6295396290221156,0.0,5.814621925354004,-0.7130280137062073,-0.0,2.027388572692871,5.506192850857534,-0.0,0.15017369389533997,-1.7278693358050745,0.0,0.005640455521643162,0.6107559204101562,0.0,0.00870781484991312,1.1346399784088135,0.0,0.005450813565403223
176.0,196.0,-6.8483,0.6048,7.2604,-0.0321,0.0224,-0.1109,-2.6295272312560023,0.0,5.8001909255981445,-0.7130239009857178,-0.0,2.0516750812530518,5.50617681720809,-0.0,0.17129634320735931,-1.7278855482684534,0.0,-0.007148568984121084,0.6107919216156006,0.0,0.009646115824580193,1.1346521377563477,0.0,0.042481351643800735
176.0,196.0,-6.8483,0.6048,7.2604,-0.0321,0.0224,-0.1109,-2.629531522790426,0.0,5.816380023956299,-0.7129954099655151,-0.0,2.006742238998413,5.506224858551779,-0.0,0.16689465939998627,-1.7278655211078089,0.0,0.0033811077009886503,0.6107559204101562,0.0,0.01392446644604206,1.1346198320388794,0.0,-0.05090198665857315
176.0,196.0,-6.8483,0.6048,7.2604,-0.0321,0.0224,-0.1109,-2.6295834980406703,0.0,5.816867828369141,-0.7130078077316284,-0.0,2.083008289337158,5.506216990738668,-0.0,0.16974776983261108,-1.727905575429098,0.0,0.006248714402318001,0.6107640266418457,0.0,-0.00829597283154726,1.1346521377563477,0.0,-0.004200296476483345
176.0,196.0,-6.8483,0.6048,7.2604,-0.0321,0.0224,-0.1109,-2.629575868646139,0.0,5.857702732086182,-0.7129876017570496,-0.0,2.044422149658203,5.506237137108602,-0.0,0.1754184067249298,-1.7278974691974085,0.0,0.00017532316269353032,0.6107078790664673,0.0,-0.0072697605937719345,1.134660005569458,0.0,-0.014595603570342064
176.0,196.0,-6.8483,0.6048,7.2604,-0.0321,0.0224,-0.1109,-2.6295677624144496,0.0,5.809847831726074,-0.7130603790283203,-0.0,2.0191268920898438,5.506228971272268,-0.0,0.15892750024795532,-1.7279017607318323,0.0,0.002937213983386755,0.6107320785522461,0.0,0.013904569670557976,1.1346920728683472,0.0,0.043619148433208466
176.0,196.0,-6.8483,0.6048,7.2604,-0.0321,0.0224,-0.1109,-2.629571577111715,0.0,5.829815864562988,-0.7130160927772522,-0.0,2.083972454071045,5.506249356060781,-0.0,0.15400370955467224,-1.7278936545001429,0.0,0.002868529874831438,0.610792338848114,0.0,0.00754267442971468,1.1346722841262817,0.0,0.025995828211307526
176.0,196.0,-6.8483,0.6048,7.2604,-0.0321,0.0224,-0.1109,-2.6295916042723597,0.0,5.848881244659424,-0.7129752039909363,-0.0,2.080289602279663,5.506196963578024,-0.0,0.16395848989486694,-1.7278974691974085,0.0,0.007273960392922163,0.6107320189476013,0.0,0.010272445157170296,1.1346521377563477,0.0,-0.008839328773319721
176.0,196.0,-6.8483,0.6048,7.2604,-0.0321,0.0224,-0.1109,-2.629543443719381,0.0,5.77351713180542,-0.7130036354064941,-0.0,2.103729724884033,5.506224858551779,-0.0,0.1544361561536789,-1.727797810231344,0.0,0.001342453295364976,0.6107394695281982,0.0,0.015585198067128658,1.1346882581710815,0.0,0.035592567175626755
176.0,196.0,-6.8483,0.6048,7.2604,-0.0321,0.0224,-0.1109,-2.6295396290221156,0.0,5.838784217834473,-0.7129995822906494,-0.0,2.044341564178467,5.506208824902334,-0.0,0.16696768999099731,-1.727861229573385,0.0,0.005967059172689915,0.6107719540596008,0.0,0.004197800997644663,1.1346763372421265,0.0,0.005599399097263813
176.0,196.0,-6.8483,0.6048,7.2604,-0.0321,0.0224,-0.1109,-2.629571577111715,0.0,5.84882926940918,-0.7130279541015625,-0.0,2.052578926086426,5.506208884506979,-0.0,0.1638319045305252,-1.7278936545001429,0.0,0.009750355035066605,0.6107566356658936,0.0,0.006805922836065292,1.1346317529678345,0.0,0.05133140832185745
172.0,194.0,-6.8806,0.6108,7.2927,-0.0324,0.0199,-0.1174,-2.6295629940428675,0.0,5.837803840637207,-0.7130036354064941,-0.0,2.06831431388855,5.506224918156423,-0.0,0.16452297568321228,-1.7278655211078089,0.0,-0.0016957558691501617,0.610755443572998,0.0,0.013639424927532673,1.1346198320388794,0.0,0.013688184320926666
172.0,194.0,-6.8806,0.6108,7.2927,-0.0324,0.0199,-0.1174,-2.629547258416647,0.0,5.838778495788574,-0.7130439281463623,-0.0,2.041916847229004,5.50617681720809,-0.0,0.17021483182907104,-1.727933708821432,0.0,0.004540939815342426,0.6107678413391113,0.0,0.0045350417494773865,1.1346960067749023,0.0,-0.018772687762975693
172.0,194.0,-6.8806,0.6108,7.2927,-0.0324,0.0199,-0.1174,-2.6295958958067835,0.0,5.787849426269531,-0.712963342666626,-0.0,2.0680930614471436,5.506217050343313,-0.0,0.16544991731643677,-1.727861229573385,0.0,0.0044364770874381065,0.6107161641120911,0.0,0.011095224879682064,1.1346681118011475,0.0,0.004177064634859562
172.0,194.0,-6.8806,0.6108,7.2927,-0.0324,0.0199,-0.1174,-2.629531522790426,0.0,5.8254899978637695,-0.712963342666626,-0.0,2.0690550804138184,5.5062129376228235,-0.0,0.17604145407676697,-1.727905575429098,0.0,0.0031184921972453594,0.6107518076896667,0.0,-0.002147688064724207,1.1346558332443237,0.0,0.011148427613079548
172.0,194.0,-6.8806,0.6108,7.2927,-0.0324,0.0199,-0.1174,-2.6295114956297816,0.0,5.836097717285156,-0.7130321264266968,-0.0,2.087196111679077,5.5062370775039575,-0.0,0.15762366354465485,-1.7278574148761194,0.0,-0.007353455759584904,0.6108161807060242,0.0,0.00826113112270832,1.1346882581710815,0.0,0.03907996788620949
172.0,194.0,-6.8806,0.6108,7.2927,-0.0324,0.0199,-0.1174,-2.6295792065062464,0.0,5.797740936279297,-0.7130201458930969,-0.0,2.0689876079559326,5.506216573506155,-0.0,0.16456687450408936,-1.7278779188739222,0.0,0.0036970824003219604,0.6107882261276245,0.0,0.019786767661571503,1.134660005569458,0.0,0.017362603917717934
172.0,194.0,-6.8806,0.6108,7.2927,-0.0324,0.0199,-0.1174,-2.6295515499510707,0.0,5.8185930252075195,-0.7130077481269836,-0.0,2.054145336151123,5.506220686226644,-0.0,0.16949334740638733,-1.7278536001788538,0.0,0.002639325335621834,0.6107476949691772,0.0,0.01655452698469162,1.1346482038497925,0.0,0.010110931470990181
172.0,194.0,-6.8806,0.6108,7.2927,-0.0324,0.0199,-0.1174,-2.6295353374876917,0.0,5.818281173706055,-0.7130402326583862,-0.0,2.07175612449646,5.5062047121818445,-0.0,0.1661010980606079,-1.7278693358050745,0.0,-0.0006471347296610475,0.6107402443885803,0.0,0.014109105803072453,1.1346440315246582,0.0,-0.005279531702399254
172.0,194.0,-6.8806,0.6108,7.2927,-0.0324,0.0199,-0.1174,-2.6295353374876917,0.0,5.828719615936279,-0.7130279541015625,-0.0,2.054291248321533,5.506196903973379,-0.0,0.16244898736476898,-1.72784930864443,0.0,0.002354241209104657,0.610775887966156,0.0,0.013625577092170715,1.1347001791000366,0.0,0.03029467910528183
172.0,194.0,-6.8806,0.6108,7.2927,-0.0324,0.0199,-0.1174,-2.62953581432485,0.0,5.799649238586426,-0.7129555344581604,-0.0,2.0614163875579834,5.506265389710226,-0.0,0.15886029601097107,-1.7278693358050745,0.0,0.01060442253947258,0.6108042597770691,0.0,0.0030562446918338537,1.1346077919006348,0.0,-0.018715405836701393
172.0,194.0,-6.8806,0.6108,7.2927,-0.0324,0.0199,-0.1174,-2.629543443719381,0.0,5.819269180297852,-0.7130239009857178,-0.0,2.060991048812866,5.506233024388113,-0.0,0.1702170968055725,-1.7278936545001429,0.0,0.005166209302842617,0.6107964515686035,0.0,-0.010027609765529633,1.1346157789230347,0.0,-0.007591394707560539
172.0,194.0,-6.8806,0.6108,7.2927,-0.0324,0.0199,-0.1174,-2.6295439205565394,0.0,5.816001892089844,-0.7130036950111389,-0.0,2.052260637283325,5.506205129414358,-0.0,0.15716487169265747,-1.7278855482684534,0.0,0.00577076431363821,0.6107518672943115,0.0,-0.0003479686565697193,1.1346763372421265,0.0,-0.027905385941267014
172.0,194.0,-6.8806,0.6108,7.2927,-0.0324,0.0199,-0.1174,-2.6294995747008265,0.0,5.805807590484619,-0.7130200862884521,-0.0,2.0715224742889404,5.506205069809713,-0.0,0.165155291557312,-1.7278855482684534,0.0,-0.005584136117249727,0.610808253288269,0.0,0.0028022071346640587,1.1346521377563477,0.0,-0.015955645591020584
172.0,194.0,-6.8806,0.6108,7.2927,-0.0324,0.0199,-0.1174,-2.6295634708800257,0.0,5.8222246170043945,-0.7130361795425415,-0.0,2.0216917991638184,5.506220745831289,-0.0,0.15236878395080566,-1.7278693358050745,0.0,-0.0007758857682347298,0.6107759475708008,0.0,0.014429813250899315,1.134648084640503,0.0,-0.01232357881963253
172.0,194.0,-6.8806,0.6108,7.2927,-0.0324,0.0199,-0.1174,-2.6295558414854945,0.0,5.805261135101318,-0.7130559086799622,-0.0,2.0399608612060547,5.506201016693868,-0.0,0.17008985579013824,-1.72784930864443,0.0,0.010252983309328556,0.6108120083808899,0.0,0.007766857277601957,1.1346640586853027,0.0,-0.0007808958180248737
168.0,194.0,-6.8668,0.6156,7.2826,-0.0363,0.0243,-0.1135,-2.629531522790426,0.0,5.833603858947754,-0.7130200862884521,-0.0,2.071500301361084,5.5062529919441126,-0.0,0.16849131882190704,-1.7278536001788538,0.0,0.0012126819929108024,0.6107319593429565,0.0,-0.0007881045457907021,1.134656310081482,0.0,0.017224587500095367
168.0,194.0,-6.8668,0.6156,7.2826,-0.0363,0.0243,-0.1135,-2.6295272312560023,0.0,5.836692810058594,-0.7130403518676758,-0.0,2.0674586296081543,5.5062047121818445,-0.0,0.16231155395507812,-1.7278574148761194,0.0,0.0015911944210529327,0.6107476353645325,0.0,0.01560669019818306,1.1346882581710815,0.0,-0.011572781950235367
168.0,194.0,-6.8668,0.6156,7.2826,-0.0363,0.0243,-0.1135,-2.629543443719381,0.0,5.822729110717773,-0.7130200862884521,-0.0,2.0848636627197266,5.506192850857534,-0.0,0.15950879454612732,-1.727877442036764,0.0,0.004529907833784819,0.6107118725776672,0.0,0.00890321098268032,1.1346358060836792,0.0,-0.03173055872321129
168.0,194.0,-6.8668,0.6156,7.2826,-0.0363,0.0243,-0.1135,-2.6295634708800257,0.0,5.76393985748291,-0.7130362391471863,-0.0,2.0860514640808105,5.506224858551779,-0.0,0.161245658993721,-1.72784930864443,0.0,0.013707339763641357,0.6107279658317566,0.0,-0.0021367338486015797,1.1346317529678345,0.0,0.04284308850765228
168.0,194.0,-6.8668,0.6156,7.2826,-0.0363,0.0243,-0.1135,-2.629531522790426,0.0,5.810553550720215,-0.7130365967750549,-0.0,2.1195971965789795,5.506196963578024,-0.0,0.16151881217956543,-1.7278817335711878,0.0,0.006031211465597153,0.6107800006866455,0.0,0.011715978384017944,1.134639859199524,0.0,-0.05468720197677612
168.0,194.0,-6.8668,0.6156,7.2826,-0.0363,0.0243,-0.1135,-2.629515310327047,0.0,5.826942443847656,-0.7129876017570496,-0.0,2.0552375316619873,5.506224858551779,-0.0,0.16073375940322876,-1.72784930864443,0.0,0.012477351352572441,0.6108000874519348,0.0,0.003828406101092696,1.134623646736145,0.0,0.007927151396870613
168.0,194.0,-6.8668,0.6156,7.2826,-0.0363,0.0243,-0.1135,-2.62955965618276,0.0,5.798996448516846,-0.7130077481269836,-0.0,2.075594425201416,5.506241190224447,-0.0,0.16966457664966583,-1.7278536001788538,0.0,0.023036140948534012,0.6107476353645325,0.0,-0.004764231853187084,1.1346759796142578,0.0,-0.04187854006886482
168.0,194.0,-6.8668,0.6156,7.2826,-0.0363,0.0243,-0.1135,-2.6295558414854945,0.0,5.83338737487793,-0.7130118608474731,-0.0,2.082019805908203,5.506224858551779,-0.0,0.1620219647884369,-1.7279017607318323,0.0,0.006987002678215504,0.6107442378997803,0.0,0.014385132119059563,1.1346399784088135,0.0,-0.027785535901784897
168.0,194.0,-6.8668,0.6156,7.2826,-0.0363,0.0243,-0.1135,-2.629547735253805,0.0,5.810567855834961,-0.7130362391471863,-0.0,2.107746124267578,5.5062047121818445,-0.0,0.16883409023284912,-1.7278335730182093,0.0,-0.006345164962112904,0.6108001470565796,0.0,0.005677041597664356,1.1346603631973267,0.0,0.026950959116220474
168.0,194.0,-6.8668,0.6156,7.2826,-0.0363,0.0243,-0.1135,-2.6295677624144496,0.0,5.79115104675293,-0.7130036354064941,-0.0,2.063633680343628,5.506224858551779,-0.0,0.15550263226032257,-1.7278779188739222,0.0,-0.005370444152504206,0.6107559204101562,0.0,-0.002440846059471369,1.1346882581710815,0.0,0.01048331055790186
168.0,194.0,-6.8668,0.6156,7.2826,-0.0363,0.0243,-0.1135,-2.629571577111715,0.0,5.777874946594238,-0.7130160331726074,-0.0,2.026120185852051,5.506249356060781,-0.0,0.16677989065647125,-1.7279098669635218,0.0,0.00906440895050764,0.6107484102249146,0.0,0.004884583875536919,1.134648084640503,0.0,0.03850220516324043
168.0,194.0,-6.8668,0.6156,7.2826,-0.0363,0.0243,-0.1135,-2.629519601861471,0.0,5.812923431396484,-0.712975263595581,-0.0,2.035633087158203,5.506208884506979,-0.0,0.16212889552116394,-1.727837387715475,0.0,0.003482798347249627,0.6107476949691772,0.0,-0.008767511695623398,1.134671926498413,0.0,-0.02718934416770935
168.0,194.0,-6.8668,0.6156,7.2826,-0.0363,0.0243,-0.1135,-2.6295916042723597,0.0,5.847206115722656,-0.7129995226860046,-0.0,2.0565221309661865,5.506196963578024,-0.0,0.16352666914463043,-1.7279332319842737,0.0,-0.0010336964624002576,0.6107319593429565,0.0,0.00992918573319912,1.1346800327301025,0.0,-0.004945474211126566
168.0,194.0,-6.8668,0.6156,7.2826,-0.0363,0.0243,-0.1135,-2.629575391808981,0.0,5.836428642272949,-0.7130283117294312,-0.0,2.0670669078826904,5.5062166331108,-0.0,0.16340996325016022,-1.7278335730182093,0.0,0.007332892157137394,0.6107442378997803,0.0,0.009466415271162987,1.1346722841262817,0.0,0.016407327726483345
172.0,193.0,-6.8865,0.6084,7.2993,-0.0348,0.035,-0.1159,-2.6295558414854945,0.0,5.8309326171875,-0.7129675149917603,-0.0,2.0650382041931152,5.506216990738668,-0.0,0.16709578037261963,-1.7278693358050745,0.0,0.018333954736590385,0.610775887966156,0.0,0.000592883734498173,1.1346358060836792,0.0,-0.010806399397552013
172.0,193.0,-6.8865,0.6084,7.2993,-0.0348,0.035,-0.1159,-2.6295677624144496,0.0,5.758335113525391,-0.7130283713340759,-0.0,2.046199321746826,5.506233501225271,-0.0,0.16193218529224396,-1.7278693358050745,0.0,0.003895884146913886,0.6107719540596008,0.0,0.009367004968225956,1.1346722841262817,0.0,-0.02275002934038639
172.0,193.0,-6.8865,0.6084,7.2993,-0.0348,0.035,-0.1159,-2.629559179345602,0.0,5.792160987854004,-0.7129953503608704,-0.0,2.041274070739746,5.5062453029449365,-0.0,0.1761019080877304,-1.7278936545001429,0.0,0.010897265747189522,0.6107402443885803,0.0,0.0004945910768583417,1.134648084640503,0.0,0.047110896557569504
172.0,193.0,-6.8865,0.6084,7.2993,-0.0348,0.035,-0.1159,-2.6295353374876917,0.0,5.812967300415039,-0.7130077481269836,-0.0,2.0719451904296875,5.506208824902334,-0.0,0.16101013123989105,-1.7278898398028772,0.0,-0.007196231745183468,0.6107279658317566,0.0,0.0036568138748407364,1.1346521377563477,0.0,0.01717698946595192
172.0,193.0,-6.8865,0.6084,7.2993,-0.0348,0.035,-0.1159,-2.6295272312560023,0.0,5.818533897399902,-0.7129313349723816,-0.0,2.0756092071533203,5.506224858551779,-0.0,0.14512738585472107,-1.7278693358050745,0.0,-0.002431286033242941,0.6107402443885803,0.0,0.01467699185013771,1.1346681118011475,0.0,0.016441019251942635
172.0,193.0,-6.8865,0.6084,7.2993,-0.0348,0.035,-0.1159,-2.6295553646483363,0.0,5.805471897125244,-0.7130118608474731,-0.0,2.07560396194458,5.506184625416555,-0.0,0.1608268916606903,-1.7278531233416956,0.0,0.006844949908554554,0.6107476949691772,0.0,0.002193731488659978,1.1346358060836792,0.0,0.016627389937639236
172.0,193.0,-6.8865,0.6084,7.2993,-0.0348,0.035,-0.1159,-2.6295834980406703,0.0,5.796816349029541,-0.7130361795425415,-0.0,2.0486669540405273,5.506208824902334,-0.0,0.16534540057182312,-1.7278855482684534,0.0,-0.004077703692018986,0.6107759475708008,0.0,-0.0022450503893196583,1.134660005569458,0.0,-0.011851160787045956
172.0,193.0,-6.8865,0.6084,7.2993,-0.0348,0.035,-0.1159,-2.629547258416647,0.0,5.782506942749023,-0.7129995822906494,-0.0,2.042295217514038,5.506224918156423,-0.0,0.15665078163146973,-1.7278817335711878,0.0,0.011722393333911896,0.6108042597770691,0.0,0.005579241085797548,1.1346640586853027,0.0,-0.036019615828990936
172.0,193.0,-6.8865,0.6084,7.2993,-0.0348,0.035,-0.1159,-2.6295234165587367,0.0,5.777716636657715,-0.7130361795425415,-0.0,2.073751926422119,5.506185042649069,-0.0,0.15997812151908875,-1.727861229573385,0.0,0.008526315912604332,0.6107599139213562,0.0,0.0007697047549299896,1.1346439123153687,0.0,0.020617542788386345
172.0,193.0,-6.8865,0.6084,7.2993,-0.0348,0.035,-0.1159,-2.6295396290221156,0.0,5.845884323120117,-0.7130160331726074,-0.0,2.0675268173217773,5.506216990738668,-0.0,0.15932372212409973,-1.7278693358050745,0.0,-0.004224657546728849,0.6107401847839355,0.0,0.000198358204215765,1.134648084640503,0.0,0.0061641582287848
172.0,193.0,-6.8865,0.6084,7.2993,-0.0348,0.035,-0.1159,-2.6295510731139125,0.0,5.745913505554199,-0.7129872441291809,-0.0,2.0751006603240967,5.506176876812734,-0.0,0.17024068534374237,-1.7279093901263636,0.0,-0.0012487003114074469,0.6107319593429565,0.0,0.004424198530614376,1.1346800327301025,0.0,0.021665621548891068
172.0,193.0,-6.8865,0.6084,7.2993,-0.0348,0.035,-0.1159,-2.6295958958067835,0.0,5.8303070068359375,-0.7130118608474731,-0.0,2.0599284172058105,5.506269025593557,-0.0,0.1629990041255951,-1.7278655211078089,0.0,0.00411665253341198,0.6107800602912903,0.0,0.02277107536792755,1.1346521377563477,0.0,-0.0025892951525747776
172.0,193.0,-6.8865,0.6084,7.2993,-0.0348,0.035,-0.1159,-2.629547258416647,0.0,5.840730667114258,-0.7129875421524048,-0.0,2.060058116912842,5.506216990738668,-0.0,0.1472436487674713,-1.7279213110553187,0.0,0.0012194926384836435,0.6107841730117798,0.0,0.0005368958227336407,1.134724736213684,0.0,-0.011126132681965828
172.0,193.0,-6.8865,0.6084,7.2993,-0.0348,0.035,-0.1159,-2.6295515499510707,0.0,5.818523406982422,-0.7129831910133362,-0.0,2.0384681224823,5.5062129376228235,-0.0,0.16043299436569214,-1.7278536001788538,0.0,0.012041057460010052,0.6107960343360901,0.0,0.006313949823379517,1.1346640586853027,0.0,-0.01306983269751072
172.0,193.0,-6.8865,0.6084,7.2993,-0.0348,0.035,-0.1159,-2.629531522790426,0.0,5.766740798950195,-0.7130036354064941,-0.0,2.0278947353363037,5.506233024388113,-0.0,0.1605777144432068,-1.727861229573385,0.0,0.011123200878500938,0.610744297504425,0.0,0.0026381886564195156,1.134660005569458,0.0,0.004593551158905029
172.0,201.0,-6.8842,0.6102,7.2664,-0.0363,0.0229,-0.1052,-2.6295553646483363,0.0,5.8380327224731445,-0.7129592299461365,-0.0,2.0799624919891357,5.506228911667623,-0.0,0.16634905338287354,-1.7278531233416956,0.0,0.0032071657478809357,0.6107361912727356,0.0,0.0018204280640929937,1.134687900543213,0.0,0.0026245824992656708
172.0,201.0,-6.8842,0.6102,7.2664,-0.0363,0.0229,-0.1052,-2.6295672855772914,0.0,5.803378105163574,-0.7130279541015625,-0.0,2.0680484771728516,5.506233024388113,-0.0,0.16754218935966492,-1.7278817335711878,0.0,0.004551626741886139,0.6107115745544434,0.0,-0.0009126198710873723,1.1346800327301025,0.0,-0.012559655122458935
172.0,201.0,-6.8842,0.6102,7.2664,-0.0363,0.0229,-0.1052,-2.629559179345602,0.0,5.794745922088623,-0.7129917144775391,-0.0,2.0402116775512695,5.506273138314047,-0.0,0.17356227338314056,-1.727861229573385,0.0,-0.004615342244505882,0.6108362078666687,0.0,0.004393042530864477,1.134648084640503,0.0,-0.015314599499106407
172.0,201.0,-6.8842,0.6102,7.2664,-0.0363,0.0229,-0.1052,-2.629543443719381,0.0,5.796806335449219,-0.7130118012428284,-0.0,2.0918474197387695,5.506201076298513,-0.0,0.16263246536254883,-1.7278536001788538,0.0,0.0008316239109262824,0.6107681393623352,0.0,0.005081824027001858,1.1346322298049927,0.0,0.028390558436512947
172.0,201.0,-6.8842,0.6102,7.2664,-0.0363,0.0229,-0.1052,-2.629543443719381,0.0,5.795935153961182,-0.7130361795425415,-0.0,2.100433349609375,5.506217050343313,-0.0,0.16244974732398987,-1.7278655211078089,0.0,0.00184776377864182,0.6107678413391113,0.0,0.0049651023000478745,1.1346198320388794,0.0,0.02835921384394169
172.0,201.0,-6.8842,0.6102,7.2664,-0.0363,0.0229,-0.1052,-2.6295515499510707,0.0,5.836193084716797,-0.7130361795425415,-0.0,2.046764850616455,5.506233024388113,-0.0,0.16508646309375763,-1.7278817335711878,0.0,-0.0030456283129751682,0.6107922196388245,0.0,0.0020841825753450394,1.1346681118011475,0.0,-0.01862981542944908
172.0,201.0,-6.8842,0.6102,7.2664,-0.0363,0.0229,-0.1052,-2.629608293572897,0.0,5.838672637939453,-0.7130200862884521,-0.0,2.051784038543701,5.506189095764913,-0.0,0.16636419296264648,-1.7278898398028772,0.0,0.007449580356478691,0.610775887966156,0.0,3.415718674659729e-05,1.134656310081482,0.0,0.018129775300621986
172.0,201.0,-6.8842,0.6102,7.2664,-0.0363,0.0229,-0.1052,-2.629543443719381,0.0,5.780623435974121,-0.7130439877510071,-0.0,2.0663716793060303,5.5062492964561365,-0.0,0.15668118000030518,-1.7278936545001429,0.0,-0.003128272946923971,0.6107559204101562,0.0,-0.00299738347530365,1.1345994472503662,0.0,0.006696932949125767
172.0,201.0,-6.8842,0.6102,7.2664,-0.0363,0.0229,-0.1052,-2.6295515499510707,0.0,5.819812774658203,-0.7130242586135864,-0.0,2.0062031745910645,5.50617681720809,-0.0,0.14671805500984192,-1.7278454939471644,0.0,-0.0029392847791314125,0.6106919050216675,0.0,7.114710751920938e-05,1.1346681118011475,0.0,0.014565259218215942
172.0,201.0,-6.8842,0.6102,7.2664,-0.0363,0.0229,-0.1052,-2.6296001873412074,0.0,5.760204315185547,-0.7129953503608704,-0.0,2.046595573425293,5.5062129376228235,-0.0,0.16042491793632507,-1.7279017607318323,0.0,0.0032234143000096083,0.6107841730117798,0.0,-0.00616210512816906,1.134656310081482,0.0,0.057815250009298325
172.0,201.0,-6.8842,0.6102,7.2664,-0.0363,0.0229,-0.1052,-2.629587789575094,0.0,5.853733062744141,-0.7130036354064941,-0.0,2.0365350246429443,5.5062129376228235,-0.0,0.1736598014831543,-1.727905575429098,0.0,0.0061974311247467995,0.6107319593429565,0.0,0.0040272437036037445,1.1346840858459473,0.0,-0.006066516041755676
172.0,201.0,-6.8842,0.6102,7.2664,-0.0363,0.0229,-0.1052,-2.629575868646139,0.0,5.829813003540039,-0.7130280137062073,-0.0,2.0958895683288574,5.506201016693868,-0.0,0.16220444440841675,-1.7278536001788538,0.0,0.005014140158891678,0.6108279824256897,0.0,0.006037839688360691,1.1346840858459473,0.0,-0.017446652054786682
172.0,201.0,-6.8842,0.6102,7.2664,-0.0363,0.0229,-0.1052,-2.6295677624144496,0.0,5.795459270477295,-0.7130279541015625,-0.0,2.0577099323272705,5.506200599461355,-0.0,0.16677965223789215,-1.7278454939471644,0.0,0.009490313939750195,0.6107559204101562,0.0,0.0015098126605153084,1.1346640586853027,0.0,-0.0296933576464653
172.0,201.0,-6.8842,0.6102,7.2664,-0.0363,0.0229,-0.1052,-2.6295157871642054,0.0,5.83198356628418,-0.7130641341209412,-0.0,2.074723482131958,5.506201016693868,-0.0,0.15915685892105103,-1.7279017607318323,0.0,0.004862620495259762,0.6107959151268005,0.0,0.001815636525861919,1.1346882581710815,0.0,-0.021974828094244003
172.0,201.0,-6.8842,0.6102,7.2664,-0.0363,0.0229,-0.1052,-2.629575391808981,0.0,5.794827461242676,-0.7130361795425415,-0.0,2.0282480716705322,5.506216573506155,-0.0,0.16112419962882996,-1.7278855482684534,0.0,0.0004886654787696898,0.6107882261276245,0.0,0.004755354952067137,1.134623646736145,0.0,0.017317261546850204
175.0,195.0,-6.8973,0.5886,7.2748,-0.0402,0.0235,-0.1089,-2.6295396290221156,0.0,5.826537609100342,-0.7130361795425415,-0.0,2.044588088989258,5.5062129376228235,-0.0,0.15192794799804688,-1.7278855482684534,0.0,-0.002948730019852519,0.610771894454956,0.0,0.006712202448397875,1.1346276998519897,0.0,0.023281529545783997
175.0,195.0,-6.8973,0.5886,7.2748,-0.0402,0.0235,-0.1089,-2.629543443719381,0.0,5.853625297546387,-0.7130200862884521,-0.0,2.0550537109375,5.506233024388113,-0.0,0.1600489318370819,-1.72784930864443,0.0,0.014805177226662636,0.6107476949691772,0.0,0.009981258772313595,1.1346440315246582,0.0,-0.004383506253361702
175.0,195.0,-6.8973,0.5886,7.2748,-0.0402,0.0235,-0.1089,-2.629575868646139,0.0,5.876291751861572,-0.7130159735679626,-0.0,2.0902137756347656,5.5062453029449365,-0.0,0.1781735122203827,-1.7278855482684534,0.0,0.009230372495949268,0.6107963919639587,0.0,0.009343082085251808,1.1346521377563477,0.0,0.011492002755403519
175.0,195.0,-6.8973,0.5886,7.2748,-0.0402,0.0235,-0.1089,-2.6295834980406703,0.0,5.799586296081543,-0.7130283117294312,-0.0,2.045717239379883,5.506201076298513,-0.0,0.1562294065952301,-1.7278693358050745,0.0,-0.0019355554832145572,0.6107038259506226,0.0,0.004329208750277758,1.1346521377563477,0.0,0.04975579306483269
175.0,195.0,-6.8973,0.5886,7.2748,-0.0402,0.0235,-0.1089,-2.629587789575094,0.0,5.815147399902344,-0.7130842208862305,-0.0,2.0335474014282227,5.506241190224447,-0.0,0.15605387091636658,-1.727861229573385,0.0,0.005289388354867697,0.6107640862464905,0.0,0.008340703323483467,1.134687900543213,0.0,0.013361141085624695
175.0,195.0,-6.8973,0.5886,7.2748,-0.0402,0.0235,-0.1089,-2.6295396290221156,0.0,5.816685676574707,-0.7130160331726074,-0.0,2.09419322013855,5.506228971272268,-0.0,0.16398370265960693,-1.7278936545001429,0.0,0.0033186187501996756,0.6107361316680908,0.0,0.009623371995985508,1.1346681118011475,0.0,0.02367682382464409
175.0,195.0,-6.8973,0.5886,7.2748,-0.0402,0.0235,-0.1089,-2.6295353374876917,0.0,5.855590343475342,-0.7130036950111389,-0.0,2.1039233207702637,5.506228971272268,-0.0,0.1532084345817566,-1.7278412024127405,0.0,0.003054862143471837,0.610808253288269,0.0,-0.005572233349084854,1.1346640586853027,0.0,0.005408833734691143
175.0,195.0,-6.8973,0.5886,7.2748,-0.0402,0.0235,-0.1089,-2.629547258416647,0.0,5.847023010253906,-0.7130403518676758,-0.0,2.0505518913269043,5.506208824902334,-0.0,0.17895381152629852,-1.7278454939471644,0.0,0.004271714948117733,0.6107719540596008,0.0,0.005563727580010891,1.134700059890747,0.0,-0.04740156978368759
175.0,195.0,-6.8973,0.5886,7.2748,-0.0402,0.0235,-0.1089,-2.6295672855772914,0.0,5.856639862060547,-0.7130361795425415,-0.0,2.061668872833252,5.506228971272268,-0.0,0.16349050402641296,-1.7278898398028772,0.0,-0.0005127608310431242,0.610727846622467,0.0,0.008699286729097366,1.1346521377563477,0.0,-0.022819163277745247
175.0,195.0,-6.8973,0.5886,7.2748,-0.0402,0.0235,-0.1089,-2.6294995747008265,0.0,5.815870761871338,-0.7130681276321411,-0.0,2.0589635372161865,5.506228971272268,-0.0,0.1608523577451706,-1.7279017607318323,0.0,0.01086037140339613,0.6107555031776428,0.0,0.007028929423540831,1.1346640586853027,0.0,0.0005267709493637085
175.0,195.0,-6.8973,0.5886,7.2748,-0.0402,0.0235,-0.1089,-2.6295396290221156,0.0,5.85166072845459,-0.7130321264266968,-0.0,2.0778799057006836,5.506200599461355,-0.0,0.15644177794456482,-1.727861229573385,0.0,0.0021920884028077126,0.6107038259506226,0.0,0.004420734476298094,1.1346681118011475,0.0,-0.0032458091154694557
175.0,195.0,-6.8973,0.5886,7.2748,-0.0402,0.0235,-0.1089,-2.6295396290221156,0.0,5.817507743835449,-0.7129793167114258,-0.0,2.055873155593872,5.506237017899313,-0.0,0.14985206723213196,-1.7278979460345667,0.0,0.005141252651810646,0.6107239127159119,0.0,0.008075475692749023,1.1347163915634155,0.0,0.015256660990417004
175.0,195.0,-6.8973,0.5886,7.2748,-0.0402,0.0235,-0.1089,-2.6295396290221156,0.0,5.825601577758789,-0.7130036354064941,-0.0,2.0451385974884033,5.506265389710226,-0.0,0.1608785092830658,-1.7278574148761194,0.0,0.020641839131712914,0.6107402443885803,0.0,0.005870549939572811,1.1347041130065918,0.0,-0.04385814815759659
175.0,195.0,-6.8973,0.5886,7.2748,-0.0402,0.0235,-0.1089,-2.62951197246694,0.0,5.814672470092773,-0.7130361795425415,-0.0,2.0820136070251465,5.506196903973379,-0.0,0.16535045206546783,-1.7279017607318323,0.0,0.004210645332932472,0.6107402443885803,0.0,0.0115355858579278,1.1346640586853027,0.0,-0.03280780836939812
175.0,195.0,-6.8973,0.5886,7.2748,-0.0402,0.0235,-0.1089,-2.6295515499510707,0.0,5.865262031555176,-0.7130683064460754,-0.0,2.0539393424987793,5.506168591767111,-0.0,0.16107425093650818,-1.7279332319842737,0.0,-0.003798655467107892,0.6106956005096436,0.0,0.0035186633467674255,1.1346681118011475,0.0,0.010453853756189346
173.0,195.0,-6.8943,0.5665,7.3244,-0.0386,0.0192,-0.1051,-2.6295558414854945,0.0,5.809240341186523,-0.7129954099655151,-0.0,2.0383973121643066,5.506221103459158,-0.0,0.1400223821401596,-1.7278974691974085,0.0,0.003052780171856284,0.610763669013977,0.0,0.006124947220087051,1.134671926498413,0.0,0.017000440508127213
173.0,195.0,-6.8943,0.5665,7.3244,-0.0386,0.0192,-0.1051,-2.629587789575094,0.0,5.820766925811768,-0.7129831314086914,-0.0,2.065476179122925,5.506257223873892,-0.0,0.16126318275928497,-1.7279213110553187,0.0,0.00021181406918913126,0.6107320189476013,0.0,0.015670564025640488,1.1346882581710815,0.0,-0.005019180476665497
173.0,195.0,-6.8943,0.5665,7.3244,-0.0386,0.0192,-0.1051,-2.6295672855772914,0.0,5.839578628540039,-0.7130200862884521,-0.0,2.0490803718566895,5.506228971272268,-0.0,0.17054980993270874,-1.7278855482684534,0.0,0.012936037965118885,0.6107484102249146,0.0,0.009113562293350697,1.134660005569458,0.0,0.011510446667671204
173.0,195.0,-6.8943,0.5665,7.3244,-0.0386,0.0192,-0.1051,-2.6295515499510707,0.0,5.863016605377197,-0.7129995822906494,-0.0,2.032790184020996,5.506192850857534,-0.0,0.15208449959754944,-1.7278855482684534,0.0,-0.0017633812967687845,0.6106878519058228,0.0,-0.006643951404839754,1.1346076726913452,0.0,-0.007097349502146244
173.0,195.0,-6.8943,0.5665,7.3244,-0.0386,0.0192,-0.1051,-2.629547258416647,0.0,5.807171821594238,-0.712963342666626,-0.0,2.0640501976013184,5.506208824902334,-0.0,0.16991057991981506,-1.727861229573385,0.0,0.012573358602821827,0.6107239723205566,0.0,0.009015937335789204,1.1346194744110107,0.0,0.012012074701488018
173.0,195.0,-6.8943,0.5665,7.3244,-0.0386,0.0192,-0.1051,-2.6296001873412074,0.0,5.836338043212891,-0.7129592895507812,-0.0,2.041264057159424,5.506196963578024,-0.0,0.15946657955646515,-1.727929417287008,0.0,0.0073866527527570724,0.610804557800293,0.0,0.008169302716851234,1.1346317529678345,0.0,-0.019886694848537445
173.0,195.0,-6.8943,0.5665,7.3244,-0.0386,0.0192,-0.1051,-2.6295916042723597,0.0,5.824791431427002,-0.7130197882652283,-0.0,2.08652663230896,5.506233024388113,-0.0,0.16847702860832214,-1.7278693358050745,0.0,0.002373259048908949,0.6107361912727356,0.0,0.002649171743541956,1.134623646736145,0.0,0.03402157872915268
173.0,195.0,-6.8943,0.5665,7.3244,-0.0386,0.0192,-0.1051,-2.629519601861471,0.0,5.786038875579834,-0.7129995822906494,-0.0,2.075993537902832,5.506228971272268,-0.0,0.161787211894989,-1.7279136816607874,0.0,0.007129680830985308,0.6107402443885803,0.0,0.0027824852149933577,1.1346399784088135,0.0,0.01669265702366829
173.0,195.0,-6.8943,0.5665,7.3244,-0.0386,0.0192,-0.1051,-2.629575391808981,0.0,5.826918601989746,-0.7130603790283203,-0.0,2.0729801654815674,5.506224918156423,-0.0,0.16819970309734344,-1.7278855482684534,0.0,-0.010298453271389008,0.6107476949691772,0.0,0.005261275451630354,1.1346240043640137,0.0,0.007199793588370085
173.0,195.0,-6.8943,0.5665,7.3244,-0.0386,0.0192,-0.1051,-2.629571577111715,0.0,5.798709869384766,-0.7130239009857178,-0.0,2.026895761489868,5.506265330105581,-0.0,0.1490640640258789,-1.7278731505023401,0.0,0.005877177231013775,0.6108081340789795,0.0,0.005108078941702843,1.134648084640503,0.0,-0.0025917680468410254
173.0,195.0,-6.8943,0.5665,7.3244,-0.0386,0.0192,-0.1051,-2.6295634708800257,0.0,5.818161964416504,-0.7129835486412048,-0.0,2.0618340969085693,5.506185042649069,-0.0,0.1777416467666626,-1.7278693358050745,0.0,0.000900229555554688,0.6108002066612244,0.0,0.019030917435884476,1.134648084640503,0.0,5.147792398929596e-05
173.0,195.0,-6.8943,0.5665,7.3244,-0.0386,0.0192,-0.1051,-2.629543443719381,0.0,5.842657089233398,-0.7130682468414307,-0.0,2.1236677169799805,5.506205129414358,-0.0,0.1635865867137909,-1.7278817335711878,0.0,0.006551452912390232,0.6107476353645325,0.0,-0.003507758490741253,1.1346440315246582,0.0,-0.017057061195373535
173.0,195.0,-6.8943,0.5665,7.3244,-0.0386,0.0192,-0.1051,-2.6295396290221156,0.0,5.8253889083862305,-0.7130321264266968,-0.0,2.061016798019409,5.506216990738668,-0.0,0.16088366508483887,-1.7278574148761194,0.0,0.002493663690984249,0.6107476353645325,0.0,-0.006121974904090166,1.1346685886383057,0.0,-0.03722622990608215
173.0,195.0,-6.8943,0.5665,7.3244,-0.0386,0.0192,-0.1051,-2.62951197246694,0.0,5.797014236450195,-0.7130321264266968,-0.0,2.074552297592163,5.506160485535421,-0.0,0.168219655752182,-1.7278855482684534,0.0,-0.0008460180833935738,0.6107800006866455,0.0,0.016021728515625,1.134656310081482,0.0,0.011914869770407677
173.0,195.0,-6.8943,0.5665,7.3244,-0.0386,0.0192,-0.1051,-2.62953581432485,0.0,5.820644378662109,-0.7129917144775391,-0.0,2.089259147644043,5.506261276989736,-0.0,0.1696995496749878,-1.7278898398028772,0.0,0.0037725919391959906,0.6107922196388245,0.0,0.012250952422618866,1.1346521377563477,0.0,0.012889211997389793
173.0,199.0,-6.8674,0.597,7.3591,-0.0342,0.0176,-0.11,-2.6295396290221156,0.0,5.834983825683594,-0.712967574596405,-0.0,2.082033157348633,5.506192850857534,-0.0,0.15532149374485016,-1.7278693358050745,0.0,0.01772596873342991,0.610739529132843,0.0,-0.0043828487396240234,1.1346358060836792,0.0,0.057316046208143234
173.0,199.0,-6.8674,0.597,7.3591,-0.0342,0.0176,-0.11,-2.629531522790426,0.0,5.828119277954102,-0.7129995822906494,-0.0,2.0422916412353516,5.506228911667623,-0.0,0.17020471394062042,-1.7278536001788538,0.0,0.0006370493210852146,0.6107320189476013,0.0,0.004192267544567585,1.1346358060836792,0.0,-0.008380137383937836
173.0,199.0,-6.8674,0.597,7.3591,-0.0342,0.0176,-0.11,-2.6295396290221156,0.0,5.806475639343262,-0.7130279541015625,-0.0,2.049440860748291,5.506201016693868,-0.0,0.16156530380249023,-1.7278335730182093,0.0,0.002976252930238843,0.6108042597770691,0.0,-0.0016012056730687618,1.1346840858459473,0.0,-0.00659511424601078
173.0,199.0,-6.8674,0.597,7.3591,-0.0342,0.0176,-0.11,-2.6295677624144496,0.0,5.812071800231934,-0.7130403518676758,-0.0,2.0309975147247314,5.506245243340292,-0.0,0.17000100016593933,-1.727877442036764,0.0,0.007696175016462803,0.6107800602912903,0.0,-0.0042135221883654594,1.1346276998519897,0.0,0.03875588998198509
173.0,199.0,-6.8674,0.597,7.3591,-0.0342,0.0176,-0.11,-2.629547258416647,0.0,5.814177989959717,-0.7130444049835205,-0.0,2.0422840118408203,5.506245243340292,-0.0,0.17171001434326172,-1.7278536001788538,0.0,0.006858964916318655,0.610775887966156,0.0,-0.0015466155018657446,1.1346923112869263,0.0,-0.006167951039969921
173.0,199.0,-6.8674,0.597,7.3591,-0.0342,0.0176,-0.11,-2.6295916042723597,0.0,5.769618988037109,-0.7129912972450256,-0.0,2.0653152465820312,5.506221103459158,-0.0,0.16347576677799225,-1.7278693358050745,0.0,0.008813965134322643,0.6107476949691772,0.0,0.001945663709193468,1.134648084640503,0.0,0.0128855649381876
173.0,199.0,-6.8674,0.597,7.3591,-0.0342,0.0176,-0.11,-2.62953581432485,0.0,5.82768440246582,-0.7130481004714966,-0.0,2.0463104248046875,5.506224858551779,-0.0,0.15434500575065613,-1.7279332319842737,0.0,0.003421579487621784,0.6107559204101562,0.0,0.00024296605261042714,1.1346521377563477,0.0,0.03317064791917801
173.0,199.0,-6.8674,0.597,7.3591,-0.0342,0.0176,-0.11,-2.629547258416647,0.0,5.84858512878418,-0.7130118608474731,-0.0,2.056211233139038,5.506224858551779,-0.0,0.1636510044336319,-1.7278855482684534,0.0,0.006112311966717243,0.610763669013977,0.0,0.006224723067134619,1.1346681118011475,0.0,0.027621373534202576
173.0,199.0,-6.8674,0.597,7.3591,-0.0342,0.0176,-0.11,-2.6295634708800257,0.0,5.8675360679626465,-0.7129711508750916,-0.0,2.058769941329956,5.506237137108602,-0.0,0.17628583312034607,-1.7278974691974085,0.0,0.0022583412937819958,0.6107963919639587,0.0,0.004190920852124691,1.1346358060836792,0.0,0.0132997902110219
173.0,199.0,-6.8674,0.597,7.3591,-0.0342,0.0176,-0.11,-2.6295677624144496,0.0,5.774938583374023,-0.7129995822906494,-0.0,2.069425344467163,5.5062129376228235,-0.0,0.15174075961112976,-1.727917496358053,0.0,0.004689366091042757,0.6107361316680908,0.0,0.0010072671575471759,1.134603500366211,0.0,-0.007891114801168442
173.0,199.0,-6.8674,0.597,7.3591,-0.0342,0.0176,-0.11,-2.6295677624144496,0.0,5.854910850524902,-0.7129757404327393,-0.0,2.0690724849700928,5.506196963578024,-0.0,0.15859706699848175,-1.7278536001788538,0.0,0.00568031333386898,0.6108001470565796,0.0,0.009084823541343212,1.134684681892395,0.0,-0.002583798486739397
173.0,199.0,-6.8674,0.597,7.3591,-0.0342,0.0176,-0.11,-2.6295558414854945,0.0,5.7932891845703125,-0.7130321264266968,-0.0,2.0543763637542725,5.506180929928579,-0.0,0.16240331530570984,-1.7278779188739222,0.0,0.004025090951472521,0.6107680797576904,0.0,-0.004304904490709305,1.1346640586853027,0.0,0.023213984444737434
173.0,199.0,-6.8674,0.597,7.3591,-0.0342,0.0176,-0.11,-2.6296197376646937,0.0,5.853003025054932,-0.7130324840545654,-0.0,2.0775532722473145,5.506233024388113,-0.0,0.16941502690315247,-1.7279017607318323,0.0,-0.01277192309498787,0.6107881665229797,0.0,0.014497680589556694,1.1346521377563477,0.0,-0.011384919285774231
173.0,199.0,-6.8674,0.597,7.3591,-0.0342,0.0176,-0.11,-2.6294952831664027,0.0,5.826997756958008,-0.7129995226860046,-0.0,2.0739855766296387,5.506233024388113,-0.0,0.17465448379516602,-1.7278574148761194,0.0,0.004474854562431574,0.6107882261276245,0.0,0.016995910555124283,1.1346439123153687,0.0,0.0032293181866407394
173.0,199.0,-6.8674,0.597,7.3591,-0.0342,0.0176,-0.11,-2.629547258416647,0.0,5.815934181213379,-0.7129917144775391,-0.0,2.0786144733428955,5.506228971272268,-0.0,0.16798894107341766,-1.7278855482684534,0.0,0.010348211973905563,0.6107239723205566,0.0,0.013761790469288826,1.1346521377563477,0.0,-0.003480032552033663
170.0,191.0,-6.8321,0.545,7.2622,-0.0467,0.0188,-0.1156,-2.629571577111715,0.0,5.818855285644531,-0.7131210565567017,-0.0,2.0538978576660156,5.506281363755026,-0.0,0.1517862230539322,-1.7279136816607874,0.0,0.004377830773591995,0.610744297504425,0.0,0.00626007467508316,1.134648084640503,0.0,-0.0037914039567112923
170.0,191.0,-6.8321,0.545,7.2622,-0.0467,0.0188,-0.1156,-2.6295277080931605,0.0,5.843010425567627,-0.7130440473556519,-0.0,2.0714340209960938,5.506208884506979,-0.0,0.16864439845085144,-1.7278693358050745,0.0,-0.005290859378874302,0.6108041405677795,0.0,0.0025842657778412104,1.1347205638885498,0.0,0.010385801084339619
170.0,191.0,-6.8321,0.545,7.2622,-0.0467,0.0188,-0.1156,-2.6295558414854945,0.0,5.862512588500977,-0.7130197882652283,-0.0,2.1034722328186035,5.506208884506979,-0.0,0.14703892171382904,-1.7278693358050745,0.0,0.018373660743236542,0.6108000874519348,0.0,-0.0014237824361771345,1.1346882581710815,0.0,-0.0053712306544184685
170.0,191.0,-6.8321,0.545,7.2622,-0.0467,0.0188,-0.1156,-2.6295834980406703,0.0,5.825249671936035,-0.7130398750305176,-0.0,2.078237533569336,5.506233024388113,-0.0,0.17033880949020386,-1.72784930864443,0.0,0.01466204784810543,0.6107599139213562,0.0,0.012671739794313908,1.134656310081482,0.0,-0.004140033386647701
170.0,191.0,-6.8321,0.545,7.2622,-0.0467,0.0188,-0.1156,-2.6295796833434046,0.0,5.837268829345703,-0.7130444645881653,-0.0,2.054135799407959,5.5062370775039575,-0.0,0.1640213578939438,-1.7278335730182093,0.0,0.01443469151854515,0.6107640266418457,0.0,0.009103573858737946,1.134708285331726,0.0,-0.004581804387271404
170.0,191.0,-6.8321,0.545,7.2622,-0.0467,0.0188,-0.1156,-2.6295234165587367,0.0,5.791783332824707,-0.7130160331726074,-0.0,2.050847053527832,5.5062129376228235,-0.0,0.1444484144449234,-1.7278855482684534,0.0,0.005133976694196463,0.6107800006866455,0.0,0.0017157052643597126,1.1346521377563477,0.0,-0.049507852643728256
170.0,191.0,-6.8321,0.545,7.2622,-0.0467,0.0188,-0.1156,-2.6294995747008265,0.0,5.803869247436523,-0.7130077481269836,-0.0,2.0148186683654785,5.506192850857534,-0.0,0.16230055689811707,-1.7278779188739222,0.0,0.0036285645328462124,0.6107640266418457,0.0,0.004604408983141184,1.1346358060836792,0.0,-0.0370781272649765
170.0,191.0,-6.8321,0.545,7.2622,-0.0467,0.0188,-0.1156,-2.629559179345602,0.0,5.79744291305542,-0.7130279541015625,-0.0,2.056851863861084,5.506184625416555,-0.0,0.16598761081695557,-1.7278655211078089,0.0,0.007883218117058277,0.6107361912727356,0.0,0.004703406244516373,1.1346198320388794,0.0,0.013699039816856384
170.0,191.0,-6.8321,0.545,7.2622,-0.0467,0.0188,-0.1156,-2.6295072040953578,0.0,5.805282115936279,-0.7130321264266968,-0.0,2.0201492309570312,5.506216990738668,-0.0,0.16251051425933838,-1.7278693358050745,0.0,0.011078700423240662,0.610771894454956,0.0,0.001966586336493492,1.134656310081482,0.0,-0.022572431713342667
170.0,191.0,-6.8321,0.545,7.2622,-0.0467,0.0188,-0.1156,-2.6295515499510707,0.0,5.779813289642334,-0.7129995226860046,-0.0,2.057278633117676,5.506221103459158,-0.0,0.1549580693244934,-1.7278817335711878,0.0,0.018996216356754303,0.6107436418533325,0.0,0.011327384039759636,1.134623646736145,0.0,0.04873811453580856
170.0,191.0,-6.8321,0.545,7.2622,-0.0467,0.0188,-0.1156,-2.629547735253805,0.0,5.786875247955322,-0.7130724191665649,-0.0,2.0603346824645996,5.506192850857534,-0.0,0.16560469567775726,-1.7278974691974085,0.0,-0.0029494815971702337,0.6107476949691772,0.0,0.003446688875555992,1.1346722841262817,0.0,0.058110371232032776
170.0,191.0,-6.8321,0.545,7.2622,-0.0467,0.0188,-0.1156,-2.629531522790426,0.0,5.847015380859375,-0.7130160331726074,-0.0,2.0675621032714844,5.506253409176626,-0.0,0.1717902421951294,-1.727861229573385,0.0,0.02071496471762657,0.6107198596000671,0.0,0.0100080706179142,1.1346759796142578,0.0,0.012505773454904556
170.0,191.0,-6.8321,0.545,7.2622,-0.0467,0.0188,-0.1156,-2.6295796833434046,0.0,5.785004615783691,-0.7129313349723816,-0.0,2.031475067138672,5.506184625416555,-0.0,0.1678507924079895,-1.727929417287008,0.0,0.003162126522511244,0.6108000874519348,0.0,0.011932197026908398,1.1346919536590576,0.0,-0.05324900150299072
170.0,191.0,-6.8321,0.545,7.2622,-0.0467,0.0188,-0.1156,-2.6295558414854945,0.0,5.80489444732666,-0.7130522131919861,-1.2091410894754517e-07,2.023289442062378,5.506216990738668,-0.0,0.15768229961395264,-1.7278817335711878,0.0,0.00896135251969099,0.6107483506202698,0.0,0.0045547401532530785,1.134660005569458,0.0,-0.05766711011528969
170.0,191.0,-6.8321,0.545,7.2622,-0.0467,0.0188,-0.1156,-2.6295834980406703,0.0,5.816941261291504,-0.7130481600761414,-2.9199331754575786e-13,2.046515941619873,5.5062129376228235,-0.0,0.16046245396137238,-1.727861229573385,0.0,0.013800293207168579,0.6107518672943115,0.0,0.01026464719325304,1.1346559524536133,0.0,0.005224907770752907
173.0,194.0,-6.8381,0.5049,7.1492,-0.0377,0.0221,-0.1095,-2.6295796833434046,0.0,5.875215530395508,-0.7130241990089417,-7.05129492785369e-19,2.1027209758758545,5.506253468781271,-0.0,0.1600835919380188,-1.7279093901263636,0.0,0.013483190909028053,0.6107038855552673,0.0,0.009138591587543488,1.134664535522461,0.0,-0.038178663700819016
173.0,194.0,-6.8381,0.5049,7.1492,-0.0377,0.0221,-0.1095,-2.6295515499510707,0.0,5.844477653503418,-0.7129957675933838,-1.702804778865225e-24,2.014885902404785,5.506265330105581,-0.0,0.15033027529716492,-1.7278812567340296,0.0,0.004965231288224459,0.6107758283615112,0.0,0.0032107464503496885,1.134639859199524,0.0,0.009708634577691555
173.0,194.0,-6.8381,0.5049,7.1492,-0.0377,0.0221,-0.1095,-2.6295439205565394,0.0,5.7907304763793945,-0.7130118608474731,-4.1120733368035695e-30,2.046438455581665,5.506237017899313,-0.0,0.16988573968410492,-1.7279017607318323,0.0,0.0128237996250391,0.6106997132301331,0.0,0.003448779694736004,1.1346358060836792,0.0,0.04636898636817932
173.0,194.0,-6.8381,0.5049,7.1492,-0.0377,0.0221,-0.1095,-2.6294952831664027,0.0,5.796554088592529,-0.7129756212234497,-9.93017219956359e-36,2.0686488151550293,5.506184625416555,-0.0,0.1524469256401062,-1.7278779188739222,0.0,0.005642816424369812,0.6107119917869568,0.0,0.009305555373430252,1.134671926498413,0.0,0.01578318141400814
173.0,194.0,-6.8381,0.5049,7.1492,-0.0377,0.0221,-0.1095,-2.6295672855772914,0.0,5.808733940124512,-0.7129472494125366,-2.3980420619990595e-41,2.0739998817443848,5.506233024388113,-0.0,0.15235590934753418,-1.7278898398028772,0.0,0.00605046795681119,0.610763669013977,0.0,0.005691086873412132,1.134648084640503,0.0,-0.0033675944432616234
173.0,194.0,-6.8381,0.5049,7.1492,-0.0377,0.0221,-0.1095,-2.629547258416647,0.0,5.8107757568359375,-0.7130200862884521,-0.0,2.06577730178833,5.506180989533224,-0.0,0.17413587868213654,-1.7278817335711878,0.0,-0.007050851359963417,0.6107559204101562,0.0,0.01256801187992096,1.1346842050552368,0.0,-0.012759977020323277
173.0,194.0,-6.8381,0.5049,7.1492,-0.0377,0.0221,-0.1095,-2.6295834980406703,0.0,5.851180076599121,-0.7129876017570496,-0.0,2.0542073249816895,5.506249356060781,-0.0,0.17639201879501343,-1.727861229573385,0.0,0.009882897138595581,0.610739529132843,0.0,0.0017534814542159438,1.1346559524536133,0.0,-0.017824489623308182
173.0,194.0,-6.8381,0.5049,7.1492,-0.0377,0.0221,-0.1095,-2.6296197376646937,0.0,5.840792655944824,-0.7130036354064941,-0.0,2.0801658630371094,5.506241249829092,-0.0,0.16085433959960938,-1.7278574148761194,0.0,-0.0016565034165978432,0.6107402443885803,0.0,-0.002561677247285843,1.1346681118011475,0.0,-0.02385646104812622
173.0,194.0,-6.8381,0.5049,7.1492,-0.0377,0.0221,-0.1095,-2.6295634708800257,0.0,5.835320472717285,-0.7129756808280945,-0.0,2.0777010917663574,5.506241249829092,-0.0,0.16246767342090607,-1.7278731505023401,0.0,0.019205622375011444,0.6107442378997803,0.0,0.004373178351670504,1.1346681118011475,0.0,0.03575003519654274
173.0,194.0,-6.8381,0.5049,7.1492,-0.0377,0.0221,-0.1095,-2.62955965618276,0.0,5.849758148193359,-0.7129876017570496,-0.0,2.0638184547424316,5.506224798947134,-0.0,0.15657490491867065,-1.7279251257525843,0.0,-0.009731551632285118,0.6107518672943115,0.0,0.0002538099361117929,1.1347042322158813,0.0,0.012926566414535046
173.0,194.0,-6.8381,0.5049,7.1492,-0.0377,0.0221,-0.1095,-2.6295792065062464,0.0,5.77702522277832,-0.7129954695701599,-0.0,2.0555877685546875,5.506193268090048,-0.0,0.15049302577972412,-1.7278536001788538,0.0,-0.005725757218897343,0.6107395887374878,0.0,0.01796852797269821,1.1346722841262817,0.0,-0.014136665500700474
173.0,194.0,-6.8381,0.5049,7.1492,-0.0377,0.0221,-0.1095,-2.6295553646483363,0.0,5.911705493927002,-0.7130321264266968,-0.0,2.060311794281006,5.506192850857534,-0.0,0.1530444324016571,-1.7278855482684534,0.0,-0.0012566696386784315,0.6107564568519592,0.0,0.0023520009126514196,1.1346681118011475,0.0,-0.006720284000039101
173.0,194.0,-6.8381,0.5049,7.1492,-0.0377,0.0221,-0.1095,-2.629507680932516,0.0,5.8469085693359375,-0.7130160331726074,-0.0,2.018333911895752,5.506257164269247,-0.0,0.1616107076406479,-1.727861229573385,0.0,0.003931731451302767,0.6107437014579773,0.0,0.007711763493716717,1.1346440315246582,0.0,0.013208463788032532
173.0,194.0,-6.8381,0.5049,7.1492,-0.0377,0.0221,-0.1095,-2.6295916042723597,0.0,5.828144073486328,-0.7130361795425415,-0.0,2.092489242553711,5.506237137108602,-0.0,0.1651831567287445,-1.727905575429098,0.0,-0.007645308971405029,0.6107881665229797,0.0,0.009566382504999638,1.1346358060836792,0.0,0.01829211786389351
173.0,194.0,-6.8381,0.5049,7.1492,-0.0377,0.0221,-0.1095,-2.6295396290221156,0.0,5.772311210632324,-0.7130481004714966,-0.0,2.0784108638763428,5.506208824902334,-0.0,0.1697022169828415,-1.727837387715475,0.0,0.00792092178016901,0.6108001470565796,0.0,0.012647436931729317,1.1346399784088135,0.0,-0.004775268025696278
170.0,189.0,-6.7872,0.6473,7.3663,-0.0279,0.0276,-0.1116,-2.629519601861471,0.0,5.798328399658203,-0.7130036354064941,-0.0,2.080648899078369,5.506232964783468,-0.0,0.1711796522140503,-1.7278974691974085,0.0,0.012004362419247627,0.6107442378997803,0.0,0.009383895434439182,1.1346479654312134,0.0,0.0078023141250014305
170.0,189.0,-6.7872,0.6473,7.3663,-0.0279,0.0276,-0.1116,-2.629515310327047,0.0,5.865517616271973,-0.7130200862884521,-0.0,2.07735013961792,5.506205069809713,-0.0,0.16835908591747284,-1.7278817335711878,0.0,0.010164644569158554,0.6108123064041138,0.0,0.0037812991067767143,1.1346317529678345,0.0,-0.016118060797452927
170.0,189.0,-6.7872,0.6473,7.3663,-0.0279,0.0276,-0.1116,-2.629571577111715,0.0,5.8659281730651855,-0.7129953503608704,-0.0,2.0751535892486572,5.506273197918691,-0.0,0.1630425602197647,-1.7278936545001429,0.0,0.006201538257300854,0.6107882261276245,0.0,0.003211229806765914,1.1346317529678345,0.0,-0.015490295365452766
170.0,189.0,-6.7872,0.6473,7.3663,-0.0279,0.0276,-0.1116,-2.6295916042723597,0.0,5.794370651245117,-0.7130321264266968,-0.0,2.065749168395996,5.506233024388113,-0.0,0.1671191155910492,-1.7278974691974085,0.0,0.005926065146923065,0.6107679009437561,0.0,0.008183849975466728,1.134700059890747,0.0,-0.010778907686471939
170.0,189.0,-6.7872,0.6473,7.3663,-0.0279,0.0276,-0.1116,-2.62953581432485,0.0,5.84925651550293,-0.7129793167114258,-0.0,2.0206756591796875,5.506216990738668,-0.0,0.17098325490951538,-1.7278655211078089,0.0,0.0017614460084587336,0.6108363270759583,0.0,0.007113795727491379,1.134648084640503,0.0,-0.01630789041519165
170.0,189.0,-6.7872,0.6473,7.3663,-0.0279,0.0276,-0.1116,-2.629563947717184,0.0,5.840310096740723,-0.7130282521247864,-0.0,2.052521228790283,5.506241190224447,-0.0,0.17102845013141632,-1.7278693358050745,0.0,0.008497992530465126,0.6107518076896667,0.0,0.007610105909407139,1.1346796751022339,2.177878855036397e-07,-0.0036058092955499887
170.0,189.0,-6.7872,0.6473,7.3663,-0.0279,0.0276,-0.1116,-2.629503389398092,0.0,5.821950912475586,-0.7129995822906494,-0.0,2.088376998901367,5.5061886785324,-0.0,0.1584538072347641,-1.7279332319842737,0.0,0.0020416441839188337,0.6108042597770691,0.0,0.00810967106372118,1.134687900543213,7.056051266006707e-15,0.016883140429854393
170.0,189.0,-6.7872,0.6473,7.3663,-0.0279,0.0276,-0.1116,-2.629495760003561,0.0,5.8184003829956055,-0.7130603790283203,-0.0,2.0620827674865723,5.506233024388113,-0.0,0.1656799465417862,-1.727929417287008,0.0,0.01223680842667818,0.6107518672943115,0.0,0.005474776960909367,1.134700059890747,0.0008242643089033663,0.015133923850953579
170.0,189.0,-6.7872,0.6473,7.3663,-0.0279,0.0276,-0.1116,-2.6295515499510707,0.0,5.7748212814331055,-0.7129395604133606,-0.0,2.0655107498168945,5.506224858551779,-0.0,0.15458600223064423,-1.7278736273394983,0.0,0.014121883548796177,0.6107719540596008,0.0,0.013085449114441872,1.1347160339355469,0.000836595892906189,0.008591217920184135
170.0,189.0,-6.7872,0.6473,7.3663,-0.0279,0.0276,-0.1116,-2.6295515499510707,0.0,5.795616149902344,-0.7130077481269836,-0.0,2.0860555171966553,5.506208884506979,-0.0,0.17054271697998047,-1.7278655211078089,0.0,0.015672095119953156,0.6107441782951355,0.0,0.0055459230206906796,1.1347321271896362,0.000860552885569632,-0.050290971994400024
170.0,189.0,-6.7872,0.6473,7.3663,-0.0279,0.0276,-0.1116,-2.62953581432485,0.0,5.826811790466309,-0.7129835486412048,-0.0,2.095118999481201,5.506196903973379,-0.0,0.1575005054473877,-1.7279093901263636,0.0,0.01130739413201809,0.6107841730117798,0.0,0.021843979135155678,1.1347079277038574,0.0009354951325803995,-0.0009124614298343658
170.0,189.0,-6.7872,0.6473,7.3663,-0.0279,0.0276,-0.1116,-2.6295038662352503,0.0,5.844231605529785,-0.7130036354064941,-0.0,2.035537004470825,5.5062211630638025,-0.0,0.15922287106513977,-1.7279136816607874,0.0,0.005387065000832081,0.6107476949691772,0.0,-0.001214382122270763,1.134719729423523,0.0007556485943496227,0.021547595039010048
170.0,189.0,-6.7872,0.6473,7.3663,-0.0279,0.0276,-0.1116,-2.6295558414854945,0.0,5.805601596832275,-0.713040292263031,-0.0,2.0653626918792725,5.506233024388113,-0.0,0.15978728234767914,-1.7278855482684534,0.0,0.015127645805478096,0.6107435822486877,0.0,0.014793431386351585,1.1347684860229492,0.0006345086148940027,0.013475866056978703
170.0,189.0,-6.7872,0.6473,7.3663,-0.0279,0.0276,-0.1116,-2.62953581432485,0.0,5.809022903442383,-0.7130118608474731,-0.0,2.014993906021118,5.506172644882955,-0.0,0.14798182249069214,-1.7278655211078089,0.0,0.01492380816489458,0.610808253288269,0.0,0.020461762323975563,1.1347160339355469,0.0005472967750392854,0.028623932972550392
170.0,189.0,-6.7872,0.6473,7.3663,-0.0279,0.0276,-0.1116,-2.629571577111715,0.0,5.812203407287598,-0.7129674553871155,-0.0,2.0626821517944336,5.5062453029449365,-0.0,0.16225770115852356,-1.7278898398028772,0.0,0.002929729176685214,0.6107882261276245,0.0,0.0048267291858792305,1.1347160339355469,0.00043412335799075663,0.03958793357014656
173.0,197.0,-7.0229,0.6909,7.5392,-0.0281,0.0238,-0.1174,-2.629515310327047,0.0,5.847333908081055,-0.7130283117294312,-0.0,2.065882682800293,5.506253051548757,-0.0,0.1607869267463684,-1.7279332319842737,0.0,-0.008086241781711578,0.6107596158981323,0.0,0.01417645625770092,1.134700059890747,0.00035974240745417774,-0.0024701962247490883
173.0,197.0,-7.0229,0.6909,7.5392,-0.0281,0.0238,-0.1174,-2.629519601861471,0.0,5.786726474761963,-0.7129957675933838,-0.0,2.076813220977783,5.506192850857534,-0.0,0.15144966542720795,-1.7278731505023401,0.0,0.014157984405755997,0.6107922196388245,0.0,-0.0029581196140497923,1.134687900543213,0.00012087952927686274,-0.017085257917642593
173.0,197.0,-7.0229,0.6909,7.5392,-0.0281,0.0238,-0.1174,-2.629575868646139,0.0,5.828959941864014,-0.7130398750305176,-0.0,2.0821685791015625,5.506197082787313,-0.0,0.1647542417049408,-1.72784930864443,0.0,0.007528980262577534,0.6106759309768677,0.0,0.0028160065412521362,1.1347079277038574,9.997810411732644e-05,-0.016424981877207756
173.0,197.0,-7.0229,0.6909,7.5392,-0.0281,0.0238,-0.1174,-2.629519601861471,0.0,5.813539505004883,-0.7129674553871155,-0.0,2.039541721343994,5.506208824902334,-0.0,0.1571933627128601,-1.7278693358050745,0.0,0.0023779873736202717,0.6107678413391113,0.0,-0.005812524352222681,1.1347042322158813,4.7932389861671254e-05,0.007347180508077145
173.0,197.0,-7.0229,0.6909,7.5392,-0.0281,0.0238,-0.1174,-2.6295634708800257,0.0,5.777890682220459,-0.7130241990089417,-0.0,2.059149742126465,5.506224858551779,-0.0,0.1583862006664276,-1.7278779188739222,0.0,-0.004225996322929859,0.6107320189476013,0.0,-0.005434184335172176,1.1347320079803467,3.749298048205674e-05,-0.02062482200562954
173.0,197.0,-7.0229,0.6909,7.5392,-0.0281,0.0238,-0.1174,-2.6295515499510707,0.0,5.8028883934021,-0.7130279541015625,-0.0,2.055814743041992,5.506177234440603,-0.0,0.14273607730865479,-1.7278812567340296,0.0,0.00986571330577135,0.6107435822486877,0.0,0.00900774821639061,1.134671926498413,3.933118023269344e-06,-0.016598589718341827
173.0,197.0,-7.0229,0.6909,7.5392,-0.0281,0.0238,-0.1174,-2.6295396290221156,0.0,5.821308135986328,-0.7129834890365601,-0.0,2.0502898693084717,5.506164598255911,-0.0,0.16124194860458374,-1.7278817335711878,0.0,0.005847586784511805,0.6107394695281982,0.0,0.004890045151114464,1.1346837282180786,9.49801608890466e-12,0.013938697054982185
173.0,197.0,-7.0229,0.6909,7.5392,-0.0281,0.0238,-0.1174,-2.6295234165587367,0.0,5.832250595092773,-0.7130600214004517,-0.0,2.066591262817383,5.506177234440603,-0.0,0.18217594921588898,-1.7278650442706507,-6.35226848899606e-09,0.005214599892497063,0.6108002662658691,0.0,0.012426814064383507,1.1346800327301025,3.07723673127097e-19,0.02437882497906685
173.0,197.0,-7.0229,0.6909,7.5392,-0.0281,0.0238,-0.1174,-2.629531522790426,0.0,5.801978588104248,-0.7130279541015625,-0.0,2.016244411468506,5.506173240929403,-0.0,0.16329726576805115,-1.7278974691974085,0.00017036292410921305,0.005494275130331516,0.6107922792434692,0.0,0.018694953992962837,1.1346477270126343,7.431165376566689e-25,-0.003045664168894291
173.0,197.0,-7.0229,0.6909,7.5392,-0.0281,0.0238,-0.1174,-2.629547258416647,0.0,5.828558921813965,-0.7130279541015625,-0.0,2.0322771072387695,5.506197082787313,-0.0,0.1630578637123108,-1.7278655211078089,0.00011452364560682327,0.010904359631240368,0.6107320785522461,0.0,0.005509697366505861,1.134671926498413,1.7945388282252045e-30,0.006480979733169079
173.0,197.0,-7.0229,0.6909,7.5392,-0.0281,0.0238,-0.1174,-2.6295916042723597,0.0,5.768138885498047,-0.7130522131919861,-0.0,2.068370819091797,5.506209003716268,-0.0,0.17444905638694763,-1.7278536001788538,1.1727840387720789e-07,0.002980588935315609,0.6107476353645325,0.0,0.005223642569035292,1.134660005569458,4.33359975819856e-36,-0.00563040841370821
173.0,197.0,-7.0229,0.6909,7.5392,-0.0281,0.0238,-0.1174,-2.629543443719381,0.0,5.843306541442871,-0.7130160331726074,-0.0,2.121910333633423,5.506201016693868,-0.0,0.15563499927520752,-1.7278974691974085,3.2644876385434785e-11,0.008796670474112034,0.6107637286186218,0.0,0.008385716006159782,1.1346399784088135,1.0464896931577734e-41,0.031644515693187714
173.0,197.0,-7.0229,0.6909,7.5392,-0.0281,0.0238,-0.1174,-2.629604002038473,0.0,5.806370258331299,-0.7131007313728333,-0.0,2.0566494464874268,5.506236719876089,-0.0,0.16094130277633667,-1.7278974691974085,9.086820380345417e-15,0.013953014276921749,0.610711932182312,0.0,0.008683180436491966,1.1346960067749023,0.0,-0.016967741772532463
173.0,197.0,-7.0229,0.6909,7.5392,-0.0281,0.0238,-0.1174,-2.6295916042723597,0.0,5.812453269958496,-0.7130321264266968,-0.0,2.0693020820617676,5.506224858551779,-0.0,0.16245611011981964,-1.7278779188739222,2.529349568342198e-18,-0.004353790543973446,0.6106796264648438,0.0,0.00372375943697989,1.1346837282180786,0.0,0.0031052986159920692
173.0,197.0,-7.0229,0.6909,7.5392,-0.0281,0.0238,-0.1174,-2.629543443719381,0.0,5.825395584106445,-0.7129871845245361,-0.0,2.023754119873047,5.506209003716268,-0.0,0.16199736297130585,-1.7278855482684534,7.040536878531941e-22,0.005481172353029251,0.6107038855552673,0.0,0.016207749024033546,1.1347079277038574,0.0,0.0310836099088192
174.0,188.0,-6.5988,1.544,7.5015,-0.0191,0.0163,-0.1048,-2.6295234165587367,0.0,5.856323719024658,-0.7130642533302307,-0.0,2.0432918071746826,5.506224858551779,-0.0,0.16255858540534973,-1.7278536001788538,1.9597593814910239e-25,0.012714426964521408,0.6106995940208435,0.0,0.008394675329327583,1.1347079277038574,0.0,0.0018603717908263206
174.0,188.0,-6.5988,1.544,7.5015,-0.0191,0.0163,-0.1048,-2.6295834980406703,0.0,5.834225654602051,-0.7129555940628052,-0.0,2.0828723907470703,5.5062089441116235,-0.0,0.1693257838487625,-1.7278936545001429,5.455062354233846e-29,-0.006737429182976484,0.6107402443885803,0.0,0.011441735550761223,1.13477623462677,0.0,0.014531789347529411
174.0,188.0,-6.5988,1.544,7.5015,-0.0191,0.0163,-0.1048,-2.6295515499510707,0.0,5.838735580444336,-0.7130036354064941,-0.0,2.0897481441497803,5.506209003716268,-0.0,0.17346838116645813,-1.7278898398028772,1.518436599214234e-32,-0.0004978548968210816,0.6107841730117798,0.0,-0.004455174319446087,1.134699821472168,0.0,-0.020583417266607285
174.0,188.0,-6.5988,1.544,7.5015,-0.0191,0.0163,-0.1048,-2.6295553646483363,0.0,5.84417200088501,-0.7130036354064941,-0.0,2.057904005050659,5.506185161858358,-9.933432920661289e-08,0.1702272742986679,-1.7279375235186976,4.2266232433439266e-36,0.003028512466698885,0.6107442378997803,0.0,0.013410487212240696,1.1347639560699463,0.002605874091386795,-0.03448070213198662
174.0,188.0,-6.5988,1.544,7.5015,-0.0191,0.0163,-0.1048,-2.6295157871642054,0.0,5.819793701171875,-0.7129719853401184,4.9651513108983636e-05,2.0147018432617188,5.506165015488424,-2.7650076672713908e-11,0.16566668450832367,-1.7279532591449183,1.1764965594839726e-39,-0.006566752213984728,0.6108202338218689,0.0,0.0008063010754995048,1.1348037719726562,0.00709128612652421,-0.0005459245294332504
174.0,188.0,-6.5988,1.544,7.5015,-0.0191,0.0163,-0.1048,-2.629495760003561,0.0,5.826601028442383,-0.7129155993461609,0.0023586468305438757,2.053966522216797,5.506193148880758,-7.696499653689261e-15,0.16679152846336365,-1.7279375235186976,3.279038406520072e-43,0.004726383835077286,0.6108644604682922,0.0,0.016320273280143738,1.1348928213119507,0.01030607707798481,0.002400481142103672
174.0,188.0,-6.5988,1.544,7.5015,-0.0191,0.0163,-0.1048,-2.629475256005758,0.0,5.852949142456055,-0.7129476070404053,0.001613991684280336,2.088209629058838,5.506216871529379,-2.142348982856201e-18,0.14663514494895935,-1.727929417287008,-6.550191028509289e-05,0.0009986823424696922,0.6107320189476013,0.0,0.001781034516170621,1.1349599361419678,0.011388677172362804,0.033615484833717346
174.0,188.0,-6.5988,1.544,7.5015,-0.0191,0.0163,-0.1048,-2.6295205555357875,0.0006227049161680043,5.829363822937012,-0.7128390073776245,0.0009276045020669699,2.119907855987549,5.506248938828268,-3.893613270968643e-23,0.1730782389640808,-1.7279732863055628,-0.00044269944191910326,-0.004649344831705093,0.6107759475708008,0.0,0.0038956848438829184,1.1350560188293457,0.01524078007787466,0.03912356495857239
174.0,188.0,-6.5988,1.544,7.5015,-0.0191,0.0163,-0.1048,-2.629451414147848,0.0005298853502608836,5.792262077331543,-0.7129119634628296,0.0006942676845937967,2.074195146560669,5.506268787174978,-1.0838015146899663e-26,0.15254195034503937,-1.7279489676104944,-0.0006396232056431472,0.011164769530296326,0.6107395887374878,0.0,0.008553844876587391,1.1351882219314575,0.01811976172029972,0.0001994352787733078
174.0,188.0,-6.5988,1.544,7.5015,-0.0191,0.0163,-0.1048,-2.6295482120909632,0.0004093404277227819,5.803590774536133,-0.7129320502281189,0.0004098427598364651,2.025351047515869,5.506201016693868,-3.0168014913288556e-30,0.15639086067676544,-1.7279613653766077,-0.00045142543967813253,0.0013291614595800638,0.6107841730117798,0.0,-0.006139404606074095,1.1352958679199219,0.021123191341757774,-0.01352335512638092
174.0,188.0,-6.5988,1.544,7.5015,-0.0191,0.0163,-0.1048,-2.6295319996275843,0.0002802013186737895,5.769237518310547,-0.7128995656967163,4.148783045820892e-05,2.03792405128479,5.506216871529379,-8.397378075614214e-34,0.16366562247276306,-1.7279050985919397,-0.00034690494067035615,0.006409334950149059,0.6107678413391113,0.0,0.003855731338262558,1.1354482173919678,0.022022414952516556,0.006977937184274197
174.0,188.0,-6.5988,1.544,7.5015,-0.0191,0.0163,-0.1048,-2.629503389398092,0.0001426090020686388,5.858201503753662,-0.7129682898521423,1.0018822577118058e-10,2.053717851638794,5.506172764092245,-0.0002006392605835572,0.1655864119529724,-1.7278931776629847,-0.00028171029407531023,0.002765106735751033,0.6107156276702881,0.0,0.012184873223304749,1.1355561017990112,0.02000025473535061,0.004262726753950119
174.0,188.0,-6.5988,1.544,7.5015,-0.0191,0.0163,-0.1048,-2.629531522790426,-0.00021544851188082248,5.7957634925842285,-0.7129155993461609,2.419427852845741e-16,2.09867000579834,5.506189274578848,-0.0012120227329432964,0.15886160731315613,-1.7279413382159632,-0.00028452242258936167,-0.001915288157761097,0.6107238531112671,0.0,0.008396167308092117,1.135671854019165,0.016542555764317513,0.04338148236274719
174.0,188.0,-6.5988,1.544,7.5015,-0.0191,0.0163,-0.1048,-2.629547258416647,-0.0010357981082051992,5.809511661529541,-0.7129917144775391,-0.0012815709924325347,2.041370391845703,5.506116378098287,-0.0018008308252319694,0.1600675880908966,-1.7279251257525843,-0.00024572142865508795,0.00630026264116168,0.6107640862464905,0.0,0.004322164226323366,1.1357557773590088,0.01109306886792183,0.05669887363910675
174.0,188.0,-6.5988,1.544,7.5015,-0.0191,0.0163,-0.1048,-2.6296116314330042,-0.0011886265128850937,5.819066524505615,-0.7129957675933838,-0.0012638020562008023,2.0600972175598145,5.506136822491445,-0.0022955776657909155,0.15218213200569153,-1.7279613653766077,-0.00021620039478875697,0.016817977651953697,0.6107559204101562,0.0,0.005774132441729307,1.1357554197311401,0.005784753710031509,0.034531593322753906
170.0,194.0,-7.2975,0.335,7.4351,-0.0353,0.0736,-0.1226,-2.629608293572897,-0.0012887720949947834,5.813097953796387,-0.7129637598991394,-0.0008679460152052343,2.0902628898620605,5.506129193096914,-0.0026954212225973606,0.16379356384277344,-1.7279494444476526,-0.00019301338761579245,-0.012113419361412525,0.6107279658317566,0.0,0.006752610206604004,1.13573157787323,0.0012365705333650112,0.021712128072977066
170.0,194.0,-7.2975,0.335,7.4351,-0.0353,0.0736,-0.1226,-2.6295515499510707,-0.0010375414276495576,5.845172882080078,-0.7129917144775391,-0.0006595602026209235,2.053286075592041,5.506044733315267,-0.004974314942955971,0.15765398740768433,-1.7279251257525843,-0.00017431880405638367,0.011468755081295967,0.6107320189476013,0.0,0.0059863799251616,1.1356791257858276,-0.00326073938049376,0.04221886023879051
170.0,194.0,-7.2975,0.335,7.4351,-0.0353,0.0736,-0.1226,-2.629592081109518,-0.0006350306794047356,5.830472946166992,-0.712979793548584,-0.00048262160271406174,2.086632251739502,5.506004261761465,-0.011243638582527637,0.16718485951423645,-1.7279213110553187,-0.0001459263585275039,0.02398187667131424,0.6107559204101562,0.0,0.00307568721473217,1.135668158531189,-0.00820962619036436,0.024452269077301025
170.0,194.0,-7.2975,0.335,7.4351,-0.0353,0.0736,-0.1226,-2.6295072040953578,-0.00018489504873286933,5.854117393493652,-0.7129596471786499,-0.0002613204123917967,2.0343644618988037,5.505997109204092,-0.013075285591185093,0.15167920291423798,-1.7278936545001429,-0.00012169678666396067,0.01793152466416359,0.6108042597770691,0.0,0.007444753777235746,1.1355196237564087,-0.013886523433029652,-0.05018959194421768
170.0,194.0,-7.2975,0.335,7.4351,-0.0353,0.0736,-0.1226,-2.6295000515379847,-1.225293715378939e-07,5.7829155921936035,-0.7129559516906738,0.00019871332915499806,2.0058302879333496,5.50587676742629,-0.010648731142282486,0.1564851701259613,-1.727917496358053,-0.00011256053403485566,0.000537859508767724,0.6107435822486877,0.0,0.009046860970556736,1.1354035139083862,-0.01769287697970867,-0.020934637635946274
170.0,194.0,-7.2975,0.335,7.4351,-0.0353,0.0736,-0.1226,-2.629495760003561,-2.9589395170170896e-13,5.838587760925293,-0.7129678130149841,0.001632080995477736,2.0447120666503906,5.505792426853933,-0.006496328394860029,0.1675816774368286,-1.7279217878924769,-0.00010470297274878249,-0.001740495441481471,0.6107559204101562,0.0,0.011286827735602856,1.1352916955947876,-0.01939171552658081,-0.01694694720208645
170.0,194.0,-7.2975,0.335,7.4351,-0.0353,0.0736,-0.1226,-2.629507680932516,0.001992072444409132,5.832440376281738,-0.7128835320472717,0.0015284470282495022,2.0762505531311035,5.505840766220846,-0.0023003562819212675,0.1670641303062439,-1.7278898398028772,-9.787121234694496e-05,0.0036706626415252686,0.6107841730117798,0.0,-0.005226753186434507,1.1351715326309204,-0.019324082881212234,0.027829619124531746
170.0,194.0,-7.2975,0.335,7.4351,-0.0353,0.0736,-0.1226,-2.629455705682272,0.0028815472032874823,5.835851669311523,-0.7129196524620056,0.0012556910514831543,2.0669987201690674,5.505788910179891,-0.0011647087521851063,0.16769009828567505,-1.727905575429098,-9.187625983031467e-05,-0.0037027690559625626,0.6107239127159119,0.0,0.001603284734301269,1.1351038217544556,-0.016766559332609177,0.006668515969067812
170.0,194.0,-7.2975,0.335,7.4351,-0.0353,0.0736,-0.1226,-2.6294356785216273,0.0030944019090384245,5.842333793640137,-0.7129160761833191,0.0016266459133476019,2.058020830154419,5.505764770298757,-0.0006539575406350195,0.15866124629974365,-1.7278736273394983,-8.49392163217999e-05,-0.000604370841756463,0.610804557800293,0.0,-0.004597820807248354,1.1349314451217651,-0.012707311660051346,-0.007249738089740276
170.0,194.0,-7.2975,0.335,7.4351,-0.0353,0.0736,-0.1226,-2.6293755970396937,0.0024330420419573784,5.803208827972412,-0.7128802537918091,0.0018700780346989632,2.037440061569214,5.505768763809957,-0.002839441644027829,0.15262292325496674,-1.7279375235186976,-8.038715168368071e-05,-0.002263173460960388,0.6107841730117798,0.0,-4.438543692231178e-05,1.1348637342453003,-0.010423569008708,0.01701243594288826
170.0,194.0,-7.2975,0.335,7.4351,-0.0353,0.0736,-0.1226,-2.629383703271383,0.001581949065439403,5.870675086975098,-0.712904155254364,0.001631457475014031,2.0592784881591797,5.5057451007659814,-0.004251587670296431,0.17862989008426666,-1.7279375235186976,-7.629815809195861e-05,0.009830346331000328,0.610771894454956,0.0,0.009673897176980972,1.134795069694519,-0.008281395770609379,0.010530324652791023
170.0,194.0,-7.2975,0.335,7.4351,-0.0353,0.0736,-0.1226,-2.6293794117369593,0.0009540829341858625,5.798033714294434,-0.7128316760063171,0.0012842882424592972,2.0564303398132324,5.505684602051534,-0.005490679759532213,0.1592390239238739,-1.7279217878924769,-7.260496204253286e-05,0.010441675782203674,0.6107518672943115,0.0,0.002874908968806267,1.134779930114746,-0.006353181786835194,-0.04055081680417061
170.0,194.0,-7.2975,0.335,7.4351,-0.0353,0.0736,-0.1226,-2.629387517968649,0.0005081745330244303,5.860631942749023,-0.7128193378448486,0.0007263435400091112,2.0934910774230957,5.505648839264669,-0.00556649174541235,0.16024452447891235,-1.727905575429098,-6.925290654180571e-05,0.004131968133151531,0.610784113407135,0.0,0.010063350200653076,1.1347758769989014,-0.004897051025182009,0.010739009827375412
170.0,194.0,-7.2975,0.335,7.4351,-0.0353,0.0736,-0.1226,-2.6293631992735804,0.00037952649290673435,5.831780433654785,-0.712843656539917,0.0004892224678769708,2.0704538822174072,5.505608725338735,-0.004802189767360687,0.16257412731647491,-1.727929417287008,-6.61967060295865e-05,0.008151786401867867,0.6108559370040894,0.0,0.005128673277795315,1.1346956491470337,-0.002587517024949193,-0.006258626468479633
170.0,194.0,-7.2975,0.335,7.4351,-0.0353,0.0736,-0.1226,-2.6294075451292933,0.0003028733190149069,5.83630895614624,-0.7128843665122986,0.0003688629367388785,2.0669138431549072,5.505612838059225,-0.00339879235252738,0.15275970101356506,-1.7279093901263636,-6.339877290884033e-05,0.005317765288054943,0.6108120083808899,0.0,-0.001986867282539606,1.1346956491470337,-0.0012789079919457436,0.05261240154504776
170.0,195.0,-7.011,0.5515,7.4148,-0.0411,0.0116,-0.1124,-2.6294356785216273,0.00020159817358944565,5.8219451904296875,-0.7128555178642273,0.0002960439014714211,2.083033561706543,5.505532848625936,-0.0023179911077022552,0.16627810895442963,-1.7279375235186976,-6.082786785555072e-05,-0.005975605919957161,0.6107800006866455,0.0,0.001251757494173944,1.1347402334213257,-0.0006254776380956173,0.02246341109275818
170.0,195.0,-7.011,0.5515,7.4148,-0.0411,0.0116,-0.1124,-2.62943234066152,0.00017259159358218312,5.836884498596191,-0.7128157019615173,0.00024724085233174264,2.105228900909424,5.505564677506246,-0.0018081997986882925,0.1571846306324005,-1.7279413382159632,-5.845733903697692e-05,-0.002753523178398609,0.6107476353645325,0.0,-0.0002803349052555859,1.1347962617874146,-0.0004413140413817018,-0.016297051683068275
170.0,195.0,-7.011,0.5515,7.4148,-0.0411,0.0116,-0.1124,-2.6294156513609828,0.00015088811051100492,5.840264797210693,-0.7128596305847168,0.00021225184900686145,2.0643627643585205,5.505536603718557,-0.0015341837424784899,0.1662886142730713,-1.7279418150531214,-5.6264590966748074e-05,-0.0023286377545446157,0.6108317971229553,0.0,0.0008185075130313635,1.1347239017486572,-0.0003409627533983439,-0.0027056802064180374
170.0,195.0,-7.011,0.5515,7.4148,-0.0411,0.0116,-0.1124,-2.62939514736318,0.00013403379125520587,5.825257301330566,-0.7128353714942932,0.0001859392214100808,2.114891767501831,5.505516814976492,-0.0017464668489992619,0.16074371337890625,-1.727957550679342,-5.423039692686871e-05,0.0067937541753053665,0.6107960343360901,0.0,-0.006040513981133699,1.1347360610961914,-0.00022227461158763617,0.0033058319240808487
170.0,195.0,-7.011,0.5515,7.4148,-0.0411,0.0116,-0.1124,-2.6293798885741175,3.866296538035385e-05,5.816886901855469,-0.712835431098938,0.00019849945965688676,2.067577600479126,5.505520450859823,-0.0015729422448202968,0.15839026868343353,-1.7278974691974085,-5.233820775174536e-05,-0.008162354119122028,0.6108440160751343,0.0,0.011969886720180511,1.1347320079803467,2.0314013454481028e-05,0.022885983809828758
170.0,195.0,-7.011,0.5515,7.4148,-0.0411,0.0116,-0.1124,-2.6293674908080042,3.424740134505555e-05,5.839214324951172,-0.7128636837005615,0.00022816829732619226,2.114053249359131,5.505504596024313,-0.0009732571197673678,0.14268845319747925,-1.7279251257525843,-5.057359885540791e-05,-0.0065748803317546844,0.6107841730117798,0.0,-0.0011745782103389502,1.134711742401123,8.979480480775237e-05,-0.025770332664251328
170.0,195.0,-7.011,0.5515,7.4148,-0.0411,0.0116,-0.1124,-2.629383703271383,5.7854220358422026e-05,5.824342250823975,-0.7128678560256958,0.00021712710440624505,2.108085870742798,5.505443918495931,-0.0011140144197270274,0.15196280181407928,-1.7279132048236292,-8.297786848743272e-07,0.002516500186175108,0.6107919216156006,0.0,0.013972153887152672,1.134727954864502,7.810512033756822e-05,0.06909774243831635
170.0,195.0,-7.011,0.5515,7.4148,-0.0411,0.0116,-0.1124,-2.6294075451292933,8.351191354449838e-05,5.842145919799805,-0.7128518223762512,0.00016690540360286832,2.0735433101654053,5.505468594818868,-0.003403826616704464,0.16375792026519775,-1.727917496358053,-2.3097196377719342e-10,0.006318786647170782,0.6107959747314453,0.0,-0.006095359101891518,1.1347599029541016,0.00013413494161795825,0.0462346225976944
170.0,195.0,-7.011,0.5515,7.4148,-0.0411,0.0116,-0.1124,-2.6293307743468226,0.0003460751904640347,5.856144428253174,-0.7128559350967407,0.0008658657316118479,2.1222572326660156,5.5054562566574,-0.0039040257688611746,0.15053509175777435,-1.7279093901263636,-6.429189456204701e-14,-0.013264835812151432,0.6108038425445557,0.0,0.005983587820082903,1.1347439289093018,0.0001239406265085563,0.024583222344517708
170.0,195.0,-7.011,0.5515,7.4148,-0.0411,0.0116,-0.1124,-2.629355569879049,0.0008783255470916629,5.8652496337890625,-0.7127994894981384,0.001966009847819805,2.0907764434814453,5.50537275055007,-0.0047464678063988686,0.14956673979759216,-1.7279251257525843,-1.1684734721360286e-18,-0.010321807116270065,0.610739529132843,0.0,0.008356506004929543,1.1348203420639038,0.00033033746876753867,0.011497818864881992
170.0,195.0,-7.011,0.5515,7.4148,-0.0411,0.0116,-0.1124,-2.629338880578512,0.0008869139710441232,5.809614181518555,-0.7128077745437622,0.002061651088297367,2.093282699584961,5.50537275055007,-0.006985426414757967,0.14552442729473114,-1.7279413382159632,-3.2524889107911016e-22,-0.012822621501982212,0.6107837557792664,0.0,0.005737228784710169,1.134779930114746,0.0003262897953391075,0.027560682967305183
170.0,195.0,-7.011,0.5515,7.4148,-0.0411,0.0116,-0.1124,-2.629343648950094,0.0008971297065727413,5.816119194030762,-0.7127995491027832,0.002398718148469925,2.107983112335205,5.505299973278799,-0.008927074261009693,0.14169788360595703,-1.7279451529132288,-9.053421343336834e-26,-0.004279212094843388,0.6107555031776428,0.0,0.0076255640015006065,1.1347479820251465,0.0004675974778365344,0.06038521230220795
170.0,195.0,-7.011,0.5515,7.4148,-0.0411,0.0116,-0.1124,-2.6293193302550257,0.000999526702798903,5.8228278160095215,-0.7127958536148071,0.002312584314495325,2.0687835216522217,5.505240666657247,-0.010667487047612667,0.14701464772224426,-1.7279093901263636,-2.5200531516205166e-29,-0.012557612732052803,0.6107759475708008,0.0,0.022478174418210983,1.1347317695617676,0.00048178795259445906,0.09248194098472595
170.0,195.0,-7.011,0.5515,7.4148,-0.0411,0.0116,-0.1124,-2.6293441257872523,0.0013383261393755674,5.825239181518555,-0.7127601504325867,0.0019030086696147919,2.0536575317382812,5.5051365969474695,-0.011609204113483429,0.14916706085205078,-1.727917496358053,-7.014661152144242e-33,-0.007802478037774563,0.6108279824256897,0.0,0.007997854612767696,1.1347839832305908,0.00038029460120014846,0.12179528176784515
170.0,195.0,-7.011,0.5515,7.4148,-0.0411,0.0116,-0.1124,-2.6293236217894496,0.0014037686632946134,5.874691963195801,-0.7127395868301392,0.0015587654197588563,2.119814157485962,5.505084502487936,-0.012014512903988361,0.14115303754806519,-1.7278812567340296,-1.9525562761404512e-36,0.0015701488591730595,0.6107401847839355,0.0,0.009817752987146378,1.1347839832305908,0.00036624542553909123,0.0665266141295433
170.0,194.0,-6.9171,0.8602,7.48,-0.0257,0.0197,-0.1095,-2.6293236217894496,0.001356347929686308,5.842947006225586,-0.712772011756897,0.0013134080218151212,2.1040942668914795,5.505044209748068,-0.011000683531165123,0.1464274525642395,-1.7279413382159632,-5.435006158807019e-40,-0.013876719400286674,0.6107957363128662,0.0,0.02196074090898037,1.1347558498382568,0.0003118740860372782,0.13884073495864868
170.0,194.0,-6.9171,0.8602,7.48,-0.0257,0.0197,-0.1095,-2.629355569879049,0.0013300201389938593,5.82053804397583,-0.71271151304245,0.0010448715183883905,2.089914560317993,5.505004870682516,-0.010418561287224293,0.1374458372592926,-1.727933708821432,-1.5134023414708024e-43,-0.008831415325403214,0.610819935798645,0.0,0.005201898980885744,1.1347758769989014,0.0003103326598647982,0.09900674223899841
170.0,194.0,-6.9171,0.8602,7.48,-0.0257,0.0197,-0.1095,-2.629242559472555,0.0013729161582887173,5.798470497131348,-0.712703287601471,0.0006576576852239668,2.095313549041748,5.504912066250601,-0.009356069378554821,0.15385599434375763,-1.7278974691974085,-0.0,-0.015410589054226875,0.6107116341590881,0.0,0.008168753236532211,1.1347599029541016,0.0002747999969869852,0.14619100093841553
170.0,194.0,-6.9171,0.8602,7.48,-0.0257,0.0197,-0.1095,-2.6292792759337367,0.00136309745721519,5.8853230476379395,-0.7127477526664734,0.000457017682492733,2.0720701217651367,5.50483654716567,-0.00840407982468605,0.14543427526950836,-1.7279418150531214,-0.0,-0.030646108090877533,0.6107959747314453,0.0,0.00849374383687973,1.1347839832305908,0.00021252554142847657,0.135249525308609
170.0,194.0,-6.9171,0.8602,7.48,-0.0257,0.0197,-0.1095,-2.629307886163229,0.0013805573107674718,5.858331203460693,-0.7127881050109863,0.00042030680924654007,2.093862771987915,5.504804479866781,-0.007800695952028036,0.14550013840198517,-1.7279012838946741,-0.0,-0.027436688542366028,0.6108518242835999,0.0,0.02470068447291851,1.1347676515579224,0.00018603458011057228,0.09678751230239868
