ramyac6/ROB537/final_project/csv/good/good_9.csv
tof_0,tof_1,accelx,accely,accelz,gyrox,gyroy,gyroz,shoulder_lift_joint_position,shoulder_lift_joint_velocity,shoulder_lift_joint_effort,elbow_joint_position,elbow_joint_velocity,elbow_joint_effort,wrist_1_joint_position,wrist_1_joint_velocity,wrist_1_joint_effort,wrist_2_joint_position,wrist_2_joint_velocity,wrist_2_joint_effort,wrist_3_joint_position,wrist_3_joint_velocity,wrist_3_joint_effort,shoulder_pan_joint_position,shoulder_pan_joint_velocity,shoulder_pan_joint_effort
794.0,930.0,-4.7354,3.4696,7.9406,-0.0412,0.0305,-0.1193,-2.242584844628805,-0.017051659524440765,4.181606292724609,-1.671733021736145,-0.0,1.525277853012085,-0.46401651323352056,9.145001761583864e-19,0.2147597372531891,-1.987197224293844,-0.0,0.03369950130581856,0.6359993815422058,-0.0,0.003517008386552334,1.0783239603042603,0.0,-0.06185033917427063
794.0,930.0,-4.7354,3.4696,7.9406,-0.0412,0.0305,-0.1193,-2.242692609826559,-0.013055641204118729,4.199590682983398,-1.6716803312301636,-0.0,1.587780237197876,-0.464036301975586,2.545544584145688e-22,0.19923755526542664,-1.987197224293844,-0.0,0.04485525190830231,0.6359837055206299,-0.0,0.0015147803351283073,1.078328013420105,0.0,-0.006788789294660091
794.0,930.0,-4.7354,3.4696,7.9406,-0.0412,0.0305,-0.1193,-2.2427646122374476,-0.01007102895528078,4.181020736694336,-1.6717166900634766,-0.0,1.5476231575012207,-0.4640645545772095,7.085617676024335e-26,0.20152607560157776,-1.9871895948993128,-0.0,0.036155372858047485,0.6359755992889404,-0.0,0.00392575841397047,1.0783722400665283,0.0,0.0003483397886157036
794.0,930.0,-4.7354,3.4696,7.9406,-0.0412,0.0305,-0.1193,-2.2428370914854945,-0.006698576733469963,4.200033187866211,-1.6717041730880737,-0.0,1.5210278034210205,-0.4640205663493653,1.2877758785009672e-30,0.21107785403728485,-1.9871814886676233,-0.0,0.023219432681798935,0.6360153555870056,-0.0,-0.003346218029037118,1.0783599615097046,0.0,-0.0711636021733284
794.0,930.0,-4.7354,3.4696,7.9406,-0.0412,0.0305,-0.1193,-2.242828508416647,-0.004801351577043533,4.231258392333984,-1.6717166900634766,5.759743362432346e-05,1.5580549240112305,-0.46403224885974126,3.584571299674196e-34,0.2167058289051056,-1.9871538321124476,-0.0,0.03282523900270462,0.6359593272209167,-0.0,0.005706374067813158,1.0783480405807495,0.0,-0.0415634959936142
794.0,930.0,-4.7354,3.4696,7.9406,-0.0412,0.0305,-0.1193,-2.2428728542723597,-0.002863965928554535,4.270822525024414,-1.6716721057891846,5.524155494640581e-05,1.5285091400146484,-0.46404440820727544,6.514782295686364e-39,0.22298689186573029,-1.9871895948993128,-0.0,0.03742878511548042,0.6360031366348267,-0.0,0.004840875044465065,1.0783402919769287,0.0,-0.025863800197839737
794.0,930.0,-4.7354,3.4696,7.9406,-0.0412,0.0305,-0.1193,-2.2428928814330042,-0.0016901660710573196,4.2167840003967285,-1.6717041730880737,6.029804717400111e-05,1.5844841003417969,-0.46402843416247563,1.8132802128363133e-42,0.21479924023151398,-1.987197224293844,-0.0,0.029440227895975113,0.6360437273979187,-0.0,-0.0014089159667491913,1.0784127712249756,0.0,-0.04345647990703583
828.0,933.0,-4.8939,3.4762,7.9633,-0.0348,0.0347,-0.1187,-2.2428485355772914,-0.0009643675293773413,4.211031913757324,-1.671696424484253,6.174237205414101e-05,1.5695066452026367,-0.46399231374774175,0.0,0.2033264935016632,-1.9871695677386683,-0.0,0.043371424078941345,0.6359432935714722,-0.0,0.004396527539938688,1.078328013420105,0.0,0.00789731740951538
828.0,933.0,-4.8939,3.4762,7.9633,-0.0348,0.0347,-0.1187,-2.242868562737936,-0.0006833756342530251,4.245113372802734,-1.671663761138916,2.3466373022529297e-06,1.5896098613739014,-0.4640243810466309,0.0,0.20819814503192902,-1.9871934095965784,-0.0,0.02848658710718155,0.6360396146774292,-0.0,0.0074218278750777245,1.0783681869506836,0.0,-0.016282953321933746
828.0,933.0,-4.8939,3.4762,7.9633,-0.0348,0.0347,-0.1187,-2.2429009876646937,-0.0005318765761330724,4.210575580596924,-1.6716926097869873,5.666852403996003e-12,1.570408582687378,-0.464008168583252,0.0,0.21745237708091736,-1.9871814886676233,-0.0,0.040818676352500916,0.6359953880310059,-0.0,-0.009653348475694656,1.0783722400665283,0.0,0.04190809279680252
828.0,933.0,-4.8939,3.4762,7.9633,-0.0348,0.0347,-0.1187,-2.242852827111715,-0.00041054372559301555,4.304931163787842,-1.671696424484253,1.83598824488465e-19,1.6474411487579346,-0.46398015440020757,0.0,0.21980616450309753,-1.9871614615069788,-0.0,0.027628809213638306,0.6359392404556274,-0.0,0.0025641247630119324,1.078319787979126,0.0,0.00011455158528406173
828.0,933.0,-4.8939,3.4762,7.9633,-0.0348,0.0347,-0.1187,-2.242884775201315,-0.00035056908382102847,4.2462897300720215,-1.6716843843460083,4.4336955892957415e-25,1.5529463291168213,-0.46408458173785405,0.0,0.21691963076591492,-1.987197224293844,-0.0,0.04926270991563797,0.6359715461730957,-0.0,-0.0045598833821713924,1.0783644914627075,0.0,-0.029585395008325577
828.0,933.0,-4.8939,3.4762,7.9633,-0.0348,0.0347,-0.1187,-2.242909093896383,-0.00024232434225268662,4.2401275634765625,-1.6716678142547607,1.0706852056329149e-30,1.5624613761901855,-0.46405263364825444,0.0,0.22570814192295074,-1.9871576468097132,-0.0,0.019032537937164307,0.6360154151916504,-0.0,0.006678626872599125,1.0783239603042603,0.0,-0.034491412341594696
828.0,933.0,-4.8939,3.4762,7.9633,-0.0348,0.0347,-0.1187,-2.2428890667357386,-0.000241603163885884,4.2829365730285645,-1.6717164516448975,3.4688838001295624e-38,1.590742588043213,-0.46401651323352056,0.0,0.22820791602134705,-1.987197224293844,-0.0,0.05123394355177879,0.6360076665878296,-0.0,-0.0014868172584101558,1.0783640146255493,0.0,0.055639054626226425
828.0,933.0,-4.8939,3.4762,7.9633,-0.0348,0.0347,-0.1187,-2.2429453335204066,-0.00048283993965014815,4.243531703948975,-1.6717004776000977,8.407790785948902e-44,1.5432966947555542,-0.46401651323352056,0.0,0.21218189597129822,-1.9871256987201136,-0.0,0.03492453321814537,0.6360000967979431,-0.0,-0.004305736627429724,1.0783321857452393,0.0,-0.018167952075600624
828.0,933.0,-4.8939,3.4762,7.9633,-0.0348,0.0347,-0.1187,-2.242884775201315,-0.000554779137019068,4.249722480773926,-1.6716638803482056,-0.0,1.5746736526489258,-0.4639682334712525,0.0,0.20529398322105408,-1.9872172514544886,-0.0,0.02291737124323845,0.6359596848487854,-0.0,0.0021570848766714334,1.0783681869506836,0.0,0.017565609887242317
828.0,933.0,-4.8939,3.4762,7.9633,-0.0348,0.0347,-0.1187,-2.2428723774352015,-0.0005015364731661975,4.211740970611572,-1.6716400384902954,-0.0,1.6167123317718506,-0.4640403550914307,0.0,0.22707992792129517,-1.9872091452227991,-0.0,0.029407931491732597,0.6359993815422058,-0.0,0.012740932404994965,1.0783681869506836,0.0,-0.0168821569532156
828.0,933.0,-4.8939,3.4762,7.9633,-0.0348,0.0347,-0.1187,-2.242904325524801,-0.000392234418541193,4.216084957122803,-1.6716843843460083,-0.0,1.565650224685669,-0.46401651323352056,0.0,0.22877109050750732,-1.9872091452227991,-0.0,0.028320737183094025,0.6359232664108276,-0.0,0.005563960410654545,1.0783926248550415,0.0,0.017646396532654762
828.0,933.0,-4.8939,3.4762,7.9633,-0.0348,0.0347,-0.1187,-2.2428766689696253,-0.0003185905807185918,4.222414016723633,-1.6717004776000977,-0.0,1.6069872379302979,-0.4640084070018311,0.0,0.21797585487365723,-1.9871256987201136,-0.0,0.036653805524110794,0.6360114216804504,-0.0,-0.004129759036004543,1.0783681869506836,0.0,-0.03423328697681427
828.0,933.0,-4.8939,3.4762,7.9633,-0.0348,0.0347,-0.1187,-2.2428327999510707,-0.0002627676003612578,4.243019104003906,-1.6717004776000977,-0.0,1.56282377243042,-0.46399231374774175,0.0,0.21259719133377075,-1.9872091452227991,-0.0,0.03265928477048874,0.6359990835189819,-0.0,0.00032926048152148724,1.0783562660217285,0.0,-0.02247510850429535
828.0,933.0,-4.8939,3.4762,7.9633,-0.0348,0.0347,-0.1187,-2.242856641808981,-0.00021300881053321064,4.256683349609375,-1.6717004776000977,-0.0,1.528565764427185,-0.46403224885974126,0.0,0.21314433217048645,-1.9871895948993128,-0.0,0.047592297196388245,0.6359878778457642,-0.0,0.006498349830508232,1.078336238861084,0.0,-0.02043093368411064
783.0,946.0,-4.7904,3.5174,8.0507,-0.0322,0.0289,-0.1168,-2.242884775201315,-0.00018652038124855608,4.236744403839111,-1.671712875366211,-0.0,1.584863543510437,-0.4640084070018311,0.0,0.21561983227729797,-1.9871776739703577,-0.0,0.018876921385526657,0.636067807674408,-0.0,0.004623676650226116,1.0783522129058838,0.0,-0.07413237541913986
783.0,946.0,-4.7904,3.5174,8.0507,-0.0322,0.0289,-0.1168,-2.2429167232909144,-0.00019199130474589765,4.260122299194336,-1.6716926097869873,-0.0,1.59586501121521,-0.4640243810466309,0.0,0.22126725316047668,-1.9871814886676233,-0.0,0.03438924252986908,0.6359633207321167,-0.0,-0.005115344189107418,1.0783681869506836,0.0,-0.017118122428655624
783.0,946.0,-4.7904,3.5174,8.0507,-0.0322,0.0289,-0.1168,-2.2428885898985804,-0.00017348630353808403,4.28209924697876,-1.6716803312301636,-0.0,1.5947283506393433,-0.46397633970294194,0.0,0.21852722764015198,-1.9871814886676233,-0.0,0.0363638773560524,0.6359756588935852,-0.0,-0.000402112549636513,1.0783562660217285,0.0,-0.01109373103827238
783.0,946.0,-4.7904,3.5174,8.0507,-0.0322,0.0289,-0.1168,-2.242892404595846,-0.00018460594583302736,4.277517795562744,-1.6716843843460083,6.518165173474699e-05,1.5485246181488037,-0.4639805120280762,0.0,0.20815137028694153,-1.987197224293844,-0.0,0.016837511211633682,0.6360035538673401,-0.0,0.004628813359886408,1.0783926248550415,0.0,-0.03377126157283783
783.0,946.0,-4.7904,3.5174,8.0507,-0.0322,0.0289,-0.1168,-2.2428723774352015,-0.0001652395148994401,4.242425441741943,-1.67178475856781,7.345009362325072e-05,1.5782661437988281,-0.46404440820727544,0.0,0.22239920496940613,-1.9871733824359339,-0.0,0.02701760083436966,0.6360153555870056,-0.0,-0.003876149421557784,1.0783644914627075,0.0,0.0021607675589621067
783.0,946.0,-4.7904,3.5174,8.0507,-0.0322,0.0289,-0.1168,-2.2428647480406703,-0.00015318594523705542,4.2458600997924805,-1.6716885566711426,8.148043707478791e-05,1.594618797302246,-0.46401246011767583,0.0,0.22629371285438538,-1.9871814886676233,-0.0,0.03824363276362419,0.6360194683074951,-0.0,-0.006482153665274382,1.0783722400665283,0.0,0.0353081040084362
783.0,946.0,-4.7904,3.5174,8.0507,-0.0322,0.0289,-0.1168,-2.2429009876646937,-0.0001396075531374663,4.293828010559082,-1.6716803312301636,7.871932757552713e-05,1.5977232456207275,-0.46404440820727544,0.0,0.22703419625759125,-1.9871538321124476,-0.0,0.024945389479398727,0.6359953880310059,-0.0,0.005700165405869484,1.0783681869506836,0.0,-0.0004785209894180298
783.0,946.0,-4.7904,3.5174,8.0507,-0.0322,0.0289,-0.1168,-2.2429009876646937,-0.00013090504216961563,4.242554664611816,-1.6717008352279663,8.666428038850427e-05,1.608431339263916,-0.4640522760203858,0.0,0.21187269687652588,-1.9871657530414026,-0.0,0.039756253361701965,0.6359878778457642,-0.0,-0.013296099379658699,1.0783480405807495,0.0,-0.010537106543779373
783.0,946.0,-4.7904,3.5174,8.0507,-0.0322,0.0289,-0.1168,-2.242856641808981,-0.0001232237700605765,4.199306964874268,-1.671651840209961,8.36907493066974e-05,1.5860624313354492,-0.46402843416247563,0.0,0.21141821146011353,-1.9871776739703577,-0.0,0.03448645398020744,0.6360236406326294,-0.0,0.004855181090533733,1.078376293182373,0.0,-0.05062069743871689
783.0,946.0,-4.7904,3.5174,8.0507,-0.0322,0.0289,-0.1168,-2.2428885898985804,-0.00011428272409830242,4.251437187194824,-1.671651840209961,7.997252396307886e-05,1.6060454845428467,-0.4640043538859864,0.0,0.23716259002685547,-1.9871495405780237,-0.0,0.026578351855278015,0.6359433531761169,-0.0,-0.001814597868360579,1.0783722400665283,0.0,0.006898562889546156
783.0,946.0,-4.7904,3.5174,8.0507,-0.0322,0.0289,-0.1168,-2.2429048023619593,-0.00012386764865368605,4.247401714324951,-1.671676516532898,1.6581183093222762e-09,1.5489588975906372,-0.4640403550914307,0.0,0.2298712432384491,-1.987185303364889,-0.0,0.03352879360318184,0.6359912753105164,-0.0,0.0063127754256129265,1.078376293182373,0.0,0.002441402757540345
783.0,946.0,-4.7904,3.5174,8.0507,-0.0322,0.0289,-0.1168,-2.2428766689696253,-9.05644556041807e-05,4.2618889808654785,-1.6716721057891846,5.372093055362361e-17,1.5821027755737305,-0.46404440820727544,0.0,0.22415408492088318,-1.9871895948993128,-0.0,0.04767908155918121,0.6360436081886292,-0.0,0.00537251029163599,1.0784045457839966,0.0,-0.02505512535572052
783.0,946.0,-4.7904,3.5174,8.0507,-0.0322,0.0289,-0.1168,-2.242892404595846,-0.00010248131729895249,4.243444919586182,-1.6716440916061401,1.297297030983079e-22,1.5940485000610352,-0.4640203279307862,0.0,0.22392037510871887,-1.987213436757223,-0.0,0.03665786609053612,0.6360235810279846,-0.0,-0.001384106813929975,1.0783722400665283,0.0,0.029338721185922623
811.0,909.0,-4.8305,3.4205,7.9956,-0.026,0.0267,-0.1188,-2.24289669613027,-0.00010569459846010432,4.2403244972229,-1.6716440916061401,0.00012157185119576752,1.5808416604995728,-0.464036301975586,0.0,0.2164948582649231,-1.9871614615069788,-0.0,0.046042099595069885,0.6360195279121399,-0.0,-0.00912526622414589,1.0783922672271729,0.0,-0.025152109563350677
811.0,909.0,-4.8305,3.4205,7.9956,-0.026,0.0267,-0.1188,-2.2428885898985804,-0.00010554383334238082,4.235510349273682,-1.6716363430023193,0.00011256433936068788,1.575190544128418,-0.46399207532916265,0.0,0.22052985429763794,-1.9871576468097132,-0.0,0.02631307579576969,0.6360031366348267,-0.0,-0.0004226521705277264,1.0783321857452393,0.0,-0.05444815009832382
811.0,909.0,-4.8305,3.4205,7.9956,-0.026,0.0267,-0.1188,-2.2428561649718226,-0.00010049324919236824,4.246647357940674,-1.6716803312301636,0.00012564801727421582,1.6457645893096924,-0.4639924329570313,0.0,0.21779492497444153,-1.987197224293844,-0.0,0.04492689296603203,0.6360035538673401,-0.0,-0.009906157851219177,1.078328013420105,0.0,-0.009705345146358013
811.0,909.0,-4.8305,3.4205,7.9956,-0.026,0.0267,-0.1188,-2.242876192132467,-9.446591138839722e-05,4.260451316833496,-1.6715799570083618,0.00013409733946900815,1.5451841354370117,-0.46404416978869634,0.0,0.2140311896800995,-1.987197224293844,-0.0,0.03904681280255318,0.6360195279121399,-0.0,-0.005140672437846661,1.0783599615097046,0.0,-0.006762359291315079
811.0,909.0,-4.8305,3.4205,7.9956,-0.026,0.0267,-0.1188,-2.242908617059225,-9.039944416144863e-05,4.251123428344727,-1.6716482639312744,0.00012605777010321617,1.5970385074615479,-0.4640001815608521,0.0,0.21770793199539185,-1.9871495405780237,-0.0,0.03218900412321091,0.6359673738479614,-0.0,-0.004738527350127697,1.0783804655075073,0.0,0.018959423527121544
811.0,909.0,-4.8305,3.4205,7.9956,-0.026,0.0267,-0.1188,-2.2428723774352015,-9.76863520918414e-05,4.277790546417236,-1.6716761589050293,0.00013338688586372882,1.5783337354660034,-0.4640203279307862,0.0,0.22114694118499756,-1.9872544447528284,-0.0,0.032327864319086075,0.6359474062919617,-0.0,0.0030276249162852764,1.0783722400665283,0.0,-0.048865195363759995
811.0,909.0,-4.8305,3.4205,7.9956,-0.026,0.0267,-0.1188,-2.242908617059225,-9.388379112351686e-05,4.253256797790527,-1.6716803312301636,0.00012636682367883623,1.5533225536346436,-0.46404416978869634,0.0,0.21590813994407654,-1.9871895948993128,-0.0,0.039524443447589874,0.6359756588935852,-0.0,0.005690702237188816,1.078384518623352,0.0,0.02668372541666031
811.0,909.0,-4.8305,3.4205,7.9956,-0.026,0.0267,-0.1188,-2.242912908593649,-9.034954564413056e-05,4.26059627532959,-1.671628475189209,0.0001200462065753527,1.6027474403381348,-0.4640043538859864,0.0,0.21891853213310242,-1.9871175924884241,-0.0,0.03497855365276337,0.6359633803367615,-0.0,-0.004768680315464735,1.0783804655075073,0.0,0.031279463320970535
811.0,909.0,-4.8305,3.4205,7.9956,-0.026,0.0267,-0.1188,-2.242908617059225,-8.603130117990077e-05,4.302692890167236,-1.6716325283050537,0.0001420830376446247,1.6222915649414062,-0.46404822290454106,0.0,0.2191925048828125,-1.9871895948993128,-0.0,0.04338517040014267,0.6360437273979187,-0.0,0.010572283528745174,1.0783402919769287,0.0,0.0038725207559764385
811.0,909.0,-4.8305,3.4205,7.9956,-0.026,0.0267,-0.1188,-2.2428766689696253,-8.305427036248147e-05,4.244501113891602,-1.6716805696487427,0.0001427017996320501,1.596501111984253,-0.4640968602946778,0.0,0.22438502311706543,-1.9871533552752894,-0.0,0.029774922877550125,0.6360113620758057,-0.0,0.009334135800600052,1.0783562660217285,4.797084784513572e-06,-0.052571460604667664
811.0,909.0,-4.8305,3.4205,7.9956,-0.026,0.0267,-0.1188,-2.242912908593649,-7.939111674204469e-05,4.267047882080078,-1.6716325283050537,0.0001519651705166325,1.592665195465088,-0.4640764755061646,0.0,0.22236785292625427,-1.987173859273092,-0.0,0.03867918252944946,0.6360113620758057,-0.0,0.0045743780210614204,1.0783886909484863,1.554194463014233e-13,0.013950647786259651
811.0,909.0,-4.8305,3.4205,7.9956,-0.026,0.0267,-0.1188,-2.2429329357542933,-1.9172022303060032e-10,4.2658233642578125,-1.6716440916061401,0.00016348624194506556,1.5875167846679688,-0.464019851093628,0.0,0.21144092082977295,-1.9871533552752894,-0.0,0.028659183531999588,0.635935366153717,-0.0,0.0005300260381773114,1.078336238861084,3.7531970956219404e-19,-0.04566078260540962
811.0,909.0,-4.8305,3.4205,7.9956,-0.026,0.0267,-0.1188,-2.2428890667357386,-4.629817503429778e-16,4.2128400802612305,-1.671612024307251,0.00017333871801383793,1.5700697898864746,-0.46406014383349614,0.0,0.2065364122390747,-1.9871576468097132,-0.0,0.03248821571469307,0.6359556317329407,-0.0,-0.0036559710279107094,1.0783402919769287,9.06352960976111e-25,-0.0568859800696373
811.0,909.0,-4.8305,3.4205,7.9956,-0.026,0.0267,-0.1188,-2.2429167232909144,-1.5000021296543822e-23,4.253575325012207,-1.671600580215454,0.00026015302864834666,1.5922551155090332,-0.4641164106181641,0.0,0.2143932580947876,-1.9871576468097132,-0.0,0.033700525760650635,0.6359514594078064,-0.0,-0.008427023887634277,1.0782676935195923,2.936468054579395e-32,0.005807769019156694
823.0,919.0,-4.8305,3.5258,8.0524,-0.0299,0.0316,-0.1173,-2.242892404595846,-3.62232906263517e-29,4.240246295928955,-1.6716243028640747,0.00022183512919582427,1.5845973491668701,-0.4641164106181641,0.0,0.2136494368314743,-1.9871695677386683,-0.0,0.04460133612155914,0.6359918713569641,-0.0,-0.012699871324002743,1.0782878398895264,7.091224916126107e-38,-0.10031791031360626
823.0,919.0,-4.8305,3.5258,8.0524,-0.0299,0.0316,-0.1173,-2.2429048023619593,-1.1735886745939075e-36,4.2848405838012695,-1.6715997457504272,0.00018529489170759916,1.5684058666229248,-0.46407635629687505,0.0,0.21091431379318237,-1.987218205128805,-0.0,0.0464111752808094,0.6359953880310059,-0.0,0.0008591398363932967,1.0783402919769287,2.802596928649634e-45,-0.05764594301581383
823.0,919.0,-4.8305,3.5258,8.0524,-0.0299,0.0316,-0.1173,-2.24289669613027,-2.83342549486478e-42,4.239537239074707,-1.6716161966323853,0.00016492101713083684,1.5680580139160156,-0.4640804094127198,0.0,0.2137673944234848,-1.9871776739703577,-0.0,0.039529234170913696,0.6360153555870056,-0.0,-0.003978099673986435,1.078328013420105,0.0,-0.06172499060630798
823.0,919.0,-4.8305,3.5258,8.0524,-0.0299,0.0316,-0.1173,-2.242937227288717,0.0,4.261547088623047,-1.6716322898864746,0.0001438346953364089,1.622319221496582,-0.46409233034167485,0.0,0.2173255980014801,-1.9872015158282679,-0.0,0.027945399284362793,0.6359913349151611,-0.0,0.0011775139719247818,1.078328013420105,0.0,-0.03194763511419296
823.0,919.0,-4.8305,3.5258,8.0524,-0.0299,0.0316,-0.1173,-2.2429210148253382,0.0,4.223407745361328,-1.6716241836547852,0.00013124926772434264,1.6150450706481934,-0.4640677732280274,-0.0001758699945639819,0.21189020574092865,-1.9872215429889124,-0.0,0.029315704479813576,0.6359993815422058,-0.0,0.008212770335376263,1.0783402919769287,0.0,-0.04127950966358185
823.0,919.0,-4.8305,3.5258,8.0524,-0.0299,0.0316,-0.1173,-2.242924829522604,0.0,4.248838901519775,-1.6715799570083618,0.00012068868818460032,1.5820286273956299,-0.4641283315471192,-0.00018821789126377553,0.20554347336292267,-1.9871133009540003,-0.0,0.04233705252408981,0.6360439658164978,-0.0,-0.004652665462344885,1.0783321857452393,0.0,-0.048702262341976166
823.0,919.0,-4.8305,3.5258,8.0524,-0.0299,0.0316,-0.1173,-2.242840429345602,0.0,4.255301475524902,-1.6716605424880981,0.00010899581684498116,1.5952463150024414,-0.46408875406298833,-0.0001943950483109802,0.22003623843193054,-1.9871576468097132,-0.0,0.04426727071404457,0.6359714865684509,-0.0,0.0042579262517392635,1.0783162117004395,0.0,-0.06094270944595337
823.0,919.0,-4.8305,3.5258,8.0524,-0.0299,0.0316,-0.1173,-2.2428842983641566,0.0,4.275503158569336,-1.671584129333496,0.00012165564112365246,1.6121283769607544,-0.4641004365733643,-0.00020346340897958726,0.20731976628303528,-1.9871652762042444,-0.0,0.041019897907972336,0.6359878778457642,-0.0,0.000596614321693778,1.0783485174179077,0.0,-0.07650447636842728
823.0,919.0,-4.8305,3.5258,8.0524,-0.0299,0.0316,-0.1173,-2.242904325524801,0.0,4.234078407287598,-1.671600580215454,0.00011183382594026625,1.6455888748168945,-0.4641445440104981,-0.00028905674116685987,0.21804675459861755,-1.9871414343463343,-1.1039087866038244e-08,0.0437244176864624,0.6359432935714722,-0.0,-0.0017862956738099456,1.0783685445785522,0.0,-0.12867145240306854
823.0,919.0,-4.8305,3.5258,8.0524,-0.0299,0.0316,-0.1173,-2.242924829522604,0.0,4.229288101196289,-1.671628475189209,0.00012284070544410497,1.5987861156463623,-0.46413250387225347,-0.00029048838769085705,0.211090549826622,-1.9871533552752894,-3.072770553627646e-12,0.04677547886967659,0.6360195279121399,-0.0,-0.005627715028822422,1.078384518623352,0.0,-0.10746818780899048
823.0,919.0,-4.8305,3.5258,8.0524,-0.0299,0.0316,-0.1173,-2.242884775201315,0.0,4.265737056732178,-1.6716046333312988,0.00013196833606343716,1.6001195907592773,-0.46413250387225347,-0.0003125288349110633,0.20625779032707214,-1.9871414343463343,-8.55317088297125e-16,0.052741892635822296,0.6359993815422058,-0.0,0.01855050027370453,1.0783079862594604,0.0,-0.04776958003640175
823.0,919.0,-4.8305,3.5258,8.0524,-0.0299,0.0316,-0.1173,-2.2428647480406703,0.0,4.262123107910156,-1.6716086864471436,0.0001058476118487306,1.5943729877471924,-0.46407635629687505,-0.00036463525611907244,0.1991247534751892,-1.987129036580221,-1.5544962913638965e-20,0.04675772041082382,0.6360194683074951,-0.0,0.008087150752544403,1.0783321857452393,0.0,-0.09402891993522644
823.0,919.0,-4.8305,3.5258,8.0524,-0.0299,0.0316,-0.1173,-2.242904325524801,0.0,4.255329132080078,-1.6715680360794067,0.00011861355596920475,1.5599926710128784,-0.46415217340502934,-0.0004035205056425184,0.2035033106803894,-1.9871214071856897,-4.326997911737234e-24,0.04598911851644516,0.6359878778457642,-0.0,0.0009005094179883599,1.0783525705337524,0.0,-0.09740208089351654
794.0,931.0,-4.8598,3.4953,7.9579,-0.0341,0.0389,-0.1251,-2.2429009876646937,0.0,4.26055908203125,-1.6716046333312988,0.0001432557328371331,1.6079332828521729,-0.46417708814654546,-0.0004436371091287583,0.19350510835647583,-1.987145725880758,-7.864105204786436e-29,0.043905675411224365,0.6360073089599609,-0.0,0.0048939017578959465,1.0783239603042603,0.0,-0.06278647482395172
794.0,931.0,-4.8598,3.4953,7.9579,-0.0341,0.0389,-0.1251,-2.2428723774352015,0.0,4.211080074310303,-1.6716046333312988,0.0003846141044050455,1.626466989517212,-0.4641154569438477,-0.0004616077640093863,0.20948442816734314,-1.987150017415182,-2.1890026413653867e-32,0.05751479044556618,0.6360477209091187,-0.0,0.007302495185285807,1.0782920122146606,0.0,-0.135412335395813
794.0,931.0,-4.8598,3.4953,7.9579,-0.0341,0.0389,-0.1251,-2.2429572544493617,0.0,4.2483601570129395,-1.671584129333496,0.0003896426933351904,1.6262099742889404,-0.464177207355835,-0.00040477211587131023,0.205332413315773,-1.987161938344137,-3.978404273496913e-37,0.05745065584778786,0.6359990835189819,-0.0,0.006965137552469969,1.0782960653305054,0.0,-0.11457308381795883
794.0,931.0,-4.8598,3.4953,7.9579,-0.0341,0.0389,-0.1251,-2.242904325524801,0.0,4.229060173034668,-1.6715922355651855,0.00039170405943877995,1.6373317241668701,-0.4641609948924561,-0.0003877542621921748,0.20594260096549988,-1.9871376196490687,-1.1074041374019732e-40,0.06792264431715012,0.6360113620758057,-0.0,0.005882578436285257,1.078336238861084,-0.0002651109534781426,-0.10351099073886871
794.0,931.0,-4.8598,3.4953,7.9579,-0.0341,0.0389,-0.1251,-2.24292053798818,0.0,4.247840404510498,-1.6715803146362305,0.0005809467984363437,1.6580517292022705,-0.46418483675036626,-0.0003338943643029779,0.19952920079231262,-1.987117115651266,-3.0828566215145976e-44,0.05566428601741791,0.6360153555870056,-0.0,-0.004876868799328804,1.0783202648162842,-0.00028332561487331986,-0.12327408790588379
794.0,931.0,-4.8598,3.4953,7.9579,-0.0341,0.0389,-0.1251,-2.24289669613027,0.0,4.268509387969971,-1.6715359687805176,0.002121675992384553,1.6415612697601318,-0.46414049089465337,-0.0002631839888636023,0.19904640316963196,-1.9871538321124476,-0.0,0.05680263042449951,0.6359474658966064,-0.0,0.013849272392690182,1.078344464302063,-0.00043175288010388613,-0.16611571609973907
794.0,931.0,-4.8598,3.4953,7.9579,-0.0341,0.0389,-0.1251,-2.242880483666891,0.0,4.235731601715088,-1.671523928642273,0.006960097700357437,1.5709024667739868,-0.4641731542399903,-0.00026558630634099245,0.20714542269706726,-1.987150017415182,-0.0,0.05397116765379906,0.6359756588935852,-0.0,0.010835192166268826,1.0782597064971924,-0.0004614224308170378,-0.15458235144615173
794.0,931.0,-4.8598,3.4953,7.9579,-0.0341,0.0389,-0.1251,-2.2429453335204066,0.0,4.283063888549805,-1.6714564561843872,0.015575939789414406,1.6334943771362305,-0.4641564649394532,-0.00025166032719425857,0.19561706483364105,-1.987117115651266,-0.0,0.06405331194400787,0.6359871625900269,-0.0,-0.010534345172345638,1.0783002376556396,-0.00045849758316762745,-0.15875613689422607
794.0,931.0,-4.8598,3.4953,7.9579,-0.0341,0.0389,-0.1251,-2.2428885898985804,0.0,4.254560470581055,-1.6713404655456543,0.014505862258374691,1.6456682682037354,-0.464177207355835,-0.00023246128694154322,0.19408512115478516,-1.9870894590960901,-0.0,0.06162405014038086,0.6360113620758057,-0.0,-0.009415039792656898,1.0782437324523926,-0.0004402860358823091,-0.12287352979183197
794.0,931.0,-4.8598,3.4953,7.9579,-0.0341,0.0389,-0.1251,-2.2428723774352015,0.0,4.257964611053467,-1.6712726354599,0.014464933425188065,1.6353394985198975,-0.46416886270556645,-0.00023142104328144342,0.19390109181404114,-1.9871333281146448,-0.0,0.06025124341249466,0.6359552145004272,-0.0,0.0029074205085635185,1.0783123970031738,-0.00040096876909956336,-0.16016724705696106
794.0,931.0,-4.8598,3.4953,7.9579,-0.0341,0.0389,-0.1251,-2.2429009876646937,0.0,4.240542888641357,-1.671115756034851,0.013060860335826874,1.6190613508224487,-0.46413619936022954,-0.00021113190450705588,0.1989099085330963,-1.9870970884906214,-0.0,0.07020360976457596,0.6359715461730957,-0.0,0.001066167140379548,1.0782597064971924,-0.0004179070529062301,-0.17097733914852142
794.0,931.0,-4.8598,3.4953,7.9579,-0.0341,0.0389,-0.1251,-2.2428366146483363,-8.856754334374273e-07,4.2987751960754395,-1.671027660369873,0.012512223795056343,1.6401500701904297,-0.46417708814654546,-0.00019405932107474655,0.1956591010093689,-1.9870975653277796,-0.0,0.05467391759157181,0.6359953880310059,-0.0,0.00857988279312849,1.0783367156982422,-0.0004883806104771793,-0.13842372596263885
794.0,931.0,-4.8598,3.4953,7.9579,-0.0341,0.0389,-0.1251,-2.2428447208800257,-2.869476235941269e-14,4.294265270233154,-1.6709203720092773,0.013837262988090515,1.6422536373138428,-0.4641605180552979,-0.0001751725358190015,0.20791853964328766,-1.9871295134173792,5.916158261243254e-05,0.0734187662601471,0.6360073089599609,-0.0,-0.014705422334372997,1.0782716274261475,-0.0004184739664196968,-0.17790374159812927
794.0,931.0,-4.8598,3.4953,7.9579,-0.0341,0.0389,-0.1251,-2.2428890667357386,-6.929448380191274e-20,4.3044352531433105,-1.6708359718322754,0.014875155873596668,1.6916879415512085,-0.46414049089465337,-0.00016325630713254213,0.20025454461574554,-1.9871295134173792,0.00015565704961773008,0.059014804661273956,0.6359878778457642,-0.0,0.01153512578457594,1.0783007144927979,-0.0003987753880210221,-0.19861440360546112
814.0,943.0,-4.8951,3.4959,7.9807,-0.0481,0.1294,-0.1617,-2.242909093896383,-1.673380316404288e-25,4.307707786560059,-1.67073655128479,0.016414256766438484,1.660106897354126,-0.4641564649394532,-0.00015285816334653646,0.20153824985027313,-1.9871624151812952,0.00014104762522038072,0.06291545182466507,0.6359715461730957,-0.0,-0.003754873527213931,1.078268051147461,-0.0003581326745916158,-0.15936948359012604
814.0,943.0,-4.8951,3.4959,7.9807,-0.0481,0.1294,-0.1617,-2.2429009876646937,-5.4215390050717356e-33,4.289492607116699,-1.6705998182296753,0.01844049245119095,1.6901532411575317,-0.4641481202891846,-0.00012007049372186884,0.18837565183639526,-1.9871051947223108,0.00012533234257716686,0.06847800314426422,0.6359513998031616,-0.0,0.005824132822453976,1.0782802104949951,-0.00037983243237249553,-0.20005884766578674
814.0,943.0,-4.8951,3.4959,7.9807,-0.0481,0.1294,-0.1617,-2.2428890667357386,-1.3092380597633017e-38,4.270992755889893,-1.670492172241211,0.01992749609053135,1.6776258945465088,-0.464160756473877,-0.00013336824486032128,0.19471357762813568,-1.987145725880758,0.00013874749129172415,0.06519558280706406,0.6360358595848083,-0.0,-0.0007489236304536462,1.078308343887329,-0.0005533871590159833,-0.17551973462104797
814.0,943.0,-4.8951,3.4959,7.9807,-0.0481,0.1294,-0.1617,-2.2428928814330042,-0.0,4.288331031799316,-1.670352578163147,0.023029081523418427,1.6768162250518799,-0.4642246526530762,-0.0001616857189219445,0.18975813686847687,-1.9871137777911585,0.00012585947115439922,0.06239236518740654,0.6359797120094299,-0.0,0.007364095188677311,1.0782442092895508,-0.0008253018604591489,-0.17539672553539276
814.0,943.0,-4.8951,3.4959,7.9807,-0.0481,0.1294,-0.1617,-2.2429048023619593,0.0,4.285012245178223,-1.670180320739746,0.025723403319716454,1.6676745414733887,-0.4642370504191895,-0.0003514179843477905,0.2134624719619751,-1.9870808760272425,0.00011763397924369201,0.07941320538520813,0.6360113620758057,-0.0,0.0016588005237281322,1.0782761573791504,-0.0008057014201767743,-0.16113850474357605
814.0,943.0,-4.8951,3.4959,7.9807,-0.0481,0.1294,-0.1617,-2.2428366146483363,0.0,4.2776875495910645,-1.669935703277588,0.03190000355243683,1.6954209804534912,-0.4641927045634766,-0.0002964132290799171,0.1914697289466858,-1.9870970884906214,0.00010820513125509024,0.0865362286567688,0.6360073089599609,-0.0,-0.000378382857888937,1.078268051147461,-0.0005392514867708087,-0.17620834708213806
814.0,943.0,-4.8951,3.4959,7.9807,-0.0481,0.1294,-0.1617,-2.24284090618276,0.0,4.297060966491699,-1.6697481870651245,0.03850226476788521,1.710646152496338,-0.4641927045634766,-0.0002746503450907767,0.20333951711654663,-1.9871256987201136,0.00010206915612798184,0.0695720911026001,0.6360437273979187,-0.0,0.0056549012660980225,1.0782197713851929,-0.0004903262597508729,-0.18242762982845306
814.0,943.0,-4.8951,3.4959,7.9807,-0.0481,0.1294,-0.1617,-2.242880483666891,0.0,4.302298069000244,-1.6694598197937012,0.04630276560783386,1.7077460289001465,-0.4642328780940552,-0.0002382877719355747,0.19970329105854034,-1.9870932737933558,9.659174247644842e-05,0.07074878364801407,0.6360073089599609,-0.0,-0.0009372901986353099,1.0782721042633057,-0.00040714163333177567,-0.22735774517059326
814.0,943.0,-4.8951,3.4959,7.9807,-0.0481,0.1294,-0.1617,-2.24284090618276,0.0,4.329949378967285,-1.6690726280212402,0.057800669223070145,1.7738538980484009,-0.46418078363452153,-0.00020253191178198904,0.2115272432565689,-1.9870932737933558,9.014212264446542e-05,0.07212825864553452,0.6359954476356506,-0.0,-0.005655230954289436,1.0782197713851929,-0.0002624891058076173,-0.21401716768741608
814.0,943.0,-4.8951,3.4959,7.9807,-0.0481,0.1294,-0.1617,-2.242884775201315,0.0,4.319602966308594,-1.6686955690383911,0.06766284257173538,1.723262071609497,-0.4641565841487427,-0.0001820454199332744,0.19665667414665222,-1.9870894590960901,8.584307943237945e-05,0.06728848069906235,0.6360032558441162,-0.0,-0.009700215421617031,1.0782400369644165,-0.00025266408920288086,-0.2315438687801361
814.0,943.0,-4.8951,3.4959,7.9807,-0.0481,0.1294,-0.1617,-2.242884775201315,0.0,4.305662155151367,-1.6680750846862793,0.07793238013982773,1.7385597229003906,-0.4641927045634766,-0.00018534822447691113,0.2060389518737793,-1.987150017415182,8.071085903793573e-05,0.06966173648834229,0.6360076665878296,-0.0,-0.003181945066899061,1.0782442092895508,-0.00026086080470122397,-0.1918121576309204
814.0,943.0,-4.8951,3.4959,7.9807,-0.0481,0.1294,-0.1617,-2.2428604565062464,0.0,4.325725555419922,-1.6675759553909302,0.08805092424154282,1.8005508184432983,-0.4642328780940552,-0.00017183233285322785,0.20563074946403503,-1.9871295134173792,8.926889131544158e-05,0.0665840432047844,0.6359953284263611,-0.0,-0.0022517063189297915,1.0782082080841064,-0.0004464102385099977,-0.17345386743545532
814.0,943.0,-4.8951,3.4959,7.9807,-0.0481,0.1294,-0.1617,-2.242868562737936,0.0,4.31324577331543,-1.6669511795043945,0.09507559984922409,1.794508457183838,-0.4642046254924317,-0.00018147430091630667,0.20138293504714966,-1.9871018568622034,8.641297608846799e-05,0.07502187043428421,0.6359837055206299,-0.0,0.0022620728705078363,1.0782122611999512,-0.0010945891262963414,-0.25802183151245117
710.0,915.0,-5.7517,3.0209,7.5422,-0.0637,0.1689,-0.1912,-2.242852827111715,0.0,4.345683574676514,-1.6661958694458008,0.10176071524620056,1.8344610929489136,-0.4642244142344971,-0.00013934991147834808,0.19751445949077606,-1.9871137777911585,9.284719999413937e-05,0.06361503899097443,0.6359474658966064,-0.0,0.0022985818795859814,1.078231930732727,-0.0010308701312169433,-0.24635004997253418
710.0,915.0,-5.7517,3.0209,7.5422,-0.0637,0.1689,-0.1912,-2.242880483666891,0.0,4.306066513061523,-1.6655391454696655,0.10596441477537155,1.8329508304595947,-0.46421654642138677,-0.0001274596288567409,0.2149084508419037,-1.9870894590960901,9.010621579363942e-05,0.07953110337257385,0.6359433531761169,-0.0,0.009050906635820866,1.0781840085983276,-0.0007943809614516795,-0.271205872297287
710.0,915.0,-5.7517,3.0209,7.5422,-0.0637,0.1689,-0.1912,-2.24284090618276,3.5141489206580445e-05,4.339130878448486,-1.6646554470062256,0.11423870921134949,1.8078314065933228,-0.46427710474047856,-0.0001373848645016551,0.19502905011177063,-1.9870565573321741,8.581085421610624e-05,0.08466719835996628,0.6360195279121399,-0.0,-0.0009023395250551403,1.0782201290130615,-0.0006005095783621073,-0.24020925164222717
710.0,915.0,-5.7517,3.0209,7.5422,-0.0637,0.1689,-0.1912,-2.242857118646139,6.630479037994519e-05,4.3334455490112305,-1.6639426946640015,0.12276966869831085,1.841915249824524,-0.46419234693560796,-0.00012764259008690715,0.1957642138004303,-1.9870651404010218,7.40389950806275e-05,0.08255966752767563,0.6359755992889404,-0.0,0.0033796336501836777,1.0782241821289062,-0.0004823296330869198,-0.2480657994747162
710.0,915.0,-5.7517,3.0209,7.5422,-0.0637,0.1689,-0.1912,-2.242885252038473,6.285687413765118e-05,4.358149528503418,-1.6632275581359863,0.13542316854000092,1.8873894214630127,-0.4642046254924317,-0.0001383807830279693,0.2138369083404541,-1.9870975653277796,7.052397995721549e-05,0.08421249687671661,0.6359673738479614,-0.0,-0.0032746735960245132,1.0782361030578613,-0.0004016051534563303,-0.2101532518863678
710.0,915.0,-5.7517,3.0209,7.5422,-0.0637,0.1689,-0.1912,-2.242852827111715,0.00016483105719089508,4.387599468231201,-1.661982536315918,0.1521640121936798,1.8901591300964355,-0.4642644685557862,-0.00021118206495884806,0.1929733157157898,-1.9870970884906214,6.636372563662007e-05,0.06457611918449402,0.6359953880310059,-0.0,-0.008647464215755463,1.0781880617141724,-0.0003283408295828849,-0.25034910440444946
710.0,915.0,-5.7517,3.0209,7.5422,-0.0637,0.1689,-0.1912,-2.2429210148253382,9.350791856377327e-07,4.329455375671387,-1.6611032485961914,0.1588583141565323,1.9131263494491577,-0.46424396455798345,-0.0003016394912265241,0.21221056580543518,-1.9870894590960901,6.355198274832219e-05,0.08326581865549088,0.6359755992889404,-0.0,-0.013939712196588516,1.0781999826431274,-0.00025202453252859414,-0.22705939412117004
710.0,915.0,-5.7517,3.0209,7.5422,-0.0637,0.1689,-0.1912,-2.24289669613027,3.02953835791802e-14,4.37753963470459,-1.6597665548324585,0.15887068212032318,1.8711029291152954,-0.46428080022845464,-0.0017385294195264578,0.18473652005195618,-1.9870331923114222,7.218117389129475e-05,0.07955409586429596,0.6359474062919617,-0.0,-0.0020028576254844666,1.0782201290130615,-0.0008371470612473786,-0.19362716376781464
710.0,915.0,-5.7517,3.0209,7.5422,-0.0637,0.1689,-0.1912,-2.242880483666891,7.31597824820994e-20,4.308498859405518,-1.658831000328064,0.16430959105491638,1.8912270069122314,-0.46426434934649663,-0.0026416212785989046,0.18389494717121124,-1.9870732466327112,8.05803865659982e-05,0.08555819094181061,0.6359673738479614,-0.0,-0.001375675667077303,1.078179955482483,-0.0009855222888290882,-0.25797030329704285
710.0,915.0,-5.7517,3.0209,7.5422,-0.0637,0.1689,-0.1912,-2.2428609333434046,2.3702841604231532e-27,4.319222927093506,-1.6573991775512695,0.1744638979434967,1.9291505813598633,-0.46429987371478276,-0.007815487682819366,0.19588135182857513,-1.9870532194720667,8.72836317284964e-05,0.07377153635025024,0.6359432935714722,-0.0,0.007284910883754492,1.078244686126709,-0.0008943415596149862,-0.27944010496139526
710.0,915.0,-5.7517,3.0209,7.5422,-0.0637,0.1689,-0.1912,-2.2428928814330042,5.723957702023816e-33,4.341829299926758,-1.656299114227295,0.18623732030391693,1.9665988683700562,-0.46443720281634526,-0.024763453751802444,0.18355581164360046,-1.9870813528644007,8.489740139339119e-05,0.0802745521068573,0.6359511017799377,-0.0,-0.002796903718262911,1.078216314315796,-0.0006517646834254265,-0.2599448263645172
710.0,915.0,-5.7517,3.0209,7.5422,-0.0637,0.1689,-0.1912,-2.2428609333434046,1.3822685509195932e-38,4.362360000610352,-1.655131459236145,0.1926174908876419,1.955385684967041,-0.46458883703265386,-0.028755689039826393,0.1807028353214264,-1.987060848866598,0.000152842330862768,0.08559492230415344,0.6359919309616089,-0.0,-0.01175998616963625,1.0782524347305298,-0.0005125320749357343,-0.23693063855171204
710.0,915.0,-5.7517,3.0209,7.5422,-0.0637,0.1689,-0.1912,-2.2429009876646937,0.0,4.367333889007568,-1.6535354852676392,0.19896766543388367,1.9822444915771484,-0.46484942853961186,-0.03145023062825203,0.18588484823703766,-1.987105671559469,0.00013658050738740712,0.06948232650756836,0.6360358595848083,-0.0,0.005143685732036829,1.0782201290130615,-0.00039892224594950676,-0.3124212324619293
710.0,915.0,-5.7517,3.0209,7.5422,-0.0637,0.1689,-0.1912,-2.242856641808981,0.0,4.387970924377441,-1.6522679328918457,0.20775160193443298,1.9519538879394531,-0.4650530380061646,-0.04232241213321686,0.18439775705337524,-1.9870732466327112,0.00012518141011241823,0.07603484392166138,0.6360153555870056,-0.0,-0.02338895946741104,1.078224539756775,-0.0003420611028559506,-0.28717124462127686
624.0,905.0,-5.8223,3.4786,7.6104,-0.0024,-0.2624,-0.0021,-2.242884775201315,-3.638851558207534e-05,4.374514579772949,-1.6505838632583618,0.2167164832353592,2.023543357849121,-0.4654933971217652,-0.07910602539777756,0.1684364378452301,-1.9870532194720667,0.00013516201579477638,0.08572885394096375,0.6359474062919617,-0.0,-0.018962198868393898,1.0781759023666382,-0.0002874346391763538,-0.23883086442947388
624.0,905.0,-5.8223,3.4786,7.6104,-0.0024,-0.2624,-0.0021,-2.242937227288717,-6.258989014895633e-05,4.369797229766846,-1.6492406129837036,0.21684280037879944,1.9851572513580322,-0.4661622804454346,-0.12989430129528046,0.14708055555820465,-1.9870651404010218,0.00012573268031701446,0.08794636279344559,0.6359555721282959,-0.0,0.001312481239438057,1.0782241821289062,-0.00018557091243565083,-0.2888394892215729
624.0,905.0,-5.8223,3.4786,7.6104,-0.0024,-0.2624,-0.0021,-2.242924829522604,-0.00011342295329086483,4.375035285949707,-1.6478846073150635,0.22163322567939758,1.9848005771636963,-0.4671561282924195,-0.16851575672626495,0.13123378157615662,-1.987077538167135,0.00013709883205592632,0.08583410084247589,0.6359879374504089,-0.0,0.011536269448697567,1.0782122611999512,-0.00013190065510571003,-0.251191645860672
624.0,905.0,-5.8223,3.4786,7.6104,-0.0024,-0.2624,-0.0021,-2.24292053798818,-0.00010074111924041063,4.358261585235596,-1.6461045742034912,0.22879303991794586,2.018979072570801,-0.46864791334185796,-0.19658879935741425,0.11065294593572617,-1.9870980421649378,0.00012612984573934227,0.07854028791189194,0.6360276937484741,-0.0,-0.004334503784775734,1.0782884359359741,-0.00011503845598781481,-0.2986963987350464
624.0,905.0,-5.8223,3.4786,7.6104,-0.0024,-0.2624,-0.0021,-2.2429286442198695,-9.293865878134966e-05,4.355966091156006,-1.644705057144165,0.23190821707248688,2.0305752754211426,-0.46992893636737065,-0.23418636620044708,0.09559537470340729,-1.987093750630514,0.00011898341472260654,0.0908946767449379,0.6359513998031616,-0.0,-0.007145596668124199,1.0782564878463745,-0.00010497510083951056,-0.2283022701740265
624.0,905.0,-5.8223,3.4786,7.6104,-0.0024,-0.2624,-0.0021,-2.2428885898985804,-8.423964027315378e-05,4.336861610412598,-1.6428338289260864,0.24148352444171906,2.0312986373901367,-0.4720716041377564,-0.26680344343185425,0.07737285643815994,-1.987105671559469,0.0001106260169763118,0.08067604154348373,0.6359797120094299,-0.0,-0.007846640422940254,1.0782241821289062,-7.050723797874525e-05,-0.2897285223007202
624.0,905.0,-5.8223,3.4786,7.6104,-0.0024,-0.2624,-0.0021,-2.2429286442198695,-7.871396519476548e-05,4.406910419464111,-1.6414258480072021,0.2488538920879364,2.1111390590667725,-0.47378654897723393,-0.3118312656879425,0.04834685102105141,-1.9871099630938929,0.00010508991545066237,0.08568448573350906,0.6359993815422058,-0.0,-0.012388935312628746,1.0782442092895508,-6.53849056106992e-05,-0.2932690978050232
624.0,905.0,-5.8223,3.4786,7.6104,-0.0024,-0.2624,-0.0021,-2.2429448566832484,-0.0002500714617781341,4.388001441955566,-1.6394140720367432,0.2530909478664398,2.039707660675049,-0.47647495687518315,-0.3479989767074585,0.0337381586432457,-1.9870975653277796,9.851646609604359e-05,0.0940057709813118,0.6359433531761169,-0.0,-0.015650968998670578,1.0782564878463745,-5.961065835435875e-05,-0.2871829867362976
624.0,905.0,-5.8223,3.4786,7.6104,-0.0024,-0.2624,-0.0021,-2.24292053798818,-0.0008902757545001805,4.389304161071777,-1.6378419399261475,0.2555401921272278,2.1002798080444336,-0.47871489942584233,-0.3880462348461151,0.031292229890823364,-1.9870856443988245,9.410185884917155e-05,0.09004252403974533,0.6359837055206299,-0.0,-0.016075775027275085,1.078240156173706,-5.5907708883751184e-05,-0.30231142044067383
624.0,905.0,-5.8223,3.4786,7.6104,-0.0024,-0.2624,-0.0021,-2.2429329357542933,-0.0007997826323844492,4.423943042755127,-1.6363908052444458,0.26090753078460693,2.0747900009155273,-0.48132915914569097,-0.44002968072891235,0.007668959908187389,-1.9870732466327112,0.0001029038758133538,0.08199141174554825,0.6359677910804749,3.2585671938534233e-09,-0.010532664135098457,1.0782482624053955,-5.263785715214908e-05,-0.2709181010723114
624.0,905.0,-5.8223,3.4786,7.6104,-0.0024,-0.2624,-0.0021,-2.2429729900755824,-0.0008522664429619908,4.422828674316406,-1.6342226266860962,0.26008573174476624,2.026320457458496,-0.48505957544360356,-0.4854471981525421,-0.03606656938791275,-1.9870370070086878,9.736479842104018e-05,0.08631928265094757,0.6359193921089172,5.922284282986259e-14,-0.006609383504837751,1.0782442092895508,-6.510670209536329e-05,-0.29943543672561646
624.0,905.0,-5.8223,3.4786,7.6104,-0.0024,-0.2624,-0.0021,-2.2429853878416957,-0.0009087508078664541,4.379390716552734,-1.6326756477355957,0.26740720868110657,2.0362133979797363,-0.48811765134844975,-0.5286878347396851,-0.03068847581744194,-1.987077538167135,9.356881491839886e-05,0.08028516918420792,0.6359276175498962,1.6484897316820314e-17,0.0012058615684509277,1.0782122611999512,-6.175613088998944e-05,-0.29037371277809143
624.0,905.0,-5.8223,3.4786,7.6104,-0.0024,-0.2624,-0.0021,-2.2429329357542933,-0.0005762193468399346,4.361181735992432,-1.630507469177246,0.2777048945426941,2.1275806427001953,-0.49263282239947515,-0.5746394991874695,-0.038385383784770966,-1.9870813528644007,8.89452057890594e-05,0.08413457870483398,0.6359633803367615,2.9960487845122414e-22,-0.018899576738476753,1.0782201290130615,-5.779071580036543e-05,-0.2994145452976227
739.0,904.0,-3.588,3.5192,7.9508,-0.0098,-0.3262,0.024,-2.2429644070067347,-0.00046071704127825797,4.390541076660156,-1.6288436651229858,0.27257153391838074,2.1000075340270996,-0.4960615199855347,-0.6058512926101685,-0.03834693133831024,-1.9870174566852015,8.576667460147291e-05,0.069796621799469,0.6359559297561646,8.33961192508145e-26,-0.02356884628534317,1.0782361030578613,-5.513548239832744e-05,-0.27949094772338867
739.0,904.0,-3.588,3.5192,7.9508,-0.0098,-0.3262,0.024,-2.2430249653258265,-0.0017477191286161542,4.393529891967773,-1.6272406578063965,0.27397358417510986,2.107062339782715,-0.499732570057251,-0.6334787607192993,-0.030823972076177597,-1.9870613257037562,8.280746988020837e-05,0.0861322432756424,0.6359837651252747,2.3213617301055462e-29,-0.008314445614814758,1.0781922340393066,-3.953543637180701e-05,-0.2958422005176544
739.0,904.0,-3.588,3.5192,7.9508,-0.0098,-0.3262,0.024,-2.243009229699606,-0.0015358981909230351,4.374351978302002,-1.62502920627594,0.27951711416244507,2.1028761863708496,-0.5049907726100464,-0.6698554158210754,-0.026342958211898804,-1.9870856443988245,2.0340576156741008e-05,0.09203797578811646,0.6360116600990295,4.218960805229022e-34,-0.025437507778406143,1.0781917572021484,-1.8352737242821604e-05,-0.23449867963790894
739.0,904.0,-3.588,3.5192,7.9508,-0.0098,-0.3262,0.024,-2.2430368862547816,-0.0010912568541243672,4.4007649421691895,-1.6232489347457886,0.27432817220687866,2.097285509109497,-0.5089598459056397,-0.6925751566886902,-0.0376448854804039,-1.987053696309225,5.661875412954487e-09,0.0761016309261322,0.6359474062919617,1.1743632227018845e-37,-0.022919010370969772,1.078248381614685,-3.4500753827160224e-05,-0.2660769522190094
739.0,904.0,-3.588,3.5192,7.9508,-0.0098,-0.3262,0.024,-2.242972513238424,-0.0009089233353734016,4.4021501541137695,-1.6210895776748657,0.2737455368041992,2.1106643676757812,-0.5146362346461792,-0.707952082157135,-0.0411873497068882,-1.9870613257037562,6.409024354070425e-05,0.08586397022008896,0.6359837651252747,2.1341775611666964e-42,-0.023778656497597694,1.0781922340393066,-3.204416498192586e-05,-0.26984691619873047
739.0,904.0,-3.588,3.5192,7.9508,-0.0098,-0.3262,0.024,-2.242988725701803,-0.0007410828256979585,4.407222270965576,-1.6193732023239136,0.278421014547348,2.076195240020752,-0.5188989204219361,-0.7186762690544128,-0.016177751123905182,-1.9870250860797327,6.147160456748679e-05,0.09694947302341461,0.6359596252441406,0.0,-0.012294798158109188,1.0781962871551514,-5.563983722822741e-05,-0.2732302248477936
739.0,904.0,-3.588,3.5192,7.9508,-0.0098,-0.3262,0.024,-2.2429644070067347,-0.0004958653589710593,4.425824165344238,-1.6177259683609009,0.27331414818763733,2.097562789916992,-0.523262695675232,-0.7283822894096375,-0.02708149515092373,-1.987037483845846,5.905162470298819e-05,0.07622106373310089,0.6359357833862305,0.0,-0.023186374455690384,1.078256607055664,-0.00029776792507618666,-0.2562623620033264
739.0,904.0,-3.588,3.5192,7.9508,-0.0098,-0.3262,0.024,-2.243033071557516,-0.0005679770838469267,4.402231216430664,-1.6155056953430176,0.27656078338623047,2.099576711654663,-0.5289974969676514,-0.7277513146400452,-0.028825152665376663,-1.9870331923114222,5.6106586271198466e-05,0.07516591250896454,0.6359797120094299,0.0,-0.019913043826818466,1.0782442092895508,-0.00019356157281436026,-0.3171277344226837
739.0,904.0,-3.588,3.5192,7.9508,-0.0098,-0.3262,0.024,-2.243028780023092,-0.001780234626494348,4.445581912994385,-1.6139066219329834,0.2753499746322632,2.0785293579101562,-0.533328966503479,-0.7212324738502502,-0.033118899911642075,-1.987049404774801,5.408361175796017e-05,0.08455868810415268,0.635919451713562,0.0,-0.026332303881645203,1.0782082080841064,-0.00011541609273990616,-0.27569645643234253
739.0,904.0,-3.588,3.5192,7.9508,-0.0098,-0.3262,0.024,-2.24306120494985,-0.002027813345193863,4.40880012512207,-1.6117914915084839,0.272847980260849,2.0987701416015625,-0.5389637512019654,-0.707440972328186,-0.032226573675870895,-1.9870780150042933,5.160288856131956e-05,0.08475441485643387,0.6359276175498962,0.0,-0.033959440886974335,1.0782041549682617,-8.549427730031312e-05,-0.28478965163230896
739.0,904.0,-3.588,3.5192,7.9508,-0.0098,-0.3262,0.024,-2.2430325947203578,-0.002167915226891637,4.4430975914001465,-1.6101951599121094,0.27406004071235657,2.115691661834717,-0.5431651634028931,-0.7053197026252747,-0.026676110923290253,-1.987053696309225,4.988669024896808e-05,0.07880431413650513,0.6359796524047852,0.0,-0.04652725160121918,1.078208565711975,-0.00012150769907748327,-0.25724196434020996
739.0,904.0,-3.588,3.5192,7.9508,-0.0098,-0.3262,0.024,-2.243068834344381,-0.002780485898256302,4.3913164138793945,-1.6079952716827393,0.2697471082210541,2.072699546813965,-0.5486112397960206,-0.675820529460907,-0.01612255536019802,-1.987037483845846,1.7886566672231652e-09,0.08138996362686157,0.6359195113182068,-0.0002850023447535932,-0.0411154143512249,1.0782246589660645,-9.573590068612248e-05,-0.26236116886138916
739.0,904.0,-3.588,3.5192,7.9508,-0.0098,-0.3262,0.024,-2.2430812321104945,-0.003517617704346776,4.413797855377197,-1.6064521074295044,0.27223101258277893,2.0880022048950195,-0.5526055854609986,-0.6606058478355408,-0.006180962547659874,-1.9870575110064905,4.978791359223911e-13,0.07972410321235657,0.6359160542488098,-0.0002926367742475122,-0.05963466316461563,1.078264594078064,-8.256123692262918e-05,-0.2518295645713806
739.0,904.0,-3.588,3.5192,7.9508,-0.0098,-0.3262,0.024,-2.2431775532164515,-0.0036629519890993834,4.420680522918701,-1.6047724485397339,0.2759161591529846,2.112321376800537,-0.5564434093287964,-0.6385946273803711,-0.00039735250174999237,-1.9870412985431116,1.385864883367345e-16,0.09641626477241516,0.635915994644165,-0.00029724297928623855,-0.05291783809661865,1.078179955482483,-7.257418474182487e-05,-0.21027672290802002
845.0,860.0,-2.7559,3.8818,6.8967,-0.0437,0.2173,-0.2101,-2.2431446514525355,-0.0059889210388064384,4.4224724769592285,-1.6026215553283691,0.2686178684234619,2.0735256671905518,-0.5613349241069336,-0.5978319644927979,-0.006602994166314602,-1.9870174566852015,2.518741337262136e-21,0.07223621755838394,0.6359276175498962,-0.00034080984187312424,-0.025744833052158356,1.0782241821289062,-9.37415607040748e-05,-0.2976161241531372
845.0,860.0,-2.7559,3.8818,6.8967,-0.0437,0.2173,-0.2101,-2.243225236932272,-0.007013724185526371,4.413392543792725,-1.6010215282440186,0.27317383885383606,2.0919928550720215,-0.5648387235454102,-0.5683096051216125,0.011888083070516586,-1.9870613257037562,7.011008197684663e-25,0.0744766891002655,0.635931670665741,-0.0003337188099976629,-0.0409463569521904,1.0782246589660645,-8.489908941555768e-05,-0.25157904624938965
845.0,860.0,-2.7559,3.8818,6.8967,-0.0437,0.2173,-0.2101,-2.243253370324606,-0.006590432953089476,4.419584274291992,-1.5988495349884033,0.2759841978549957,2.125575304031372,-0.5691064161113282,-0.5123451352119446,0.00353300292044878,-1.9870088736163538,1.2742160151388082e-29,0.08315925300121307,0.6359439492225647,-0.00030691621941514313,-0.054336078464984894,1.0782241821289062,-7.541367813246325e-05,-0.2064485102891922
845.0,860.0,-2.7559,3.8818,6.8967,-0.0437,0.2173,-0.2101,-2.2433253727354945,-0.009089120663702488,4.4396562576293945,-1.597166657447815,0.2654072642326355,2.0829286575317383,-0.5720217984965821,-0.48041707277297974,0.017659781500697136,-1.9870417753802698,3.54682718625975e-33,0.06139114126563072,0.635875940322876,-0.00029134456417523324,-0.05492527037858963,1.0781840085983276,-6.958304584259167e-05,-0.2580682635307312
845.0,860.0,-2.7559,3.8818,6.8967,-0.0437,0.2173,-0.2101,-2.2433930836119593,-0.012776073068380356,4.421440124511719,-1.5955696105957031,0.26551997661590576,2.1143059730529785,-0.5747710031322022,-0.44300684332847595,0.03263453394174576,-1.9870570341693323,9.87272299826585e-37,0.09160758554935455,0.6358354091644287,-0.0002754897577688098,-0.040711410343647,1.0782204866409302,-4.983631515642628e-05,-0.23826739192008972
845.0,860.0,-2.7559,3.8818,6.8967,-0.0437,0.2173,-0.2101,-2.2434846363463343,-0.013823452405631542,4.428276538848877,-1.593360424041748,0.2643275260925293,2.098832368850708,-0.5779945415309449,-0.38250893354415894,0.06969783455133438,-1.9870570341693323,1.7943626835679283e-41,0.06578236073255539,0.635875940322876,-0.00024328734434675425,-0.06008937954902649,1.0781720876693726,-4.486727630137466e-05,-0.24523858726024628
845.0,860.0,-2.7559,3.8818,6.8967,-0.0437,0.2173,-0.2101,-2.2436262569823207,-0.015838325023651123,4.386085033416748,-1.5918564796447754,0.2556723952293396,2.0544674396514893,-0.5800403517535706,-0.33261606097221375,0.08926206827163696,-1.9870894590960901,5.605193857299268e-45,0.07545284181833267,0.6358840465545654,-0.00020960457914043218,-0.05587939918041229,1.078211784362793,-2.115947427228093e-05,-0.22922325134277344
845.0,860.0,-2.7559,3.8818,6.8967,-0.0437,0.2173,-0.2101,-2.243754049340719,-0.019315538927912712,4.402013778686523,-1.5897198915481567,0.25922977924346924,2.087421178817749,-0.5824019473842164,-0.261517733335495,0.12130925059318542,-1.987053696309225,0.0,0.06741036474704742,0.635855495929718,-0.00021138823649380356,-0.052879996597766876,1.0781959295272827,-5.780743939087785e-12,-0.24662765860557556
845.0,860.0,-2.7559,3.8818,6.8967,-0.0437,0.2173,-0.2101,-2.243873735467428,-0.021053483709692955,4.408761501312256,-1.588222622871399,0.2555710971355438,2.137460708618164,-0.583774284725525,-0.22892774641513824,0.1367994099855423,-1.987025562916891,0.0,0.06868119537830353,0.6358596086502075,-0.00018967055075336248,-0.055760182440280914,1.0782241821289062,-1.3959817654800115e-17,-0.18262557685375214
845.0,860.0,-2.7559,3.8818,6.8967,-0.0437,0.2173,-0.2101,-2.2439853153624476,-0.025011003017425537,4.37747859954834,-1.5866490602493286,0.24896635115146637,2.0920093059539795,-0.5850031536868592,-0.16757281124591827,0.17942701280117035,-1.9870694319354456,0.0,0.06456726789474487,0.6358799338340759,-0.00017158768605440855,-0.06578308343887329,1.0782642364501953,-3.3711317607790417e-23,-0.18160781264305115
845.0,860.0,-2.7559,3.8818,6.8967,-0.0437,0.2173,-0.2101,-2.24422611812734,-0.03216102346777916,4.348599433898926,-1.5846813917160034,0.2509665787220001,2.046144485473633,-0.5858999651721497,-0.07960990816354752,0.2078288197517395,-1.987021271382467,0.0,0.08155574649572372,0.6359357833862305,-0.00015223599621094763,-0.04320912808179855,1.0782724618911743,0.0006702155224047601,-0.24866452813148499
845.0,860.0,-2.7559,3.8818,6.8967,-0.0437,0.2173,-0.2101,-2.2444097004332484,-0.03705592826008797,4.305280685424805,-1.583163857460022,0.24633391201496124,2.1045374870300293,-0.5861736100963135,-0.025867780670523643,0.2019611895084381,-1.987037483845846,0.0,0.05877735838294029,0.6359282732009888,-0.0001606760488357395,-0.05588742718100548,1.0782442092895508,0.0005261509213596582,-0.22254016995429993
845.0,860.0,-2.7559,3.8818,6.8967,-0.0437,0.2173,-0.2101,-2.2447344265379847,-0.04459698870778084,4.292606353759766,-1.5811792612075806,0.24675729870796204,2.114542007446289,-0.5860740703395386,0.027606137096881866,0.26741278171539307,-1.987037483845846,0.0,0.08253668248653412,0.6358557939529419,-0.0001483341184211895,-0.05658046156167984,1.0782561302185059,0.00040712341433390975,-0.2526220381259918
757.0,882.0,-4.5159,3.0933,7.4853,-0.0421,0.2517,-0.195,-2.2449943027892054,-0.047265417873859406,4.291789531707764,-1.5797698497772217,0.25613799691200256,2.1327879428863525,-0.5858984154513855,0.048420943319797516,0.26245731115341187,-1.98706561723818,0.0,0.08162180334329605,0.6358357071876526,-0.00013854753342457116,-0.0632769912481308,1.0782963037490845,0.0003480717714410275,-0.2713913917541504
757.0,882.0,-4.5159,3.0933,7.4853,-0.0421,0.2517,-0.195,-2.2453695736327113,-0.05337723717093468,4.355568885803223,-1.5777580738067627,0.2540280818939209,2.0845015048980713,-0.5855392974666138,0.06514423340559006,0.27145394682884216,-1.9870088736163538,0.0,0.08043773472309113,0.6358840465545654,-0.00012734498886857182,-0.05698160454630852,1.0782524347305298,0.0002552086370997131,-0.23508334159851074
757.0,882.0,-4.5159,3.0933,7.4853,-0.0421,0.2517,-0.195,-2.245721479455465,-0.05746887996792793,4.319900989532471,-1.576148509979248,0.2542981803417206,2.0952868461608887,-0.5851078194430848,0.07491753250360489,0.28198111057281494,-1.9870174566852015,0.0,0.07873757183551788,0.6358799934387207,-0.00012006414908682927,-0.05386091768741608,1.078223705291748,0.00026006108964793384,-0.24324652552604675
757.0,882.0,-4.5159,3.0933,7.4853,-0.0421,0.2517,-0.195,-2.2460981808104457,-0.060617055743932724,4.313623428344727,-1.5746628046035767,0.26269039511680603,2.1207962036132812,-0.5847127598575135,0.07846710830926895,0.26590341329574585,-1.9870498816119593,0.0,0.07847210019826889,0.6359160542488098,-0.00011357075709383935,-0.06445267051458359,1.078240156173706,0.00020544548169709742,-0.21532553434371948
757.0,882.0,-4.5159,3.0933,7.4853,-0.0421,0.2517,-0.195,-2.246634622613424,-0.064181849360466,4.344015121459961,-1.5725106000900269,0.26001447439193726,2.0813796520233154,-0.5841385287097474,0.06067367643117905,0.2926880419254303,-1.987049404774801,0.0,0.07197940349578857,0.6358718872070312,-0.00010593217302812263,-0.05226380378007889,1.0781959295272827,1.926798809392949e-08,-0.2537633776664734
757.0,882.0,-4.5159,3.0933,7.4853,-0.0421,0.2517,-0.195,-2.2470303974547328,-0.06596282124519348,4.357291221618652,-1.5709651708602905,0.2581825256347656,2.1444263458251953,-0.5838869375041504,0.0351896658539772,0.27467891573905945,-1.986969296132223,0.0,0.08529378473758698,0.6358555555343628,-0.00010084506357088685,-0.06582090258598328,1.0782241821289062,4.652991520185355e-14,-0.2828446626663208
757.0,882.0,-4.5159,3.0933,7.4853,-0.0421,0.2517,-0.195,-2.2475019894041957,-0.06128969416022301,4.333239555358887,-1.5689165592193604,0.26986590027809143,2.1123108863830566,-0.5838155311397095,0.0008241357281804085,0.2477709949016571,-1.9870455900775355,0.0,0.07206680625677109,0.6358596682548523,-9.477666026214138e-05,-0.06810419261455536,1.0782241821289062,1.5075102111385754e-21,-0.1773056983947754
757.0,882.0,-4.5159,3.0933,7.4853,-0.0421,0.2517,-0.195,-2.247906347314352,-0.05642412230372429,4.33060884475708,-1.5673279762268066,0.263779878616333,2.163227081298828,-0.5839562577060242,-0.02192739024758339,0.23522618412971497,-1.987021271382467,0.0,0.0706939622759819,0.6358840465545654,-9.068391955224797e-05,-0.0622079074382782,1.07823646068573,-0.0012650317512452602,-0.2470407485961914
757.0,882.0,-4.5159,3.0933,7.4853,-0.0421,0.2517,-0.195,-2.2482663593687953,-0.055248960852622986,4.358266830444336,-1.5656914710998535,0.2599274218082428,2.1231415271759033,-0.5840194982341309,-0.02221536636352539,0.23380176723003387,-1.9870417753802698,0.0,0.077198326587677,0.6358919739723206,-8.692996925674379e-05,-0.06586233526468277,1.0782045125961304,-0.0009031624067574739,-0.2062283456325531
757.0,882.0,-4.5159,3.0933,7.4853,-0.0421,0.2517,-0.195,-2.2486330471434535,-0.055730096995830536,4.353395462036133,-1.563635230064392,0.26160159707069397,2.103797197341919,-0.5842111271670838,-0.009363595396280289,0.23941192030906677,-1.987025562916891,0.0,0.0799880251288414,0.6358323693275452,-8.23830341687426e-05,-0.06341622769832611,1.0782122611999512,-0.0006001959554851055,-0.2783336639404297
757.0,882.0,-4.5159,3.0933,7.4853,-0.0421,0.2517,-0.195,-2.2489735088744105,-0.05509496480226517,4.407475471496582,-1.56206214427948,0.2589852809906006,2.0691375732421875,-0.5841187399676819,-0.0007991780294105411,0.24391257762908936,-1.9870050589190882,0.0,0.0808427557349205,0.6358881592750549,-7.927314436528832e-05,-0.06000804528594017,1.0781598091125488,-0.00043157057370990515,-0.2138863205909729
757.0,882.0,-4.5159,3.0933,7.4853,-0.0421,0.2517,-0.195,-2.249413152734274,-0.05777798593044281,4.336537837982178,-1.559889316558838,0.25921231508255005,2.147531509399414,-0.5841904443553467,-1.4524665026272032e-08,0.25384432077407837,-1.9870331923114222,0.0,0.07050558924674988,0.6359282732009888,-7.547440327471122e-05,-0.050952620804309845,1.078216314315796,-0.0002768184058368206,-0.2833278775215149
757.0,882.0,-4.5159,3.0933,7.4853,-0.0421,0.2517,-0.195,-2.2497292957701625,-0.05663837119936943,4.372169494628906,-1.5583240985870361,0.2617669999599457,2.1832425594329834,-0.5841744703105469,0.000350514252204448,0.22789275646209717,-1.986997429524557,0.0,0.08915064483880997,0.6359037756919861,-7.285597530426458e-05,-0.04883390665054321,1.0782688856124878,-0.00023361867351923138,-0.2677484452724457
757.0,882.0,-4.5159,3.0933,7.4853,-0.0421,0.2517,-0.195,-2.250197549859518,-0.05623951554298401,4.381538391113281,-1.556240200996399,0.2626517415046692,2.149052619934082,-0.584186391239502,0.00010364093031967059,0.24039465188980103,-1.9870498816119593,0.0,0.073996402323246,0.6357957124710083,-6.963486521271989e-05,-0.0466027706861496,1.078192114830017,-0.0001593345368746668,-0.24311421811580658
634.0,878.0,-4.8598,3.9577,7.6564,-0.0212,0.214,-0.2013,-2.2505856953062953,-0.06322020292282104,4.364846229553223,-1.5546315908432007,0.26234695315361023,2.170476198196411,-0.5842185777476807,1.8564045944913232e-07,0.22810092568397522,-1.987021271382467,0.0,0.0805974155664444,0.6358880996704102,-1.9383122662475216e-08,-0.055730871856212616,1.0782806873321533,-0.00013707684411201626,-0.2565919756889343
634.0,878.0,-4.8598,3.9577,7.6564,-0.0212,0.214,-0.2013,-2.2510062656798304,-0.06744193285703659,4.407591819763184,-1.5530303716659546,0.2675181031227112,2.1914479732513428,-0.5842350286296387,5.167370004111049e-11,0.2351561188697815,-1.9870498816119593,0.0,0.09258823841810226,0.6359438896179199,-5.395362975835205e-12,-0.051727548241615295,1.0781962871551514,-4.791504761669785e-05,-0.25085610151290894
634.0,878.0,-4.8598,3.9577,7.6564,-0.0212,0.214,-0.2013,-2.251517435113424,-0.07329299300909042,4.374439716339111,-1.5508370399475098,0.26416823267936707,2.156538724899292,-0.5842065972140809,-0.0002514628286007792,0.22706358134746552,-1.9870331923114222,0.0,0.07325147092342377,0.6359000205993652,-9.805805292320476e-17,-0.050372183322906494,1.078216314315796,-0.00011177165288245305,-0.3102063536643982
634.0,878.0,-4.8598,3.9577,7.6564,-0.0212,0.214,-0.2013,-2.2519895039000453,-0.07471629232168198,4.361987590789795,-1.5492526292800903,0.2740766704082489,2.1667628288269043,-0.5842066568187256,-0.0008898077066987753,0.2403135597705841,-1.9870131651507776,0.0,0.08165688812732697,0.6359276175498962,-2.729481794571037e-20,-0.044254668056964874,1.0781759023666382,-0.00022715590603183955,-0.2642536759376526
634.0,878.0,-4.8598,3.9577,7.6564,-0.0212,0.214,-0.2013,-2.2526303730406703,-0.06910253316164017,4.379995346069336,-1.5471041202545166,0.27605879306793213,2.164841651916504,-0.5842989248088379,-0.0017519306857138872,0.22177143394947052,-1.9870174566852015,0.0,0.07533285021781921,0.6358596682548523,-2.004512498388067e-05,-0.05743146687746048,1.0782005786895752,-0.00033484786399640143,-0.2385154366493225
634.0,878.0,-4.8598,3.9577,7.6564,-0.0212,0.214,-0.2013,-2.2530299625792445,-0.06806210428476334,4.402360916137695,-1.5455398559570312,0.27238887548446655,2.2227113246917725,-0.5842945736697693,-0.003737337188795209,0.2300451695919037,-1.9869568983661097,0.0,0.08057837188243866,0.6358959674835205,-2.1653931980836205e-08,-0.04021472483873367,1.0782322883605957,-0.00032288499642163515,-0.2621053457260132
634.0,878.0,-4.8598,3.9577,7.6564,-0.0212,0.214,-0.2013,-2.253441473046774,-0.06905539333820343,4.409909248352051,-1.5439220666885376,0.2736351788043976,2.2113189697265625,-0.5843624037555237,-0.006524205207824707,0.22994688153266907,-1.9870131651507776,0.0,0.08875665068626404,0.6359758377075195,-6.027451975032516e-12,-0.041331008076667786,1.078172206878662,-0.00022800045553594828,-0.2758600115776062
634.0,878.0,-4.8598,3.9577,7.6564,-0.0212,0.214,-0.2013,-2.2540370426573695,-0.0751195102930069,4.377272129058838,-1.5416814088821411,0.2710041105747223,2.2138452529907227,-0.584402398472168,-0.009151994250714779,0.22458219528198242,-1.9870131651507776,0.0,0.09831702709197998,0.6358439922332764,-1.0954596374012081e-16,-0.05153954029083252,1.0781762599945068,-0.0006145598599687219,-0.28173118829727173
634.0,878.0,-4.8598,3.9577,7.6564,-0.0212,0.214,-0.2013,-2.254521986047262,-0.07815270870923996,4.375969409942627,-1.540064811706543,0.26863929629325867,2.234428644180298,-0.5844827455333252,-0.007824806496500969,0.20715194940567017,-1.9870098272906702,0.0,0.09142332524061203,0.635863721370697,-3.049252047925565e-20,-0.037641383707523346,1.0781846046447754,-0.0017633989918977022,-0.2878184914588928
634.0,878.0,-4.8598,3.9577,7.6564,-0.0212,0.214,-0.2013,-2.255045076409811,-0.074465811252594,4.413323402404785,-1.5379449129104614,0.2801697850227356,2.2866992950439453,-0.5844459694674988,-0.0028450966347008944,0.21502685546875,-1.9870174566852015,5.726754070956019e-10,0.08980770409107208,0.6359758377075195,-5.541864216161128e-25,-0.037312064319849014,1.078168511390686,-0.0011197078274562955,-0.3215011954307556
634.0,878.0,-4.8598,3.9577,7.6564,-0.0212,0.214,-0.2013,-2.255533834496969,-0.07285343110561371,4.3936767578125,-1.5363078117370605,0.28248634934425354,2.2271456718444824,-0.5844863218120118,-0.0005515886005014181,0.2102019190788269,-1.9870060125934046,1.5940626097755983e-13,0.09987810254096985,0.6359200477600098,-1.542598505675612e-28,-0.03346025198698044,1.078208565711975,-0.0007444701041094959,-0.2940930128097534
634.0,878.0,-4.8598,3.9577,7.6564,-0.0212,0.214,-0.2013,-2.2559973202147425,-0.07770983874797821,4.3830671310424805,-1.5345938205718994,0.28118976950645447,2.235018730163574,-0.5844577711871644,-0.0003671418526209891,0.22614748775959015,-1.9870088736163538,4.437132132482654e-17,0.08677151799201965,0.6359357237815857,-4.2938801478934134e-32,-0.05045435577630997,1.0781762599945068,-0.0005266580847091973,-0.3326581120491028
634.0,878.0,-4.8598,3.9577,7.6564,-0.0212,0.214,-0.2013,-2.2566215000548304,-0.0863582119345665,4.438852787017822,-1.5322906970977783,0.2881741225719452,2.2485289573669434,-0.5845183295062562,-0.0002415804483462125,0.22238582372665405,-1.986997429524557,8.064266792568471e-22,0.09292066842317581,0.6359561085700989,-7.803915898356029e-37,-0.038497183471918106,1.07820463180542,-0.00042008928721770644,-0.31170523166656494
462.0,866.0,-4.8144,3.2243,7.9412,-0.0629,0.2584,-0.2101,-2.2571855984129847,-0.08796493709087372,4.3910675048828125,-1.5305397510528564,0.28663554787635803,2.218015670776367,-0.5844982427409668,-0.00022123580856714398,0.2205158770084381,-1.987054173146383,2.244718250429329e-25,0.08945160359144211,0.6358799934387207,-2.1722508404424017e-40,-0.04478904977440834,1.0781439542770386,-0.0004171759937889874,-0.3185737729072571
462.0,866.0,-4.8144,3.2243,7.9412,-0.0629,0.2584,-0.2101,-2.2578894100584925,-0.08937066793441772,4.4392828941345215,-1.528221607208252,0.2893756031990051,2.2814719676971436,-0.5845101636699219,-0.00013383146142587066,0.2179889976978302,-1.9869816938983362,4.079665051590947e-30,0.10537871718406677,0.6358640193939209,-4.203895392974451e-45,-0.02754484862089157,1.078160285949707,-0.00036128764622844756,-0.36273837089538574
462.0,866.0,-4.8144,3.2243,7.9412,-0.0629,0.2584,-0.2101,-2.2585064373412074,-0.08528310060501099,4.422580718994141,-1.5264463424682617,0.2931762635707855,2.25435733795166,-0.5844413799098511,-0.00015232177975121886,0.20627900958061218,-1.9869487921344202,1.1355894400187402e-33,0.0836057960987091,0.6359079480171204,-0.0,-0.03728948533535004,1.078160285949707,-0.0008810230647213757,-0.33924025297164917
462.0,866.0,-4.8144,3.2243,7.9412,-0.0629,0.2584,-0.2101,-2.259153505364889,-0.08214174211025238,4.414795875549316,-1.5240914821624756,0.286785364151001,2.2467572689056396,-0.5845459264567872,-0.0026360831689089537,0.2141859233379364,-1.986969296132223,2.0638777803278347e-38,0.09755122661590576,0.6359200477600098,-0.0,-0.042508259415626526,1.0781604051589966,-0.0018976263236254454,-0.3622743487358093
462.0,866.0,-4.8144,3.2243,7.9412,-0.0629,0.2584,-0.2101,-2.2596498928465785,-0.07768356800079346,4.442288875579834,-1.5223643779754639,0.285444438457489,2.2901828289031982,-0.5845776361278077,-0.006056331098079681,0.21478262543678284,-1.9869893232928675,5.74532370373175e-42,0.10143251717090607,0.6358959674835205,-0.0,-0.05202949792146683,1.0780919790267944,-0.0014597239205613732,-0.39765942096710205
462.0,866.0,-4.8144,3.2243,7.9412,-0.0629,0.2584,-0.2101,-2.2601381740965785,-0.07723978161811829,4.41727352142334,-1.520681619644165,0.2825644910335541,2.272738456726074,-0.5846453470042725,-0.010917597450315952,0.21325448155403137,-1.986997429524557,1.401298464324817e-45,0.08864346891641617,0.6359003782272339,-0.0,-0.04649650305509567,1.078116536140442,-0.002268093405291438,-0.3781568706035614
462.0,866.0,-4.8144,3.2243,7.9412,-0.0629,0.2584,-0.2101,-2.2606450519957484,-0.07447163760662079,4.471866607666016,-1.518458366394043,0.28002798557281494,2.1788907051086426,-0.5848254722407837,-0.015857474878430367,0.19922539591789246,-1.9870060125934046,0.0,0.0973602831363678,0.6359357237815857,-0.0,-0.04184927046298981,1.0781205892562866,-0.0029758017044514418,-0.4005497097969055
462.0,866.0,-4.8144,3.2243,7.9412,-0.0629,0.2584,-0.2101,-2.2610684833922328,-0.07274977117776871,4.45594596862793,-1.5167839527130127,0.2832563817501068,2.276412010192871,-0.5848857325366517,-0.016590813174843788,0.19189976155757904,-1.9870060125934046,0.0,0.10220739245414734,0.6359081864356995,-0.0,-0.05040368065237999,1.0780882835388184,-0.002878599800169468,-0.35046303272247314
462.0,866.0,-4.8144,3.2243,7.9412,-0.0629,0.2584,-0.2101,-2.26165308574819,-0.07057222723960876,4.424317359924316,-1.5145853757858276,0.2824094891548157,2.242873430252075,-0.5849685233882447,-0.013325165957212448,0.2098349928855896,-1.986969296132223,0.0,0.09618797898292542,0.63590407371521,-0.0,-0.03965519368648529,1.0780560970306396,-0.003047673497349024,-0.3765086531639099
462.0,866.0,-4.8144,3.2243,7.9412,-0.0629,0.2584,-0.2101,-2.2620326481261195,-0.0694437325000763,4.4429612159729,-1.5129142999649048,0.28543806076049805,2.1988577842712402,-0.5850444001010437,-0.008763812482357025,0.20682400465011597,-1.9870179335223597,0.0,0.10797708481550217,0.6358518004417419,-0.0,-0.05077427998185158,1.07802414894104,-0.0023220477160066366,-0.3549218773841858
462.0,866.0,-4.8144,3.2243,7.9412,-0.0629,0.2584,-0.2101,-2.2624641857542933,-0.06775746494531631,4.478199005126953,-1.5111987590789795,0.2893504798412323,2.290255546569824,-0.5850683015635987,-0.0035581134725362062,0.2077406644821167,-1.9869731108294886,0.0,0.09528668224811554,0.6358759999275208,-0.0,-0.040707845240831375,1.0780082941055298,-0.0021774638444185257,-0.378246545791626
462.0,866.0,-4.8144,3.2243,7.9412,-0.0629,0.2584,-0.2101,-2.2629720173277796,-0.06518013775348663,4.519381523132324,-1.5088716745376587,0.2858038544654846,2.261255979537964,-0.5851128262332459,-0.00042511182255111635,0.20147454738616943,-1.9869774023639124,0.0,0.09348960220813751,0.6359718441963196,-0.0,-0.04960368201136589,1.0779999494552612,-0.0033333380706608295,-0.36355358362197876
462.0,866.0,-4.8144,3.2243,7.9412,-0.0629,0.2584,-0.2101,-2.2633964023985804,-0.06186870485544205,4.476541996002197,-1.5072495937347412,0.29338666796684265,2.287635326385498,-0.5850598973086854,-0.0002465937868691981,0.19969888031482697,-1.9870017210589808,0.0,0.10868902504444122,0.6358717679977417,-0.0,-0.049915436655282974,1.077992558479309,-0.003816203912720084,-0.3855428993701935
462.0,866.0,-4.8144,3.2243,7.9412,-0.0629,0.2584,-0.2101,-2.2638641796507777,-0.06048774719238281,4.45610237121582,-1.5049066543579102,0.2915172278881073,2.2937583923339844,-0.5850598973086854,-0.00023583606525789946,0.20469394326210022,-1.9869731108294886,0.0,0.10946056991815567,0.6358718276023865,-0.0,-0.04732845723628998,1.077936053276062,-0.005170844029635191,-0.4066234827041626
346.0,829.0,-5.2546,3.5294,7.861,-0.037,0.2271,-0.208,-2.2642933330931605,-0.06494496017694473,4.5161590576171875,-1.5031154155731201,0.2871059775352478,2.2848193645477295,-0.5851085943034668,-0.0002493032952770591,0.20754075050354004,-1.9869654814349573,0.0,0.10722900927066803,0.6358840465545654,-0.0,-0.047889918088912964,1.0779446363449097,-0.004150006920099258,-0.39633306860923767
346.0,829.0,-5.2546,3.5294,7.861,-0.037,0.2271,-0.208,-2.2646571598448695,-0.06742783635854721,4.509337902069092,-1.5013478994369507,0.29040616750717163,2.3062634468078613,-0.5851004284671326,-0.00014441629173234105,0.21752771735191345,-1.987025562916891,6.63894388708286e-05,0.08937805891036987,0.6358960270881653,-0.0,-0.04476623237133026,1.0779205560684204,-0.0038129466120153666,-0.43551939725875854
346.0,829.0,-5.2546,3.5294,7.861,-0.037,0.2271,-0.208,-2.2652136288084925,-0.06410694867372513,4.438591480255127,-1.499053955078125,0.28463253378868103,2.268064022064209,-0.5851245683482666,-0.0007868892862461507,0.21099580824375153,-1.986969296132223,6.279120862018317e-05,0.09900826960802078,0.6358638405799866,-0.0,-0.05208288133144379,1.0778158903121948,-0.004185255616903305,-0.4410150945186615
346.0,829.0,-5.2546,3.5294,7.861,-0.037,0.2271,-0.208,-2.265536447564596,-0.060431502759456635,4.470833778381348,-1.4972869157791138,0.28384697437286377,2.2933340072631836,-0.5851484698108216,-0.0012179611949250102,0.20753245055675507,-1.9869292418109339,6.0268346715020016e-05,0.12045572698116302,0.6359316110610962,-0.0,-0.0565730482339859,1.0778682231903076,-0.003935241140425205,-0.43702346086502075
346.0,829.0,-5.2546,3.5294,7.861,-0.037,0.2271,-0.208,-2.26602902034902,-0.056790340691804886,4.498523712158203,-1.49501633644104,0.2892801761627197,2.293881893157959,-0.5851283234408875,-0.0009478018037043512,0.2123640924692154,-1.9869697729693812,6.863811722723767e-05,0.11013463139533997,0.6359119415283203,-0.0,-0.04511909931898117,1.0778322219848633,-0.0037712431512773037,-0.4198673963546753
346.0,829.0,-5.2546,3.5294,7.861,-0.037,0.2271,-0.208,-2.26637663463735,-0.05483027547597885,4.491559982299805,-1.4933006763458252,0.2841510474681854,2.292586326599121,-0.5851123493960877,-0.0009715735795907676,0.21099504828453064,-1.9869373480426233,6.612292781937867e-05,0.1090724840760231,0.6359356641769409,-0.0,-0.03716304525732994,1.0778006315231323,-0.0033928698394447565,-0.40600723028182983
346.0,829.0,-5.2546,3.5294,7.861,-0.037,0.2271,-0.208,-2.2668243847289027,-0.055165667086839676,4.533481597900391,-1.4909820556640625,0.2836819887161255,2.3220772743225098,-0.5851882857135315,-0.0026659269351512194,0.18139389157295227,-1.9869936148272913,7.345095946220681e-05,0.12200632691383362,0.6359081864356995,-0.0,-0.046004749834537506,1.0777441263198853,-0.002945223357528448,-0.42480647563934326
346.0,829.0,-5.2546,3.5294,7.861,-0.037,0.2271,-0.208,-2.267099996606344,-0.054557204246520996,4.55099630355835,-1.4892513751983643,0.280467689037323,2.3242101669311523,-0.5852168959430237,-0.00246780039742589,0.2054426670074463,-1.9869292418109339,7.105312397470698e-05,0.11793066561222076,0.6358880996704102,-0.0,-0.057020317763090134,1.077764630317688,-0.0034873951226472855,-0.5010956525802612
346.0,829.0,-5.2546,3.5294,7.861,-0.037,0.2271,-0.208,-2.267435689965719,-0.05503415688872337,4.519670009613037,-1.4876043796539307,0.27859577536582947,2.33699631690979,-0.5851196807673951,-0.002055406104773283,0.19863489270210266,-1.986896816884176,2.299723519172403e-06,0.12074433267116547,0.6358718276023865,-0.0,-0.04377433657646179,1.0777080059051514,-0.004353607073426247,-0.48364609479904175
346.0,829.0,-5.2546,3.5294,7.861,-0.037,0.2271,-0.208,-2.267876287499899,-0.05416053533554077,4.527228832244873,-1.4853490591049194,0.28187641501426697,2.3370466232299805,-0.5851521652987977,-0.0010565515840426087,0.20588843524456024,-1.9869735876666468,4.179634069401139e-11,0.12034699320793152,0.6358799934387207,-0.0,-0.05802955850958824,1.0777523517608643,-0.0031860419549047947,-0.4896228611469269
346.0,829.0,-5.2546,3.5294,7.861,-0.037,0.2271,-0.208,-2.2681428394713343,-0.05207841098308563,4.489983558654785,-1.4837419986724854,0.27707111835479736,2.247332811355591,-0.5851758879474183,-0.0007022042409516871,0.2022889256477356,-1.9869898001300257,1.1634164396028424e-14,0.1138235330581665,0.6358680725097656,-0.0,-0.03086155652999878,1.0777244567871094,-0.0028325377497822046,-0.4337020218372345
346.0,829.0,-5.2546,3.5294,7.861,-0.037,0.2271,-0.208,-2.268612047235006,-0.04900360107421875,4.522828102111816,-1.4815195798873901,0.2823891341686249,2.302551746368408,-0.5852084916881104,-0.000552302342839539,0.18745428323745728,-1.9869335333453577,2.1144514895172376e-19,0.13065652549266815,0.6359274387359619,-0.0,-0.039362192153930664,1.0776598453521729,-0.002071922179311514,-0.41198456287384033
346.0,829.0,-5.2546,3.5294,7.861,-0.037,0.2271,-0.208,-2.2689081631102503,-0.04870959371328354,4.4977827072143555,-1.4797357320785522,0.28291699290275574,2.3466508388519287,-0.585224525337555,-0.0004114077892154455,0.2044070065021515,-1.9869168440448206,0.0001116674393415451,0.11937829852104187,0.635915994644165,-0.0,-0.061134543269872665,1.0776399374008179,-0.0016682823188602924,-0.4934260845184326
279.0,777.0,-5.4012,3.5037,7.879,-0.0493,0.2101,-0.2039,-2.269223829308981,-0.05311611294746399,4.513492584228516,-1.4781379699707031,0.2721865773200989,2.3368635177612305,-0.5851925176433106,-0.00208692392334342,0.18378517031669617,-1.9868930021869105,0.00010408675007056445,0.1274729073047638,0.6359200477600098,-0.0,-0.057008855044841766,1.0776481628417969,-0.0016830655513331294,-0.4759145677089691
279.0,777.0,-5.4012,3.5037,7.879,-0.0493,0.2101,-0.2039,-2.269628187219137,-0.056257180869579315,4.503927230834961,-1.4759712219238281,0.2790479362010956,2.3332581520080566,-0.5852562350085755,-0.0032591528724879026,0.199825257062912,-1.9869416395770472,9.527172369416803e-05,0.11795830726623535,0.6359162330627441,-0.0,-0.04649591073393822,1.0776481628417969,-0.0016451599076390266,-0.514838457107544
279.0,777.0,-5.4012,3.5037,7.879,-0.0493,0.2101,-0.2039,-2.2699443302550257,-0.054912690073251724,4.573144912719727,-1.4743123054504395,0.27937793731689453,2.3175549507141113,-0.5852480095675965,-0.004283472429960966,0.19736889004707336,-1.9869292418109339,0.00010747765190899372,0.1138225868344307,0.6358880996704102,-0.0,-0.05924215167760849,1.0776124000549316,-0.0021293151658028364,-0.494782954454422
279.0,777.0,-5.4012,3.5037,7.879,-0.0493,0.2101,-0.2039,-2.2704044781126917,-0.05695473775267601,4.542261123657227,-1.4720609188079834,0.27248045802116394,2.320040702819824,-0.585296170120575,-0.005324768368154764,0.19245892763137817,-1.9869373480426233,9.956941357813776e-05,0.12034629285335541,0.635875940322876,-0.0,-0.04843387380242348,1.0776162147521973,-0.0014537442475557327,-0.49533265829086304
279.0,777.0,-5.4012,3.5037,7.879,-0.0493,0.2101,-0.2039,-2.2707444630064906,-0.05833368003368378,4.529025554656982,-1.4704341888427734,0.27594080567359924,2.4001948833465576,-0.5853364032557984,-0.0048268698155879974,0.19898536801338196,-1.986957852040426,9.435031824978068e-05,0.12237702310085297,0.63590407371521,-0.0,-0.05751112848520279,1.0776443481445312,-0.0008879334782250226,-0.4987977147102356
279.0,777.0,-5.4012,3.5037,7.879,-0.0493,0.2101,-0.2039,-2.271158834496969,-0.05978909879922867,4.5840067863464355,-1.468194842338562,0.2712869942188263,2.313643455505371,-0.5853557747653504,-0.0033074901439249516,0.18670222163200378,-1.986945931111471,8.81868545548059e-05,0.11810904741287231,0.635919988155365,-0.0,-0.055496253073215485,1.0776243209838867,-0.0005354862660169601,-0.4948451519012451
279.0,777.0,-5.4012,3.5037,7.879,-0.0493,0.2101,-0.2039,-2.2715560398497523,-0.06375521421432495,4.560030937194824,-1.4665274620056152,0.2687773108482361,2.3197360038757324,-0.5853676956943055,-0.002310286508873105,0.1906382292509079,-1.9869774023639124,8.406808774452657e-05,0.12344902753829956,0.6359081864356995,-0.0,-0.06278812885284424,1.0776402950286865,-0.0004126717976760119,-0.5121584534645081
279.0,777.0,-5.4012,3.5037,7.879,-0.0493,0.2101,-0.2039,-2.2719603977599085,-0.06662124395370483,4.55615234375,-1.46487557888031,0.27129483222961426,2.3013415336608887,-0.5853877824595948,-0.0013025656808167696,0.19457364082336426,-1.9869125525103968,8.691105904290453e-05,0.13375534117221832,0.6359321475028992,-0.0,-0.05304647237062454,1.0776562690734863,-0.00033569344668649137,-0.4847903549671173
279.0,777.0,-5.4012,3.5037,7.879,-0.0493,0.2101,-0.2039,-2.2724796734251917,-0.06787490099668503,4.52606725692749,-1.4627654552459717,0.2637583315372467,2.2817697525024414,-0.5853598874858399,-0.0007163633708842099,0.18904918432235718,-1.986913029347555,8.844121475704014e-05,0.12675684690475464,0.6359000205993652,-0.0,-0.044019460678100586,1.0775920152664185,-0.000358421792043373,-0.5097951292991638
279.0,777.0,-5.4012,3.5037,7.879,-0.0493,0.2101,-0.2039,-2.2728878460326136,-0.06657091528177261,4.5331573486328125,-1.4611461162567139,0.2633778154850006,2.350066900253296,-0.5853598874858399,-0.0005339562776498497,0.19729366898536682,-1.9869416395770472,8.486712613375857e-05,0.13052065670490265,0.6358638405799866,-0.0,-0.04314601421356201,1.077600121498108,-0.00031186631531454623,-0.5151691436767578
279.0,777.0,-5.4012,3.5037,7.879,-0.0493,0.2101,-0.2039,-2.2734281025328578,-0.06122133135795593,4.581366539001465,-1.4590672254562378,0.2614818215370178,2.3479092121124268,-0.58538372934375,-0.0003986891242675483,0.20734021067619324,-1.9869292418109339,8.052791963564232e-05,0.12460237741470337,0.6358880996704102,-0.0,-0.043315038084983826,1.0776124000549316,-0.00025568349519744515,-0.4697302579879761
279.0,777.0,-5.4012,3.5037,7.879,-0.0493,0.2101,-0.2039,-2.2737633190550746,-0.05920304358005524,4.572592735290527,-1.457563877105713,0.2518512010574341,2.298682451248169,-0.5854358834079285,-0.00038275468978099525,0.19203874468803406,-1.986957852040426,8.860864181770012e-05,0.13683633506298065,0.635831892490387,-0.0,-0.05235202610492706,1.077608346939087,-0.0008646086207590997,-0.5491480231285095
279.0,777.0,-5.4012,3.5037,7.879,-0.0493,0.2101,-0.2039,-2.27415194133901,-0.057023946195840836,4.561878204345703,-1.45600426197052,0.2520853877067566,2.309988260269165,-0.5854153794101258,-0.00033690189593471587,0.19326741993427277,-1.9868767897235315,8.547654579160735e-05,0.12497200071811676,0.6358358860015869,-0.0,-0.049979615956544876,1.0776002407073975,-0.0009983666241168976,-0.5072425603866577
279.0,777.0,-5.4012,3.5037,7.879,-0.0493,0.2101,-0.2039,-2.2745586834349574,-0.06147419661283493,4.565915107727051,-1.4540495872497559,0.24827703833580017,2.382388114929199,-0.585399405365326,-0.0014361027861014009,0.18555358052253723,-1.9869497458087366,8.16015963209793e-05,0.13823911547660828,0.6358922123908997,-0.0,-0.04232766106724739,1.0775682926177979,-0.0012928060023114085,-0.5190728902816772
240.0,698.0,-5.6459,3.2004,7.523,-0.0493,0.1434,-0.1793,-2.2749229870238246,-0.06560724973678589,4.567030906677246,-1.4525463581085205,0.23756851255893707,2.315875291824341,-0.5854075712016602,-0.0018914424581453204,0.1930132657289505,-1.9869335333453577,8.452672773273662e-05,0.12031479179859161,0.63590407371521,-0.0,-0.03997263312339783,1.0775723457336426,-0.0021891947835683823,-0.5747772455215454
240.0,698.0,-5.6459,3.2004,7.523,-0.0493,0.1434,-0.1793,-2.2754270039000453,-0.06746617704629898,4.55117130279541,-1.4506428241729736,0.24093717336654663,2.327343702316284,-0.5853592914393921,-0.0011570393107831478,0.19724875688552856,-1.9869659582721155,7.862662459956482e-05,0.12923017144203186,0.635915994644165,-0.0,-0.05931488424539566,1.0775519609451294,-0.001694543519988656,-0.5550742149353027
240.0,698.0,-5.6459,3.2004,7.523,-0.0493,0.1434,-0.1793,-2.275835176507467,-0.06822460144758224,4.551595687866211,-1.4492475986480713,0.2437809854745865,2.3534209728240967,-0.5854273003390809,-0.0007873800932429731,0.18849793076515198,-1.9869049231158655,8.958661055658013e-05,0.1255534589290619,0.6359000205993652,-0.0,-0.04516571760177612,1.0775325298309326,-0.0019253663485869765,-0.5543631911277771
240.0,698.0,-5.6459,3.2004,7.523,-0.0493,0.1434,-0.1793,-2.2762466869749964,-0.0728282704949379,4.598199367523193,-1.4476677179336548,0.23774096369743347,2.2749481201171875,-0.5854514998248597,-0.0006300638196989894,0.1809530407190323,-1.9869292418109339,8.539897680748254e-05,0.1298643946647644,0.6358677744865417,-0.0,-0.05555647611618042,1.077540397644043,-0.0021877640392631292,-0.4886327385902405
240.0,698.0,-5.6459,3.2004,7.523,-0.0493,0.1434,-0.1793,-2.276896139184469,-0.0795435756444931,4.592227935791016,-1.445817232131958,0.24191658198833466,2.311325788497925,-0.5854555529407044,-0.0006106079672463238,0.18266040086746216,-1.9868972937213343,8.031811012187973e-05,0.12975530326366425,0.6358922123908997,-0.0,-0.044108856469392776,1.07750403881073,-0.0014073000056669116,-0.5481400489807129
240.0,698.0,-5.6459,3.2004,7.523,-0.0493,0.1434,-0.1793,-2.27736296276235,-0.07772847265005112,4.600181579589844,-1.444409966468811,0.2506236732006073,2.355625629425049,-0.5854759377292176,-0.0005811210139654577,0.19104821979999542,-1.9869292418109339,7.688740879530087e-05,0.14002299308776855,0.63593989610672,-0.0,-0.050534576177597046,1.077536702156067,-0.0014379608910530806,-0.5121397972106934
240.0,698.0,-5.6459,3.2004,7.523,-0.0493,0.1434,-0.1793,-2.2780186138548792,-0.07875900715589523,4.595457553863525,-1.4424951076507568,0.2456369251012802,2.3588790893554688,-0.5854634207538147,-0.0008051289478316903,0.1867867112159729,-1.9868972937213343,7.274425297509879e-05,0.14007967710494995,0.6358922123908997,-0.0,-0.04185465723276138,1.0774598121643066,-0.0030707702971994877,-0.5518144369125366
240.0,698.0,-5.6459,3.2004,7.523,-0.0493,0.1434,-0.1793,-2.278494497338766,-0.080637127161026,4.59112548828125,-1.4409911632537842,0.24185079336166382,2.3333280086517334,-0.5854427975467225,-0.002168225822970271,0.18137127161026,-1.9869092146502894,6.991863483563066e-05,0.13187868893146515,0.6359241008758545,-0.0,-0.05579233542084694,1.077500820159912,-0.003579605370759964,-0.5410823822021484
240.0,698.0,-5.6459,3.2004,7.523,-0.0493,0.1434,-0.1793,-2.279154439965719,-0.08142673224210739,4.591289043426514,-1.4390602111816406,0.23994290828704834,2.356586456298828,-0.585503415470459,-0.003965279087424278,0.18601107597351074,-1.9869292418109339,6.647576810792089e-05,0.13568398356437683,0.6359317898750305,-0.0,-0.06038275361061096,1.077404260635376,-0.005151716992259026,-0.5151306986808777
240.0,698.0,-5.6459,3.2004,7.523,-0.0493,0.1434,-0.1793,-2.2796904049315394,-0.08235587924718857,4.562352180480957,-1.4375560283660889,0.23161859810352325,2.332878828048706,-0.5855718416026612,-0.006985532119870186,0.1721850335597992,-1.9869416395770472,6.410818605218083e-05,0.1300096958875656,0.6359275579452515,-0.0,-0.04559700936079025,1.0773682594299316,-0.006321028806269169,-0.552265465259552
240.0,698.0,-5.6459,3.2004,7.523,-0.0493,0.1434,-0.1793,-2.280182500878805,-0.08651338517665863,4.583475112915039,-1.436217188835144,0.22323784232139587,2.289038896560669,-0.5856115979007264,-0.008307467214763165,0.18671005964279175,-1.9868972937213343,6.190346903167665e-05,0.12226137518882751,0.6359356045722961,-0.0,-0.050668735057115555,1.0773804187774658,-0.006965617649257183,-0.5672624111175537
240.0,698.0,-5.6459,3.2004,7.523,-0.0493,0.1434,-0.1793,-2.2808548412718714,-0.08607318252325058,4.579928398132324,-1.4344021081924438,0.22214093804359436,2.272658109664917,-0.5856431883624573,-0.008580015040934086,0.17883703112602234,-1.98692495027651,7.708615157753229e-06,0.1386752724647522,0.6358678340911865,-0.0,-0.046629488468170166,1.0772801637649536,-0.0075310091488063335,-0.6164318323135376
240.0,698.0,-5.6459,3.2004,7.523,-0.0493,0.1434,-0.1793,-2.2812777958311976,-0.08362017571926117,4.589279651641846,-1.433046817779541,0.22303950786590576,2.3505241870880127,-0.5857073825648804,-0.007699531503021717,0.1765306293964386,-1.9869497458087366,2.1457211563102874e-09,0.12682096660137177,0.635875940322876,-0.0,-0.03981102257966995,1.0772643089294434,-0.006907124537974596,-0.5680243968963623
232.0,639.0,-5.543,4.1282,6.9494,0.0192,-0.0075,-0.1378,-2.2820145092406214,-0.08224818110466003,4.655162334442139,-1.4313123226165771,0.2224484384059906,2.2830398082733154,-0.5857432645610352,-0.007523579057306051,0.1728246808052063,-1.986913029347555,3.89974239966423e-14,0.12940245866775513,0.6359636187553406,-0.0,-0.04884050786495209,1.0772525072097778,-0.006635459139943123,-0.5629146099090576
232.0,639.0,-5.543,4.1282,6.9494,0.0192,-0.0075,-0.1378,-2.282558580438131,-0.08687257021665573,4.677438735961914,-1.4299440383911133,0.22047743201255798,2.3298380374908447,-0.5858064454844971,-0.009291616268455982,0.1915997862815857,-1.9869292418109339,1.0855077116462969e-17,0.12993283569812775,0.6358557939529419,-0.0,-0.03933478891849518,1.0771766901016235,-0.0067889089696109295,-0.5469993352890015
232.0,639.0,-5.543,4.1282,6.9494,0.0192,-0.0075,-0.1378,-2.283065458337301,-0.09271742403507233,4.660254001617432,-1.4286208152770996,0.21812009811401367,2.3164353370666504,-0.5858665269664307,-0.011947887018322945,0.1694549322128296,-1.9869373480426233,3.0215510293691284e-21,0.13871164619922638,0.6358960270881653,-0.0,-0.037853971123695374,1.0770882368087769,-0.00795501284301281,-0.5779447555541992
232.0,639.0,-5.543,4.1282,6.9494,0.0192,-0.0075,-0.1378,-2.2838574848570765,-0.08885912597179413,4.646476745605469,-1.4268460273742676,0.21356318891048431,2.3207175731658936,-0.5859780472568055,-0.018241118639707565,0.19044268131256104,-1.986945931111471,5.491520222525571e-26,0.1391938477754593,0.6358518600463867,-0.0,-0.0449378676712513,1.0770286321640015,-0.010526228696107864,-0.5235899090766907
232.0,639.0,-5.543,4.1282,6.9494,0.0192,-0.0075,-0.1378,-2.284377237359518,-0.08229176700115204,4.6576128005981445,-1.4256584644317627,0.21053531765937805,2.3265647888183594,-0.5860904020122071,-0.024038640782237053,0.1877751350402832,-1.9869335333453577,1.5285847171765214e-29,0.13294370472431183,0.6358841061592102,-0.0,-0.0404973141849041,1.0769643783569336,-0.013524509035050869,-0.5880123376846313
232.0,639.0,-5.543,4.1282,6.9494,0.0192,-0.0075,-0.1378,-2.285036703149313,-0.08097539097070694,4.686997890472412,-1.424019455909729,0.2067648023366928,2.321831464767456,-0.5863535565188904,-0.03805236890912056,0.16837045550346375,-1.9869049231158655,2.7781273033011523e-34,0.13241013884544373,0.6359478235244751,-0.0,-0.03690565377473831,1.0768158435821533,-0.016276776790618896,-0.5985062122344971
232.0,639.0,-5.543,4.1282,6.9494,0.0192,-0.0075,-0.1378,-2.2855526409544886,-0.0839998796582222,4.624517917633057,-1.4227557182312012,0.20150910317897797,2.2953968048095703,-0.5866326850703736,-0.05670132860541344,0.15740357339382172,-1.9869416395770472,7.733020733825645e-38,0.13455919921398163,0.6359241008758545,-0.0,-0.034005988389253616,1.0767121315002441,-0.01934676803648472,-0.5715863704681396
232.0,639.0,-5.543,4.1282,6.9494,0.0192,-0.0075,-0.1378,-2.2860566578307093,-0.08733680099248886,4.66834020614624,-1.4216043949127197,0.19303905963897705,2.2530946731567383,-0.5870482486537476,-0.07781065255403519,0.16127240657806396,-1.9869216124164026,2.1525345710493515e-41,0.13744805753231049,0.6359000205993652,-0.0,-0.04759753495454788,1.0766403675079346,-0.024065237492322922,-0.5674164891242981
232.0,639.0,-5.543,4.1282,6.9494,0.0192,-0.0075,-0.1378,-2.286753316918844,-0.08394885063171387,4.614256858825684,-1.4200410842895508,0.1969788670539856,2.2390739917755127,-0.5877671402743836,-0.09822379797697067,0.14615832269191742,-1.9869011084186,0.0,0.13036805391311646,0.6359081268310547,-0.0,-0.0344996377825737,1.076395869255066,-0.030407952144742012,-0.5760774612426758
232.0,639.0,-5.543,4.1282,6.9494,0.0192,-0.0075,-0.1378,-2.287220140496725,-0.08000485599040985,4.725226879119873,-1.4188733100891113,0.20266152918338776,2.2834415435791016,-0.5883013767055054,-0.1028691828250885,0.13915148377418518,-1.98698598543276,0.0,0.13799011707305908,0.635919988155365,-0.0,-0.03679773211479187,1.0762526988983154,-0.03381366655230522,-0.5704964995384216
232.0,639.0,-5.543,4.1282,6.9494,0.0192,-0.0075,-0.1378,-2.2878719768919886,-0.0788293108344078,4.6867828369140625,-1.4172542095184326,0.20604120194911957,2.3425486087799072,-0.589163140659668,-0.09951531141996384,0.15191639959812164,-1.986913029347555,0.0,0.14090010523796082,0.6359316110610962,-0.0,-0.04364456608891487,1.075944185256958,-0.03900320082902908,-0.6299612522125244
232.0,639.0,-5.543,4.1282,6.9494,0.0192,-0.0075,-0.1378,-2.2883883915343226,-0.08353963494300842,4.680362701416016,-1.41605544090271,0.20054952800273895,2.2720940113067627,-0.5898217123797913,-0.11788534373044968,0.14741136133670807,-1.986945931111471,0.0,0.12249313294887543,0.6359000205993652,-0.0,-0.051667071878910065,1.075679898262024,-0.04104660451412201,-0.6335848569869995
232.0,639.0,-5.543,4.1282,6.9494,0.0192,-0.0075,-0.1378,-2.2890521488585414,-0.08338426053524017,4.631155014038086,-1.4144599437713623,0.20483285188674927,2.320194721221924,-0.5910111230662842,-0.17248323559761047,0.12811443209648132,-1.9869211355792444,0.0,0.13269823789596558,0.6358841061592102,-0.0,-0.04324713349342346,1.0753681659698486,-0.044787921011447906,-0.5628625154495239
232.0,639.0,-5.543,4.1282,6.9494,0.0192,-0.0075,-0.1378,-2.289543767968649,-0.07727210223674774,4.707062244415283,-1.4132442474365234,0.21186107397079468,2.3527698516845703,-0.5921446245959778,-0.18998539447784424,0.10453024506568909,-1.9869053999530237,0.0,0.12847712635993958,0.635919988155365,-0.0,-0.04190217703580856,1.0750726461410522,-0.049485307186841965,-0.6472707986831665
237.0,778.0,-6.061,3.2309,8.1386,0.0444,-0.3152,-0.0408,-2.290027757684225,-0.07242834568023682,4.722651481628418,-1.4120286703109741,0.20990976691246033,2.3582634925842285,-0.5933420819095154,-0.20183680951595306,0.10280830413103104,-1.9869053999530237,0.0,0.13018658757209778,0.6359315514564514,-0.0,-0.039571814239025116,1.0747802257537842,-0.051653385162353516,-0.605702817440033
237.0,778.0,-6.061,3.2309,8.1386,0.0444,-0.3152,-0.0408,-2.290676256219381,-0.0683104619383812,4.67124605178833,-1.4103721380233765,0.20368213951587677,2.317610263824463,-0.5952217143825074,-0.2394542545080185,0.07842095196247101,-1.9869211355792444,0.0,0.13868103921413422,0.6359195113182068,-0.0,-0.051916807889938354,1.0743485689163208,-0.05308723449707031,-0.5826089382171631
237.0,778.0,-6.061,3.2309,8.1386,0.0444,-0.3152,-0.0408,-2.2910148106017054,-0.06560005247592926,4.712274551391602,-1.4091525077819824,0.2013772875070572,2.348510265350342,-0.596730188732483,-0.24786661565303802,0.07694920897483826,-1.9869006315814417,0.0,0.12901513278484344,0.6358922123908997,-0.0,-0.04178523272275925,1.0740245580673218,-0.055995263159275055,-0.6075862050056458
237.0,778.0,-6.061,3.2309,8.1386,0.0444,-0.3152,-0.0408,-2.2914988003172816,-0.06227179244160652,4.685660362243652,-1.4075144529342651,0.2031184881925583,2.3684353828430176,-0.5989260834506531,-0.28923672437667847,0.05265336111187935,-1.9869735876666468,0.0,0.1389675736427307,0.6358320116996765,-0.0,-0.04918317124247551,1.0734962224960327,-0.06229763105511665,-0.602267324924469
237.0,778.0,-6.061,3.2309,8.1386,0.0444,-0.3152,-0.0408,-2.291842123071188,-0.058930736035108566,4.711824893951416,-1.4062269926071167,0.1993180811405182,2.3864176273345947,-0.600762740974762,-0.30399805307388306,0.05914914608001709,-1.9869292418109339,0.0,0.13223861157894135,0.6359119415283203,-0.0,-0.05199632793664932,1.0731362104415894,-0.06552423536777496,-0.5925763845443726
237.0,778.0,-6.061,3.2309,8.1386,0.0444,-0.3152,-0.0408,-2.292222639123434,-0.05769411846995354,4.727486610412598,-1.4050360918045044,0.1991063356399536,2.346304416656494,-0.6026238364032288,-0.3345296382904053,0.03884333372116089,-1.9868930021869105,0.0,0.12575604021549225,0.6358922123908997,-0.0,-0.046964749693870544,1.0727242231369019,-0.06582017242908478,-0.6094120144844055
237.0,778.0,-6.061,3.2309,8.1386,0.0444,-0.3152,-0.0408,-2.2926508388915003,-0.053901512175798416,4.723643779754639,-1.4034262895584106,0.19999922811985016,2.3370022773742676,-0.6054833692363282,-0.37905219197273254,0.01091800443828106,-1.9869416395770472,0.0,0.12121962010860443,0.6359236240386963,-0.0,-0.05156199261546135,1.0721805095672607,-0.06507425755262375,-0.6585115790367126
237.0,778.0,-6.061,3.2309,8.1386,0.0444,-0.3152,-0.0408,-2.292938371697897,-0.05058388039469719,4.758028030395508,-1.4022111892700195,0.2041584998369217,2.360443592071533,-0.6079318088344117,-0.39224597811698914,-0.0012346617877483368,-1.9869335333453577,0.0,0.15369543433189392,0.6358680725097656,-0.0,-0.05698252469301224,1.0717848539352417,-0.06391517072916031,-0.6392436623573303
237.0,778.0,-6.061,3.2309,8.1386,0.0444,-0.3152,-0.0408,-2.2933665714659632,-0.04893502593040466,4.7427754402160645,-1.4006092548370361,0.2042292058467865,2.359212636947632,-0.611122266655304,-0.4207954704761505,0.00539883878082037,-1.9869335333453577,0.0,0.13358375430107117,0.6358801126480103,-0.0,-0.050041764974594116,1.071232557296753,-0.06753340363502502,-0.6761883497238159
237.0,778.0,-6.061,3.2309,8.1386,0.0444,-0.3152,-0.0408,-2.2936788998045863,-0.04716050252318382,4.749730110168457,-1.3993498086929321,0.20486988127231598,2.382061004638672,-0.6138417285731812,-0.4509185552597046,0.009392829611897469,-1.9869335333453577,6.713690368087555e-07,0.14435803890228271,0.6358519196510315,-0.0,-0.05433657765388489,1.070776104927063,-0.07112939655780792,-0.6614823341369629
237.0,778.0,-6.061,3.2309,8.1386,0.0444,-0.3152,-0.0408,-2.2940670452513636,-0.044844385236501694,4.794866561889648,-1.3976560831069946,0.20589065551757812,2.444706678390503,-0.6175690454295655,-0.478485107421875,-0.00525954645127058,-1.986913029347555,1.2201802936095962e-11,0.14211231470108032,0.6358678340911865,-0.0,-0.05649914965033531,1.0702805519104004,-0.07392008602619171,-0.6777658462524414
237.0,778.0,-6.061,3.2309,8.1386,0.0444,-0.3152,-0.0408,-2.294302602807516,-0.04350513964891434,4.800493240356445,-1.396449089050293,0.20495069026947021,2.3682169914245605,-0.6204348367503663,-0.5004388689994812,-0.03520311042666435,-1.9868810812579554,3.3964168300325325e-15,0.12174509465694427,0.6358718276023865,-0.0,-0.07016307860612869,1.0697600841522217,-0.0732131227850914,-0.6832199692726135
237.0,778.0,-6.061,3.2309,8.1386,0.0444,-0.3152,-0.0408,-2.2945500812926234,-0.04239571839570999,4.760532379150391,-1.3952172994613647,0.20177634060382843,2.354043960571289,-0.6234299701503296,-0.5158834457397461,-0.022881437093019485,-1.98692495027651,9.454050914094394e-19,0.13394883275032043,0.635951578617096,-0.0,-0.05811656266450882,1.0693480968475342,-0.0724136158823967,-0.6574507355690002
240.0,820.0,-3.5312,3.3069,8.2678,-0.0027,-0.1684,-0.1063,-2.2948981724181117,-0.0403110608458519,4.806439399719238,-1.3935647010803223,0.2064618021249771,2.4525794982910156,-0.6276039046100159,-0.5299063324928284,-0.02013053372502327,-1.9868934790240687,1.7182270884483864e-23,0.1397542655467987,0.6359040141105652,-7.504417709469635e-08,-0.062206946313381195,1.06876802444458,-0.07453855872154236,-0.6315392851829529
240.0,820.0,-3.5312,3.3069,8.2678,-0.0027,-0.1684,-0.1063,-2.295117517510885,-0.037589509040117264,4.813730239868164,-1.3923652172088623,0.2103034257888794,2.430051565170288,-0.6307106179049988,-0.5284236669540405,-0.014819297939538956,-1.9869135061847132,4.782748882930309e-27,0.14329326152801514,0.6358481049537659,-2.088882018747018e-11,-0.0643010064959526,1.068328619003296,-0.0792975202202797,-0.6747445464134216
240.0,820.0,-3.5312,3.3069,8.2678,-0.0027,-0.1684,-0.1063,-2.2954904041686,-0.03744311258196831,4.816587924957275,-1.3906667232513428,0.2084825187921524,2.368213653564453,-0.6349951785853882,-0.5321844220161438,-0.013539338484406471,-1.9868891874896448,8.692410443610307e-32,0.1414809226989746,0.6359279751777649,-3.7964395213786045e-16,-0.06911558657884598,1.067732572555542,-0.08008498698472977,-0.7462573051452637
