ramyac6/ROB537/final_project/csv/good/good_227.csv
tof_0,tof_1,accelx,accely,accelz,gyrox,gyroy,gyroz,shoulder_lift_joint_position,shoulder_lift_joint_velocity,shoulder_lift_joint_effort,elbow_joint_position,elbow_joint_velocity,elbow_joint_effort,wrist_1_joint_position,wrist_1_joint_velocity,wrist_1_joint_effort,wrist_2_joint_position,wrist_2_joint_velocity,wrist_2_joint_effort,wrist_3_joint_position,wrist_3_joint_velocity,wrist_3_joint_effort,shoulder_pan_joint_position,shoulder_pan_joint_velocity,shoulder_pan_joint_effort
214.0,225.0,0.1352,4.2855,8.6004,-0.0389,0.0234,-0.1164,-1.8855372867979945,0.0,3.408303737640381,-1.5639455318450928,-0.0,2.1031250953674316,4.855490419059553,0.0,0.28806889057159424,-1.990821663533346,-0.0,0.04314468801021576,0.6841089725494385,0.0,-0.007565204985439777,0.8557010889053345,0.0,-0.025995803996920586
214.0,225.0,0.1352,4.2855,8.6004,-0.0389,0.0234,-0.1164,-1.8854648075499476,0.0,3.4667654037475586,-1.5638971328735352,-0.0,2.145028591156006,4.855462494283476,0.0,0.29187753796577454,-1.9908011595355433,-0.0,0.03972496837377548,0.6840848326683044,0.0,0.0005543329752981663,0.8556971549987793,0.0,0.004335906356573105
214.0,225.0,0.1352,4.2855,8.6004,-0.0389,0.0234,-0.1164,-1.8854686222472132,0.0,3.525150775909424,-1.563888669013977,-0.0,2.1505801677703857,4.855490433960714,0.0,0.2899475693702698,-1.9908135573016565,-0.0,0.036543987691402435,0.6840648651123047,0.0,0.008135441690683365,0.8556852340698242,0.0,-0.007953327149152756
214.0,225.0,0.1352,4.2855,8.6004,-0.0389,0.0234,-0.1164,-1.8855005703368128,0.0,3.4564173221588135,-1.5639011859893799,-0.0,2.1000277996063232,4.855498584895887,0.0,0.2919324040412903,-1.9907854239093226,-0.0,0.03452606871724129,0.6841011643409729,0.0,-0.0022269729524850845,0.8556851744651794,0.0,-0.028209175914525986
214.0,225.0,0.1352,4.2855,8.6004,-0.0389,0.0234,-0.1164,-1.8855248890318812,0.0,3.435014486312866,-1.5639207363128662,-0.0,2.1128039360046387,4.855522799282827,0.0,0.2823646664619446,-1.9907572905169886,-0.0,0.032428670674562454,0.6840851902961731,0.0,-0.0016260107513517141,0.8556610941886902,0.0,-0.0034088590182363987
214.0,225.0,0.1352,4.2855,8.6004,-0.0389,0.0234,-0.1164,-1.8854767284789027,0.0,3.429138422012329,-1.563888669013977,-0.0,2.07488751411438,4.855494516878881,0.0,0.2895745038986206,-1.9907649199115198,-0.0,0.04081244766712189,0.6841252446174622,0.0,0.0014658013824373484,0.8556891679763794,0.0,-0.0025654640048742294
211.0,227.0,0.186,4.3083,8.6046,-0.0374,0.0205,-0.1235,-1.8854967556395472,0.0,3.397315502166748,-1.5638971328735352,-0.0,2.1071836948394775,4.855494516878881,0.0,0.2929539084434509,-1.9907973448382776,-0.0,0.031180012971162796,0.6841046810150146,0.0,0.0017852307064458728,0.8556770086288452,0.0,0.009830405935645103
211.0,227.0,0.186,4.3083,8.6046,-0.0374,0.0205,-0.1235,-1.8855415783324183,0.0,3.4200642108917236,-1.5639094114303589,-0.0,2.088400363922119,4.855490866094389,0.0,0.2812621295452118,-1.990833584462301,-0.0,0.03899632766842842,0.6841289401054382,0.0,-0.010719014331698418,0.8556852340698242,0.0,-0.009492301382124424
211.0,227.0,0.186,4.3083,8.6046,-0.0374,0.0205,-0.1235,-1.885545393029684,0.0,3.4403812885284424,-1.5639331340789795,-0.0,2.079219102859497,4.855514618545332,0.0,0.2947915494441986,-1.9907930533038538,-0.0,0.038797810673713684,0.684185266494751,0.0,0.0003605801612138748,0.8557410836219788,0.0,-0.024531293660402298
211.0,227.0,0.186,4.3083,8.6046,-0.0374,0.0205,-0.1235,-1.885545393029684,0.0,3.434828996658325,-1.563908576965332,-0.0,2.0999057292938232,4.855478513031759,0.0,0.2845740020275116,-1.9907649199115198,-0.0,0.017737872898578644,0.684116780757904,0.0,0.006103252526372671,0.8556650280952454,0.0,-0.028792917728424072
211.0,227.0,0.186,4.3083,8.6046,-0.0374,0.0205,-0.1235,-1.8855210743346156,0.0,3.408527374267578,-1.563888669013977,2.6393695407023188e-06,2.1187822818756104,4.85551871636466,0.0,0.2854212522506714,-1.9907568136798304,-0.0,0.026681777089834213,0.6841130256652832,0.0,-0.005310441832989454,0.8556729555130005,0.0,-0.004910762421786785
211.0,227.0,0.186,4.3083,8.6046,-0.0374,0.0205,-0.1235,-1.885472913781637,0.0,3.4407763481140137,-1.563936471939087,8.551220441379431e-14,2.1127099990844727,4.855486351042547,0.0,0.27772676944732666,-1.9908011595355433,-0.0,0.02430245652794838,0.684076726436615,0.0,-0.00750080868601799,0.8556690216064453,0.0,-0.021682564169168472
211.0,227.0,0.186,4.3083,8.6046,-0.0374,0.0205,-0.1235,-1.8854648075499476,0.0,3.396371364593506,-1.5639445781707764,3.7169617551963294e-23,2.0783324241638184,4.855438309698858,0.0,0.2906910181045532,-1.990793530141012,-0.0,0.02830437570810318,0.68406081199646,0.0,-0.00799830537289381,0.8556690216064453,0.0,-0.06162231042981148
211.0,227.0,0.186,4.3083,8.6046,-0.0374,0.0205,-0.1235,-1.8854972324767054,0.0,3.3916144371032715,-1.5638930797576904,1.2042484472761697e-30,2.118678569793701,4.855474430113592,0.0,0.2815043032169342,-1.9907854239093226,-0.0,0.03725322335958481,0.6840689182281494,0.0,0.005504232365638018,0.8557050228118896,0.0,0.031039394438266754
211.0,227.0,0.186,4.3083,8.6046,-0.0374,0.0205,-0.1235,-1.8854967556395472,0.0,3.4432244300842285,-1.563961148262024,5.2345083745314244e-40,2.0955686569213867,4.855478513031759,0.0,0.284047931432724,-1.9907529989825647,-0.0,0.02674170956015587,0.6841008067131042,0.0,-0.0002209132071584463,0.855725109577179,0.0,0.025808891281485558
218.0,226.0,0.1364,4.2646,8.7171,-0.0443,0.0228,-0.117,-1.8854648075499476,0.0,3.4291372299194336,-1.5639413595199585,0.0,2.1356990337371826,4.855498271971502,0.0,0.274951308965683,-1.990793530141012,-0.0,0.04058895260095596,0.6841011643409729,0.0,0.01224509533494711,0.8557290434837341,0.0,0.01377155538648367
218.0,226.0,0.1364,4.2646,8.7171,-0.0443,0.0228,-0.117,-1.8854924641051234,0.0,3.4739344120025635,-1.563908576965332,2.2412055841414258e-05,2.1265127658843994,4.855502354889669,0.0,0.2907538414001465,-1.9907448927508753,-0.0,0.04111823812127113,0.6841289401054382,0.0,0.0041709719225764275,0.8557010889053345,0.0,-0.005061311647295952
218.0,226.0,0.1364,4.2646,8.7171,-0.0443,0.0228,-0.117,-1.8854686222472132,0.0,3.4091343879699707,-1.5639011859893799,2.9063790861982852e-05,2.091794013977051,4.855478513031759,0.0,0.2776133120059967,-1.990776840840475,-0.0,0.036371953785419464,0.6841011643409729,0.0,-0.005662762559950352,0.8556932210922241,0.0,0.018074948340654373
218.0,226.0,0.1364,4.2646,8.7171,-0.0443,0.0228,-0.117,-1.8855372867979945,0.0,3.4469056129455566,-1.5639528036117554,2.5023329726536758e-05,2.1089537143707275,4.855462509184637,0.0,0.2903482913970947,-1.9908135573016565,-0.0,0.03535789996385574,0.6841330528259277,0.0,-0.009084847755730152,0.8556852340698242,0.0,-0.04697325825691223
218.0,226.0,0.1364,4.2646,8.7171,-0.0443,0.0228,-0.117,-1.8855167828001917,0.0,3.418778896331787,-1.5638929605484009,2.2518899640999734e-05,2.08961820602417,4.855462509184637,0.0,0.29182034730911255,-1.9907854239093226,-0.0,0.03312785178422928,0.6840888857841492,0.0,-0.017833886668086052,0.8556812405586243,0.0,0.025357704609632492
218.0,226.0,0.1364,4.2646,8.7171,-0.0443,0.0228,-0.117,-1.8855248890318812,0.0,3.4328789710998535,-1.5639331340789795,2.0014929759781808e-05,2.089238166809082,4.8554182825382135,0.0,0.2794400155544281,-1.9907329718219202,-0.0,0.02961411327123642,0.6841249465942383,0.0,0.003173612058162689,0.8557010889053345,0.0,0.012965839356184006
218.0,226.0,0.1364,4.2646,8.7171,-0.0443,0.0228,-0.117,-1.8855167828001917,0.0,3.441908359527588,-1.5639207363128662,1.837992931541521e-05,2.113389015197754,4.855446594744482,0.0,0.2921358644962311,-1.990809742604391,-0.0,0.038103438913822174,0.684177041053772,0.0,-0.00021263616508804262,0.8556531667709351,0.0,0.07323794066905975
218.0,226.0,0.1364,4.2646,8.7171,-0.0443,0.0228,-0.117,-1.8855048618712367,0.0,3.452117443084717,-1.563916802406311,1.6677044186508283e-05,2.079298496246338,4.855458441167631,0.0,0.28296056389808655,-1.9907529989825647,-0.0,0.035880766808986664,0.6841089725494385,0.0,-0.005118215456604958,0.8556770086288452,0.0,0.029472144320607185
218.0,226.0,0.1364,4.2646,8.7171,-0.0443,0.0228,-0.117,-1.8854810200133265,0.0,3.433387041091919,-1.563961148262024,1.5526265997323208e-05,2.1014351844787598,4.85547066011981,0.0,0.2948814928531647,-1.9907811323748987,-0.0,0.044536903500556946,0.6840607523918152,0.0,-0.007595027331262827,0.8556531667709351,0.0,0.03485224023461342
218.0,226.0,0.1364,4.2646,8.7171,-0.0443,0.0228,-0.117,-1.8855534992613734,0.0,3.4431581497192383,-1.5638971328735352,1.4293390449893195e-05,2.1025965213775635,4.855446550040998,0.0,0.28976765275001526,-1.9908421675311487,-0.0,0.03697259724140167,0.6841211318969727,0.0,-0.007076148875057697,0.8556932210922241,0.0,0.04147464781999588
218.0,226.0,0.1364,4.2646,8.7171,-0.0443,0.0228,-0.117,-1.8855005703368128,0.0,3.4505257606506348,-1.5639207363128662,1.3439632311929017e-05,2.136974811553955,4.855478513031759,0.0,0.2949722409248352,-1.9907973448382776,-0.0,0.03603144362568855,0.6840808987617493,0.0,-0.009329451248049736,0.8556932210922241,0.0,0.015645824372768402
203.0,229.0,0.1184,4.2796,8.7691,-0.0319,0.0334,-0.1182,-1.8855005703368128,0.0,3.421792507171631,-1.5638805627822876,1.250591503776377e-05,2.1108052730560303,4.855450603156843,0.0,0.2947814464569092,-1.9907692114459437,-0.0,0.02659735083580017,0.6841248869895935,0.0,0.012086541391909122,0.8556729555130005,0.0,-0.0064125629141926765
203.0,229.0,0.1184,4.2796,8.7691,-0.0319,0.0334,-0.1182,-1.8854929409422816,0.0,3.4728360176086426,-1.5639166831970215,1.1847421774291433e-05,2.1239986419677734,4.855458396464147,0.0,0.28887903690338135,-1.990821663533346,-0.0,0.01816970482468605,0.6841411590576172,0.0,-0.008767533116042614,0.8556773066520691,0.0,-0.02082972228527069
203.0,229.0,0.1184,4.2796,8.7691,-0.0319,0.0334,-0.1182,-1.8855005703368128,0.0,3.4452977180480957,-1.563896894454956,1.1115804227301851e-05,2.0972137451171875,4.855482595949926,0.0,0.298000693321228,-1.9907735029803675,-0.0,0.033509813249111176,0.6841049790382385,0.0,0.005553808528929949,0.855725109577179,0.0,-0.0009392066858708858
203.0,229.0,0.1184,4.2796,8.7691,-0.0319,0.0334,-0.1182,-1.8854929409422816,0.0,3.461195945739746,-1.5638726949691772,1.0592505532258656e-05,2.1496009826660156,4.855514618545332,0.0,0.27813920378685,-1.9907248655902308,-0.0,0.03463783115148544,0.6841129660606384,0.0,-0.0031114118173718452,0.8556852340698242,0.0,0.038680125027894974
203.0,229.0,0.1184,4.2796,8.7691,-0.0319,0.0334,-0.1182,-1.8855048618712367,0.0,3.4857094287872314,-1.5638928413391113,1.0003826901083812e-05,2.1182847023010254,4.855482595949926,0.0,0.2783859074115753,-1.9907491842852991,-0.0,0.03295069932937622,0.6841089725494385,0.0,0.008105026558041573,0.8556971549987793,0.0,0.015132254920899868
203.0,229.0,0.1184,4.2796,8.7691,-0.0319,0.0334,-0.1182,-1.8855616054930628,0.0,3.4199795722961426,-1.5638487339019775,1.0939416961262133e-13,2.109574317932129,4.855466592102804,0.0,0.2822284400463104,-1.9908340612994593,-0.0,0.04472728818655014,0.6840890049934387,0.0,-0.004542181268334389,0.8556571006774902,0.0,0.0167346503585577
203.0,229.0,0.1184,4.2796,8.7691,-0.0319,0.0334,-0.1182,-1.8854886494078578,0.0,3.437188148498535,-1.5639052391052246,3.544232241274608e-21,2.141376256942749,4.855474430113592,0.0,0.2878556549549103,-1.9907649199115198,-0.0,0.023063646629452705,0.6840930581092834,0.0,0.0039792293682694435,0.8556891679763794,0.0,0.0481354221701622
203.0,229.0,0.1184,4.2796,8.7691,-0.0319,0.0334,-0.1182,-1.8855210743346156,0.0,3.4158267974853516,-1.5639166831970215,1.5405724273741167e-30,2.113131523132324,4.855430143862524,0.0,0.27592965960502625,-1.99078876176943,-0.0,0.039259232580661774,0.684084951877594,0.0,-0.0071115996688604355,0.8557330369949341,0.0,0.00791262462735176
203.0,229.0,0.1184,4.2796,8.7691,-0.0319,0.0334,-0.1182,-1.8855048618712367,0.0,3.478142738342285,-1.5639166831970215,4.991258095148051e-38,2.088012218475342,4.855490433960714,0.0,0.2943064272403717,-1.990793530141012,-0.0,0.02653259038925171,0.6841210126876831,0.0,-0.0017299833707511425,0.8556931614875793,0.0,0.00494745559990406
203.0,229.0,0.1184,4.2796,8.7691,-0.0319,0.0334,-0.1182,-1.8854972324767054,0.0,3.4438791275024414,-1.5639207363128662,0.0,2.143339157104492,4.855486351042547,0.0,0.29960140585899353,-1.9908011595355433,-0.0,0.03128223866224289,0.6841249465942383,0.0,-0.0005562528967857361,0.8556729555130005,0.0,0.031137512996792793
204.0,226.0,0.1896,4.3101,8.665,-0.0371,0.0321,-0.118,-1.8854848347105921,0.0,3.4341654777526855,-1.5639371871948242,-0.0,2.138411521911621,4.855454328447141,0.0,0.27644047141075134,-1.9907649199115198,-0.0,0.03497679531574249,0.684132993221283,0.0,-0.007457234431058168,0.8556891679763794,0.0,0.024497028440237045
204.0,226.0,0.1896,4.3101,8.665,-0.0371,0.0321,-0.118,-1.885569234887594,0.0,3.408155679702759,-1.563989520072937,-0.0,2.1001086235046387,4.855478513031759,0.0,0.28888022899627686,-1.9907649199115198,-0.0,0.028395475819706917,0.6840807795524597,0.0,0.0055130296386778355,0.855661153793335,0.0,-0.004749885760247707
204.0,226.0,0.1896,4.3101,8.665,-0.0371,0.0321,-0.118,-1.8855086765685023,0.0,3.4615607261657715,-1.5638805627822876,-0.0,2.0867347717285156,4.855414154916563,0.0,0.2900025546550751,-1.9907611052142542,-0.0,0.03137172386050224,0.6841168403625488,0.0,0.00025981711223721504,0.8557090759277344,0.0,0.00321029732003808
204.0,226.0,0.1896,4.3101,8.665,-0.0371,0.0321,-0.118,-1.8855372867979945,0.0,3.4464149475097656,-1.5639044046401978,-0.0,2.104984998703003,4.855510535627165,0.0,0.28918081521987915,-1.9907615820514124,-0.0,0.03957781195640564,0.6841089725494385,0.0,-0.0029276737477630377,0.8556971549987793,0.0,-0.023955335840582848
204.0,226.0,0.1896,4.3101,8.665,-0.0371,0.0321,-0.118,-1.8854848347105921,0.0,3.479182243347168,-1.5639526844024658,-0.0,2.133763551712036,4.855462509184637,0.0,0.279980331659317,-1.9908135573016565,-0.0,0.04087039828300476,0.6841812133789062,0.0,-0.009389806538820267,0.8556812405586243,0.0,0.0267696063965559
204.0,226.0,0.1896,4.3101,8.665,-0.0371,0.0321,-0.118,-1.8854929409422816,0.0,3.4496233463287354,-1.5639208555221558,-0.0,2.0987308025360107,4.855506437807836,0.0,0.28015390038490295,-1.9908011595355433,-0.0,0.025853104889392853,0.6840727925300598,0.0,-0.0029971799813210964,0.8556891679763794,0.0,0.010494539514183998
204.0,226.0,0.1896,4.3101,8.665,-0.0371,0.0321,-0.118,-1.8854886494078578,0.0,3.4602394104003906,-1.5639011859893799,-0.0,2.116825819015503,4.855498271971502,0.0,0.29938656091690063,-1.9907811323748987,-0.0,0.04550012946128845,0.6841011643409729,0.0,-0.010902768932282925,0.855661153793335,0.0,-0.005163273308426142
204.0,226.0,0.1896,4.3101,8.665,-0.0371,0.0321,-0.118,-1.8854767284789027,0.0,3.4597110748291016,-1.5639371871948242,-0.0,2.125823736190796,4.855494516878881,0.0,0.2769120931625366,-1.9907529989825647,-0.0,0.04271603375673294,0.6841129660606384,0.0,-0.004004234913736582,0.8557050824165344,0.0,0.0570375882089138
204.0,226.0,0.1896,4.3101,8.665,-0.0371,0.0321,-0.118,-1.8855005703368128,0.0,3.452099084854126,-1.563908576965332,-0.0,2.1102895736694336,4.855502354889669,0.0,0.2818368077278137,-1.9907448927508753,-0.0,0.03414331376552582,0.6841613054275513,0.0,-0.004995528608560562,0.855661153793335,0.0,-0.026023829355835915
204.0,226.0,0.1896,4.3101,8.665,-0.0371,0.0321,-0.118,-1.8854686222472132,0.0,3.437772512435913,-1.5639290809631348,-0.0,2.1004085540771484,4.855498584895887,0.0,0.288458913564682,-1.9907811323748987,-0.0,0.03892362117767334,0.6840970516204834,0.0,-0.011816844344139099,0.8556850552558899,0.0,0.05124862119555473
208.0,229.0,0.1418,4.3041,8.6722,-0.0301,0.0304,-0.1219,-1.8854767284789027,0.0,3.4326438903808594,-1.5638723373413086,-0.0,2.1110424995422363,4.855446520238676,0.0,0.28933221101760864,-1.9907448927508753,-0.0,0.02937062829732895,0.6840648651123047,0.0,-0.01611371897161007,0.8557255268096924,0.0,-0.00799860805273056
208.0,229.0,0.1418,4.3041,8.6722,-0.0301,0.0304,-0.1219,-1.8855048618712367,0.0,3.4454290866851807,-1.5639528036117554,-0.0,2.1223371028900146,4.855490433960714,0.0,0.2848719358444214,-1.9907735029803675,-0.0,0.033689260482788086,0.6840727925300598,0.0,0.003417507279664278,0.8557090163230896,0.0,-0.02547818049788475
208.0,229.0,0.1418,4.3041,8.6722,-0.0301,0.0304,-0.1219,-1.885472913781637,0.0,3.4377996921539307,-1.56392502784729,-0.0,2.084266185760498,4.855458441167631,0.0,0.3004401624202728,-1.9907329718219202,-0.0,0.037329282611608505,0.6840848922729492,0.0,0.001454940065741539,0.8557290434837341,0.0,-0.043739888817071915
208.0,229.0,0.1418,4.3041,8.6722,-0.0301,0.0304,-0.1219,-1.8854805431761683,0.0,3.441929817199707,-1.563916802406311,-0.0,2.110706329345703,4.855450290232458,0.0,0.29394081234931946,-1.9907930533038538,-0.0,0.03672732785344124,0.6840729713439941,0.0,0.004868129268288612,0.855657160282135,0.0,0.008315285667777061
208.0,229.0,0.1418,4.3041,8.6722,-0.0301,0.0304,-0.1219,-1.8855334721007289,0.0,3.441434383392334,-1.563896894454956,-0.0,2.1359617710113525,4.855470362096586,0.0,0.28061169385910034,-1.9908178488360804,-0.0,0.03695615753531456,0.6841369867324829,0.0,0.0005636549321934581,0.8556609749794006,0.0,0.00683626439422369
208.0,229.0,0.1418,4.3041,8.6722,-0.0301,0.0304,-0.1219,-1.885529180566305,0.0,3.4126243591308594,-1.5639413595199585,-0.0,2.1698622703552246,4.855466592102804,0.0,0.2780469059944153,-1.990776840840475,-0.0,0.034827668219804764,0.684044599533081,0.0,0.010226375423371792,0.8556646108627319,0.0,0.026701221242547035
208.0,229.0,0.1418,4.3041,8.6722,-0.0301,0.0304,-0.1219,-1.8855005703368128,0.0,3.4384560585021973,-1.5639166831970215,-0.0,2.0963003635406494,4.855462509184637,0.0,0.2909823954105377,-1.9907692114459437,-0.0,0.03762153908610344,0.6841249465942383,0.0,0.003288943087682128,0.8556770086288452,0.0,0.06898946315050125
208.0,229.0,0.1418,4.3041,8.6722,-0.0301,0.0304,-0.1219,-1.8855210743346156,0.0,3.452608585357666,-1.5639126300811768,-0.0,2.1040186882019043,4.855474892049589,0.0,0.28839245438575745,-1.9907973448382776,-0.0,0.026277903467416763,0.6841129660606384,0.0,-0.002938598860055208,0.8556809425354004,0.0,-0.021357253193855286
208.0,229.0,0.1418,4.3041,8.6722,-0.0301,0.0304,-0.1219,-1.8854686222472132,0.0,3.406658887863159,-1.5639371871948242,-0.0,2.1101021766662598,4.8554744003112695,0.0,0.2905336916446686,-1.99078876176943,-0.0,0.02674279734492302,0.6840970516204834,0.0,0.0039470563642680645,0.855648934841156,0.0,-0.017239652574062347
208.0,229.0,0.1418,4.3041,8.6722,-0.0301,0.0304,-0.1219,-1.8855048618712367,0.0,3.4516401290893555,-1.5639331340789795,-0.0,2.146085262298584,4.855478513031759,0.0,0.28567421436309814,-1.9907811323748987,-0.0,0.023537013679742813,0.6841050982475281,0.0,0.009974607266485691,0.8556687831878662,0.0,0.02592773735523224
202.0,225.0,0.1011,4.279,8.604,-0.0455,0.0257,-0.1194,-1.8854848347105921,0.0,3.4229023456573486,-1.5638608932495117,-0.0,2.0721700191497803,4.855470362096586,0.0,0.2979263365268707,-1.9907568136798304,-0.0,0.03089667484164238,0.6841369271278381,0.0,-0.005000465549528599,0.8556687831878662,0.0,-0.019009368494153023
202.0,225.0,0.1011,4.279,8.604,-0.0455,0.0257,-0.1194,-1.8854762516417445,0.0,3.4223504066467285,-1.5639206171035767,-0.0,2.119016647338867,4.855482283025541,0.0,0.2703142762184143,-1.9907692114459437,-0.0,0.03952654451131821,0.6840044856071472,0.0,0.00041550397872924805,0.8556650876998901,0.0,0.04050236940383911
202.0,225.0,0.1011,4.279,8.604,-0.0455,0.0257,-0.1194,-1.8855415783324183,0.0,3.419799327850342,-1.5639166831970215,-0.0,2.104085922241211,4.855502652912893,0.0,0.27614206075668335,-1.9907692114459437,-0.0,0.029194269329309464,0.6840848922729492,0.0,-0.011465729214251041,0.8556728363037109,0.0,0.04961397498846054
202.0,225.0,0.1011,4.279,8.604,-0.0455,0.0257,-0.1194,-1.885512491265768,0.0,3.478907823562622,-1.5639454126358032,-0.0,2.1067183017730713,4.8554584113653085,0.0,0.2879001200199127,-1.9907811323748987,-0.0,0.03408750146627426,0.6840930581092834,0.0,0.003686422249302268,0.8556646108627319,0.0,-0.01774970255792141
202.0,225.0,0.1011,4.279,8.604,-0.0455,0.0257,-0.1194,-1.8854567013182582,0.0,3.418079376220703,-1.5639166831970215,-0.0,2.07730770111084,4.855450618058004,0.0,0.28421616554260254,-1.9907649199115198,-0.0,0.03725619986653328,0.6841051578521729,0.0,-0.002347945934161544,0.8556891679763794,0.0,0.01132744736969471
202.0,225.0,0.1011,4.279,8.604,-0.0455,0.0257,-0.1194,-1.8855005703368128,0.0,3.4693808555603027,-1.5639286041259766,-0.0,2.116276264190674,4.855502638011732,0.0,0.28985095024108887,-1.9907649199115198,-0.0,0.046688616275787354,0.6841410994529724,0.0,-0.004869468044489622,0.8557090759277344,0.0,0.014981348067522049
202.0,225.0,0.1011,4.279,8.604,-0.0455,0.0257,-0.1194,-1.8855048618712367,0.0,3.4705615043640137,-1.5639369487762451,-0.0,2.0602056980133057,4.855494472175398,0.0,0.28697317838668823,-1.9908011595355433,-0.0,0.04389728605747223,0.6840808391571045,0.0,-0.013914115726947784,0.8556687831878662,0.0,0.033809006214141846
202.0,225.0,0.1011,4.279,8.604,-0.0455,0.0257,-0.1194,-1.8854848347105921,0.0,3.465052604675293,-1.5639410018920898,-0.0,2.0895283222198486,4.8554986146982095,0.0,0.2976875603199005,-1.990776840840475,-0.0,0.03509797155857086,0.6840970516204834,0.0,0.003083428367972374,0.8557415008544922,0.0,0.01033456064760685
202.0,225.0,0.1011,4.279,8.604,-0.0455,0.0257,-0.1194,-1.8855415783324183,0.0,3.4607925415039062,-1.5639405250549316,-0.0,2.1257896423339844,4.8554986146982095,0.0,0.2861480116844177,-1.9907930533038538,-0.0,0.04155901446938515,0.6840246319770813,0.0,0.005941871553659439,0.8557212948799133,0.0,-0.012577950954437256
202.0,225.0,0.1011,4.279,8.604,-0.0455,0.0257,-0.1194,-1.8854886494078578,0.0,3.44575572013855,-1.5639052391052246,-0.0,2.1015515327453613,4.855474430113592,0.0,0.2829643189907074,-1.9907448927508753,-0.0,0.03220086172223091,0.6840287446975708,0.0,-0.006256782915443182,0.8556406497955322,0.0,0.017024636268615723
206.0,224.0,0.1579,4.3041,8.6865,-0.0365,0.0205,-0.1168,-1.8854848347105921,0.0,3.4528090953826904,-1.5638809204101562,-0.0,2.0883891582489014,4.855470332294264,0.0,0.28820961713790894,-1.9908011595355433,-0.0,0.0352838933467865,0.6840649247169495,0.0,0.002327475929632783,0.8556770086288452,0.0,-0.0014455828350037336
206.0,224.0,0.1579,4.3041,8.6865,-0.0365,0.0205,-0.1168,-1.8854848347105921,0.0,3.482820510864258,-1.5639166831970215,-0.0,2.0975170135498047,4.855494516878881,0.0,0.27627381682395935,-1.9907649199115198,-0.0,0.04681510478258133,0.6841492056846619,0.0,0.00045790895819664,0.8557496666908264,0.0,-0.023218240588903427
206.0,224.0,0.1579,4.3041,8.6865,-0.0365,0.0205,-0.1168,-1.8855248890318812,0.0,3.4255146980285645,-1.5639212131500244,-0.0,2.077714443206787,4.8554464904363535,0.0,0.28429675102233887,-1.9907811323748987,-0.0,0.025893189013004303,0.6841210722923279,0.0,-0.0011461118701845407,0.8557373285293579,0.0,0.0012696506455540657
206.0,224.0,0.1579,4.3041,8.6865,-0.0365,0.0205,-0.1168,-1.8855167828001917,0.0,3.451615333557129,-1.563956379890442,-0.0,2.099867820739746,4.8554986146982095,0.0,0.2897067368030548,-1.990776840840475,-0.0,0.03519507497549057,0.6840649247169495,0.0,0.00457093957811594,0.8556850552558899,0.0,-0.06308629363775253
206.0,224.0,0.1579,4.3041,8.6865,-0.0365,0.0205,-0.1168,-1.885529180566305,0.0,3.4817233085632324,-1.563948392868042,-0.0,2.1182706356048584,4.8554866937692545,0.0,0.2990516424179077,-1.990737263356344,-0.0,0.03379416465759277,0.6841208934783936,0.0,0.0025292348582297564,0.8556610345840454,0.0,-0.035536881536245346
206.0,224.0,0.1579,4.3041,8.6865,-0.0365,0.0205,-0.1168,-1.8854848347105921,0.0,3.442126750946045,-1.563952922821045,-0.0,2.0991265773773193,4.855442407518186,0.0,0.29492706060409546,-1.9907811323748987,-0.0,0.02535424567759037,0.6841129660606384,0.0,-0.0006382889114320278,0.8556891679763794,0.0,-0.020484374836087227
206.0,224.0,0.1579,4.3041,8.6865,-0.0365,0.0205,-0.1168,-1.8854967556395472,0.0,3.466397523880005,-1.563952922821045,-0.0,2.0688962936401367,4.855454328447141,0.0,0.285581111907959,-1.9907730261432093,-0.0,0.03866984695196152,0.6841129660606384,0.0,-0.006216411478817463,0.8556933403015137,0.0,0.0069215730763971806
206.0,224.0,0.1579,4.3041,8.6865,-0.0365,0.0205,-0.1168,-1.8855248890318812,0.0,3.473796844482422,-1.5639251470565796,-0.0,2.1168787479400635,4.855458843498983,0.0,0.28325212001800537,-1.9907611052142542,-0.0,0.020728111267089844,0.6841329336166382,0.0,-0.018700435757637024,0.8556851148605347,0.0,-0.03592613339424133
206.0,224.0,0.1579,4.3041,8.6865,-0.0365,0.0205,-0.1168,-1.8854848347105921,0.0,3.4408648014068604,-1.563956379890442,-0.0,2.1340184211730957,4.855434256583013,0.0,0.29409199953079224,-1.9907730261432093,-0.0,0.03326619043946266,0.6841329336166382,0.0,-0.01119858119636774,0.8556728363037109,0.0,0.044185154139995575
206.0,224.0,0.1579,4.3041,8.6865,-0.0365,0.0205,-0.1168,-1.8855210743346156,0.0,3.434439182281494,-1.563956379890442,-0.0,2.148822784423828,4.855454671173849,0.0,0.2813824415206909,-1.9907973448382776,-0.0,0.030562179163098335,0.6841491460800171,0.0,-0.005059130489826202,0.8556770086288452,0.0,-0.03687717020511627
202.0,233.0,0.1561,4.3035,8.6231,-0.0328,0.0232,-0.1191,-1.8855005703368128,0.0,3.4254815578460693,-1.5639369487762451,-0.0,2.1092591285705566,4.85551871636466,0.0,0.2866431474685669,-1.990776840840475,-0.0,0.038977473974227905,0.6841089725494385,0.0,-0.004556740168482065,0.8557172417640686,0.0,0.0055690365843474865
202.0,233.0,0.1561,4.3035,8.6231,-0.0328,0.0232,-0.1191,-1.8855334721007289,0.0,3.419191360473633,-1.5639092922210693,-0.0,2.099109411239624,4.8554662493760965,0.0,0.26900410652160645,-1.9907811323748987,-0.0,0.03945545852184296,0.6840729713439941,0.0,0.006736459210515022,0.8556728363037109,0.0,-0.015949979424476624
202.0,233.0,0.1561,4.3035,8.6231,-0.0328,0.0232,-0.1191,-1.8854967556395472,0.0,3.4578709602355957,-1.5638887882232666,-0.0,2.125751256942749,4.855514618545332,0.0,0.2755860388278961,-1.9907649199115198,-0.0,0.047445956617593765,0.6841050982475281,0.0,-0.005229628644883633,0.8556563854217529,0.0,-0.033207572996616364
202.0,233.0,0.1561,4.3035,8.6231,-0.0328,0.0232,-0.1191,-1.8855248890318812,0.0,3.42218279838562,-1.5639369487762451,-0.0,2.060934543609619,4.855454328447141,0.0,0.2934037744998932,-1.9907692114459437,-0.0,0.03591015189886093,0.6840848922729492,0.0,-0.022954441606998444,0.855705201625824,0.0,0.01937195286154747
202.0,233.0,0.1561,4.3035,8.6231,-0.0328,0.0232,-0.1191,-1.885529180566305,0.0,3.4651999473571777,-1.56393301486969,-0.0,2.12499737739563,4.855494516878881,0.0,0.28923237323760986,-1.9907491842852991,-0.0,0.0337231308221817,0.6840929388999939,0.0,-0.010813666507601738,0.8556448221206665,0.0,-0.01675412617623806
202.0,233.0,0.1561,4.3035,8.6231,-0.0328,0.0232,-0.1191,-1.8854686222472132,0.0,3.444692611694336,-1.5639405250549316,-0.0,2.1154708862304688,4.8554584113653085,0.0,0.2812268137931824,-1.9907687346087855,-0.0,0.03719715774059296,0.6840890645980835,0.0,-0.007395364344120026,0.8557332754135132,0.0,0.020364906638860703
202.0,233.0,0.1561,4.3035,8.6231,-0.0328,0.0232,-0.1191,-1.8854805431761683,0.0,3.435108184814453,-1.563853144645691,-0.0,2.1171488761901855,4.855490433960714,0.0,0.29846611618995667,-1.9907811323748987,-0.0,0.03648282214999199,0.6840649247169495,0.0,0.0018959506414830685,0.8556850552558899,0.0,-0.029460487887263298
202.0,233.0,0.1561,4.3035,8.6231,-0.0328,0.0232,-0.1191,-1.885472913781637,0.0,3.4773080348968506,-1.5639127492904663,-0.0,2.0814435482025146,4.855474430113592,0.0,0.27993330359458923,-1.9907491842852991,-0.0,0.05072474479675293,0.6841050982475281,0.0,-0.001716507482342422,0.8556728363037109,0.0,0.01580808497965336
202.0,233.0,0.1561,4.3035,8.6231,-0.0328,0.0232,-0.1191,-1.8855167828001917,0.0,3.467466354370117,-1.5639052391052246,-0.0,2.097512722015381,4.855466592102804,0.0,0.28012168407440186,-1.9907248655902308,-0.0,0.03964543342590332,0.6841248273849487,0.0,0.0010268418118357658,0.8557131290435791,0.0,-0.010142853483557701
202.0,233.0,0.1561,4.3035,8.6231,-0.0328,0.0232,-0.1191,-1.8854648075499476,0.0,3.4701685905456543,-1.5639052391052246,-0.0,2.1116254329681396,4.855494516878881,0.0,0.2770078778266907,-1.9907367865191858,-0.0,0.02980445884168148,0.6840728521347046,0.0,0.0028202831745147705,0.8556770086288452,0.0,-0.010806971229612827
212.0,230.0,0.1424,4.3149,8.5962,-0.0386,0.0228,-0.1206,-1.885472913781637,0.0,3.3980162143707275,-1.5639444589614868,-0.0,2.112734317779541,4.855462151556768,0.0,0.28552332520484924,-1.9907973448382776,-0.0,0.0283376295119524,0.6840450167655945,0.0,-0.006426597945392132,0.8556770086288452,0.0,0.016323495656251907
212.0,230.0,0.1424,4.3149,8.5962,-0.0386,0.0228,-0.1206,-1.8854686222472132,0.0,3.4128522872924805,-1.5639489889144897,-0.0,2.0920662879943848,4.855490433960714,0.0,0.28582537174224854,-1.9907525221454065,-0.0,0.04157007858157158,0.6840930581092834,0.0,0.000671507092192769,0.8556850552558899,0.0,-0.0014381683431565762
212.0,230.0,0.1424,4.3149,8.5962,-0.0386,0.0228,-0.1206,-1.8855210743346156,0.0,3.438912868499756,-1.5639523267745972,-0.0,2.0915908813476562,4.855474430113592,0.0,0.28131595253944397,-1.9907811323748987,-0.0,0.03246024250984192,0.6841129660606384,0.0,-0.008204072713851929,0.8557255268096924,0.0,0.004985256120562553
212.0,230.0,0.1424,4.3149,8.5962,-0.0386,0.0228,-0.1206,-1.8854886494078578,0.0,3.434739589691162,-1.5639088153839111,-0.0,2.13435959815979,4.855518358736791,0.0,0.28019431233406067,-1.9908011595355433,-0.0,0.03117235377430916,0.6840569972991943,0.0,-0.005939753260463476,0.8557295799255371,0.0,-0.036131955683231354
212.0,230.0,0.1424,4.3149,8.5962,-0.0386,0.0228,-0.1206,-1.8855534992613734,0.0,3.483203172683716,-1.5639290809631348,-0.0,2.093554973602295,4.85547852793292,0.0,0.29031023383140564,-1.9907892386065882,-0.0,0.03431933745741844,0.6841288208961487,0.0,0.006374209653586149,0.8556891679763794,0.0,0.048099253326654434
212.0,230.0,0.1424,4.3149,8.5962,-0.0386,0.0228,-0.1206,-1.8855248890318812,0.0,3.414860248565674,-1.563893437385559,-0.0,2.1230032444000244,4.855458456068792,0.0,0.2821495831012726,-1.9907854239093226,-0.0,0.0313752256333828,0.6840609908103943,0.0,-0.0013020767364650965,0.8556728363037109,0.0,-0.0006972178816795349
212.0,230.0,0.1424,4.3149,8.5962,-0.0386,0.0228,-0.1206,-1.8854886494078578,0.0,3.451645612716675,-1.5639246702194214,-0.0,2.1084585189819336,4.855522918492117,0.0,0.29882922768592834,-1.990776840840475,-0.0,0.0482599213719368,0.6841049790382385,0.0,-0.00020139053231105208,0.8557093739509583,0.0,0.012079054489731789
212.0,230.0,0.1424,4.3149,8.5962,-0.0386,0.0228,-0.1206,-1.8855005703368128,0.0,3.435967445373535,-1.563893437385559,-0.0,2.0909438133239746,4.855478513031759,0.0,0.2835003435611725,-1.9908297697650355,-0.0,0.02405230700969696,0.6841129660606384,0.0,-0.004127349704504013,0.8557456135749817,0.0,0.011478481814265251
212.0,230.0,0.1424,4.3149,8.5962,-0.0386,0.0228,-0.1206,-1.8855005703368128,0.0,3.4231715202331543,-1.5639053583145142,-0.0,2.0467119216918945,4.855486663966932,0.0,0.28795987367630005,-1.9907692114459437,-0.0,0.03465353697538376,0.6841128468513489,0.0,-0.007797373924404383,0.8556126356124878,0.0,-0.049328986555337906
212.0,230.0,0.1424,4.3149,8.5962,-0.0386,0.0228,-0.1206,-1.885472913781637,0.0,3.4526658058166504,-1.563893437385559,-0.0,2.1228694915771484,4.855482610851087,0.0,0.28305721282958984,-1.990753475819723,-0.0,0.028340306133031845,0.6840888857841492,0.0,-0.00794706679880619,0.8556933403015137,0.0,-0.027522388845682144
212.0,237.0,0.2853,4.3753,8.3946,-0.0356,0.0341,-0.1226,-1.8854886494078578,0.0,3.439478874206543,-1.563976764678955,-0.0,2.1173577308654785,4.85547852793292,0.0,0.2923046350479126,-1.9907930533038538,-0.0,0.03142240270972252,0.6840689778327942,0.0,-0.004834002815186977,0.8556809425354004,0.0,0.02757592871785164
212.0,237.0,0.2853,4.3753,8.3946,-0.0356,0.0341,-0.1226,-1.8855048618712367,0.0,3.398632049560547,-1.5639444589614868,-0.0,2.075671911239624,4.855486678868093,0.0,0.2810421586036682,-1.9907735029803675,-0.0,0.038131825625896454,0.6841410994529724,0.0,-0.0019260147819295526,0.855705201625824,0.0,-0.005997390020638704
212.0,237.0,0.2853,4.3753,8.3946,-0.0356,0.0341,-0.1226,-1.8855210743346156,0.0,3.4487740993499756,-1.5638887882232666,-0.0,2.113311290740967,4.855482595949926,0.0,0.2931165099143982,-1.9907491842852991,-0.0,0.04477982968091965,0.6840891242027283,0.0,-0.001351914252154529,0.8557255268096924,0.0,0.002689417451620102
212.0,237.0,0.2853,4.3753,8.3946,-0.0356,0.0341,-0.1226,-1.8854767284789027,0.0,3.4176979064941406,-1.5639290809631348,-0.0,2.1184587478637695,4.855482581048765,0.0,0.29473838210105896,-1.9907572905169886,-0.0,0.034266307950019836,0.6841371059417725,0.0,-0.0068933372385799885,0.8556365966796875,0.0,0.008332395926117897
212.0,237.0,0.2853,4.3753,8.3946,-0.0356,0.0341,-0.1226,-1.8855005703368128,0.0,3.4392433166503906,-1.5638611316680908,-0.0,2.1061577796936035,4.855454388051786,0.0,0.28247779607772827,-1.9907568136798304,-0.0,0.04449158161878586,0.6840888857841492,0.0,0.004109736531972885,0.855640709400177,0.0,-0.07397177070379257
212.0,237.0,0.2853,4.3753,8.3946,-0.0356,0.0341,-0.1226,-1.8855048618712367,0.0,3.4272046089172363,-1.5639251470565796,-0.0,2.116387367248535,4.85547852793292,0.0,0.285641074180603,-1.9907692114459437,-0.0,0.025986703112721443,0.6841530799865723,0.0,0.0043774195946753025,0.8557093739509583,0.0,-0.013759041205048561
212.0,237.0,0.2853,4.3753,8.3946,-0.0356,0.0341,-0.1226,-1.8854972324767054,0.0,3.435203790664673,-1.563893437385559,-0.0,2.112621545791626,4.85547852793292,0.0,0.28883516788482666,-1.9908297697650355,-0.0,0.03333604335784912,0.6841371059417725,0.0,0.006384085863828659,0.8556850552558899,0.0,0.04078991338610649
212.0,237.0,0.2853,4.3753,8.3946,-0.0356,0.0341,-0.1226,-1.8855086765685023,0.0,3.4448401927948,-1.5639687776565552,-0.0,2.151858329772949,4.855458396464147,0.0,0.28734827041625977,-1.9907811323748987,-0.0,0.020895065739750862,0.6841371059417725,0.0,-0.004810502752661705,0.8556850552558899,0.0,0.024588817730545998
212.0,237.0,0.2853,4.3753,8.3946,-0.0356,0.0341,-0.1226,-1.885512491265768,0.0,3.4509856700897217,-1.563904881477356,-0.0,2.0917272567749023,4.855526539474287,0.0,0.28139016032218933,-1.9907854239093226,-0.0,0.052302487194538116,0.6840529441833496,0.0,-0.008877679705619812,0.8556933403015137,0.0,-0.055414773523807526
212.0,237.0,0.2853,4.3753,8.3946,-0.0356,0.0341,-0.1226,-1.8854767284789027,0.0,3.4232563972473145,-1.5638854503631592,-0.0,2.144730567932129,4.855474430113592,0.0,0.2898179888725281,-1.9907291571246546,-0.0,0.04809286445379257,0.6841288208961487,0.0,0.0002088231558445841,0.8556891679763794,0.0,-0.0008949097245931625
211.0,226.0,0.1424,4.2903,8.6889,-0.0389,0.0299,-0.1226,-1.8855048618712367,0.0,3.438826560974121,-1.56393301486969,-0.0,2.0926480293273926,4.855466592102804,0.0,0.28818807005882263,-1.9907930533038538,-0.0,0.03742292523384094,0.6840931177139282,0.0,0.0061301859095692635,0.8557255268096924,0.0,0.016413453966379166
211.0,226.0,0.1424,4.2903,8.6889,-0.0389,0.0299,-0.1226,-1.8854805431761683,0.0,3.4589004516601562,-1.5638854503631592,-0.0,2.0697731971740723,4.855506437807836,0.0,0.2865064740180969,-1.9907568136798304,-0.0,0.03255531191825867,0.6841129064559937,0.0,0.0016172395553439856,0.8556933403015137,0.0,-0.026238445192575455
211.0,226.0,0.1424,4.2903,8.6889,-0.0389,0.0299,-0.1226,-1.8855129681029261,0.0,3.405675172805786,-1.5638809204101562,-0.0,2.112565279006958,4.855502697616377,0.0,0.28928738832473755,-1.9907930533038538,-0.0,0.03855188190937042,0.6841050386428833,0.0,-0.008616050705313683,0.8557175397872925,0.0,-0.01310482807457447
211.0,226.0,0.1424,4.2903,8.6889,-0.0389,0.0299,-0.1226,-1.8855129681029261,0.0,3.4419503211975098,-1.5638973712921143,-0.0,2.0829670429229736,4.855470332294264,0.0,0.29048651456832886,-1.9907892386065882,-0.0,0.04090029373764992,0.6840448379516602,0.0,-0.01650726981461048,0.8556933403015137,0.0,0.0014550178311765194
211.0,226.0,0.1424,4.2903,8.6889,-0.0389,0.0299,-0.1226,-1.885529180566305,0.0,3.451079845428467,-1.56393301486969,-0.0,2.0878653526306152,4.855494516878881,0.0,0.28286927938461304,-1.9908254782306116,-0.0,0.041899606585502625,0.6840808391571045,0.0,-0.01916876807808876,0.8556609749794006,0.0,-0.01789030060172081
211.0,226.0,0.1424,4.2903,8.6889,-0.0389,0.0299,-0.1226,-1.885512491265768,0.0,3.4552688598632812,-1.5639092922210693,-0.0,2.0807158946990967,4.8554986146982095,0.0,0.28834208846092224,-1.99078876176943,-0.0,0.04410736635327339,0.6841009855270386,0.0,-0.008166293613612652,0.8557093739509583,0.0,-0.025981787592172623
211.0,226.0,0.1424,4.2903,8.6889,-0.0389,0.0299,-0.1226,-1.8855048618712367,0.0,3.4215917587280273,-1.5639369487762451,-0.0,2.0870747566223145,4.855482595949926,0.0,0.2978938817977905,-1.9907735029803675,-0.0,0.035315170884132385,0.6840930581092834,0.0,-0.0014417888596653938,0.8557010889053345,0.0,0.022320140153169632
211.0,226.0,0.1424,4.2903,8.6889,-0.0389,0.0299,-0.1226,-1.8855415783324183,0.0,3.4472217559814453,-1.5639206171035767,-0.0,2.101989269256592,4.855482595949926,0.0,0.27721697092056274,-1.9907854239093226,-0.0,0.04046614095568657,0.6840649843215942,0.0,-0.01139909029006958,0.8557255268096924,0.0,0.0034230779856443405
211.0,226.0,0.1424,4.2903,8.6889,-0.0389,0.0299,-0.1226,-1.8855048618712367,0.0,3.4535350799560547,-1.5638689994812012,-0.0,2.080050230026245,4.855474430113592,0.0,0.2778012156486511,-1.9907854239093226,-0.0,0.03221271559596062,0.6840769052505493,0.0,0.00043112467392347753,0.8556687235832214,0.0,-0.02638661488890648
211.0,226.0,0.1424,4.2903,8.6889,-0.0389,0.0299,-0.1226,-1.8855048618712367,0.0,3.4630143642425537,-1.5639523267745972,-0.0,2.122696876525879,4.855486351042547,0.0,0.2942867577075958,-1.9907410780536097,-0.0,0.04444442689418793,0.6841169595718384,0.0,-0.004616593010723591,0.855713427066803,0.0,0.0342838391661644
206.0,228.0,0.1549,4.2802,8.5508,-0.0333,0.0254,-0.1158,-1.8855167828001917,0.0,3.402397632598877,-1.5639052391052246,-0.0,2.123694896697998,4.855510535627165,0.0,0.2895783483982086,-1.9908011595355433,-0.0,0.029307015240192413,0.6841208934783936,0.0,-0.008957208134233952,0.8556891679763794,0.0,0.008389702998101711
206.0,228.0,0.1549,4.2802,8.5508,-0.0333,0.0254,-0.1158,-1.8854848347105921,0.0,3.426274299621582,-1.5638887882232666,-0.0,2.116814136505127,4.855474430113592,0.0,0.285678893327713,-1.990805451069967,-0.0,0.014638187363743782,0.6841089725494385,0.0,0.004066677298396826,0.855705201625824,0.0,-0.01561172865331173
206.0,228.0,0.1549,4.2802,8.5508,-0.0333,0.0254,-0.1158,-1.8854972324767054,0.0,3.430704116821289,-1.5639132261276245,-0.0,2.084725856781006,4.855494516878881,0.0,0.2854551672935486,-1.9907649199115198,-0.0,0.027750413864850998,0.6841169595718384,0.0,-0.010676296427845955,0.8556646108627319,0.0,0.021882962435483932
206.0,228.0,0.1549,4.2802,8.5508,-0.0333,0.0254,-0.1158,-1.8855210743346156,0.0,3.4430184364318848,-1.563956379890442,-0.0,2.1207432746887207,4.855490433960714,0.0,0.28489476442337036,-1.990809742604391,-0.0,0.03788846731185913,0.6841608285903931,0.0,-0.005603972356766462,0.8557131290435791,0.0,-0.005961286835372448
206.0,228.0,0.1549,4.2802,8.5508,-0.0333,0.0254,-0.1158,-1.8855048618712367,0.0,3.4609017372131348,-1.5639052391052246,-0.0,2.079514503479004,4.855470332294264,0.0,0.29424822330474854,-1.990833584462301,-0.0,0.027538340538740158,0.6840566992759705,0.0,-0.006729448214173317,0.8556728363037109,0.0,-0.02326197363436222
206.0,228.0,0.1549,4.2802,8.5508,-0.0333,0.0254,-0.1158,-1.885545393029684,0.0,3.438228130340576,-1.5638729333877563,-0.0,2.0891194343566895,4.855518746166982,0.0,0.2928190231323242,-1.9907692114459437,-0.0,0.04371665418148041,0.6841248869895935,0.0,0.0016846845392137766,0.8556728363037109,0.0,-0.03296665847301483
206.0,228.0,0.1549,4.2802,8.5508,-0.0333,0.0254,-0.1158,-1.8855005703368128,0.0,3.4076085090637207,-1.5639444589614868,-0.0,2.0850324630737305,4.855486336141386,0.0,0.2754848599433899,-1.9907611052142542,-0.0,0.0413161963224411,0.6841729283332825,0.0,-0.003417020197957754,0.8556687235832214,0.0,-0.016781454905867577
206.0,228.0,0.1549,4.2802,8.5508,-0.0333,0.0254,-0.1158,-1.8854967556395472,0.0,3.420856475830078,-1.563893437385559,-0.0,2.094451427459717,4.855462538986959,0.0,0.27322039008140564,-1.9907849470721644,-0.0,0.047342777252197266,0.6841129064559937,0.0,-0.0055868118070065975,0.8556928634643555,0.0,0.02403399720788002
206.0,228.0,0.1549,4.2802,8.5508,-0.0333,0.0254,-0.1158,-1.8855167828001917,0.0,3.4161133766174316,-1.563944935798645,-0.0,2.0903329849243164,4.855506437807836,0.0,0.28093069791793823,-1.9908211866961878,-0.0,0.03578714281320572,0.6841089129447937,0.0,-0.007934974506497383,0.855696976184845,0.0,0.002454848960042
214.0,224.0,0.1705,4.2843,8.4652,-0.048,0.0179,-0.12,-1.8855248890318812,0.0,3.417424440383911,-1.563936471939087,-0.0,2.0942864418029785,4.855506437807836,0.0,0.2801789343357086,-1.9908254782306116,-0.0,0.04074187949299812,0.6841168403625488,0.0,0.004308575298637152,0.855696976184845,0.0,-0.023183131590485573
214.0,224.0,0.1705,4.2843,8.4652,-0.048,0.0179,-0.12,-1.8854972324767054,4.798990718701823e-11,3.412778377532959,-1.5638532638549805,-0.0,2.108780860900879,4.8554826257522485,0.0,0.28246504068374634,-1.990805451069967,-2.6133845087983332e-11,0.033866286277770996,0.6841208934783936,0.0,-0.0015963634941726923,0.8557173013687134,0.00025142705999314785,-0.03303331509232521
214.0,224.0,0.1705,4.2843,8.4652,-0.048,0.0179,-0.12,-1.885501047173971,1.5548120029392533e-18,3.4479098320007324,-1.5638536214828491,2.767039930517967e-10,2.1075377464294434,4.855502354889669,0.0,0.28484994173049927,-1.9908297697650355,-4.749697017663495e-16,0.028199002146720886,0.6840970516204834,0.0,-0.00945180281996727,0.8556966781616211,0.00027312044403515756,0.018334563821554184
214.0,224.0,0.1705,4.2843,8.4652,-0.048,0.0179,-0.12,-1.8854767284789027,6.758305804938526e-28,3.4312496185302734,-1.5638848543167114,0.0010146063286811113,2.155061721801758,4.855538460403242,0.0,0.27955156564712524,-1.9908416906939905,-5.636300348624164e-22,0.03673509508371353,0.6840689778327942,0.0,-0.016124438494443893,0.8557209372520447,0.0002543260925449431,-0.021788757294416428
214.0,224.0,0.1705,4.2843,8.4652,-0.048,0.0179,-0.12,-1.8855415783324183,2.1896051797953978e-35,3.4548749923706055,-1.563845157623291,0.0012543962802737951,2.137935161590576,4.855470376997747,0.0,0.28792688250541687,-1.990821663533346,-1.0243699358709006e-26,0.04604996740818024,0.6841009855270386,0.0,0.006853060331195593,0.8557735681533813,0.0002465590077918023,0.0037963087670505047
214.0,224.0,0.1705,4.2843,8.4652,-0.048,0.0179,-0.12,-1.8855048618712367,9.80908925027372e-45,3.4330523014068604,-1.5638927221298218,0.0006971066468395293,2.135575771331787,4.855474445014753,7.107569532927016e-10,0.28543949127197266,-1.9908011595355433,-1.2155844387202878e-32,0.028837963938713074,0.6841568946838379,0.0,0.004291533958166838,0.8557329177856445,0.00024408282479271293,0.016857009381055832
214.0,224.0,0.1705,4.2843,8.4652,-0.048,0.0179,-0.12,-1.885512491265768,0.0,3.4364407062530518,-1.5638809204101562,0.0004831628466490656,2.1242122650146484,4.855466592102804,1.2917654786278026e-14,0.2824895679950714,-1.990776840840475,-2.209264513871323e-37,0.03153466433286667,0.6841449737548828,0.0,0.003423179965466261,0.855728805065155,0.00027963591855950654,0.02755998820066452
214.0,224.0,0.1705,4.2843,8.4652,-0.048,0.0179,-0.12,-1.8855654201903285,0.0,3.4185049533843994,-1.5638612508773804,0.00034922364284284413,2.088261127471924,4.855462524085798,1.5328934680030512e-20,0.2839198112487793,-1.9908130804644983,-2.620428128287408e-43,0.033383265137672424,0.6841169595718384,0.0,-0.010149748995900154,0.855793297290802,0.0007086301920935512,-0.009101071394979954
214.0,224.0,0.1705,4.2843,8.4652,-0.048,0.0179,-0.12,-1.8855167828001917,0.0,3.4188764095306396,-1.5638689994812012,9.464516188018024e-05,2.0988681316375732,4.855418297439375,2.785958429210827e-25,0.2892744839191437,-1.9908011595355433,-0.0,0.03406824544072151,0.6840729713439941,0.0,-0.003972209058701992,0.8558617830276489,0.001387388096190989,-0.03461810201406479
214.0,224.0,0.1705,4.2843,8.4652,-0.048,0.0179,-0.12,-1.88554110149526,0.0,3.4535603523254395,-1.5639132261276245,7.494017336284742e-05,2.0975425243377686,4.8554629413183115,3.306000043961659e-31,0.29509586095809937,-1.9908049742328089,-0.0,0.030468381941318512,0.6841169595718384,0.0,-0.005854226648807526,0.8558534383773804,0.002276564482599497,0.018237749114632607
213.0,227.0,0.0317,4.3549,8.5131,-0.0386,0.0431,-0.1124,-1.8855611286559046,0.0,3.484680414199829,-1.5638967752456665,3.212139563402161e-05,2.140197515487671,4.855483057885923,6.008491949803935e-36,0.28388237953186035,-1.9908416906939905,-0.0,0.040690064430236816,0.6840768456459045,0.0,-0.008225939236581326,0.8558734655380249,0.005430079996585846,-0.009554177522659302
213.0,227.0,0.0317,4.3549,8.5131,-0.0386,0.0431,-0.1124,-1.8855248890318812,0.0,3.455751419067383,-1.563857078552246,2.725662852753885e-05,2.1148977279663086,4.855442511826315,7.129806586484669e-42,0.2915911376476288,-1.9908250013934534,-0.0,0.025744404643774033,0.6841767430305481,0.0,-0.006432024762034416,0.8559693098068237,0.007121669594198465,0.02564515359699726
213.0,227.0,0.0317,4.3549,8.5131,-0.0386,0.0431,-0.1124,-1.8855415783324183,0.0,3.472374439239502,-1.5638889074325562,2.4311506422236562e-05,2.1013906002044678,4.855442511826315,0.0,0.28217846155166626,-1.9908173719989222,-0.0,0.02220798283815384,0.6841090321540833,0.0,0.0024173131678253412,0.8560173511505127,0.005449774209409952,-0.0081826476380229
213.0,227.0,0.0317,4.3549,8.5131,-0.0386,0.0431,-0.1124,-1.885569234887594,0.0,3.4234163761138916,-1.5638967752456665,2.1418592950794846e-05,2.044595241546631,4.855466592102804,0.0,0.28571662306785583,-1.9908412138568323,-0.0,0.030494239181280136,0.6841288208961487,0.0,-0.010698140598833561,0.8560494184494019,0.0041008018888533115,-0.006413776893168688
213.0,227.0,0.0317,4.3549,8.5131,-0.0386,0.0431,-0.1124,-1.8855606518187464,0.0,3.433745861053467,-1.563876986503601,1.955690277100075e-05,2.054553985595703,4.855422335654058,0.0,0.2844477891921997,-1.9908011595355433,-0.0,0.040059201419353485,0.6841011047363281,0.0,-0.012720409780740738,0.8560692667961121,0.0037942316848784685,0.0014326423406600952
213.0,227.0,0.0317,4.3549,8.5131,-0.0386,0.0431,-0.1124,-1.8855611286559046,0.0,3.4795737266540527,-1.5638213157653809,1.764031549100764e-05,2.1138083934783936,4.85546292641715,0.0,0.2824647128582001,-1.9908049742328089,-0.0,0.03367581591010094,0.6841089725494385,0.0,-0.016453063115477562,0.8561134934425354,0.002665645210072398,-0.008754836395382881
213.0,227.0,0.0317,4.3549,8.5131,-0.0386,0.0431,-0.1124,-1.8855329952635707,0.0,3.431489944458008,-1.5638887882232666,1.635783883102704e-05,2.111656904220581,4.855454775481977,0.0,0.2799845337867737,-1.9908092657672327,-0.0,0.04308706149458885,0.6841330528259277,0.0,-0.009820081293582916,0.8561093807220459,0.0014704662607982755,0.012275703251361847
213.0,227.0,0.0317,4.3549,8.5131,-0.0386,0.0431,-0.1124,-1.8855167828001917,0.0,3.4308345317840576,-1.5638771057128906,2.823878821800463e-05,2.0931344032287598,4.855438771634855,0.0,0.28597164154052734,-1.9908130804644983,-0.0,0.03775051236152649,0.6841168403625488,0.0,-0.008359992876648903,0.8561052680015564,0.0005512062925845385,-0.011648467741906643
213.0,227.0,0.0317,4.3549,8.5131,-0.0386,0.0431,-0.1124,-1.885557313958639,0.0,3.41483473777771,-1.5638498067855835,1.4058557098906022e-05,2.066711902618408,4.855406316905775,0.0,0.2961726188659668,-1.9908292929278772,-0.0,0.03131136670708656,0.6841089725494385,0.0,-0.008252264931797981,0.8560892343521118,0.0003698851796798408,0.010899266228079796
213.0,227.0,0.0317,4.3549,8.5131,-0.0386,0.0431,-0.1124,-1.8855530224242152,0.0,3.435482978820801,-1.5638571977615356,1.3039848454354797e-05,2.1153664588928223,4.855450588255682,0.0,0.2837328314781189,-1.9908211866961878,-0.0,0.031635865569114685,0.6841489672660828,0.0,-0.008149523288011551,0.8560610413551331,0.00026212973170913756,-0.005611050873994827
212.0,226.0,-0.0185,4.2867,9.1346,-0.0302,0.0432,-0.1092,-1.8855611286559046,0.0,3.447136878967285,-1.563884973526001,2.4651024432387203e-05,2.134937286376953,4.855434703617849,0.0,0.29155564308166504,-1.9908292929278772,-0.0,0.03244651108980179,0.6841410398483276,0.0,-0.0013829873641952872,0.8561659455299377,0.00021258954075165093,0.015307809226214886
212.0,226.0,-0.0185,4.2867,9.1346,-0.0302,0.0432,-0.1092,-1.8855892620482386,-3.5769016637487994e-09,3.4363441467285156,-1.5638333559036255,3.460481093497947e-05,2.107753276824951,4.855454775481977,0.0,0.2872547507286072,-1.9908130804644983,-0.0,0.03426029905676842,0.6841568946838379,0.0,-0.019741320982575417,0.8561375737190247,0.0001719666615827009,0.012149607762694359
212.0,226.0,-0.0185,4.2867,9.1346,-0.0302,0.0432,-0.1092,-1.8855725727477015,-1.1588707737639312e-16,3.4215543270111084,-1.5638213157653809,4.952187737217173e-05,2.0828919410705566,4.855442511826315,0.0,0.2827404737472534,-1.9908455053912562,-0.0,0.04126274213194847,0.6841011047363281,0.0,0.005295527633279562,0.8561617732048035,0.0001789916423149407,-0.03738987445831299
212.0,226.0,-0.0185,4.2867,9.1346,-0.0302,0.0432,-0.1092,-1.8855930767455042,-0.00040736020309850574,3.455550193786621,-1.5637736320495605,0.010876369662582874,2.1163623332977295,4.85546292641715,0.0,0.2881585359573364,-1.9908173719989222,-0.0,0.03403966501355171,0.6841171979904175,0.0,-0.009075239300727844,0.8561658263206482,0.0017210344085469842,0.010122554376721382
212.0,226.0,-0.0185,4.2867,9.1346,-0.0302,0.0432,-0.1092,-1.88562073330068,-0.001616293448023498,3.451770067214966,-1.5635974407196045,0.017263412475585938,2.124774217605591,4.855402666121282,0.0,0.2958846986293793,-1.9908130804644983,-0.0,0.04105950519442558,0.6841732859611511,4.688480506609416e-11,0.007184913381934166,0.8561975359916687,0.005104181822389364,0.011392243206501007
212.0,226.0,-0.0185,4.2867,9.1346,-0.0302,0.0432,-0.1092,-1.8856169186034144,-0.002044233726337552,3.4472496509552,-1.5634539127349854,0.021275416016578674,2.152228832244873,4.855434673815527,0.0,0.28778553009033203,-1.9908412138568323,-0.0,0.03780840337276459,0.6841650605201721,8.521081569160113e-16,-0.0031679547391831875,0.8562535047531128,0.006755197886377573,0.010418115183711052
212.0,226.0,-0.0185,4.2867,9.1346,-0.0302,0.0432,-0.1092,-1.8856731853880824,-0.002215065760537982,3.459690570831299,-1.5631741285324097,0.02301650494337082,2.189418315887451,4.855446594744482,0.0,0.28555911779403687,-1.9908455053912562,-0.0,0.04941430687904358,0.6841131448745728,1.0111674114059678e-21,-0.003331247251480818,0.8563339114189148,0.007757624611258507,0.030284911394119263
212.0,226.0,-0.0185,4.2867,9.1346,-0.0302,0.0432,-0.1092,-1.8856808147826136,-0.0010137418285012245,3.4691224098205566,-1.5629990100860596,0.020907260477542877,2.164409637451172,4.855442511826315,0.0,0.28549203276634216,-1.9908493200885218,-0.0,0.03478536009788513,0.684084951877594,1.837746542614402e-26,0.004257688764482737,0.8563898801803589,0.007872029207646847,0.04935050010681152
212.0,226.0,-0.0185,4.2867,9.1346,-0.0302,0.0432,-0.1092,-1.8856526813902796,-0.000571644224692136,3.4151124954223633,-1.562890648841858,0.01663925312459469,2.1458775997161865,4.855438354402342,0.0,0.29601550102233887,-1.9908493200885218,-0.0,0.027256693691015244,0.6841453909873962,2.1807901970201607e-32,-0.0033449754118919373,0.8564535975456238,0.008134549483656883,-0.0032107990700751543
212.0,226.0,-0.0185,4.2867,9.1346,-0.0302,0.0432,-0.1092,-1.8856975040831507,-0.000468455720692873,3.4300482273101807,-1.5626790523529053,0.0131381805986166,2.1016886234283447,4.855466592102804,0.0,0.2746213674545288,-1.9907973448382776,-0.0,0.03287065401673317,0.6840766668319702,3.963479211709205e-37,-0.004406230989843607,0.8565136790275574,0.008426908403635025,0.04106026887893677
212.0,229.0,-0.009,4.1982,8.5005,-0.0261,0.0199,-0.1164,-1.8857094250121058,-0.0003414822858758271,3.4493956565856934,-1.562551498413086,0.008567394688725471,2.1450815200805664,4.855478945165434,0.0,0.28514939546585083,-1.990809742604391,-1.0300532871099222e-08,0.03441004455089569,0.6840890645980835,4.708362840131385e-43,-0.00506293261423707,0.8565535545349121,0.007416559848934412,-0.040984224528074265
212.0,229.0,-0.009,4.1982,8.5005,-0.0261,0.0199,-0.1164,-1.8857132397093714,-0.00028063179343007505,3.4536068439483643,-1.562583327293396,0.004779144190251827,2.120810031890869,4.855434256583013,0.0,0.2914971113204956,-1.9908178488360804,-1.872070749288357e-13,0.03212907537817955,0.6841288805007935,0.0,-0.00764944264665246,0.8566178679466248,0.004935746546834707,-0.01082884706556797
212.0,229.0,-0.009,4.1982,8.5005,-0.0261,0.0199,-0.1164,-1.8856851063170375,-0.00022951175924390554,3.418729305267334,-1.5625191926956177,0.001504859421402216,2.142343044281006,4.855446594744482,0.0,0.28274327516555786,-1.9908092657672327,-2.2215217480061015e-19,0.029788486659526825,0.684076726436615,0.0,-0.0032674302347004414,0.8566137552261353,0.0029966942965984344,-0.0008821422234177589
212.0,229.0,-0.009,4.1982,8.5005,-0.0261,0.0199,-0.1164,-1.8856808147826136,-0.00020031984604429454,3.4343254566192627,-1.5625516176223755,0.0005926598678342998,2.1411752700805664,4.855438741832533,0.0,0.2745477557182312,-1.9908011595355433,-4.037506075474206e-24,0.021104538813233376,0.6840360760688782,0.0,0.0011459164088591933,0.8566819429397583,0.001730546704493463,-0.016720712184906006
212.0,229.0,-0.009,4.1982,8.5005,-0.0261,0.0199,-0.1164,-1.8856893978514613,-0.00019653819617815316,3.449326753616333,-1.5625355243682861,0.00035725676571018994,2.1070640087127686,4.855386349349775,0.0,0.2892482876777649,-1.9907448927508753,-4.7911686484148535e-30,0.03682177513837814,0.6841453909873962,0.0,0.006770553067326546,0.8566737174987793,0.0008967165485955775,-0.03267817199230194
212.0,229.0,-0.009,4.1982,8.5005,-0.0261,0.0199,-0.1164,-1.8856846294798792,-0.0001852797722676769,3.4627561569213867,-1.5625232458114624,0.0002711346896830946,2.1103503704071045,4.855442899256506,0.0,0.28164607286453247,-1.9907529989825647,-8.707713176006105e-35,0.037540502846241,0.6841012239456177,0.0,-0.010020533576607704,0.8566737174987793,0.0006307660951279104,0.015310753136873245
212.0,229.0,-0.009,4.1982,8.5005,-0.0261,0.0199,-0.1164,-1.8857089481749476,-0.0017155683599412441,3.399367332458496,-1.562551498413086,0.00016668617899995297,2.1316823959350586,4.855386334448614,-6.103824125602841e-05,0.3027403950691223,-1.9907649199115198,-1.0333174875931201e-40,0.025034092366695404,0.684088945388794,0.0,-0.0030832765623927116,0.8566737174987793,0.00048057350795716047,0.028875332325696945
212.0,229.0,-0.009,4.1982,8.5005,-0.0261,0.0199,-0.1164,-1.8857571087279261,-0.0019922906067222357,3.4318251609802246,-1.5625355243682861,0.0001406374794896692,2.122380256652832,4.85543059089736,-5.790185969090089e-05,0.2935679852962494,-1.990753475819723,-1.401298464324817e-45,0.036684922873973846,0.6841012239456177,0.0,-0.00084305414929986,0.8567060828208923,0.0003492632240522653,-0.057833462953567505
212.0,229.0,-0.009,4.1982,8.5005,-0.0261,0.0199,-0.1164,-1.8857366047301234,-0.0016928761033341289,3.4352736473083496,-1.562551498413086,0.00011765516683226451,2.1190037727355957,4.855422752886572,-6.52823073323816e-05,0.2794252038002014,-1.9907453695880335,-0.0,0.045152246952056885,0.6840766668319702,0.0,0.006567188538610935,0.8566576838493347,0.00026794904260896146,-0.13165035843849182
212.0,229.0,-0.009,4.1982,8.5005,-0.0261,0.0199,-0.1164,-1.8857690296568812,-0.001855204114690423,3.3955681324005127,-1.5625474452972412,0.00010405229113530368,2.1682353019714355,4.855402651220121,-7.196402293629944e-05,0.29829227924346924,-1.990765396748678,-0.0,0.04156016558408737,0.6840766668319702,0.0,-0.013499997556209564,0.8566456437110901,0.00018683048256207258,-0.09010770916938782
213.0,216.0,0.3129,4.5123,8.5573,-0.0206,0.0148,-0.1297,-1.8858047924437464,-0.0020456553902477026,3.3687939643859863,-1.562531590461731,9.091367246583104e-05,2.1655631065368652,4.855390432267942,-2.298412709933473e-06,0.28720542788505554,-1.9907496611224573,-0.0,0.04332228749990463,0.6840766668319702,0.0,-0.012022986076772213,0.8566776514053345,0.00015435459499713033,-0.09791632741689682
213.0,216.0,0.3129,4.5123,8.5573,-0.0206,0.0148,-0.1297,-1.8858453236021937,-0.0022948526311665773,3.429541826248169,-1.5625673532485962,2.1463967641466297e-05,2.1552860736846924,4.8554387269313715,-4.1772512532345374e-11,0.2799305021762848,-1.9907453695880335,-0.0,0.05951150506734848,0.6840360164642334,0.0,-0.004656395874917507,0.8566654324531555,0.00013573130127042532,-0.18715278804302216
213.0,216.0,0.3129,4.5123,8.5573,-0.0206,0.0148,-0.1297,-1.8858486614623011,-0.0020538291428238153,3.414353847503662,-1.5625276565551758,1.9177201465936378e-05,2.138422966003418,4.855422767787733,-4.956999927348961e-17,0.27702397108078003,-1.9907129446612757,-0.0,0.05454806238412857,0.6841250061988831,0.0,0.005676811560988426,0.8566737174987793,9.43549457588233e-05,-0.168590247631073
213.0,216.0,0.3129,4.5123,8.5573,-0.0206,0.0148,-0.1297,-1.885852952996725,-0.0014774451265111566,3.3835506439208984,-1.5625355243682861,3.534103962010704e-05,2.200394630432129,4.855390432267942,-9.00910253814723e-22,0.28496938943862915,-1.9908059279071253,-0.0,0.058930858969688416,0.6840565204620361,0.0,-0.0011794775491580367,0.8566620945930481,8.540147973690182e-05,-0.13578829169273376
213.0,216.0,0.3129,4.5123,8.5573,-0.0206,0.0148,-0.1297,-1.8858968220152796,-0.0016349118668586016,3.401669979095459,-1.562483549118042,3.218272468075156e-05,2.1830689907073975,4.8553703902061365,-1.0690789936009909e-27,0.2806871831417084,-1.990713898335592,0.00019964270177297294,0.06384258717298508,0.6841332316398621,0.0,0.002721135038882494,0.8566494584083557,5.725936352973804e-05,-0.19217751920223236
213.0,216.0,0.3129,4.5123,8.5573,-0.0206,0.0148,-0.1297,-1.8859206638731898,-0.0019769943319261074,3.3727054595947266,-1.5625555515289307,4.5043918362353e-05,2.196160078048706,4.855422723084249,-1.9429982692979693e-32,0.2753712832927704,-1.9907334486590784,0.00020349393889773637,0.06128647178411484,0.6841453313827515,0.0,-0.010872096754610538,0.8566576838493347,5.278195021674037e-05,-0.2522779703140259
213.0,216.0,0.3129,4.5123,8.5573,-0.0206,0.0148,-0.1297,-1.8859411678709925,-0.001985948532819748,3.4063892364501953,-1.5625038146972656,0.00020239807781763375,2.149003028869629,4.855438756733694,-2.3056886459286538e-38,0.2805853486061096,-1.9907177130328577,0.00022089728736318648,0.08428139984607697,0.6840807199478149,0.0,-0.006701134145259857,0.856661319732666,-3.032481254194863e-05,-0.20264631509780884
213.0,216.0,0.3129,4.5123,8.5573,-0.0206,0.0148,-0.1297,-1.8859688244261683,-0.0021815502550452948,3.3705081939697266,-1.5625191926956177,0.0007265830645337701,2.2294960021972656,4.855450677662649,-4.189882408331203e-43,0.27553561329841614,-1.990669075642721,0.00027359320665709674,0.0824483335018158,0.684113085269928,0.0,-0.004627447575330734,0.8566535115242004,-3.734607162186876e-05,-0.18753445148468018
213.0,216.0,0.3129,4.5123,8.5573,-0.0206,0.0148,-0.1297,-1.8859688244261683,-0.0019108798587694764,3.3352909088134766,-1.5624914169311523,0.0007615356589667499,2.1941826343536377,4.855398568301954,-0.0,0.2842364013195038,-1.9906609694110315,0.0002598888531792909,0.08323733508586884,0.6840847134590149,0.0,-0.006964490748941898,0.8566494584083557,-6.188681436469778e-05,-0.20585766434669495
213.0,216.0,0.3129,4.5123,8.5573,-0.0206,0.0148,-0.1297,-1.88596834758901,-0.0016928951954469085,3.3600258827209473,-1.562431812286377,0.0006383729632943869,2.172612190246582,4.85543059089736,-0.0,0.276680588722229,-1.9907015005694788,0.00021806941367685795,0.0955226793885231,0.6841208934783936,0.0,0.0001063075615093112,0.8566737174987793,-7.860094774514437e-05,-0.23417100310325623
212.0,218.0,0.1825,4.3196,8.522,-0.026,0.0224,-0.1194,-1.88596834758901,-0.0019617576617747545,3.3674445152282715,-1.5625513792037964,0.0004238678084220737,2.20760440826416,4.855410489230909,-0.0,0.272860586643219,-1.9906976858722132,0.00021166818623896688,0.09025782346725464,0.6841331720352173,0.0,-0.006001824978739023,0.8566576838493347,-0.0002420288510620594,-0.26329904794692993
212.0,218.0,0.1825,4.3196,8.522,-0.026,0.0224,-0.1194,-1.8860250912108363,-0.002191257430240512,3.330137014389038,-1.5625237226486206,0.0003339736140333116,2.224133253097534,4.8554589478071115,-0.0,0.2707233428955078,-1.9906652609454554,0.00019967019034083933,0.09289359301328659,0.6840970516204834,0.0,-0.0008083066204562783,0.856685996055603,-0.00019975088071078062,-0.2383151799440384
212.0,218.0,0.1825,4.3196,8.522,-0.026,0.0224,-0.1194,-1.8860284290709437,-0.0022695972584187984,3.379164218902588,-1.5625073909759521,0.0002639938029460609,2.2254977226257324,4.85543059089736,-0.0,0.2746768593788147,-1.990669075642721,0.00018573759007267654,0.0918557196855545,0.6840847134590149,0.0,0.0053887381218373775,0.8566617965698242,-0.00016346787742804736,-0.26866722106933594
212.0,218.0,0.1825,4.3196,8.522,-0.026,0.0224,-0.1194,-1.8860522709288539,-0.001922955852933228,3.3593297004699707,-1.5624834299087524,0.00021826178999617696,2.1932666301727295,4.85543059089736,-0.0,0.2793104946613312,-1.9906933943377894,0.00016451653209514916,0.09569771587848663,0.6841412782669067,0.0,-0.015317369252443314,0.8566778302192688,-0.0001383405178785324,-0.2588992714881897
212.0,218.0,0.1825,4.3196,8.522,-0.026,0.0224,-0.1194,-1.886080881158346,-0.0015693313907831907,3.3509669303894043,-1.5625157356262207,0.0002187024219892919,2.2491605281829834,4.855434673815527,-0.0,0.2720751166343689,-1.9906371275531214,0.00015073890972416848,0.09083054959774017,0.6841531991958618,0.0,-0.007601459976285696,0.8567180633544922,-0.00012319146480876952,-0.29925277829170227
212.0,218.0,0.1825,4.3196,8.522,-0.026,0.0224,-0.1194,-1.8860765896239222,-0.0011562802828848362,3.3858394622802734,-1.5624635219573975,0.00013738838606514037,2.2303733825683594,4.855410489230909,-0.0,0.2820529043674469,-1.9906733671771448,0.00012396022793836892,0.09350430220365524,0.6841815710067749,0.0,-0.013434349559247494,0.8567098379135132,-0.00010835917782969773,-0.29054468870162964
212.0,218.0,0.1825,4.3196,8.522,-0.026,0.0224,-0.1194,-1.886064191857809,-0.0010574754560366273,3.3684804439544678,-1.5625555515289307,0.00017015155754052103,2.2527947425842285,4.855406316905775,-0.0,0.26815104484558105,-1.9907096068011683,0.00010816310532391071,0.09188594669103622,0.6841049194335938,0.0,0.003538787132129073,0.8566535115242004,-9.883910388452932e-05,-0.3406755328178406
212.0,218.0,0.1825,4.3196,8.522,-0.026,0.0224,-0.1194,-1.8861447773375453,-0.0013636184157803655,3.3658833503723145,-1.5624873638153076,0.0005321967182680964,2.2274768352508545,4.855438771634855,-0.0,0.27503055334091187,-1.9906614462481897,0.00011582607839955017,0.1052042543888092,0.6840766668319702,0.0,-0.011233859695494175,0.856693685054779,-7.124693365767598e-05,-0.3161352872848511
212.0,218.0,0.1825,4.3196,8.522,-0.026,0.0224,-0.1194,-1.8861123524107875,-0.00197624578140676,3.337204694747925,-1.5624994039535522,0.0006474287947639823,2.277594566345215,4.85543059089736,-0.0,0.27902448177337646,-1.9906776587115687,0.00010671055497368798,0.10301142930984497,0.6841171979904175,0.0,-0.01192509476095438,0.8567060828208923,-6.602051144000143e-05,-0.33175915479660034
212.0,218.0,0.1825,4.3196,8.522,-0.026,0.0224,-0.1194,-1.8861566982665003,-0.003804622683674097,3.3747262954711914,-1.562491536140442,0.0006399175035767257,2.21575665473938,4.855434673815527,-0.0,0.284402072429657,-1.990624729787008,0.0001132822799263522,0.0976831242442131,0.6841412782669067,0.0,-0.016437798738479614,0.8567015528678894,-4.53646935056895e-05,-0.3373035788536072
213.0,230.0,0.0173,4.215,8.5101,-0.0464,0.0203,-0.1127,-1.886132379571432,-0.00484177190810442,3.3563060760498047,-1.5624476671218872,0.0013476398307830095,2.2271690368652344,4.855434256583013,-0.0,0.27863678336143494,-1.990624729787008,0.00012073013203917071,0.12144918739795685,0.6841250061988831,0.0,-0.0202823206782341,0.856693685054779,-4.2500701965764165e-05,-0.35149312019348145
213.0,230.0,0.0173,4.215,8.5101,-0.0464,0.0203,-0.1127,-1.8862487278380335,-0.0061888121999800205,3.3659191131591797,-1.5624114274978638,0.0022726089227944613,2.248063087463379,4.855406316905775,-0.0,0.26627117395401,-1.9906495253192347,0.0001958956418093294,0.1103661060333252,0.6841012239456177,0.0,0.0032706293277442455,0.8567139506340027,-3.9399805245921016e-05,-0.39329659938812256
213.0,230.0,0.0173,4.215,8.5101,-0.0464,0.0203,-0.1127,-1.886369367639059,-0.00756538612768054,3.344369411468506,-1.562415361404419,0.004838650114834309,2.256641387939453,4.855510952859678,-0.0,0.26082396507263184,-1.9905765692340296,0.0002000857493840158,0.12426716834306717,0.6841250061988831,0.0,0.0035979461390525103,0.856653094291687,-4.914159217150882e-05,-0.4404345750808716
213.0,230.0,0.0173,4.215,8.5101,-0.0464,0.0203,-0.1127,-1.8864003620543421,-0.011978541500866413,3.3249218463897705,-1.5623915195465088,0.007883626967668533,2.2622623443603516,4.85543833950118,-0.0,0.27231693267822266,-1.9905808607684534,0.000449125946033746,0.12963081896305084,0.6840766072273254,0.0,-0.020707059651613235,0.8567301630973816,-3.4826072806026787e-05,-0.4083239734172821
213.0,230.0,0.0173,4.215,8.5101,-0.0464,0.0203,-0.1127,-1.8865167103209437,-0.014638785272836685,3.31569242477417,-1.562375783920288,0.008495689369738102,2.252533435821533,4.855466592102804,-0.0,0.27409011125564575,-1.9906662146197718,0.0004492992302402854,0.11703784763813019,0.684145450592041,0.0,-0.002349337562918663,0.8567139506340027,-4.4156568037578836e-05,-0.46310335397720337
213.0,230.0,0.0173,4.215,8.5101,-0.0464,0.0203,-0.1127,-1.8866926632323207,-0.01939256116747856,3.3114867210388184,-1.562180519104004,0.010266268625855446,2.3102898597717285,4.855414587050237,-0.0,0.2780717611312866,-1.9905970732318323,0.00047320526209659874,0.12675592303276062,0.6840807199478149,0.0,-0.006371594034135342,0.856693685054779,-4.160507523920387e-05,-0.41876375675201416
213.0,230.0,0.0173,4.215,8.5101,-0.0464,0.0203,-0.1127,-1.8868481121458949,-0.023615648970007896,3.2339954376220703,-1.5620442628860474,0.01099415123462677,2.277071237564087,4.85547890046195,-0.0,0.25938737392425537,-1.9905970732318323,0.0004406425287015736,0.14707493782043457,0.6841012239456177,0.0,-0.0005378229543566704,0.8566977977752686,-3.9766771806171164e-05,-0.45637503266334534
213.0,230.0,0.0173,4.215,8.5101,-0.0464,0.0203,-0.1127,-1.8871165714659632,-0.03059278056025505,3.264089584350586,-1.561924695968628,0.013072356581687927,2.327319383621216,4.85543833950118,-0.0,0.2608407735824585,-1.9906414190875452,0.0003340502444189042,0.12739939987659454,0.6840847730636597,0.0,-0.011765766888856888,0.8567463159561157,-1.7285435235936397e-14,-0.44479483366012573
213.0,230.0,0.0173,4.215,8.5101,-0.0464,0.0203,-0.1127,-1.887416502038473,-0.03762782737612724,3.2094414234161377,-1.5618085861206055,0.015304218046367168,2.325815439224243,4.855462509184637,-0.0,0.2714630663394928,-1.9906094709979456,0.00030904210871085525,0.1520010232925415,0.6840684413909912,0.0,0.0018634945154190063,0.8567661046981812,-5.600260133763875e-22,-0.5164247155189514
213.0,230.0,0.0173,4.215,8.5101,-0.0464,0.0203,-0.1127,-1.8878003559508265,-0.04556509479880333,3.2226901054382324,-1.5616251230239868,0.01870039850473404,2.3364598751068115,4.855410489230909,-0.0,0.2615501582622528,-1.9905889670001429,0.0002799473295453936,0.1411348432302475,0.684104859828949,0.0,0.004521504044532776,0.8567098379135132,-2.43426659892858e-31,-0.4799744784832001
211.0,236.0,0.0221,4.206,8.6788,-0.0235,-0.0208,-0.1086,-1.8882361851134242,-0.0524267852306366,3.289602279663086,-1.561517596244812,0.022375745698809624,2.3034913539886475,4.855394544988432,-0.0,0.2682596445083618,-1.9906495253192347,0.0002379549405304715,0.14094278216362,0.68409663438797,0.0,-0.013835664838552475,0.8567583560943604,-7.886716550691255e-39,-0.5142824649810791
211.0,236.0,0.0221,4.206,8.6788,-0.0235,-0.0208,-0.1086,-1.8887559376158656,-0.06205599009990692,3.1943273544311523,-1.561281681060791,0.027391904965043068,2.2960240840911865,4.855426493078031,-0.0,0.27718162536621094,-1.9905932585345667,0.00020015066547784954,0.13485559821128845,0.6841453909873962,0.0,0.00033032780629582703,0.8567339181900024,-2.7864429513746458e-14,-0.5062040090560913
211.0,236.0,0.0221,4.206,8.6788,-0.0235,-0.0208,-0.1086,-1.8892470798888148,-0.06756061315536499,3.1963002681732178,-1.5610145330429077,0.03194108232855797,2.3308944702148438,4.855442541628637,-0.0,0.26576903462409973,-1.9906213919269007,0.00020294258138164878,0.13548505306243896,0.6840806603431702,0.0,-0.005219378508627415,0.8567218780517578,-9.027720160381424e-22,-0.5182865858078003
211.0,236.0,0.0221,4.206,8.6788,-0.0235,-0.0208,-0.1086,-1.889947076837057,-0.06700446456670761,3.261615753173828,-1.56062650680542,0.03839152306318283,2.3862881660461426,4.855454671173849,-0.0,0.26302316784858704,-1.99060565630068,0.00017787874094210565,0.1347145438194275,0.6840972304344177,0.0,-0.0013114952016621828,0.8567583560943604,-3.9240813212935124e-31,-0.48166120052337646
211.0,236.0,0.0221,4.206,8.6788,-0.0235,-0.0208,-0.1086,-1.8905307255186976,-0.07448602467775345,3.2371532917022705,-1.560347080230713,0.03976583108305931,2.3612728118896484,4.855442511826315,-0.0,0.26639458537101746,-1.9905851523028772,0.00016188056906685233,0.14526909589767456,0.6841495633125305,0.0,0.0025027780793607235,0.8567259907722473,-1.271352274222123e-38,-0.5274264812469482
211.0,236.0,0.0221,4.206,8.6788,-0.0235,-0.0208,-0.1086,-1.8913103542723597,-0.08762556314468384,3.2121777534484863,-1.5599164962768555,0.04300246015191078,2.383744955062866,4.855446624546804,-0.0,0.26652321219444275,-1.990617577229635,0.0001141349202953279,0.1378009170293808,0.6841167211532593,0.0,0.00027193804271519184,0.8567218780517578,0.0,-0.5099673271179199
211.0,236.0,0.0221,4.206,8.6788,-0.0235,-0.0208,-0.1086,-1.8920055828490199,-0.08918508887290955,3.201422929763794,-1.5594807863235474,0.04951242730021477,2.3464548587799072,4.85545468607501,-0.0,0.2679293751716614,-1.9906013647662562,0.0001036073881550692,0.1474013775587082,0.6840888857841492,0.0,-0.010259252972900867,0.8567542433738708,0.0,-0.4952332377433777
211.0,236.0,0.0221,4.206,8.6788,-0.0235,-0.0208,-0.1086,-1.8929058514037074,-0.08917716890573502,3.1388051509857178,-1.558912992477417,0.06303105503320694,2.3656625747680664,4.85543059089736,-0.0,0.2656160891056061,-1.9906294981585901,9.291115566156805e-05,0.13852275907993317,0.6840606331825256,0.0,-0.004563043359667063,0.8567380309104919,0.0,-0.5164389610290527
211.0,236.0,0.0221,4.206,8.6788,-0.0235,-0.0208,-0.1086,-1.8936768970885218,-0.09316614270210266,3.1971166133880615,-1.558389663696289,0.06998074054718018,2.4217686653137207,4.85543059089736,-0.0,0.28638985753059387,-1.9906294981585901,8.582307054894045e-05,0.13592225313186646,0.6840807199478149,0.0,0.002712026471272111,0.8567422032356262,0.0,-0.5259400010108948
211.0,236.0,0.0221,4.206,8.6788,-0.0235,-0.0208,-0.1086,-1.8946525059142054,-0.1059725433588028,3.1570329666137695,-1.5576157569885254,0.0768851786851883,2.372844934463501,4.855450677662649,-0.0,0.27013152837753296,-1.9906089941607874,6.268228753469884e-05,0.14543010294437408,0.6841453909873962,0.0,-0.003072630614042282,0.8567500710487366,0.0,-0.5179840922355652
193.0,234.0,-0.0293,4.1498,8.8905,-0.0394,0.0206,-0.1208,-1.8954397640623988,-0.10655063390731812,3.217487335205078,-1.556968092918396,0.08112560212612152,2.383150100708008,4.85543059089736,-0.0,0.2733798921108246,-1.9906252066241663,5.859986413270235e-05,0.1233777403831482,0.6841373443603516,0.0,-0.012797464616596699,0.8567298054695129,0.0,-0.5206579566001892
193.0,234.0,-0.0293,4.1498,8.8905,-0.0394,0.0206,-0.1208,-1.8965751133360804,-0.11020351946353912,3.1675615310668945,-1.5561226606369019,0.08893298357725143,2.396773338317871,4.8554584113653085,-2.07608041868923e-10,0.282381534576416,-1.9906171003924769,5.418946602731012e-05,0.13369765877723694,0.6840888857841492,0.0,0.003091891296207905,0.8567583560943604,0.0,-0.47530245780944824
193.0,234.0,-0.0293,4.1498,8.8905,-0.0394,0.0206,-0.1208,-1.897574087182516,-0.11607827246189117,3.1909475326538086,-1.5550951957702637,0.10277551412582397,2.3899097442626953,4.85549088099555,-2.4636127971436697e-16,0.2628006637096405,-1.9906252066241663,5.039648021920584e-05,0.12843100726604462,0.6841012239456177,0.0,-0.0006558203604072332,0.8567900657653809,0.0,-0.44198936223983765
193.0,234.0,-0.0293,4.1498,8.8905,-0.0394,0.0206,-0.1208,-1.8986221752562464,-0.12146451324224472,3.202901840209961,-1.5542187690734863,0.10833906382322311,2.394440174102783,4.855450588255682,-4.477494728419727e-21,0.28276389837265015,-1.990600887929098,4.7724111936986446e-05,0.12302849441766739,0.684133768081665,0.0,0.008451061323285103,0.8566895127296448,0.0,-0.44867175817489624
193.0,234.0,-0.0293,4.1498,8.8905,-0.0394,0.0206,-0.1208,-1.8998133144774378,-0.11801200360059738,3.240816593170166,-1.5530792474746704,0.12249234318733215,2.4509310722351074,4.855474892049589,-5.313287501012583e-27,0.26229238510131836,-1.9906252066241663,4.4757427531294525e-05,0.12030162662267685,0.6840689182281494,0.0,-0.009869549423456192,0.8567139506340027,0.0,-0.45518815517425537
193.0,234.0,-0.0293,4.1498,8.8905,-0.0394,0.0206,-0.1208,-1.9007522068419398,-0.1152285560965538,3.22511625289917,-1.5521094799041748,0.12367161363363266,2.4025611877441406,4.8554866937692545,-9.656637896736708e-32,0.2798337936401367,-1.9905970732318323,4.263708251528442e-05,0.11644688993692398,0.6841166615486145,0.0,0.008191772736608982,0.8567256927490234,0.0,-0.5026026368141174
193.0,234.0,-0.0293,4.1498,8.8905,-0.0394,0.0206,-0.1208,-1.9019514522948207,-0.13206905126571655,3.22866153717041,-1.5508244037628174,0.12826403975486755,2.4401752948760986,4.855474847346105,-1.1459197785768965e-37,0.2740047574043274,-1.9906209150897425,4.025337693747133e-05,0.12350135296583176,0.684084951877594,0.0,-0.00026275438722223043,0.8567301630973816,0.0,-0.43961960077285767
193.0,234.0,-0.0293,4.1498,8.8905,-0.0394,0.0206,-0.1208,-1.9030591450133265,-0.14174267649650574,3.222174644470215,-1.5497939586639404,0.13938987255096436,2.4597527980804443,4.855454671173849,-2.0823295179866782e-42,0.26705655455589294,-1.9906132856952112,1.1080777184702129e-08,0.11666323989629745,0.6840525269508362,0.0,-0.01227030623704195,0.8567177653312683,0.0,-0.4349706172943115
193.0,234.0,-0.0293,4.1498,8.8905,-0.0394,0.0206,-0.1208,-1.9044786892332972,-0.1377728283405304,3.2314696311950684,-1.5482145547866821,0.15824994444847107,2.512641191482544,4.855490433960714,-0.0,0.2652502954006195,-1.9906209150897425,1.3149175148783991e-14,0.11491259932518005,0.6840929985046387,0.0,-0.008174771443009377,0.8567057251930237,0.0,-0.4038831889629364
193.0,234.0,-0.0293,4.1498,8.8905,-0.0394,0.0206,-0.1208,-1.9056374035277308,-0.12500818073749542,3.1856307983398438,-1.546908974647522,0.1721591204404831,2.4859485626220703,4.855438294797697,-0.0,0.270341157913208,-1.9906452337848108,2.389797684957178e-19,0.12350591272115707,0.6840807199478149,0.0,-0.00790551770478487,0.8567218780517578,0.0,-0.37673547863960266
190.0,232.0,0.1932,4.2814,10.0373,-0.0519,0.0788,-0.1122,-1.907020708123678,-0.13692732155323029,3.2425007820129395,-1.5452224016189575,0.17202973365783691,2.4613444805145264,4.855422335654058,-0.0,0.2767108082771301,-1.9906938711749476,2.8358898732448567e-25,0.11786811053752899,0.6841049194335938,0.0,-0.009941969998180866,0.8567380309104919,0.0,-0.444860577583313
190.0,232.0,0.1932,4.2814,10.0373,-0.0519,0.0788,-0.1122,-1.908208509484762,-0.16120657324790955,3.271029472351074,-1.5438885688781738,0.1756364405155182,2.457998514175415,4.855454671173849,-0.00015602383064106107,0.2660024166107178,-1.9906333128558558,5.1540905862086304e-30,0.10808619856834412,0.6840888857841492,0.0,-0.008208244107663631,0.8567177653312683,0.0,-0.41955336928367615
190.0,232.0,0.1932,4.2814,10.0373,-0.0519,0.0788,-0.1122,-1.9098183117308558,-0.17138250172138214,3.1705093383789062,-1.5419317483901978,0.19511280953884125,2.506641387939453,4.8554584113653085,-2.7934167519561015e-05,0.27368688583374023,-1.9905808607684534,6.116180907218606e-36,0.11723428219556808,0.6841250061988831,0.0,0.005739398766309023,0.8567019104957581,0.0,-0.42349761724472046
190.0,232.0,0.1932,4.2814,10.0373,-0.0519,0.0788,-0.1122,-1.9111257992186488,-0.14667116105556488,3.277873992919922,-1.54032301902771,0.2057262659072876,2.4561574459075928,4.855470332294264,-5.076896680833443e-10,0.2796681523323059,-1.9906252066241663,1.1115800068256611e-40,0.10450834035873413,0.6840646862983704,0.0,-0.0032708775252103806,0.8567098379135132,0.0,-0.3247939348220825
190.0,232.0,0.1932,4.2814,10.0373,-0.0519,0.0788,-0.1122,-1.9126445255675257,-0.13882862031459808,3.2903409004211426,-1.5382517576217651,0.22950135171413422,2.515200614929199,4.855394485383787,-6.024577953278967e-16,0.28046852350234985,-1.9906657377826136,-1.628213249205146e-05,0.11658119410276413,0.684128999710083,0.0,0.0012328136945143342,0.8567941188812256,0.0,-0.3732396960258484
190.0,232.0,0.1932,4.2814,10.0373,-0.0519,0.0788,-0.1122,-1.9138676128783167,-0.1614047735929489,3.2893872261047363,-1.5364946126937866,0.22900941967964172,2.5358428955078125,4.855394589691915,-0.0014545917510986328,0.26315656304359436,-1.9905889670001429,-8.459847578023982e-08,0.1221495047211647,0.6840725541114807,0.0,0.004386169370263815,0.8567665815353394,0.0,-0.3740794062614441
190.0,232.0,0.1932,4.2814,10.0373,-0.0519,0.0788,-0.1122,-1.9155789814391078,-0.18831820785999298,3.2101502418518066,-1.5342015027999878,0.22704367339611053,2.5087356567382812,4.855466592102804,-0.00014589508646167815,0.27240270376205444,-1.9906538168536585,-1.0039011451561802e-13,0.12086932361125946,0.6840565800666809,0.0,-0.004547631833702326,0.8566652536392212,0.0,-0.4425428509712219
190.0,232.0,0.1932,4.2814,10.0373,-0.0519,0.0788,-0.1122,-1.9169703922667445,-0.17032423615455627,3.240478515625,-1.532313346862793,0.2453211098909378,2.5679569244384766,4.855434256583013,-4.9906159205193035e-09,0.28618499636650085,-1.9906333128558558,-1.824540608044193e-18,0.12024037539958954,0.6840566396713257,0.0,-0.0010759378783404827,0.8567057251930237,0.0,-0.398197740316391
190.0,232.0,0.1932,4.2814,10.0373,-0.0519,0.0788,-0.1122,-1.9186045132079066,-0.14691269397735596,3.2717690467834473,-1.5297437906265259,0.257234662771225,2.5241243839263916,4.85545069256381,-5.9221913634719455e-15,0.27599725127220154,-1.9906209150897425,-2.1651194733831673e-24,0.11542518436908722,0.6840806007385254,0.0,-0.00954524613916874,0.8566776514053345,-0.0006018579588271677,-0.3845728039741516
190.0,232.0,0.1932,4.2814,10.0373,-0.0519,0.0788,-0.1122,-1.9198352299132289,-0.15795014798641205,3.232753038406372,-1.5276721715927124,0.2649347186088562,2.584089756011963,4.855374413519659,-1.0763291578881042e-19,0.28363925218582153,-1.9906294981585901,-3.934998372428469e-29,0.11464428901672363,0.6840688586235046,0.0,-0.007991173304617405,0.8567019104957581,-0.00023560920089948922,-0.369754821062088
189.0,212.0,0.4175,4.5523,9.4977,-0.0586,0.1266,-0.1759,-1.921542306939596,-0.1775878667831421,3.2692689895629883,-1.5249971151351929,0.26152530312538147,2.561906576156616,4.855410951166906,-1.2772427194910772e-25,0.2659354507923126,-1.990629021321432,-4.669526182778022e-35,0.11100251972675323,0.6840606331825256,0.0,-0.002413652604445815,0.8567180633544922,-0.00016395658894907683,-0.3920697569847107
189.0,212.0,0.4175,4.5523,9.4977,-0.0586,0.1266,-0.1759,-1.922845026055807,-0.17535702884197235,3.294534206390381,-1.522862434387207,0.2605324387550354,2.5872111320495605,4.855390432267942,-2.321325806998185e-30,0.2614099085330963,-1.9906209150897425,-8.486627837551817e-40,0.11695639789104462,0.6841052770614624,0.0,-0.006019322667270899,0.856693685054779,-0.00013191158359404653,-0.39549803733825684
189.0,212.0,0.4175,4.5523,9.4977,-0.0586,0.1266,-0.1759,-1.9244357548155726,-0.15820331871509552,3.3392200469970703,-1.5201560258865356,0.2717725336551666,2.6006932258605957,4.855398672610082,-2.7546370963445473e-36,0.2679620385169983,-1.9906371275531214,-1.401298464324817e-45,0.11094014346599579,0.6841089725494385,0.0,-0.006539040245115757,0.856673538684845,-0.00014135042147245258,-0.4001632630825043
189.0,212.0,0.4175,4.5523,9.4977,-0.0586,0.1266,-0.1759,-1.925699373284811,-0.145165354013443,3.352496862411499,-1.5180132389068604,0.282185822725296,2.575766086578369,4.855394932418623,-5.006419023493274e-41,0.26460862159729004,-1.9906452337848108,-0.0,0.12005981802940369,0.6841171979904175,0.0,-0.0018457404803484678,0.856661319732666,-0.00012216318282298744,-0.4080953299999237
189.0,212.0,0.4175,4.5523,9.4977,-0.0586,0.1266,-0.1759,-1.9271866283812464,-0.1473732590675354,3.3104515075683594,-1.5152184963226318,0.28035324811935425,2.618022918701172,4.85535095909194,-0.0029704151675105095,0.2774052619934082,-1.990612808858053,-0.0,0.11617709696292877,0.6841415166854858,0.0,-0.0058833882212638855,0.8567546010017395,-0.0001044420205289498,-0.3941458463668823
189.0,212.0,0.4175,4.5523,9.4977,-0.0586,0.1266,-0.1759,-1.9283539257445277,-0.16095393896102905,3.291674852371216,-1.5130360126495361,0.2801276743412018,2.6037914752960205,4.855310889869489,-0.002489602193236351,0.2600195109844208,-1.990624729787008,-0.0,0.11920198798179626,0.6840161681175232,0.0,-0.010943375527858734,0.856693685054779,-9.35820207814686e-05,-0.3948419392108917
189.0,212.0,0.4175,4.5523,9.4977,-0.0586,0.1266,-0.1759,-1.9299289188780726,-0.15887777507305145,3.319932460784912,-1.5102373361587524,0.2777673602104187,2.5535635948181152,4.855234625726499,-0.007800543215125799,0.2669517397880554,-1.9906252066241663,-0.0,0.1319005787372589,0.6840647459030151,0.0,-0.018884193152189255,0.8566941618919373,-8.281783084385097e-05,-0.4022364020347595
189.0,212.0,0.4175,4.5523,9.4977,-0.0586,0.1266,-0.1759,-1.9310876331725062,-0.13833892345428467,3.3721413612365723,-1.5080392360687256,0.28672143816947937,2.574228286743164,4.855246948986807,-0.005049960222095251,0.2581714987754822,-1.9905970732318323,-0.0,0.12270131707191467,0.6841130256652832,0.0,0.004160540644079447,0.8566494584083557,-2.249606404802762e-05,-0.3955017030239105
189.0,212.0,0.4175,4.5523,9.4977,-0.0586,0.1266,-0.1759,-1.9323984585204066,-0.12433189898729324,3.3824520111083984,-1.5051766633987427,0.2966776490211487,2.59824538230896,4.855195539980688,-0.002053304808214307,0.24708889424800873,-1.9906209150897425,-0.0,0.13289840519428253,0.6840565800666809,0.0,-0.007953762076795101,0.8566737174987793,-3.8548041629837826e-05,-0.392974317073822
189.0,212.0,0.4175,4.5523,9.4977,-0.0586,0.1266,-0.1759,-1.9335133037962855,-0.14433981478214264,3.432384490966797,-1.502785325050354,0.2819712162017822,2.631681442260742,4.8551354733999155,-0.00788924377411604,0.2670629620552063,-1.9906328360186976,-0.0,0.1407817155122757,0.6841373443603516,0.0,-0.004463216755539179,0.8567259907722473,-3.5732151445699856e-05,-0.44552361965179443
205.0,178.0,0.0066,4.1348,7.0564,-0.0515,0.1284,-0.1924,-1.9350086651244105,-0.16188888251781464,3.377436637878418,-1.5000072717666626,0.28230640292167664,2.605754852294922,4.8551436243350885,-0.002346249297261238,0.25676533579826355,-1.9906414190875452,-0.0,0.12642356753349304,0.6841089725494385,0.0,0.00039082695730030537,0.8567101359367371,-4.8109151975950226e-05,-0.4545733630657196
205.0,178.0,0.0066,4.1348,7.0564,-0.0515,0.1284,-0.1924,-1.936495920220846,-0.1394607275724411,3.415745258331299,-1.4970453977584839,0.283735454082489,2.6319150924682617,4.855143683939733,-0.0003719276865012944,0.2597808241844177,-1.9906089941607874,-0.0,0.12381600588560104,0.6840726137161255,0.0,-0.0017318368190899491,0.8566860556602478,-0.001481048297137022,-0.41305822134017944
205.0,178.0,0.0066,4.1348,7.0564,-0.0515,0.1284,-0.1924,-1.9376512966551722,-0.12030516564846039,3.4354093074798584,-1.4947749376296997,0.28892770409584045,2.583104133605957,4.855091574579038,-0.0002775532193481922,0.27063828706741333,-1.9906089941607874,-0.0,0.12860162556171417,0.6841332316398621,0.0,-0.013869121670722961,0.8566576838493347,-0.0011764439987018704,-0.4488149583339691
205.0,178.0,0.0066,4.1348,7.0564,-0.0515,0.1284,-0.1924,-1.9389902553954066,-0.13914485275745392,3.4033114910125732,-1.4919360876083374,0.2759639620780945,2.602051258087158,4.855019318848409,-0.0020043731201440096,0.25664761662483215,-1.9906414190875452,-0.0,0.11040156334638596,0.6840807199478149,0.0,-0.005455832462757826,0.856685996055603,-0.00047056202311068773,-0.403961718082428
205.0,178.0,0.0066,4.1348,7.0564,-0.0515,0.1284,-0.1924,-1.9401451549925746,-0.1632515788078308,3.3339481353759766,-1.4897449016571045,0.26745596528053284,2.6012916564941406,4.8550279317195795,-0.0037855778355151415,0.26799121499061584,-1.9906495253192347,-0.0,0.1332312524318695,0.6840689182281494,0.0,-0.011121854186058044,0.8566415309906006,-0.00033104760223068297,-0.4372566342353821
205.0,178.0,0.0066,4.1348,7.0564,-0.0515,0.1284,-0.1924,-1.9416800938048304,-0.15519912540912628,3.3755571842193604,-1.486999273300171,0.2729268968105316,2.6464896202087402,4.855027514487066,-0.00024982442846521735,0.27796709537506104,-1.9906089941607874,-0.0,0.13147279620170593,0.6841012239456177,0.0,-0.012790908105671406,0.8566538095474243,-0.0003814474621322006,-0.40936964750289917
205.0,178.0,0.0066,4.1348,7.0564,-0.0515,0.1284,-0.1924,-1.942826887170309,-0.12537530064582825,3.370642900466919,-1.4849077463150024,0.2787468135356903,2.6243982315063477,4.855011927872457,-0.000306882691802457,0.2595120668411255,-1.9905970732318323,-0.0,0.13262839615345,0.6841209530830383,0.0,0.011185891926288605,0.8566617965698242,-0.00035823180223815143,-0.43070927262306213
205.0,178.0,0.0066,4.1348,7.0564,-0.0515,0.1284,-0.1924,-1.9442626438536585,-0.13263817131519318,3.393176317214966,-1.4822219610214233,0.26992902159690857,2.637855052947998,4.854959878116407,-0.001949743484146893,0.26004549860954285,-1.9905970732318323,-0.0,0.12868952751159668,0.6841332316398621,0.0,-0.0030493587255477905,0.8566535115242004,-0.0005576197290793061,-0.48967888951301575
205.0,178.0,0.0066,4.1348,7.0564,-0.0515,0.1284,-0.1924,-1.9454056225218714,-0.156355619430542,3.4252572059631348,-1.4801105260849,0.2637942135334015,2.625194549560547,4.854867982655325,-0.009568586014211178,0.2542319893836975,-1.9906294981585901,-0.0,0.1284438669681549,0.6840566396713257,0.0,-0.010590390302240849,0.8566173315048218,-0.0004357763391453773,-0.47484564781188965
205.0,178.0,0.0066,4.1348,7.0564,-0.0515,0.1284,-0.1924,-1.9469448528685511,-0.1673458069562912,3.3695671558380127,-1.4774965047836304,0.25221285223960876,2.557981014251709,4.854828285961904,-0.008343912661075592,0.26891717314720154,-1.9905484358416956,-0.0,0.14323773980140686,0.6841212511062622,0.0,-0.0037366398610174656,0.8566621541976929,-0.0003716672072187066,-0.4734143912792206
230.0,166.0,-0.2064,4.2718,8.1739,-0.0553,0.1093,-0.1686,-1.948172231713766,-0.1434703916311264,3.4370017051696777,-1.4754058122634888,0.26271674036979675,2.6267881393432617,4.854832383781233,-0.0010668574832379818,0.26275327801704407,-1.9906333128558558,-0.0,0.147492453455925,0.68406081199646,0.0,-0.010543761774897575,0.8566054701805115,-0.0027878882829099894,-0.486106276512146
230.0,166.0,-0.2064,4.2718,8.1739,-0.0553,0.1093,-0.1686,-1.9495541057982386,-0.12709498405456543,3.418785572052002,-1.4728597402572632,0.2564567029476166,2.6204476356506348,4.854796606093206,-0.0004984330153092742,0.25246405601501465,-1.9906013647662562,0.00035669366479851305,0.15016236901283264,0.6841455101966858,0.0,0.008687032386660576,0.8566219806671143,-0.0028948895633220673,-0.48505568504333496
230.0,166.0,-0.2064,4.2718,8.1739,-0.0553,0.1093,-0.1686,-1.9506494007506312,-0.1422405242919922,3.4487979412078857,-1.4709051847457886,0.24795188009738922,2.5925638675689697,4.8547523496444605,-0.002596094738692045,0.2568354904651642,-1.9906252066241663,0.00027091981610283256,0.1550534963607788,0.6840647459030151,0.0,-0.009406187571585178,0.8565815687179565,-0.0010469903936609626,-0.5531172752380371
230.0,166.0,-0.2064,4.2718,8.1739,-0.0553,0.1093,-0.1686,-1.952108999291891,-0.158686101436615,3.4029250144958496,-1.4683845043182373,0.2311231642961502,2.5791068077087402,4.854676726251402,-0.009409758262336254,0.25388097763061523,-1.990589443837301,0.0002498617395758629,0.1390908807516098,0.6841089725494385,0.0,-0.008100990206003189,0.8566058278083801,-0.0006976036820560694,-0.5449787378311157
230.0,166.0,-0.2064,4.2718,8.1739,-0.0553,0.1093,-0.1686,-1.9532834492125453,-0.1501060575246811,3.4103102684020996,-1.4664980173110962,0.22402523458003998,2.5333921909332275,4.854669111758032,-0.003570149652659893,0.2623809278011322,-1.9905527273761194,0.00028599798679351807,0.15955626964569092,0.6841052770614624,0.0,-0.0074007548391819,0.8565860390663147,-0.001645587501116097,-0.5396982431411743
230.0,166.0,-0.2064,4.2718,8.1739,-0.0553,0.1093,-0.1686,-1.9546390972533167,-0.1268976479768753,3.442336082458496,-1.464318871498108,0.2266145497560501,2.5872602462768555,4.85467320957736,-0.0003162189095746726,0.2616559565067291,-1.9905450979815882,0.004155639559030533,0.1454785317182541,0.6840364933013916,0.0,-0.0012050680816173553,0.8565823435783386,-0.002257739892229438,-0.5214642286300659
230.0,166.0,-0.2064,4.2718,8.1739,-0.0553,0.1093,-0.1686,-1.9556423626341761,-0.12059283256530762,3.407113552093506,-1.4625712633132935,0.21592190861701965,2.5996651649475098,4.854633110552587,-0.00034639431396499276,0.24771633744239807,-1.9905179182635706,0.020847462117671967,0.16072727739810944,0.6840970516204834,0.0,-0.023738397285342216,0.8565577864646912,-0.0017730975523591042,-0.5554784536361694
230.0,166.0,-0.2064,4.2718,8.1739,-0.0553,0.1093,-0.1686,-1.956905027429098,-0.12928169965744019,3.465402126312256,-1.4605121612548828,0.19743546843528748,2.534796953201294,4.854536863952436,-0.004944048821926117,0.24970392882823944,-1.9903371969806116,0.007209167815744877,0.15065404772758484,0.6841053366661072,0.0,-0.006220947951078415,0.8565417528152466,-0.0008021605899557471,-0.5458930730819702
230.0,166.0,-0.2064,4.2718,8.1739,-0.0553,0.1093,-0.1686,-1.9578682384886683,-0.1325242966413498,3.5127177238464355,-1.458889126777649,0.18691177666187286,2.547823905944824,4.854549112706938,-0.004144495353102684,0.24389436841011047,-1.9903534094439905,3.69595545635093e-05,0.15318751335144043,0.6841135621070862,0.0,-0.018272045999765396,0.8565499186515808,-0.0005156478728167713,-0.5014033913612366
230.0,166.0,-0.2064,4.2718,8.1739,-0.0553,0.1093,-0.1686,-1.9590794048705042,-0.12049918621778488,3.416755437850952,-1.4570941925048828,0.17737805843353271,2.48966383934021,4.854537504702368,-0.0016027240781113505,0.2506767809391022,-1.9903371969806116,4.385861465672214e-11,0.16531848907470703,0.6840525269508362,0.0,-0.003991967532783747,0.8565219640731812,-0.002530129626393318,-0.5984894633293152
257.0,156.0,-0.3494,4.5075,7.9681,-0.024,0.0593,-0.1492,-1.959959169427389,-0.11150375008583069,3.4471359252929688,-1.4556224346160889,0.17945463955402374,2.556769847869873,4.854529413371839,-0.0006097108707763255,0.2535872459411621,-1.990305248891012,7.971087194640135e-16,0.1505860686302185,0.6840483546257019,0.0,-0.006702077109366655,0.8564614057540894,-0.0029177425894886255,-0.5913040637969971
257.0,156.0,-0.3494,4.5075,7.9681,-0.024,0.0593,-0.1492,-1.961102148095602,-0.10718274116516113,3.4878835678100586,-1.453887701034546,0.1732345074415207,2.576648712158203,4.85450957992629,-0.000558250118046999,0.2410968542098999,-1.9903572241412562,9.459013262677567e-22,0.15825584530830383,0.6841053366661072,0.0,0.00324648292735219,0.856481671333313,-0.0037499507889151573,-0.5601994395256042
257.0,156.0,-0.3494,4.5075,7.9681,-0.024,0.0593,-0.1492,-1.9619609318175257,-0.10896916687488556,3.4852726459503174,-1.4526115655899048,0.157486692070961,2.5102109909057617,4.854481416731634,-0.0029934095218777657,0.23539870977401733,-1.9902966658221644,1.7191286714139876e-26,0.16293606162071228,0.6841177344322205,0.0,-0.0024611945264041424,0.8564092516899109,-0.002598332241177559,-0.5728522539138794
257.0,156.0,-0.3494,4.5075,7.9681,-0.024,0.0593,-0.1492,-1.9630032978453578,-0.10240679234266281,3.4634628295898438,-1.4511123895645142,0.15032373368740082,2.5199220180511475,4.854413750558653,-0.003756028600037098,0.2515970468521118,-1.9903090635882776,2.040030625980946e-32,0.1673354059457779,0.6840689182281494,0.0,-0.006788741331547499,0.8564215898513794,-0.002072209259495139,-0.5759921073913574
257.0,156.0,-0.3494,4.5075,7.9681,-0.024,0.0593,-0.1492,-1.9638544521727503,-0.10137274116277695,3.4867286682128906,-1.4499250650405884,0.14453624188899994,2.5211687088012695,4.854414167791166,-0.006929356139153242,0.23770329356193542,-1.9903295675860804,3.707655249361261e-37,0.18023362755775452,0.6841172575950623,0.0,-0.002669133245944977,0.8564017415046692,-0.003291066037490964,-0.628441333770752
257.0,156.0,-0.3494,4.5075,7.9681,-0.024,0.0593,-0.1492,-1.9648481808104457,-0.11001227051019669,3.4811205863952637,-1.4485012292861938,0.13583149015903473,2.504181385040283,4.854345607548513,-0.004707749001681805,0.23983624577522278,-1.9902809301959437,4.400077177979926e-43,0.16386869549751282,0.6840848922729492,0.0,0.012997925281524658,0.8563537001609802,-0.0038210605271160603,-0.6111520528793335
257.0,156.0,-0.3494,4.5075,7.9681,-0.024,0.0593,-0.1492,-1.9657231769957484,-0.11190631240606308,3.491673231124878,-1.4473979473114014,0.12681204080581665,2.4958605766296387,4.85436977723197,-0.001709809061139822,0.24758027493953705,-1.9902809301959437,0.0,0.16814324259757996,0.6840448379516602,0.0,-0.0014303214848041534,0.856325626373291,-0.004421886056661606,-0.6460262537002563
257.0,156.0,-0.3494,4.5075,7.9681,-0.024,0.0593,-0.1492,-1.966837545434469,-0.09701550006866455,3.471672296524048,-1.4461393356323242,0.12951520085334778,2.492588758468628,4.854345920472898,-0.0006607886170968413,0.2308444082736969,-1.9902527968036097,0.0,0.16769298911094666,0.684044361114502,0.0,0.0035702406894415617,0.8562977910041809,-0.005058542359620333,-0.6474453210830688
257.0,156.0,-0.3494,4.5075,7.9681,-0.024,0.0593,-0.1492,-1.967640062371725,-0.09017050266265869,3.475536346435547,-1.4452875852584839,0.1288660764694214,2.447957992553711,4.854282128601827,-0.0006530201644636691,0.23844337463378906,-1.9902971426593226,0.0,0.17212963104248047,0.6841012239456177,0.0,-0.005467183887958527,0.8562373518943787,-0.004708439111709595,-0.6081353425979614
257.0,156.0,-0.3494,4.5075,7.9681,-0.024,0.0593,-0.1492,-1.9686585865416468,-0.10138562321662903,3.5114588737487793,-1.4440200328826904,0.11975690722465515,2.4835352897644043,4.854186284333029,-0.01233495119959116,0.23488593101501465,-1.990321461354391,0.0,0.17185816168785095,0.6840606331825256,0.0,-0.004389183595776558,0.8561893105506897,-0.0028678621165454388,-0.6281681060791016
271.0,158.0,-0.5324,4.2371,8.8134,-0.0252,-0.0078,-0.0829,-1.96970858196401,-0.12002017349004745,3.4931936264038086,-1.4428683519363403,0.10301650315523148,2.5291433334350586,4.854046854167738,-0.020494205877184868,0.23815679550170898,-1.9902570883380335,0.00027543361647985876,0.1640494167804718,0.6841455101966858,0.0,-0.0034757317043840885,0.8561732769012451,-0.003004033351317048,-0.6340818405151367
271.0,158.0,-0.5324,4.2371,8.8134,-0.0252,-0.0078,-0.0829,-1.9706560573973597,-0.11671831458806992,3.510960578918457,-1.4420092105865479,0.09527219831943512,2.437343120574951,4.853935244470396,-0.01784650608897209,0.2312772274017334,-1.9902690092669886,0.0012455537216737866,0.16576385498046875,0.6840807199478149,0.0,-0.008747336454689503,0.856109082698822,-0.005815132986754179,-0.5980796813964844
271.0,158.0,-0.5324,4.2371,8.8134,-0.0252,-0.0078,-0.0829,-1.9717499218382777,-0.10095007717609406,3.5333261489868164,-1.4410487413406372,0.09914952516555786,2.446141481399536,4.853703620820799,-0.014100058004260063,0.23989036679267883,-1.9902494589435022,0.0010379527229815722,0.17136773467063904,0.6841249465942383,0.0,-0.0037700491957366467,0.8560770153999329,-0.007216556463390589,-0.6317522525787354
271.0,158.0,-0.5324,4.2371,8.8134,-0.0252,-0.0078,-0.0829,-1.9726525745787562,-0.09359321743249893,3.514906883239746,-1.4403222799301147,0.09898308664560318,2.4325294494628906,4.8535076705510996,-0.01967741549015045,0.24546796083450317,-1.9902618567096155,0.0005884060519747436,0.16420036554336548,0.684044361114502,0.0,-0.017736302688717842,0.8560253381729126,-0.00520395627245307,-0.6339550018310547
271.0,158.0,-0.5324,4.2371,8.8134,-0.0252,-0.0078,-0.0829,-1.9736982784666957,-0.10208261013031006,3.520596981048584,-1.4394416809082031,0.0867331475019455,2.4239275455474854,4.85319675782279,-0.0471874363720417,0.225408673286438,-1.9902456442462366,0.00038074003532528877,0.14960148930549622,0.6841497421264648,0.0,-0.0016172105679288507,0.8560453057289124,-0.001567757804878056,-0.627949595451355
271.0,158.0,-0.5324,4.2371,8.8134,-0.0252,-0.0078,-0.0829,-1.9746018848814906,-0.11648338288068771,3.513266086578369,-1.4388102293014526,0.07657678425312042,2.457097291946411,4.852642017393865,-0.08828308433294296,0.20161211490631104,-1.9901970068561,0.0003464064793661237,0.15228432416915894,0.6840524077415466,0.0,-0.002861735876649618,0.8560294508934021,-0.0010457219323143363,-0.6464287638664246
271.0,158.0,-0.5324,4.2371,8.8134,-0.0252,-0.0078,-0.0829,-1.9757119617857875,-0.11764286458492279,3.5066967010498047,-1.4380229711532593,0.06424623727798462,2.4501402378082275,4.851597296982565,-0.13036732375621796,0.17479541897773743,-1.990225617085592,0.0003104772767983377,0.16263803839683533,0.6841212511062622,0.0,-0.0007268190383911133,0.8559934496879578,-0.0027378476224839687,-0.5877048969268799
271.0,158.0,-0.5324,4.2371,8.8134,-0.0252,-0.0078,-0.0829,-1.976490160027975,-0.10261049121618271,3.5190412998199463,-1.4374710321426392,0.06054217368364334,2.418442487716675,4.85060407498435,-0.12792405486106873,0.18433673679828644,-1.9902175108539026,0.00022611090389546007,0.15189595520496368,0.684093177318573,0.0,-0.002222280250862241,0.8560059070587158,-0.00324433040805161,-0.5863638520240784
271.0,158.0,-0.5324,4.2371,8.8134,-0.0252,-0.0078,-0.0829,-1.9774524174132289,-0.08783380687236786,3.5073227882385254,-1.4369349479675293,0.05572807788848877,2.418621063232422,4.849132451206007,-0.1660447120666504,0.17418071627616882,-1.990237061177389,0.00015344857820309699,0.15421448647975922,0.6840406060218811,0.0,-0.012934261001646519,0.8559492230415344,-0.0011024326086044312,-0.6124122738838196
271.0,158.0,-0.5324,4.2371,8.8134,-0.0252,-0.0078,-0.0829,-1.9782191715636195,-0.09195342659950256,3.54443097114563,-1.4365311861038208,0.047720447182655334,2.360196590423584,4.847680482059278,-0.18574610352516174,0.15719014406204224,-1.9902008215533655,0.0001350282836938277,0.15644830465316772,0.6840807199478149,0.0,-0.005526074208319187,0.85595703125,-0.0005369355203583837,-0.6572575569152832
229.0,169.0,-0.2453,4.0594,8.3707,-0.0107,-0.2695,0.0292,-1.9792143307127894,-0.09412134438753128,3.5678043365478516,-1.4361275434494019,0.02995411865413189,2.387173891067505,4.8459098664815805,-0.19808591902256012,0.1553879678249359,-1.9902413527118128,0.00011741166963474825,0.16101479530334473,0.6840689182281494,0.0,6.15724129602313e-05,0.855985701084137,-0.0003362426650710404,-0.6301714777946472
229.0,169.0,-0.2453,4.0594,8.3707,-0.0107,-0.2695,0.0292,-1.9799496136107386,-0.09043864160776138,3.4989521503448486,-1.4359233379364014,0.020456545054912567,2.33073091506958,4.8442270932491205,-0.2122439593076706,0.1445501148700714,-1.9902175108539026,0.00012685540423262864,0.1570001095533371,0.6840606927871704,0.0,-0.005949563346803188,0.8559693694114685,-0.00025885881041176617,-0.6181503534317017
229.0,169.0,-0.2453,4.0594,8.3707,-0.0107,-0.2695,0.0292,-1.9807316265501917,-0.07778684049844742,3.5476620197296143,-1.4357595443725586,0.015191664919257164,2.3477466106414795,4.8420452801282785,-0.23943717777729034,0.13413703441619873,-1.9902289549456995,0.00013294968812260777,0.164529949426651,0.6841094493865967,0.0,-0.011704536154866219,0.8559693694114685,-0.0002412372996332124,-0.6025203466415405
