ramyac6/ROB537/final_project/csv/good/good_147.csv
tof_0,tof_1,accelx,accely,accelz,gyrox,gyroy,gyroz,shoulder_lift_joint_position,shoulder_lift_joint_velocity,shoulder_lift_joint_effort,elbow_joint_position,elbow_joint_velocity,elbow_joint_effort,wrist_1_joint_position,wrist_1_joint_velocity,wrist_1_joint_effort,wrist_2_joint_position,wrist_2_joint_velocity,wrist_2_joint_effort,wrist_3_joint_position,wrist_3_joint_velocity,wrist_3_joint_effort,shoulder_pan_joint_position,shoulder_pan_joint_velocity,shoulder_pan_joint_effort
566.0,535.0,2.0638,-0.4433,9.2584,-0.0316,0.0249,-0.1095,-1.458030754034855,0.0,1.648147463798523,-1.9575378894805908,-0.0,2.161529064178467,4.686499758357666,-0.0,0.2965892553329468,-1.5384843985186976,0.0,-0.024734150618314743,0.811504065990448,-0.0,-0.0018604029901325703,0.7930619716644287,0.0,-0.014883766882121563
566.0,535.0,2.0638,-0.4433,9.2584,-0.0316,0.0249,-0.1095,-1.4580227893641968,0.0,1.64223051071167,-1.9575695991516113,-0.0,2.1643590927124023,4.686471624965332,-0.0,0.29040420055389404,-1.5385125319110315,0.0,-0.021175481379032135,0.8114961385726929,-0.0,-0.006791894324123859,0.7930539846420288,0.0,0.006350032053887844
566.0,535.0,2.0638,-0.4433,9.2584,-0.0316,0.0249,-0.1095,-1.4580267754248162,0.0,1.6256399154663086,-1.957565188407898,-0.0,2.1337718963623047,4.686467810268066,-0.0,0.28935399651527405,-1.5384963194476526,0.0,-0.014457684941589832,0.811484158039093,-0.0,-0.004863409325480461,0.7930458188056946,0.0,0.0037041879259049892
566.0,535.0,2.0638,-0.4433,9.2584,-0.0316,0.0249,-0.1095,-1.4580388155630608,0.0,1.6583805084228516,-1.9576138257980347,-0.0,2.1573259830474854,4.6864868837543945,-0.0,0.2971053421497345,-1.5385368506061,0.0,-0.012686362490057945,0.8115282654762268,-0.0,0.004936332814395428,0.7930498719215393,0.0,-0.02035733312368393
566.0,535.0,2.0638,-0.4433,9.2584,-0.0316,0.0249,-0.1095,-1.4580027771047135,0.0,1.6957108974456787,-1.9576177597045898,-0.0,2.1805191040039062,4.686495466823242,-0.0,0.30422350764274597,-1.5385006109820765,0.0,-0.0012586675584316254,0.8115842938423157,-0.0,0.0014774383744224906,0.7930899858474731,0.0,0.008052514865994453
566.0,535.0,2.0638,-0.4433,9.2584,-0.0316,0.0249,-0.1095,-1.4579987910440941,0.0,1.642000675201416,-1.9575493335723877,-0.0,2.176748752593994,4.6864635187336425,-0.0,0.2949458062648773,-1.5384720007525843,0.0,-0.011369297280907631,0.8115163445472717,-0.0,-0.004659643396735191,0.7930378317832947,0.0,-0.016163650900125504
504.0,629.0,2.1266,-0.3984,9.2632,-0.0328,0.0237,-0.1167,-1.4580267679742356,0.0,1.6270027160644531,-1.9575695991516113,-0.0,2.1236636638641357,4.686520262355469,-0.0,0.29487720131874084,-1.5385282675372522,0.0,-0.018167831003665924,0.8115081787109375,-0.0,-0.0013660286786034703,0.7930539846420288,0.0,0.015461412258446217
504.0,629.0,2.1266,-0.3984,9.2632,-0.0328,0.0237,-0.1167,-1.4580388155630608,0.0,1.6545675992965698,-1.9575532674789429,-0.0,2.1866564750671387,4.686467810268066,-0.0,0.29417794942855835,-1.5385006109820765,0.0,0.004790362901985645,0.811508297920227,-0.0,0.008142487145960331,0.7930217385292053,0.0,-0.0015619404148310423
504.0,629.0,2.1266,-0.3984,9.2632,-0.0328,0.0237,-0.1167,-1.4580027547529717,0.0,1.6485729217529297,-1.9575928449630737,-0.0,2.1762542724609375,4.686483069057129,-0.0,0.294023722410202,-1.5384801069842737,0.0,-0.020137280225753784,0.8115441799163818,-0.0,-0.0007898046169430017,0.7930178046226501,0.0,-0.0065063852816820145
504.0,629.0,2.1266,-0.3984,9.2632,-0.0328,0.0237,-0.1167,-1.4580148619464417,0.0,1.6511070728302002,-1.957533836364746,-0.0,2.1240434646606445,4.686459227199219,-0.0,0.29863640666007996,-1.5385082403766077,0.0,-0.0021207246463745832,0.8115521669387817,-0.0,-0.019023347645998,0.7930939793586731,0.0,-0.040273651480674744
504.0,629.0,2.1266,-0.3984,9.2632,-0.0328,0.0237,-0.1167,-1.4580067631653328,0.0,1.657012701034546,-1.9575611352920532,-0.0,2.1394577026367188,4.686467810268066,-0.0,0.30207788944244385,-1.5385449568377894,0.0,-0.00488212238997221,0.8115523457527161,-0.0,0.007608587387949228,0.7930579781532288,0.0,0.009198693558573723
504.0,629.0,2.1266,-0.3984,9.2632,-0.0328,0.0237,-0.1167,-1.458022916024067,0.0,1.6419545412063599,-1.9575412273406982,-0.0,2.122493028640747,4.686467810268066,-0.0,0.29340165853500366,-1.5384882132159632,0.0,-0.014566896483302116,0.8114961385726929,-0.0,0.012090652249753475,0.793053925037384,0.0,0.0034276710357517004
504.0,629.0,2.1266,-0.3984,9.2632,-0.0328,0.0237,-0.1167,-1.458030880694725,0.0,1.6459858417510986,-1.9575735330581665,-0.0,2.1333532333374023,4.686511679286621,-0.0,0.27929213643074036,-1.5384882132159632,0.0,-0.010013358667492867,0.8115322589874268,-0.0,-0.0020700145978480577,0.7930298447608948,0.0,-0.04027267172932625
504.0,629.0,2.1266,-0.3984,9.2632,-0.0328,0.0237,-0.1167,-1.4580029037645836,0.0,1.6398100852966309,-1.9576138257980347,-0.0,2.11201548576355,4.686471624965332,-0.0,0.29971566796302795,-1.5384963194476526,0.0,-0.031231258064508438,0.8116002082824707,-0.0,-0.0024738735519349575,0.7930698394775391,0.0,0.028547056019306183
504.0,629.0,2.1266,-0.3984,9.2632,-0.0328,0.0237,-0.1167,-1.4580348295024415,0.0,1.6589415073394775,-1.9575934410095215,-0.0,2.12636137008667,4.686479731197021,-0.0,0.29650744795799255,-1.5384920279132288,0.0,-0.00623377226293087,0.8115164041519165,-0.0,-0.002806462347507477,0.7930939793586731,0.0,-0.042126744985580444
504.0,629.0,2.1266,-0.3984,9.2632,-0.0328,0.0237,-0.1167,-1.458062933092453,0.0,1.6423962116241455,-1.9575695991516113,-0.0,2.1841468811035156,4.686515493983887,-0.0,0.2933385372161865,-1.5384801069842737,0.0,-0.002891676500439644,0.8115441799163818,-0.0,-0.01467178575694561,0.7930579781532288,0.0,0.001241648686118424
510.0,682.0,2.0483,-0.4169,9.2686,-0.026,0.0273,-0.1141,-1.4580467504313965,0.0,1.6600966453552246,-1.9575451612472534,-0.0,2.1609396934509277,4.686495466823242,-0.0,0.2910948395729065,-1.538504425679342,0.0,-0.01239372231066227,0.8115081787109375,-0.0,-0.002363820793107152,0.7930619716644287,0.0,-0.03227540850639343
510.0,682.0,2.0483,-0.4169,9.2686,-0.026,0.0273,-0.1141,-1.4580267903259774,0.0,1.6507654190063477,-1.9575929641723633,-0.0,2.1234028339385986,4.686471624965332,-0.0,0.3007780611515045,-1.5385163466082972,0.0,-0.010259201750159264,0.8115883469581604,-0.0,-0.008282323367893696,0.7930778861045837,0.0,-0.009894145652651787
510.0,682.0,2.0483,-0.4169,9.2686,-0.026,0.0273,-0.1141,-1.4580107492259522,0.0,1.6736676692962646,-1.9575849771499634,-0.0,2.1291818618774414,4.686471624965332,-0.0,0.2979770302772522,-1.5385368506061,0.0,-0.012405477464199066,0.8115322589874268,-0.0,-0.0035315954592078924,0.7930660247802734,0.0,-0.014997177757322788
510.0,682.0,2.0483,-0.4169,9.2686,-0.026,0.0273,-0.1141,-1.458030880694725,0.0,1.6607439517974854,-1.9576218128204346,-0.0,2.153103828430176,4.686475439662598,-0.0,0.30585575103759766,-1.5385244528399866,0.0,-0.027751661837100983,0.8115603923797607,-0.0,-0.007679219823330641,0.7930258512496948,0.0,0.023433644324541092
510.0,682.0,2.0483,-0.4169,9.2686,-0.026,0.0273,-0.1141,-1.458046742980816,0.0,1.6585569381713867,-1.957537293434143,-0.0,2.1529853343963623,4.686478777522705,-0.0,0.2913558781147003,-1.538520638142721,0.0,-0.008504834957420826,0.8115203380584717,-0.0,0.006102832034230232,0.7930859327316284,0.0,-0.03039390966296196
510.0,682.0,2.0483,-0.4169,9.2686,-0.026,0.0273,-0.1141,-1.4580267754248162,0.0,1.6802153587341309,-1.9575133323669434,-0.0,2.155827522277832,4.686503573054932,-0.0,0.2881421446800232,-1.5385282675372522,0.0,-0.011492706835269928,0.8115441799163818,-0.0,-0.005429412703961134,0.7930418848991394,0.0,-0.029578227549791336
510.0,682.0,2.0483,-0.4169,9.2686,-0.026,0.0273,-0.1141,-1.4580827814391633,0.0,1.6068922281265259,-1.957589030265808,-0.0,2.157365322113037,4.686499281520508,-0.0,0.28998300433158875,-1.5384963194476526,0.0,-0.011450942605733871,0.8115403056144714,-0.0,0.008277450688183308,0.7930939793586731,0.0,-0.00846353080123663
510.0,682.0,2.0483,-0.4169,9.2686,-0.026,0.0273,-0.1141,-1.4580108237317582,0.0,1.6408743858337402,-1.9575656652450562,-0.0,2.1218113899230957,4.686503573054932,-0.0,0.30195868015289307,-1.5385282675372522,0.0,-0.01252001989632845,0.8115282654762268,-0.0,0.01612929254770279,0.7930819392204285,0.0,0.01017203088849783
510.0,682.0,2.0483,-0.4169,9.2686,-0.026,0.0273,-0.1141,-1.4580708009055634,0.0,1.6652188301086426,-1.9575810432434082,-0.0,2.194277286529541,4.686478777522705,-0.0,0.28899848461151123,-1.5384920279132288,0.0,0.0014042924158275127,0.8114408254623413,-0.0,-0.0019312514923512936,0.7930859327316284,0.0,0.018768416717648506
510.0,682.0,2.0483,-0.4169,9.2686,-0.026,0.0273,-0.1141,-1.4579829660109063,0.0,1.6885969638824463,-1.9576094150543213,-0.0,2.1306982040405273,4.686471624965332,-0.0,0.28610116243362427,-1.5384600798236292,0.0,-0.012507413513958454,0.811564028263092,-0.0,-0.005787673871964216,0.7930499315261841,0.0,0.033400505781173706
510.0,682.0,2.0483,-0.4169,9.2686,-0.026,0.0273,-0.1141,-1.4580227893641968,0.0,1.616052269935608,-1.957541823387146,-0.0,2.167149543762207,4.686494989986084,-0.0,0.28336387872695923,-1.5385406653033655,0.0,-0.00542099867016077,0.811576247215271,-0.0,-0.008499392308294773,0.7930738925933838,0.0,-0.004680362530052662
516.0,646.0,2.0213,-0.4169,9.3242,-0.038,0.0215,-0.1203,-1.4579869148186226,0.0,1.6651411056518555,-1.957533836364746,-0.0,2.1425631046295166,4.686491175288818,-0.0,0.298065721988678,-1.5385282675372522,0.0,-0.008033853955566883,0.8114882111549377,-0.0,0.004901074804365635,0.7930619716644287,0.0,-0.0008065970614552498
516.0,646.0,2.0213,-0.4169,9.3242,-0.038,0.0215,-0.1203,-1.4579908040216942,0.0,1.6516637802124023,-1.9575214385986328,-0.0,2.170696496963501,4.686511679286621,-0.0,0.29759925603866577,-1.5385082403766077,0.0,-0.008733456954360008,0.8114842772483826,-0.0,0.0004859179025515914,0.7930579781532288,0.0,0.009038897231221199
516.0,646.0,2.0213,-0.4169,9.3242,-0.038,0.0215,-0.1203,-1.4580348295024415,0.0,1.6310762166976929,-1.9575695991516113,-0.0,2.1251001358032227,4.686475439662598,-0.0,0.30626627802848816,-1.5384963194476526,0.0,-0.006757146213203669,0.8115402460098267,-0.0,-0.007292651571333408,0.7930778861045837,0.0,0.026854805648326874
516.0,646.0,2.0213,-0.4169,9.3242,-0.038,0.0215,-0.1203,-1.458030880694725,0.0,1.6435595750808716,-1.9575492143630981,-0.0,2.134385585784912,4.686467810268066,-0.0,0.2925669252872467,-1.5385125319110315,0.0,-0.028949914500117302,0.8115243315696716,-0.0,-0.0037805768661201,0.7930418848991394,0.0,-0.0025335566606372595
516.0,646.0,2.0213,-0.4169,9.3242,-0.038,0.0215,-0.1203,-1.4580388155630608,0.0,1.6367260217666626,-1.9575575590133667,-0.0,2.1269850730895996,4.686527414912842,-0.0,0.28963106870651245,-1.5385006109820765,0.0,-0.00431042117998004,0.8115561604499817,-0.0,0.004290193319320679,0.7930698394775391,0.0,0.03168441355228424
516.0,646.0,2.0213,-0.4169,9.3242,-0.038,0.0215,-0.1203,-1.4580267754248162,0.0,1.6400463581085205,-1.9575810432434082,-0.0,2.1247944831848145,4.686459227199219,-0.0,0.2867532968521118,-1.5385492483722132,0.0,-0.019090037792921066,0.8114723563194275,-0.0,-0.009987881407141685,0.7930738925933838,0.0,0.0288087110966444
516.0,646.0,2.0213,-0.4169,9.3242,-0.038,0.0215,-0.1203,-1.4580867302468796,0.0,1.7126247882843018,-1.9575695991516113,-0.0,2.136213779449463,4.686446829433105,-0.0,0.2991808354854584,-1.5385125319110315,0.0,-3.976444713771343e-05,0.811548113822937,-0.0,-0.01688847318291664,0.7930660247802734,0.0,0.011750839650630951
516.0,646.0,2.0213,-0.4169,9.3242,-0.038,0.0215,-0.1203,-1.4580466908267518,0.0,1.6768763065338135,-1.9575730562210083,-0.0,2.175713539123535,4.686479731197021,-0.0,0.2894783318042755,-1.5384920279132288,0.0,-0.014151154085993767,0.8115121126174927,-0.0,-0.007352349814027548,0.7930660247802734,0.0,-0.01759183034300804
516.0,646.0,2.0213,-0.4169,9.3242,-0.038,0.0215,-0.1203,-1.4579470467618485,0.0,1.6129459142684937,-1.957557201385498,-0.0,2.158660411834717,4.686478777522705,-0.0,0.29330405592918396,-1.5384720007525843,0.0,-0.029264267534017563,0.8115041255950928,-0.0,-0.003627752885222435,0.7930619716644287,0.0,-0.030664686113595963
516.0,646.0,2.0213,-0.4169,9.3242,-0.038,0.0215,-0.1203,-1.458030880694725,0.0,1.6148449182510376,-1.957541823387146,-0.0,2.1161093711853027,4.686539335841797,-0.0,0.2958311438560486,-1.5385082403766077,0.0,-0.010921601206064224,0.8115361928939819,-0.0,-0.004754547029733658,0.7930778861045837,0.0,0.02442217990756035
516.0,646.0,2.0213,-0.4169,9.3242,-0.038,0.0215,-0.1203,-1.4579948720387002,0.0,1.6641156673431396,-1.957557201385498,-0.0,2.1257786750793457,4.686451120967529,-0.0,0.29615163803100586,-1.5384963194476526,0.0,-0.019819635897874832,0.8114803433418274,-0.0,-0.01408085972070694,0.7930458784103394,0.0,0.014964528381824493
536.0,584.0,2.0716,-0.3948,9.2973,-0.0281,0.0182,-0.1162,-1.4580946651152153,0.0,1.630010724067688,-1.9575614929199219,-0.0,2.125298261642456,4.68644301473584,-0.0,0.294917494058609,-1.5385201613055628,0.0,-0.03036724030971527,0.811552107334137,-0.0,0.0015632440336048603,0.7930619716644287,0.0,-0.006479497067630291
536.0,584.0,2.0716,-0.3948,9.2973,-0.0281,0.0182,-0.1162,-1.4580546778491517,0.0,1.624295949935913,-1.9575451612472534,-0.0,2.124696969985962,4.686451120967529,-0.0,0.3019532859325409,-1.5385282675372522,0.0,-0.015714948996901512,0.8115361928939819,-0.0,-0.01066524162888527,0.793097972869873,0.0,-0.004761749878525734
536.0,584.0,2.0716,-0.3948,9.2973,-0.0281,0.0182,-0.1162,-1.4580067631653328,0.0,1.6129087209701538,-1.9575731754302979,-0.0,2.1439342498779297,4.6864868837543945,-0.0,0.285672664642334,-1.5385811964618128,0.0,-0.00965325627475977,0.8114882111549377,-0.0,-0.0035639237612485886,0.7930258512496948,0.0,-0.03244148567318916
536.0,584.0,2.0716,-0.3948,9.2973,-0.0281,0.0182,-0.1162,-1.458050676887371,0.0,1.5835247039794922,-1.9575656652450562,-0.0,2.1095733642578125,4.686503573054932,-0.0,0.2919350266456604,-1.5384839216815394,0.0,-0.015339098870754242,0.8115283250808716,-0.0,0.009772001765668392,0.793053925037384,0.0,-0.03634519502520561
536.0,584.0,2.0716,-0.3948,9.2973,-0.0281,0.0182,-0.1162,-1.4580467504313965,0.0,1.640821933746338,-1.9575810432434082,-0.0,2.0798261165618896,4.686503573054932,-0.0,0.3020753562450409,-1.5385006109820765,0.0,-0.02104000560939312,0.8115163445472717,-0.0,-0.011546659283339977,0.7929938435554504,0.0,-0.01192025002092123
536.0,584.0,2.0716,-0.3948,9.2973,-0.0281,0.0182,-0.1162,-1.4580467280796547,0.0,1.6760268211364746,-1.9575849771499634,-0.0,2.097031831741333,4.686520262355469,-0.0,0.2889428436756134,-1.5385082403766077,0.0,-0.0037913909181952477,0.8116000294685364,-0.0,0.0021279689390212297,0.7930939793586731,0.0,0.03139566630125046
536.0,584.0,2.0716,-0.3948,9.2973,-0.0281,0.0182,-0.1162,-1.4580467355302353,0.0,1.6277642250061035,-1.9575695991516113,-0.0,2.1053316593170166,4.686447306270264,-0.0,0.3022317588329315,-1.5384963194476526,0.0,-0.018157821148633957,0.8114843368530273,-0.0,0.011200090870261192,0.7930458784103394,0.0,0.0026400904171168804
536.0,584.0,2.0716,-0.3948,9.2973,-0.0281,0.0182,-0.1162,-1.4580148619464417,0.0,1.6550315618515015,-1.9575889110565186,-0.0,2.133443832397461,4.686499281520508,-0.0,0.29711848497390747,-1.5385082403766077,0.0,-0.02798551879823208,0.8115283250808716,-0.0,0.013601237908005714,0.7930899858474731,0.0,0.02415919117629528
536.0,584.0,2.0716,-0.3948,9.2973,-0.0281,0.0182,-0.1162,-1.4580388155630608,0.0,1.6420001983642578,-1.9575656652450562,-0.0,2.152846336364746,4.6864635187336425,-0.0,0.29644474387168884,-1.5384963194476526,0.0,-0.014831285923719406,0.8115242719650269,-0.0,0.004946387372910976,0.7930778861045837,0.0,0.03140752390027046
536.0,584.0,2.0716,-0.3948,9.2973,-0.0281,0.0182,-0.1162,-1.4580267381719132,0.0,1.634739637374878,-1.9575374126434326,-0.0,2.1258156299591064,4.686491175288818,-0.0,0.29948580265045166,-1.5385449568377894,0.0,-0.015986241400241852,0.8115401268005371,-0.0,-0.01494663767516613,0.7930738925933838,0.0,-0.012659981846809387
535.0,632.0,2.1374,-0.3769,9.1669,-0.0336,0.0318,-0.1243,-1.4580108609846612,0.0,1.6544270515441895,-1.9575656652450562,-0.0,2.1587016582489014,4.686467810268066,-0.0,0.3004751205444336,-1.5385244528399866,0.0,-0.009192399680614471,0.8115124702453613,-0.0,-0.00636983523145318,0.7930458784103394,0.0,0.057762108743190765
535.0,632.0,2.1374,-0.3769,9.1669,-0.0336,0.0318,-0.1243,-1.457978942697384,0.0,1.6374082565307617,-1.9575536251068115,-0.0,2.1901679039001465,4.686471624965332,-0.0,0.28546416759490967,-1.5385039488421839,0.0,-0.009168237447738647,0.8115603923797607,-0.0,0.0016955509781837463,0.7930698394775391,0.0,0.045900821685791016
535.0,632.0,2.1374,-0.3769,9.1669,-0.0336,0.0318,-0.1243,-1.4580348444036026,0.0,1.6150257587432861,-1.957521915435791,-0.0,2.142489194869995,4.686524077052734,-0.0,0.28051578998565674,-1.5385282675372522,0.0,-0.020188165828585625,0.811556339263916,-0.0,0.0057662115432322025,0.7930859327316284,0.0,0.047419242560863495
535.0,632.0,2.1374,-0.3769,9.1669,-0.0336,0.0318,-0.1243,-1.4580586415580292,0.0,1.6589081287384033,-1.9576332569122314,-0.0,2.1023385524749756,4.686435862178467,-0.0,0.29402562975883484,-1.5385282675372522,0.0,-0.029217807576060295,0.8114489912986755,-0.0,-0.010624144226312637,0.7930778861045837,0.0,0.019418321549892426
535.0,632.0,2.1374,-0.3769,9.1669,-0.0336,0.0318,-0.1243,-1.458026797776558,0.0,1.6134283542633057,-1.9575377702713013,-0.0,2.0901308059692383,4.6864635187336425,-0.0,0.2925514280796051,-1.5385244528399866,0.0,-0.0081724738702178,0.8115164041519165,-0.0,-0.0007237640093080699,0.7930939793586731,0.0,0.05138435587286949
535.0,632.0,2.1374,-0.3769,9.1669,-0.0336,0.0318,-0.1243,-1.458030880694725,0.0,1.644710898399353,-1.9576054811477661,-0.0,2.1235594749450684,4.686455412501953,-0.0,0.29863154888153076,-1.5384638945208948,0.0,-0.014937382191419601,0.8115044832229614,-0.0,-0.003446092363446951,0.7930619716644287,0.0,0.029776014387607574
535.0,632.0,2.1374,-0.3769,9.1669,-0.0336,0.0318,-0.1243,-1.4580308583429833,0.0,1.6482305526733398,-1.9575849771499634,-0.0,2.1035897731781006,4.686455412501953,-0.0,0.3106035590171814,-1.5385006109820765,0.0,-0.014112796634435654,0.8115441799163818,-0.0,0.0019870661199092865,0.7930619716644287,0.0,0.007299851626157761
535.0,632.0,2.1374,-0.3769,9.1669,-0.0336,0.0318,-0.1243,-1.4580348295024415,0.0,1.6541283130645752,-1.9575532674789429,-0.0,2.122722625732422,4.686494989986084,-0.0,0.2934141755104065,-1.5385282675372522,0.0,-0.006951649207621813,0.8115322589874268,-0.0,-0.005311783403158188,0.7931020259857178,0.0,-0.025262806564569473
535.0,632.0,2.1374,-0.3769,9.1669,-0.0336,0.0318,-0.1243,-1.4580107939294358,0.0,1.6317622661590576,-1.957565188407898,-0.0,2.1082963943481445,4.686503573054932,-0.0,0.3001527488231659,-1.5385449568377894,0.0,-0.013020055368542671,0.8115159869194031,-0.0,0.0073704794049263,0.7930778861045837,0.0,-0.04049956798553467
535.0,632.0,2.1374,-0.3769,9.1669,-0.0336,0.0318,-0.1243,-1.458050699239113,0.0,1.656864881515503,-1.9575810432434082,-0.0,2.1230435371398926,4.686491175288818,-0.0,0.30255556106567383,-1.5384801069842737,0.0,-0.01245250552892685,0.8115322589874268,-0.0,0.003730898490175605,0.7930338978767395,0.0,0.03135182335972786
535.0,632.0,2.1374,-0.3769,9.1669,-0.0336,0.0318,-0.1243,-1.4580267828753968,0.0,1.6654422283172607,-1.9575849771499634,-0.0,2.1464576721191406,4.686471624965332,-0.0,0.2952836751937866,-1.5385001341449183,0.0,-0.011347262188792229,0.8115520477294922,-0.0,-0.005877453368157148,0.793073832988739,0.0,-0.09933160245418549
468.0,607.0,2.1027,-0.4002,9.2483,-0.0359,0.0171,-0.1158,-1.4580388230136414,0.0,1.6262545585632324,-1.9575532674789429,-0.0,2.133948802947998,4.686467810268066,-0.0,0.28606516122817993,-1.5385201613055628,0.0,-0.011850852519273758,0.8115322589874268,-0.0,-0.005837846547365189,0.7930738925933838,0.0,-0.010391603223979473
468.0,607.0,2.1027,-0.4002,9.2483,-0.0359,0.0171,-0.1158,-1.4580148693970223,0.0,1.6592364311218262,-1.9575810432434082,-0.0,2.1315579414367676,4.686507864589355,-0.0,0.29498469829559326,-1.5385406653033655,0.0,-0.025832485407590866,0.8115121722221375,-0.0,-0.0028713145293295383,0.7930619716644287,0.0,0.008526292629539967
468.0,607.0,2.1027,-0.4002,9.2483,-0.0359,0.0171,-0.1158,-1.4580748540214081,0.0,1.6223909854888916,-1.9575656652450562,-0.0,2.131075859069824,4.686503573054932,-0.0,0.29283350706100464,-1.5384963194476526,0.0,-0.02784985862672329,0.8115402460098267,-0.0,-0.008432925678789616,0.7930738925933838,0.0,0.03867630660533905
468.0,607.0,2.1027,-0.4002,9.2483,-0.0359,0.0171,-0.1158,-1.4580267903259774,0.0,1.6102385520935059,-1.957597017288208,-0.0,2.1703948974609375,4.686499758357666,-0.0,0.3083159327507019,-1.538476292287008,0.0,-0.01017508003860712,0.8115044236183167,-0.0,-0.003503954503685236,0.7930819392204285,0.0,-0.03025294654071331
468.0,607.0,2.1027,-0.4002,9.2483,-0.0359,0.0171,-0.1158,-1.4580188033035775,0.0,1.641650915145874,-1.9575849771499634,-0.0,2.1311631202697754,4.686451120967529,-0.0,0.2956313192844391,-1.538464371358053,0.0,-0.012575442902743816,0.8114880323410034,-0.0,0.012007948011159897,0.7930859327316284,0.0,0.0018905954202637076
468.0,607.0,2.1027,-0.4002,9.2483,-0.0359,0.0171,-0.1158,-1.4580507290414353,0.0,1.6813364028930664,-1.957589030265808,-0.0,2.1158294677734375,4.686515493983887,-0.0,0.28891217708587646,-1.5385039488421839,0.0,-0.024735892191529274,0.8115482330322266,-0.0,-0.022232655435800552,0.7930579781532288,0.0,-0.03010808862745762
468.0,607.0,2.1027,-0.4002,9.2483,-0.0359,0.0171,-0.1158,-1.4580027771047135,0.0,1.5886626243591309,-1.9575810432434082,-0.0,2.1619350910186768,4.686483069057129,-0.0,0.3044179379940033,-1.5384562651263636,0.0,-0.015962127596139908,0.8115605115890503,-0.0,0.0016899495385587215,0.7930298447608948,0.0,0.05246824398636818
468.0,607.0,2.1027,-0.4002,9.2483,-0.0359,0.0171,-0.1158,-1.4580748540214081,0.0,1.6229236125946045,-1.9575412273406982,-0.0,2.158316135406494,4.686467810268066,-0.0,0.29071250557899475,-1.5385244528399866,0.0,-0.018469780683517456,0.8115605711936951,-0.0,-0.0015585788059979677,0.7930778861045837,0.0,0.011821446940302849
468.0,607.0,2.1027,-0.4002,9.2483,-0.0359,0.0171,-0.1158,-1.4579869222692032,0.0,1.687016248703003,-1.957597017288208,-0.0,2.1286890506744385,4.686478777522705,-0.0,0.3092515468597412,-1.5385125319110315,0.0,-0.001985824666917324,0.8115322589874268,-0.0,0.005905562546104193,0.7930298447608948,0.0,-0.028568724170327187
468.0,607.0,2.1027,-0.4002,9.2483,-0.0359,0.0171,-0.1158,-1.4580388155630608,0.0,1.6668028831481934,-1.9575532674789429,-0.0,2.1324400901794434,4.686471624965332,-0.0,0.29383182525634766,-1.5384600798236292,0.0,-0.011467044241726398,0.8115040063858032,-0.0,-0.00618123821914196,0.7930218577384949,0.0,-0.009843070060014725
468.0,607.0,2.1027,-0.4002,9.2483,-0.0359,0.0171,-0.1158,-1.4580188033035775,0.0,1.6339478492736816,-1.9575377702713013,-0.0,2.139277696609497,4.686471624965332,-0.0,0.3021549880504608,-1.5384801069842737,0.0,-0.013694142922759056,0.8114798665046692,-0.0,0.005393629427999258,0.7930939793586731,0.0,0.01463204063475132
508.0,590.0,2.0393,-0.3793,9.2985,-0.0373,0.0156,-0.1197,-1.4580348444036026,0.0,1.67844557762146,-1.9575612545013428,-0.0,2.1321334838867188,4.686524077052734,-0.0,0.2877868711948395,-1.5385368506061,0.0,-0.01548878662288189,0.8115121722221375,-0.0,0.0019483747892081738,0.7930698394775391,0.0,0.004503990523517132
508.0,590.0,2.0393,-0.3793,9.2985,-0.0373,0.0156,-0.1197,-1.4580268275788804,0.0,1.618980884552002,-1.9575934410095215,-0.0,2.153748035430908,4.6864635187336425,-0.0,0.2955828607082367,-1.5385368506061,0.0,-0.01590948924422264,0.8115286231040955,-0.0,0.002614796394482255,0.7930778861045837,0.0,0.07921180874109268
508.0,590.0,2.0393,-0.3793,9.2985,-0.0373,0.0156,-0.1197,-1.4580267754248162,0.0,1.6612567901611328,-1.9575810432434082,-0.0,2.1056203842163086,4.6864868837543945,-0.0,0.2984429597854614,-1.5385125319110315,0.0,-0.0016099170316010714,0.8115523457527161,-0.0,0.002627377863973379,0.793053925037384,0.0,-0.02731725201010704
508.0,590.0,2.0393,-0.3793,9.2985,-0.0373,0.0156,-0.1197,-1.458030880694725,0.0,1.5952659845352173,-1.9575695991516113,-0.0,2.0926384925842285,4.686483545894287,-0.0,0.2972414195537567,-1.5385368506061,0.0,-0.02246181294322014,0.8115121722221375,-0.0,0.00440602470189333,0.7930378913879395,0.0,0.02996719442307949
508.0,590.0,2.0393,-0.3793,9.2985,-0.0373,0.0156,-0.1197,-1.4579868552139779,0.0,1.6371160745620728,-1.9575934410095215,-0.0,2.140069007873535,4.6864868837543945,-0.0,0.2882857322692871,-1.5385039488421839,0.0,-0.018203428015112877,0.8115686774253845,-0.0,0.007264741230756044,0.7930899858474731,0.0,0.04668819159269333
508.0,590.0,2.0393,-0.3793,9.2985,-0.0373,0.0156,-0.1197,-1.4580708679607888,0.0,1.583411455154419,-1.957573652267456,-0.0,2.1018097400665283,4.686479731197021,-0.0,0.3054460883140564,-1.538508717213766,0.0,-0.011109985411167145,0.8115322589874268,-0.0,-0.0035749298986047506,0.793053925037384,0.0,-0.007161332760006189
508.0,590.0,2.0393,-0.3793,9.2985,-0.0373,0.0156,-0.1197,-1.4580546778491517,0.0,1.6966552734375,-1.9575611352920532,-0.0,2.162215232849121,4.686439676875732,-0.0,0.29325181245803833,-1.5385125319110315,0.0,-0.0018297196365892887,0.8116089701652527,-0.0,0.004059023689478636,0.7930660247802734,0.0,0.013648400083184242
508.0,590.0,2.0393,-0.3793,9.2985,-0.0373,0.0156,-0.1197,-1.4580867302468796,0.0,1.6113882064819336,-1.957597017288208,-0.0,2.1032886505126953,4.686475439662598,-0.0,0.3022436201572418,-1.5384801069842737,0.0,-0.02599358931183815,0.8114359378814697,-0.0,-0.0026008281856775284,0.793117880821228,0.0,-0.0026725884526968002
508.0,590.0,2.0393,-0.3793,9.2985,-0.0373,0.0156,-0.1197,-1.458010808830597,0.0,1.610992431640625,-1.9575775861740112,-0.0,2.134382724761963,4.686479731197021,-0.0,0.2891726493835449,-1.5384963194476526,0.0,-0.016469303518533707,0.8114756345748901,-0.0,-0.0026511559262871742,0.7930539846420288,0.0,-0.03785408288240433
508.0,590.0,2.0393,-0.3793,9.2985,-0.0373,0.0156,-0.1197,-1.458022804265358,0.0,1.6118829250335693,-1.957589030265808,-0.0,2.117790699005127,4.686455412501953,-0.0,0.2943997085094452,-1.5384839216815394,0.0,-0.01401873305439949,0.811523973941803,-0.0,-0.0018701987573876977,0.7930458784103394,0.0,0.02971113659441471
529.0,8190.0,2.0949,-0.393,9.1872,-0.0368,0.0241,-0.1177,-1.458006778066494,0.0,1.6832219362258911,-1.9575451612472534,-0.0,2.1307754516601562,4.686447306270264,-0.0,0.29903993010520935,-1.5384801069842737,0.0,-0.01892620138823986,0.8115400075912476,-0.0,0.00905784871429205,0.7930619716644287,0.0,-0.03686369210481644
529.0,8190.0,2.0949,-0.393,9.1872,-0.0368,0.0241,-0.1177,-1.4580148619464417,0.0,1.6254875659942627,-1.9575451612472534,-0.0,2.162498950958252,4.686499758357666,-0.0,0.30731552839279175,-1.5384963194476526,0.0,-0.019647721201181412,0.8115203380584717,-0.0,-0.012403570115566254,0.7931059002876282,0.0,0.0723414272069931
529.0,8190.0,2.0949,-0.393,9.1872,-0.0368,0.0241,-0.1177,-1.4579829660109063,0.0,1.6521152257919312,-1.957589030265808,-0.0,2.1102840900421143,4.686451120967529,-0.0,0.2899135947227478,-1.538532559071676,0.0,-0.003013542853295803,0.8115482926368713,-0.0,0.0029082568362355232,0.7930899858474731,0.0,-0.015528109855949879
529.0,8190.0,2.0949,-0.393,9.1872,-0.0368,0.0241,-0.1177,-1.4580188033035775,0.0,1.630594253540039,-1.9575172662734985,-0.0,2.0973658561706543,4.686467810268066,-0.0,0.2925281524658203,-1.5385244528399866,0.0,-0.011885986663401127,0.8114440441131592,-0.0,-0.0014850435545668006,0.7930499315261841,0.0,0.03130052611231804
529.0,8190.0,2.0949,-0.393,9.1872,-0.0368,0.0241,-0.1177,-1.4580467504313965,0.0,1.6550030708312988,-1.9575695991516113,-0.0,2.1548099517822266,4.686471624965332,-0.0,0.28651300072669983,-1.538447682057516,0.0,-0.013567652553319931,0.8115482330322266,-0.0,-0.0032763760536909103,0.7930658459663391,0.0,-0.01579313352704048
529.0,8190.0,2.0949,-0.393,9.1872,-0.0368,0.0241,-0.1177,-1.4580227968147774,0.0,1.6445467472076416,-1.9575457572937012,-0.0,2.0841424465179443,4.686475439662598,-0.0,0.2944077253341675,-1.5385039488421839,0.0,-0.018346838653087616,0.8115079998970032,-0.0,-0.017054572701454163,0.7930258512496948,0.0,-0.013931067660450935
529.0,8190.0,2.0949,-0.393,9.1872,-0.0368,0.0241,-0.1177,-1.4580188033035775,0.0,1.6362066268920898,-1.9575616121292114,-0.0,2.1346826553344727,4.6864635187336425,-0.0,0.29525336623191833,-1.5384920279132288,0.0,-0.009766988456249237,0.8115805983543396,-0.0,-0.009980719536542892,0.7931020259857178,0.0,0.04200761765241623
529.0,8190.0,2.0949,-0.393,9.1872,-0.0368,0.0241,-0.1177,-1.4580188033035775,0.0,1.6578292846679688,-1.9575849771499634,-0.0,2.143953323364258,4.686475439662598,-0.0,0.28443124890327454,-1.5384720007525843,0.0,-0.016285447403788567,0.811523973941803,-0.0,-0.0052849119529128075,0.7930819392204285,0.0,-0.009889261797070503
529.0,8190.0,2.0949,-0.393,9.1872,-0.0368,0.0241,-0.1177,-1.457974874680378,0.0,1.6655471324920654,-1.9575775861740112,-0.0,2.1431777477264404,4.686499281520508,-0.0,0.2861964702606201,-1.5384920279132288,0.0,0.0005697911838069558,0.8115121722221375,-0.0,-0.006715700030326843,0.7930738925933838,0.0,0.051035914570093155
529.0,8190.0,2.0949,-0.393,9.1872,-0.0368,0.0241,-0.1177,-1.4580507215908547,0.0,1.6852848529815674,-1.9575929641723633,-0.0,2.1408135890960693,4.686455412501953,-0.0,0.293077290058136,-1.538532559071676,0.0,-0.009384962730109692,0.8115040063858032,-0.0,-0.0007685056189075112,0.7930858731269836,0.0,0.012604623101651669
529.0,8190.0,2.0949,-0.393,9.1872,-0.0368,0.0241,-0.1177,-1.4580148619464417,0.0,1.676198124885559,-1.957585096359253,-0.0,2.153733491897583,4.686459227199219,-0.0,0.2929843068122864,-1.5385449568377894,0.0,-0.011712734587490559,0.811556339263916,-0.0,-0.009788372553884983,0.7930580377578735,0.0,0.011289888992905617
522.0,635.0,2.0973,-0.1944,9.2106,-0.0446,0.0302,-0.1182,-1.4580267754248162,0.0,1.619949221611023,-1.9575656652450562,-0.0,2.1742806434631348,4.686459227199219,-0.0,0.28568869829177856,-1.5384920279132288,0.0,-0.00974619947373867,0.811523973941803,-0.0,-0.007097315974533558,0.7930458784103394,0.0,0.003721274435520172
522.0,635.0,2.0973,-0.1944,9.2106,-0.0446,0.0302,-0.1182,-1.4580708679607888,0.0,1.6443469524383545,-1.9575929641723633,-0.0,2.099760055541992,4.686495466823242,-0.0,0.29221102595329285,-1.5384958426104944,0.0,-0.006819506641477346,0.8114835023880005,-0.0,-0.006620517931878567,0.7930458784103394,0.0,-0.06905912607908249
522.0,635.0,2.0973,-0.1944,9.2106,-0.0446,0.0302,-0.1182,-1.4580348295024415,0.0,1.6342207193374634,-1.9575296640396118,-0.0,2.105347156524658,4.686494989986084,-0.0,0.3043156862258911,-1.5385368506061,0.0,-0.018449801951646805,0.8114962577819824,-0.0,-0.011830279603600502,0.7930980324745178,0.0,0.022943604737520218
522.0,635.0,2.0973,-0.1944,9.2106,-0.0446,0.0302,-0.1182,-1.458058663909771,0.0,1.6198585033416748,-1.957557201385498,-0.0,2.14860200881958,4.686491175288818,-0.0,0.285334050655365,-1.5384839216815394,0.0,-0.01789766363799572,0.811564564704895,-0.0,-0.001708208117634058,0.7930738925933838,0.0,0.027682000771164894
522.0,635.0,2.0973,-0.1944,9.2106,-0.0446,0.0302,-0.1182,-1.4580107194236298,0.0,1.6726274490356445,-1.9575695991516113,-0.0,2.1814115047454834,4.686512156123779,-0.0,0.29162511229515076,-1.5385082403766077,0.0,-0.0059400321915745735,0.8115363121032715,-0.0,-0.010114308446645737,0.7930700182914734,0.0,0.04140719398856163
522.0,635.0,2.0973,-0.1944,9.2106,-0.0446,0.0302,-0.1182,-1.4580188033035775,0.0,1.655409336090088,-1.9576054811477661,-0.0,2.128854513168335,4.686507387752197,-0.0,0.2888789474964142,-1.5385282675372522,0.0,-0.019365614280104637,0.8115805983543396,-0.0,-0.0032796224113553762,0.7930859327316284,0.0,-0.03225260600447655
522.0,635.0,2.0973,-0.1944,9.2106,-0.0446,0.0302,-0.1182,-1.4580067631653328,0.0,1.6509733200073242,-1.957573652267456,-0.0,2.1533396244049072,4.686411543483398,-0.0,0.2979174256324768,-1.5384963194476526,0.0,-0.014607402496039867,0.8115523457527161,-0.0,-0.009569665417075157,0.7930698394775391,0.0,-0.022485245019197464
522.0,635.0,2.0973,-0.1944,9.2106,-0.0446,0.0302,-0.1182,-1.458030880694725,0.0,1.5897408723831177,-1.9575377702713013,-0.0,2.1098580360412598,4.686447306270264,-0.0,0.2842780649662018,-1.5384920279132288,0.0,-0.005545788444578648,0.8115482926368713,-0.0,-0.010018684901297092,0.793097972869873,0.0,-0.0014231586828827858
522.0,635.0,2.0973,-0.1944,9.2106,-0.0446,0.0302,-0.1182,-1.4579948049834748,0.0,1.5897177457809448,-1.9575656652450562,-0.0,2.110154151916504,4.6864635187336425,-0.0,0.2982361912727356,-1.5385406653033655,0.0,-0.009076166898012161,0.811516284942627,-0.0,0.0009048786014318466,0.7930419445037842,0.0,0.03333142399787903
522.0,635.0,2.0973,-0.1944,9.2106,-0.0446,0.0302,-0.1182,-1.4580348295024415,0.0,1.6705456972122192,-1.9575377702713013,-0.0,2.073056936264038,4.6864868837543945,-0.0,0.2882072925567627,-1.5385082403766077,0.0,-0.0220385380089283,0.8114641904830933,-0.0,-0.01113859936594963,0.7930738925933838,0.0,0.041645511984825134
522.0,635.0,2.0973,-0.1944,9.2106,-0.0446,0.0302,-0.1182,-1.4580506917885323,0.0,1.6448593139648438,-1.9575653076171875,-0.0,2.142803907394409,4.686511679286621,-0.0,0.2876735329627991,-1.5385244528399866,0.0,-0.0031595109030604362,0.8115077018737793,-0.0,0.0038895513862371445,0.7930778861045837,0.0,0.0059341080486774445
515.0,605.0,2.0106,0.3924,9.3308,-0.0283,0.015,-0.155,-1.4580067631653328,0.0,1.6541342735290527,-1.957557201385498,-0.0,2.0952343940734863,4.686455412501953,-0.0,0.28759628534317017,-1.5385478178607386,0.0,-0.004717367701232433,0.8115121722221375,-0.0,-0.005558261647820473,0.7931020259857178,0.0,-0.009999150410294533
515.0,605.0,2.0106,0.3924,9.3308,-0.0283,0.015,-0.155,-1.4580067631653328,0.0,1.658046007156372,-1.9575376510620117,-0.0,2.113027334213257,4.686467333430908,-0.0,0.2887504994869232,-1.538515869771139,0.0,-0.019987164065241814,0.8115482926368713,-0.0,-0.009608001448214054,0.7930619716644287,0.0,0.05519792437553406
515.0,605.0,2.0106,0.3924,9.3308,-0.0283,0.015,-0.155,-1.4580348295024415,0.0,1.614357352256775,-1.9575337171554565,-0.0,2.1583399772644043,4.6864635187336425,-0.0,0.29863014817237854,-1.5385282675372522,0.0,-0.004627502057701349,0.8114916682243347,-0.0,0.0007571958703920245,0.7930939793586731,0.0,-0.05426836386322975
515.0,605.0,2.0106,0.3924,9.3308,-0.0283,0.015,-0.155,-1.4580067706159134,0.0,1.6292881965637207,-1.9575695991516113,-0.0,2.156726360321045,4.686524077052734,-0.0,0.29517272114753723,-1.5384963194476526,0.0,-0.0068721226416528225,0.8115686774253845,-0.0,-0.002582740969955921,0.7930258512496948,0.0,0.010293965227901936
515.0,605.0,2.0106,0.3924,9.3308,-0.0283,0.015,-0.155,-1.4579948794892807,0.0,1.6125987768173218,-1.9575337171554565,-0.0,2.1511099338531494,4.686507864589355,5.305422767776236e-10,0.2831198573112488,-1.5385573546039026,0.0,-0.006947177462279797,0.8115281462669373,-0.0,0.002114887349307537,0.79299396276474,0.0,0.004007633309811354
515.0,605.0,2.0106,0.3924,9.3308,-0.0283,0.015,-0.155,-1.457930476670601,0.002050197683274746,1.651698112487793,-1.9575457572937012,2.148129851775593e-06,2.0978879928588867,4.686438723201416,9.642343550670361e-15,0.3057495951652527,-1.5384920279132288,0.0,-0.009588910266757011,0.8115363717079163,-0.0,-0.000241884496062994,0.7930659651756287,0.0,-0.005371420178562403
515.0,605.0,2.0106,0.3924,9.3308,-0.0283,0.015,-0.155,-1.4580029559186478,0.0014277126174420118,1.632152795791626,-1.9575775861740112,6.959667895158408e-14,2.1610162258148193,4.686527414912842,1.7524481728956227e-19,0.2914588153362274,-1.5384882132159632,0.0,-0.010985590517520905,0.8115565180778503,-0.0,0.006627323571592569,0.7931138277053833,0.0,-0.04883793741464615
515.0,605.0,2.0106,0.3924,9.3308,-0.0283,0.015,-0.155,-1.4579907071641465,3.849145002732257e-09,1.6431641578674316,-1.9575817584991455,3.0251613491206246e-23,2.1418142318725586,4.686495466823242,2.0795697268832445e-25,0.29443201422691345,-1.5385239760028284,0.0,-0.008312265388667583,0.8115564584732056,-0.0,-0.00021893595112487674,0.7930939197540283,0.0,0.06992345303297043
515.0,605.0,2.0106,0.3924,9.3308,-0.0283,0.015,-0.155,-1.4580067333630105,1.2470740350971956e-16,1.660428524017334,-1.957585096359253,9.80113930139346e-31,2.143544912338257,4.686512156123779,3.779515640605657e-30,0.2885228991508484,-1.5384839216815394,0.0,0.00028596422635018826,0.8115121722221375,-0.0,-0.013970139436423779,0.7930899262428284,0.0,-0.03514481335878372
515.0,605.0,2.0106,0.3924,9.3308,-0.0283,0.015,-0.155,-1.4579948720387002,4.040361357520653e-24,1.683459997177124,-1.9575695991516113,3.1754437741688526e-38,2.1173267364501953,4.686499758357666,6.869082743032877e-35,0.30308324098587036,-1.538515869771139,0.0,-0.005926326382905245,0.8115523457527161,-0.0,-0.0012692242162302136,0.7930859923362732,0.0,-0.004987980239093304
504.0,8190.0,2.6548,0.9021,8.8792,-0.0499,0.0499,-0.0999,-1.457938903277256,1.309025689548861e-31,1.6502246856689453,-1.9576178789138794,1.401298464324817e-45,2.088526725769043,4.686491175288818,1.2484224070608368e-39,0.2995051145553589,-1.5385201613055628,0.0,-0.006634415127336979,0.8115162253379822,-0.0,-0.005786958150565624,0.7930499315261841,0.0,0.00028490772820077837
504.0,8190.0,2.6548,0.9021,8.8792,-0.0499,0.0499,-0.0999,-1.4580546778491517,5.68997241439092e-41,1.635682463645935,-1.9575337171554565,6.764655609003967e-06,2.0920653343200684,4.6864868837543945,1.401298464324817e-45,0.30269956588745117,-1.5385282675372522,0.0,-0.02197546698153019,0.8115040063858032,-0.0,0.003546641208231449,0.793053925037384,0.0,0.06441875547170639
504.0,8190.0,2.6548,0.9021,8.8792,-0.0499,0.0499,-0.0999,-1.458022804265358,-0.00018653858569450676,1.6599485874176025,-1.9576455354690552,-8.933487697504461e-05,2.1237497329711914,4.686494989986084,0.0,0.3010641038417816,-1.5384963194476526,0.0,-0.0172603540122509,0.8115363717079163,-0.0,0.004080688580870628,0.7930859923362732,0.0,-0.021331537514925003
504.0,8190.0,2.6548,0.9021,8.8792,-0.0499,0.0499,-0.0999,-1.4580507066896935,-0.001363396062515676,1.6508865356445312,-1.9575492143630981,-0.00010519187344470993,2.1420164108276367,4.686391516322754,0.0,0.28797683119773865,-1.5385201613055628,0.0,-0.018429286777973175,0.8115203380584717,-0.0,0.008851371705532074,0.7930499911308289,0.0,0.07028643786907196
504.0,8190.0,2.6548,0.9021,8.8792,-0.0499,0.0499,-0.0999,-1.4580307391336937,-0.0011838733917102218,1.6181055307388306,-1.957537055015564,-0.00011473263293737546,2.1256227493286133,4.686439676875732,-0.0003013220557477325,0.2986936569213867,-1.5385082403766077,0.0,-0.021567905321717262,0.8115523457527161,-0.0,-0.014190240763127804,0.7930018901824951,0.0,-0.050100263208150864
504.0,8190.0,2.6548,0.9021,8.8792,-0.0499,0.0499,-0.0999,-1.458058924680092,-0.0007279529236257076,1.6546401977539062,-1.9576213359832764,-0.0002634671691339463,2.1169135570526123,4.686463041896484,-0.0002886586880777031,0.2856929898262024,-1.538532559071676,0.0,-0.00791962444782257,0.8116203546524048,-0.0,-0.006444805301725864,0.7930298447608948,0.0,0.015824291855096817
504.0,8190.0,2.6548,0.9021,8.8792,-0.0499,0.0499,-0.0999,-1.458098867242672,-0.00047508685383945704,1.6252570152282715,-1.9575974941253662,-0.00014278478920459747,2.13010835647583,4.686484022731445,-0.00023787704412825406,0.2990454137325287,-1.5385244528399866,0.0,-0.019665714353322983,0.8115565180778503,-0.0,0.0008837428176775575,0.7930619716644287,0.0,-0.033393893390893936
504.0,8190.0,2.6548,0.9021,8.8792,-0.0499,0.0499,-0.0999,-1.458111272459366,-0.0003513928677421063,1.641397476196289,-1.9575810432434082,-0.00010765271144919097,2.0881218910217285,4.686399145717285,-0.00020223495084792376,0.29440242052078247,-1.5385521093951624,0.0,-0.007167493458837271,0.8115686774253845,-0.0,2.3764907382428646e-05,0.793126106262207,0.0,0.004795851651579142
504.0,8190.0,2.6548,0.9021,8.8792,-0.0499,0.0499,-0.0999,-1.4580708307078858,-0.0003093071572948247,1.6247270107269287,-1.9575775861740112,-8.975817763712257e-05,2.101027488708496,4.686455889339111,-0.0001703348389128223,0.30582278966903687,-1.5385120550738733,0.0,-0.012465249747037888,0.811556339263916,-0.0,-0.005946468096226454,0.7930458784103394,0.0,-0.001894284039735794
504.0,8190.0,2.6548,0.9021,8.8792,-0.0499,0.0499,-0.0999,-1.4580507066896935,-0.0002585320034995675,1.631765365600586,-1.9575971364974976,8.696156874066219e-05,2.0866737365722656,4.686471148128174,-0.0001512493472546339,0.3008652329444885,-1.538476292287008,0.0,-0.020092450082302094,0.811556339263916,-0.0,-0.010576527565717697,0.7930899262428284,0.0,0.02778729610145092
504.0,8190.0,2.6548,0.9021,8.8792,-0.0499,0.0499,-0.0999,-1.4580384877375145,-0.00022207664733286947,1.5809202194213867,-1.957589030265808,0.00010934919555438682,2.1076407432556152,4.686467333430908,-0.0001360103051410988,0.29452723264694214,-1.538532559071676,0.0,-0.004524087067693472,0.8115966320037842,-0.0,0.006425178609788418,0.7930539846420288,0.0,0.027731191366910934
500.0,726.0,2.0584,-0.4116,9.2285,-0.0389,0.0315,-0.1292,-1.4580907461098214,-0.00022243676357902586,1.6570172309875488,-1.9575531482696533,0.00012547247752081603,2.102510452270508,4.686475439662598,-0.00010829042730620131,0.2973107695579529,-1.5385082403766077,0.0,-0.02018638141453266,0.811495840549469,-0.0,0.0009390013292431831,0.7930659651756287,0.0,-0.012281288392841816
500.0,726.0,2.0584,-0.4116,9.2285,-0.0389,0.0315,-0.1292,-1.4580910813859482,-0.0001685900060692802,1.6264761686325073,-1.9576135873794556,0.00010685146844480187,2.1406445503234863,4.686455412501953,-9.239630162483081e-05,0.290769100189209,-1.5385201613055628,0.0,-0.015312889590859413,0.8115646243095398,-0.0,-0.006101492792367935,0.7930298447608948,0.0,0.0035645850002765656
500.0,726.0,2.0584,-0.4116,9.2285,-0.0389,0.0315,-0.1292,-1.4580630597523232,-0.00015228884876705706,1.6587368249893188,-1.957517147064209,0.00011927697050850838,2.1428542137145996,4.686431570644043,-8.538354450138286e-05,0.2987246513366699,-1.5385001341449183,0.0,-0.010739220306277275,0.8115442991256714,-0.0,0.007294992916285992,0.7930659651756287,0.0,0.045624423772096634
500.0,726.0,2.0584,-0.4116,9.2285,-0.0389,0.0315,-0.1292,-1.4579989549568673,-0.00013886210217606276,1.6760454177856445,-1.9576135873794556,0.00019537787011358887,2.1714420318603516,4.6864868837543945,-7.936023030197248e-05,0.2907993197441101,-1.5385082403766077,0.0,-0.008732158690690994,0.8115400075912476,-0.0,-0.006191476248204708,0.7930619716644287,0.0,0.026817157864570618
500.0,726.0,2.0584,-0.4116,9.2285,-0.0389,0.0315,-0.1292,-1.4580427420190354,-0.0001250776695087552,1.6308598518371582,-1.9575417041778564,0.0001605402067070827,2.155513286590576,4.686507864589355,-7.292947702808306e-05,0.2978322505950928,-1.5385082403766077,0.0,-0.005823506973683834,0.8115240335464478,-0.0,-0.0033467495813965797,0.7930459380149841,0.0,-0.04790192097425461
500.0,726.0,2.0584,-0.4116,9.2285,-0.0389,0.0315,-0.1292,-1.458054819410183,-0.00011587554035941139,1.640564203262329,-1.9575417041778564,0.00014049098535906523,2.1736373901367188,4.686452074641846,-6.848949851701036e-05,0.29472726583480835,-1.5384677092181605,0.0,0.019329801201820374,0.8115482330322266,-0.0,-0.0006365046720020473,0.7930018901824951,0.0,-0.02634836733341217
500.0,726.0,2.0584,-0.4116,9.2285,-0.0389,0.0315,-0.1292,-1.4580708307078858,-0.00012335373321548104,1.6793593168258667,-1.9576177597045898,9.99167823465541e-05,2.1002602577209473,4.686439676875732,-6.455914990510792e-05,0.31245145201683044,-1.5385125319110315,0.0,-0.021022651344537735,0.8116006255149841,-0.0,0.0013661349657922983,0.7930338978767395,0.0,0.02428627386689186
500.0,726.0,2.0584,-0.4116,9.2285,-0.0389,0.0315,-0.1292,-1.4580828708461304,-0.0001227250904776156,1.6676020622253418,-1.9575376510620117,8.993122901301831e-05,2.1164016723632812,4.686471624965332,-6.105544889578596e-05,0.30018335580825806,-1.5384920279132288,0.0,-0.007260975427925587,0.8115805983543396,-0.0,0.0010261074639856815,0.7930458784103394,0.0,0.06503498554229736
500.0,726.0,2.0584,-0.4116,9.2285,-0.0389,0.0315,-0.1292,-1.4581351441195984,-0.002464862773194909,1.63307785987854,-1.9575655460357666,7.994569023139775e-05,2.112612009048462,4.686439200038574,-6.861178553663194e-05,0.30841702222824097,-1.5384519735919397,0.0,-0.0013725581811740994,0.8115400075912476,-0.0,-0.002912364434450865,0.7929732799530029,-0.0005689598037861288,-0.000875396654009819
500.0,726.0,2.0584,-0.4116,9.2285,-0.0389,0.0315,-0.1292,-1.458106407230236,-0.0031367919873446226,1.6284253597259521,-1.9575930833816528,7.342352910200134e-05,2.1306495666503906,4.686415358180664,-6.52935414109379e-05,0.3049904406070709,-1.5384963194476526,9.734246759762755e-07,0.003318432020023465,0.8115400075912476,-0.0,-0.009555843658745289,0.7929898500442505,-0.0011134230298921466,-0.011735698208212852
516.0,635.0,1.9442,-0.3673,9.2662,-0.0327,0.0249,-0.11,-1.458182954495289,-0.0036633629351854324,1.6310529708862305,-1.9576300382614136,6.788540486013517e-05,2.1679470539093018,4.686447783107422,-6.228130223462358e-05,0.30273282527923584,-1.5384724775897425,1.7691513184980856e-11,-0.008980343118309975,0.8115400075912476,-0.0,0.006093515548855066,0.7929778099060059,-0.0021954525727778673,-0.0016403167974203825
516.0,635.0,1.9442,-0.3673,9.2662,-0.0327,0.0249,-0.11,-1.4581987348249932,-0.004265150986611843,1.6379061937332153,-1.9575611352920532,6.31241055089049e-05,2.131673812866211,4.686475439662598,-3.0177548978826962e-05,0.306914359331131,-1.5385282675372522,3.2153447440134086e-16,-0.0004578344523906708,0.8115888833999634,-0.0,-0.015275298617780209,0.7929778099060059,-0.0020491669420152903,0.05250890552997589
516.0,635.0,1.9442,-0.3673,9.2662,-0.0327,0.0249,-0.11,-1.4582669672420998,-0.004176551941782236,1.6686874628067017,-1.9575417041778564,5.803605017717928e-05,2.1498308181762695,4.686459227199219,-3.58106495845778e-11,0.30918771028518677,-1.538480583821432,3.815537940130492e-22,-0.006909204646945,0.8115925192832947,-0.0,-0.0073836371302604675,0.7929825186729431,-0.0022688626777380705,-0.006595767103135586
516.0,635.0,1.9442,-0.3673,9.2662,-0.0327,0.0249,-0.11,-1.458315209751465,-0.004342677537351847,1.6219582557678223,-1.9575457572937012,5.452036566566676e-05,2.15446138381958,4.686467333430908,-6.508409525497728e-16,0.3068084716796875,-1.5384767691241663,0.00026669754879549146,4.9394555389881134e-05,0.8116085529327393,-0.0,-0.012880000285804272,0.7928977608680725,-0.0019301295978948474,0.007071671076118946
516.0,635.0,1.9442,-0.3673,9.2662,-0.0327,0.0249,-0.11,-1.4583790090731164,-0.005195908714085817,1.6027828454971313,-1.9575457572937012,5.1406339480308816e-05,2.2145333290100098,4.6864353853413085,-1.1828714263457407e-20,0.30942147970199585,-1.538480583821432,0.0002591518859844655,-0.0036911373026669025,0.8115441799163818,-0.0,-0.005868413019925356,0.7928617000579834,-0.001067818608134985,-0.005875254049897194
516.0,635.0,1.9442,-0.3673,9.2662,-0.0327,0.0249,-0.11,-1.4584027764252205,-0.005690103862434626,1.6654295921325684,-1.9575492143630981,4.798066947842017e-05,2.125197649002075,4.686487837428711,-1.4036722858054425e-26,0.30580055713653564,-1.5384486357318323,0.000243861461058259,0.008293487131595612,0.8115441799163818,-0.0,-0.01207022462040186,0.7929377555847168,-0.0006329072057269514,-0.0029593119397759438
516.0,635.0,1.9442,-0.3673,9.2662,-0.0327,0.0249,-0.11,-1.4584627610496064,-0.006565385963767767,1.613976001739502,-1.957605242729187,4.5552260417025536e-05,2.1366612911224365,4.686443491572998,-2.5511050950274314e-31,0.3105623126029968,-1.5384443441974085,0.00024132782709784806,0.010824577882885933,0.8115646243095398,-0.0,-0.005476281978189945,0.7929017543792725,-0.000515924533829093,-0.020108386874198914
516.0,635.0,1.9442,-0.3673,9.2662,-0.0327,0.0249,-0.11,-1.4585268062404175,-0.007762533146888018,1.6384320259094238,-1.9575172662734985,4.3357795220799744e-05,2.1546335220336914,4.686439200038574,-4.636507662838674e-36,0.31684377789497375,-1.5384405295001429,0.00023531995248049498,0.0007280794670805335,0.811495840549469,-0.0,-0.0009888940257951617,0.7928856611251831,-0.00040097482269629836,0.03729192167520523
516.0,635.0,1.9442,-0.3673,9.2662,-0.0327,0.0249,-0.11,-1.4585905832103272,-0.008443507365882397,1.6703228950500488,-1.9575212001800537,4.1365085053257644e-05,2.144865036010742,4.686415358180664,-8.426568185370855e-41,0.3187961280345917,-1.5384681860553187,0.0002309026604052633,-0.0015432313084602356,0.811524510383606,-0.0,0.00017872219905257225,0.7928897142410278,-0.00032791856210678816,0.01229064166545868
516.0,635.0,1.9442,-0.3673,9.2662,-0.0327,0.0249,-0.11,-1.4586626973799248,-0.008448184467852116,1.6335725784301758,-1.957585096359253,6.179573830422669e-08,2.1514017581939697,4.686491175288818,-0.0,0.32313162088394165,-1.5384529272662562,0.00021570204989984632,0.0009075882844626904,0.8115888833999634,-0.0,0.008046993985772133,0.7929658889770508,-0.0002670926623977721,-0.011430495418608189
516.0,635.0,1.9442,-0.3673,9.2662,-0.0327,0.0249,-0.11,-1.4587788221291085,-0.009225059300661087,1.6803228855133057,-1.9575377702713013,2.0021036135794935e-15,2.1577517986297607,4.686455889339111,-0.0,0.3226850628852844,-1.5383923689471644,0.00019612754113040864,0.009149637073278427,0.8115441799163818,-0.0,-0.004307745024561882,0.7928937077522278,-0.00023257997236214578,-0.03106740489602089
546.0,634.0,1.6343,-0.6598,8.9109,-0.0417,-0.0302,-0.1176,-1.458830976193287,-0.009319456294178963,1.6815438270568848,-1.957557201385498,1.140439144364791e-05,2.1694769859313965,4.686447783107422,-0.0,0.3286202549934387,-1.5384486357318323,0.00019929376139771193,0.000745727913454175,0.8115039467811584,-0.0,-0.01515311561524868,0.7928736805915833,-0.00020596654212567955,0.026906441897153854
546.0,634.0,1.6343,-0.6598,8.9109,-0.0417,-0.0302,-0.1176,-1.4589670833996315,-0.0096691669896245,1.640477180480957,-1.9575891494750977,1.0724907951953355e-05,2.1645257472991943,4.686467333430908,-0.0,0.3172554075717926,-1.5384123961078089,0.00018454354722052813,0.010305637493729591,0.811604917049408,-0.0,0.004053413402289152,0.7929257154464722,-0.0001801929174689576,-0.012009711936116219
546.0,634.0,1.6343,-0.6598,8.9109,-0.0417,-0.0302,-0.1176,-1.4590350848487397,-0.010831840336322784,1.6398389339447021,-1.9575930833816528,1.0236956768494565e-05,2.134272813796997,4.686443968410156,-0.0,0.3107280433177948,-1.53839618364443,0.0001588731538504362,0.006746153347194195,0.8114999532699585,-0.0,-0.006537271197885275,0.7929699420928955,-0.00016379577573388815,0.011577206663787365
546.0,634.0,1.6343,-0.6598,8.9109,-0.0417,-0.0302,-0.1176,-1.4591268760016938,-0.012871830724179745,1.653883695602417,-1.9575614929199219,4.532443398375108e-08,2.111642599105835,4.686479731197021,-0.0,0.31963223218917847,-1.5384200255023401,0.0001669887569732964,-0.017047014087438583,0.8115121722221375,-0.0,-0.004210842773318291,0.7929578423500061,-0.00015013403026387095,0.001616526860743761
546.0,634.0,1.6343,-0.6598,8.9109,-0.0417,-0.0302,-0.1176,-1.4592468452504654,-0.015449202619493008,1.6749330759048462,-1.9575653076171875,1.4684540103262079e-15,2.1185874938964844,4.686471624965332,-0.0,0.3028053343296051,-1.53839618364443,0.00017176907567773014,-0.0011383460368961096,0.811564564704895,-0.0,-0.0013950903667137027,0.7929257154464722,-9.204022353515029e-05,0.029744990170001984
546.0,634.0,1.6343,-0.6598,8.9109,-0.0417,-0.0302,-0.1176,-1.459406965678074,-0.019184008240699768,1.6471643447875977,-1.9575612545013428,6.382934401279995e-25,2.126467227935791,4.686463041896484,-0.0,0.3249450922012329,-1.5384166876422327,0.00017412847955711186,-0.008389968425035477,0.8115440607070923,-0.0,-0.009622963145375252,0.7929378151893616,-0.00010014935833169147,0.009668651968240738
546.0,634.0,1.6343,-0.6598,8.9109,-0.0417,-0.0302,-0.1176,-1.4595625785044213,-0.023841634392738342,1.5991531610488892,-1.9575695991516113,2.06798961217846e-32,2.1843271255493164,4.686431093806885,-0.0,0.3237333297729492,-1.5383723417865198,0.00019937369506806135,0.0036610316019505262,0.8115358948707581,-0.0,0.01813259720802307,0.7929418087005615,-0.00010879847104661167,-0.03331642225384712
546.0,634.0,1.6343,-0.6598,8.9109,-0.0417,-0.0302,-0.1176,-1.4598711517504235,-0.027927951887249947,1.5678033828735352,-1.9575976133346558,6.700028347476248e-40,2.1119470596313477,4.686471624965332,-0.0,0.3109792172908783,-1.5384247938739222,0.0002313332661287859,0.019658192992210388,0.811556339263916,-0.0,-0.0006398740224540234,0.7928978204727173,-0.00030582849285565317,0.01785721257328987
546.0,634.0,1.6343,-0.6598,8.9109,-0.0417,-0.0302,-0.1176,-1.4600912940553208,-0.03517782688140869,1.5831068754196167,-1.9575417041778564,0.0,2.1412367820739746,4.686467810268066,-0.0,0.3140004873275757,-1.5383685270892542,0.00023852406593505293,0.004752332344651222,0.8115076422691345,-0.0,0.0035835111048072577,0.7929058074951172,-0.00028927481616847217,0.009533347561955452
546.0,634.0,1.6343,-0.6598,8.9109,-0.0417,-0.0302,-0.1176,-1.460515358751156,-0.046198610216379166,1.5543437004089355,-1.9574811458587646,-0.0,2.166398763656616,4.686451120967529,-0.0,0.3033483028411865,-1.5383809248553675,0.0003909077786374837,0.015084771439433098,0.8115522265434265,-0.0,-0.011415584944188595,0.7929018139839172,-0.0002661845937836915,-0.017169561237096786
546.0,634.0,1.6343,-0.6598,8.9109,-0.0417,-0.0302,-0.1176,-1.460907743578293,-0.05623943358659744,1.5563256740570068,-1.9575138092041016,-0.0,2.112802028656006,4.686443491572998,-0.0,0.31132757663726807,-1.538384739552633,0.00040239826194010675,0.017142439261078835,0.8115966320037842,-0.0,0.0007380937458947301,0.7929298877716064,-0.0002597757847979665,-0.04013407230377197
580.0,8190.0,0.7382,-1.0445,8.8391,-0.0576,-0.0608,-0.1151,-1.4613433194211503,-0.06493300199508667,1.5114190578460693,-1.9575058221817017,-0.0,2.1700825691223145,4.686479731197021,-0.0,0.3138920068740845,-1.538384739552633,0.00041035894537344575,0.008783328346908092,0.8115879893302917,-0.0,-0.001603101147338748,0.7928977608680725,-0.00022735813399776816,-0.04751203954219818
580.0,8190.0,0.7382,-1.0445,8.8391,-0.0576,-0.0608,-0.1151,-1.4620353442481537,-0.07316984236240387,1.5105140209197998,-1.9575457572937012,0.00011372786684660241,2.11942982673645,4.686451120967529,-0.0,0.3162574768066406,-1.538344685231344,0.00040264680865220726,0.00673883780837059,0.8115600943565369,-0.0,-0.006600860506296158,0.7929058074951172,-0.00019635555509012192,-0.053869232535362244
580.0,8190.0,0.7382,-1.0445,8.8391,-0.0576,-0.0608,-0.1151,-1.4627239641598244,-0.08033812046051025,1.534769058227539,-1.9575291872024536,0.0001060715367202647,2.1241681575775146,4.686463041896484,-0.0,0.3059113919734955,-1.538344685231344,0.00045960050192661583,0.009076789952814579,0.811556339263916,-0.0,-0.0007587836589664221,0.7929297685623169,-0.00017704242782201618,-0.04510868340730667
580.0,8190.0,0.7382,-1.0445,8.8391,-0.0576,-0.0608,-0.1151,-1.4633871626904984,-0.08639122545719147,1.528329610824585,-1.957573652267456,9.937877621268854e-05,2.0928399562835693,4.686484022731445,-0.0,0.3028540015220642,-1.5383284727679651,0.0005625085323117673,0.02246449887752533,0.8115318417549133,-0.0,0.006105199456214905,0.7929419279098511,-0.00016118843632284552,-0.06959584355354309
580.0,8190.0,0.7382,-1.0445,8.8391,-0.0576,-0.0608,-0.1151,-1.4641348508051415,-0.08862030506134033,1.5102362632751465,-1.9575612545013428,9.348053572466597e-05,2.162964344024658,4.686427279109619,-0.0,0.3003898859024048,-1.5383527914630335,0.00125971925444901,0.007355031557381153,0.8115318417549133,-0.0,-0.014441494829952717,0.7929217219352722,-0.00014794059097766876,-0.015382790938019753
580.0,8190.0,0.7382,-1.0445,8.8391,-0.0576,-0.0608,-0.1151,-1.4650982183269043,-0.09641753882169724,1.48848295211792,-1.9575810432434082,8.283206989290193e-05,2.1509625911712646,4.686394854182861,-0.0,0.3065817952156067,-1.5382846037494105,0.012085093185305595,0.02794148027896881,0.81148362159729,-0.0,0.014112461358308792,0.7929217219352722,-0.00011738811735995114,-0.06600311398506165
580.0,8190.0,0.7382,-1.0445,8.8391,-0.0576,-0.0608,-0.1151,-1.4659574714354058,-0.10663046687841415,1.4480427503585815,-1.9575891494750977,0.0001007998434943147,2.142171859741211,4.686439676875732,-0.0,0.3047420382499695,-1.538100544606344,0.023217272013425827,0.03383257985115051,0.8116043210029602,-0.0,0.0033970389049500227,0.7929499745368958,-0.00010924585512839258,-0.04638851061463356
580.0,8190.0,0.7382,-1.0445,8.8391,-0.0576,-0.0608,-0.1151,-1.4668325421265145,-0.12108470499515533,1.4255257844924927,-1.957505464553833,0.0002481722622178495,2.12544846534729,4.686427279109619,-0.0,0.30293014645576477,-1.5380733648883265,0.014126017689704895,0.026791419833898544,0.811528205871582,-0.0,-0.012514619156718254,0.7929618954658508,-0.00010215991642326117,-0.07253226637840271
580.0,8190.0,0.7382,-1.0445,8.8391,-0.0576,-0.0608,-0.1151,-1.4678721216372033,-0.1317271590232849,1.4694948196411133,-1.9574651718139648,0.0014068097807466984,2.1005594730377197,4.686475439662598,-0.0,0.3023498058319092,-1.5380013624774378,0.001492429873906076,0.029136821627616882,0.8115921020507812,-0.0,0.0034177082125097513,0.7929297685623169,-9.593718277756125e-05,-0.041701789945364
580.0,8190.0,0.7382,-1.0445,8.8391,-0.0576,-0.0608,-0.1151,-1.469214679007866,-0.13012266159057617,1.4558619260787964,-1.95743727684021,0.00466171046718955,2.117245674133301,4.686443968410156,-0.0,0.31965965032577515,-1.5380094687091272,-0.00028464640490710735,0.03644929453730583,0.8116047978401184,-0.0,0.0020071780309081078,0.7929618954658508,-8.914944191928953e-05,-0.07321088016033173
834.0,935.0,1.8461,-1.066,9.1645,-0.0359,-0.1422,-0.1292,-1.4703739148429413,-0.1301177740097046,1.4525146484375,-1.9574413299560547,0.003985223360359669,2.1070592403411865,4.686391516322754,-0.0,0.3177162706851959,-1.5379412809955042,-0.00017419617506675422,0.02181074023246765,0.8116162419319153,-0.0,-0.00625084200873971,0.7929857969284058,-3.1627521821064875e-05,-0.09277838468551636
834.0,935.0,1.8461,-1.066,9.1645,-0.0359,-0.1422,-0.1292,-1.4714725849083443,-0.14761982858181,1.4201083183288574,-1.9574618339538574,0.0007818450685590506,2.1552529335021973,4.686463041896484,-0.0,0.30774641036987305,-1.53796893755068,-0.0001255483366549015,0.012604951858520508,0.8115400075912476,-0.0,0.005901438184082508,0.7929298877716064,-1.3815559213981032e-05,-0.03156003728508949
834.0,935.0,1.8461,-1.066,9.1645,-0.0359,-0.1422,-0.1292,-1.4730518099716683,-0.17061614990234375,1.427956461906433,-1.9574894905090332,-0.00011976646055700257,2.093134880065918,4.686443968410156,-0.0,0.2919837534427643,-1.5379770437823694,-9.307362779509276e-05,0.03163788840174675,0.8116048574447632,-0.0,-0.0008528053294867277,0.7929378151893616,-2.127788684447296e-05,-0.09337719529867172
834.0,935.0,1.8461,-1.066,9.1645,-0.0359,-0.1422,-0.1292,-1.474322148864605,-0.17246262729167938,1.4244939088821411,-1.9574296474456787,0.003695722669363022,2.162517786026001,4.686455412501953,-0.0,0.29724833369255066,-1.5380132834063929,-7.71188861108385e-05,0.025946691632270813,0.8115318417549133,-0.0,0.004064694046974182,0.7928736209869385,-4.838629683945328e-05,-0.024189919233322144
834.0,935.0,1.8461,-1.066,9.1645,-0.0359,-0.1422,-0.1292,-1.4756810528090973,-0.15765981376171112,1.4760178327560425,-1.9573540687561035,0.006956552620977163,2.111264944076538,4.6864635187336425,-0.0,0.31018903851509094,-1.5379932562457483,-6.583425420103595e-05,0.02105618268251419,0.8115522265434265,-0.0,-0.000780996517278254,0.7929379343986511,-4.6066532377153635e-05,-0.07331180572509766
834.0,935.0,1.8461,-1.066,9.1645,-0.0359,-0.1422,-0.1292,-1.4769957822612305,-0.15911392867565155,1.5124452114105225,-1.9573171138763428,0.005429210606962442,2.129713296890259,4.686494989986084,-0.0,0.30510252714157104,-1.5379770437823694,-5.7431065215496346e-05,0.024736441671848297,0.8116040229797363,-0.0,-0.005520308390259743,0.7929818034172058,4.0910770621849224e-05,-0.0446612574160099
834.0,935.0,1.8461,-1.066,9.1645,-0.0359,-0.1422,-0.1292,-1.4787708085826416,-0.18729501962661743,1.4565668106079102,-1.9573496580123901,0.00038541623507626355,2.1248927116394043,4.686479731197021,-0.0,0.29617422819137573,-1.5379694143878382,-4.9528964154887944e-05,0.024943862110376358,0.8115400075912476,-0.0,0.012132006697356701,0.7929700613021851,6.713541370118037e-05,-0.04474952071905136
834.0,935.0,1.8461,-1.066,9.1645,-0.0359,-0.1422,-0.1292,-1.4802257058075448,-0.19432994723320007,1.453902244567871,-1.9573211669921875,5.735609556745125e-11,2.130673885345459,4.6864635187336425,-0.0,0.3036423325538635,-1.537957493458883,-4.4617787352763116e-05,0.016387516632676125,0.8116203546524048,-0.0,0.004044031724333763,0.7929098010063171,3.038989052583929e-05,-0.030494345352053642
834.0,935.0,1.8461,-1.066,9.1645,-0.0359,-0.1422,-0.1292,-1.4816598755172272,-0.18378061056137085,1.4560537338256836,-1.9572453498840332,0.0067085931077599525,2.1217470169067383,4.686495466823242,-8.687550234753871e-08,0.31799066066741943,-1.5379651228534144,-4.0592851291876286e-05,0.011288733221590519,0.811556339263916,-0.0,-0.0021189989056438208,0.7929779291152954,2.347404735869585e-11,0.001153426244854927
834.0,935.0,1.8461,-1.066,9.1645,-0.0359,-0.1422,-0.1292,-1.483590581720211,-0.1833990067243576,1.515735149383545,-1.9571740627288818,0.00920045468956232,2.108342170715332,4.686455412501953,-1.0309214961735924e-13,0.31109917163848877,-1.5380056540118616,-3.647934863693081e-05,0.010007301345467567,0.8115764856338501,-0.0,-4.340754821896553e-05,0.7929538488388062,1.0203469149678364e-20,-0.06725230067968369
834.0,935.0,1.8461,-1.066,9.1645,-0.0359,-0.1422,-0.1292,-1.485100769703724,-0.19354897737503052,1.4837816953659058,-1.9571466445922852,0.0072562010027468204,2.154836893081665,4.6864868837543945,-1.8736488734453944e-18,0.296551376581192,-1.5379412809955042,-3.3743857784429565e-05,0.006784108467400074,0.8115400075912476,-0.0,0.006885136943310499,0.7929217219352722,3.3057947123700395e-28,-0.0588441826403141
972.0,984.0,1.8,-0.0443,9.5689,-0.0228,-0.1819,-0.1266,-1.4866478380611916,-0.2053031325340271,1.522727608680725,-1.9571342468261719,0.002521126763895154,2.1446309089660645,4.686524077052734,-3.4052645099705065e-23,0.31907105445861816,-1.5380056540118616,-3.138997999485582e-05,0.01241725031286478,0.8115723729133606,-0.0,0.013077063485980034,0.7929538488388062,0.0002419738011667505,-0.06394395232200623
972.0,984.0,1.8,-0.0443,9.5689,-0.0228,-0.1819,-0.1266,-1.4881940123489876,-0.20765453577041626,1.51889967918396,-1.9570701122283936,0.0014242958277463913,2.1149725914001465,4.686531706447266,-6.188899802055579e-28,0.3081679940223694,-1.5379770437823694,-2.934310214186553e-05,0.0013120350195094943,0.8115441799163818,-0.0,-0.0019916114397346973,0.7929499745368958,0.0001573448535054922,-0.019422292709350586
972.0,984.0,1.8,-0.0443,9.5689,-0.0228,-0.1819,-0.1266,-1.4902240198901673,-0.1973218470811844,1.5460426807403564,-1.9570870399475098,0.004981473088264465,2.103151559829712,4.686491175288818,0.00018996646394953132,0.30695202946662903,-1.5379894415484827,-2.713163303269539e-05,0.009615511633455753,0.8115359544754028,-0.0,-0.0019159666262567043,0.7928857207298279,5.474078352563083e-05,-0.026809902861714363
972.0,984.0,1.8,-0.0443,9.5689,-0.0228,-0.1819,-0.1266,-1.491854691212513,-0.19433146715164185,1.5682013034820557,-1.9570144414901733,0.007138475310057402,2.135468006134033,4.68646685659375,0.00019791777594946325,0.3106258809566498,-1.5380132834063929,-2.5588828066247515e-05,0.005996721796691418,0.8115605115890503,-0.0,0.010279299691319466,0.7929379343986511,4.4027878175256774e-05,0.029905924573540688
972.0,984.0,1.8,-0.0443,9.5689,-0.0228,-0.1819,-0.1266,-1.4935377103141327,-0.2079974263906479,1.5342588424682617,-1.9569263458251953,0.005790472496300936,2.1487789154052734,4.6864635187336425,0.00017261016182601452,0.31240174174308777,-1.5379450956927698,-2.421203134872485e-05,0.0015582636697217822,0.811564564704895,-0.0,0.002802488161250949,0.7929018139839172,7.36439906177111e-05,0.0794261023402214
972.0,984.0,1.8,-0.0443,9.5689,-0.0228,-0.1819,-0.1266,-1.4952196788838883,-0.21331307291984558,1.5107157230377197,-1.9569425582885742,0.003599835792556405,2.1286463737487793,4.686474962825439,0.00015304058615583926,0.33177053928375244,-1.537985626851217,-2.2975829779170454e-05,-0.008244352415204048,0.8115277886390686,-0.0,0.004141552373766899,0.7929178476333618,6.328647577902302e-05,-0.01090688444674015
972.0,984.0,1.8,-0.0443,9.5689,-0.0228,-0.1819,-0.1266,-1.4973579880646248,-0.2150922566652298,1.5633958578109741,-1.9568578004837036,0.004473520442843437,2.1043801307678223,4.686507864589355,0.00013404458877630532,0.3330002427101135,-1.5379651228534144,-2.1597446902887896e-05,0.013226372189819813,0.8115400075912476,-0.0,0.004673588089644909,0.7928977608680725,5.382420204114169e-05,-0.018840814009308815
972.0,984.0,1.8,-0.0443,9.5689,-0.0228,-0.1819,-0.1266,-1.4991007533720513,-0.21965529024600983,1.5523998737335205,-1.9568465948104858,0.006586070172488689,2.131931781768799,4.686495466823242,0.00012193669681437314,0.31875380873680115,-1.5379651228534144,-2.0608364138752222e-05,-0.00438795518130064,0.8115322589874268,-0.0,0.0022442222107201815,0.7928975224494934,3.227243360015564e-05,0.041989777237176895
972.0,984.0,1.8,-0.0443,9.5689,-0.0228,-0.1819,-0.1266,-1.5009347808412095,-0.21409514546394348,1.573521614074707,-1.9566974639892578,0.009122604504227638,2.15315580368042,4.68650404989209,0.00013046854292042553,0.33163630962371826,-1.5379694143878382,-2.566348030086374e-06,-5.607807543128729e-05,0.8115600943565369,-0.0,0.0016232550842687488,0.7929819822311401,2.1716941773775034e-05,0.039016496390104294
972.0,984.0,1.8,-0.0443,9.5689,-0.0228,-0.1819,-0.1266,-1.5031806764057656,-0.21702700853347778,1.5736463069915771,-1.95664644241333,0.010142098180949688,2.1289844512939453,4.686515970821045,0.00013512108125723898,0.3278934955596924,-1.5380094687091272,-3.045397050857601e-12,0.012716159224510193,0.811596155166626,-0.0,0.005453521851450205,0.7929459810256958,1.9378898286959156e-05,0.02744327113032341
972.0,984.0,1.8,-0.0443,9.5689,-0.0228,-0.1819,-0.1266,-1.5049230468324204,-0.23498010635375977,1.5621888637542725,-1.9565904140472412,0.006754400674253702,2.1383180618286133,4.686499758357666,0.00011050531611545011,0.32065075635910034,-1.5379651228534144,-5.5348583771111555e-17,-0.006735037546604872,0.8115358948707581,-0.0,0.005519894417375326,0.7929098010063171,1.7842194210970774e-05,0.016973812133073807
997.0,981.0,2.6632,0.0969,9.8207,-0.0115,-0.1723,-0.1319,-1.506745034163334,-0.23134194314479828,1.613814353942871,-1.956526279449463,0.005741892382502556,2.1328859329223633,4.686531706447266,0.00011723154602805153,0.31141918897628784,-1.5380175749408167,-1.0059332120147432e-21,-0.003463879693299532,0.8115281462669373,-0.0,-0.004807743243873119,0.7929379343986511,1.932545728777768e-06,0.022130127996206284
997.0,981.0,2.6632,0.0969,9.8207,-0.0115,-0.1723,-0.1319,-1.5085441668382664,-0.2241811454296112,1.5974674224853516,-1.9564504623413086,0.007213866338133812,2.111231565475464,4.686571760768555,0.00010688664042390883,0.320620059967041,-1.5379770437823694,-1.828233835358689e-26,-0.005681641399860382,0.8115682601928711,-0.0,0.0012487024068832397,0.7929539680480957,6.261202493973439e-14,0.038137760013341904
997.0,981.0,2.6632,0.0969,9.8207,-0.0115,-0.1723,-0.1319,-1.5107979488423844,-0.2277124673128128,1.635972023010254,-1.9563751220703125,0.009765811264514923,2.166783094406128,4.686487360591553,9.287986904382706e-05,0.340751051902771,-1.5379975477801722,-2.1695019247692143e-32,-0.012876167893409729,0.8115358948707581,-0.0,0.002124692313373089,0.7929539680480957,2.7215587634154555e-23,0.03947112709283829
997.0,981.0,2.6632,0.0969,9.8207,-0.0115,-0.1723,-0.1319,-1.5125719916871567,-0.22367772459983826,1.656482458114624,-1.9563026428222656,0.010744564235210419,2.159024953842163,4.686495466823242,0.00010291686339769512,0.33652228116989136,-1.5379450956927698,-3.942962856944964e-37,-0.005166230723261833,0.8115605115890503,-0.0,0.0029568879399448633,0.7929098010063171,8.817504436534983e-31,0.02942274510860443
997.0,981.0,2.6632,0.0969,9.8207,-0.0115,-0.1723,-0.1319,-1.5143989038518448,-0.22618983685970306,1.7073912620544434,-1.9562513828277588,0.012343158945441246,2.19357967376709,4.686539812678955,9.566009975969791e-05,0.3257289230823517,-1.5379932562457483,-7.166240346557115e-42,-0.010962487198412418,0.8115723729133606,-0.0,-0.007749795448035002,0.7929499745368958,2.856759916892717e-38,0.041257064789533615
997.0,981.0,2.6632,0.0969,9.8207,-0.0115,-0.1723,-0.1319,-1.5161608655801793,-0.23133404552936554,1.6679034233093262,-1.9561190605163574,0.01380170788615942,2.2228305339813232,4.686479254359863,8.9330154878553e-05,0.34460580348968506,-1.537985626851217,-0.0,-0.011079961434006691,0.811548113822937,-0.0,-0.009782873094081879,0.7929459810256958,1.401298464324817e-45,0.014827637933194637
997.0,981.0,2.6632,0.0969,9.8207,-0.0115,-0.1723,-0.1319,-1.518398930584528,-0.23221957683563232,1.6505141258239746,-1.9559071063995361,0.016910269856452942,2.2262003421783447,4.686479254359863,9.534494893159717e-05,0.32772254943847656,-1.5380132834063929,-0.0,-0.015175733715295792,0.8115605115890503,-0.0,0.0023489317391067743,0.7929218411445618,0.0,0.06104939058423042
997.0,981.0,2.6632,0.0969,9.8207,-0.0115,-0.1723,-0.1319,-1.5202454452267666,-0.23028908669948578,1.6770339012145996,-1.955759048461914,0.02295675128698349,2.20157527923584,4.686495466823242,0.00010355961421737447,0.3398614227771759,-1.5379694143878382,-0.0,-0.008710328489542007,0.8115560412406921,-0.0,-0.0055793337523937225,0.7928977608680725,-0.0003647957055363804,0.10355988144874573
997.0,981.0,2.6632,0.0969,9.8207,-0.0115,-0.1723,-0.1319,-1.5220760193518181,-0.22596131265163422,1.725550889968872,-1.955595850944519,0.03170427307486534,2.2318060398101807,4.686495466823242,0.00020881477394141257,0.34959232807159424,-1.5379493872271937,-0.0,-0.012113054282963276,0.8115642070770264,-0.0,-0.0029350295662879944,0.7929219007492065,-0.0003851318615488708,0.04363803565502167
997.0,981.0,2.6632,0.0969,9.8207,-0.0115,-0.1723,-0.1319,-1.5243936491063614,-0.23274748027324677,1.7230479717254639,-1.9551994800567627,0.04333794489502907,2.272136688232422,4.686511202449463,0.00017991336062550545,0.3675687909126282,-1.5379813353167933,-0.0,-0.0028761664871126413,0.8115562796592712,-0.0,-0.010585485026240349,0.7928778529167175,-0.00042698398465290666,0.00646200031042099
1013.0,958.0,3.2411,-0.3051,9.4702,-0.0348,-0.0609,-0.1333,-1.526372541939356,-0.23488612473011017,1.7430790662765503,-1.9548434019088745,0.05207298696041107,2.2658917903900146,4.686511202449463,0.00016146758571267128,0.3556676506996155,-1.5379450956927698,-0.0,-0.021659979596734047,0.811519980430603,-0.0,-0.0019358309218659997,0.7928536534309387,-0.0004736397531814873,0.08898163586854935
1013.0,958.0,3.2411,-0.3051,9.4702,-0.0348,-0.0609,-0.1333,-1.5282625009170552,-0.23275303840637207,1.7608654499053955,-1.9543520212173462,0.06346368044614792,2.277022361755371,4.686479254359863,0.00016735032841097564,0.3511410355567932,-1.537957493458883,-0.0,-0.006506103090941906,0.811572790145874,-0.0,-0.0006311854813247919,0.7928376793861389,-0.0007434837170876563,0.07045082002878189
1013.0,958.0,3.2411,-0.3051,9.4702,-0.0348,-0.0609,-0.1333,-1.530204777871706,-0.24452625215053558,1.7141478061676025,-1.9537934064865112,0.07425602525472641,2.3000152111053467,4.686559363002441,0.0001531345333205536,0.355567067861557,-1.537917439137594,-0.0,-0.021900147199630737,0.8115317821502686,-0.0,-0.0014634851831942797,0.7928577661514282,-0.0009647823171690106,0.09563012421131134
1013.0,958.0,3.2411,-0.3051,9.4702,-0.0348,-0.0609,-0.1333,-1.5326704506627102,-0.23523010313510895,1.7759603261947632,-1.9529707431793213,0.0912879928946495,2.3431363105773926,4.686579867000244,0.00021051085786893964,0.3610042333602905,-1.5379651228534144,-0.0,0.00019181182142347097,0.8115965723991394,-0.0,0.011425988748669624,0.7928577661514282,-0.002646991517394781,0.026636281982064247
1013.0,958.0,3.2411,-0.3051,9.4702,-0.0348,-0.0609,-0.1333,-1.5346449253014107,-0.2380346953868866,1.7794530391693115,-1.9521070718765259,0.10556470602750778,2.381150245666504,4.686506910915039,0.00021357690275181085,0.35943204164505005,-1.537985626851217,-0.0,-0.009232840500772,0.8115363121032715,-0.0,-0.0012442381121218204,0.7927976846694946,-0.002891390584409237,0.026422172784805298
1013.0,958.0,3.2411,-0.3051,9.4702,-0.0348,-0.0609,-0.1333,-1.536611122345068,-0.2487202137708664,1.762190341949463,-1.9512313604354858,0.10948633402585983,2.4320669174194336,4.686523600215576,0.00018807135347742587,0.35310637950897217,-1.5380213896380823,-0.0,-0.012197261676192284,0.8115441799163818,-0.0,-0.00977816991508007,0.7928258180618286,-0.0019161116797477007,0.02960054762661457
1013.0,958.0,3.2411,-0.3051,9.4702,-0.0348,-0.0609,-0.1333,-1.5389847879162808,-0.24373981356620789,1.822191596031189,-1.9500997066497803,0.11512686312198639,2.3702926635742188,4.686531706447266,0.00016364356270059943,0.36247244477272034,-1.5379532019244593,-0.0,-0.01110951229929924,0.8115203380584717,-0.0,-0.009012965485453606,0.7927898168563843,-0.001954893581569195,0.08920510113239288
1013.0,958.0,3.2411,-0.3051,9.4702,-0.0348,-0.0609,-0.1333,-1.5409636416337271,-0.2427852749824524,1.789738416671753,-1.9490798711776733,0.13379453122615814,2.4655356407165527,4.686527414912842,0.00016941680223681033,0.36026525497436523,-1.5379498640643519,-0.0,-0.009077563881874084,0.811523973941803,-0.0,-0.00172978057526052,0.7927820682525635,-0.0024195753503590822,0.07891681790351868
1013.0,958.0,3.2411,-0.3051,9.4702,-0.0348,-0.0609,-0.1333,-1.5429179587266226,-0.24176199734210968,1.8527965545654297,-1.9479774236679077,0.14830036461353302,2.489553451538086,4.686511202449463,0.00015484313189517707,0.35745567083358765,-1.5379450956927698,-0.0,-0.0068311141803860664,0.81148761510849,-0.0,-0.004356546327471733,0.7927173972129822,-0.002762692514806986,0.04496076703071594
1013.0,958.0,3.2411,-0.3051,9.4702,-0.0348,-0.0609,-0.1333,-1.5447636556676407,-0.23545493185520172,1.8768807649612427,-1.9466720819473267,0.16303877532482147,2.4691386222839355,4.686479254359863,0.00014257764269132167,0.3591424822807312,-1.537957493458883,-0.0,-0.00916956551373005,0.8114724159240723,-0.0,-0.003055823966860771,0.7927016019821167,-0.0031508600804954767,0.03920716792345047
1013.0,958.0,3.2411,-0.3051,9.4702,-0.0348,-0.0609,-0.1333,-1.547077401807048,-0.24260050058364868,1.901601791381836,-1.945062518119812,0.17383413016796112,2.4138686656951904,4.686511202449463,0.0001297275157412514,0.35607439279556274,-1.537973705922262,-0.0,-0.013994967564940453,0.8115764856338501,-0.0,-0.0041692559607326984,0.7926936745643616,-0.002867455594241619,0.11991193890571594
987.0,940.0,3.1747,-0.186,9.7364,-0.0379,0.0593,-0.1411,-1.5490239702961226,-0.24586060643196106,1.8848602771759033,-1.9436081647872925,0.1869947910308838,2.5379271507263184,4.686531706447266,0.00011356251343386248,0.34246113896369934,-1.5379255453692835,-0.0,-0.017811419442296028,0.8115359544754028,-0.0,0.0021898166742175817,0.7926129102706909,-0.0030685162637382746,0.0275278203189373
987.0,940.0,3.1747,-0.186,9.7364,-0.0379,0.0593,-0.1411,-1.5509666346809645,-0.24214547872543335,1.8247183561325073,-1.9419816732406616,0.20227234065532684,2.519195079803467,4.686519308681152,9.921440505422652e-05,0.3535420298576355,-1.5379775206195276,-0.0,-0.02299368381500244,0.8115162253379822,-0.0,-0.0017714558634907007,0.7926056385040283,-0.005926021374762058,-0.0012729954905807972
987.0,940.0,3.1747,-0.186,9.7364,-0.0379,0.0593,-0.1411,-1.5528851070306082,-0.23685772716999054,1.9008493423461914,-1.940271019935608,0.21300168335437775,2.470196485519409,4.686519308681152,9.33348128455691e-05,0.37152811884880066,-1.5379498640643519,-0.0,-0.008006771095097065,0.8115240335464478,-0.0,0.0023115682415664196,0.792537271976471,-0.007307025603950024,0.02748909220099449
987.0,940.0,3.1747,-0.186,9.7364,-0.0379,0.0593,-0.1411,-1.5553188037923356,-0.2415645271539688,1.864822506904602,-1.9380425214767456,0.2279539555311203,2.517482042312622,4.686523123378418,9.929778752848506e-05,0.34234076738357544,-1.5379498640643519,-0.0,-0.004588710144162178,0.8115441799163818,-0.0,-0.004379880148917437,0.7924854755401611,-0.007332672365009785,0.0025796759873628616
987.0,940.0,3.1747,-0.186,9.7364,-0.0379,0.0593,-0.1411,-1.5572728815353294,-0.2422122359275818,1.873504877090454,-1.9361764192581177,0.24442297220230103,2.5234060287475586,4.686531706447266,8.274880383396521e-05,0.3645535111427307,-1.5379379431353968,-0.0,-0.005838609766215086,0.8115565180778503,-0.0,-0.0006573311984539032,0.7924172282218933,-0.008916367776691914,-0.03448939323425293
987.0,940.0,3.1747,-0.186,9.7364,-0.0379,0.0593,-0.1411,-1.5592231361991544,-0.23926790058612823,1.9191789627075195,-1.9341497421264648,0.2498628795146942,2.548574924468994,4.686511202449463,4.6991437557153404e-05,0.34369686245918274,-1.5379169623004358,-0.0,-0.009085763245821,0.8115079998970032,-0.0,0.010800893418490887,0.7923251390457153,-0.011125962249934673,0.028235984966158867
987.0,940.0,3.1747,-0.186,9.7364,-0.0379,0.0593,-0.1411,-1.561704727155604,-0.2521626651287079,1.9051663875579834,-1.9315464496612549,0.2673058807849884,2.5834712982177734,4.68655173360791,4.337000791565515e-05,0.3494090437889099,-1.5379374662982386,-0.0,-0.01353289932012558,0.8115158677101135,-0.0,-0.004864866379648447,0.792209267616272,-0.012341300025582314,-0.006179217714816332
987.0,940.0,3.1747,-0.186,9.7364,-0.0379,0.0593,-0.1411,-1.5636950859664758,-0.24266964197158813,1.8882451057434082,-1.9293361902236938,0.2817264497280121,2.5604264736175537,4.686511202449463,4.075163451489061e-05,0.34406888484954834,-1.5379579702960413,-0.0,-0.00032134633511304855,0.8114675283432007,-0.0,-0.005470864474773407,0.7920687198638916,-0.016139298677444458,0.02456388622522354
987.0,940.0,3.1747,-0.186,9.7364,-0.0379,0.0593,-0.1411,-1.5656857409379263,-0.2417636513710022,1.8971458673477173,-1.9270339012145996,0.2961748242378235,2.5684456825256348,4.6865479189106445,3.843141166726127e-05,0.35026437044143677,-1.5379532019244593,-0.0,-0.005328569561243057,0.8115203380584717,-0.0,-0.008437113836407661,0.7919365763664246,-0.017989253625273705,-0.046031467616558075
987.0,940.0,3.1747,-0.186,9.7364,-0.0379,0.0593,-0.1411,-1.567711444604658,-0.25481197237968445,1.9373595714569092,-1.9246004819869995,0.3078504204750061,2.5783700942993164,4.6865479189106445,-4.532850653049536e-05,0.3504199981689453,-1.5379088560687464,-0.0,-0.03052399307489395,0.8115605711936951,-0.0,-0.0002899360843002796,0.7917926907539368,-0.01836116425693035,-0.03480146452784538
987.0,940.0,3.1747,-0.186,9.7364,-0.0379,0.0593,-0.1411,-1.5701695293285702,-0.2530648112297058,1.843853235244751,-1.9214876890182495,0.3264608383178711,2.6415958404541016,4.6864868837543945,-9.210669668391347e-05,0.3589301109313965,-1.5379255453692835,-0.0,-0.008047111332416534,0.8115482330322266,-0.0,0.0008781061042100191,0.791632890701294,-0.021452508866786957,-0.025357196107506752
974.0,973.0,2.3934,0.0479,9.6826,-0.0218,0.1599,-0.1585,-1.572195669213766,-0.2594303786754608,1.9127259254455566,-1.9187743663787842,0.3298988342285156,2.6207098960876465,4.686491175288818,-0.00043192956945858896,0.3407013416290283,-1.5379417578326624,-0.0,-0.0017125094309449196,0.8115605115890503,-0.0,-0.005020712967962027,0.7914124727249146,-0.0229380764067173,-0.05989818274974823
974.0,973.0,2.3934,0.0479,9.6826,-0.0218,0.1599,-0.1585,-1.5742460689940394,-0.26240861415863037,1.890683650970459,-1.9160652160644531,0.35158681869506836,2.6419520378112793,4.686499758357666,-0.00025149370776489377,0.32113099098205566,-1.5379131476031702,-0.0,-0.02008274756371975,0.8115522861480713,-0.0,0.00437566265463829,0.7912163138389587,-0.024233076721429825,-0.059365928173065186
974.0,973.0,2.3934,0.0479,9.6826,-0.0218,0.1599,-0.1585,-1.576304098168844,-0.2560978829860687,1.894871711730957,-1.913248062133789,0.3635045289993286,2.6571810245513916,4.686503573054932,-9.206165850628167e-05,0.3274899125099182,-1.5379255453692835,-0.0,0.004643831867724657,0.811460554599762,-0.0,-0.0007855587173253298,0.7910323143005371,-0.027678031474351883,-0.07188329100608826
974.0,973.0,2.3934,0.0479,9.6826,-0.0218,0.1599,-0.1585,-1.578898092309469,-0.259179025888443,1.8526571989059448,-1.909576654434204,0.3732786774635315,2.5963006019592285,4.686503573054932,-0.0002347759873373434,0.3240620493888855,-1.5378969351397913,-0.0,-0.00447702594101429,0.811491847038269,-0.0,-0.012202106416225433,0.7907394170761108,-0.030762096866965294,-0.05508497729897499
974.0,973.0,2.3934,0.0479,9.6826,-0.0218,0.1599,-0.1585,-1.5810042820372523,-0.2704868018627167,1.8498897552490234,-1.9065701961517334,0.3706994354724884,2.605257987976074,4.686483069057129,-0.0005552452057600021,0.321414053440094,-1.5379536787616175,-0.0,-0.013081874698400497,0.8115482330322266,-0.0,-0.008755897171795368,0.790451169013977,-0.03176436200737953,-0.10834798961877823
974.0,973.0,2.3934,0.0479,9.6826,-0.0218,0.1599,-0.1585,-1.5831386051573695,-0.276373952627182,1.839284896850586,-1.9035077095031738,0.3795415759086609,2.6067943572998047,4.686455412501953,-0.0004109112487640232,0.2979869246482849,-1.537973705922262,-0.0,0.010474585928022861,0.8115441799163818,-0.0,-0.004036268685013056,0.7901914119720459,-0.03563312068581581,-0.09292919933795929
974.0,973.0,2.3934,0.0479,9.6826,-0.0218,0.1599,-0.1585,-1.5858360729613246,-0.2734483778476715,1.8553720712661743,-1.8996241092681885,0.38703396916389465,2.589073657989502,4.686507864589355,-0.0003098276793025434,0.3162032663822174,-1.5379379431353968,-0.0,-0.004886093083769083,0.8115200400352478,-0.0,-0.003849574364721775,0.7898070216178894,-0.0411212183535099,-0.10147465020418167
974.0,973.0,2.3934,0.0479,9.6826,-0.0218,0.1599,-0.1585,-1.5880824528136195,-0.27453941106796265,1.8378313779830933,-1.8965119123458862,0.3921702802181244,2.5811448097229004,4.686495466823242,-0.0002588873903732747,0.3015352785587311,-1.5379379431353968,-0.0,-0.00909374188631773,0.8115604519844055,-0.0,0.013973903842270374,0.7894262075424194,-0.0439268983900547,-0.11466450989246368
974.0,973.0,2.3934,0.0479,9.6826,-0.0218,0.1599,-0.1585,-1.590320726434225,-0.2713817059993744,1.8376449346542358,-1.8933613300323486,0.3990401327610016,2.5942506790161133,4.686471624965332,-0.00016507631517015398,0.3007180690765381,-1.5379417578326624,-0.0,-0.000780611764639616,0.8115441799163818,-0.0,0.002521747490391135,0.7890947461128235,-0.045517247170209885,-0.08824603259563446
974.0,973.0,2.3934,0.0479,9.6826,-0.0218,0.1599,-0.1585,-1.5926271877684535,-0.2876185476779938,1.8128626346588135,-1.8902467489242554,0.4017525017261505,2.5659773349761963,4.686443968410156,-0.0005101035349071026,0.3099994659423828,-1.5379498640643519,-0.0,0.002399729797616601,0.8115605115890503,-0.0,-0.010696304962038994,0.7886816263198853,-0.04820914939045906,-0.11580193042755127
953.0,951.0,2.0369,-0.6562,8.2929,-0.0541,0.0762,-0.1877,-1.5955807171263636,-0.2923988997936249,1.8097196817398071,-1.8862197399139404,0.3993435502052307,2.605215072631836,4.686427279109619,-0.000875565514434129,0.29175373911857605,-1.5379293600665491,-0.0,0.0016669201431795955,0.811576783657074,-0.0,-0.004662121180444956,0.7882055044174194,-0.05361257120966911,-0.1375676691532135
953.0,951.0,2.0369,-0.6562,8.2929,-0.0541,0.0762,-0.1877,-1.598006387750143,-0.3044081926345825,1.7194563150405884,-1.8830313682556152,0.4036305546760559,2.585927724838257,4.686455889339111,-0.0005738405743613839,0.2961399257183075,-1.5379293600665491,-0.0,0.02197849377989769,0.8115203380584717,-0.0,0.0010987764690071344,0.7877371311187744,-0.05753732845187187,-0.17448961734771729
953.0,951.0,2.0369,-0.6562,8.2929,-0.0541,0.0762,-0.1877,-1.600436349908346,-0.301866739988327,1.7816314697265625,-1.8798679113388062,0.4064965844154358,2.603727102279663,4.686459227199219,-0.0004574342165142298,0.28547948598861694,-1.5378888289081019,-0.0,0.017629306763410568,0.8114960193634033,-0.0,-0.004749364219605923,0.7871999144554138,-0.06166666001081467,-0.17796175181865692
953.0,951.0,2.0369,-0.6562,8.2929,-0.0541,0.0762,-0.1877,-1.6034704647459925,-0.31316280364990234,1.760197401046753,-1.8758412599563599,0.39212313294410706,2.497950553894043,4.686371489162109,-0.00137566146440804,0.28131750226020813,-1.5379293600665491,-0.0,0.007938867434859276,0.8115441799163818,-0.0,-0.0003565161023288965,0.7866438031196594,-0.0619085468351841,-0.22370633482933044
953.0,951.0,2.0369,-0.6562,8.2929,-0.0541,0.0762,-0.1877,-1.606077333489889,-0.3220997154712677,1.8049705028533936,-1.8726379871368408,0.3904903829097748,2.573882579803467,4.686378641719482,-0.0007479686755686998,0.27265071868896484,-1.5379212538348597,-0.0,0.004517173394560814,0.8114917278289795,-0.0,8.279643952846527e-05,0.7861195206642151,-0.06294063478708267,-0.14645597338676453
953.0,951.0,2.0369,-0.6562,8.2929,-0.0541,0.0762,-0.1877,-1.6085669002928675,-0.32359495759010315,1.7995247840881348,-1.8695149421691895,0.38752204179763794,2.526974678039551,4.686371489162109,-0.0005059077520854771,0.27072566747665405,-1.5379088560687464,-0.0,0.007699277251958847,0.8115318417549133,-0.0,0.0015913983806967735,0.7855989336967468,-0.0669357180595398,-0.24037614464759827
953.0,951.0,2.0369,-0.6562,8.2929,-0.0541,0.0762,-0.1877,-1.6111051044859828,-0.31928539276123047,1.7947801351547241,-1.8663225173950195,0.3823264539241791,2.5103163719177246,4.6864353853413085,-0.0004375397111289203,0.2719596028327942,-1.537961784993307,-0.0,0.01185876876115799,0.8114999532699585,-0.0,-0.020997343584895134,0.7850595712661743,-0.07063619792461395,-0.18881328403949738
953.0,951.0,2.0369,-0.6562,8.2929,-0.0541,0.0762,-0.1877,-1.614246507684225,-0.3225433826446533,1.8244190216064453,-1.8625966310501099,0.3824792206287384,2.5043911933898926,4.686475439662598,-0.0003247697895858437,0.2673817574977875,-1.5379293600665491,-0.0,0.0169318038970232,0.8115728497505188,-0.0,-0.0024377545341849327,0.7843580842018127,-0.06570887565612793,-0.18505512177944183
953.0,951.0,2.0369,-0.6562,8.2929,-0.0541,0.0762,-0.1877,-1.6168247661986292,-0.32755139470100403,1.829360008239746,-1.8595776557922363,0.37960463762283325,2.4903969764709473,4.68641106664624,-0.0002828142896760255,0.2688114643096924,-1.5379012266742151,-0.0,0.02190445363521576,0.8115482926368713,-0.0,-0.02123267576098442,0.7838659882545471,-0.06185685843229294,-0.1789821982383728
953.0,951.0,2.0369,-0.6562,8.2929,-0.0541,0.0762,-0.1877,-1.6194988689818324,-0.33512601256370544,1.8472387790679932,-1.856533408164978,0.37014803290367126,2.4827613830566406,4.686403437251709,-0.00026785567752085626,0.2654479742050171,-1.5379169623004358,-0.0,0.013201436027884483,0.8115925192832947,-0.0,-0.020167065784335136,0.7833698987960815,-0.06310044974088669,-0.19318777322769165
953.0,951.0,2.0369,-0.6562,8.2929,-0.0541,0.0762,-0.1877,-1.6222449741759242,-0.3371339440345764,1.8697524070739746,-1.85358726978302,0.3770606815814972,2.478696584701538,4.6864353853413085,-0.0004031193384435028,0.2562299370765686,-1.5379379431353968,-0.0,0.011492536403238773,0.8115682601928711,-0.0,0.009700405411422253,0.7828691601753235,-0.06592168658971786,-0.20026496052742004
947.0,939.0,2.4592,-1.0528,8.0363,-0.0916,-0.0454,-0.2141,-1.6257668934264125,-0.34129229187965393,1.8666694164276123,-1.8498514890670776,0.37334853410720825,2.510113477706909,4.686403437251709,-0.00010670373012544587,0.2526456415653229,-1.5379212538348597,-0.0,0.013638285920023918,0.811564564704895,-0.0,0.005608308594673872,0.7821846604347229,-0.0704825222492218,-0.2433375120162964
947.0,939.0,2.4592,-1.0528,8.0363,-0.0916,-0.0454,-0.2141,-1.6285644970335902,-0.34753257036209106,1.8528848886489868,-1.8469234704971313,0.3675163984298706,2.512012004852295,4.686447783107422,-1.9392873973345104e-09,0.27403533458709717,-1.5379412809955042,-0.0,0.02963443659245968,0.8115723729133606,-0.0,0.0021175609435886145,0.7816410064697266,-0.07237953692674637,-0.20701663196086884
947.0,939.0,2.4592,-1.0528,8.0363,-0.0916,-0.0454,-0.2141,-1.631414075891012,-0.35889676213264465,1.8512239456176758,-1.8439371585845947,0.35810205340385437,2.4656684398651123,4.6864515978046875,-0.0006720732199028134,0.2578935921192169,-1.5379536787616175,-0.0,0.02124098874628544,0.8115359544754028,-0.0,-0.0037222765386104584,0.7810204029083252,-0.07730809599161148,-0.1991702914237976
947.0,939.0,2.4592,-1.0528,8.0363,-0.0916,-0.0454,-0.2141,-1.6349760494627894,-0.3740307688713074,1.841613531112671,-1.8403525352478027,0.35252735018730164,2.5044186115264893,4.686411543483398,-0.0005024474812671542,0.27594518661499023,-1.5379498640643519,-0.0,0.013916979543864727,0.811528205871582,-0.0,-0.007560754660516977,0.780218780040741,-0.08740825206041336,-0.2385168969631195
947.0,939.0,2.4592,-1.0528,8.0363,-0.0916,-0.0454,-0.2141,-1.6379410229124964,-0.37061068415641785,1.8812856674194336,-1.8375133275985718,0.34459882974624634,2.461078643798828,4.686402960414551,-0.00043566577369347215,0.265504390001297,-1.537961784993307,-0.0,0.00833255797624588,0.8115482926368713,-0.0,-0.012645401060581207,0.779465913772583,-0.0940980538725853,-0.20584210753440857
947.0,939.0,2.4592,-1.0528,8.0363,-0.0916,-0.0454,-0.2141,-1.6407906017699183,-0.3676002323627472,1.8806843757629395,-1.8347983360290527,0.3402712345123291,2.478076934814453,4.686463995570801,-0.0002502028946764767,0.27393099665641785,-1.5379255453692835,-0.0,0.014508694410324097,0.811519980430603,-0.0,-0.007971100509166718,0.7787187099456787,-0.0936647355556488,-0.2525441646575928
947.0,939.0,2.4592,-1.0528,8.0363,-0.0916,-0.0454,-0.2141,-1.6437245808043421,-0.3668726682662964,1.8876087665557861,-1.8321396112442017,0.3406106233596802,2.474837303161621,4.686411543483398,-0.00019574740144889802,0.26036733388900757,-1.5379088560687464,-0.0,0.009899497963488102,0.811636745929718,-0.0,0.003341343952342868,0.778013288974762,-0.09122799336910248,-0.2150460183620453
947.0,939.0,2.4592,-1.0528,8.0363,-0.0916,-0.0454,-0.2141,-1.6474300823607386,-0.3689832389354706,2.0063416957855225,-1.8288538455963135,0.3297349810600281,2.5017194747924805,4.686419649715088,-0.00013073105947114527,0.260746031999588,-1.5379813353167933,-0.0,0.014955861493945122,0.8115642070770264,-0.0,-0.009636192582547665,0.7771053314208984,-0.088530533015728,-0.22208526730537415
947.0,939.0,2.4592,-1.0528,8.0363,-0.0916,-0.0454,-0.2141,-1.6504599056639613,-0.37633955478668213,1.93580961227417,-1.8262014389038086,0.3233250677585602,2.43992280960083,4.686427279109619,-0.00010273190855514258,0.27889448404312134,-1.5379169623004358,-0.0,0.013464725576341152,0.811508059501648,-0.0,-0.004098576493561268,0.7763557434082031,-0.09028167277574539,-0.24672187864780426
947.0,939.0,2.4592,-1.0528,8.0363,-0.0916,-0.0454,-0.2141,-1.6534282169737757,-0.37438467144966125,1.985840082168579,-1.823643684387207,0.32264018058776855,2.4353346824645996,4.686407728786133,-4.18678428104613e-05,0.27055203914642334,-1.537957493458883,-0.0,0.024951305240392685,0.8115245699882507,-0.0,-0.006322781089693308,0.7755624651908875,-0.10165271162986755,-0.20950603485107422
947.0,939.0,2.4592,-1.0528,8.0363,-0.0916,-0.0454,-0.2141,-1.6565772495665492,-0.37422508001327515,1.993422031402588,-1.8210718631744385,0.32375460863113403,2.4648067951202393,4.686439200038574,-3.5261538869235665e-05,0.25988635420799255,-1.537933651600973,-0.0,0.0074593136087059975,0.811508059501648,-0.0,-0.017186108976602554,0.7747740149497986,-0.1141318678855896,-0.2414158135652542
936.0,954.0,2.4455,-1.2676,8.9402,-0.1587,-0.049,-0.3062,-1.6603647671141566,-0.3770497441291809,1.990047574043274,-1.8178774118423462,0.32644981145858765,2.3934433460235596,4.6864234644123535,-2.9484674087143503e-05,0.2717842757701874,-1.537973705922262,-0.0,0.01994285359978676,0.8115604519844055,-0.0,-0.0003666419070214033,0.7736147046089172,-0.12061832845211029,-0.2832942306995392
936.0,954.0,2.4455,-1.2676,8.9402,-0.1587,-0.049,-0.3062,-1.6633974514403285,-0.3808889091014862,2.022935390472412,-1.8152581453323364,0.31608113646507263,2.425302028656006,4.686383886928223,-7.470270793419331e-05,0.2715664207935333,-1.537933651600973,-0.0,0.008608652278780937,0.811504065990448,-0.0,-0.005271832458674908,0.7726483941078186,-0.11872240900993347,-0.25384971499443054
936.0,954.0,2.4455,-1.2676,8.9402,-0.1587,-0.049,-0.3062,-1.6664825878539027,-0.39454489946365356,1.926948070526123,-1.8126990795135498,0.3061249852180481,2.428934097290039,4.686383886928223,-0.00015804414579179138,0.27082008123397827,-1.5379655996905726,-0.0,0.007275443524122238,0.8115847110748291,-0.0,0.008374924771487713,0.7717211246490479,-0.11382458359003067,-0.19669398665428162
936.0,954.0,2.4455,-1.2676,8.9402,-0.1587,-0.049,-0.3062,-1.6702944240965785,-0.3872293531894684,1.9808709621429443,-1.8096122741699219,0.30236709117889404,2.379795551300049,4.686419649715088,-0.00010764691251097247,0.2810959219932556,-1.5379655996905726,-0.0,0.0076268864795565605,0.8114962577819824,-0.0,-0.0034791366197168827,0.7705962657928467,-0.11668723821640015,-0.23986047506332397
936.0,954.0,2.4455,-1.2676,8.9402,-0.1587,-0.049,-0.3062,-1.6732665501036585,-0.37542593479156494,2.1006622314453125,-1.807228922843933,0.3029612898826599,2.4064650535583496,4.686386747951172,-7.211203774204478e-05,0.28118082880973816,-1.537945572529928,-0.0,-0.003958608023822308,0.8115081787109375,-0.0,-0.00769925257191062,0.7696062326431274,-0.1286631077528,-0.20783871412277222
936.0,954.0,2.4455,-1.2676,8.9402,-0.1587,-0.049,-0.3062,-1.6762353382506312,-0.3711172044277191,2.094589948654175,-1.8048328161239624,0.2993868589401245,2.3578641414642334,4.6864234644123535,-8.68476927280426e-05,0.27115750312805176,-1.5379894415484827,-0.0,-0.003748742863535881,0.8115646243095398,-0.0,-0.013843893073499203,0.7685546278953552,-0.1359906643629074,-0.25805848836898804
936.0,954.0,2.4455,-1.2676,8.9402,-0.1587,-0.049,-0.3062,-1.6791759930052699,-0.3723975121974945,2.0919172763824463,-1.8024423122406006,0.29617223143577576,2.395965576171875,4.686452074641846,-7.92149658082053e-05,0.2828318476676941,-1.5379493872271937,-0.0,-0.010463129729032516,0.8115203380584717,-0.0,-0.00403628870844841,0.767520546913147,-0.13680784404277802,-0.2607393264770508
936.0,954.0,2.4455,-1.2676,8.9402,-0.1587,-0.049,-0.3062,-1.682920595208639,-0.3708425462245941,2.105050802230835,-1.7995833158493042,0.29310619831085205,2.453003168106079,4.686411543483398,-5.352254447643645e-05,0.28948524594306946,-1.537957493458883,-0.0,0.0010883003706112504,0.8115441799163818,-0.0,-0.001715419813990593,0.7661848068237305,-0.12564332783222198,-0.21797405183315277
936.0,954.0,2.4455,-1.2676,8.9402,-0.1587,-0.049,-0.3062,-1.6858889065184535,-0.3705124855041504,2.1800825595855713,-1.797215223312378,0.29467523097991943,2.431272268295288,4.6864353853413085,6.0208556533325464e-05,0.29738423228263855,-1.5379412809955042,-0.0,-0.0005931251216679811,0.8115523457527161,-0.0,-0.004656550008803606,0.7651548385620117,-0.12803274393081665,-0.21716028451919556
936.0,954.0,2.4455,-1.2676,8.9402,-0.1587,-0.049,-0.3062,-1.6888944111266078,-0.35293397307395935,2.222675323486328,-1.7947994470596313,0.29445868730545044,2.4488959312438965,4.6864234644123535,0.00011029031884390861,0.2869481146335602,-1.5379536787616175,-0.0,0.00019005779176950455,0.8115281462669373,-0.0,-0.005318486597388983,0.7641192674636841,-0.13395410776138306,-0.22936373949050903
737.0,947.0,2.936,-1.2102,9.1466,-0.1329,0.0466,-0.2242,-1.6925903759398402,-0.3607317805290222,2.2612719535827637,-1.7918238639831543,0.30227383971214294,2.4343652725219727,4.686447783107422,0.0009778054663911462,0.2952585816383362,-1.5379493872271937,-0.0,-0.008262896910309792,0.8115565776824951,-0.0,-0.009727518074214458,0.762802243232727,-0.1335846185684204,-0.1557709276676178
737.0,947.0,2.936,-1.2102,9.1466,-0.1329,0.0466,-0.2242,-1.6954547367491664,-0.36150503158569336,2.2484569549560547,-1.7895125150680542,0.2918272912502289,2.473097562789917,4.686386747951172,0.0003403200826141983,0.29423287510871887,-1.5379894415484827,-0.0,-0.0011501919943839312,0.8115281462669373,-0.0,0.0006091361283324659,0.7617412805557251,-0.1309637427330017,-0.20658354461193085
737.0,947.0,2.936,-1.2102,9.1466,-0.1329,0.0466,-0.2242,-1.698315282861227,-0.36750346422195435,2.2999932765960693,-1.7871767282485962,0.29067835211753845,2.4072413444519043,4.686447783107422,-3.6064097912458237e-06,0.2921270728111267,-1.5379651228534144,-0.0,0.001826409250497818,0.811564564704895,-0.0,-0.020417774096131325,0.7606465816497803,-0.12249733507633209,-0.15368297696113586
737.0,947.0,2.936,-1.2102,9.1466,-0.1329,0.0466,-0.2242,-1.7011438808836878,-0.35088974237442017,2.26220965385437,-1.7848361730575562,0.29249629378318787,2.4425055980682373,4.686443968410156,-6.554471548847474e-11,0.3020133972167969,-1.537973705922262,-0.0,-0.013686347752809525,0.8115203976631165,-0.0,-0.008214235305786133,0.7596308588981628,-0.12371040880680084,-0.19492188096046448
737.0,947.0,2.936,-1.2102,9.1466,-0.1329,0.0466,-0.2242,-1.7045484981932582,-0.33368608355522156,2.3591220378875732,-1.7819961309432983,0.2873157858848572,2.4748857021331787,4.686446829433105,-7.777965403201828e-17,0.3200758695602417,-1.5379412809955042,-0.0,-0.015706516802310944,0.8115564584732056,-0.0,-0.0036478443071246147,0.7584022879600525,-0.12553180754184723,-0.16161993145942688
737.0,947.0,2.936,-1.2102,9.1466,-0.1329,0.0466,-0.2242,-1.707189222375387,-0.32593512535095215,2.3290798664093018,-1.7796175479888916,0.2894057333469391,2.4111833572387695,4.686471624965332,0.0006580509943887591,0.29930517077445984,-1.5379894415484827,-0.0,-0.017585832625627518,0.811495840549469,-0.0,-0.004776297137141228,0.7574184536933899,-0.12403467297554016,-0.19413572549819946
737.0,947.0,2.936,-1.2102,9.1466,-0.1329,0.0466,-0.2242,-1.7097426853575648,-0.32361093163490295,2.3786256313323975,-1.7773884534835815,0.28330495953559875,2.4403767585754395,4.686467333430908,0.0004645180015359074,0.30235135555267334,-1.5379374662982386,-0.0,-0.01951097697019577,0.8115040063858032,-0.0,-0.010801329277455807,0.756369948387146,-0.12055756151676178,-0.15669560432434082
737.0,947.0,2.936,-1.2102,9.1466,-0.1329,0.0466,-0.2242,-1.7122961483397425,-0.3190871775150299,2.3884968757629395,-1.775054693222046,0.2831510901451111,2.4541146755218506,4.686467333430908,0.00040991048444993794,0.31611162424087524,-1.537945572529928,-0.0,-0.009304437786340714,0.8115281462669373,-0.0,-0.014163808897137642,0.755365788936615,-0.11996129155158997,-0.148607537150383
737.0,947.0,2.936,-1.2102,9.1466,-0.1329,0.0466,-0.2242,-1.7153474293150843,-0.2946089804172516,2.411757469177246,-1.7721619606018066,0.2876910865306854,2.448190689086914,4.686512156123779,0.00142708420753479,0.31166303157806396,-1.5379088560687464,-0.0,-0.007583213970065117,0.8115322589874268,-0.0,-0.006959263235330582,0.7542151212692261,-0.12211163341999054,-0.145814910531044
737.0,947.0,2.936,-1.2102,9.1466,-0.1329,0.0466,-0.2242,-1.7177869282164515,-0.2917747497558594,2.449453592300415,-1.7698839902877808,0.29481369256973267,2.495781898498535,4.686519308681152,0.0010888077085837722,0.3023872673511505,-1.5379694143878382,-0.0,-0.0106282290071249,0.8115002512931824,-0.0,0.001996820792555809,0.7532715201377869,-0.11910134553909302,-0.11065120995044708
737.0,947.0,2.936,-1.2102,9.1466,-0.1329,0.0466,-0.2242,-1.720109602014059,-0.2748950123786926,2.4733030796051025,-1.7675418853759766,0.29771220684051514,2.4669346809387207,4.686499758357666,0.0005015580100007355,0.3062668442726135,-1.5380094687091272,-0.0,-0.01805482618510723,0.8114962577819824,-0.0,-0.00039014476351439953,0.7522873878479004,-0.1104639321565628,-0.1186726838350296
440.0,954.0,3.4881,-1.0582,9.2722,-0.0444,0.1559,-0.1655,-1.7229529819884242,-0.2866760790348053,2.5029237270355225,-1.7645971775054932,0.3006899654865265,2.468585252761841,4.6864635187336425,0.0002598545979708433,0.30095526576042175,-1.5379255453692835,-0.0,-0.013851762749254704,0.811456024646759,-0.0,-0.009380891919136047,0.7512232661247253,-0.1092088595032692,-0.17270886898040771
