ramyac6/ROB537/final_project/csv/good/good_65.csv
tof_0,tof_1,accelx,accely,accelz,gyrox,gyroy,gyroz,shoulder_lift_joint_position,shoulder_lift_joint_velocity,shoulder_lift_joint_effort,elbow_joint_position,elbow_joint_velocity,elbow_joint_effort,wrist_1_joint_position,wrist_1_joint_velocity,wrist_1_joint_effort,wrist_2_joint_position,wrist_2_joint_velocity,wrist_2_joint_effort,wrist_3_joint_position,wrist_3_joint_velocity,wrist_3_joint_effort,shoulder_pan_joint_position,shoulder_pan_joint_velocity,shoulder_pan_joint_effort
269.0,302.0,-5.0213,-0.1472,8.4772,-0.0287,0.0276,-0.1239,-2.280888696710104,0.0,4.635219097137451,-1.4178800582885742,-0.0,1.840576410293579,5.692534911423483,-0.0,0.1952870786190033,-1.624857250844137,-0.0,-0.005794767290353775,0.5905176401138306,0.0,0.013419807888567448,1.0284299850463867,0.0,0.012783585116267204
269.0,302.0,-5.0213,-0.1472,8.4772,-0.0287,0.0276,-0.1239,-2.2809325657286585,0.0,4.656879425048828,-1.4178999662399292,-0.0,1.8291374444961548,5.692526924401083,-0.0,0.21006657183170319,-1.6248610655414026,-0.0,0.0017086456064134836,0.5905260443687439,0.0,0.008632706478238106,1.0284463167190552,0.0,0.028864581137895584
269.0,302.0,-5.0213,-0.1472,8.4772,-0.0287,0.0276,-0.1239,-2.2808968029417933,0.0,4.635674476623535,-1.417876124382019,-0.0,1.8094918727874756,5.692519116192617,-0.0,0.20301055908203125,-1.6248768011676233,-0.0,-0.00010919985652435571,0.5904050469398499,0.0,-0.0014739831676706672,1.028389811515808,0.0,0.011275756172835827
269.0,302.0,-5.0213,-0.1472,8.4772,-0.0287,0.0276,-0.1239,-2.280936380425924,0.0,4.635031700134277,-1.4178959131240845,-0.0,1.8426389694213867,5.692538845330038,-0.0,0.19767901301383972,-1.6248768011676233,-0.0,-0.006934460252523422,0.5904570817947388,0.0,-0.0008805142715573311,1.0284099578857422,0.0,-0.0023905765265226364
269.0,302.0,-5.0213,-0.1472,8.4772,-0.0287,0.0276,-0.1239,-2.280900617639059,0.0,4.631816387176514,-1.4178999662399292,-0.0,1.798630714416504,5.692522990494528,-0.0,0.2152256965637207,-1.6248334089862269,-0.0,-0.006367872469127178,0.5905098915100098,0.0,-0.0026183559093624353,1.0284061431884766,0.0,0.02352629415690899
269.0,302.0,-5.0213,-0.1472,8.4772,-0.0287,0.0276,-0.1239,-2.2809206447997035,0.0,4.654763698577881,-1.417856216430664,-0.0,1.8136547803878784,5.692554700165548,-0.0,0.2050497829914093,-1.6248372236834925,-0.0,-0.004967831075191498,0.590477466583252,0.0,-0.0022359946742653847,1.028414011001587,0.0,0.0039327722042799
269.0,302.0,-5.0213,-0.1472,8.4772,-0.0287,0.0276,-0.1239,-2.280916830102438,0.0,4.652529239654541,-1.4178720712661743,-0.0,1.841983437538147,5.692491280823507,-0.0,0.21394431591033936,-1.6248529593097132,-0.0,-0.0025044018402695656,0.5905300378799438,0.0,0.014267640188336372,1.028389811515808,0.0,0.02524285763502121
263.0,302.0,-4.9555,-0.1316,8.5753,-0.0359,0.0266,-0.119,-2.2808643780150355,0.0,4.623058795928955,-1.417847752571106,-0.0,1.7931498289108276,5.692522990494528,-0.0,0.20937912166118622,-1.624845329915182,-0.0,-0.012156501412391663,0.5904653072357178,0.0,0.002530193654820323,1.0284380912780762,0.0,0.031635113060474396
263.0,302.0,-4.9555,-0.1316,8.5753,-0.0359,0.0266,-0.119,-2.2809325657286585,0.0,4.616539478302002,-1.4178681373596191,-0.0,1.8756232261657715,5.692526924401083,-0.0,0.19930708408355713,-1.6248248259173792,-0.0,0.002679120283573866,0.5904816389083862,0.0,0.0027388243470340967,1.0284422636032104,0.0,0.07626567780971527
263.0,302.0,-4.9555,-0.1316,8.5753,-0.0359,0.0266,-0.119,-2.280940671960348,0.0,4.606663227081299,-1.4178601503372192,-0.0,1.8050563335418701,5.692574548512258,-0.0,0.20271994173526764,-1.624857250844137,-0.0,-0.004205901175737381,0.5904533863067627,0.0,0.009498341009020805,1.0284582376480103,0.0,-0.021310128271579742
263.0,302.0,-4.9555,-0.1316,8.5753,-0.0359,0.0266,-0.119,-2.280940671960348,0.0,4.651845932006836,-1.4178760051727295,-0.0,1.8962739706039429,5.692558693676748,-0.0,0.19006946682929993,-1.6248968283282679,-0.0,-0.004243295174092054,0.5904857516288757,0.0,0.010852687060832977,1.0283939838409424,0.0,0.007059142459183931
263.0,302.0,-4.9555,-0.1316,8.5753,-0.0359,0.0266,-0.119,-2.280912538568014,0.0,4.659045696258545,-1.4178800582885742,-0.0,1.8498003482818604,5.692519056587972,-0.0,0.19121938943862915,-1.6248729864703577,-0.0,0.00927905086427927,0.5904010534286499,0.0,-0.012949561700224876,1.028465986251831,0.0,0.028781838715076447
263.0,302.0,-4.9555,-0.1316,8.5753,-0.0359,0.0266,-0.119,-2.280924459496969,0.0,4.616099834442139,-1.4178557395935059,-0.0,1.7825582027435303,5.692466842919149,-0.0,0.2042476236820221,-1.624841038380758,-0.0,-0.007447658106684685,0.590477466583252,0.0,-0.0025980379432439804,1.0284703969955444,0.0,-0.015538904815912247
263.0,302.0,-4.9555,-0.1316,8.5753,-0.0359,0.0266,-0.119,-2.280936380425924,0.0,4.652575492858887,-1.4178640842437744,-0.0,1.8399664163589478,5.692507135659017,-0.0,0.21395432949066162,-1.6248648802386683,-0.0,-0.005234397482126951,0.5904173851013184,0.0,0.004343185108155012,1.02847421169281,0.0,0.007927888073027134
263.0,302.0,-4.9555,-0.1316,8.5753,-0.0359,0.0266,-0.119,-2.280940671960348,0.0,4.651886463165283,-1.4178720712661743,-0.0,1.8545328378677368,5.692487287312307,-0.0,0.2110317200422287,-1.624845329915182,-0.0,0.012759072706103325,0.5904533863067627,0.0,0.012084472924470901,1.0284099578857422,0.0,0.013222886249423027
263.0,302.0,-4.9555,-0.1316,8.5753,-0.0359,0.0266,-0.119,-2.2809602222838343,0.0,4.650176048278809,-1.4179039001464844,-0.0,1.8222742080688477,5.692515122681417,-0.0,0.21721318364143372,-1.6248372236834925,-0.0,-0.0005422797985374928,0.5904898047447205,0.0,0.012632078491151333,1.0284221172332764,0.0,-0.00429996894672513
263.0,302.0,-4.9555,-0.1316,8.5753,-0.0359,0.0266,-0.119,-2.2808762989439906,0.0,4.656833648681641,-1.4178800582885742,-0.0,1.8301317691802979,5.692546832352438,-0.0,0.20848672091960907,-1.6248529593097132,-0.0,-0.004006833303719759,0.5903854370117188,0.0,-0.007936008274555206,1.0284099578857422,0.0,-0.045778341591358185
263.0,302.0,-4.9555,-0.1316,8.5753,-0.0359,0.0266,-0.119,-2.2809325657286585,0.0,4.640260219573975,-1.4178880453109741,-0.0,1.8313690423965454,5.692507135659017,-0.0,0.21138861775398254,-1.6248334089862269,-0.0,-0.021661929786205292,0.5904775857925415,0.0,0.0005006534047424793,1.0284299850463867,0.0,0.04264356940984726
263.0,302.0,-4.9555,-0.1316,8.5753,-0.0359,0.0266,-0.119,-2.2808968029417933,0.0,4.645075798034668,-1.4178880453109741,-0.0,1.8579587936401367,5.692515003472128,-0.0,0.20260633528232574,-1.624857250844137,-0.0,-0.005262995138764381,0.5904451608657837,0.0,-0.004516099113970995,1.0284180641174316,0.0,2.6911497116088867e-05
263.0,302.0,-4.9555,-0.1316,8.5753,-0.0359,0.0266,-0.119,-2.2808968029417933,0.0,4.618038177490234,-1.417884111404419,-0.0,1.8579843044281006,5.692507135659017,-0.0,0.22540199756622314,-1.6248372236834925,-0.0,0.007479464635252953,0.590505838394165,0.0,0.016159459948539734,1.028414011001587,0.0,0.022176675498485565
263.0,302.0,-4.9555,-0.1316,8.5753,-0.0359,0.0266,-0.119,-2.2809325657286585,0.0,4.670703887939453,-1.4178398847579956,-0.0,1.8323490619659424,5.692503201752462,-0.0,0.19686976075172424,-1.6248248259173792,-0.0,-0.013831810094416142,0.5904169678688049,0.0,0.006425112020224333,1.0284135341644287,0.0,-0.01612413302063942
267.0,296.0,-4.9783,-0.1256,8.595,-0.0257,0.0244,-0.1113,-2.280940671960348,0.0,4.6477131843566895,-1.417884111404419,-0.0,1.8410232067108154,5.692542779236593,-0.0,0.2037208378314972,-1.6248210112201136,-0.0,0.0010069679701700807,0.5904694199562073,0.0,0.002139221178367734,1.0284299850463867,0.0,0.044973038136959076
267.0,296.0,-4.9783,-0.1256,8.595,-0.0257,0.0244,-0.1113,-2.280876775781149,0.0,4.715450286865234,-1.417876124382019,-0.0,1.8190932273864746,5.692511129170217,-0.0,0.2190030813217163,-1.6248653570758265,-0.0,-0.008440673351287842,0.5903968214988708,0.0,0.006482619792222977,1.0284340381622314,0.0,0.05676436796784401
267.0,296.0,-4.9783,-0.1256,8.595,-0.0257,0.0244,-0.1113,-2.280936380425924,0.0,4.650633811950684,-1.417876124382019,-0.0,1.8042681217193604,5.6925110695655725,-0.0,0.21725863218307495,-1.6248372236834925,-0.0,-0.001878012204542756,0.5905017256736755,0.0,-0.016029387712478638,1.028425931930542,0.0,-0.038864944130182266
267.0,296.0,-4.9783,-0.1256,8.595,-0.0257,0.0244,-0.1113,-2.280912538568014,0.0,4.671226501464844,-1.4178318977355957,-0.0,1.785555124282837,5.692538904934683,-0.0,0.21412184834480286,-1.6248248259173792,-0.0,-0.008623640052974224,0.5905017256736755,0.0,-0.006337864324450493,1.0284422636032104,0.0,0.021357417106628418
267.0,296.0,-4.9783,-0.1256,8.595,-0.0257,0.0244,-0.1113,-2.2808848820128382,0.0,4.655209064483643,-1.4178760051727295,-0.0,1.810638189315796,5.692503201752462,-0.0,0.20044389367103577,-1.624857250844137,-0.0,-0.004714295268058777,0.590449333190918,0.0,0.0053098853677511215,1.0284422636032104,0.0,-0.016862522810697556
267.0,296.0,-4.9783,-0.1256,8.595,-0.0257,0.0244,-0.1113,-2.280916830102438,0.0,4.628871917724609,-1.4178640842437744,-0.0,1.806740641593933,5.692554700165548,-0.0,0.2020774632692337,-1.6248491446124476,-0.0,-0.014659474603831768,0.5904616117477417,0.0,0.002553327940404415,1.0284380912780762,0.0,0.0008260770700871944
267.0,296.0,-4.9783,-0.1256,8.595,-0.0257,0.0244,-0.1113,-2.280928751031393,0.0,4.666470050811768,-1.4178199768066406,-0.0,1.8342677354812622,5.6925110695655725,-0.0,0.2044966220855713,-1.624845329915182,-0.0,-0.007001093123108149,0.5904492735862732,0.0,0.0032410169951617718,1.0284020900726318,0.0,0.03898119926452637
267.0,296.0,-4.9783,-0.1256,8.595,-0.0257,0.0244,-0.1113,-2.2809564075865687,0.0,4.689350128173828,-1.4178720712661743,-0.0,1.827418565750122,5.692526924401083,-0.0,0.19686102867126465,-1.624841038380758,-0.0,-0.008412109687924385,0.5904776453971863,0.0,0.0025894849095493555,1.0284017324447632,0.0,-0.0121964942663908
267.0,296.0,-4.9783,-0.1256,8.595,-0.0257,0.0244,-0.1113,-2.2809483013548792,0.0,4.627375602722168,-1.4178721904754639,-0.0,1.8523948192596436,5.692495214730062,-0.0,0.20830722153186798,-1.6248372236834925,-0.0,-0.0095684127882123,0.5904170274734497,0.0,0.008858120068907738,1.028398036956787,0.0,0.022347528487443924
267.0,296.0,-4.9783,-0.1256,8.595,-0.0257,0.0244,-0.1113,-2.280928751031393,0.0,4.666805267333984,-1.417836308479309,-0.0,1.8358101844787598,5.692526924401083,-0.0,0.20239807665348053,-1.6248248259173792,-0.0,-0.002784198382869363,0.5904414653778076,0.0,0.0058113024570047855,1.0284299850463867,0.0,-0.030596936121582985
267.0,296.0,-4.9783,-0.1256,8.595,-0.0257,0.0244,-0.1113,-2.280924459496969,0.0,4.651261329650879,-1.417876124382019,-0.0,1.773698329925537,5.692534911423483,-0.0,0.20845606923103333,-1.6248810927020472,-0.0,-0.0035817220341414213,0.5904251337051392,0.0,0.00809245090931654,1.028405785560608,0.0,0.008499899879097939
267.0,296.0,-4.9783,-0.1256,8.595,-0.0257,0.0244,-0.1113,-2.280936380425924,0.0,4.606666088104248,-1.4178721904754639,-0.0,1.8494285345077515,5.692558693676748,-0.0,0.19893836975097656,-1.6248334089862269,-0.0,-0.00045530489296652377,0.5904451012611389,0.0,-0.005250370595604181,1.0284504890441895,0.0,0.03323037177324295
267.0,296.0,-4.9783,-0.1256,8.595,-0.0257,0.0244,-0.1113,-2.280900617639059,0.0,4.6486968994140625,-1.4178556203842163,-0.0,1.8557326793670654,5.692503261357107,-0.0,0.19956505298614502,-1.624829117451803,-0.0,-0.011565092951059341,0.5904616117477417,0.0,0.014060717076063156,1.028414011001587,0.0,-0.009373344480991364
267.0,296.0,-4.9783,-0.1256,8.595,-0.0257,0.0244,-0.1113,-2.2809325657286585,0.0,4.64616584777832,-1.4178398847579956,-0.0,1.883352518081665,5.6925110695655725,-0.0,0.20276981592178345,-1.6248768011676233,-0.0,0.0049539669416844845,0.5903890132904053,0.0,0.01765507087111473,1.0284264087677002,0.0,-0.02547607198357582
267.0,297.0,-5.0231,-0.1131,8.6094,-0.0325,0.0279,-0.1101,-2.280952592889303,0.0,4.63059139251709,-1.4178919792175293,-0.0,1.8253538608551025,5.692534911423483,-0.0,0.2036849409341812,-1.624841038380758,-0.0,-0.0060427188873291016,0.5904935002326965,0.0,0.0047434414736926556,1.028425931930542,0.0,-0.005840477533638477
267.0,297.0,-5.0231,-0.1131,8.6094,-0.0325,0.0279,-0.1101,-2.280888696710104,0.0,4.613224983215332,-1.4178358316421509,-0.0,1.8463841676712036,5.692499148636617,-0.0,0.20658573508262634,-1.6248210112201136,-0.0,-0.006907323375344276,0.5904209613800049,0.0,0.012769692577421665,1.0284299850463867,0.0,0.013006893917918205
267.0,297.0,-5.0231,-0.1131,8.6094,-0.0325,0.0279,-0.1101,-2.280968328515524,0.0,4.651950359344482,-1.4178601503372192,-0.0,1.7953410148620605,5.692542838841238,-0.0,0.20156654715538025,-1.6248210112201136,-0.0,-0.007521116640418768,0.5904169678688049,0.0,0.014990062452852726,1.0284017324447632,0.0,0.022748563438653946
267.0,297.0,-5.0231,-0.1131,8.6094,-0.0325,0.0279,-0.1101,-2.280916830102438,0.0,4.643304824829102,-1.4179118871688843,-0.0,1.8063905239105225,5.692519056587972,-0.0,0.19094029068946838,-1.6248167196856897,-0.0,-0.004215138964354992,0.5904776453971863,0.0,0.005139382556080818,1.028389811515808,0.0,0.036075443029403687
267.0,297.0,-5.0231,-0.1131,8.6094,-0.0325,0.0279,-0.1101,-2.2809206447997035,0.0,4.610950469970703,-1.417876124382019,-0.0,1.800204873085022,5.692503142147817,-0.0,0.20404374599456787,-1.6248648802386683,-0.0,-0.010914217680692673,0.5904170274734497,0.0,-0.009247696958482265,1.028405785560608,0.0,0.007507108151912689
267.0,297.0,-5.0231,-0.1131,8.6094,-0.0325,0.0279,-0.1101,-2.2809201679625453,0.0,4.636521816253662,-1.4178800582885742,-0.0,1.8313740491867065,5.692554759770193,-0.0,0.20132222771644592,-1.6248729864703577,-0.0,-0.005202058702707291,0.5904009938240051,0.0,-0.003325436729937792,1.028405785560608,0.0,0.007234799675643444
267.0,297.0,-5.0231,-0.1131,8.6094,-0.0325,0.0279,-0.1101,-2.2808686695494593,0.0,4.6651811599731445,-1.417884111404419,-0.0,1.8376078605651855,5.692519056587972,-0.0,0.2083216905593872,-1.6248810927020472,-0.0,-0.0065553258173167706,0.5904410481452942,0.0,0.011826656758785248,1.028454065322876,0.0,0.0032732533290982246
267.0,297.0,-5.0231,-0.1131,8.6094,-0.0325,0.0279,-0.1101,-2.2808720074095667,0.0,4.614410877227783,-1.4178999662399292,-0.0,1.8746528625488281,5.692538904934683,-0.0,0.19020354747772217,-1.6248529593097132,-0.0,-0.00724779162555933,0.5904816389083862,0.0,-0.003138469997793436,1.0284582376480103,0.0,-0.005468265153467655
267.0,297.0,-5.0231,-0.1131,8.6094,-0.0325,0.0279,-0.1101,-2.2809325657286585,0.0,4.629685401916504,-1.4178640842437744,-0.0,1.8304226398468018,5.692550766258993,-0.0,0.19982311129570007,-1.6248167196856897,-0.0,-0.011697140522301197,0.5904693603515625,0.0,-0.01018569990992546,1.0284463167190552,0.0,0.015747351571917534
267.0,297.0,-5.0231,-0.1131,8.6094,-0.0325,0.0279,-0.1101,-2.2808929882445277,0.0,4.658235549926758,-1.4178880453109741,-0.0,1.8368616104125977,5.692522990494528,-0.0,0.19513121247291565,-1.6248768011676233,-0.0,-0.005943975877016783,0.590449333190918,0.0,0.0038571497425436974,1.0283455848693848,0.0,-0.05004754662513733
267.0,297.0,-5.0231,-0.1131,8.6094,-0.0325,0.0279,-0.1101,-2.280912538568014,0.0,4.6294121742248535,-1.4178681373596191,-0.0,1.864283561706543,5.692507135659017,-0.0,0.20670026540756226,-1.6248529593097132,-0.0,0.0010856958106160164,0.590485692024231,0.0,0.0020127594470977783,1.0284463167190552,0.0,-0.01896275207400322
267.0,297.0,-5.0231,-0.1131,8.6094,-0.0325,0.0279,-0.1101,-2.280900617639059,0.0,4.678956985473633,-1.4178560972213745,-0.0,1.8011863231658936,5.692499208241262,-0.0,0.2158496081829071,-1.6248210112201136,-0.0,-0.0008073053322732449,0.5904250741004944,0.0,0.011362503282725811,1.0284503698349,0.0,-0.012234323658049107
267.0,297.0,-5.0231,-0.1131,8.6094,-0.0325,0.0279,-0.1101,-2.280936380425924,0.0,4.6542840003967285,-1.417847752571106,-0.0,1.8232734203338623,5.692554759770193,-0.0,0.20370136201381683,-1.6248610655414026,-0.0,-0.006078755483031273,0.5904653072357178,0.0,-0.0030315942130982876,1.0284380912780762,0.0,-0.0028968811966478825
269.0,300.0,-5.0231,-0.1537,8.5669,-0.0379,0.0246,-0.1171,-2.2809325657286585,0.0,4.657538414001465,-1.417904019355774,-0.0,1.8330100774765015,5.692526924401083,-0.0,0.19960549473762512,-1.6248286406146448,-0.0,-0.019898394122719765,0.5904734134674072,0.0,0.001811497611925006,1.0284503698349,0.0,-0.0012712988536804914
269.0,300.0,-5.0231,-0.1537,8.5669,-0.0379,0.0246,-0.1171,-2.2809602222838343,0.0,4.598546981811523,-1.417876124382019,-0.0,1.8284133672714233,5.692530917912283,-0.0,0.2046278715133667,-1.624845329915182,-0.0,-0.011666925624012947,0.5904169678688049,0.0,-0.011925634928047657,1.028425931930542,0.0,0.02072063833475113
269.0,300.0,-5.0231,-0.1537,8.5669,-0.0379,0.0246,-0.1171,-2.2809487781920375,0.0,4.668112277984619,-1.4179039001464844,-0.0,1.8117620944976807,5.692534911423483,-0.0,0.20434340834617615,-1.6248014608966272,-0.0,-0.0021347920410335064,0.5904693603515625,0.0,0.005303770769387484,1.028465986251831,0.0,-0.0340271070599556
269.0,300.0,-5.0231,-0.1537,8.5669,-0.0379,0.0246,-0.1171,-2.2809282741942347,0.0,4.686420440673828,-1.4179521799087524,-0.0,1.842719554901123,5.692503142147817,-0.0,0.2094908505678177,-1.624841038380758,-0.0,0.007374179549515247,0.5904414653778076,0.0,-0.0038930566515773535,1.0284136533737183,0.0,0.014806604012846947
269.0,300.0,-5.0231,-0.1537,8.5669,-0.0379,0.0246,-0.1171,-2.2809487781920375,0.0,4.64560604095459,-1.417896032333374,-0.0,1.8453996181488037,5.692507135659017,-0.0,0.20733793079853058,-1.624829117451803,-0.0,-0.0043761227279901505,0.5904657244682312,0.0,0.0018606779631227255,1.0284020900726318,0.0,0.005387546960264444
269.0,300.0,-5.0231,-0.1537,8.5669,-0.0379,0.0246,-0.1171,-2.2809163532652796,0.0,4.636435508728027,-1.4178640842437744,-0.0,1.8412692546844482,5.692550766258993,-0.0,0.19207555055618286,-1.624869171773092,-0.0,-0.008989674039185047,0.5904616117477417,0.0,0.0034116595052182674,1.028434157371521,0.0,-0.0455954447388649
269.0,300.0,-5.0231,-0.1537,8.5669,-0.0379,0.0246,-0.1171,-2.2809325657286585,0.0,4.618129730224609,-1.4178681373596191,-0.0,1.865169882774353,5.692474770336904,-0.0,0.2133854478597641,-1.624841038380758,-0.0,0.0018308034632354975,0.5904775857925415,0.0,0.011311404407024384,1.0284422636032104,0.0,0.06486284732818604
269.0,300.0,-5.0231,-0.1537,8.5669,-0.0379,0.0246,-0.1171,-2.280900617639059,0.0,4.6246185302734375,-1.4178959131240845,-0.0,1.8037669658660889,5.6925110695655725,-0.0,0.2065986841917038,-1.6248133818255823,-0.0,-0.003094632178544998,0.5904332995414734,0.0,0.0017163599841296673,1.028414011001587,0.0,0.0046037668362259865
269.0,300.0,-5.0231,-0.1537,8.5669,-0.0379,0.0246,-0.1171,-2.2809444866576136,0.0,4.625767707824707,-1.4178601503372192,-0.0,1.883260726928711,5.692554759770193,-0.0,0.20164239406585693,-1.6248248259173792,-0.0,-0.002182847121730447,0.590505838394165,0.0,-0.00023711571702733636,1.028425931930542,0.0,-0.03867404907941818
269.0,300.0,-5.0231,-0.1537,8.5669,-0.0379,0.0246,-0.1171,-2.2809931240477503,-6.748303998937999e-11,4.642219066619873,-1.4178720712661743,-0.0,1.7860782146453857,5.692515003472128,-0.0,0.20641623437404633,-1.6248210112201136,-0.0,-0.010839661583304405,0.5904616117477417,0.0,0.005820616148412228,1.0284217596054077,0.0,0.030415572226047516
269.0,300.0,-5.0231,-0.1537,8.5669,-0.0379,0.0246,-0.1171,-2.280888696710104,-0.00016170699382200837,4.621262550354004,-1.4179039001464844,-0.0,1.8755073547363281,5.692578542023458,-0.0,0.20312166213989258,-1.624841038380758,-0.0,-0.010797685012221336,0.5904332995414734,0.0,0.016093192622065544,1.0284463167190552,0.0,-0.02712143585085869
269.0,300.0,-5.0231,-0.1537,8.5669,-0.0379,0.0246,-0.1171,-2.2809249363341273,-9.416089596925303e-05,4.653504848480225,-1.4178919792175293,-0.0,1.7896292209625244,5.692466783314504,-0.0,0.20514318346977234,-1.6248610655414026,-0.0,-0.013577712699770927,0.590465247631073,0.0,-0.0023529548197984695,1.028377890586853,0.0,-0.01544092409312725
269.0,300.0,-5.0231,-0.1537,8.5669,-0.0379,0.0246,-0.1171,-2.2809325657286585,-7.165930583141744e-05,4.6657257080078125,-1.4179317951202393,-0.0,1.844982624053955,5.692526924401083,-0.0,0.1968550831079483,-1.6248014608966272,-0.0,0.002889062976464629,0.5904611349105835,0.0,0.002911423798650503,1.0284020900726318,0.0,-0.017245611175894737
269.0,300.0,-5.0231,-0.1537,8.5669,-0.0379,0.0246,-0.1171,-2.2808968029417933,-6.9220373006828595e-06,4.686938285827637,-1.417907953262329,-0.0,1.829321265220642,5.692582595139303,-0.0,0.19300343096256256,-1.6248887220965784,-0.0,0.004942535888403654,0.5904533863067627,0.0,0.0037591576110571623,1.0284299850463867,0.0,0.03162165731191635
277.0,300.0,-4.9753,-0.1125,8.5472,-0.0408,0.0289,-0.1173,-2.280944963494772,-1.6715908171538452e-11,4.662676811218262,-1.4178800582885742,-0.0,1.7945671081542969,5.692507135659017,-0.0,0.20773634314537048,-1.6248129049884241,-0.0,0.006102283485233784,0.5904776453971863,0.0,0.009067247621715069,1.0284099578857422,0.0,-0.0038783326745033264
277.0,300.0,-4.9753,-0.1125,8.5472,-0.0408,0.0289,-0.1173,-2.2809282741942347,-5.415741721925559e-19,4.6419677734375,-1.4178640842437744,-0.0,1.784828543663025,5.692499148636617,-0.0,0.1985311061143875,-1.6248334089862269,-0.0,0.0005319446790963411,0.590473473072052,0.0,0.011265503242611885,1.0284663438796997,0.0,0.038051456212997437
277.0,300.0,-4.9753,-0.1125,8.5472,-0.0408,0.0289,-0.1173,-2.280940671960348,-1.3078378022315557e-24,4.661051273345947,-1.4178557395935059,-0.0,1.8248951435089111,5.692515003472128,-0.0,0.20815588533878326,-1.624841038380758,-0.0,-0.0053194435313344,0.5904210209846497,0.0,0.004265365656465292,1.028417706489563,0.0,0.02892027050256729
277.0,300.0,-4.9753,-0.1125,8.5472,-0.0408,0.0289,-0.1173,-2.280912538568014,-3.158274211280827e-30,4.646064281463623,-1.4178601503372192,-0.0,1.8130736351013184,5.692546832352438,-0.0,0.20796629786491394,-1.624857250844137,-0.0,-0.004157968796789646,0.5904611349105835,0.0,-0.014051157981157303,1.0283857583999634,0.0,-0.015468197874724865
277.0,300.0,-4.9753,-0.1125,8.5472,-0.0408,0.0289,-0.1173,-2.2809368572630824,-1.0232404700764675e-37,4.658107757568359,-1.417907953262329,-0.0,1.852362871170044,5.692526924401083,-0.0,0.205508291721344,-1.624857250844137,-0.0,-0.011151382699608803,0.5904250741004944,0.0,0.006463545840233564,1.028414011001587,0.0,-0.0028437667060643435
277.0,300.0,-4.9753,-0.1125,8.5472,-0.0408,0.0289,-0.1173,-2.2809201679625453,-2.466285297211678e-43,4.642055511474609,-1.4178720712661743,-0.0,1.8130722045898438,5.692550945072927,-0.0,0.20872454345226288,-1.6248167196856897,-0.0,-0.006062112748622894,0.5904374122619629,0.0,0.014068732969462872,1.0283738374710083,0.0,0.02934732660651207
277.0,300.0,-4.9753,-0.1125,8.5472,-0.0408,0.0289,-0.1173,-2.2809444866576136,0.0,4.67017936706543,-1.4178959131240845,-0.0,1.8051297664642334,5.692562687187948,-0.0,0.20531341433525085,-1.624845329915182,-0.0,0.003878562245517969,0.5904775261878967,0.0,-0.0026389495469629765,1.0284503698349,0.0,0.018061762675642967
277.0,300.0,-4.9753,-0.1125,8.5472,-0.0408,0.0289,-0.1173,-2.280888696710104,0.0,4.6735124588012695,-1.4179118871688843,-0.0,1.8515560626983643,5.692487287312307,-0.0,0.21842271089553833,-1.6248167196856897,-0.0,0.003037520218640566,0.5904210805892944,0.0,0.00018906750483438373,1.02847421169281,0.0,-0.01738480105996132
277.0,300.0,-4.9753,-0.1125,8.5472,-0.0408,0.0289,-0.1173,-2.280888696710104,0.0,4.646792411804199,-1.4178322553634644,-0.0,1.8643949031829834,5.692526924401083,-0.0,0.2011065036058426,-1.6248334089862269,-0.0,-0.006596996448934078,0.5904251337051392,0.0,-0.0005480209365487099,1.0283938646316528,0.0,-0.006152634508907795
277.0,300.0,-4.9753,-0.1125,8.5472,-0.0408,0.0289,-0.1173,-2.2809087238707484,0.0,4.624115943908691,-1.4179118871688843,-0.0,1.8090094327926636,5.692515122681417,-0.0,0.20102758705615997,-1.624829117451803,-0.0,-0.009253179654479027,0.590449333190918,0.0,-7.523642852902412e-05,1.0284299850463867,0.0,-0.03821508586406708
277.0,300.0,-4.9753,-0.1125,8.5472,-0.0408,0.0289,-0.1173,-2.2809087238707484,0.0,4.640361309051514,-1.4179118871688843,-0.0,1.8233217000961304,5.692515003472128,-0.0,0.20014126598834991,-1.6248491446124476,-0.0,-0.013037667609751225,0.5904734134674072,0.0,0.0037339588161557913,1.0284299850463867,0.0,0.004018749110400677
277.0,300.0,-4.9753,-0.1125,8.5472,-0.0408,0.0289,-0.1173,-2.2809044323363246,0.0,4.6817169189453125,-1.4178640842437744,-0.0,1.8726444244384766,5.692538845330038,-0.0,0.1954357773065567,-1.624857250844137,-0.0,-0.005264747887849808,0.5904611349105835,0.0,0.007864246144890785,1.0283935070037842,0.0,0.0035758584272116423
277.0,300.0,-4.9753,-0.1125,8.5472,-0.0408,0.0289,-0.1173,-2.2809368572630824,0.0,4.641695022583008,-1.4178919792175293,-0.0,1.7913434505462646,5.692522990494528,-0.0,0.1948697865009308,-1.6248210112201136,-0.0,-0.003308901097625494,0.590485692024231,0.0,0.008011404424905777,1.0284217596054077,0.0,-0.015605408698320389
277.0,300.0,-4.9753,-0.1125,8.5472,-0.0408,0.0289,-0.1173,-2.2809249363341273,0.0,4.6366424560546875,-1.4178760051727295,-0.0,1.8398562669754028,5.692542838841238,-0.0,0.20912504196166992,-1.6248729864703577,-0.0,-0.012224441394209862,0.5904897451400757,0.0,0.002725956030189991,1.0284582376480103,0.0,0.025905791670084
266.0,294.0,-5.0501,-0.073,8.5113,-0.0289,0.0292,-0.121,-2.2809325657286585,0.0,4.622312545776367,-1.417915940284729,-0.0,1.829253077507019,5.692546832352438,-0.0,0.2040630280971527,-1.6249049345599573,-0.0,-0.01726764813065529,0.590485692024231,0.0,-0.006209921557456255,1.0284582376480103,0.0,-0.02148653194308281
266.0,294.0,-5.0501,-0.073,8.5113,-0.0289,0.0292,-0.121,-2.2809001408019007,0.0,4.669042110443115,-1.417935848236084,-0.0,1.8560757637023926,5.692554759770193,-0.0,0.19437265396118164,-1.6248491446124476,-0.0,0.009675239212810993,0.5904091596603394,0.0,0.010510197840631008,1.0284217596054077,0.0,-0.05871354043483734
266.0,294.0,-5.0501,-0.073,8.5113,-0.0289,0.0292,-0.121,-2.2809087238707484,0.0,4.633586883544922,-1.4179078340530396,-0.0,1.8035566806793213,5.692499148636617,-0.0,0.214148610830307,-1.624841038380758,-0.0,-0.004503187723457813,0.5904693603515625,0.0,0.00962150190025568,1.028425931930542,0.0,-0.049852147698402405
266.0,294.0,-5.0501,-0.073,8.5113,-0.0289,0.0292,-0.121,-2.2809487781920375,0.0,4.603188514709473,-1.4178919792175293,-0.0,1.8677635192871094,5.692499148636617,-0.0,0.19723625481128693,-1.6248491446124476,-0.0,-0.0007572622271254659,0.5904370546340942,0.0,-0.0070884134620428085,1.0284504890441895,0.0,0.05763379484415054
266.0,294.0,-5.0501,-0.073,8.5113,-0.0289,0.0292,-0.121,-2.2809044323363246,0.0,4.67088508605957,-1.4178880453109741,-0.0,1.8272249698638916,5.692503201752462,-0.0,0.19256354868412018,-1.6248930136310022,-0.0,-0.013582451269030571,0.5904574394226074,0.0,0.006414463743567467,1.028462290763855,0.0,-0.006603113375604153
266.0,294.0,-5.0501,-0.073,8.5113,-0.0289,0.0292,-0.121,-2.2809044323363246,0.0,4.620960235595703,-1.4178436994552612,-0.0,1.8126643896102905,5.692499148636617,-0.0,0.20655304193496704,-1.6248095671283167,-0.0,-0.0008448706939816475,0.5904333591461182,0.0,0.008020581677556038,1.0284299850463867,0.0,-0.05272975564002991
266.0,294.0,-5.0501,-0.073,8.5113,-0.0289,0.0292,-0.121,-2.2809606991209925,0.0,4.645418643951416,-1.4178476333618164,-0.0,1.8725581169128418,5.692519175797262,-0.0,0.20784340798854828,-1.6248210112201136,-0.0,-0.014261867851018906,0.5904897451400757,0.0,0.016768723726272583,1.0283896923065186,0.0,-0.007491488009691238
266.0,294.0,-5.0501,-0.073,8.5113,-0.0289,0.0292,-0.121,-2.280900617639059,0.0,4.637774467468262,-1.4178403615951538,-0.0,1.826122522354126,5.692507135659017,-0.0,0.21753177046775818,-1.624857250844137,-0.0,0.0040597557090222836,0.5904169678688049,0.0,0.01177816279232502,1.0284099578857422,0.0,0.03702494502067566
266.0,294.0,-5.0501,-0.073,8.5113,-0.0289,0.0292,-0.121,-2.2809487781920375,0.0,4.656699180603027,-1.4178959131240845,-0.0,1.8338416814804077,5.692519056587972,-0.0,0.21020549535751343,-1.624841038380758,-0.0,-0.007062586955726147,0.5904251337051392,0.0,0.010326778516173363,1.0284422636032104,0.0,0.009690818376839161
266.0,294.0,-5.0501,-0.073,8.5113,-0.0289,0.0292,-0.121,-2.2809163532652796,0.0,4.646410942077637,-1.4179078340530396,-0.0,1.8415050506591797,5.692534911423483,-0.0,0.22147062420845032,-1.624845329915182,-0.0,-0.0015632163267582655,0.590437114238739,0.0,0.0018176876474171877,1.0284299850463867,0.0,-0.004400771111249924
266.0,294.0,-5.0501,-0.073,8.5113,-0.0289,0.0292,-0.121,-2.2809201679625453,0.0,4.643913745880127,-1.4178601503372192,-0.0,1.8242647647857666,5.692503142147817,-0.0,0.20556148886680603,-1.6248095671283167,-0.0,-0.006160774268209934,0.5904857516288757,0.0,0.005185347516089678,1.028405785560608,0.0,0.017068136483430862
266.0,294.0,-5.0501,-0.073,8.5113,-0.0289,0.0292,-0.121,-2.2809325657286585,0.0,4.619435787200928,-1.417915940284729,-0.0,1.8428326845169067,5.6925110695655725,-0.0,0.19496163725852966,-1.6248610655414026,-0.0,-0.01045987755060196,0.590437114238739,0.0,-0.0002940581180155277,1.0284299850463867,0.0,-0.024416884407401085
266.0,294.0,-5.0501,-0.073,8.5113,-0.0289,0.0292,-0.121,-2.2809087238707484,0.0,4.658986568450928,-1.4178959131240845,-0.0,1.8177176713943481,5.692526924401083,-0.0,0.19870314002037048,-1.6248286406146448,-0.0,-0.010066297836601734,0.5904938578605652,0.0,0.0016794514376670122,1.0284380912780762,0.0,-0.029474198818206787
266.0,294.0,-5.0501,-0.073,8.5113,-0.0289,0.0292,-0.121,-2.280900617639059,0.0,4.640293598175049,-1.417884111404419,-0.0,1.8588049411773682,5.692487287312307,-0.0,0.19640998542308807,-1.6248610655414026,-0.0,-0.001409795368090272,0.5904455780982971,0.0,0.004761049058288336,1.0283939838409424,0.0,0.006016189232468605
269.0,292.0,-5.0273,-0.1513,8.5406,-0.0394,0.0287,-0.1211,-2.2809044323363246,0.0,4.646878242492676,-1.4178601503372192,-0.0,1.8678257465362549,5.692458855896749,-0.0,0.21182504296302795,-1.624829117451803,-0.0,-0.0033374459017068148,0.5904693603515625,0.0,0.00785923097282648,1.0284056663513184,0.0,0.009709757752716541
269.0,292.0,-5.0273,-0.1513,8.5406,-0.0394,0.0287,-0.1211,-2.2809282741942347,0.0,4.666160583496094,-1.4178880453109741,-0.0,1.8278435468673706,5.692519056587972,-0.0,0.20929712057113647,-1.6248095671283167,-0.0,-0.004117668606340885,0.5904734134674072,0.0,0.004519366193562746,1.0284700393676758,0.0,-0.0007697325199842453
269.0,292.0,-5.0273,-0.1513,8.5406,-0.0394,0.0287,-0.1211,-2.2809726200499476,0.0,4.630434036254883,-1.4178403615951538,-0.0,1.8273227214813232,5.6924627898033044,-0.0,0.19776317477226257,-1.6248129049884241,-0.0,0.007134226616472006,0.5904856324195862,0.0,5.760090425610542e-05,1.028425931930542,0.0,-0.018331918865442276
269.0,292.0,-5.0273,-0.1513,8.5406,-0.0394,0.0287,-0.1211,-2.2809325657286585,0.0,4.633984565734863,-1.4179118871688843,-0.0,1.7906639575958252,5.692515003472128,-0.0,0.21524019539356232,-1.6248648802386683,-0.0,0.0044050272554159164,0.5904653072357178,0.0,0.00958618987351656,1.0284663438796997,0.0,-0.018652595579624176
269.0,292.0,-5.0273,-0.1513,8.5406,-0.0394,0.0287,-0.1211,-2.280928751031393,0.0,4.662202835083008,-1.4179039001464844,-0.0,1.8269211053848267,5.692515003472128,-0.0,0.1862575113773346,-1.6248529593097132,-0.0,-0.014141224324703217,0.5904934406280518,0.0,0.00584724685177207,1.028414011001587,0.0,0.02422671765089035
269.0,292.0,-5.0273,-0.1513,8.5406,-0.0394,0.0287,-0.1211,-2.280936380425924,0.0,4.662186622619629,-1.417876124382019,-0.0,1.8312263488769531,5.692495214730062,-0.0,0.20144174993038177,-1.6248491446124476,-0.0,-0.004642002750188112,0.5904653072357178,0.0,0.014971662312746048,1.0284380912780762,0.0,0.04717782139778137
269.0,292.0,-5.0273,-0.1513,8.5406,-0.0394,0.0287,-0.1211,-2.2809444866576136,0.0,4.663424491882324,-1.4178560972213745,-0.0,1.8567454814910889,5.692499208241262,-0.0,0.20379626750946045,-1.6248248259173792,-0.0,3.382854629307985e-05,0.5903973579406738,0.0,0.01097849290817976,1.0284340381622314,0.0,-0.032298389822244644
269.0,292.0,-5.0273,-0.1513,8.5406,-0.0394,0.0287,-0.1211,-2.2809325657286585,0.0,4.6182146072387695,-1.417935848236084,-0.0,1.863144874572754,5.6925269840057275,-0.0,0.19461211562156677,-1.624869171773092,-0.0,0.002693690126761794,0.5904211401939392,0.0,-0.008901756256818771,1.0284500122070312,0.0,0.030384382233023643
269.0,292.0,-5.0273,-0.1513,8.5406,-0.0394,0.0287,-0.1211,-2.2809163532652796,0.0,4.679311752319336,-1.417876124382019,-0.0,1.8632988929748535,5.692538845330038,-0.0,0.2007260024547577,-1.624841038380758,-0.0,-0.009968428872525692,0.5904815793037415,0.0,0.013637197203934193,1.028414011001587,0.0,0.024627115577459335
269.0,292.0,-5.0273,-0.1513,8.5406,-0.0394,0.0287,-0.1211,-2.280952592889303,0.0,4.665351867675781,-1.417836308479309,-0.0,1.8241126537322998,5.692482638150015,-0.0,0.20830823481082916,-1.624789063130514,-0.0,0.002129987347871065,0.5904293060302734,0.0,0.015756255015730858,1.028425931930542,0.0,0.007794823497533798
269.0,292.0,-5.0273,-0.1513,8.5406,-0.0394,0.0287,-0.1211,-2.280924459496969,0.0,4.653276443481445,-1.4178720712661743,-0.0,1.833033800125122,5.692519116192617,-0.0,0.2139328569173813,-1.6248729864703577,-0.0,-0.001802325015887618,0.590449333190918,0.0,-0.003469861112535,1.028405785560608,0.0,0.002270183525979519
269.0,292.0,-5.0273,-0.1513,8.5406,-0.0394,0.0287,-0.1211,-2.280980726281637,0.0,4.698209285736084,-1.417904019355774,-0.0,1.8366925716400146,5.692495214730062,-0.0,0.2035667598247528,-1.6248610655414026,-0.0,-0.0003463071770966053,0.5904611945152283,0.0,0.005675847176462412,1.0284582376480103,0.0,0.02038329467177391
269.0,292.0,-5.0273,-0.1513,8.5406,-0.0394,0.0287,-0.1211,-2.2809487781920375,0.0,4.63323974609375,-1.4178403615951538,-0.0,1.8278276920318604,5.692518996983328,-0.0,0.19712622463703156,-1.6248529593097132,-0.0,-0.00010017771273851395,0.5904170870780945,0.0,0.009116444736719131,1.0284380912780762,0.0,0.009365301579236984
264.0,288.0,-4.9944,-0.1214,8.6315,-0.0362,0.0286,-0.119,-2.280900617639059,0.0,4.623008728027344,-1.417847752571106,-0.0,1.8753252029418945,5.692522990494528,-0.0,0.20221446454524994,-1.6248491446124476,-0.0,-0.004434377420693636,0.5904451608657837,0.0,0.012836231850087643,1.0284180641174316,0.0,0.01293620839715004
264.0,288.0,-4.9944,-0.1214,8.6315,-0.0362,0.0286,-0.119,-2.280900617639059,0.0,4.652192115783691,-1.417896032333374,-0.0,1.8218265771865845,5.6925150630767725,-0.0,0.20255360007286072,-1.6248214880572718,-0.0,-0.004192124120891094,0.5904374122619629,0.0,0.0011473252670839429,1.0284422636032104,0.0,-0.03340955078601837
264.0,288.0,-4.9944,-0.1214,8.6315,-0.0362,0.0286,-0.119,-2.2809444866576136,0.0,4.698314189910889,-1.4178440570831299,-0.0,1.855293869972229,5.692578542023458,-0.0,0.18825429677963257,-1.6248491446124476,-0.0,-0.001028591999784112,0.5904333591461182,0.0,0.005196757614612579,1.0284099578857422,0.0,-0.03495468199253082
264.0,288.0,-4.9944,-0.1214,8.6315,-0.0362,0.0286,-0.119,-2.2809325657286585,0.0,4.619062423706055,-1.417915940284729,-0.0,1.7985985279083252,5.692495214730062,-0.0,0.20852994918823242,-1.624869171773092,-0.0,-0.017621345818042755,0.5904374122619629,0.0,0.010214979760348797,1.0284582376480103,0.0,0.00592595711350441
264.0,288.0,-4.9944,-0.1214,8.6315,-0.0362,0.0286,-0.119,-2.2809044323363246,0.0,4.6729254722595215,-1.4178681373596191,-0.0,1.863128423690796,5.692515003472128,-0.0,0.19411185383796692,-1.624845329915182,-0.0,-0.0023125940933823586,0.5904291272163391,0.0,0.003308882238343358,1.0284217596054077,0.0,0.019884467124938965
264.0,288.0,-4.9944,-0.1214,8.6315,-0.0362,0.0286,-0.119,-2.280896326104635,0.0,4.602104663848877,-1.4178959131240845,-0.0,1.8053441047668457,5.692487287312307,-0.0,0.2008890062570572,-1.624841038380758,-0.0,-0.013965005986392498,0.5904211401939392,0.0,0.009683970361948013,1.0284380912780762,0.0,0.049335092306137085
264.0,288.0,-4.9944,-0.1214,8.6315,-0.0362,0.0286,-0.119,-2.2808925114073695,0.0,4.621310234069824,-1.4179039001464844,-0.0,1.851891279220581,5.692530917912283,-0.0,0.19899475574493408,-1.6248491446124476,-0.0,0.00037400773726403713,0.5904734134674072,0.0,-0.00901773851364851,1.0284054279327393,0.0,-0.009625118225812912
264.0,288.0,-4.9944,-0.1214,8.6315,-0.0362,0.0286,-0.119,-2.2809044323363246,0.0,4.645063400268555,-1.4178959131240845,-0.0,1.7728650569915771,5.6924787042434595,-0.0,0.19701875746250153,-1.624857250844137,-0.0,-0.00961652398109436,0.5904574394226074,0.0,0.017167706042528152,1.0284663438796997,0.0,0.028395742177963257
264.0,288.0,-4.9944,-0.1214,8.6315,-0.0362,0.0286,-0.119,-2.280900617639059,0.0,4.610049247741699,-1.417847752571106,-0.0,1.8756189346313477,5.692507135659017,-0.0,0.20038911700248718,-1.6248529593097132,-0.0,-0.006201059557497501,0.5904006958007812,0.0,-0.0030199061147868633,1.0284017324447632,0.0,0.010546375997364521
264.0,288.0,-4.9944,-0.1214,8.6315,-0.0362,0.0286,-0.119,-2.280916830102438,0.0,4.620212554931641,-1.4178640842437744,-0.0,1.828202724456787,5.692538845330038,-0.0,0.19568103551864624,-1.6248334089862269,-0.0,-0.018378805369138718,0.5904896855354309,0.0,0.005115993786603212,1.0284217596054077,0.0,-0.03563929349184036
264.0,288.0,-4.9944,-0.1214,8.6315,-0.0362,0.0286,-0.119,-2.28090824703359,0.0,4.653371810913086,-1.4179118871688843,-0.0,1.8258205652236938,5.692466783314504,-0.0,0.2009778469800949,-1.6248648802386683,-0.0,0.0017951995832845569,0.5904896855354309,0.0,-0.0019056519959121943,1.0284299850463867,0.0,0.00988031830638647
264.0,288.0,-4.9944,-0.1214,8.6315,-0.0362,0.0286,-0.119,-2.280924459496969,0.0,4.652370929718018,-1.417915940284729,-0.0,1.7737302780151367,5.692562687187948,-0.0,0.19750720262527466,-1.6248372236834925,-0.0,-0.003868390340358019,0.5905094146728516,0.0,0.011952951550483704,1.028454065322876,0.0,-0.03178795799612999
264.0,288.0,-4.9944,-0.1214,8.6315,-0.0362,0.0286,-0.119,-2.2809201679625453,0.0,4.6275434494018555,-1.4178518056869507,-0.0,1.8052003383636475,5.692554759770193,-0.0,0.19835630059242249,-1.6248372236834925,-0.0,-0.006609377451241016,0.5904129147529602,0.0,0.00823608972132206,1.0284819602966309,0.0,-0.04325191676616669
264.0,288.0,-4.9944,-0.1214,8.6315,-0.0362,0.0286,-0.119,-2.2809087238707484,0.0,4.624920845031738,-1.4178959131240845,-0.0,1.8478329181671143,5.692542838841238,-0.0,0.19796201586723328,-1.624845329915182,-0.0,0.0034441642928868532,0.5904211401939392,0.0,0.014366822317242622,1.0284541845321655,0.0,-0.0062087178230285645
268.0,301.0,-5.0148,0.0036,8.4808,-0.0304,0.022,-0.1145,-2.280888696710104,0.0,4.678974151611328,-1.4178436994552612,-0.0,1.832008957862854,5.692486750870504,-0.0,0.20571522414684296,-1.624869171773092,-0.0,-0.01475322712212801,0.5904210805892944,0.0,-0.004742969758808613,1.0284380912780762,6.19392892531323e-09,-0.027216559275984764
268.0,301.0,-5.0148,0.0036,8.4808,-0.0304,0.022,-0.1145,-2.280964513818258,0.0,4.635844707489014,-1.4178681373596191,-0.0,1.7922720909118652,5.692570614605703,-0.0,0.20431068539619446,-1.6248129049884241,-0.0,-0.013316575437784195,0.590449333190918,0.0,0.006025167182087898,1.028397560119629,2.00675445973463e-16,-0.022446870803833008
268.0,301.0,-5.0148,0.0036,8.4808,-0.0304,0.022,-0.1145,-2.2809487781920375,0.0,4.643848419189453,-1.4178436994552612,-0.0,1.8292794227600098,5.692522990494528,-0.0,0.2079983502626419,-1.624857250844137,-0.0,-0.016283154487609863,0.5904374122619629,0.0,0.004280878230929375,1.0284779071807861,4.84607629175893e-22,-0.004774405155330896
268.0,301.0,-5.0148,0.0036,8.4808,-0.0304,0.022,-0.1145,-2.280968805352682,0.0,4.628182411193848,-1.417876124382019,-0.0,1.8453750610351562,5.692491221218862,-0.0,0.19328592717647552,-1.6248648802386683,-0.0,0.002002686494961381,0.5904979109764099,0.0,-0.006767200771719217,1.0284217596054077,1.1702702417740128e-27,0.018308328464627266
268.0,301.0,-5.0148,0.0036,8.4808,-0.0304,0.022,-0.1145,-2.2809444866576136,0.0,4.633275032043457,-1.4178601503372192,-0.0,1.8112730979919434,5.692499148636617,-0.0,0.200537770986557,-1.6248491446124476,-0.0,-0.009015780873596668,0.5904574394226074,0.0,0.015279649756848812,1.0284582376480103,3.791526608069186e-35,0.03131825104355812
268.0,301.0,-5.0148,0.0036,8.4808,-0.0304,0.022,-0.1145,-2.2809444866576136,0.0,4.635191440582275,-1.4178640842437744,-0.0,1.8600032329559326,5.692519116192617,-0.0,0.1973460167646408,-1.6248810927020472,-0.0,0.00046283553820103407,0.5904451608657837,0.0,0.014404186978936195,1.0285102128982544,0.00024523070896975696,-2.8031878173351288e-05
268.0,301.0,-5.0148,0.0036,8.4808,-0.0304,0.022,-0.1145,-2.280912538568014,0.0,4.654636383056641,-1.417884111404419,-0.0,1.8319835662841797,5.6925269840057275,-0.0,0.21090954542160034,-1.6248491446124476,-0.0,-0.011809677816927433,0.5904693603515625,0.0,0.0013102113734930754,1.0284380912780762,0.0002110743516823277,0.01765851303935051
268.0,301.0,-5.0148,0.0036,8.4808,-0.0304,0.022,-0.1145,-2.2809764347472132,0.0,4.636373519897461,-1.4178720712661743,-0.0,1.8502681255340576,5.692507135659017,-0.0,0.20434674620628357,-1.624841038380758,-0.0,-0.004625827539712191,0.5904611945152283,0.0,-0.008063712157309055,1.0284861326217651,0.0001850355911301449,0.04150985926389694
268.0,301.0,-5.0148,0.0036,8.4808,-0.0304,0.022,-0.1145,-2.2809206447997035,0.0,4.616730690002441,-1.4178640842437744,-0.0,1.7936054468154907,5.692534911423483,-0.0,0.20396314561367035,-1.6248810927020472,-0.0,-0.01469285786151886,0.5904291868209839,0.0,0.0036938514094799757,1.0284422636032104,0.0001271372166229412,-0.09312739223241806
268.0,301.0,-5.0148,0.0036,8.4808,-0.0304,0.022,-0.1145,-2.2809564075865687,0.0,4.657949924468994,-1.4178959131240845,-0.0,1.834381103515625,5.692519056587972,-0.0,0.21164703369140625,-1.6248334089862269,-0.0,0.001836732029914856,0.5903890132904053,0.0,0.004237642511725426,1.0284340381622314,0.00011494261707412079,0.017255328595638275
268.0,301.0,-5.0148,0.0036,8.4808,-0.0304,0.022,-0.1145,-2.2809368572630824,0.0,4.673711776733398,-1.417847752571106,-0.0,1.8273906707763672,5.6925110695655725,-0.0,0.2067592442035675,-1.6249006430255335,-0.0,-0.001970954705029726,0.5904087424278259,0.0,0.006247008219361305,1.0284544229507446,7.868593093007803e-05,0.049253277480602264
268.0,301.0,-5.0148,0.0036,8.4808,-0.0304,0.022,-0.1145,-2.280956884423727,0.0,4.66362190246582,-1.4178880453109741,-0.0,1.8302747011184692,5.692522990494528,-0.0,0.20456399023532867,-1.6248491446124476,-0.0,0.004473429173231125,0.5905057787895203,0.0,0.007518944796174765,1.02847421169281,7.045907841529697e-05,-0.026253432035446167
268.0,301.0,-5.0148,0.0036,8.4808,-0.0304,0.022,-0.1145,-2.2809368572630824,0.0,4.630788803100586,-1.417876124382019,-0.0,1.8307774066925049,5.6924951551254175,-0.0,0.20783859491348267,-1.6248529593097132,-0.0,-0.004839777015149593,0.5903850197792053,0.0,0.010714094154536724,1.028405785560608,6.534349813591689e-05,-0.0286946389824152
268.0,301.0,-5.0148,0.0036,8.4808,-0.0304,0.022,-0.1145,-2.2809325657286585,0.0,4.610325336456299,-1.4178282022476196,-0.0,1.831359624862671,5.692522990494528,-0.0,0.20421093702316284,-1.6248167196856897,-0.0,-0.006979800295084715,0.5905057787895203,0.0,0.0067631639540195465,1.0284422636032104,6.092038529459387e-05,-0.0009316243231296539
266.0,309.0,-5.0022,-0.1442,8.5065,-0.0368,0.0295,-0.1194,-2.2809444866576136,0.0,4.641524314880371,-1.4178920984268188,-0.0,1.8420253992080688,5.692487227707662,-0.0,0.1911507248878479,-1.6248052755938929,-0.0,-0.0031102215871214867,0.5904694199562073,0.0,-0.005943061783909798,1.0284700393676758,5.587737541645765e-05,-0.024796124547719955
266.0,309.0,-5.0022,-0.1442,8.5065,-0.0368,0.0295,-0.1194,-2.2809564075865687,0.0,4.6612548828125,-1.4179277420043945,-0.0,1.8076415061950684,5.692511009960928,-0.0,0.19111424684524536,-1.6248095671283167,-0.0,0.001625990029424429,0.5905099511146545,0.0,0.010947935283184052,1.0284016132354736,-3.5127679439028725e-05,0.021211858838796616
266.0,309.0,-5.0022,-0.1442,8.5065,-0.0368,0.0295,-0.1194,-2.280980726281637,0.0,4.666793346405029,-1.4178396463394165,-0.0,1.8242864608764648,5.692503082543173,-0.0,0.19554701447486877,-1.6248372236834925,-0.0,0.003274500137194991,0.5904653072357178,0.0,0.014375809580087662,1.0283976793289185,-2.4063467208179645e-05,0.0010655010119080544
266.0,309.0,-5.0022,-0.1442,8.5065,-0.0368,0.0295,-0.1194,-2.280952592889303,0.0,4.61696720123291,-1.4179000854492188,-0.0,1.8196427822113037,5.692534971028127,-0.0,0.19515573978424072,-1.6248529593097132,-0.0,-0.0030210346449166536,0.5904816389083862,0.0,0.0036536017432808876,1.0284619331359863,-2.173852590203751e-05,0.013778047636151314
266.0,309.0,-5.0022,-0.1442,8.5065,-0.0368,0.0295,-0.1194,-2.280940671960348,0.0,4.6471428871154785,-1.4178720712661743,-0.0,1.8457961082458496,5.692522990494528,-0.0,0.21115213632583618,-1.6248610655414026,-0.0,-0.0036499686539173126,0.590449333190918,0.0,0.0037777486722916365,1.028417706489563,-2.026973743340932e-05,0.011159585788846016
266.0,309.0,-5.0022,-0.1442,8.5065,-0.0368,0.0295,-0.1194,-2.2809206447997035,0.0,4.6371169090271,-1.4179118871688843,-0.0,1.8148338794708252,5.6925269840057275,-0.0,0.19813856482505798,-1.6248849073993128,-0.0,-0.013178280554711819,0.5904816389083862,0.0,0.007617451250553131,1.028417706489563,-1.8986875147675164e-05,-0.027863333001732826
266.0,309.0,-5.0022,-0.1442,8.5065,-0.0368,0.0295,-0.1194,-2.2809206447997035,0.0,4.613419055938721,-1.4178637266159058,-0.0,1.8749330043792725,5.692503261357107,-0.0,0.19986900687217712,-1.6249006430255335,-0.0,-0.002020270796492696,0.5904410481452942,0.0,-0.003213547170162201,1.028465986251831,-3.3469624849402635e-09,-0.040705420076847076
266.0,309.0,-5.0022,-0.1442,8.5065,-0.0368,0.0295,-0.1194,-2.280896326104635,0.0,4.677114963531494,-1.417884111404419,-0.0,1.8309009075164795,5.6924951551254175,-0.0,0.206745445728302,-1.6248729864703577,-0.0,-0.02202211320400238,0.5905136466026306,0.0,0.005059821996837854,1.0285179615020752,0.0007445145165547729,-0.04474626109004021
266.0,309.0,-5.0022,-0.1442,8.5065,-0.0368,0.0295,-0.1194,-2.280913015405172,0.0,4.686241149902344,-1.4179039001464844,-0.0,1.8238952159881592,5.692558693676748,-0.0,0.19647040963172913,-1.6248372236834925,-0.0,0.0065316688269376755,0.5904451608657837,0.0,0.00650020083412528,1.0285098552703857,0.00212672702036798,-0.0163122471421957
266.0,309.0,-5.0022,-0.1442,8.5065,-0.0368,0.0295,-0.1194,-2.2809087238707484,0.0,4.65244197845459,-1.4178600311279297,-0.0,1.8055098056793213,5.6924951551254175,-0.0,0.2034384310245514,-1.6248887220965784,-0.0,0.007837641052901745,0.5904693007469177,0.0,-0.006473788060247898,1.0284819602966309,0.0026140951085835695,0.025259681046009064
266.0,309.0,-5.0022,-0.1442,8.5065,-0.0368,0.0295,-0.1194,-2.2809330425658167,0.0,4.637628078460693,-1.417836308479309,-0.0,1.8334379196166992,5.692491221218862,-0.0,0.19987165927886963,-1.624920670186178,-0.0,0.0004300428554415703,0.5904653072357178,0.0,0.00658549927175045,1.0285215377807617,0.0027466858737170696,-0.037908900529146194
266.0,309.0,-5.0022,-0.1442,8.5065,-0.0368,0.0295,-0.1194,-2.28088440517568,0.0,4.643932342529297,-1.417836308479309,-0.0,1.8035650253295898,5.6925269840057275,-0.0,0.20601369440555573,-1.6248810927020472,-0.0,-0.0036959850694984198,0.5904976725578308,0.0,0.002631831681355834,1.0285460948944092,0.0038962506223469973,-0.03880181536078453
266.0,309.0,-5.0022,-0.1442,8.5065,-0.0368,0.0295,-0.1194,-2.2809249363341273,0.0,4.643715858459473,-1.4178720712661743,-0.0,1.8494946956634521,5.692523109703817,-0.0,0.2108420729637146,-1.6248849073993128,-0.0,-0.006897914223372936,0.590473473072052,0.0,0.007108031306415796,1.0286345481872559,0.006112873088568449,0.055196285247802734
280.0,306.0,-5.0997,0.4271,8.6333,-0.0078,0.0276,-0.1222,-2.2809044323363246,0.0,4.620542526245117,-1.4178800582885742,-0.0,1.8566255569458008,5.6924951551254175,-0.0,0.19885104894638062,-1.6248891989337366,-0.0,0.0076560345478355885,0.590453028678894,0.0,0.004730243235826492,1.0287063121795654,0.00737555418163538,-0.013721738010644913
280.0,306.0,-5.0997,0.4271,8.6333,-0.0078,0.0276,-0.1222,-2.2809044323363246,0.0,4.626886367797852,-1.4178680181503296,-0.0,1.8318567276000977,5.692519175797262,-0.0,0.2088543027639389,-1.6249244848834437,-0.0,-0.008206166326999664,0.590473473072052,0.0,0.008190847001969814,1.0286697149276733,0.007462950423359871,-0.012596745043992996
280.0,306.0,-5.0997,0.4271,8.6333,-0.0078,0.0276,-0.1222,-2.2809606991209925,0.0,4.682073593139648,-1.4178919792175293,-0.0,1.8541836738586426,5.692507076054373,-0.0,0.1912406086921692,-1.6248887220965784,-0.0,-0.0021104083862155676,0.5904653668403625,0.0,0.008521493524312973,1.0287139415740967,0.006252522114664316,-0.014314427971839905
280.0,306.0,-5.0997,0.4271,8.6333,-0.0078,0.0276,-0.1222,-2.2809282741942347,0.0,4.594955921173096,-1.4178881645202637,-0.0,1.836026668548584,5.692482638150015,-0.0,0.2088921070098877,-1.6248567740069788,-0.0,-0.007263297215104103,0.5904610753059387,0.0,0.009267606772482395,1.028778076171875,0.004995814524590969,-0.0020365759264677763
280.0,306.0,-5.0997,0.4271,8.6333,-0.0078,0.0276,-0.1222,-2.2810007534422816,-0.00030359067022800446,4.601640224456787,-1.417915940284729,-0.0,1.8494486808776855,5.6925110695655725,-0.0,0.2042507827281952,-1.6248567740069788,-0.0,-0.0077649266459047794,0.5904611349105835,0.0,-0.0007292565423995256,1.0287898778915405,0.0027960697188973427,-0.0026822853833436966
280.0,306.0,-5.0997,0.4271,8.6333,-0.0078,0.0276,-0.1222,-2.280980726281637,-0.00035188827314414084,4.6399078369140625,-1.417884111404419,-0.0,1.8512122631072998,5.692522990494528,-0.0,0.19064177572727203,-1.6248768011676233,-0.0,-0.01305244117975235,0.5904210209846497,0.0,0.011385897174477577,1.0288382768630981,0.0018377978121861815,-0.010977073572576046
280.0,306.0,-5.0997,0.4271,8.6333,-0.0078,0.0276,-0.1222,-2.280968328515524,-0.0003410421486478299,4.628806114196777,-1.4178760051727295,-0.0,1.8591148853302002,5.692486750870504,-7.54268327796126e-08,0.19392836093902588,-1.6249092260943812,-0.0,-0.01071237213909626,0.590453028678894,0.0,0.008884552866220474,1.0288100242614746,0.000977500225417316,0.013242976740002632
280.0,306.0,-5.0997,0.4271,8.6333,-0.0078,0.0276,-0.1222,-2.280952116052145,-0.0003799180267378688,4.596098899841309,-1.4178800582885742,-0.0,1.8472530841827393,5.692490744381704,-1.3708459280920016e-12,0.2027689665555954,-1.6248768011676233,-0.0,0.002969826804473996,0.5904374122619629,0.0,-0.01068294607102871,1.0288301706314087,0.0007188855670392513,0.0015111181419342756
280.0,306.0,-5.0997,0.4271,8.6333,-0.0078,0.0276,-0.1222,-2.28094019512319,-0.0003114171850029379,4.634133338928223,-1.4178403615951538,-0.0,1.8698383569717407,5.692527043610372,-3.8157995181792856e-16,0.205857515335083,-1.6249130407916468,-0.0,-0.0030526327900588512,0.590485692024231,0.0,0.00753326341509819,1.0287940502166748,0.0005425851559266448,-0.0072263628244400024
280.0,306.0,-5.0997,0.4271,8.6333,-0.0078,0.0276,-0.1222,-2.2810050449767054,-0.00025787102640606463,4.647757053375244,-1.417815923690796,-0.0,1.807732343673706,5.692486691265859,-1.0621419117835687e-19,0.1945929378271103,-1.6249092260943812,-0.0,-0.011246842332184315,0.5904611349105835,0.0,0.007145905401557684,1.0287736654281616,0.0004927485715597868,-0.02997303195297718
280.0,306.0,-5.0997,0.4271,8.6333,-0.0078,0.0276,-0.1222,-2.2809564075865687,-0.000251736055361107,4.688044548034668,-1.417896032333374,-4.97381802411212e-10,1.8488538265228271,5.692454921990194,-1.9303903611605818e-24,0.20528212189674377,-1.6248529593097132,-0.0,-0.006177617236971855,0.5905259251594543,0.0,0.004314840771257877,1.0288461446762085,0.0003868357161991298,0.02486759051680565
280.0,306.0,-5.0997,0.4271,8.6333,-0.0078,0.0276,-0.1222,-2.280968328515524,-0.0001855363807408139,4.624905586242676,-1.4177839756011963,-1.2011184478323707e-15,1.816049575805664,5.6925150630767725,-5.373311804031333e-28,0.19274622201919556,-1.6248529593097132,-0.0,-0.005909431260079145,0.5904329419136047,0.0,0.005565113388001919,1.028834342956543,0.0003331342595629394,0.012339751236140728
280.0,306.0,-5.0997,0.4271,8.6333,-0.0078,0.0276,-0.1222,-2.2809764347472132,-0.00016392601537518203,4.641040802001953,-1.4178482294082642,-2.900559910860301e-21,1.8639123439788818,5.692494678288259,-1.4956812620215812e-31,0.20251236855983734,-1.624880615864889,-0.0,-0.01088392548263073,0.5904291272163391,0.0,0.0016905262600630522,1.0288301706314087,0.0002925270819105208,0.015457876026630402
280.0,306.0,-5.0997,0.4271,8.6333,-0.0078,0.0276,-0.1222,-2.280912538568014,-0.00011485831782920286,4.690851211547852,-1.4178603887557983,0.0005345827084966004,1.8308079242706299,5.692482638150015,-2.718326560853861e-36,0.21390196681022644,-1.6248529593097132,-0.0,-0.005791678559035063,0.590485692024231,0.0,0.010856407694518566,1.0288063287734985,0.00022022936900611967,0.02192547358572483
271.0,300.0,-4.8975,-0.3176,8.5011,-0.048,0.0211,-0.1232,-2.280944963494772,-0.00010449441469972953,4.638092517852783,-1.417799949645996,0.0007559011573903263,1.8353171348571777,5.6924951551254175,-7.566563291845428e-40,0.21182852983474731,-1.6248930136310022,-0.0,-0.00030421302653849125,0.5904570817947388,0.0,0.0009736146312206984,1.02878999710083,6.357069651130587e-05,-0.0034835212863981724
271.0,300.0,-4.8975,-0.3176,8.5011,-0.048,0.0211,-0.1232,-2.2809444866576136,-9.612392022972926e-05,4.642392635345459,-1.4177922010421753,0.0007064492092467844,1.8257170915603638,5.692443060665884,-2.1019476964872256e-43,0.19585442543029785,-1.6248849073993128,-0.0,-0.007688628975301981,0.590473473072052,0.0,0.0002986190374940634,1.028798222541809,1.6267510005718577e-08,0.010375666432082653
271.0,300.0,-4.8975,-0.3176,8.5011,-0.048,0.0211,-0.1232,-2.2809368572630824,-8.899526437744498e-05,4.601957321166992,-1.417799949645996,0.000528661475982517,1.836594581604004,5.6924951551254175,-0.0,0.1900327205657959,-1.6248324553119105,-0.0,0.0015518725849688053,0.5904414653778076,0.0,0.0018666323740035295,1.0287457704544067,-0.0006330204196274281,0.01641305349767208
271.0,300.0,-4.8975,-0.3176,8.5011,-0.048,0.0211,-0.1232,-2.280964513818258,-8.098685793811455e-05,4.632991790771484,-1.417799949645996,0.00039578182622790337,1.8332009315490723,5.692490744381704,-0.0,0.21668343245983124,-1.6248534361468714,-0.0,-0.00011424790136516094,0.590485692024231,0.0,-0.007901150733232498,1.0287220478057861,-0.0013661290286108851,0.015980049967765808
271.0,300.0,-4.8975,-0.3176,8.5011,-0.048,0.0211,-0.1232,-2.2809487781920375,-7.586674473714083e-05,4.656091213226318,-1.417864441871643,0.0003330108884256333,1.8102712631225586,5.692478644638815,-0.0,0.22099895775318146,-1.6248567740069788,-0.0,0.00024198414757847786,0.5904894471168518,0.0,0.013922530226409435,1.028693437576294,-0.0010393006959930062,0.003663807176053524
271.0,300.0,-4.8975,-0.3176,8.5011,-0.048,0.0211,-0.1232,-2.28094019512319,-7.135547639336437e-05,4.657502174377441,-1.4177881479263306,0.00028742686845362186,1.845379114151001,5.692466902523794,-0.0,0.19506695866584778,-1.6248210112201136,-0.0,-0.01566293276846409,0.5904091000556946,0.0,0.0055753253400325775,1.0287504196166992,-0.0007448774995282292,-0.009576790034770966
271.0,300.0,-4.8975,-0.3176,8.5011,-0.048,0.0211,-0.1232,-2.280912538568014,-6.611372373299673e-05,4.63877010345459,-1.4178318977355957,0.00027368892915546894,1.8397138118743896,5.6924951551254175,-0.0,0.21485471725463867,-1.6248930136310022,-0.0,-0.007308291271328926,0.5904935002326965,0.0,-0.005483539775013924,1.0286774635314941,-0.0009609843837097287,0.010575830936431885
271.0,300.0,-4.8975,-0.3176,8.5011,-0.048,0.0211,-0.1232,-2.2809282741942347,-6.266145646804944e-05,4.674914836883545,-1.4178239107131958,0.0002489715989213437,1.859048843383789,5.692466842919149,-0.0,0.19042044878005981,-1.6248891989337366,-0.0,0.0009546251967549324,0.5904489755630493,0.0,0.01879177615046501,1.028693437576294,-0.001112485653720796,-0.015497537329792976
271.0,300.0,-4.8975,-0.3176,8.5011,-0.048,0.0211,-0.1232,-2.2809368572630824,-4.4733271352015436e-05,4.618140697479248,-1.417767882347107,0.00020028311701025814,1.7959840297698975,5.692454981594839,-8.34399470477365e-05,0.196099191904068,-1.6248729864703577,-0.0,-0.010604046285152435,0.5904653072357178,0.0,0.009704343974590302,1.0286816358566284,-0.0009207380353473127,0.01687508635222912
271.0,300.0,-4.8975,-0.3176,8.5011,-0.048,0.0211,-0.1232,-2.2809163532652796,-4.189198079984635e-05,4.673840522766113,-1.4177842140197754,0.0009219166822731495,1.8110780715942383,5.692478823452749,-0.0001087942800950259,0.2024950087070465,-1.6248534361468714,-0.0,-0.012276627123355865,0.5904816389083862,0.0,0.02030726708471775,1.0287384986877441,-0.00043195707257837057,-0.04067646339535713
271.0,300.0,-4.8975,-0.3176,8.5011,-0.048,0.0211,-0.1232,-2.2809606991209925,-4.00288263335824e-05,4.6646928787231445,-1.417767882347107,0.0014552766224369407,1.846177101135254,5.6924272058303735,-0.00011825024557765573,0.20301632583141327,-1.6248610655414026,-0.0,-0.00427991570904851,0.5904611349105835,0.0,-0.0042157480493187904,1.0286816358566284,-0.00031056185252964497,-0.004887801595032215
271.0,300.0,-4.8975,-0.3176,8.5011,-0.048,0.0211,-0.1232,-2.2809487781920375,-3.8324305933201686e-05,4.682868957519531,-1.41780424118042,0.0019435947760939598,1.84036386013031,5.692446994572439,-0.000435404886957258,0.19405516982078552,-1.6248491446124476,-0.0,-0.005194616969674826,0.5904451012611389,0.0,0.008600296452641487,1.0287302732467651,-0.00024669800768606365,-0.03124793991446495
271.0,300.0,-4.8975,-0.3176,8.5011,-0.048,0.0211,-0.1232,-2.280888696710104,-4.8351514124078676e-05,4.689034461975098,-1.4177277088165283,0.002353966934606433,1.8528800010681152,5.692394721298971,-0.0008016519132070243,0.1954420506954193,-1.6248529593097132,-0.0,-0.013364365324378014,0.5905090570449829,3.729935249552341e-10,7.795612327754498e-05,1.0287420749664307,-0.00014521300909109414,-0.033077940344810486
271.0,300.0,-4.8975,-0.3176,8.5011,-0.048,0.0211,-0.1232,-2.280936380425924,-4.648086542147212e-05,4.617847442626953,-1.4177441596984863,0.002691617701202631,1.7770700454711914,5.692398714810171,-0.0007156479405239224,0.1942458301782608,-1.624845329915182,-0.0,-0.00749337300658226,0.5904611349105835,1.038241283853221e-13,-0.0018298369832336903,1.0287221670150757,0.00011531923519214615,-0.028643209487199783
269.0,300.0,-5.1314,-0.1759,8.6267,-0.0478,0.0206,-0.1153,-2.2809282741942347,-1.2942390640091617e-05,4.662638187408447,-1.41770339012146,0.0027403216809034348,1.8440687656402588,5.69240282753066,-0.0006843789597041905,0.1923898309469223,-1.6248367468463343,-0.0,-0.0033709213603287935,0.5905176997184753,2.889982448314087e-17,0.009966868907213211,1.0287097692489624,0.00018775185162667185,0.03555407002568245
269.0,300.0,-5.1314,-0.1759,8.6267,-0.0478,0.0206,-0.1153,-2.280952116052145,-2.4812221454340033e-05,4.644266128540039,-1.417719841003418,0.0025828334037214518,1.8480464220046997,5.69240282753066,-0.0005975961103104055,0.19260603189468384,-1.624812428151266,-0.0,-0.00525215920060873,0.5904570817947388,8.044373462343675e-21,0.00896052923053503,1.028782844543457,0.00043748790631070733,0.01295122317969799
269.0,300.0,-5.1314,-0.1759,8.6267,-0.0478,0.0206,-0.1153,-2.28102507213735,-4.5661516196560115e-05,4.6355485916137695,-1.4176961183547974,0.0025370041839778423,1.8482940196990967,5.692366945534506,-0.0005140727153047919,0.17490145564079285,-1.6248653570758265,-0.0,-0.002254802267998457,0.5904611349105835,1.462025251411014e-25,0.001210896298289299,1.0287622213363647,0.0005991247016936541,0.001695927232503891
269.0,300.0,-5.1314,-0.1759,8.6267,-0.0478,0.0206,-0.1153,-2.281008859673971,-0.0004232414357829839,4.629683971405029,-1.4177123308181763,0.002048738533630967,1.8182613849639893,5.692386913090505,-0.0004615065990947187,0.19851884245872498,-1.6248491446124476,-0.0,-0.013564754277467728,0.590441107749939,4.0696010143885854e-29,0.0029083313420414925,1.0287457704544067,0.000733475259039551,0.04011814296245575
269.0,300.0,-5.1314,-0.1759,8.6267,-0.0478,0.0206,-0.1153,-2.280968328515524,-0.00046781665878370404,4.6832122802734375,-1.4176480770111084,0.0014911823673173785,1.8214032649993896,5.69235115030364,-0.00048655449063517153,0.20203447341918945,-1.6248367468463343,-0.0,-0.0040546744130551815,0.5904570817947388,1.132788420651723e-32,-0.012756133452057838,1.028749942779541,0.0006089593516662717,-0.00624313298612833
269.0,300.0,-5.1314,-0.1759,8.6267,-0.0478,0.0206,-0.1153,-2.281020780602926,-0.001320296316407621,4.570898056030273,-1.4176441431045532,0.0008590157958678901,1.8639432191848755,5.692375051766195,-0.0005444659618660808,0.19718222320079803,-1.6248329321490687,-0.0,-0.014272503554821014,0.5904816389083862,2.058786806955004e-37,0.002225731499493122,1.0287941694259644,0.0005018649972043931,-0.025858545675873756
269.0,300.0,-5.1314,-0.1759,8.6267,-0.0478,0.0206,-0.1153,-2.281008382836813,-0.0015347572043538094,4.629915237426758,-1.4176760911941528,0.0005415715859271586,1.8364003896713257,5.69235913732604,-0.0008323363726958632,0.1816558688879013,-1.6248448530780237,-0.0,-0.01772708259522915,0.5904369950294495,5.730750199702772e-41,0.013752490282058716,1.0287539958953857,0.00041505711851641536,-0.005991639569401741
269.0,300.0,-5.1314,-0.1759,8.6267,-0.0478,0.0206,-0.1153,-2.2810808620848597,-0.002514371881261468,4.609012603759766,-1.4176839590072632,0.00039784953696653247,1.8375587463378906,5.69237499216155,-0.0015549565432593226,0.19396831095218658,-1.6248205343829554,-0.0,-0.012447324581444263,0.5904211401939392,1.5414283107572988e-44,0.005259526893496513,1.028749942779541,0.0003538547898642719,-0.000870946329087019
269.0,300.0,-5.1314,-0.1759,8.6267,-0.0478,0.0206,-0.1153,-2.281064649621481,-0.0042654587887227535,4.621196746826172,-1.4176360368728638,0.00039110350189730525,1.8583219051361084,5.692258882313528,-0.0052563766948878765,0.19162563979625702,-1.6248491446124476,-0.0,-0.011784464120864868,0.5904734134674072,0.0,-0.0033480790443718433,1.028741717338562,0.00029571662889793515,0.05821579694747925
269.0,300.0,-5.1314,-0.1759,8.6267,-0.0478,0.0206,-0.1153,-2.2810965977110804,-0.005457787308841944,4.638289451599121,-1.4176361560821533,0.0003949109523091465,1.8072539567947388,5.6922680018241785,-0.014302928932011127,0.1782938838005066,-1.6248448530780237,-0.0,0.005496465601027012,0.5903804302215576,0.0,-0.007306396495550871,1.0287864208221436,0.00026327496743761003,-0.017945006489753723
269.0,300.0,-5.1314,-0.1759,8.6267,-0.0478,0.0206,-0.1153,-2.2811409435667933,-0.006219970528036356,4.614058494567871,-1.417640209197998,0.0004156172217335552,1.8665635585784912,5.692103850632467,-0.02005710080265999,0.18333372473716736,-1.6248167196856897,-0.0,-0.003634214634075761,0.590477466583252,0.0,0.010253972373902798,1.0287822484970093,0.00023724821221549064,0.0023890151642262936
269.0,300.0,-5.1314,-0.1759,8.6267,-0.0478,0.0206,-0.1153,-2.2811323604979457,-0.005719833541661501,4.613864421844482,-1.417640209197998,0.001044559758156538,1.853534460067749,5.691939818650045,-0.02226286567747593,0.18732143938541412,-1.6248491446124476,-0.0,0.007231181487441063,0.5904733538627625,0.0,-0.008005645126104355,1.028749942779541,0.0002159049327019602,-0.025853483006358147
269.0,300.0,-5.1314,-0.1759,8.6267,-0.0478,0.0206,-0.1153,-2.281212945977682,-0.006261294241994619,4.619030952453613,-1.4176204204559326,0.0010106705594807863,1.8926496505737305,5.691773044853964,-0.022330643609166145,0.18641258776187897,-1.6248248259173792,-0.0,0.013678806833922863,0.5904611349105835,0.0,0.01433777716010809,1.0287901163101196,0.00019266741583123803,-0.03058566339313984
266.0,312.0,-4.6355,-0.1567,8.4993,-0.0341,-0.0072,-0.1245,-2.281248231927389,-0.007413079030811787,4.645412921905518,-1.4176361560821533,0.0007880853372626007,1.8435642719268799,5.6916130659873865,-0.02192818373441696,0.17340922355651855,-1.6248052755938929,-0.0,-0.001595411216840148,0.5904127955436707,0.0,0.010871503502130508,1.0287580490112305,0.000156141264596954,-0.01903344877064228
266.0,312.0,-4.6355,-0.1567,8.4993,-0.0341,-0.0072,-0.1245,-2.281304498712057,-0.008727991953492165,4.651650428771973,-1.4176204204559326,0.0006186991813592613,1.876786470413208,5.691453146725454,-0.021382667124271393,0.18377593159675598,-1.6248329321490687,-0.0,0.009715339168906212,0.5905455946922302,0.0,0.005750221200287342,1.028798222541809,0.00014533501234836876,-0.053432632237672806
266.0,312.0,-4.6355,-0.1567,8.4993,-0.0341,-0.0072,-0.1245,-2.281412740746969,-0.011316796764731407,4.628370761871338,-1.4176157712936401,0.00042493586079217494,1.8862874507904053,5.691373812943258,-0.017313802614808083,0.1675272285938263,-1.6248052755938929,2.0043810361469738e-11,0.005457575432956219,0.5905094742774963,0.0,-0.01128663495182991,1.0287781953811646,0.00013305716856848449,-0.017624717205762863
266.0,312.0,-4.6355,-0.1567,8.4993,-0.0341,-0.0072,-0.1245,-2.281436105767721,-0.011609792709350586,4.632334232330322,-1.4176238775253296,0.00045149485231377184,1.9113235473632812,5.691262531071462,-0.012457764707505703,0.18156635761260986,-1.6248815695392054,5.5792675336772e-15,0.008199662901461124,0.5905095338821411,0.0,0.0016092308796942234,1.0287822484970093,0.00012512900866568089,-0.10986730456352234
266.0,312.0,-4.6355,-0.1567,8.4993,-0.0341,-0.0072,-0.1245,-2.2815686664977015,-0.011713473126292229,4.653252601623535,-1.4176039695739746,0.00044943043030798435,1.8970730304718018,5.691166209965505,-0.007610104978084564,0.16972416639328003,-1.624829117451803,1.5530095763845002e-18,0.0016534168971702456,0.5904935002326965,0.0,0.004284442402422428,1.0287822484970093,0.00011809243733296171,-0.07772514969110489
266.0,312.0,-4.6355,-0.1567,8.4993,-0.0341,-0.0072,-0.1245,-2.281640192071432,-0.011242580600082874,4.62398099899292,-1.4175997972488403,0.001860105199739337,1.8986046314239502,5.691137957363882,-0.003218320896849036,0.17708532512187958,-1.6248977820025843,2.822518444243089e-23,0.006601911969482899,0.5905016660690308,2.5919638574123383e-05,-0.00010266411118209362,1.0287376642227173,0.00010985559492837638,-0.0719180703163147
266.0,312.0,-4.6355,-0.1567,8.4993,-0.0341,-0.0072,-0.1245,-2.2816883526244105,-0.010284350253641605,4.648342609405518,-1.4175759553909302,0.002586774528026581,1.939283847808838,5.691126036434927,-0.0015159155009314418,0.18332763016223907,-1.6248090902911585,7.856583148350892e-27,0.01652889885008335,0.5904890298843384,2.503945324860979e-05,-0.006076697260141373,1.0287457704544067,3.249611836508848e-05,-0.11208811402320862
266.0,312.0,-4.6355,-0.1567,8.4993,-0.0341,-0.0072,-0.1245,-2.2818085155882777,-0.010247739963233471,4.630510330200195,-1.4176160097122192,0.003007154678925872,1.914436936378479,5.691102313786306,-0.0008975963573902845,0.1753503531217575,-1.6247966925250452,2.1869092504957814e-30,0.001309500541538,0.5904570817947388,3.525925785652362e-05,0.007925341837108135,1.0287781953811646,3.072317849728279e-05,-0.14373070001602173
266.0,312.0,-4.6355,-0.1567,8.4993,-0.0341,-0.0072,-0.1245,-2.281872888604635,-0.0111610796302557,4.637025356292725,-1.4175398349761963,0.003653489053249359,1.9325425624847412,5.691125857620992,-0.0013388836523517966,0.18672654032707214,-1.6248205343829554,3.9746006696601415e-35,0.02129802107810974,0.5904853343963623,3.4226432035211474e-05,-0.0011070610489696264,1.028741717338562,1.444684403395513e-05,-0.14115984737873077
266.0,312.0,-4.6355,-0.1567,8.4993,-0.0341,-0.0072,-0.1245,-2.281948228875631,-0.012013571336865425,4.627126693725586,-1.4175399541854858,0.0034678636584430933,1.9775545597076416,5.6910672066505334,-0.0024925919715315104,0.16658757627010345,-1.6247809568988245,1.1063446156330972e-38,0.01495782658457756,0.5904770493507385,3.2972387998597696e-05,0.009823767468333244,1.028749942779541,6.38698338661925e-08,-0.18077245354652405
266.0,312.0,-4.6355,-0.1567,8.4993,-0.0341,-0.0072,-0.1245,-2.2819839916624964,-0.012610417790710926,4.6417622566223145,-1.417467713356018,0.0044817146845161915,1.9248850345611572,5.691075014858999,-0.0028923950158059597,0.17771556973457336,-1.6247809568988245,1.2359195352473762e-05,0.01957586035132408,0.5904734134674072,4.231816274113953e-05,0.008299740962684155,1.0287137031555176,1.542381267193374e-13,-0.21753399074077606
266.0,312.0,-4.6355,-0.1567,8.4993,-0.0341,-0.0072,-0.1245,-2.2820846043028773,-0.012725171633064747,4.642728328704834,-1.417460322380066,0.00455218693241477,1.9841563701629639,5.691026675492086,-0.0038197566755115986,0.1620435267686844,-1.624829117451803,0.00013835080608259887,0.02634745091199875,0.5904853343963623,4.096178963663988e-05,0.013652082532644272,1.028701663017273,3.7246694457525764e-19,-0.1957913339138031
266.0,312.0,-4.6355,-0.1567,8.4993,-0.0341,-0.0072,-0.1245,-2.2821885548033656,-0.011216025799512863,4.640721321105957,-1.4174683094024658,0.005400843918323517,1.9674813747406006,5.690959083824911,-0.005401228554546833,0.1720297932624817,-1.6247766653644007,0.0001232295180670917,0.02094678208231926,0.5904934406280518,1.3109010978951119e-06,-0.0031167049892246723,1.0286853313446045,1.2067456408430566e-26,-0.21255744993686676
266.0,312.0,-4.6355,-0.1567,8.4993,-0.0341,-0.0072,-0.1245,-2.2822324238219203,-0.01005860511213541,4.6747283935546875,-1.4173723459243774,0.00466090627014637,1.9874958992004395,5.690930592804708,-0.005918465089052916,0.16398558020591736,-1.6248052755938929,0.00011387381528038532,0.03072378784418106,0.5905053615570068,3.648941704348374e-10,0.016817472875118256,1.0287338495254517,2.9141486494667444e-32,-0.21252787113189697
275.0,309.0,-4.9741,-0.0544,8.6261,-0.0319,0.0125,-0.1208,-2.2823368511595667,-0.010507523082196712,4.6653337478637695,-1.4173359870910645,0.004563231952488422,1.941765308380127,5.690914797573843,-0.006693338509649038,0.16124430298805237,-1.6248205343829554,0.00010583873518044129,0.015870265662670135,0.5905495882034302,1.0156963161159216e-13,0.0210392028093338,1.028729796409607,7.037324811474931e-38,-0.2552174925804138
275.0,309.0,-4.9741,-0.0544,8.6261,-0.0319,0.0125,-0.1208,-2.2823759518065394,-0.011901087127625942,4.654938697814941,-1.4173122644424438,0.00404397351667285,1.9593398571014404,5.690883147507467,-0.006798578891903162,0.16415993869304657,-1.6248248259173792,0.00011604093015193939,0.01444757916033268,0.5905218124389648,0.0001520558726042509,0.013813050463795662,1.0287662744522095,2.802596928649634e-45,-0.2579598128795624
275.0,309.0,-4.9741,-0.0544,8.6261,-0.0319,0.0125,-0.1208,-2.2824517689146937,-0.011772871017456055,4.644338607788086,-1.4173362255096436,0.00382377952337265,1.9355288743972778,5.690807032376089,-0.00634571211412549,0.1679079830646515,-1.624800984059469,0.00010905168892350048,0.022732390090823174,0.5904853343963623,0.0001431168057024479,0.02793826162815094,1.0287097692489624,0.0,-0.29482555389404297
275.0,309.0,-4.9741,-0.0544,8.6261,-0.0319,0.0125,-0.1208,-2.2825118503966273,-0.011845819652080536,4.682984828948975,-1.417303442955017,0.0032343303319066763,2.017906665802002,5.690815257817068,-0.004940048325806856,0.1628761887550354,-1.624772850667135,0.00010282201401423663,0.02320202812552452,0.5905254483222961,0.00015447710757143795,0.02059505693614483,1.0287457704544067,0.0,-0.2355327606201172
275.0,309.0,-4.9741,-0.0544,8.6261,-0.0319,0.0125,-0.1208,-2.282616277734274,-0.010195600800216198,4.673604488372803,-1.417227864265442,0.002867271890863776,1.923998236656189,5.690715241223135,-0.003960341215133667,0.16248179972171783,-1.6247847715960901,9.554486314300448e-05,0.015420112758874893,0.5905049443244934,0.00016087028780020773,0.021618416532874107,1.028749942779541,-0.00021614175057038665,-0.273024320602417
275.0,309.0,-4.9741,-0.0544,8.6261,-0.0319,0.0125,-0.1208,-2.2826720676817835,-0.008884654380381107,4.690947532653809,-1.417248010635376,0.003133583813905716,1.9716392755508423,5.690726804524221,-0.003738200990483165,0.17053842544555664,-1.6247847715960901,9.072876127902418e-05,0.025003712624311447,0.5904770493507385,0.000254704529652372,0.011747613549232483,1.0286893844604492,-0.00022554674069397151,-0.2593993544578552
275.0,309.0,-4.9741,-0.0544,8.6261,-0.0319,0.0125,-0.1208,-2.282736440698141,-0.0075939493253827095,4.704627513885498,-1.4172486066818237,0.003415481885895133,1.9290499687194824,5.69074313619689,-0.0036726032849401236,0.16527992486953735,-1.6248214880572718,0.00010070738062495366,0.01709476299583912,0.5905377268791199,0.0002524186857044697,0.03676723688840866,1.028749942779541,-0.00020371426944620907,-0.3109302222728729
275.0,309.0,-4.9741,-0.0544,8.6261,-0.0319,0.0125,-0.1208,-2.28271545986318,-0.005923169665038586,4.664254665374756,-1.4172528982162476,0.0034589136485010386,1.9705696105957031,5.690723466664114,-0.003387046279385686,0.1669527292251587,-1.6247966925250452,9.471102384850383e-05,0.022179994732141495,0.5904967784881592,0.0002647049550432712,0.026114225387573242,1.028746247291565,-0.00020615181711036712,-0.2934595048427582
275.0,309.0,-4.9741,-0.0544,8.6261,-0.0319,0.0125,-0.1208,-2.2828403911986292,-0.005133059807121754,4.651316165924072,-1.4171802997589111,0.00386397959664464,1.9449995756149292,5.690679120808401,-0.004037431441247463,0.16831126809120178,-1.624772850667135,9.062382741831243e-05,0.029531165957450867,0.5905012488365173,0.0002664915518835187,0.022558752447366714,1.028738021850586,-0.0003151895070914179,-0.3245370388031006
275.0,309.0,-4.9741,-0.0544,8.6261,-0.0319,0.0125,-0.1208,-2.2828360996642054,-0.004139759112149477,4.721066474914551,-1.4171605110168457,0.004180955234915018,1.9825186729431152,5.690619933396139,-0.004734608344733715,0.16377544403076172,-1.624800984059469,8.687480294611305e-05,0.020633850246667862,0.5904849171638489,0.00024349489831365645,0.022866569459438324,1.028693437576294,-0.00032897264463827014,-0.3199474513530731
275.0,309.0,-4.9741,-0.0544,8.6261,-0.0319,0.0125,-0.1208,-2.28283228496694,-0.002870633266866207,4.711273193359375,-1.4171926975250244,0.004938679747283459,1.9944233894348145,5.690608012467184,-0.006116307806223631,0.17738007009029388,-1.6248176733600062,8.342367800651118e-05,0.02313932031393051,0.5905132293701172,0.00022106477990746498,0.030248545110225677,1.0287420749664307,-0.0002844739065039903,-0.30072325468063354
275.0,309.0,-4.9741,-0.0544,8.6261,-0.0319,0.0125,-0.1208,-2.28285612682485,-0.001476291916333139,4.702685356140137,-1.4171160459518433,0.005120455753058195,2.0100460052490234,5.690539705544271,-0.008901763707399368,0.1570749580860138,-1.6247528235064905,7.922720396891236e-05,0.026362448930740356,0.5905213356018066,0.00021892966469749808,0.02950645238161087,1.0287261009216309,-0.0002753713633865118,-0.321879506111145
275.0,309.0,-4.9741,-0.0544,8.6261,-0.0319,0.0125,-0.1208,-2.282896181146139,-0.0010283358860760927,4.727994918823242,-1.4170726537704468,0.006148183718323708,1.9046471118927002,5.690491962223806,-0.011850472539663315,0.15233641862869263,-1.6248329321490687,8.653273107483983e-05,0.021745136007666588,0.5905495882034302,0.00019105638784822077,0.04186241701245308,1.0286853313446045,-0.0002470278413966298,-0.301759272813797
275.0,309.0,-4.9741,-0.0544,8.6261,-0.0319,0.0125,-0.1208,-2.2828761539854945,-0.0006930655217729509,4.721053600311279,-1.4170688390731812,0.0068428670056164265,2.003119945526123,5.6904199598129175,-0.0150864003226161,0.16127286851406097,-1.624800984059469,8.419253572355956e-05,0.035649459809064865,0.5905213356018066,0.00020106065494474024,0.03214562311768532,1.0287662744522095,-0.00022397399879992008,-0.3103410601615906
286.0,331.0,-5.4221,-0.2345,8.4897,-0.0396,0.0221,-0.122,-2.282839914361471,-0.0004812183906324208,4.724004745483398,-1.416964054107666,0.008315439336001873,2.0084879398345947,5.690276014595785,-0.02249828726053238,0.16569551825523376,-1.6247933546649378,8.043071284191683e-05,0.05555260181427002,0.5905332565307617,0.00017673365073278546,0.03106149286031723,1.0287420749664307,-0.0001985225680982694,-0.3237933814525604
286.0,331.0,-5.4221,-0.2345,8.4897,-0.0396,0.0221,-0.122,-2.2828685245909632,-0.00039148845826275647,4.7240400314331055,-1.416871428489685,0.009955980814993382,2.018735647201538,5.690180945187368,-0.029090918600559235,0.16542959213256836,-1.6248052755938929,3.3910058050423686e-07,0.03767228126525879,0.5905172824859619,0.00016093083831947297,0.03612489253282547,1.0287302732467651,-0.00021021314023528248,-0.32466959953308105
286.0,331.0,-5.4221,-0.2345,8.4897,-0.0396,0.0221,-0.122,-2.2828804455199183,-0.00032996624941006303,4.663160800933838,-1.4168559312820435,0.011971413157880306,2.0235438346862793,5.689940917282858,-0.03940366581082344,0.15688708424568176,-1.624772850667135,9.43899056138342e-11,0.03261352702975273,0.5905733704566956,0.0001477222831454128,0.03921211510896683,1.0287179946899414,-0.0002184880431741476,-0.3168392777442932
286.0,331.0,-5.4221,-0.2345,8.4897,-0.0396,0.0221,-0.122,-2.2828599415221156,-0.00027280746144242585,4.661655426025391,-1.416756510734558,0.014912217855453491,2.019446849822998,5.6895062802131555,-0.05798846855759621,0.14286428689956665,-1.6248090902911585,1.7154897929643853e-15,0.03962995857000351,0.5905532836914062,0.00013315133401192725,0.03890356793999672,1.028749942779541,-0.00022035503934603184,-0.2813933491706848
286.0,331.0,-5.4221,-0.2345,8.4897,-0.0396,0.0221,-0.122,-2.2828642330565394,-0.00024144074996002018,4.775631427764893,-1.4166040420532227,0.016584834083914757,2.0241775512695312,5.689126717835226,-0.07157953083515167,0.13685601949691772,-1.624772850667135,5.474550562212244e-05,0.04558505117893219,0.5905451774597168,0.00012397964019328356,0.0226132832467556,1.028766393661499,-0.0003390400961507112,-0.3811056613922119
286.0,331.0,-5.4221,-0.2345,8.4897,-0.0396,0.0221,-0.122,-2.2828642330565394,-0.00024746073177084327,4.716770648956299,-1.416499376296997,0.019487792626023293,1.9960763454437256,5.688664066582479,-0.07707887142896652,0.12635457515716553,-1.624789063130514,5.927470920141786e-05,0.0315597802400589,0.5905775427818298,0.00013531619333662093,0.023382313549518585,1.0286816358566284,-0.00038621804560534656,-0.4798814654350281
286.0,331.0,-5.4221,-0.2345,8.4897,-0.0396,0.0221,-0.122,-2.2828761539854945,-0.00021756502974312752,4.711218357086182,-1.4163604974746704,0.023817311972379684,2.026970148086548,5.6880297539527795,-0.07394861429929733,0.13471636176109314,-1.6247528235064905,5.6309698265977204e-05,0.03984380513429642,0.5905050039291382,0.00012461497681215405,0.051009997725486755,1.0287302732467651,-0.0007663449505344033,-0.39818012714385986
286.0,331.0,-5.4221,-0.2345,8.4897,-0.0396,0.0221,-0.122,-2.2828685245909632,-0.0001375542051391676,4.734461784362793,-1.416212558746338,0.028335774317383766,2.0141966342926025,5.687643098622122,-0.05976906418800354,0.14499972760677338,-1.62476092973818,6.512057734653354e-05,0.03939139470458031,0.5905573964118958,0.00011763406655518338,0.024839652702212334,1.0286976099014282,-0.0009651535074226558,-0.4235488772392273
286.0,331.0,-5.4221,-0.2345,8.4897,-0.0396,0.0221,-0.122,-2.2828761539854945,-0.0001648234174354002,4.733738899230957,-1.416028618812561,0.032716263085603714,2.0404820442199707,5.687311756401815,-0.04053370654582977,0.16925811767578125,-1.624789063130514,6.285270501393825e-05,0.03657440096139908,0.5905573964118958,0.00011139408161398023,0.03533000871539116,1.0287344455718994,-0.001204011612571776,-0.4168882966041565
286.0,331.0,-5.4221,-0.2345,8.4897,-0.0396,0.0221,-0.122,-2.28287996868276,-0.0006017722771503031,4.726310729980469,-1.4157804250717163,0.03944193944334984,2.015946388244629,5.687147962837972,-0.02880413457751274,0.15702340006828308,-1.6247809568988245,6.0732068959623575e-05,0.0399477481842041,0.5905212759971619,0.00010578280489426106,0.030762765556573868,1.0286656618118286,-0.0013496739557012916,-0.38888639211654663
286.0,331.0,-5.4221,-0.2345,8.4897,-0.0396,0.0221,-0.122,-2.282920023004049,-0.0013087193947285414,4.722053527832031,-1.415440559387207,0.04525523632764816,2.0703914165496826,5.6869409559066675,-0.027061551809310913,0.16348505020141602,-1.6247652212726038,6.50604050633774e-08,0.037635236978530884,0.5905492305755615,9.912514360621572e-05,0.03348428010940552,1.0286697149276733,-0.002204067539423704,-0.44454115629196167
286.0,331.0,-5.4221,-0.2345,8.4897,-0.0396,0.0221,-0.122,-2.2829367123045863,-0.001444389228709042,4.772032260894775,-1.415176272392273,0.051306772977113724,2.022489309310913,5.68671743848876,-0.03672361746430397,0.15622076392173767,-1.6247652212726038,1.8109801852572716e-11,0.042909085750579834,0.5905090570449829,0.00010806231875903904,0.024402473121881485,1.0286332368850708,-0.003346237586811185,-0.4372020363807678
286.0,331.0,-5.4221,-0.2345,8.4897,-0.0396,0.0221,-0.122,-2.282891889611715,-0.0012756999349221587,4.708075046539307,-1.4148001670837402,0.05945581570267677,2.048003911972046,5.686458217888632,-0.054101839661598206,0.148176908493042,-1.6248090902911585,5.040929814819099e-15,0.03605267032980919,0.5904447436332703,0.00010351355012971908,0.026249535381793976,1.028641939163208,-0.004577332176268101,-0.42990097403526306
286.0,331.0,-5.4221,-0.2345,8.4897,-0.0396,0.0221,-0.122,-2.2829038105406703,-0.001051466097123921,4.698065757751465,-1.4143133163452148,0.07282836735248566,2.1225483417510986,5.685803937702932,-0.08967828005552292,0.13359948992729187,-1.6247528235064905,9.161641792075075e-20,0.0428011380136013,0.5905492305755615,9.78844182100147e-05,0.029009707272052765,1.0286461114883423,-0.003424856113269925,-0.44826173782348633
285.0,310.0,-5.9151,-0.1621,9.6036,-0.0383,0.0023,-0.1115,-2.282952447930807,-0.0009759878739714622,4.734165191650391,-1.41389799118042,0.08498714119195938,2.160240650177002,5.68521540144042,-0.10380327701568604,0.1272251307964325,-1.6248257795916956,2.550176522945656e-23,0.045894451439380646,0.5905331969261169,9.404862066730857e-05,0.04057486727833748,1.0285857915878296,-0.001789319678209722,-0.44112667441368103
285.0,310.0,-5.9151,-0.1621,9.6036,-0.0383,0.0023,-0.1115,-2.2830006084837855,-0.0016635737847536802,4.700611591339111,-1.4132968187332153,0.09507682174444199,2.123904228210449,5.684526192932882,-0.10318135470151901,0.12751564383506775,-1.6247933546649378,7.098510929592832e-27,0.042269058525562286,0.5905492305755615,9.05021297512576e-05,0.028697889298200607,1.0285940170288086,-0.0011150651844218373,-0.4841272830963135
285.0,310.0,-5.9151,-0.1621,9.6036,-0.0383,0.0023,-0.1115,-2.28302063564443,-0.005631534848362207,4.712146759033203,-1.4125012159347534,0.10449431091547012,2.1006784439086914,5.683798479824819,-0.09141361713409424,0.11477044969797134,-1.6247652212726038,0.00010866392403841019,0.04999756067991257,0.5905532836914062,8.616957347840071e-05,0.027261540293693542,1.0285816192626953,-0.0007650968618690968,-0.4768460988998413
285.0,310.0,-5.9151,-0.1621,9.6036,-0.0383,0.0023,-0.1115,-2.283015867272848,-0.0081306342035532,4.743886470794678,-1.4118894338607788,0.10574666410684586,2.1894421577453613,5.683244216233053,-0.08790010213851929,0.12755051255226135,-1.6247695128070276,0.0001230573543580249,0.040409959852695465,0.5905331969261169,8.318300388054922e-05,0.042011138051748276,1.0286022424697876,-0.0006408459739759564,-0.4704812169075012
285.0,310.0,-5.9151,-0.1621,9.6036,-0.0383,0.0023,-0.1115,-2.28312410930776,-0.008968510664999485,4.729775428771973,-1.4112019538879395,0.10991307348012924,2.1808083057403564,5.682664918690481,-0.10017212480306625,0.13423588871955872,-1.6247852484332483,0.00012593614519573748,0.05048304796218872,0.5905492305755615,8.039651584113017e-05,0.03238269314169884,1.0285779237747192,-0.0004391518887132406,-0.5060123801231384
285.0,310.0,-5.9151,-0.1621,9.6036,-0.0383,0.0023,-0.1115,-2.2831036053099574,-0.007174392696470022,4.724547863006592,-1.4105567932128906,0.11504720896482468,2.1456856727600098,5.682001817017355,-0.1261654496192932,0.11036208271980286,-1.62476092973818,0.00012754541239701211,0.04894009232521057,0.5905049443244934,3.389580740531528e-07,0.030665656551718712,1.0286424160003662,-0.0003380822017788887,-0.5049690008163452
285.0,310.0,-5.9151,-0.1621,9.6036,-0.0383,0.0023,-0.1115,-2.283196111718649,-0.0031870303209871054,4.706169128417969,-1.4095706939697266,0.12325319647789001,2.204418659210205,5.680852162628927,-0.14636331796646118,0.10383307188749313,-1.6247332731830042,0.00013427897647488862,0.05335158109664917,0.5905332565307617,6.160395544380082e-12,0.03504788503050804,1.0286017656326294,-0.0002599476429168135,-0.5184580683708191
285.0,310.0,-5.9151,-0.1621,9.6036,-0.0383,0.0023,-0.1115,-2.2831760845580042,-0.002058367244899273,4.737701892852783,-1.4088629484176636,0.13314951956272125,2.223393201828003,5.679984080582418,-0.14672499895095825,0.10754276812076569,-1.624737564717428,0.00012767460430040956,0.0372181311249733,0.590541422367096,1.714768756168035e-15,0.029274046421051025,1.0286263227462769,-0.0002658494340721518,-0.5372781157493591
285.0,310.0,-5.9151,-0.1621,9.6036,-0.0383,0.0023,-0.1115,-2.2832118473448695,-0.0035327838268131018,4.727168083190918,-1.4080009460449219,0.1420811116695404,2.1877591609954834,5.679015505104818,-0.17614595592021942,0.1034693568944931,-1.6247571150409144,0.00012122570478823036,0.07519111037254333,0.5905413627624512,4.773121647645363e-19,0.025388628244400024,1.0285816192626953,-0.00023164231970440596,-0.5649498105049133
285.0,310.0,-5.9151,-0.1621,9.6036,-0.0383,0.0023,-0.1115,-2.283311983148092,-0.00876372680068016,4.747875213623047,-1.4068173170089722,0.14791080355644226,2.2116668224334717,5.677342998772421,-0.2071683704853058,0.07477141916751862,-1.6247771422015589,0.00018508941866457462,0.04595544934272766,0.5905172228813171,8.674912470376403e-24,0.03927149251103401,1.0285898447036743,-0.0001977155770873651,-0.5807986259460449
285.0,310.0,-5.9151,-0.1621,9.6036,-0.0383,0.0023,-0.1115,-2.2833157978453578,-0.011193516664206982,4.768681526184082,-1.4058482646942139,0.14904549717903137,2.189371109008789,5.6761095998580835,-0.20944629609584808,0.06391340494155884,-1.6247695128070276,0.00016531243454664946,0.05681564658880234,0.5905815958976746,2.4146937938247896e-27,0.02804211713373661,1.0285940170288086,-0.00017814678722061217,-0.5416167974472046
285.0,310.0,-5.9151,-0.1621,9.6036,-0.0383,0.0023,-0.1115,-2.283367773095602,-0.010448274202644825,4.732789516448975,-1.4049118757247925,0.15213267505168915,2.2723751068115234,5.674790847092428,-0.2288259118795395,0.061528950929641724,-1.6247251669513147,0.0001635002117836848,0.062119096517562866,0.5905295610427856,6.7213887710243985e-31,0.02533861994743347,1.0286099910736084,-0.00018911859660875052,-0.578214704990387
285.0,310.0,-5.9151,-0.1621,9.6036,-0.0383,0.0023,-0.1115,-2.2834722004332484,-0.007025271188467741,4.728315353393555,-1.4036945104599,0.15919506549835205,2.264590263366699,5.6729063270385645,-0.2270096242427826,0.05674908310174942,-1.6247895399676722,0.00015779276145622134,0.05696723982691765,0.5905253887176514,1.2215792682028832e-35,0.03691349923610687,1.0285656452178955,-0.00016884534852579236,-0.5399478077888489
271.0,308.0,-4.6205,0.0245,8.2421,-0.0079,-0.1158,-0.1298,-2.2834636173644007,-0.005334105808287859,4.751160621643066,-1.402684211730957,0.16363801062107086,2.222511053085327,5.671524631768026,-0.25480979681015015,0.050010934472084045,-1.6247533003436487,0.00014507434389088303,0.06306091696023941,0.5905573964118958,3.4003109795181346e-39,0.016159355640411377,1.0285975933074951,-0.0001562801335239783,-0.5203143954277039
271.0,308.0,-4.6205,0.0245,8.2421,-0.0079,-0.1158,-0.1298,-2.283527990380758,-0.005100725684314966,4.729938507080078,-1.4017219543457031,0.1657104343175888,2.2373740673065186,5.669853555947103,-0.2616376578807831,0.046948276460170746,-1.6247895399676722,0.0001342532632406801,0.04157951474189758,0.5906098484992981,9.458764634192515e-43,0.03217258304357529,1.0286017656326294,-0.00014545540034305304,-0.6051722168922424
271.0,308.0,-4.6205,0.0245,8.2421,-0.0079,-0.1158,-0.1298,-2.2836200199522914,-0.006674142554402351,4.743197917938232,-1.4003328084945679,0.1677224189043045,2.259408473968506,5.667863178044119,-0.2766822576522827,0.04051605239510536,-1.624749008809225,0.00014236998686101288,0.06325449049472809,0.5905413627624512,0.0,0.024667661637067795,1.0286222696304321,-0.00013315804244484752,-0.5631056427955627
271.0,308.0,-4.6205,0.0245,8.2421,-0.0079,-0.1158,-0.1298,-2.28369202236318,-0.008053716272115707,4.760255336761475,-1.3993232250213623,0.16861073672771454,2.215237617492676,5.66616182306365,-0.27372464537620544,0.04266282916069031,-1.6247332731830042,0.00013341002340894192,0.05291884392499924,0.5904729962348938,0.0,0.021866774186491966,1.0285899639129639,-0.00012521808093879372,-0.6015001535415649
271.0,308.0,-4.6205,0.0245,8.2421,-0.0079,-0.1158,-0.1298,-2.2837358913817347,-0.009404157288372517,4.690322399139404,-1.3982993364334106,0.16804292798042297,2.226010322570801,5.664551245957174,-0.29389163851737976,0.030274882912635803,-1.6247575918780726,0.00012544072524178773,0.049689605832099915,0.5905693173408508,0.0,0.014369020238518715,1.0286180973052979,-0.0001181717379949987,-0.5866955518722534
271.0,308.0,-4.6205,0.0245,8.2421,-0.0079,-0.1158,-0.1298,-2.283760210076803,-0.009553362615406513,4.716892242431641,-1.3972834348678589,0.17228800058364868,2.243144989013672,5.662790465145864,-0.2869918942451477,0.04657872021198273,-1.6247571150409144,0.00011836995690828189,0.07449918985366821,0.5905413627624512,0.0,0.018431544303894043,1.0285735130310059,-0.00011187629570486024,-0.5634304285049438
271.0,308.0,-4.6205,0.0245,8.2421,-0.0079,-0.1158,-0.1298,-2.2838317356505335,-0.008864561095833778,4.68477201461792,-1.3959044218063354,0.16705553233623505,2.213193893432617,5.660454022675314,-0.30274444818496704,0.017684828490018845,-1.6247251669513147,0.00012582099589053541,0.05693350359797478,0.5905573964118958,0.0,0.018907444551587105,1.028658390045166,-0.00010445660154800862,-0.5570090413093567
271.0,308.0,-4.6205,0.0245,8.2421,-0.0079,-0.1158,-0.1298,-2.283863683740133,-0.008526994846761227,4.711343765258789,-1.394895076751709,0.1679290533065796,2.232013463973999,5.658709394722738,-0.30745255947113037,0.03372878581285477,-1.6247370878802698,0.00011955561058130115,0.06248703598976135,0.5905696749687195,0.0,0.01879030652344227,1.028650164604187,-9.950709500117227e-05,-0.5377171039581299
271.0,308.0,-4.6205,0.0245,8.2421,-0.0079,-0.1158,-0.1298,-2.283931871453756,-0.008230041712522507,4.713929176330566,-1.3938721418380737,0.1728552281856537,2.2312231063842773,5.656784760742941,-0.3256303369998932,0.01897810772061348,-1.6247370878802698,0.00011388236453058198,0.04701084643602371,0.5905857086181641,0.0,0.015546141192317009,1.028638243675232,-3.1739251426188275e-05,-0.5512757301330566
271.0,308.0,-4.6205,0.0245,8.2421,-0.0079,-0.1158,-0.1298,-2.284011503259176,-0.00844018254429102,4.743338108062744,-1.3925684690475464,0.1769336462020874,2.238884925842285,5.65412055233077,-0.3297068476676941,0.017635487020015717,-1.6247337500201624,0.00010244768054690212,0.06417294591665268,0.5905213356018066,0.0,0.013684263452887535,1.028650164604187,-2.961819882330019e-05,-0.5754084587097168
271.0,308.0,-4.6205,0.0245,8.2421,-0.0079,-0.1158,-0.1298,-2.2840758762755335,-0.010910602286458015,4.697113990783691,-1.3914450407028198,0.17852889001369476,2.300008535385132,5.65216492393569,-0.32139360904693604,0.02135647088289261,-1.6247580687152308,9.456068801227957e-05,0.06523669511079788,0.5905451774597168,0.0,0.018608152866363525,1.0286058187484741,-4.0689796151127666e-05,-0.5279594659805298
271.0,308.0,-4.6205,0.0245,8.2421,-0.0079,-0.1158,-0.1298,-2.284147878686422,-0.01254259329289198,4.758917808532715,-1.390415906906128,0.17349788546562195,2.229579448699951,5.650246727257528,-0.34138473868370056,0.0066018556244671345,-1.6247614065753382,0.00010614102939143777,0.06004997342824936,0.5905376672744751,0.0,-0.004624733701348305,1.0286743640899658,-4.043528679176234e-05,-0.5086750388145447
271.0,308.0,-4.6205,0.0245,8.2421,-0.0079,-0.1158,-0.1298,-2.2842680416502894,-0.01239466667175293,4.686675071716309,-1.3890409469604492,0.18035881221294403,2.251099109649658,5.6475440738494775,-0.3411140739917755,0.013812747783958912,-1.6247418562518519,9.892119123833254e-05,0.056704748421907425,0.5905660390853882,7.179153382885772e-10,0.008934867568314075,1.0285780429840088,-5.084643271402456e-05,-0.5674653053283691
271.0,308.0,-4.6205,0.0245,8.2421,-0.0079,-0.1158,-0.1298,-2.284311433831686,-0.012216629460453987,4.692312717437744,-1.3879567384719849,0.1862318217754364,2.2779955863952637,5.645442294865408,-0.33112195134162903,0.00489969365298748,-1.6247456709491175,0.00010939139610854909,0.07296476513147354,0.5904611349105835,1.998343710559597e-13,0.010383655317127705,1.0285701751708984,-9.659006173023954e-05,-0.6097348928451538
264.0,308.0,-4.6409,0.1699,8.6782,-0.0034,-0.1263,-0.1271,-2.284375330010885,-0.013054835610091686,4.714073657989502,-1.386879563331604,0.18978488445281982,2.2629032135009766,5.643429803639211,-0.3412930369377136,0.007189017720520496,-1.6247499624835413,0.00010397929872851819,0.07132284343242645,0.5905295610427856,5.56246271764103e-17,0.006211067549884319,1.0286263227462769,-0.00012481842713896185,-0.560821533203125
264.0,308.0,-4.6409,0.1699,8.6782,-0.0034,-0.1263,-0.1271,-2.2845317325987757,-0.01683012954890728,4.711513042449951,-1.3853031396865845,0.18384601175785065,2.252659320831299,5.640790807991781,-0.32856351137161255,0.023590637370944023,-1.6246851126300257,0.00011144298332510516,0.06071765720844269,0.5905336141586304,1.0109501149364592e-21,0.013075819239020348,1.0286341905593872,-0.00010534419561736286,-0.5587136149406433
264.0,308.0,-4.6409,0.1699,8.6782,-0.0034,-0.1263,-0.1271,-2.284647604028219,-0.018598537892103195,4.6824750900268555,-1.3842096328735352,0.18809157609939575,2.316710948944092,5.638822543412008,-0.32158544659614563,0.013537954539060593,-1.6247175375567835,0.00010652610217221081,0.059214845299720764,0.590453028678894,2.814016732495341e-25,0.006183438468724489,1.0285940170288086,-9.430524369236082e-05,-0.5979593992233276
264.0,308.0,-4.6409,0.1699,8.6782,-0.0034,-0.1263,-0.1271,-2.284755846063131,-0.018813209608197212,4.699498176574707,-1.38307523727417,0.19499622285366058,2.2392940521240234,5.636881100922384,-0.3301343321800232,0.010071976110339165,-1.6247294584857386,0.00010199883399764076,0.06044448912143707,0.5905174016952515,7.832918982308838e-29,0.004102191422134638,1.028565764427185,-0.00014187341730576009,-0.6112485527992249
264.0,308.0,-4.6409,0.1699,8.6782,-0.0034,-0.1263,-0.1271,-2.2848311863341273,-0.01842423528432846,4.687145709991455,-1.3819199800491333,0.20437803864479065,2.2836661338806152,5.634961771755972,-0.3068040907382965,0.01300666481256485,-1.6247013250934046,9.784068242879584e-05,0.05905023217201233,0.5905009508132935,2.1803220563949457e-32,0.005201699212193489,1.028537392616272,-0.00030234106816351414,-0.6012603640556335
264.0,308.0,-4.6409,0.1699,8.6782,-0.0034,-0.1263,-0.1271,-2.285027643243307,-0.021270016208291054,4.728675365447998,-1.3802098035812378,0.2009682059288025,2.3132779598236084,5.632625627308645,-0.28835707902908325,0.013847212307155132,-1.624749485646383,9.279661026084796e-05,0.06182696670293808,0.5904529690742493,3.9626276706584044e-37,0.0002317491453140974,1.0285899639129639,-0.0008421226521022618,-0.549666702747345
264.0,308.0,-4.6409,0.1699,8.6782,-0.0034,-0.1263,-0.1271,-2.285163541833395,-0.023570142686367035,4.702063083648682,-1.3790485858917236,0.2027345597743988,2.3307693004608154,5.631040859013357,-0.26668402552604675,0.03994377702474594,-1.6247251669513147,0.0001235426461789757,0.05877821892499924,0.5905254483222961,1.1030180732086365e-40,0.010947302915155888,1.0286141633987427,-0.0006975747528485954,-0.519987940788269
264.0,308.0,-4.6409,0.1699,8.6782,-0.0034,-0.1263,-0.1271,-2.285307069818014,-0.025550715625286102,4.675994873046875,-1.3778431415557861,0.2057993859052658,2.2634153366088867,5.629529762059011,-0.2589123845100403,0.053123392164707184,-1.624697510396139,0.00011421436647651717,0.05352401360869408,0.5904894471168518,3.0828566215145976e-44,0.010544141754508018,1.0286059379577637,-0.0007088520796969533,-0.573595404624939
264.0,308.0,-4.6409,0.1699,8.6782,-0.0034,-0.1263,-0.1271,-2.285551687280172,-0.02849825844168663,4.641173839569092,-1.3762098550796509,0.2102983444929123,2.3637404441833496,5.627633738308706,-0.22824430465698242,0.06853464990854263,-1.624725643788473,0.00010368703806307167,0.05872519314289093,0.5905254483222961,0.0,0.005162260495126247,1.02855384349823,-0.0009909933432936668,-0.5603055953979492
264.0,308.0,-4.6409,0.1699,8.6782,-0.0034,-0.1263,-0.1271,-2.2857758007445277,-0.032213665544986725,4.633405685424805,-1.3748407363891602,0.20779693126678467,2.3405284881591797,5.6262844679649255,-0.21192912757396698,0.0629272609949112,-1.6246731917010706,9.698293433757499e-05,0.04587176442146301,0.5905336141586304,0.0,0.0014911051839590073,1.0285580158233643,-0.0007565477280877531,-0.5737667083740234
264.0,308.0,-4.6409,0.1699,8.6782,-0.0034,-0.1263,-0.1271,-2.2859517536559046,-0.03486940264701843,4.613138198852539,-1.3735992908477783,0.20798450708389282,2.292825937271118,5.625064003258505,-0.17601662874221802,0.08138982951641083,-1.6247299353228968,9.109308302868158e-05,0.04981064796447754,0.5905094742774963,0.0,0.012231630273163319,1.0285784006118774,-0.0006141510093584657,-0.5950627326965332
264.0,308.0,-4.6409,0.1699,8.6782,-0.0034,-0.1263,-0.1271,-2.2862559757628382,-0.037803519517183304,4.631683826446533,-1.3719416856765747,0.21125926077365875,2.276028871536255,5.623883771687307,-0.15129201114177704,0.09914687275886536,-1.6247294584857386,8.426944259554148e-05,0.06618785858154297,0.5905213356018066,0.0,0.01751607283949852,1.0285944938659668,-0.0005543443257920444,-0.5298875570297241
264.0,308.0,-4.6409,0.1699,8.6782,-0.0034,-0.1263,-0.1271,-2.2864800892271937,-0.043668996542692184,4.605200290679932,-1.3706095218658447,0.21423330903053284,2.3122968673706055,5.623017418175497,-0.13667531311511993,0.09427495300769806,-1.6247175375567835,7.978689973242581e-05,0.05341731384396553,0.5905455350875854,0.0,-0.00047683739103376865,1.028562068939209,-0.0005019178497605026,-0.5767273306846619
264.0,308.0,-4.6409,0.1699,8.6782,-0.0034,-0.1263,-0.1271,-2.2867633304991664,-0.0485103614628315,4.635749340057373,-1.3693420886993408,0.21619513630867004,2.315701484680176,5.622262644558706,-0.10097020119428635,0.1255783885717392,-1.6247056166278284,7.575729978270829e-05,0.062334686517715454,0.590436577796936,0.0,0.011741098947823048,1.0285134315490723,-0.00041516803321428597,-0.5495649576187134
266.0,301.0,-3.3553,0.1621,7.7611,-0.0454,0.1176,-0.1258,-2.287243982354635,-0.0569428913295269,4.610953330993652,-1.367588758468628,0.2187405526638031,2.329862117767334,5.621775615006246,-0.04597727209329605,0.138620987534523,-1.624697510396139,7.097753405105323e-05,0.04867393895983696,0.590473473072052,0.0,0.006227418780326843,1.0285861492156982,-0.0003373497456777841,-0.5746299028396606
266.0,301.0,-3.3553,0.1621,7.7611,-0.0454,0.1176,-0.1258,-2.2875753841795863,-0.06418183445930481,4.6031951904296875,-1.3662784099578857,0.22226466238498688,2.331522226333618,5.621627616673269,-0.010981286875903606,0.15749073028564453,-1.6247337500201624,6.777069938834757e-05,0.08175677061080933,0.5905013084411621,0.0,0.005602663848549128,1.0285861492156982,-0.00029577233362942934,-0.5506479740142822
266.0,301.0,-3.3553,0.1621,7.7611,-0.0454,0.1176,-0.1258,-2.28798307994985,-0.07071042060852051,4.65671443939209,-1.3649115562438965,0.22284722328186035,2.303325653076172,5.621731626778402,0.013535345904529095,0.18132388591766357,-1.6247418562518519,6.484113691840321e-05,0.06789971143007278,0.5904853343963623,0.0,0.0033330994192510843,1.0285378694534302,-0.00026331970002502203,-0.5539719462394714
266.0,301.0,-3.3553,0.1621,7.7611,-0.0454,0.1176,-0.1258,-2.288459440270895,-0.07520005851984024,4.629866123199463,-1.3636054992675781,0.22490379214286804,2.3201706409454346,5.621723460942068,0.02143770083785057,0.18590912222862244,-1.6247175375567835,6.215436587808654e-05,0.060013674199581146,0.590489387512207,0.0,0.010589337907731533,1.0285537242889404,-0.00023728511587250978,-0.6043488383293152
266.0,301.0,-3.3553,0.1621,7.7611,-0.0454,0.1176,-0.1258,-2.2890993557372035,-0.07871903479099274,4.581381320953369,-1.361763596534729,0.23425482213497162,2.3508455753326416,5.621839630394735,0.018642917275428772,0.17846007645130157,-1.624753777180807,5.8900237490888685e-05,0.06583372503519058,0.5905295014381409,0.0,-0.002192953135818243,1.0285497903823853,-0.0002096475218422711,-0.5649417638778687
