ramyac6/ROB537/final_project/csv/good/good_91.csv
tof_0,tof_1,accelx,accely,accelz,gyrox,gyroy,gyroz,shoulder_lift_joint_position,shoulder_lift_joint_velocity,shoulder_lift_joint_effort,elbow_joint_position,elbow_joint_velocity,elbow_joint_effort,wrist_1_joint_position,wrist_1_joint_velocity,wrist_1_joint_effort,wrist_2_joint_position,wrist_2_joint_velocity,wrist_2_joint_effort,wrist_3_joint_position,wrist_3_joint_velocity,wrist_3_joint_effort,shoulder_pan_joint_position,shoulder_pan_joint_velocity,shoulder_pan_joint_effort
195.0,178.0,-0.5396,-0.0879,9.591,-0.0339,0.0286,-0.1194,-2.084677358666891,0.0,4.2158966064453125,-1.4175078868865967,-0.0,2.04207181930542,5.045341270952978,0.0,0.2582872211933136,-1.5071209112750452,-0.0,-0.01839674822986126,-0.300485912953512,-0.0,-0.0006573568098247051,1.1996793746948242,0.0,0.024714328348636627
195.0,178.0,-0.5396,-0.0879,9.591,-0.0339,0.0286,-0.1194,-2.0846454105772914,0.0,4.167822360992432,-1.4175364971160889,-0.0,2.075456380844116,5.045369523554601,0.0,0.2701525092124939,-1.5070727507220667,-0.0,-0.012581180781126022,-0.30047399202455694,-0.0,-0.006106529384851456,1.1996270418167114,0.0,-0.03393242508172989
195.0,178.0,-0.5396,-0.0879,9.591,-0.0339,0.0286,-0.1194,-2.084661146203512,0.0,4.187006950378418,-1.4175159931182861,-0.0,2.0410444736480713,5.045329350024023,0.0,0.25714123249053955,-1.507108513508932,-0.0,-0.020889123901724815,-0.3005107084857386,-0.0,-0.006988265085965395,1.1996597051620483,0.0,0.03539438918232918
195.0,178.0,-0.5396,-0.0879,9.591,-0.0339,0.0286,-0.1194,-2.0846172771849574,0.0,4.1522393226623535,-1.4176008701324463,-0.0,2.0565528869628906,5.045313346176901,0.0,0.26082736253738403,-1.5071128050433558,-0.0,-0.007278908509761095,-0.30049020448793584,-0.0,-0.0007382672047242522,1.1996433734893799,0.0,-0.03987245261669159
195.0,178.0,-0.5396,-0.0879,9.591,-0.0339,0.0286,-0.1194,-2.084689279595846,0.0,4.1952738761901855,-1.4175726175308228,-0.0,2.0587165355682373,5.045325207501211,0.0,0.265198290348053,-1.5071609655963343,-0.0,-0.013426678255200386,-0.30053884187807256,-0.0,0.013256019912660122,1.1996753215789795,0.0,-0.022550232708454132
195.0,178.0,-0.5396,-0.0879,9.591,-0.0339,0.0286,-0.1194,-2.084649225274557,0.0,4.174030303955078,-1.4175519943237305,-0.0,2.090066909790039,5.045297431736746,0.0,0.26711609959602356,-1.507132355366842,-0.0,-0.0209244042634964,-0.30055457750429326,-0.0,0.002697358373552561,1.199683666229248,0.0,-0.002459204290062189
195.0,178.0,-0.5396,-0.0879,9.591,-0.0339,0.0286,-0.1194,-2.0846334896483363,0.0,4.133021354675293,-1.4175039529800415,-0.0,2.0304160118103027,5.045321184187689,0.0,0.25922319293022156,-1.5071247259723108,-0.0,-0.010627604089677334,-0.3005588690387171,-0.0,0.008523315191268921,1.1996712684631348,0.0,0.0009532538242638111
192.0,180.0,-0.6215,-0.0999,9.6341,-0.0327,0.0209,-0.1098,-2.0846573315062464,0.0,4.1691203117370605,-1.4175242185592651,-0.0,2.0945754051208496,5.045337158232488,0.0,0.2393610179424286,-1.5071128050433558,-0.0,-0.021902982145547867,-0.30049449602235967,-0.0,0.002880442189052701,1.1996712684631348,0.0,-0.001600991003215313
192.0,180.0,-0.6215,-0.0999,9.6341,-0.0327,0.0209,-0.1098,-2.084677358666891,0.0,4.165735244750977,-1.4175200462341309,-0.0,2.048797130584717,5.045341658383169,0.0,0.2545454502105713,-1.5071528593646448,-0.0,-0.01278106402605772,-0.3005626837359827,-0.0,0.0037214038893580437,1.19966721534729,0.0,-0.03771769255399704
192.0,180.0,-0.6215,-0.0999,9.6341,-0.0327,0.0209,-0.1098,-2.0846296749510707,0.0,4.135824680328369,-1.4174879789352417,-0.0,2.031778335571289,5.0453534601028345,0.0,0.2658658027648926,-1.5071285406695765,-0.0,-0.007418907713145018,-0.30052215257753545,-0.0,0.008540431968867779,1.1996556520462036,0.0,-0.03118416853249073
192.0,180.0,-0.6215,-0.0999,9.6341,-0.0327,0.0209,-0.1098,-2.084684988061422,0.0,4.170874118804932,-1.4175002574920654,-0.0,2.0494024753570557,5.045329350024023,0.0,0.2651055157184601,-1.5071166197406214,-0.0,-0.017745627090334892,-0.3005264441119593,-0.0,0.010508973151445389,1.1996794939041138,0.0,0.03589979559183121
192.0,180.0,-0.6215,-0.0999,9.6341,-0.0327,0.0209,-0.1098,-2.084665437737936,0.0,4.1683878898620605,-1.4175561666488647,-0.0,2.0786850452423096,5.045289295702734,0.0,0.26447808742523193,-1.5071285406695765,-0.0,-0.011293861083686352,-0.30053884187807256,-0.0,0.005519099999219179,1.1996433734893799,0.0,0.023126380518078804
192.0,180.0,-0.6215,-0.0999,9.6341,-0.0327,0.0209,-0.1098,-2.084649225274557,0.0,4.154820442199707,-1.4175642728805542,-0.0,2.093569278717041,5.045357751637258,0.0,0.2628233730792999,-1.507165257130758,-0.0,-0.013766380026936531,-0.3005631605731409,-0.0,0.0016771511873230338,1.1996474266052246,0.0,0.011611765250563622
192.0,180.0,-0.6215,-0.0999,9.6341,-0.0327,0.0209,-0.1098,-2.084665437737936,0.0,4.202171802520752,-1.41751229763031,-0.0,2.094825506210327,5.045321154385366,0.0,0.27095523476600647,-1.507108513508932,-0.0,0.002186785452067852,-0.30055076280702764,-0.0,0.002250228077173233,1.1996872425079346,0.0,0.04253963753581047
192.0,180.0,-0.6215,-0.0999,9.6341,-0.0327,0.0209,-0.1098,-2.084653516808981,0.0,4.166139602661133,-1.4175159931182861,-0.0,2.064028024673462,5.045341270952978,0.0,0.25887325406074524,-1.5070965925799769,-0.0,-0.007688156329095364,-0.30050641695131475,-0.0,0.007552220020443201,1.1996031999588013,0.0,-0.024302888661623
192.0,180.0,-0.6215,-0.0999,9.6341,-0.0327,0.0209,-0.1098,-2.0846573315062464,0.0,4.164796352386475,-1.4175282716751099,-0.0,2.032714605331421,5.045349347382345,0.0,0.2576900124549866,-1.5070884863482874,-0.0,-0.027697762474417686,-0.300514046345846,-0.0,-0.005868661217391491,1.1996556520462036,0.0,-0.02266034483909607
192.0,180.0,-0.6215,-0.0999,9.6341,-0.0327,0.0209,-0.1098,-2.0846296749510707,0.0,4.20003080368042,-1.4175406694412231,-0.0,2.061079978942871,5.04532482007102,0.0,0.26712724566459656,-1.5071290175067347,-0.0,-0.013207441195845604,-0.3005588690387171,-0.0,0.008224137127399445,1.1996877193450928,0.0,0.005839316174387932
192.0,180.0,-0.6215,-0.0999,9.6341,-0.0327,0.0209,-0.1098,-2.0846296749510707,0.0,4.187008380889893,-1.417483925819397,-0.0,2.0748867988586426,5.04528101065711,0.0,0.25134870409965515,-1.5071242491351526,-0.0,-0.01572422683238983,-0.30045825639833623,-0.0,-0.008815026842057705,1.199683666229248,0.0,0.03188997507095337
192.0,180.0,-0.6215,-0.0999,9.6341,-0.0327,0.0209,-0.1098,-2.084661146203512,0.0,4.12709903717041,-1.4175242185592651,-0.0,2.028517007827759,5.045325267105856,0.0,0.25915583968162537,-1.5071609655963343,-0.0,-0.0014837384223937988,-0.30055457750429326,-0.0,0.0030185135547071695,1.1996392011642456,0.0,-0.0327242948114872
192.0,180.0,-0.6215,-0.0999,9.6341,-0.0327,0.0209,-0.1098,-2.084621091882223,0.0,4.15108060836792,-1.4175364971160889,-0.0,2.093024969100952,5.045249032765188,0.0,0.2623879909515381,-1.507148567830221,-0.0,-0.014008795842528343,-0.30050641695131475,-0.0,0.0024431184865534306,1.1996675729751587,0.0,0.045047592371702194
200.0,178.0,-0.6329,-0.1119,9.6748,-0.0394,0.0243,-0.1174,-2.084665437737936,0.0,4.199507713317871,-1.417568564414978,-0.0,2.056640625,5.045281040459432,0.0,0.2582589089870453,-1.507108513508932,-0.0,-0.03294869884848595,-0.30053455034364873,-0.0,-0.0009578073513694108,1.1996474266052246,0.0,0.010821695439517498
200.0,178.0,-0.6329,-0.1119,9.6748,-0.0394,0.0243,-0.1174,-2.084649225274557,0.0,4.189576148986816,-1.4175803661346436,-0.0,2.025404214859009,5.045361655741491,0.0,0.2615460455417633,-1.5071447531329554,-0.0,-0.01995321922004223,-0.30051881471742803,-0.0,0.003137265332043171,1.1996433734893799,0.0,0.021391142159700394
200.0,178.0,-0.6329,-0.1119,9.6748,-0.0394,0.0243,-0.1174,-2.0846573315062464,0.0,4.143552780151367,-1.4175642728805542,-0.0,2.0064897537231445,5.045381802111425,0.0,0.26029208302497864,-1.5071123282061976,-0.0,-0.020581476390361786,-0.30047399202455694,-0.0,0.0029269480146467686,1.1996794939041138,0.0,0.01655390113592148
200.0,178.0,-0.6329,-0.1119,9.6748,-0.0394,0.0243,-0.1174,-2.084649225274557,0.0,4.173006057739258,-1.4175479412078857,-0.0,2.080091714859009,5.045313346176901,0.0,0.2579652965068817,-1.5071409384356897,-0.0,-0.012854477390646935,-0.3005107084857386,-0.0,-0.0033488443586975336,1.1996593475341797,0.0,-0.016565930098295212
200.0,178.0,-0.6329,-0.1119,9.6748,-0.0394,0.0243,-0.1174,-2.084649225274557,0.0,4.191593170166016,-1.4175121784210205,-0.0,2.025909662246704,5.045313346176901,0.0,0.2668522000312805,-1.507108513508932,-0.0,-0.015519462525844574,-0.30049401918520147,-0.0,-0.002553231781348586,1.1996872425079346,0.0,-0.015013248659670353
200.0,178.0,-0.6329,-0.1119,9.6748,-0.0394,0.0243,-0.1174,-2.0846454105772914,0.0,4.172909259796143,-1.4175364971160889,-0.0,2.0610594749450684,5.0452729044254205,0.0,0.261273056268692,-1.507132355366842,-0.0,-0.012591933831572533,-0.30053455034364873,-0.0,0.004868785850703716,1.1995749473571777,0.0,-0.024539301171898842
200.0,178.0,-0.6329,-0.1119,9.6748,-0.0394,0.0243,-0.1174,-2.0846172771849574,0.0,4.1346845626831055,-1.4175081253051758,-0.0,2.064100742340088,5.045325267105856,0.0,0.2592841684818268,-1.5071166197406214,-0.0,-0.017539694905281067,-0.30055076280702764,-0.0,-0.011076350696384907,1.199671745300293,0.0,-0.00993543304502964
200.0,178.0,-0.6329,-0.1119,9.6748,-0.0394,0.0243,-0.1174,-2.084653516808981,0.0,4.150678634643555,-1.4175364971160889,-0.0,2.028550624847412,5.045313346176901,0.0,0.264408677816391,-1.5070965925799769,-0.0,-0.010120408609509468,-0.30050975481142217,-0.0,-0.0011079255491495132,1.199663519859314,0.0,-0.0005735255545005202
200.0,178.0,-0.6329,-0.1119,9.6748,-0.0394,0.0243,-0.1174,-2.0846415958800257,0.0,4.185336112976074,-1.417568564414978,-0.0,2.0892343521118164,5.045317041664877,0.0,0.24926814436912537,-1.5071209112750452,-0.0,-0.014255134388804436,-0.30056649843324834,-2.211523337791732e-07,0.012707842513918877,1.1996270418167114,0.0,-0.012829662300646305
200.0,178.0,-0.6329,-0.1119,9.6748,-0.0394,0.0243,-0.1174,-2.0846454105772914,0.0,4.118838787078857,-1.4174925088882446,-0.0,2.0742390155792236,5.045325267105856,0.0,0.2540023922920227,-1.507136646901266,-0.0,-0.023545432835817337,-0.30049401918520147,-6.155855686307277e-11,-0.005084635689854622,1.1996634006500244,0.0,-0.0330020934343338
200.0,178.0,-0.6329,-0.1119,9.6748,-0.0394,0.0243,-0.1174,-2.0846573315062464,0.0,4.177353858947754,-1.4175643920898438,-0.0,2.026350975036621,5.045313346176901,0.0,0.2626062035560608,-1.507136646901266,-0.0,-0.010362756438553333,-0.3005178610431116,-1.713504961834908e-14,-0.00011163961607962847,1.199671745300293,0.0,0.008153412491083145
200.0,178.0,-0.6329,-0.1119,9.6748,-0.0394,0.0243,-0.1174,-2.084661146203512,0.0,4.1890740394592285,-1.4175447225570679,-0.0,2.0525028705596924,5.0452973423297784,0.0,0.2608199417591095,-1.507165257130758,-0.0,-0.018224816769361496,-0.3005588690387171,-3.1142104121823834e-19,-0.002095892559736967,1.1996270418167114,0.0,0.045300260186195374
200.0,178.0,-0.6329,-0.1119,9.6748,-0.0394,0.0243,-0.1174,-2.0846454105772914,0.0,4.137365818023682,-1.4175121784210205,-0.0,2.0666263103485107,5.045313346176901,0.0,0.25684618949890137,-1.507136646901266,-0.0,-0.007902825251221657,-0.30056649843324834,-8.66851922605613e-23,-0.0038093687035143375,1.1996474266052246,0.0,-0.045016687363386154
207.0,176.0,-0.4762,-0.0634,9.3613,-0.037,0.0257,-0.1219,-2.084661146203512,0.0,4.151276588439941,-1.4175324440002441,-0.0,2.111114978790283,5.045281040459432,0.0,0.24033766984939575,-1.5071166197406214,-0.0,-0.007879558950662613,-0.3004701773272913,-1.575460768687313e-27,0.0017123175784945488,1.199655294418335,0.0,0.013012551702558994
207.0,176.0,-0.4762,-0.0634,9.3613,-0.037,0.0257,-0.1219,-2.084649225274557,0.0,4.179525375366211,-1.4175519943237305,-0.0,2.025052785873413,5.045317429095068,0.0,0.24504774808883667,-1.5071285406695765,-0.0,-0.008469950407743454,-0.30055457750429326,-4.385353297917764e-31,0.01471216045320034,1.1996270418167114,0.0,0.009596280753612518
207.0,176.0,-0.4762,-0.0634,9.3613,-0.037,0.0257,-0.1219,-2.0846573315062464,0.0,4.178469657897949,-1.4175283908843994,-0.0,2.072263240814209,5.04537000039176,0.0,0.2614346146583557,-1.5070841948138636,-0.0,-0.01582825928926468,-0.3005026022540491,-7.970163795769084e-36,0.00845991913229227,1.1996474266052246,0.0,-0.0022887724917382
207.0,176.0,-0.4762,-0.0634,9.3613,-0.037,0.0257,-0.1219,-2.084665437737936,0.0,4.146359920501709,-1.4175081253051758,-0.0,2.015414237976074,5.045345324068823,0.0,0.26484033465385437,-1.5070965925799769,-0.0,-0.012473950162529945,-0.30055457750429326,-2.2185245183313358e-39,-0.006944162305444479,1.1996914148330688,0.0,0.06581765413284302
207.0,176.0,-0.4762,-0.0634,9.3613,-0.037,0.0257,-0.1219,-2.0846573315062464,0.0,4.174747943878174,-1.4174879789352417,-0.0,2.0928821563720703,5.0453494665916345,0.0,0.2518366575241089,-1.507136646901266,-0.0,-0.017015516757965088,-0.30049401918520147,-6.179726227672443e-43,-0.004348827060312033,1.1996515989303589,0.0,-0.006523769348859787
207.0,176.0,-0.4762,-0.0634,9.3613,-0.037,0.0257,-0.1219,-2.084649225274557,0.0,4.161168575286865,-1.4175447225570679,-0.0,2.0647048950195312,5.045289265900411,0.0,0.2541446387767792,-1.5071209112750452,-0.0,-0.021117394790053368,-0.3005426565753382,-0.0,-0.0022188720759004354,1.1996675729751587,0.0,-0.048723816871643066
207.0,176.0,-0.4762,-0.0634,9.3613,-0.037,0.0257,-0.1219,-2.0846454105772914,0.0,4.158542633056641,-1.4175406694412231,-0.0,2.0364837646484375,5.045329350024023,0.0,0.2537347972393036,-1.5070846716510218,-0.0,-0.017067158594727516,-0.3005264441119593,-0.0,-0.0053359223529696465,1.1996556520462036,0.0,0.017346732318401337
207.0,176.0,-0.4762,-0.0634,9.3613,-0.037,0.0257,-0.1219,-2.084609170953268,0.0,4.161528587341309,-1.4174998998641968,-0.0,2.0227317810058594,5.045345353871145,0.0,0.26115167140960693,-1.507120434437887,-0.0,-0.013436786830425262,-0.30054217973818,-0.0,-0.005289834924042225,1.1996675729751587,0.0,-0.0313720777630806
207.0,176.0,-0.4762,-0.0634,9.3613,-0.037,0.0257,-0.1219,-2.084625383416647,0.0,4.142860412597656,-1.4175726175308228,-0.0,2.0654826164245605,5.045317429095068,0.0,0.2661716639995575,-1.507160488759176,-0.0,-0.021949486806988716,-0.30055076280702764,-0.0,-0.010046606883406639,1.1996593475341797,0.0,0.004375476390123367
207.0,176.0,-0.4762,-0.0634,9.3613,-0.037,0.0257,-0.1219,-2.0846296749510707,0.0,4.156473636627197,-1.4175121784210205,-0.0,2.011848211288452,5.045329350024023,0.0,0.259411096572876,-1.5071447531329554,-0.0,-0.011806027963757515,-0.3005026022540491,-0.0,0.003811146365478635,1.199655294418335,0.0,-0.018088242039084435
207.0,176.0,-0.4762,-0.0634,9.3613,-0.037,0.0257,-0.1219,-2.084625383416647,0.0,4.18113374710083,-1.4175890684127808,-0.0,2.087909460067749,5.045341270952978,0.0,0.27484285831451416,-1.5070965925799769,-0.0,-0.022903356701135635,-0.30058223405946904,-0.0,-0.0014261810574680567,1.1996511220932007,0.0,-0.007167051080614328
207.0,176.0,-0.4762,-0.0634,9.3613,-0.037,0.0257,-0.1219,-2.084673067132467,0.0,4.204900741577148,-1.4174962043762207,-0.0,2.031327247619629,5.045289206295767,0.0,0.2803831398487091,-1.5071166197406214,-0.0,-0.012545074336230755,-0.30052215257753545,-0.0,0.005887699779123068,1.1996515989303589,0.0,0.013862245716154575
207.0,176.0,-0.4762,-0.0634,9.3613,-0.037,0.0257,-0.1219,-2.0846692524352015,0.0,4.176938056945801,-1.4175200462341309,-0.0,2.0589542388916016,5.045325267105856,0.0,0.25270941853523254,-1.5070889631854456,-0.0,-0.011794990859925747,-0.30053884187807256,-0.0,-0.015061214566230774,1.1997077465057373,0.0,-0.048872075974941254
209.0,186.0,-0.4714,-0.0395,9.4762,-0.0324,0.0205,-0.1115,-2.0846454105772914,0.0,4.158909320831299,-1.4175039529800415,-0.0,2.0435805320739746,5.045337188034811,0.0,0.25949007272720337,-1.507148567830221,-0.0,-0.015967957675457,-0.30053455034364873,-0.0,-0.007120117079466581,1.1996557712554932,0.0,-0.026048041880130768
209.0,186.0,-0.4714,-0.0395,9.4762,-0.0324,0.0205,-0.1115,-2.084673067132467,0.0,4.1865997314453125,-1.4175479412078857,-0.0,2.0671920776367188,5.045345353871145,0.0,0.2527667284011841,-1.5071123282061976,-0.0,-0.009713644161820412,-0.30051881471742803,-0.0,-0.0020041191019117832,1.1996675729751587,0.0,0.00822831317782402
209.0,186.0,-0.4714,-0.0395,9.4762,-0.0324,0.0205,-0.1115,-2.0846573315062464,0.0,4.129538536071777,-1.4175283908843994,-0.0,2.0461764335632324,5.0453293202217,0.0,0.2550104558467865,-1.5071242491351526,-0.0,-0.018370984122157097,-0.3005426565753382,-0.0,0.0016392082907259464,1.1996597051620483,0.0,0.003091949736699462
209.0,186.0,-0.4714,-0.0395,9.4762,-0.0324,0.0205,-0.1115,-2.0846296749510707,0.0,4.177038669586182,-1.4175159931182861,-0.0,2.0622780323028564,5.0453092632587335,0.0,0.2598029673099518,-1.5071004072772425,-0.0,-0.015098804607987404,-0.3005588690387171,-0.0,-0.004137897863984108,1.1996753215789795,0.0,-0.04331272840499878
209.0,186.0,-0.4714,-0.0395,9.4762,-0.0324,0.0205,-0.1115,-2.0846177540221156,0.0,4.178896427154541,-1.4175479412078857,-0.0,2.013618230819702,5.045329350024023,0.0,0.25699615478515625,-1.507092301045553,-0.0,-0.01536644622683525,-0.300546948109762,-0.0,-0.00020834291353821754,1.1996793746948242,0.0,-0.006661003455519676
209.0,186.0,-0.4714,-0.0395,9.4762,-0.0324,0.0205,-0.1115,-2.0846692524352015,0.0,4.154926300048828,-1.417492151260376,-0.0,2.042300224304199,5.045325267105856,6.715035993920537e-08,0.2574329972267151,-1.5070965925799769,-0.0,-0.013814972713589668,-0.30055076280702764,-0.0,-0.0017342909704893827,1.199655294418335,0.0,0.020147990435361862
209.0,186.0,-0.4714,-0.0395,9.4762,-0.0324,0.0205,-0.1115,-2.084649225274557,0.0,4.184126377105713,-1.4175363779067993,-0.0,2.0453455448150635,5.0453616855438135,1.2204245860431007e-12,0.2656707465648651,-1.507136646901266,-0.0,-0.023038990795612335,-0.3004983107196253,-0.0,0.010758496820926666,1.1996954679489136,0.0,-0.01783573627471924
209.0,186.0,-0.4714,-0.0395,9.4762,-0.0324,0.0205,-0.1115,-2.084665437737936,0.0,4.197371482849121,-1.4175364971160889,-0.0,2.053568124771118,5.0453092632587335,3.397096573972704e-16,0.2732718884944916,-1.5071609655963343,-0.0,-0.01579374633729458,-0.3005588690387171,-0.0,-0.0018066479824483395,1.1996675729751587,0.0,0.02430359087884426
209.0,186.0,-0.4714,-0.0395,9.4762,-0.0324,0.0205,-0.1115,-2.084649225274557,0.0,4.178390026092529,-1.4175324440002441,-0.0,2.0991973876953125,5.04533343294219,6.1740563011534084e-21,0.27405846118927,-1.507092301045553,-0.0,-0.004137985873967409,-0.30053884187807256,-0.0,-0.008272446691989899,1.1996110677719116,0.0,0.01936998777091503
209.0,186.0,-0.4714,-0.0395,9.4762,-0.0324,0.0205,-0.1115,-2.0846415958800257,0.0,4.174188137054443,-1.4175529479980469,-0.0,2.050029754638672,5.04533343294219,1.7185711501321985e-24,0.2642758786678314,-1.507132355366842,-0.0,-0.013984540477395058,-0.30056649843324834,-0.0,-0.0037357849068939686,1.1996393203735352,0.0,0.03207932785153389
209.0,186.0,-0.4714,-0.0395,9.4762,-0.0324,0.0205,-0.1115,-2.0846573315062464,0.0,4.185195446014404,-1.4175119400024414,-0.0,2.0102579593658447,5.045341270952978,3.1234184151744256e-29,0.25849834084510803,-1.5071285406695765,-0.0,-0.0008362773805856705,-0.3005264441119593,-0.0,0.006748868152499199,1.1996512413024902,0.0,-0.02774597890675068
209.0,186.0,-0.4714,-0.0395,9.4762,-0.0324,0.0205,-0.1115,-2.084673067132467,0.0,4.163391590118408,-1.4174679517745972,-0.0,2.0217721462249756,5.045377719193258,8.694150909933493e-33,0.2608592212200165,-1.5070965925799769,-0.0,-0.011850260198116302,-0.3005464712726038,-0.0,-0.0027833213098347187,1.1996793746948242,0.0,0.02568048983812332
209.0,186.0,-0.4714,-0.0395,9.4762,-0.0324,0.0205,-0.1115,-2.084665437737936,0.0,4.182497024536133,-1.4174998998641968,-0.0,2.065408706665039,5.04530559757308,2.420048456656774e-36,0.2635747790336609,-1.5071523825274866,-0.0,-0.0109748849645257,-0.3004658857928675,-0.0,-0.004640703555196524,1.1996474266052246,0.0,0.026144955307245255
205.0,189.0,-0.6461,-0.1178,9.8812,-0.0339,0.0137,-0.1115,-2.0846334896483363,0.0,4.183676719665527,-1.4175159931182861,-0.0,2.079059600830078,5.045293259411611,4.3982554899763033e-41,0.26290762424468994,-1.5071008841144007,-0.0,-0.016515936702489853,-0.3004701773272913,-0.0,0.0015969929518178105,1.1996110677719116,0.0,-0.03639139235019684
205.0,189.0,-0.6461,-0.1178,9.8812,-0.0339,0.0137,-0.1115,-2.084637304345602,0.0,4.158475399017334,-1.4174998998641968,-0.0,2.026134490966797,5.045276957541265,1.2611686178923354e-44,0.2635886073112488,-1.507120434437887,-0.0,-0.01070928480476141,-0.30047399202455694,-0.0,-0.0030276256147772074,1.1996393203735352,0.0,-0.006884539965540171
205.0,189.0,-0.6461,-0.1178,9.8812,-0.0339,0.0137,-0.1115,-2.0846053562560023,0.0,4.182843208312988,-1.417495846748352,-0.0,2.064162254333496,5.04533343294219,0.0,0.257277250289917,-1.507148567830221,-0.0,-0.01788436435163021,-0.30052215257753545,-0.0,0.002560291439294815,1.1996753215789795,0.0,0.010203149169683456
205.0,189.0,-0.6461,-0.1178,9.8812,-0.0339,0.0137,-0.1115,-2.084649225274557,0.0,4.164847373962402,-1.4175119400024414,-0.0,2.0011181831359863,5.0453092632587335,0.0,0.25752413272857666,-1.507176701222555,-0.0,-0.0199931338429451,-0.30049401918520147,-0.0,0.003240985097363591,1.1996630430221558,0.0,-0.016393346711993217
205.0,189.0,-0.6461,-0.1178,9.8812,-0.0339,0.0137,-0.1115,-2.084625383416647,0.0,4.134607315063477,-1.4174998998641968,-0.0,2.0524542331695557,5.045381802111425,0.0,0.2624460756778717,-1.5070489088641565,-0.0,-0.022505220025777817,-0.30055505434145147,-0.0,0.000258629210293293,1.1996310949325562,0.0,-0.045508917421102524
205.0,189.0,-0.6461,-0.1178,9.8812,-0.0339,0.0137,-0.1115,-2.084728857079977,0.0,4.139669895172119,-1.4175406694412231,-0.0,2.056414842605591,5.045325267105856,0.0,0.25591111183166504,-1.5070808569537562,-0.0,-0.00040792999789118767,-0.3005026022540491,-0.0,-0.002762066200375557,1.1996793746948242,0.0,0.0061334408819675446
205.0,189.0,-0.6461,-0.1178,9.8812,-0.0339,0.0137,-0.1115,-2.0846573315062464,0.0,4.153981685638428,-1.4175200462341309,-0.0,2.071749448776245,5.045341270952978,0.0,0.2649325132369995,-1.5071046988116663,-0.0,-0.02249758690595627,-0.3005588690387171,-0.0,0.004611115902662277,1.1996515989303589,0.0,0.013032075017690659
205.0,189.0,-0.6461,-0.1178,9.8812,-0.0339,0.0137,-0.1115,-2.084625383416647,0.0,4.1915717124938965,-1.417504072189331,-0.0,2.068399667739868,5.045337188034811,0.0,0.26785606145858765,-1.5070965925799769,-0.0,-0.02103421278297901,-0.3005150000201624,-0.0,-0.001510248170234263,1.1996392011642456,0.0,0.006352011114358902
205.0,189.0,-0.6461,-0.1178,9.8812,-0.0339,0.0137,-0.1115,-2.084673067132467,0.0,4.1695146560668945,-1.4174879789352417,-0.0,2.067005157470703,5.0453092632587335,0.0,0.26312193274497986,-1.5071566740619105,-0.0,-0.01221434399485588,-0.30053884187807256,-0.0,-0.002659815363585949,1.199655294418335,0.0,-0.007768973708152771
205.0,189.0,-0.6461,-0.1178,9.8812,-0.0339,0.0137,-0.1115,-2.084621568719381,0.0,4.145567893981934,-1.4175204038619995,-0.0,2.0528337955474854,5.045329350024023,0.0,0.26785820722579956,-1.5071128050433558,-0.0,-0.006683372426778078,-0.30050641695131475,-0.0,0.00920412503182888,1.199671745300293,0.0,-0.011013898998498917
205.0,189.0,-0.6461,-0.1178,9.8812,-0.0339,0.0137,-0.1115,-2.0846415958800257,0.0,4.14578104019165,-1.417492151260376,-0.0,2.0606393814086914,5.045345353871145,0.0,0.2622780203819275,-1.5071690718280237,-0.0,-0.011538848280906677,-0.30055076280702764,-0.0,0.0002076688688248396,1.1996753215789795,0.0,-0.021928317844867706
205.0,189.0,-0.6461,-0.1178,9.8812,-0.0339,0.0137,-0.1115,-2.084653516808981,0.0,4.139718532562256,-1.4175282716751099,-0.0,1.9979320764541626,5.045321184187689,0.0,0.26427340507507324,-1.5070808569537562,-0.0,-0.016423489898443222,-0.30050641695131475,-0.0,0.011805428192019463,1.199655294418335,0.0,-0.011343504302203655
205.0,189.0,-0.6461,-0.1178,9.8812,-0.0339,0.0137,-0.1115,-2.084661146203512,0.0,4.190319538116455,-1.4175846576690674,-0.0,2.031189441680908,5.0453330157096765,0.0,0.25950199365615845,-1.5071285406695765,-0.0,-0.013457659631967545,-0.3005026022540491,-0.0,-0.003711796598508954,1.199683666229248,0.0,0.008882182650268078
199.0,180.0,-0.5408,-0.0808,9.5043,-0.0457,0.0235,-0.1159,-2.084625383416647,0.0,4.177110195159912,-1.4174760580062866,-0.0,2.049663543701172,5.045337188034811,0.0,0.25651857256889343,-1.5070765654193323,-0.0,-0.014631930738687515,-0.30061084428896123,-0.0,-0.0015858239494264126,1.1996753215789795,0.0,0.012154839001595974
199.0,180.0,-0.5408,-0.0808,9.5043,-0.0457,0.0235,-0.1159,-2.0846454105772914,0.0,4.18111515045166,-1.41755211353302,-0.0,2.0890395641326904,5.045329350024023,0.0,0.26483258605003357,-1.5070846716510218,-0.0,-0.013496438041329384,-0.300514046345846,-0.0,-0.0034397225826978683,1.199675440788269,0.0,-0.02173328958451748
199.0,180.0,-0.5408,-0.0808,9.5043,-0.0457,0.0235,-0.1159,-2.0846930942931117,0.0,4.153507709503174,-1.4175200462341309,-0.0,2.0386781692504883,5.045321184187689,0.0,0.25778740644454956,-1.5071128050433558,-0.0,-0.006278041284531355,-0.30046207109560186,-0.0,-0.008146824315190315,1.1996270418167114,0.0,0.032025665044784546
199.0,180.0,-0.5408,-0.0808,9.5043,-0.0457,0.0235,-0.1159,-2.084661146203512,0.0,4.184854984283447,-1.4175242185592651,-0.0,2.071682929992676,5.045365738659658,0.0,0.2574581503868103,-1.5071128050433558,-0.0,-0.020024500787258148,-0.3005302588092249,-0.0,0.006808317266404629,1.1996310949325562,0.0,-0.011221535503864288
199.0,180.0,-0.5408,-0.0808,9.5043,-0.0457,0.0235,-0.1159,-2.0846573315062464,0.0,4.195744037628174,-1.4175159931182861,-0.0,2.0333054065704346,5.045293259411611,0.0,0.2565450966358185,-1.507132355366842,-0.0,-0.0010383551707491279,-0.30050975481142217,-0.0,-0.006861458066850901,1.1996352672576904,0.0,0.053845275193452835
199.0,180.0,-0.5408,-0.0808,9.5043,-0.0457,0.0235,-0.1159,-2.084653516808981,0.0,4.204571723937988,-1.4175159931182861,-0.0,2.0682437419891357,5.045341270952978,0.0,0.2440299242734909,-1.5071004072772425,-0.0,-0.017458600923419,-0.30053455034364873,-0.0,0.009803542867302895,1.1996474266052246,0.0,-0.03988272324204445
199.0,180.0,-0.5408,-0.0808,9.5043,-0.0457,0.0235,-0.1159,-2.084653516808981,0.0,4.168137073516846,-1.4175406694412231,-0.0,2.067164421081543,5.045301008015432,0.0,0.2698529064655304,-1.507108513508932,-0.0,-0.007507696747779846,-0.300514046345846,-0.0,0.011353245005011559,1.1996474266052246,0.0,-0.010473082773387432
199.0,180.0,-0.5408,-0.0808,9.5043,-0.0457,0.0235,-0.1159,-2.0846573315062464,0.0,4.213896751403809,-1.4174917936325073,-0.0,2.0759828090667725,5.0453092632587335,0.0,0.26685595512390137,-1.5071285406695765,-0.0,-0.012000657618045807,-0.3005426565753382,-0.0,-0.006383791565895081,1.1996433734893799,0.0,0.02318260259926319
199.0,180.0,-0.5408,-0.0808,9.5043,-0.0457,0.0235,-0.1159,-2.084713121453756,0.0,4.1484527587890625,-1.4175645112991333,-0.0,2.0055625438690186,5.045361655741491,0.0,0.25232285261154175,-1.5070965925799769,-0.0,-0.01342425961047411,-0.30049020448793584,-0.0,0.008801097050309181,1.1996675729751587,0.0,0.011534187011420727
199.0,180.0,-0.5408,-0.0808,9.5043,-0.0457,0.0235,-0.1159,-2.084621091882223,0.0,4.155292987823486,-1.4174998998641968,-0.0,2.0952188968658447,5.045345353871145,0.0,0.25972050428390503,-1.5071166197406214,-0.0,-0.00880955345928669,-0.30055076280702764,-0.0,-0.002460822928696871,1.1996474266052246,0.0,-0.018932437524199486
199.0,180.0,-0.5408,-0.0808,9.5043,-0.0457,0.0235,-0.1159,-2.0846573315062464,0.0,4.1460676193237305,-1.4175201654434204,-0.0,2.0439865589141846,5.045325237303533,0.0,0.26797473430633545,-1.5071285406695765,-0.0,-0.0030302447266876698,-0.3004820982562464,-0.0,0.0031211096793413162,1.1996753215789795,0.0,-0.015756309032440186
199.0,180.0,-0.5408,-0.0808,9.5043,-0.0457,0.0235,-0.1159,-2.084673067132467,0.0,4.1835246086120605,-1.4175480604171753,-0.0,2.1038239002227783,5.045321184187689,0.0,0.25495457649230957,-1.507148567830221,-0.0,-0.0037535775918513536,-0.30052215257753545,-0.0,-0.0006741551333107054,1.199659824371338,0.0,0.008901428431272507
199.0,180.0,-0.5408,-0.0808,9.5043,-0.0457,0.0235,-0.1159,-2.084621568719381,0.0,4.161786079406738,-1.417560338973999,-0.0,2.052971839904785,5.045317011862554,0.0,0.2682274878025055,-1.507108513508932,-0.0,-0.01620790734887123,-0.30057078996767217,-0.0,-0.005431959871202707,1.1996310949325562,0.0,0.0106224175542593
196.0,186.0,-0.6096,-0.1041,9.6838,-0.0362,0.0247,-0.1188,-2.0846573315062464,0.0,4.145249366760254,-1.4175479412078857,-0.0,2.0801422595977783,5.045313346176901,0.0,0.26292961835861206,-1.5071242491351526,-0.0,-0.010080825537443161,-0.30055076280702764,-0.0,-0.001938563771545887,1.1996392011642456,0.0,-0.029866386204957962
196.0,186.0,-0.6096,-0.1041,9.6838,-0.0362,0.0247,-0.1188,-2.0846692524352015,0.0,4.152435779571533,-1.4174998998641968,-0.0,2.0526933670043945,5.0453494665916345,0.0,0.26604926586151123,-1.507136646901266,-0.0,-0.0177279282361269,-0.300514046345846,-0.0,0.004805635195225477,1.1996912956237793,0.0,0.004079924430698156
196.0,186.0,-0.6096,-0.1041,9.6838,-0.0362,0.0247,-0.1188,-2.084661146203512,0.0,4.140011787414551,-1.4174998998641968,-0.0,2.0729212760925293,5.04528101065711,0.0,0.2618628740310669,-1.5071046988116663,-0.0,-0.0079801669344306,-0.3005302588092249,-0.0,0.008841361850500107,1.1996474266052246,0.0,-0.006290443241596222
196.0,186.0,-0.6096,-0.1041,9.6838,-0.0362,0.0247,-0.1188,-2.0846454105772914,0.0,4.165082931518555,-1.4175406694412231,-0.0,2.0563271045684814,5.045345353871145,0.0,0.2649335265159607,-1.5071128050433558,-0.0,-0.007157318759709597,-0.3005302588092249,-0.0,-0.0030067339539527893,1.199655294418335,0.0,0.026408247649669647
196.0,186.0,-0.6096,-0.1041,9.6838,-0.0362,0.0247,-0.1188,-2.0846296749510707,0.0,4.139488697052002,-1.4175479412078857,-0.0,2.0424609184265137,5.045329350024023,0.0,0.2566682696342468,-1.5071166197406214,-0.0,-0.006366618908941746,-0.30053455034364873,-0.0,0.010670737363398075,1.1996474266052246,0.0,0.01825213059782982
196.0,186.0,-0.6096,-0.1041,9.6838,-0.0362,0.0247,-0.1188,-2.084661146203512,0.0,4.192623138427734,-1.4175162315368652,-0.0,2.055699348449707,5.045297312527456,0.0,0.2657296061515808,-1.5070808569537562,-0.0,0.0011182292364537716,-0.3005626837359827,-0.0,0.0004473971202969551,1.1996753215789795,0.0,0.030694274231791496
196.0,186.0,-0.6096,-0.1041,9.6838,-0.0362,0.0247,-0.1188,-2.084677358666891,0.0,4.208114147186279,-1.4174995422363281,-0.0,2.047441244125366,5.045325237303533,0.0,0.2542838156223297,-1.5070927778827112,-0.0,-0.015132207423448563,-0.3005903402911585,-0.0,-0.00036061997525393963,1.199655294418335,0.0,-0.04140786454081535
196.0,186.0,-0.6096,-0.1041,9.6838,-0.0362,0.0247,-0.1188,-2.084637304345602,0.0,4.158458709716797,-1.4174998998641968,-0.0,2.018994092941284,5.045349347382345,0.0,0.27897608280181885,-1.5071242491351526,-0.0,-0.019014276564121246,-0.30058318773378545,-0.0,0.005757409613579512,1.1996511220932007,0.0,0.03729968145489693
196.0,186.0,-0.6096,-0.1041,9.6838,-0.0362,0.0247,-0.1188,-2.084625383416647,0.0,4.180036544799805,-1.4175039529800415,-0.0,2.0344653129577637,5.045305150538244,0.0,0.25157222151756287,-1.507132355366842,-0.0,-0.013740524649620056,-0.3005631605731409,-0.0,0.0016718292608857155,1.1996675729751587,0.0,0.04619849473237991
196.0,186.0,-0.6096,-0.1041,9.6838,-0.0362,0.0247,-0.1188,-2.084625383416647,0.0,4.174696445465088,-1.4175081253051758,-0.0,2.0667219161987305,5.045357572823324,0.0,0.2635868787765503,-1.5071285406695765,-0.0,-0.02019975334405899,-0.3005746046649378,-0.0,-0.004245095886290073,1.1996712684631348,0.0,0.012455579824745655
196.0,186.0,-0.6096,-0.1041,9.6838,-0.0362,0.0247,-0.1188,-2.084677358666891,0.0,4.21600866317749,-1.4175039529800415,-0.0,2.06588077545166,5.0453494665916345,0.0,0.27239474654197693,-1.5071046988116663,-0.0,-0.02919347770512104,-0.3005746046649378,-0.0,-0.006020020693540573,1.1996433734893799,0.0,-0.02931988425552845
196.0,186.0,-0.6096,-0.1041,9.6838,-0.0362,0.0247,-0.1188,-2.0846573315062464,0.0,4.148941993713379,-1.4175159931182861,-0.0,2.0389180183410645,5.045293259411611,0.0,0.26629430055618286,-1.5070965925799769,-0.0,-0.008586840704083443,-0.300514046345846,-0.0,0.0014019990339875221,1.199655294418335,0.0,-0.020078422501683235
196.0,186.0,-0.6096,-0.1041,9.6838,-0.0362,0.0247,-0.1188,-2.0846334896483363,0.0,4.192874431610107,-1.4175324440002441,-0.0,2.0202388763427734,5.045321184187689,0.0,0.26405277848243713,-1.5071647802936,-0.0,-0.01582915708422661,-0.3004382292376917,-0.0,-0.0069444142282009125,1.1996393203735352,0.0,0.022023580968379974
193.0,185.0,-0.6419,-0.1131,9.658,-0.0339,0.026,-0.1126,-2.0846334896483363,0.0,4.173768997192383,-1.4175201654434204,-0.0,2.0567803382873535,5.045329350024023,0.0,0.2657334804534912,-1.5071566740619105,-0.0,-0.009839094243943691,-0.3005302588092249,-0.0,0.001377283362671733,1.1996393203735352,0.0,0.013272584415972233
193.0,185.0,-0.6419,-0.1131,9.658,-0.0339,0.026,-0.1126,-2.084649225274557,0.0,4.149714946746826,-1.4175242185592651,-0.0,2.0368850231170654,5.04528500416831,0.0,0.2597384452819824,-1.5071004072772425,-0.0,-0.010949285700917244,-0.30055076280702764,-0.0,-0.0036314837634563446,1.1996310949325562,0.0,-0.008165686391294003
193.0,185.0,-0.6419,-0.1131,9.658,-0.0339,0.026,-0.1126,-2.0846573315062464,0.0,4.186732292175293,-1.4175200462341309,-0.0,2.046113967895508,5.045341270952978,0.0,0.25356677174568176,-1.507132355366842,-0.0,-0.007870106026530266,-0.3005107084857386,-0.0,-0.001475598430261016,1.1996393203735352,0.0,-0.0009011960355564952
193.0,185.0,-0.6419,-0.1131,9.658,-0.0339,0.026,-0.1126,-2.0846573315062464,0.0,4.151342391967773,-1.4175039529800415,-0.0,2.0402991771698,5.045341270952978,0.0,0.2677482068538666,-1.507136646901266,-0.0,-0.020166924223303795,-0.3005178610431116,-0.0,-0.004985280334949493,1.1996835470199585,0.0,0.006292219739407301
193.0,185.0,-0.6419,-0.1131,9.658,-0.0339,0.026,-0.1126,-2.0846573315062464,0.0,4.10097599029541,-1.4175159931182861,-0.0,2.0305347442626953,5.045345353871145,0.0,0.2525956630706787,-1.5070965925799769,-0.0,-0.015417445451021194,-0.3005264441119593,-0.0,0.00777884665876627,1.1996433734893799,0.0,-0.02268231473863125
193.0,185.0,-0.6419,-0.1131,9.658,-0.0339,0.026,-0.1126,-2.0846291981139125,0.0,4.15692663192749,-1.4174761772155762,-0.0,2.0501883029937744,5.045289206295767,0.0,0.25494182109832764,-1.507132355366842,-0.0,-0.012935122475028038,-0.30049401918520147,-0.0,0.005600908771157265,1.1996433734893799,0.0,0.00860573723912239
193.0,185.0,-0.6419,-0.1131,9.658,-0.0339,0.026,-0.1126,-2.084588666955465,0.0,4.203691005706787,-1.4175364971160889,-0.0,2.0602407455444336,5.045321184187689,0.0,0.25719091296195984,-1.5070884863482874,-0.0,-0.010804006829857826,-0.30047399202455694,-0.0,0.0038528204895555973,1.1996392011642456,0.0,-0.016333406791090965
193.0,185.0,-0.6419,-0.1131,9.658,-0.0339,0.026,-0.1126,-2.084637304345602,0.0,4.198428153991699,-1.4175077676773071,-0.0,2.092191457748413,5.04532157161788,0.0,0.2654722034931183,-1.5071004072772425,-0.0,-0.016083406284451485,-0.30049020448793584,-0.0,0.006227794103324413,1.1996712684631348,0.0,-0.012926256284117699
193.0,185.0,-0.6419,-0.1131,9.658,-0.0339,0.026,-0.1126,-2.0846411190428675,0.0,4.188409328460693,-1.4174917936325073,-0.0,2.068877696990967,5.045317429095068,0.0,0.25263264775276184,-1.5071242491351526,-2.002813737078668e-08,-0.022570570930838585,-0.3005264441119593,-0.0,-0.0070418077521026134,1.1996712684631348,0.0,0.01943490281701088
193.0,185.0,-0.6419,-0.1131,9.658,-0.0339,0.026,-0.1126,-2.0846177540221156,0.0,4.173055171966553,-1.4175200462341309,-0.0,2.0874621868133545,5.04533343294219,0.0,0.26305046677589417,-1.5071128050433558,-3.6400149929817494e-13,-0.0220095943659544,-0.30053836504091436,-0.0,0.004859675653278828,1.1996310949325562,0.0,0.02440711110830307
193.0,185.0,-0.6419,-0.1131,9.658,-0.0339,0.026,-0.1126,-2.0846454105772914,0.0,4.215776443481445,-1.4175364971160889,-0.0,2.0522727966308594,5.045272874623098,0.0,0.2677086591720581,-1.5071609655963343,-1.0132116132571825e-16,-0.008901644498109818,-0.30053455034364873,-0.0,-0.0049248612485826015,1.1996433734893799,0.0,-0.0006821630522608757
193.0,185.0,-0.6419,-0.1131,9.658,-0.0339,0.026,-0.1126,-2.084637304345602,0.0,4.155828475952148,-1.4175159931182861,-0.0,2.0236659049987793,5.045321154385366,0.0,0.25714001059532166,-1.5071046988116663,-2.820311718825615e-20,-0.023162683472037315,-0.30053884187807256,-0.0,0.010357800871133804,1.1996954679489136,0.0,0.004767775535583496
193.0,185.0,-0.6419,-0.1131,9.658,-0.0339,0.026,-0.1126,-2.0846291981139125,0.0,4.177925109863281,-1.4175242185592651,-0.0,2.077721357345581,5.0453293202217,0.0,0.2631162405014038,-1.507136646901266,-5.1257770665119765e-25,-0.009930726140737534,-0.3005026022540491,-0.0,0.001911256811581552,1.1996515989303589,0.0,-0.011165309697389603
197.0,184.0,-0.9398,-0.2542,10.2736,-0.0281,0.0209,-0.1035,-2.0846411190428675,0.0,4.149109840393066,-1.4175406694412231,-0.0,2.0138628482818604,5.045353519707479,0.0,0.2652396559715271,-1.5070965925799769,-1.4267789769806184e-28,-0.003401347203180194,-0.30050975481142217,-0.0,0.0018801458645612001,1.199655294418335,0.0,-0.023471971973776817
197.0,184.0,-0.9398,-0.2542,10.2736,-0.0281,0.0209,-0.1035,-2.0846854648985804,0.0,4.171411991119385,-1.4175200462341309,-0.0,2.0645720958709717,5.045289206295767,0.0,0.26296889781951904,-1.5070965925799769,-2.5931004976376414e-33,-0.003079025773331523,-0.30053455034364873,-0.0,-8.998738485388458e-05,1.1996675729751587,0.0,-0.014461943879723549
197.0,184.0,-0.9398,-0.2542,10.2736,-0.0281,0.0209,-0.1035,-2.0846616230406703,0.0,4.137683868408203,-1.417483925819397,-0.0,2.0258328914642334,5.0453859744365595,0.0,0.2667739689350128,-1.507132355366842,-7.217991531987279e-37,-0.01946824975311756,-0.30053884187807256,-0.0,0.0011780676431953907,1.1996352672576904,0.0,-0.0016779610887169838
197.0,184.0,-0.9398,-0.2542,10.2736,-0.0281,0.0209,-0.1035,-2.0846530399718226,0.0,4.15180778503418,-1.4174797534942627,-0.0,2.113670587539673,5.0453494665916345,0.0,0.26447513699531555,-1.5071404615985315,-1.3118956223008937e-41,-0.01678563840687275,-0.3005302588092249,-0.0,-0.01627468317747116,1.1996352672576904,0.0,-0.019017715007066727
197.0,184.0,-0.9398,-0.2542,10.2736,-0.0281,0.0209,-0.1035,-2.084625383416647,0.0,4.2283124923706055,-1.4175119400024414,-0.0,2.0052926540374756,5.045345383673467,0.0,0.2569613754749298,-1.5070646444903772,-4.203895392974451e-45,-0.009530225768685341,-0.30055457750429326,-0.0,-0.016338499262928963,1.1996835470199585,0.0,-0.03516726195812225
197.0,184.0,-0.9398,-0.2542,10.2736,-0.0281,0.0209,-0.1035,-2.0846811733641566,0.0,4.171191215515137,-1.4175121784210205,-0.0,2.034583568572998,5.045293289213934,0.0,0.26132267713546753,-1.5071609655963343,-0.0,-0.012236270122230053,-0.3005626837359827,-0.0,-0.0005221094470471144,1.1996835470199585,0.0,-0.01868363842368126
197.0,184.0,-0.9398,-0.2542,10.2736,-0.0281,0.0209,-0.1035,-2.084625383416647,0.0,4.189685344696045,-1.417492151260376,-0.0,2.071451425552368,5.045345353871145,0.0,0.26474133133888245,-1.5071166197406214,-0.0,-0.023938961327075958,-0.30056649843324834,-0.0,-0.003260520752519369,1.1996270418167114,0.0,-0.018480513244867325
197.0,184.0,-0.9398,-0.2542,10.2736,-0.0281,0.0209,-0.1035,-2.0846086941161097,0.0,4.136420726776123,-1.4175077676773071,-0.0,2.0315213203430176,5.045313346176901,0.0,0.25740715861320496,-1.5071046988116663,-0.0,-0.023483391851186752,-0.3005150000201624,-0.0,-0.002119089476764202,1.1996270418167114,0.0,-0.032134830951690674
197.0,184.0,-0.9398,-0.2542,10.2736,-0.0281,0.0209,-0.1035,-2.0846735439696253,0.0,4.163445472717285,-1.4174962043762207,-0.0,2.080639362335205,5.045265006809988,0.0,0.24849127233028412,-1.507136646901266,-0.0,-0.002465600613504648,-0.3005264441119593,-0.0,-0.00039871924673207104,1.1996995210647583,0.0,0.008289109915494919
197.0,184.0,-0.9398,-0.2542,10.2736,-0.0281,0.0209,-0.1035,-2.084616800347799,0.0,4.126726150512695,-1.4175561666488647,-0.0,2.0122971534729004,5.045305210142889,0.0,0.25079095363616943,-1.507108513508932,-0.0,-0.007178003434091806,-0.30055076280702764,-0.0,-0.003073185682296753,1.1996515989303589,0.0,-0.014469347894191742
197.0,184.0,-0.9398,-0.2542,10.2736,-0.0281,0.0209,-0.1035,-2.0846735439696253,0.0,4.177135467529297,-1.4175324440002441,-0.0,2.0770790576934814,5.045337158232488,0.0,0.25330573320388794,-1.5071166197406214,-0.0,-0.013042587786912918,-0.30054217973818,-0.0,-0.0020446714479476213,1.1996392011642456,0.0,-0.030441567301750183
197.0,184.0,-0.9398,-0.2542,10.2736,-0.0281,0.0209,-0.1035,-2.0846411190428675,0.0,4.128679275512695,-1.4175159931182861,-0.0,1.9957380294799805,5.045345353871145,0.0,0.2660374641418457,-1.5071209112750452,-0.0,-0.022076385095715523,-0.30055076280702764,-0.0,0.00042786658741533756,1.1996917724609375,0.0,-0.014448879286646843
197.0,184.0,-0.9398,-0.2542,10.2736,-0.0281,0.0209,-0.1035,-2.0846454105772914,0.0,4.199331283569336,-1.4175119400024414,-0.0,2.0891542434692383,5.045317429095068,0.0,0.2581547498703003,-1.5070727507220667,-0.0,-0.02043607458472252,-0.3005626837359827,-0.0,0.003075860906392336,1.1996432542800903,0.0,0.009461717680096626
200.0,187.0,-0.7394,-0.198,9.7789,-0.0353,0.018,-0.1151,-2.0846086941161097,0.0,4.192455768585205,-1.4175200462341309,-0.0,2.016770362854004,5.045293289213934,0.0,0.25839027762413025,-1.5071447531329554,-0.0,-0.012204298749566078,-0.30053884187807256,-0.0,-0.0031098555773496628,1.1996917724609375,0.0,0.015703458338975906
200.0,187.0,-0.7394,-0.198,9.7789,-0.0353,0.018,-0.1151,-2.084637304345602,0.0,4.124598979949951,-1.4175200462341309,-0.0,2.072777271270752,5.04533343294219,0.0,0.2630675137042999,-1.507136646901266,-0.0,-0.010641153901815414,-0.30058604875673467,-0.0,-0.006627814378589392,1.1996753215789795,0.0,-0.009051880799233913
200.0,187.0,-0.7394,-0.198,9.7789,-0.0353,0.018,-0.1151,-2.084649702111715,0.0,4.182297706604004,-1.4174678325653076,-0.0,1.9967927932739258,5.0453293202217,0.0,0.2745257019996643,-1.507108513508932,-0.0,-0.014378916472196579,-0.3005464712726038,-0.0,-0.005218122620135546,1.1996433734893799,0.0,0.02588225156068802
200.0,187.0,-0.7394,-0.198,9.7789,-0.0353,0.018,-0.1151,-2.084689279595846,0.0,4.130231857299805,-1.4175529479980469,-0.0,2.0774028301239014,5.0453092632587335,0.0,0.2570849061012268,-1.5071447531329554,-0.0,-0.028619300574064255,-0.30059844652284795,-0.0,-0.0038024908863008022,1.199655294418335,0.0,-0.041123826056718826
200.0,187.0,-0.7394,-0.198,9.7789,-0.0353,0.018,-0.1151,-2.0846573315062464,0.0,4.1348161697387695,-1.4174683094024658,-0.0,2.0660345554351807,5.0452973423297784,0.0,0.26199084520339966,-1.5071046988116663,-0.0,-0.007782483473420143,-0.3004983107196253,-0.0,-0.0003711441531777382,1.1996675729751587,0.0,0.02238643169403076
200.0,187.0,-0.7394,-0.198,9.7789,-0.0353,0.018,-0.1151,-2.084689279595846,0.0,4.17600679397583,-1.4175643920898438,-0.0,2.0297842025756836,5.045365798264303,0.0,0.261199414730072,-1.5070727507220667,-0.0,-0.017935143783688545,-0.30056983629335576,-0.0,0.008708319626748562,1.1996753215789795,0.0,-0.0152480099350214
200.0,187.0,-0.7394,-0.198,9.7789,-0.0353,0.018,-0.1151,-2.084665437737936,0.0,4.211730003356934,-1.4175244569778442,-0.0,2.049561023712158,5.045293259411611,0.0,0.26912498474121094,-1.507108513508932,-0.0,-0.012359529733657837,-0.3005302588092249,-0.0,-0.0031169354915618896,1.1996351480484009,0.0,-0.019666027277708054
200.0,187.0,-0.7394,-0.198,9.7789,-0.0353,0.018,-0.1151,-2.0846334896483363,0.0,4.127161979675293,-1.4174838066101074,-0.0,2.0246829986572266,5.045289325505056,0.0,0.2600714862346649,-1.5070884863482874,-0.0,-0.0282870102673769,-0.3004983107196253,-0.0,0.003348104888573289,1.1996753215789795,0.0,0.027057871222496033
200.0,187.0,-0.7394,-0.198,9.7789,-0.0353,0.018,-0.1151,-2.0846291981139125,0.0,4.178580284118652,-1.4175325632095337,-0.0,2.0446228981018066,5.045385527401724,0.0,0.2592357397079468,-1.5071404615985315,-0.0,-0.01675320230424404,-0.30055457750429326,-0.0,-0.006120885256677866,1.1996634006500244,0.0,-0.04107237979769707
200.0,187.0,-0.7394,-0.198,9.7789,-0.0353,0.018,-0.1151,-2.084633012811178,0.0,4.137688636779785,-1.4175366163253784,-0.0,2.0468192100524902,5.045325267105856,0.0,0.2609860301017761,-1.5071008841144007,-0.0,-0.004698359873145819,-0.30049401918520147,-0.0,-0.0024239402264356613,1.1996914148330688,0.0,0.0033159886952489614
200.0,187.0,-0.7394,-0.198,9.7789,-0.0353,0.018,-0.1151,-2.084649702111715,0.0,4.14589786529541,-1.4174760580062866,-0.0,2.0355288982391357,5.045293259411611,0.0,0.26678329706192017,-1.5071285406695765,-0.0,-0.015000106766819954,-0.3005903402911585,-0.0,-0.000838819716591388,1.1996393203735352,1.3782183714283747e-06,-0.020028628408908844
200.0,187.0,-0.7394,-0.198,9.7789,-0.0353,0.018,-0.1151,-2.0846454105772914,0.0,4.152859687805176,-1.4175283908843994,-0.0,2.0631043910980225,5.045301455050268,0.0,0.26287031173706055,-1.5071528593646448,-0.0,-0.01098933070898056,-0.3005631605731409,-0.0,0.0011816376354545355,1.1996995210647583,0.0008099042461253703,-0.034822016954422
200.0,187.0,-0.7394,-0.198,9.7789,-0.0353,0.018,-0.1151,-2.084665437737936,0.0,4.182761192321777,-1.4174962043762207,-0.0,2.0244669914245605,5.045313375979223,0.0,0.2542748749256134,-1.5071404615985315,-0.0,-0.016636922955513,-0.3004983107196253,-0.0,0.010147643275558949,1.1997114419937134,0.0006678759236820042,-0.023164091631770134
197.0,186.0,-0.2943,-0.3541,9.484,-0.0484,0.022,-0.1022,-2.084649702111715,0.0,4.188253879547119,-1.4175243377685547,-0.0,2.0534348487854004,5.045325296908178,0.0,0.2603992819786072,-1.5070884863482874,-0.0,-0.015332825481891632,-0.3005264441119593,-0.0,-0.0013871095143258572,1.1996511220932007,0.0004927703994326293,0.04982734099030495
197.0,186.0,-0.2943,-0.3541,9.484,-0.0484,0.022,-0.1022,-2.084665437737936,0.0,4.178872108459473,-1.4175039529800415,-0.0,2.0313658714294434,5.045321184187689,0.0,0.26257556676864624,-1.5071809927569788,-0.0,-0.013370560482144356,-0.3005588690387171,-0.0,0.0027926298789680004,1.19966721534729,0.0003868673520628363,-0.03376677632331848
197.0,186.0,-0.2943,-0.3541,9.484,-0.0484,0.022,-0.1022,-2.0846129856505335,0.0,4.204476356506348,-1.4175242185592651,-0.0,2.0716230869293213,5.045345353871145,0.0,0.2695448100566864,-1.5071566740619105,-0.0,-0.014746241271495819,-0.300514046345846,-0.0,-0.0015280598308891058,1.1996351480484009,0.000371457397704944,0.007149973884224892
197.0,186.0,-0.2943,-0.3541,9.484,-0.0484,0.022,-0.1022,-2.084616800347799,0.0,4.18974494934082,-1.4175200462341309,-0.0,2.04744291305542,5.0453330157096765,0.0,0.26287931203842163,-1.507108513508932,-0.0,-0.01702817529439926,-0.3005026022540491,-0.0,0.012722915038466454,1.199695348739624,0.000390037486795336,0.004912802949547768
197.0,186.0,-0.2943,-0.3541,9.484,-0.0484,0.022,-0.1022,-2.0846411190428675,0.0,4.185736656188965,-1.4175200462341309,-0.0,2.044895648956299,5.045337188034811,0.0,0.25501200556755066,-1.507136646901266,-0.0,-0.01524850632995367,-0.3005107084857386,-0.0,0.004206502344459295,1.1996630430221558,0.0004344841872807592,0.07034098356962204
197.0,186.0,-0.2943,-0.3541,9.484,-0.0484,0.022,-0.1022,-2.084665437737936,0.0,4.175082206726074,-1.4175200462341309,-0.0,2.0680432319641113,5.045369940787115,0.0,0.2739388644695282,-1.5071685949908655,-0.0,-0.024013731628656387,-0.3004697004901331,-0.0,0.009963667020201683,1.1996630430221558,0.0005349150742404163,-0.017436880618333817
197.0,186.0,-0.2943,-0.3541,9.484,-0.0484,0.022,-0.1022,-2.0846291981139125,0.0,4.138002872467041,-1.4175159931182861,-0.0,2.0589022636413574,5.045321184187689,0.0,0.2664710283279419,-1.5071404615985315,-2.2344877947944042e-08,-0.01693292148411274,-0.300514046345846,-0.0,0.012284609489142895,1.1997156143188477,0.00039429336902685463,0.011969112791121006
197.0,186.0,-0.2943,-0.3541,9.484,-0.0484,0.022,-0.1022,-2.0846530399718226,0.0,4.1311798095703125,-1.417483925819397,-0.0,2.0463638305664062,5.045325267105856,0.0,0.25112807750701904,-1.507148567830221,-4.061071682930073e-13,-0.0200297050178051,-0.3005626837359827,-0.0,0.004848596174269915,1.1996912956237793,0.00023384524683933705,-0.026373406872153282
197.0,186.0,-0.2943,-0.3541,9.484,-0.0484,0.022,-0.1022,-2.084677358666891,0.0,4.184972286224365,-1.417492151260376,-0.0,2.0797278881073,5.0453092632587335,0.0,0.26589369773864746,-1.5071046988116663,-1.130414304854229e-16,-0.006664112210273743,-0.3005746046649378,-0.0,0.009356282651424408,1.199707269668579,0.00019549908756744117,0.01801338791847229
197.0,186.0,-0.2943,-0.3541,9.484,-0.0484,0.022,-0.1022,-2.0846616230406703,0.0,4.201971530914307,-1.417492151260376,-0.0,2.0351529121398926,5.045317429095068,0.0,0.2684827148914337,-1.5071247259723108,-3.146549813711968e-20,-0.0037627695128321648,-0.30055076280702764,-0.0,0.00036877149250358343,1.1996790170669556,0.00016809708904474974,-0.017187073826789856
197.0,186.0,-0.2943,-0.3541,9.484,-0.0484,0.022,-0.1022,-2.084625383416647,0.0,4.181811332702637,-1.4175364971160889,-0.0,2.0684995651245117,5.045325267105856,0.0,0.26287078857421875,-1.507108513508932,-5.718697741865799e-25,-0.015216373838484287,-0.30055457750429326,-0.0,0.006330450531095266,1.1996749639511108,0.00010625653521856293,0.005424228496849537
197.0,186.0,-0.2943,-0.3541,9.484,-0.0484,0.022,-0.1022,-2.084677358666891,0.0,4.169536590576172,-1.4175406694412231,-0.0,2.0934715270996094,5.045325296908178,0.0,0.2640995979309082,-1.507136646901266,-1.591820700970532e-28,-0.019913766533136368,-0.30058175722231084,-0.0,0.0025193800684064627,1.1996351480484009,9.501980093773454e-05,0.022545944899320602
197.0,186.0,-0.2943,-0.3541,9.484,-0.0484,0.022,-0.1022,-2.0846735439696253,0.0,4.1815385818481445,-1.4174760580062866,-0.0,2.075265407562256,5.045329350024023,0.0,0.25867027044296265,-1.507176701222555,-2.8930556155697877e-33,-0.018118610605597496,-0.30054217973818,-0.0,0.0062063694931566715,1.1996790170669556,-6.645116809522733e-05,-0.01539197750389576
198.0,181.0,-0.5264,-0.0879,9.6227,-0.0417,0.0136,-0.1092,-2.0846697292723597,0.0,4.179281234741211,-1.4175037145614624,-0.0,2.0167789459228516,5.045329350024023,0.0,0.26430973410606384,-1.5071523825274866,-8.052926411258794e-37,-0.023761902004480362,-0.3005302588092249,-0.0,0.002568681724369526,1.1996830701828003,-5.982528455206193e-05,-0.00043068427476100624
198.0,181.0,-0.5264,-0.0879,9.6227,-0.0417,0.0136,-0.1092,-2.0846692524352015,0.0,4.161298751831055,-1.4175002574920654,-0.0,2.073526382446289,5.0453616855438135,0.0,0.2569633722305298,-1.507108513508932,-1.463516116140839e-41,-0.015389395877718925,-0.3005302588092249,-0.0,-0.0036538466811180115,1.1997195482254028,-5.280700861476362e-05,0.02338433638215065
198.0,181.0,-0.5264,-0.0879,9.6227,-0.0417,0.0136,-0.1092,-2.084689279595846,0.0,4.1988115310668945,-1.4175282716751099,-0.0,2.0396838188171387,5.045341270952978,0.0,0.2647862434387207,-1.5071285406695765,-4.203895392974451e-45,-0.01735169067978859,-0.3005464712726038,-0.0,0.00025162147358059883,1.1996914148330688,-2.4280354409711435e-05,0.04592076689004898
198.0,181.0,-0.5264,-0.0879,9.6227,-0.0417,0.0136,-0.1092,-2.0846854648985804,0.0,4.202653408050537,-1.4174879789352417,-0.0,2.040980339050293,5.045373606472769,0.0,0.26550406217575073,-1.5071128050433558,-0.0,-0.008999723009765148,-0.30053455034364873,-0.0,-0.010855700820684433,1.199703574180603,-2.2451453332905658e-05,0.041071489453315735
198.0,181.0,-0.5264,-0.0879,9.6227,-0.0417,0.0136,-0.1092,-2.0846930942931117,0.0,4.154354095458984,-1.4175162315368652,-0.0,2.0693655014038086,5.045321184187689,0.0,0.26060590147972107,-1.5071609655963343,-0.0,-0.01937680132687092,-0.30055076280702764,-0.0,-9.647628758102655e-05,1.1996549367904663,-2.0414481696207076e-05,-0.018132714554667473
198.0,181.0,-0.5264,-0.0879,9.6227,-0.0417,0.0136,-0.1092,-2.0846530399718226,0.0,4.182382106781006,-1.417419672012329,0.0005772816366516054,2.0010080337524414,5.045305627375402,0.0,0.27037206292152405,-1.507148567830221,-0.0,-0.01668424718081951,-0.3005588690387171,-0.0,-0.007884785532951355,1.1996790170669556,-3.766544978134334e-05,0.009828299283981323
198.0,181.0,-0.5264,-0.0879,9.6227,-0.0417,0.0136,-0.1092,-2.0846930942931117,-0.0002176241687266156,4.178885459899902,-1.4175162315368652,0.00040635711047798395,2.0711307525634766,5.045337188034811,0.0,0.2685081660747528,-1.507132355366842,-0.0,-0.009007280692458153,-0.3005026022540491,-0.0,0.011507868766784668,1.1996831893920898,-3.4094984584953636e-05,0.032700441777706146
198.0,181.0,-0.5264,-0.0879,9.6227,-0.0417,0.0136,-0.1092,-2.0846973858275355,-0.00019509278354234993,4.150219917297363,-1.417480230331421,0.0003867493069265038,2.0333428382873535,5.045373606472769,0.0,0.2632752060890198,-1.507136646901266,-0.0,-0.012577652931213379,-0.30052215257753545,-0.0,0.002409617882221937,1.1996430158615112,-3.061403913307004e-05,-0.03949068859219551
198.0,181.0,-0.5264,-0.0879,9.6227,-0.0417,0.0136,-0.1092,-2.084644933740133,-0.00016625963326077908,4.134060382843018,-1.4174723625183105,0.0003548558452166617,2.0776216983795166,5.045317429095068,0.0,0.26738736033439636,-1.5071566740619105,-0.0,-0.014777321368455887,-0.3005588690387171,-0.0,0.0021564746275544167,1.1996712684631348,-5.280814730213024e-05,0.003140292363241315
198.0,181.0,-0.5264,-0.0879,9.6227,-0.0417,0.0136,-0.1092,-2.084701200524801,-0.0001496695476816967,4.1616411209106445,-1.4174883365631104,0.0003091435937676579,2.0069658756256104,5.045381831913748,0.0,0.2653733491897583,-1.5071566740619105,-0.0,-0.034960199147462845,-0.30055076280702764,-0.0,0.0041662356816232204,1.1996872425079346,-4.945269392919727e-05,-0.04378345608711243
198.0,181.0,-0.5264,-0.0879,9.6227,-0.0417,0.0136,-0.1092,-2.084661146203512,-0.00013609009329229593,4.184179306030273,-1.4174485206604004,0.00027386503643356264,2.0675272941589355,5.045357602625646,0.0,0.2683015465736389,-1.507176701222555,-1.1944056495849509e-05,-0.008696612901985645,-0.30053455034364873,-0.0,0.008665399625897408,1.1996790170669556,-1.0788710369524779e-07,-0.02043917030096054
198.0,181.0,-0.5264,-0.0879,9.6227,-0.0417,0.0136,-0.1092,-2.0846973858275355,-0.00012140366743551567,4.16624641418457,-1.4174115657806396,0.0002382883831160143,1.9966833591461182,5.045341270952978,0.0,0.2640601694583893,-1.5071528593646448,-7.118079520296305e-05,-0.023824207484722137,-0.3005622068988245,-0.0,-0.018036063760519028,1.1997032165527344,-3.4954053354134063e-15,0.006474803201854229
198.0,181.0,-0.5264,-0.0879,9.6227,-0.0417,0.0136,-0.1092,-2.0846649609007777,-0.00011231335520278662,4.18695068359375,-1.4175044298171997,0.0001682069560047239,2.0540595054626465,5.045321184187689,0.0,0.2656412124633789,-1.5071728865252894,-6.795705121476203e-05,-0.012225523591041565,-0.300514046345846,-0.0,0.0052987951785326,1.1997395753860474,0.0008673985139466822,0.011740943416953087
203.0,177.0,0.1346,-0.2638,9.3266,-0.0505,-0.0034,-0.106,-2.084649225274557,-0.00010211837798124179,4.175795555114746,-1.4174402952194214,0.00017559326079208404,2.043987512588501,5.045329350024023,0.0,0.26932209730148315,-1.507176701222555,-6.408586341422051e-05,-0.0075453175231814384,-0.3005779425250452,-0.0,-0.0040949806571006775,1.1997032165527344,0.00039700063643977046,0.0005626750644296408
203.0,177.0,0.1346,-0.2638,9.3266,-0.0505,-0.0034,-0.106,-2.0847255192198695,-0.00011446924327174202,4.1582417488098145,-1.4174683094024658,0.00013332359958440065,2.011613368988037,5.045349347382345,0.0,0.2749030888080597,-1.507216755543844,-6.146003579488024e-05,-0.024802610278129578,-0.30056697527040654,-0.0,0.006561535410583019,1.1997196674346924,0.0002342282241443172,0.04252798855304718
203.0,177.0,0.1346,-0.2638,9.3266,-0.0505,-0.0034,-0.106,-2.0847298107542933,-0.00013495521852746606,4.194356918334961,-1.4174362421035767,0.00011919591634068638,2.0424609184265137,5.045373606472769,0.0,0.2618488073348999,-1.507160488759176,-6.993115675868466e-05,-0.04443906620144844,-0.3005302588092249,-0.0,-0.005147824063897133,1.199695348739624,-0.00018502288730815053,0.04547722637653351
203.0,177.0,0.1346,-0.2638,9.3266,-0.0505,-0.0034,-0.106,-2.0847255192198695,-0.00012999070168007165,4.161751747131348,-1.4175044298171997,0.00011042154801543802,2.043982744216919,5.0453330157096765,0.0,0.26118260622024536,-1.5071609655963343,-6.73163594910875e-05,-0.004032921511679888,-0.30050975481142217,-0.0,-0.00345209171064198,1.1996630430221558,-0.00021963001927360892,-0.04102204740047455
203.0,177.0,0.1346,-0.2638,9.3266,-0.0505,-0.0034,-0.106,-2.0847536526122035,-0.000143535973620601,4.164134979248047,-1.4175167083740234,0.00010285032476531342,2.0560736656188965,5.0453494665916345,0.0,0.2613239586353302,-1.5071523825274866,-6.488961662398651e-05,-0.020699840039014816,-0.3004820982562464,-0.0,0.003610543441027403,1.1997195482254028,-0.00019046114175580442,-0.0025223223492503166
203.0,177.0,0.1346,-0.2638,9.3266,-0.0505,-0.0034,-0.106,-2.0846811733641566,-0.0001297452545259148,4.187009334564209,-1.4174723625183105,9.423519077245146e-05,2.04925537109375,5.045317429095068,3.0611263523994126e-10,0.26790934801101685,-1.5071967283831995,-6.191369902808219e-05,-0.025803394615650177,-0.30056983629335576,-0.0,0.012184648774564266,1.1996712684631348,-0.0001948887947946787,-0.01026439480483532
203.0,177.0,0.1346,-0.2638,9.3266,-0.0505,-0.0034,-0.106,-2.084701200524801,-0.0001210218106280081,4.156435012817383,-1.4174847602844238,8.866494317771867e-05,2.058600425720215,5.045265006809988,8.52075707083802e-14,0.26548275351524353,-1.5071728865252894,-5.985491588944569e-05,-0.022046130150556564,-0.30055457750429326,-0.0,0.000961311801802367,1.1996995210647583,-0.00041558549855835736,-0.058067794889211655
203.0,177.0,0.1346,-0.2638,9.3266,-0.0505,-0.0034,-0.106,-2.084688802758688,-9.25544009078294e-05,4.171624183654785,-1.4174723625183105,8.218752918764949e-05,2.0310072898864746,5.045313346176901,1.5486055634056913e-18,0.2686678469181061,-1.50718862215151,-2.1460646593141064e-09,-0.01706450618803501,-0.30053836504091436,-0.0,0.007976703345775604,1.1996233463287354,-0.0020864743273705244,-0.056630689650774
203.0,177.0,0.1346,-0.2638,9.3266,-0.0505,-0.0034,-0.106,-2.0846649609007777,-6.997886521276087e-05,4.1565752029418945,-1.4174681901931763,9.350167238153517e-05,2.0952649116516113,5.045309233456411,4.310600538520783e-22,0.26517555117607117,-1.5071609655963343,-5.973649851685747e-13,-0.017985859885811806,-0.3005026022540491,-0.0,0.004673258401453495,1.199659824371338,-0.0035566322039812803,-0.06615535914897919
203.0,177.0,0.1346,-0.2638,9.3266,-0.0505,-0.0034,-0.106,-2.0846411190428675,-6.47248380118981e-05,4.147146701812744,-1.4174526929855347,8.744548540562391e-05,2.0315589904785156,5.0453257141406915,7.834302450010265e-27,0.2643195390701294,-1.5072205702411097,-1.0856813368568718e-17,-0.0054169027134776115,-0.3005626837359827,-0.0,-0.00944584235548973,1.1995229721069336,-0.004549036733806133,-0.0006960676982998848
203.0,177.0,0.1346,-0.2638,9.3266,-0.0505,-0.0034,-0.106,-2.0846573315062464,-6.14124583080411e-05,4.214598655700684,-1.4175084829330444,8.339421037817374e-05,2.058049440383911,5.045313346176901,2.1807069661426507e-30,0.25597041845321655,-1.507132355366842,-3.022033484076987e-21,-0.027780942618846893,-0.30050975481142217,-0.0,-0.0031338173430413008,1.1995476484298706,-0.004159390926361084,-0.04945940896868706
203.0,177.0,0.1346,-0.2638,9.3266,-0.0505,-0.0034,-0.106,-2.0846811733641566,-5.842257451149635e-05,4.1324076652526855,-1.4174402952194214,7.970167644089088e-05,2.0444939136505127,5.0452933488185785,6.07007696267115e-34,0.2667240500450134,-1.507132355366842,-8.411942334962132e-25,-0.00868435949087143,-0.30053455034364873,-0.0,-0.004059983417391777,1.199499487876892,-0.002792632905766368,0.013835606165230274
203.0,177.0,0.1346,-0.2638,9.3266,-0.0505,-0.0034,-0.106,-2.084713121453756,-2.7869260520674288e-05,4.123283863067627,-1.4174485206604004,7.525870023528114e-05,2.0644545555114746,5.045285093575277,1.1032066879819346e-38,0.2583380937576294,-1.5071609655963343,-1.5288287686116617e-29,-0.015601282939314842,-0.3005302588092249,-0.0,0.009043198078870773,1.1994915008544922,-0.002207946265116334,-0.028283677995204926
193.0,187.0,-0.6604,-0.3111,9.5856,-0.04,0.0107,-0.1205,-2.0846768818297328,-2.5500137780909427e-05,4.2010369300842285,-1.4174402952194214,7.223842840176076e-05,2.0753157138824463,5.045313346176901,3.070244935335674e-42,0.2680359482765198,-1.507132355366842,-4.255551097469739e-33,-0.006183760240674019,-0.3005183378802698,-0.0,-7.462641224265099e-05,1.199495553970337,-0.0023869178257882595,0.04183486849069595
193.0,187.0,-0.6604,-0.3111,9.5856,-0.04,0.0107,-0.1205,-2.0847093067564906,-4.580428867484443e-05,4.192669868469238,-1.4174237251281738,6.856935215182602e-05,2.056704521179199,5.045269089728155,0.0,0.2650114893913269,-1.5071566740619105,-7.734254997513022e-38,-0.0240660198032856,-0.30055076280702764,-0.0,0.00042250240221619606,1.199439525604248,-0.002201843075454235,-0.005315802991390228
193.0,187.0,-0.6604,-0.3111,9.5856,-0.04,0.0107,-0.1205,-2.084713121453756,-4.2559269786579534e-05,4.182397365570068,-1.417464017868042,6.60531732137315e-05,2.037532329559326,5.0452933488185785,0.0,0.2696589231491089,-1.5072205702411097,-2.1528148307422165e-41,-0.018034152686595917,-0.3005426565753382,-0.0,0.002984213177114725,1.1994513273239136,-0.0018218128243461251,0.018641268834471703
193.0,187.0,-0.6604,-0.3111,9.5856,-0.04,0.0107,-0.1205,-2.0846768818297328,-3.8881909858901054e-05,4.204239845275879,-1.417419672012329,6.297212530625984e-05,2.0261359214782715,5.04530559757308,0.0,0.27177613973617554,-1.5071728865252894,-0.0,-0.014274287037551403,-0.3005746046649378,-0.0,0.009596304967999458,1.1994318962097168,-0.0013661005068570375,0.020729750394821167
193.0,187.0,-0.6604,-0.3111,9.5856,-0.04,0.0107,-0.1205,-2.0846406422057093,-3.651562656159513e-05,4.189271926879883,-1.417464017868042,7.084658136591315e-05,2.1117115020751953,5.045252638846197,0.0,0.258964478969574,-1.5071447531329554,-0.0,-0.03164979815483093,-0.30053836504091436,-0.0,0.001966913230717182,1.1993796825408936,-0.001309834886342287,0.0087664183229208
193.0,187.0,-0.6604,-0.3111,9.5856,-0.04,0.0107,-0.1205,-2.084673067132467,-3.3774929761420935e-05,4.1346755027771,-1.417436122894287,6.517978908959776e-05,2.0243310928344727,5.04533343294219,0.0,0.2686886191368103,-1.507216755543844,-0.0,-0.021535800769925117,-0.30057078996767217,-0.0,-0.005674219224601984,1.1994036436080933,-0.0010903835063800216,0.039950378239154816
193.0,187.0,-0.6604,-0.3111,9.5856,-0.04,0.0107,-0.1205,-2.084721704522604,-3.197504338459112e-05,4.192807197570801,-1.4174319505691528,9.574495925335214e-05,2.1125597953796387,5.045269089728155,0.0,0.26115620136260986,-1.507148567830221,-0.0,-0.0002989182248711586,-0.30057031313051397,-0.0,-0.0065334211103618145,1.1993876695632935,-0.0009591606794856489,0.013126014731824398
193.0,187.0,-0.6604,-0.3111,9.5856,-0.04,0.0107,-0.1205,-2.084688802758688,-3.0357276045833714e-05,4.157547950744629,-1.417412281036377,0.0007085090619511902,2.0149829387664795,5.045285093575277,0.0,0.2632606625556946,-1.5071609655963343,-0.0,-0.014659598469734192,-0.30055076280702764,-0.0,0.01166653260588646,1.1994516849517822,-0.000933443196117878,0.0269157811999321
193.0,187.0,-0.6604,-0.3111,9.5856,-0.04,0.0107,-0.1205,-2.0846930942931117,-1.4219398508430459e-05,4.166670322418213,-1.417464017868042,0.0006436608964577317,2.089931011199951,5.04528101065711,0.0,0.27268481254577637,-1.507176701222555,-0.0,-0.00780227966606617,-0.30049449602235967,-0.0,-0.011978456750512123,1.199375867843628,-0.0006930720410309732,0.03746584430336952
193.0,187.0,-0.6604,-0.3111,9.5856,-0.04,0.0107,-0.1205,-2.0846768818297328,-1.357593555439962e-05,4.172415733337402,-1.4173916578292847,0.0006248211138881743,2.0406885147094727,5.045329350024023,0.0,0.26878035068511963,-1.5071843306170862,-0.0,-0.017698515206575394,-0.30053836504091436,-3.623921829287724e-09,-0.004180199932307005,1.1993392705917358,-0.000657362281344831,-0.008526386693120003
193.0,187.0,-0.6604,-0.3111,9.5856,-0.04,0.0107,-0.1205,-2.0846649609007777,-1.280341803067131e-05,4.117124557495117,-1.4173760414123535,0.0005737674655392766,2.0258963108062744,5.045317429095068,0.0,0.2729942500591278,-1.5071848074542444,-0.0,-0.007454482838511467,-0.30058604875673467,-6.586299160140502e-14,0.000939245568588376,1.1994118690490723,-0.0006212628213688731,-0.026581518352031708
193.0,187.0,-0.6604,-0.3111,9.5856,-0.04,0.0107,-0.1205,-2.0846368275084437,-1.2279361726541538e-05,4.145936965942383,-1.4174039363861084,0.0005938188987784088,2.0616984367370605,5.045253085881033,0.0,0.2658524513244629,-1.5072043577777308,-0.0,-0.019007068127393723,-0.30052215257753545,-1.8333205925790453e-17,-0.015864480286836624,1.1994041204452515,-0.0007044103695079684,-0.01938084326684475
193.0,187.0,-0.6604,-0.3111,9.5856,-0.04,0.0107,-0.1205,-2.084673067132467,-2.3129558030632325e-05,4.170838356018066,-1.4174282550811768,0.0004126130079384893,2.0222742557525635,5.045337605267324,0.0,0.2679680585861206,-1.50718862215151,-0.0,-0.021491490304470062,-0.30058175722231084,-3.331968982020398e-22,-0.007435465697199106,1.1993680000305176,-0.0006188758998177946,-0.025086089968681335
198.0,183.0,-0.6909,0.0401,9.6317,-0.0304,0.022,-0.1191,-2.0846768818297328,-2.2417729269363917e-05,4.201337814331055,-1.4173792600631714,0.0003356545639690012,2.058457374572754,5.0452973423297784,0.0,0.2616922855377197,-1.5071647802936,-0.0,-0.013215756043791771,-0.30055076280702764,-9.274658000503649e-26,0.01232506800442934,1.1993839740753174,-0.0005470150499604642,0.011059485375881195
198.0,183.0,-0.6909,0.0401,9.6317,-0.0304,0.022,-0.1191,-2.084700723687643,-2.1610325347865e-05,4.189243316650391,-1.417415976524353,0.00028289484907872975,2.027878761291504,5.045317429095068,0.0,0.26611512899398804,-1.5071647802936,-0.0,-0.008342511020600796,-0.300514046345846,-2.581635062518852e-29,-0.011754623614251614,1.1993639469146729,-0.0005135066458024085,-0.02277791127562523
198.0,183.0,-0.6909,0.0401,9.6317,-0.0304,0.022,-0.1191,-2.084700723687643,-3.0882398277753964e-05,4.176674842834473,-1.4174081087112427,0.00023388034605886787,2.0863378047943115,5.04530559757308,0.0,0.2674717605113983,-1.50718862215151,-0.0,-0.01974489353597164,-0.30058604875673467,-4.691993966501815e-34,-0.008946706540882587,1.1993720531463623,-0.0004961654194630682,-0.007821484468877316
198.0,183.0,-0.6909,0.0401,9.6317,-0.0304,0.022,-0.1191,-2.0847093067564906,-2.9902526875957847e-05,4.130710601806641,-1.4174081087112427,0.00020698450680356473,2.0525615215301514,5.045281040459432,0.0,0.2594819962978363,-1.5071490446673792,-0.0,-0.017553135752677917,-0.30055457750429326,-1.3060340468765616e-37,-0.005227099172770977,1.1993237733840942,-0.0007153794285841286,-0.0376996174454689
198.0,183.0,-0.6909,0.0401,9.6317,-0.0304,0.022,-0.1191,-2.0847255192198695,-6.87692518113181e-05,4.203190803527832,-1.4174364805221558,0.00014956190716475248,2.0467734336853027,5.04530559757308,0.0,0.2641589343547821,-1.5071566740619105,-0.0,-0.008513170294463634,-0.300514046345846,-2.37379959856624e-42,0.010309362784028053,1.1993319988250732,-0.002136958995833993,0.046741876751184464
198.0,183.0,-0.6909,0.0401,9.6317,-0.0304,0.022,-0.1191,-2.084721704522604,-9.264820982934907e-05,4.185399055480957,-1.4174201488494873,0.0001359963498543948,2.070831298828125,5.045285093575277,0.0,0.2576585114002228,-1.5071528593646448,-0.0,-0.015332856215536594,-0.30053455034364873,-0.0,-0.00022985495161265135,1.199344277381897,-0.0036311009898781776,-0.03648032993078232
198.0,183.0,-0.6909,0.0401,9.6317,-0.0304,0.022,-0.1191,-2.0847050152220667,-0.0007735341787338257,4.1714301109313965,-1.4173916578292847,0.00012132918345741928,2.0324673652648926,5.0452933488185785,0.0,0.27407389879226685,-1.507148567830221,-0.0,-0.01606561802327633,-0.3005464712726038,-0.0,0.013250308111310005,1.1992316246032715,-0.005463459528982639,0.008004657924175262
198.0,183.0,-0.6909,0.0401,9.6317,-0.0304,0.022,-0.1191,-2.084701200524801,-0.001046028221026063,4.145659446716309,-1.4174283742904663,0.0001122499888879247,2.094338893890381,5.045249032765188,0.0,0.2713547348976135,-1.5071647802936,-0.0,-0.010910416021943092,-0.30058604875673467,-0.0,-0.004762426950037479,1.1992521286010742,-0.006903247442096472,-0.06249714642763138
198.0,183.0,-0.6909,0.0401,9.6317,-0.0304,0.022,-0.1191,-2.084769388238424,-0.0012399390107020736,4.1573286056518555,-1.4174081087112427,0.00010443454812048003,2.0285000801086426,5.045277344971456,0.0,0.2597385346889496,-1.5071285406695765,-0.0,-0.03327611833810806,-0.30052262941469365,-0.0,0.001725918147712946,1.1992201805114746,-0.008225430734455585,-0.008108491078019142
198.0,183.0,-0.6909,0.0401,9.6317,-0.0304,0.022,-0.1191,-2.084813734094137,-0.002023231005296111,4.162527561187744,-1.4174401760101318,0.00011458648077677935,2.105612277984619,5.045281427889623,0.0,0.26459750533103943,-1.507132355366842,-0.0,-0.02329862117767334,-0.3004987875567835,-0.0,-0.018260136246681213,1.1990962028503418,-0.01083692442625761,-0.01583082601428032
198.0,183.0,-0.6909,0.0401,9.6317,-0.0304,0.022,-0.1191,-2.084756990472311,-0.0028150812722742558,4.143869876861572,-1.417415976524353,0.0001078077984857373,1.9925169944763184,5.045212673931875,0.0,0.27063247561454773,-1.507120434437887,-0.0,-0.016773885115981102,-0.30052215257753545,-0.0,0.000988825922831893,1.1990164518356323,-0.011716773733496666,-0.03887888416647911
198.0,183.0,-0.6909,0.0401,9.6317,-0.0304,0.022,-0.1191,-2.0847846470274867,-0.00320315919816494,4.170748710632324,-1.4174485206604004,9.983535710489377e-05,2.054823398590088,5.045249092369833,0.0,0.26599258184432983,-1.507136646901266,-0.0,-0.021207991987466812,-0.30053836504091436,-0.0,0.0033119111321866512,1.1989567279815674,-0.013715680688619614,-0.038378339260816574
198.0,183.0,-0.6909,0.0401,9.6317,-0.0304,0.022,-0.1191,-2.0848332844176234,-0.0033657741732895374,4.146518707275391,-1.417424201965332,9.458918066229671e-05,2.0364065170288086,5.0452007232005975,-0.0002696258598007262,0.25620266795158386,-1.5071209112750452,-0.0,-0.011092862114310265,-0.3004983107196253,-0.0,0.009548865258693695,1.198852777481079,-0.014776887372136116,0.04047418385744095
204.0,187.0,-0.7789,0.0281,9.67,-0.0301,0.0182,-0.1347,-2.0848852596678675,-0.0028644250705838203,4.1209492683410645,-1.4173916578292847,8.839571819407865e-05,2.0903873443603516,5.045265424042501,-0.0002618853759486228,0.2675098478794098,-1.507132355366842,-0.0,-0.01815391331911087,-0.3004663626300257,-0.0,0.003147122450172901,1.1987289190292358,-0.015957582741975784,-0.027147047221660614
204.0,187.0,-0.7789,0.0281,9.67,-0.0301,0.0182,-0.1347,-2.084892889062399,-0.00254262238740921,4.156221389770508,-1.417424201965332,9.823557047639042e-05,2.0653040409088135,5.0452090976531885,-0.0002667062799446285,0.2610539495944977,-1.5071647802936,-0.0,-0.006543301045894623,-0.3005150000201624,-0.0,0.0042836894281208515,1.1986453533172607,-0.01639968529343605,-0.0020743561908602715
204.0,187.0,-0.7789,0.0281,9.67,-0.0301,0.0182,-0.1347,-2.084917207757467,-0.0023699526209384203,4.171656608581543,-1.417415976524353,9.390529885422438e-05,2.0310745239257812,5.045249271183767,-0.0003726756840478629,0.24912208318710327,-1.5071128050433558,-0.0,-0.02174856886267662,-0.3005021254168909,-0.0,0.005934735760092735,1.1984847784042358,-0.017285043373703957,0.00010936800390481949
204.0,187.0,-0.7789,0.0281,9.67,-0.0301,0.0182,-0.1347,-2.0849129162230433,-0.002058503683656454,4.132021903991699,-1.417436122894287,8.862162940204144e-05,2.0402889251708984,5.045217263489523,-0.000425965990871191,0.2633705139160156,-1.507148567830221,-0.0,-0.013327931985259056,-0.30049020448793584,-2.1963253402645933e-06,0.0003265608102083206,1.1983692646026611,-0.01895459182560444,0.028769126161932945
204.0,187.0,-0.7789,0.0281,9.67,-0.0301,0.0182,-0.1347,-2.0849491558470667,-0.001952821621671319,4.157896041870117,-1.417412281036377,8.503323624609038e-05,2.0673956871032715,5.045233267336645,-0.0005763106164522469,0.2476874589920044,-1.5071128050433558,-0.0,-0.008964813314378262,-0.30050641695131475,2.420860982965678e-05,0.02250186912715435,1.1982576847076416,-0.020472047850489616,0.018675992265343666
204.0,187.0,-0.7789,0.0281,9.67,-0.0301,0.0182,-0.1347,-2.0849887333311976,-0.002288048854097724,4.123806953430176,-1.417415976524353,8.06776006356813e-05,2.040778398513794,5.04518489816741,-0.0006005607428960502,0.24938634037971497,-1.507120434437887,-0.0,-0.016532307490706444,-0.3005021254168909,3.4084063372574747e-05,0.01319633238017559,1.1981340646743774,-0.02208567224442959,-0.0021822177805006504
204.0,187.0,-0.7789,0.0281,9.67,-0.0301,0.0182,-0.1347,-2.0849443874754847,-0.0022738270927220583,4.115101337432861,-1.417376160621643,7.769283547531813e-05,2.1153740882873535,5.045269715576925,-0.000622193852905184,0.2363772988319397,-1.5071647802936,-0.0,-0.03088243491947651,-0.30050641695131475,4.416853698785417e-05,0.025438351556658745,1.1979503631591797,-0.02231881208717823,-0.04007304087281227
204.0,187.0,-0.7789,0.0281,9.67,-0.0301,0.0182,-0.1347,-2.085024972955221,-0.002810842590406537,4.0951080322265625,-1.4174402952194214,8.461775723844767e-05,2.064873218536377,5.045245247870245,-0.0007420306210406125,0.23198552429676056,-1.5071447531329554,-0.0,-0.01808232069015503,-0.3004825750934046,5.271299960440956e-05,0.031383585184812546,1.1977791786193848,-0.023197492584586143,0.006781293079257011
204.0,187.0,-0.7789,0.0281,9.67,-0.0301,0.0182,-0.1347,-2.0850655041136683,-0.003607749240472913,4.0661540031433105,-1.4174163341522217,8.173628157237545e-05,2.0742571353912354,5.045201229840078,-0.0007051595603115857,0.22254498302936554,-1.5071008841144007,-0.0,-0.018686002120375633,-0.3004863897906702,0.0002621870662551373,0.03466819226741791,1.197655439376831,-0.023241518065333366,0.02711930312216282
204.0,187.0,-0.7789,0.0281,9.67,-0.0301,0.0182,-0.1347,-2.085076948205465,-0.003875906579196453,4.095880508422852,-1.4173884391784668,5.298964606481604e-05,2.0599944591522217,5.0451849577720544,-0.0006426548352465034,0.2293611764907837,-1.5070927778827112,-0.0,-0.008605245500802994,-0.30046254793276006,0.00027105925255455077,0.03135790303349495,1.1975078582763672,-0.02314748428761959,0.003912271466106176
204.0,187.0,-0.7789,0.0281,9.67,-0.0301,0.0182,-0.1347,-2.085108896295065,-0.004593444988131523,4.06218957901001,-1.4174039363861084,5.0606013246579096e-05,2.066357374191284,5.04522134640769,-0.0005838829092681408,0.22598972916603088,-1.5070846716510218,-0.0,-0.013941715471446514,-0.30049449602235967,0.00029859933420084417,0.03705068677663803,1.1973199844360352,-0.023011578246951103,-0.03290833160281181
204.0,187.0,-0.7789,0.0281,9.67,-0.0301,0.0182,-0.1347,-2.0851127109923304,-0.00415696669369936,4.056386470794678,-1.4174283742904663,2.7185123485651275e-07,2.0007095336914062,5.045177179365911,-0.0006158512551337481,0.22147780656814575,-1.5071046988116663,-0.0,-0.024771764874458313,-0.30045825639833623,0.0004334690165705979,0.04154700040817261,1.1971521377563477,-0.02276260033249855,0.026882905513048172
204.0,187.0,-0.7789,0.0281,9.67,-0.0301,0.0182,-0.1347,-2.085173269311422,-0.0043450952507555485,4.058708190917969,-1.4174286127090454,8.807633238732716e-15,2.033454418182373,5.045177179365911,-0.0005597126437351108,0.21455511450767517,-1.5070846716510218,-0.0,-0.03414661064743996,-0.30040246645082647,0.00046701147221028805,0.051607027649879456,1.1969850063323975,-0.020349698141217232,0.003106925403699279
190.0,187.0,-0.5916,-0.1125,9.81,-0.0403,0.0101,-0.1486,-2.0851808987059535,-0.004178738221526146,4.040024757385254,-1.4173802137374878,0.0002671615220606327,2.038665533065796,5.045197266131201,-0.0005049491883255541,0.21574413776397705,-1.507108513508932,-0.0,-0.01810486987233162,-0.3004344145404261,0.0006189735722728074,0.05824051797389984,1.1968567371368408,-0.01851452700793743,0.006712005008012056
190.0,187.0,-0.5916,-0.1125,9.81,-0.0403,0.0101,-0.1486,-2.0852371654906214,-0.0037169931456446648,4.062354564666748,-1.4173803329467773,0.0002591678930912167,2.027639627456665,5.045197266131201,-0.0004430000844877213,0.22229255735874176,-1.5070770422564905,-0.0,-0.021672900766134262,-0.30049449602235967,0.000502003647852689,0.05783061683177948,1.1966973543167114,-0.01614910177886486,-0.017416058108210564
190.0,187.0,-0.5916,-0.1125,9.81,-0.0403,0.0101,-0.1486,-2.0852085552611292,-0.0026987921446561813,4.0296430587768555,-1.4173760414123535,0.00028907781234011054,2.081935405731201,5.04518951752738,-0.0004146881401538849,0.20728087425231934,-1.507068936024801,-0.0,-0.02608928270637989,-0.30039817491640264,0.0004636968078557402,0.05833830311894417,1.1966257095336914,-0.014584307558834553,0.0478021465241909
190.0,187.0,-0.5916,-0.1125,9.81,-0.0403,0.0101,-0.1486,-2.0852490864195765,-0.00212784088216722,4.013943672180176,-1.4173637628555298,0.0002682936319615692,1.997657060623169,5.045197295933523,-0.0003925561031792313,0.2004850208759308,-1.5071046988116663,-0.0,-0.02852248027920723,-0.30041438737978154,0.00037557558971457183,0.0689532607793808,1.1965298652648926,-0.013377937488257885,0.024488123133778572
190.0,187.0,-0.5916,-0.1125,9.81,-0.0403,0.0101,-0.1486,-2.08520044902944,-0.0019815005362033844,4.064962387084961,-1.4173600673675537,0.0002334917226107791,2.09323787689209,5.045201349049368,-0.0003292279434390366,0.21819733083248138,-1.5070965925799769,-0.0,-0.035822246223688126,-0.3004544417010706,0.0002796989574562758,0.06918708980083466,1.1964101791381836,-0.013214276172220707,0.07375594228506088
190.0,187.0,-0.5916,-0.1125,9.81,-0.0403,0.0101,-0.1486,-2.0852567158141078,-0.001506212749518454,4.030826568603516,-1.4174609184265137,0.00021278981876093894,2.048955202102661,5.045181262284078,-0.00027063029119744897,0.20971795916557312,-1.5071166197406214,-0.0,-0.042285796254873276,-0.3004344145404261,0.00028275480144657195,0.059934038668870926,1.1962941884994507,-0.01214255578815937,0.06057078391313553
190.0,187.0,-0.5916,-0.1125,9.81,-0.0403,0.0101,-0.1486,-2.08522429088735,-0.00101565383374691,4.043437957763672,-1.4173760414123535,0.0001968006108654663,2.0786120891571045,5.045173513680258,-0.00026176165556535125,0.1978934407234192,-1.5070532003985804,-0.0,-0.03767568990588188,-0.300394360219137,0.0002338554331799969,0.06395647674798965,1.196250557899475,-0.01318101491779089,-0.00887664407491684
190.0,187.0,-0.5916,-0.1125,9.81,-0.0403,0.0101,-0.1486,-2.0852610073485316,-0.0007865981315262616,4.022405624389648,-1.4174039363861084,0.00019776480621658266,2.048158645629883,5.045181262284078,-0.00022852230176795274,0.21414363384246826,-1.5070808569537562,-0.0,-0.027853213250637054,-0.3004105726825159,0.0002414136688457802,0.070399209856987,1.1961383819580078,-0.012627755291759968,0.03177502006292343
190.0,187.0,-0.5916,-0.1125,9.81,-0.0403,0.0101,-0.1486,-2.0852366886534632,-0.0005997435073368251,4.0356340408325195,-1.4173600673675537,0.0002117771073244512,2.068509340286255,5.045177238970556,-0.00019543430244084448,0.20516681671142578,-1.5071128050433558,-0.0,-0.03266482055187225,-0.3003905455218714,0.0002093550137942657,0.06478331983089447,1.196058988571167,-0.012626559473574162,0.014576466754078865
190.0,187.0,-0.5916,-0.1125,9.81,-0.0403,0.0101,-0.1486,-2.0852610073485316,-0.0004798109584953636,4.041253566741943,-1.4173439741134644,0.00042260103509761393,2.054147243499756,5.045193600445547,-0.00017629076319281012,0.21619413793087006,-1.5070770422564905,-0.0,-0.03535132855176926,-0.3004229704486292,0.00019037442689295858,0.08173991739749908,1.1959426403045654,-0.011930194683372974,0.0029576048254966736
190.0,187.0,-0.5916,-0.1125,9.81,-0.0403,0.0101,-0.1486,-2.085264822045797,-0.0003437381819821894,4.12114143371582,-1.4173399209976196,0.0004686154134105891,2.0881290435791016,5.045209663897314,-0.00016056359163485467,0.22056782245635986,-1.5071046988116663,-0.0,-0.04151272773742676,-0.3004863897906702,0.00017454932094551623,0.07796734571456909,1.1959352493286133,-0.011130337603390217,-0.024810997769236565
190.0,187.0,-0.5916,-0.1125,9.81,-0.0403,0.0101,-0.1486,-2.0852767429747523,-0.00024522747844457626,4.061174392700195,-1.417335867881775,0.0008105341112241149,2.060389757156372,5.045181292086401,-0.00014349541743285954,0.22005347907543182,-1.5070846716510218,-0.0,-0.030066650360822678,-0.3004263083087366,0.0001571339089423418,0.08767955750226974,1.1958032846450806,-0.009153689257800579,0.060456227511167526
190.0,187.0,-0.5916,-0.1125,9.81,-0.0403,0.0101,-0.1486,-2.085268636743063,-0.00021076740813441575,4.043727874755859,-1.4173444509506226,0.0008678572485223413,2.070711612701416,5.045181262284078,-0.00013290010974742472,0.21893095970153809,-1.5071008841144007,-0.0,-0.034952208399772644,-0.3004863897906702,0.00016568310093134642,0.07105118781328201,1.1957874298095703,-0.007740638684481382,0.022442273795604706
201.0,182.0,-0.4325,-0.2907,9.4229,-0.0316,0.0254,-0.1413,-2.0852447948851527,-0.00021300801017787308,4.064253330230713,-1.4173681735992432,0.0007966067059896886,2.061241626739502,5.0451329229171655,-0.0001209889305755496,0.22480300068855286,-1.5070889631854456,-0.0,-0.04418383166193962,-0.3004186789142054,0.0001528871653135866,0.07327799499034882,1.195723533630371,-0.0069944062270224094,0.0029516732320189476
201.0,182.0,-0.4325,-0.2907,9.4229,-0.0316,0.0254,-0.1413,-2.085268636743063,-0.00019046942179556936,4.059998512268066,-1.4173595905303955,0.0007912431028671563,2.0674479007720947,5.045226025372305,-0.00011336844181641936,0.22208943963050842,-1.5071046988116663,-0.0,-0.03434161841869354,-0.30043059984316045,0.00014373094018083066,0.082079216837883,1.195736050605774,-0.005784413777291775,0.010183505713939667
201.0,182.0,-0.4325,-0.2907,9.4229,-0.0316,0.0254,-0.1413,-2.0852567158141078,-0.00021301518427208066,4.050605297088623,-1.4173439741134644,0.0006043028552085161,2.070816993713379,5.045153039484777,-0.00010458553151693195,0.21061019599437714,-1.5071285406695765,-0.0,-0.03754139691591263,-0.3004105726825159,0.00013310233771335334,0.07670930027961731,1.1957119703292847,-0.005503923166543245,0.021543696522712708
201.0,182.0,-0.4325,-0.2907,9.4229,-0.0316,0.0254,-0.1413,-2.0852767429747523,-0.00020367064280435443,4.038434028625488,-1.4172881841659546,0.00044713428360410035,2.0618691444396973,5.04514159539298,-9.884237078949809e-05,0.22136621177196503,-1.507176701222555,-0.0,-0.042413756251335144,-0.30038625398744756,0.0001261084689758718,0.08075354993343353,1.195631980895996,-0.0056161219254136086,0.083640456199646
201.0,182.0,-0.4325,-0.2907,9.4229,-0.0316,0.0254,-0.1413,-2.0852118931212367,-0.00018543908663559705,4.0856146812438965,-1.417364239692688,0.000389411230571568,2.0316765308380127,5.045133340149679,-0.00010878661851165816,0.2298119217157364,-1.5070727507220667,-0.0,-0.03354852646589279,-0.3004229704486292,9.477260027779266e-05,0.0845351368188858,1.1955918073654175,-0.006095113232731819,-0.0032700032461434603
201.0,182.0,-0.4325,-0.2907,9.4229,-0.0316,0.0254,-0.1413,-2.085280557672018,-0.0002228578377980739,4.063025951385498,-1.4173362255096436,0.0003628561971709132,2.0615217685699463,5.045169341355123,-9.531024261377752e-05,0.21404027938842773,-1.5070727507220667,-0.0,-0.0435316264629364,-0.30040246645082647,8.590646757511422e-05,0.0858682245016098,1.1955684423446655,-0.0060491724871098995,0.0296211875975132
201.0,182.0,-0.4325,-0.2907,9.4229,-0.0316,0.0254,-0.1413,-2.0852486095824183,-0.00045422028051689267,4.075864791870117,-1.4173481464385986,0.00031395809492096305,2.0843958854675293,5.045141178160467,-0.00013405219942796975,0.21717247366905212,-1.507108513508932,-0.0,-0.04144417122006416,-0.30037051836122686,8.125298336381093e-05,0.0803595632314682,1.1955041885375977,-0.005700303241610527,0.008720499463379383
201.0,182.0,-0.4325,-0.2907,9.4229,-0.0316,0.0254,-0.1413,-2.0852443180479945,-0.0005178896826691926,4.065133094787598,-1.4174213409423828,0.0002697701856959611,2.0158419609069824,5.0451374528701685,-0.0009434304083697498,0.2142922431230545,-1.507136646901266,-0.0,-0.050168052315711975,-0.3003743330584925,7.577965152449906e-05,0.08639823645353317,1.1954439878463745,-0.005526120774447918,0.034292224794626236
201.0,182.0,-0.4325,-0.2907,9.4229,-0.0316,0.0254,-0.1413,-2.085288187066549,-0.000665553379803896,4.0408101081848145,-1.4173283576965332,0.00022780355357099324,2.0311827659606934,5.045105087548055,-0.0018804590217769146,0.20831167697906494,-1.5070770422564905,-0.0,-0.029373224824666977,-0.3004420439349573,8.655832061776891e-05,0.09243747591972351,1.1954004764556885,-0.00518198823556304,0.022817442193627357
201.0,182.0,-0.4325,-0.2907,9.4229,-0.0316,0.0254,-0.1413,-2.085280557672018,-0.0008594829705543816,4.048004150390625,-1.4173200130462646,0.0001894403394544497,1.9760630130767822,5.045044648438253,-0.002534283557906747,0.2197183072566986,-1.5071285406695765,-0.0,-0.028632905334234238,-0.30044299760927373,8.13465376268141e-05,0.07494805753231049,1.19538414478302,-0.004153246991336346,0.002926858142018318
201.0,182.0,-0.4325,-0.2907,9.4229,-0.0316,0.0254,-0.1413,-2.085316320458883,-0.0013264865847304463,4.047018527984619,-1.4173402786254883,0.0001681972062215209,2.082995891571045,5.045012998371877,-0.0030925439205020666,0.20671844482421875,-1.5070846716510218,-0.0,-0.045461200177669525,-0.30043059984316045,7.782917964505032e-05,0.08628489077091217,1.1953643560409546,-0.0034096629824489355,-0.0026277550496160984
201.0,182.0,-0.4325,-0.2907,9.4229,-0.0316,0.0254,-0.1413,-2.085288187066549,-0.0020231737289577723,4.088698863983154,-1.41731595993042,0.00014632055535912514,2.007688045501709,5.045073377877035,-0.003206660272553563,0.2042718231678009,-1.507045094166891,-0.0,-0.02343980222940445,-0.3003786245929163,8.5439532995224e-05,0.10213310271501541,1.1953325271606445,-0.0036140314768999815,0.011229210533201694
201.0,182.0,-0.4325,-0.2907,9.4229,-0.0316,0.0254,-0.1413,-2.0853406391539515,-0.0029780669137835503,4.07652473449707,-1.417332410812378,0.00013331563968677074,2.0584592819213867,5.045106220036306,-0.002742605982348323,0.1994483470916748,-1.5070489088641565,-0.0,-0.028743214905261993,-0.3004267851458948,8.247933146776631e-05,0.10421057045459747,1.195328712463379,-0.004771082196384668,0.040804360061883926
195.0,181.0,-0.5551,-0.1322,9.5557,-0.0334,0.0279,-0.1319,-2.0853482685484828,-0.004044798202812672,4.031613826751709,-1.4172881841659546,0.00014691923570353538,2.031726837158203,5.0450090048606775,-0.0018946378258988261,0.20645537972450256,-1.5070808569537562,-0.0,-0.034646883606910706,-0.3004186789142054,7.936243491712958e-05,0.0847613513469696,1.1953328847885132,-0.005295325070619583,0.002528802491724491
195.0,181.0,-0.5551,-0.1322,9.5557,-0.0334,0.0279,-0.1319,-2.08541264156484,-0.005625204648822546,4.0057878494262695,-1.4173036813735962,0.0001325006887782365,2.0322842597961426,5.045001226454534,-0.0010869901161640882,0.20483249425888062,-1.5071008841144007,-0.0,-0.032540690153837204,-0.30044681230653936,7.555530464742333e-05,0.09288255125284195,1.1952325105667114,-0.005904377903789282,-0.07971245795488358
195.0,181.0,-0.5551,-0.1322,9.5557,-0.0334,0.0279,-0.1319,-2.0854526958861292,-0.006981845945119858,4.004482269287109,-1.4173485040664673,0.00012341595720499754,2.0833029747009277,5.044981169491567,-0.0007533585303463042,0.2029344141483307,-1.507068936024801,-0.0,-0.030178193002939224,-0.3004186789142054,7.29313469491899e-05,0.09678643941879272,1.1952166557312012,-0.006495224311947823,-0.06186733394861221
195.0,181.0,-0.5551,-0.1322,9.5557,-0.0334,0.0279,-0.1319,-2.0855208835997523,-0.006828390061855316,4.007089614868164,-1.4172921180725098,0.0001130783639382571,2.0550506114959717,5.044972884445944,-0.0004934451426379383,0.20726178586483002,-1.5070889631854456,-0.0,-0.021575480699539185,-0.30035478273500615,7.965853001223877e-05,0.10558289289474487,1.195189118385315,-0.008336877450346947,-0.07712983340024948
195.0,181.0,-0.5551,-0.1322,9.5557,-0.0334,0.0279,-0.1319,-2.085532327691549,-0.0076779392547905445,3.9759058952331543,-1.4172964096069336,0.00010639450920280069,2.0619606971740723,5.0449852524097345,-0.0004227093595545739,0.2104734480381012,-1.5070927778827112,-0.0,-0.03586655855178833,-0.3003461996661585,4.374408746343761e-08,0.09802250564098358,1.1951050758361816,-0.009499832056462765,-0.03389517962932587
195.0,181.0,-0.5551,-0.1322,9.5557,-0.0334,0.0279,-0.1319,-2.0856086216368617,-0.008029615506529808,4.010659217834473,-1.4173402786254883,9.862223669188097e-05,2.063777446746826,5.045021968870916,-0.0007824570056982338,0.20833179354667664,-1.5070808569537562,-0.0,-0.016604531556367874,-0.30039865175356084,7.950271300669054e-13,0.09800112247467041,1.195077657699585,-0.011153658851981163,-0.07449676096439362
195.0,181.0,-0.5551,-0.1322,9.5557,-0.0334,0.0279,-0.1319,-2.085680147210592,-0.008360102772712708,3.9932098388671875,-1.417332410812378,9.349947504233569e-05,2.0464649200439453,5.044941025763311,-0.0013384189223870635,0.20674389600753784,-1.5070489088641565,-0.0,-0.024630103260278702,-0.30040246645082647,2.212987262405249e-16,0.09704828262329102,1.1949330568313599,-0.012114892713725567,-0.07217870652675629
195.0,181.0,-0.5551,-0.1322,9.5557,-0.0334,0.0279,-0.1319,-2.0857731304564417,-0.008378495462238789,3.9910240173339844,-1.4173681735992432,8.888258889783174e-05,2.0586514472961426,5.044977175980367,-0.0015831644413992763,0.20969213545322418,-1.5070889631854456,-0.0,-0.0024014939554035664,-0.30043059984316045,6.159930657386288e-20,0.10142125189304352,1.194901704788208,-0.01444210670888424,-0.0490896999835968
195.0,181.0,-0.5551,-0.1322,9.5557,-0.0334,0.0279,-0.1319,-2.085780283013815,-0.008052590303122997,4.0148749351501465,-1.4173485040664673,8.339215128216892e-05,2.0261573791503906,5.044925260334768,-0.001593839842826128,0.1969679594039917,-1.5070532003985804,-0.0,-0.00845826044678688,-0.300394360219137,1.1195369013705265e-24,0.09802022576332092,1.194753885269165,-0.018877318128943443,-0.1383320391178131
195.0,181.0,-0.5551,-0.1322,9.5557,-0.0334,0.0279,-0.1319,-2.0858365497984828,-0.008156094700098038,4.016627788543701,-1.4173485040664673,7.969987200340256e-05,2.0377113819122314,5.0449575064475916,-0.0013587737921625376,0.2067744880914688,-1.5070846716510218,-0.0,-0.015524275600910187,-0.3003466765033167,3.116271891003912e-28,0.09731017053127289,1.1945617198944092,-0.02036409080028534,-0.10648226737976074
195.0,181.0,-0.5551,-0.1322,9.5557,-0.0334,0.0279,-0.1319,-2.085872312585348,-0.0064809368923306465,3.938197612762451,-1.4173119068145752,8.762915240367875e-05,2.042727470397949,5.044924843102255,-0.0012480032164603472,0.2000713348388672,-1.507068936024801,-0.0,0.0006198035553097725,-0.3003748098956507,5.663670637531972e-33,0.08723694086074829,1.1944503784179688,-0.023534828796982765,-0.15609890222549438
195.0,181.0,-0.5551,-0.1322,9.5557,-0.0334,0.0279,-0.1319,-2.085884233514303,-0.004909598734229803,3.9670605659484863,-1.417332410812378,8.427634020335972e-05,2.0969293117523193,5.044909286289968,-0.001279931515455246,0.2057296335697174,-1.507068936024801,-0.0,-0.005101178772747517,-0.3003585974322718,1.5765037305711415e-36,0.08535387367010117,1.1942665576934814,-0.025894323363900185,-0.14402000606060028
195.0,181.0,-0.5551,-0.1322,9.5557,-0.0334,0.0279,-0.1319,-2.0859605274596156,-0.0034495373256504536,4.000865459442139,-1.4173723459243774,7.999599620234221e-05,2.037036657333374,5.044889139920034,-0.0014713252894580364,0.20587335526943207,-1.507057015095846,-0.0,-0.014993555843830109,-0.300422493611471,2.8652349700049535e-41,0.09286491572856903,1.1940752267837524,-0.028624316677451134,-0.14121967554092407
190.0,187.0,-0.7956,0.2297,9.7711,-0.0228,0.0151,-0.1477,-2.085952421227926,-0.0025638937950134277,3.9827799797058105,-1.4172922372817993,7.706056931056082e-05,2.040358781814575,5.044893252640524,-0.0011945654405280948,0.19927887618541718,-1.5070412794696253,-0.0,-0.006487896200269461,-0.3003905455218714,8.407790785948902e-45,0.0963430404663086,1.1938393115997314,-0.031264811754226685,-0.1786535084247589
190.0,187.0,-0.7956,0.2297,9.7711,-0.0228,0.0151,-0.1477,-2.0860125027098597,-0.0020958920940756798,3.9568967819213867,-1.4172881841659546,8.480777614749968e-05,2.035660743713379,5.044905173569479,-0.0009546511573716998,0.2087709903717041,-1.507068936024801,-0.0,-0.018559467047452927,-0.30039865175356084,0.0,0.10002553462982178,1.1937159299850464,-0.03408794105052948,-0.2009705901145935
190.0,187.0,-0.7956,0.2297,9.7711,-0.0228,0.0151,-0.1477,-2.0859600506224574,-0.0014006235869601369,3.998723030090332,-1.4173283576965332,6.203418888617307e-05,2.0076279640197754,5.044909256487646,-0.0006309079471975565,0.19204604625701904,-1.5070808569537562,-0.0,-0.015383593738079071,-0.30038243929018194,0.0,0.09049426019191742,1.193408727645874,-0.0388685017824173,-0.20332184433937073
190.0,187.0,-0.7956,0.2297,9.7711,-0.0228,0.0151,-0.1477,-2.085968633691305,-0.0010313880629837513,3.9366683959960938,-1.417356252670288,7.900601485744119e-05,2.038426160812378,5.0448850868041895,-0.0004994880873709917,0.20031407475471497,-1.507045094166891,-0.0,-0.0066476305946707726,-0.30038673082460576,0.0,0.08731144666671753,1.1931169033050537,-0.04280630499124527,-0.2324536144733429
190.0,187.0,-0.7956,0.2297,9.7711,-0.0228,0.0151,-0.1477,-2.0859276256956996,-0.0007620714022777975,3.970001697540283,-1.417332410812378,0.0006606217357330024,2.060990571975708,5.044921177416601,-0.0003909485531039536,0.2084234356880188,-1.5070965925799769,-0.0,-0.01367154810577631,-0.30039817491640264,2.4993509214255027e-05,0.10616415739059448,1.192750096321106,-0.048905760049819946,-0.2131231129169464
190.0,187.0,-0.7956,0.2297,9.7711,-0.0228,0.0151,-0.1477,-2.08598055462026,-0.0006218259804882109,3.973876953125,-1.4173446893692017,0.0011599052231758833,2.086099147796631,5.04491342881278,-0.0003361690032761544,0.1996658444404602,-1.5070770422564905,-0.0,-0.010250180028378963,-0.30041438737978154,6.957035836308023e-09,0.10148757696151733,1.1924787759780884,-0.05276945233345032,-0.22975948452949524
190.0,187.0,-0.7956,0.2297,9.7711,-0.0228,0.0151,-0.1477,-2.0859443149962367,-0.0004895185120403767,3.977853298187256,-1.4172321557998657,0.00136424764059484,2.0423624515533447,5.044925260334768,-0.00028325695893727243,0.19603824615478516,-1.5070965925799769,-0.0,-0.01808806136250496,-0.3004348913775843,1.264406873473234e-13,0.09208494424819946,1.1919952630996704,-0.057022467255592346,-0.23704415559768677
190.0,187.0,-0.7956,0.2297,9.7711,-0.0228,0.0151,-0.1477,-2.0859762630858363,-0.00042174829286523163,3.989798069000244,-1.4172682762145996,0.001634525484405458,2.0215394496917725,5.044933098345556,-0.00025335027021355927,0.19262254238128662,-1.5070489088641565,-0.0,-0.019060470163822174,-0.30044252077211553,3.5195234736208394e-17,0.10024657845497131,1.1916239261627197,-0.059491753578186035,-0.21748265624046326
190.0,187.0,-0.7956,0.2297,9.7711,-0.0228,0.0151,-0.1477,-2.0859481296935023,-0.0003587053215596825,4.003945350646973,-1.4172723293304443,0.0018798962701112032,2.058267116546631,5.044876920967855,-0.00022915728914085776,0.20161107182502747,-1.5070846716510218,-0.0,-0.019274579361081123,-0.3003748098956507,9.796721662707453e-21,0.09624823927879333,1.1913414001464844,-0.062049031257629395,-0.2176085114479065
190.0,187.0,-0.7956,0.2297,9.7711,-0.0228,0.0151,-0.1477,-2.085940023461813,-0.0002335101889912039,3.958414077758789,-1.4172523021697998,0.0016516222385689616,2.0176522731781006,5.044897424965658,-0.00015322428953368217,0.20049315690994263,-1.5071046988116663,-0.0,-0.03191640228033066,-0.3004105726825159,1.7805057784405547e-25,0.09856775403022766,1.190733790397644,-0.06447618454694748,-0.1789092868566513
190.0,187.0,-0.7956,0.2297,9.7711,-0.0228,0.0151,-0.1477,-2.0859886608519496,-0.00024246332759503275,3.940274715423584,-1.4172645807266235,0.001523723010905087,2.0618553161621094,5.044897424965658,-0.00017699706950224936,0.19371196627616882,-1.5071046988116663,-0.0,-0.02546667866408825,-0.3004105726825159,4.956103558524492e-29,0.10283885151147842,1.190331220626831,-0.06815333664417267,-0.16995978355407715
190.0,187.0,-0.7956,0.2297,9.7711,-0.0228,0.0151,-0.1477,-2.085992475549215,-0.0002740036288741976,3.9621787071228027,-1.4171638488769531,0.001265756320208311,2.060055732727051,5.044885206013479,-0.0005611506057903171,0.193040668964386,-1.5071285406695765,-0.0,-0.036892570555210114,-0.3004387060748499,9.007473419015405e-34,0.09953097999095917,1.189784049987793,-0.07344276458024979,-0.1906641125679016
190.0,187.0,-0.7956,0.2297,9.7711,-0.0228,0.0151,-0.1477,-2.086024900475973,-0.00038893797318451107,3.961103916168213,-1.4172608852386475,0.0010500175412744284,2.096902847290039,5.044849055796423,-0.001399702625349164,0.19343742728233337,-1.5071128050433558,-0.0,-0.03060915879905224,-0.30039865175356084,2.507263300048113e-37,0.09184934198856354,1.1893810033798218,-0.07371249794960022,-0.19777849316596985
197.0,177.0,-0.6413,0.0353,9.5067,-0.0319,0.0089,-0.1869,-2.085996290246481,-0.0007139910012483597,3.931086301803589,-1.4172165393829346,0.0008464218117296696,2.0699288845062256,5.044873225479879,-0.0021468261256814003,0.19202566146850586,-1.5070489088641565,-0.0,-0.040454182773828506,-0.30040246645082647,4.557022605984305e-42,0.10946902632713318,1.188746690750122,-0.06809943914413452,-0.14418721199035645
197.0,177.0,-0.6413,0.0353,9.5067,-0.0319,0.0089,-0.1869,-2.0860125027098597,-0.0007733296952210367,3.9310190677642822,-1.4172526597976685,0.0007698623230680823,2.0603013038635254,5.044828998833456,-0.002502195304259658,0.17922988533973694,-1.5070808569537562,-0.0,-0.05730922892689705,-0.3003905455218714,1.401298464324817e-45,0.09756751358509064,1.1883676052093506,-0.06412206590175629,-0.11721865832805634
197.0,177.0,-0.6413,0.0353,9.5067,-0.0319,0.0089,-0.1869,-2.086024900475973,-0.0009199879714287817,3.9122061729431152,-1.417199969291687,0.0006934779230505228,2.0794034004211426,5.044776814966955,-0.002497164998203516,0.18726982176303864,-1.507108513508932,-0.0,-0.033709146082401276,-0.3003461996661585,0.0,0.09376397728919983,1.1879562139511108,-0.06243455037474632,-0.12616737186908722
197.0,177.0,-0.6413,0.0353,9.5067,-0.0319,0.0089,-0.1869,-2.086036821404928,-0.000998669071123004,3.994019031524658,-1.4172204732894897,0.000611641095019877,2.0067646503448486,5.044845479517736,-0.002353303600102663,0.18939319252967834,-1.5070846716510218,-0.0,-0.04758806899189949,-0.30040246645082647,0.0,0.11218509078025818,1.1874817609786987,-0.06720458716154099,-0.11626982688903809
197.0,177.0,-0.6413,0.0353,9.5067,-0.0319,0.0089,-0.1869,-2.0860287151732386,-0.0013622315600514412,3.896555185317993,-1.4171843528747559,0.0004914936143904924,2.0839719772338867,5.044821756869116,-0.0022366144694387913,0.17941921949386597,-1.5070727507220667,-0.0,-0.047513458877801895,-0.3003905455218714,0.0,0.10081028938293457,1.187041997909546,-0.0685880109667778,-0.09684180468320847
197.0,177.0,-0.6413,0.0353,9.5067,-0.0319,0.0089,-0.1869,-2.086048265496725,-0.0019803326576948166,3.8909974098205566,-1.4171559810638428,0.00041038534254767,2.0691394805908203,5.044793206244268,-0.0021967946086078882,0.1678854525089264,-1.5070965925799769,-0.0,-0.062351539731025696,-0.30046207109560186,0.0,0.10563483834266663,1.186563491821289,-0.06528341770172119,-0.12963135540485382
197.0,177.0,-0.6413,0.0353,9.5067,-0.0319,0.0089,-0.1869,-2.086076875726217,-0.002339924219995737,3.8946990966796875,-1.4171921014785767,0.00038993486668914557,2.0717849731445312,5.044749009400167,-0.0018763365224003792,0.18007828295230865,-1.5070608297931116,-0.0,-0.046627968549728394,-0.300422493611471,0.0,0.10091134905815125,1.186220645904541,-0.06157336011528969,-0.0658600926399231
197.0,177.0,-0.6413,0.0353,9.5067,-0.0319,0.0089,-0.1869,-2.085996290246481,-0.002065439010038972,3.8860716819763184,-1.4171643257141113,0.0005800002836622298,2.1170005798339844,5.044781344919958,-0.001559783355332911,0.1706310510635376,-1.5070770422564905,-0.0,-0.04998212307691574,-0.3003748098956507,0.0,0.10288219153881073,1.1856571435928345,-0.059116262942552567,-0.06377144902944565
