ramyac6/ROB537/final_project/csv/good/good_39.csv
tof_0,tof_1,accelx,accely,accelz,gyrox,gyroy,gyroz,shoulder_lift_joint_position,shoulder_lift_joint_velocity,shoulder_lift_joint_effort,elbow_joint_position,elbow_joint_velocity,elbow_joint_effort,wrist_1_joint_position,wrist_1_joint_velocity,wrist_1_joint_effort,wrist_2_joint_position,wrist_2_joint_velocity,wrist_2_joint_effort,wrist_3_joint_position,wrist_3_joint_velocity,wrist_3_joint_effort,shoulder_pan_joint_position,shoulder_pan_joint_velocity,shoulder_pan_joint_effort
199.0,210.0,0.935,-0.4588,9.347,-0.0376,0.0331,-0.1135,-1.8367067776122035,0.0,3.2293591499328613,-1.6675724983215332,-0.0,2.0358471870422363,4.872338789492407,-0.0,0.29062145948410034,-1.531609837208883,0.0,0.0005354550667107105,0.846184492111206,-0.0,-0.0064871166832745075,0.8886229395866394,0.0,-0.027056407183408737
199.0,210.0,0.935,-0.4588,9.347,-0.0376,0.0331,-0.1135,-1.8367473087706507,0.0,3.203735828399658,-1.6676123142242432,-0.0,2.1173288822174072,4.872322413116255,-0.0,0.2942849397659302,-1.5315850416766565,0.0,-0.02125641517341137,0.8461804986000061,-0.0,0.0025668253656476736,0.8886870741844177,0.0,-0.009534143842756748
199.0,210.0,0.935,-0.4588,9.347,-0.0376,0.0331,-0.1135,-1.8367067776122035,0.0,3.231290817260742,-1.6675204038619995,-0.0,2.0234603881835938,4.872350635915556,-0.0,0.2930729389190674,-1.5316250959979456,0.0,-0.011067715473473072,0.8461765646934509,-0.0,-0.017971236258745193,0.8886430263519287,0.0,-0.028505483642220497
199.0,210.0,0.935,-0.4588,9.347,-0.0376,0.0331,-0.1135,-1.8367592296996058,0.0,3.2263669967651367,-1.6675481796264648,-0.0,2.0899951457977295,4.87233433404521,-0.0,0.28375300765037537,-1.5315774122821253,0.0,-0.018868058919906616,0.8461843729019165,-0.0,2.0234729163348675e-05,0.8886189460754395,0.0,0.013508808799088001
199.0,210.0,0.935,-0.4588,9.347,-0.0376,0.0331,-0.1135,-1.8367229900755824,0.0,3.206538677215576,-1.6675361394882202,-0.0,2.069769859313965,4.87235880175189,-0.0,0.2874455451965332,-1.531609837208883,0.0,-0.007874405942857265,0.8461924195289612,-0.0,-0.005342802964150906,0.8885948061943054,0.0,0.007212052587419748
199.0,210.0,0.935,-0.4588,9.347,-0.0376,0.0331,-0.1135,-1.8367592296996058,0.0,3.22280216217041,-1.6675560474395752,-0.0,2.0850696563720703,4.87232235351161,-0.0,0.2817481458187103,-1.5316017309771937,0.0,-0.018939195200800896,0.8462163209915161,-0.0,0.002599208615720272,0.8886511325836182,0.0,-0.02867858111858368
199.0,210.0,0.935,-0.4588,9.347,-0.0376,0.0331,-0.1135,-1.836738725701803,0.0,3.2331929206848145,-1.6676162481307983,-0.0,2.0764880180358887,4.872374760895529,-0.0,0.2828347682952881,-1.531593147908346,0.0,-0.004893180448561907,0.8462241888046265,-0.0,0.011627908796072006,0.888638973236084,0.0,-0.024301016703248024
199.0,210.0,0.935,-0.4588,9.347,-0.0376,0.0331,-0.1135,-1.836698671380514,0.0,3.2656784057617188,-1.6675361394882202,-0.0,2.0608959197998047,4.872334274440565,-0.0,0.29144880175590515,-1.5315893332110804,0.0,-0.005026964005082846,0.8461408019065857,-0.0,-0.0007240771665237844,0.8886349201202393,0.0,0.013094387017190456
196.0,212.0,0.9422,-0.4816,9.5707,-0.0373,0.0307,-0.1205,-1.8367349110045375,0.0,3.1756691932678223,-1.6675361394882202,-0.0,2.1214301586151123,4.872358354717054,-0.0,0.2871677875518799,-1.531609837208883,0.0,-0.006704845931380987,0.8461883068084717,-0.0,-0.010217183269560337,0.8885907530784607,0.0,-0.002341280458495021
196.0,212.0,0.9422,-0.4816,9.5707,-0.0373,0.0307,-0.1205,-1.836771150628561,0.0,3.244135856628418,-1.66756010055542,-0.0,2.0714166164398193,4.872374790697851,-0.0,0.2901768982410431,-1.5315974394427698,0.0,-0.0033229165710508823,0.8462004065513611,-0.0,-0.012898692861199379,0.8886590003967285,0.0,0.037843722850084305
196.0,212.0,0.9422,-0.4816,9.5707,-0.0373,0.0307,-0.1205,-1.8367916546263636,0.0,3.203145980834961,-1.6675604581832886,-0.0,2.058133602142334,4.872350665717878,-0.0,0.28105390071868896,-1.5315611998187464,0.0,-0.016345972195267677,0.8462326526641846,-0.0,-0.0023008212447166443,0.8886067867279053,0.0,-0.027592770755290985
196.0,212.0,0.9422,-0.4816,9.5707,-0.0373,0.0307,-0.1205,-1.836698671380514,0.0,3.188897132873535,-1.6675442457199097,-0.0,2.0986530780792236,4.872366654663839,-0.0,0.28511616587638855,-1.5316017309771937,0.0,-0.024140823632478714,0.8461607098579407,-0.0,0.003960348200052977,0.8885827660560608,0.0,-0.02842085249722004
196.0,212.0,0.9422,-0.4816,9.5707,-0.0373,0.0307,-0.1205,-1.836738725701803,0.0,3.2116127014160156,-1.667564034461975,-0.0,2.0518958568573,4.872374790697851,-0.0,0.2950108051300049,-1.531593147908346,0.0,-0.006072657182812691,0.8462202548980713,-0.0,-0.004748860374093056,0.8886511921882629,0.0,0.036541812121868134
196.0,212.0,0.9422,-0.4816,9.5707,-0.0373,0.0307,-0.1205,-1.8367511234679164,0.0,3.2111504077911377,-1.6675243377685547,-0.0,2.0860595703125,4.872386711626806,-0.0,0.2917395830154419,-1.5315974394427698,0.0,-0.006053507328033447,0.8461606502532959,-0.0,0.010074554942548275,0.8885989189147949,0.0,0.03822339326143265
196.0,212.0,0.9422,-0.4816,9.5707,-0.0373,0.0307,-0.1205,-1.836766859094137,0.0,3.1845412254333496,-1.6675844192504883,-0.0,2.0570638179779053,4.872346642404356,-0.0,0.2964431047439575,-1.5316336790667933,0.0,-0.010812870226800442,0.8461527228355408,-0.0,-0.0025982456281781197,0.8886352181434631,0.0,-0.02405599318444729
196.0,212.0,0.9422,-0.4816,9.5707,-0.0373,0.0307,-0.1205,-1.8367992840208949,0.0,3.208951473236084,-1.6675442457199097,-0.0,2.0919716358184814,4.872330161720075,-0.0,0.2923566997051239,-1.5315774122821253,0.0,0.0020960639230906963,0.8461487889289856,-0.0,0.01055100467056036,0.8886150121688843,0.0,-0.04598471149802208
196.0,212.0,0.9422,-0.4816,9.5707,-0.0373,0.0307,-0.1205,-1.836771150628561,0.0,3.1590137481689453,-1.6675925254821777,-0.0,2.101860761642456,4.872366624861517,-0.0,0.2917098104953766,-1.5315898100482386,0.0,-0.006719375029206276,0.8461606502532959,-0.0,-0.0065252166241407394,0.8886067271232605,0.0,0.006789107341319323
196.0,212.0,0.9422,-0.4816,9.5707,-0.0373,0.0307,-0.1205,-1.8367310963072718,0.0,3.1592979431152344,-1.6675925254821777,-0.0,2.0643720626831055,4.872322398215093,-0.0,0.28977730870246887,-1.531593147908346,0.0,-0.03229392319917679,0.8461805582046509,-0.0,0.008132332935929298,0.8885948061943054,0.0,-0.026930199936032295
196.0,212.0,0.9422,-0.4816,9.5707,-0.0373,0.0307,-0.1205,-1.8367592296996058,0.0,3.2063324451446533,-1.667576551437378,-0.0,2.068225383758545,4.872366624861517,-0.0,0.2808001637458801,-1.531614128743307,0.0,0.0019698708783835173,0.846184492111206,-0.0,-0.004134763032197952,0.888638973236084,0.0,0.02955811470746994
196.0,212.0,0.9422,-0.4816,9.5707,-0.0373,0.0307,-0.1205,-1.8367835483946742,0.0,3.1567611694335938,-1.6675844192504883,-0.0,2.020850658416748,4.872366624861517,-0.0,0.27534082531929016,-1.531593147908346,0.0,-0.01642221212387085,0.846172571182251,-0.0,-0.004977707751095295,0.8886229991912842,0.0,-0.02783062681555748
196.0,212.0,0.9422,-0.4816,9.5707,-0.0373,0.0307,-0.1205,-1.8367506466307582,0.0,3.2150328159332275,-1.6675565242767334,-0.0,2.094406843185425,4.872374790697851,-0.0,0.29310426115989685,-1.531593147908346,0.0,-0.011329025030136108,0.8461567163467407,-0.0,0.0035770386457443237,0.8886190056800842,0.0,-0.030530590564012527
196.0,212.0,0.9422,-0.4816,9.5707,-0.0373,0.0307,-0.1205,-1.8367506466307582,0.0,3.211308479309082,-1.6675480604171753,-0.0,2.076510429382324,4.8723343191440485,-0.0,0.2923581898212433,-1.5316255728351038,0.0,-0.01949130743741989,0.8461646437644958,-0.0,-0.008515951223671436,0.88857102394104,0.0,-0.022228872403502464
196.0,212.0,0.9422,-0.4816,9.5707,-0.0373,0.0307,-0.1205,-1.8366905651488246,0.0,3.2027344703674316,-1.667568564414978,-0.0,2.0596203804016113,4.872387099056997,-0.0,0.2790148854255676,-1.5315850416766565,0.0,0.0016096537001430988,0.8461723923683167,-0.0,0.011134697124361992,0.8886189460754395,0.0,-0.02229434624314308
200.0,217.0,0.9218,-0.4487,9.4816,-0.0298,0.025,-0.1155,-1.836738725701803,0.0,3.185934066772461,-1.667596459388733,-0.0,2.0978891849517822,4.872374820500173,-0.0,0.2977446913719177,-1.5316460768329065,0.0,-0.01746685802936554,0.8461924195289612,-0.0,0.0005961020942777395,0.8886270523071289,0.0,0.017399467527866364
200.0,217.0,0.9218,-0.4487,9.4816,-0.0298,0.025,-0.1155,-1.836714883843893,0.0,3.2144527435302734,-1.66755211353302,-0.0,2.047816276550293,4.872370707779684,-0.0,0.29096412658691406,-1.5315893332110804,0.0,-0.018639182671904564,0.8462162613868713,-0.0,-0.00021672598086297512,0.8885869979858398,0.0,-0.021566376090049744
200.0,217.0,0.9218,-0.4487,9.4816,-0.0298,0.025,-0.1155,-1.8367673359312953,0.0,3.1657204627990723,-1.667600393295288,-0.0,2.062222719192505,4.87235880175189,-0.0,0.3065222203731537,-1.5315974394427698,0.0,-0.007457779720425606,0.846184492111206,-0.0,-0.002770061604678631,0.8886509537696838,0.0,-0.02030111849308014
200.0,217.0,0.9218,-0.4487,9.4816,-0.0298,0.025,-0.1155,-1.8367592296996058,0.0,3.1346259117126465,-1.667596459388733,-0.0,2.1105268001556396,4.872374820500173,-0.0,0.29558321833610535,-1.5315974394427698,0.0,-0.01671229861676693,0.8462287783622742,-0.0,0.0016055265441536903,0.8885989785194397,0.0,-0.048837028443813324
200.0,217.0,0.9218,-0.4487,9.4816,-0.0298,0.025,-0.1155,-1.8367349110045375,0.0,3.216545820236206,-1.6675724983215332,-0.0,2.0899925231933594,4.8723748354013345,-0.0,0.281784325838089,-1.5315974394427698,0.0,-0.011237411759793758,0.8460851311683655,-0.0,-0.004171878099441528,0.8886392116546631,0.0,-0.02205311320722103
200.0,217.0,0.9218,-0.4487,9.4816,-0.0298,0.025,-0.1155,-1.8367673359312953,0.0,3.1901602745056152,-1.667576551437378,-0.0,2.0683839321136475,4.87234245517806,-0.0,0.2937755286693573,-1.5316460768329065,0.0,-0.011470524594187737,0.8461408019065857,-0.0,-0.001310907886363566,0.8886107802391052,0.0,0.01372582744807005
200.0,217.0,0.9218,-0.4487,9.4816,-0.0298,0.025,-0.1155,-1.836771150628561,0.0,3.2264280319213867,-1.6675442457199097,-0.0,2.083836317062378,4.872374820500173,-0.0,0.2923262417316437,-1.5316055456744593,0.0,-0.01916322484612465,0.8461565971374512,-0.0,-0.009818967431783676,0.8886470794677734,0.0,-1.7124228179454803e-05
200.0,217.0,0.9218,-0.4487,9.4816,-0.0298,0.025,-0.1155,-1.836754938165182,0.0,3.183384418487549,-1.6675963401794434,-0.0,2.0968146324157715,4.872358786850729,-0.0,0.2976187467575073,-1.5315731207477015,0.0,-0.021278252825140953,0.8461646437644958,-0.0,0.007857580669224262,0.8886148929595947,0.0,-0.013904373161494732
200.0,217.0,0.9218,-0.4487,9.4816,-0.0298,0.025,-0.1155,-1.836743017236227,0.0,3.221562385559082,-1.66756010055542,-0.0,2.061509609222412,4.872354793339529,-0.0,0.28186118602752686,-1.5315974394427698,0.0,-0.020063575357198715,0.8461607098579407,-0.0,-0.01182084996253252,0.8886311054229736,0.0,0.025006471201777458
200.0,217.0,0.9218,-0.4487,9.4816,-0.0298,0.025,-0.1155,-1.8367310963072718,0.0,3.2160227298736572,-1.6675925254821777,-0.0,2.1224570274353027,4.872342425375738,-0.0,0.292511522769928,-1.5315893332110804,0.0,-0.0097048943862319,0.8460973501205444,-0.0,0.0073751178570091724,0.8886107802391052,0.0,0.0014814576134085655
200.0,217.0,0.9218,-0.4487,9.4816,-0.0298,0.025,-0.1155,-1.836743017236227,0.0,3.2445268630981445,-1.6675724983215332,-0.0,2.0563302040100098,4.872411313443937,-0.0,0.2847556471824646,-1.5315974394427698,0.0,-0.0068207839503884315,0.846192479133606,-0.0,-0.00230232416652143,0.8886670470237732,0.0,0.037977006286382675
200.0,217.0,0.9218,-0.4487,9.4816,-0.0298,0.025,-0.1155,-1.836799760858053,0.0,3.162477970123291,-1.6675519943237305,-0.0,2.0643532276153564,4.872334259539404,-0.0,0.2917395234107971,-1.5316017309771937,0.0,-0.010903356596827507,0.8461884260177612,-0.0,0.009342258796095848,0.888586699962616,0.0,-0.009859305806457996
200.0,217.0,0.9218,-0.4487,9.4816,-0.0298,0.025,-0.1155,-1.836766859094137,0.0,3.2318596839904785,-1.6676002740859985,-0.0,2.079838752746582,4.872407200723448,-0.0,0.29551413655281067,-1.5316293875323694,0.0,-0.011829687282443047,0.8461765050888062,-0.0,0.009288264438509941,0.8886311650276184,0.0,0.02848028391599655
200.0,217.0,0.9218,-0.4487,9.4816,-0.0298,0.025,-0.1155,-1.8368193111815394,0.0,3.1749303340911865,-1.6676002740859985,-0.0,2.0752739906311035,4.87240711131648,-0.0,0.2895122170448303,-1.531593147908346,0.0,-0.018621284514665604,0.8461130857467651,-0.0,-0.005126585252583027,0.8885948061943054,0.0,-0.008807023987174034
200.0,217.0,0.9218,-0.4487,9.4816,-0.0298,0.025,-0.1155,-1.836738725701803,0.0,3.224841594696045,-1.6675323247909546,-0.0,2.0384368896484375,4.872358786850729,-0.0,0.28631478548049927,-1.5315774122821253,0.0,-0.022222254425287247,0.8462123274803162,-0.0,-0.0013235139194875956,0.8886148929595947,0.0,0.01855848915874958
198.0,220.0,0.9296,-0.4385,9.4875,-0.0338,0.0218,-0.1153,-1.836743017236227,0.0,3.231149196624756,-1.6675361394882202,-0.0,2.078115701675415,4.872346627503195,-0.0,0.2974889278411865,-1.5316012541400355,0.0,-0.007865263149142265,0.8461606502532959,-0.0,0.0014534913934767246,0.8886229991912842,0.0,0.05918387323617935
198.0,220.0,0.9296,-0.4385,9.4875,-0.0338,0.0218,-0.1153,-1.836738725701803,0.0,3.1893198490142822,-1.66756010055542,-0.0,2.044125556945801,4.8723506210143945,-0.0,0.2826191484928131,-1.531593147908346,0.0,-0.0069058602675795555,0.8461607694625854,-0.0,-0.009289252571761608,0.8886748552322388,0.0,0.003927758429199457
198.0,220.0,0.9296,-0.4385,9.4875,-0.0338,0.0218,-0.1153,-1.8367873630919398,0.0,3.1833908557891846,-1.667540192604065,-0.0,2.0569541454315186,4.8723264811332605,-0.0,0.3054317533969879,-1.531593147908346,0.0,-0.002641176339238882,0.8461963534355164,-0.0,0.0033147423528134823,0.8886352181434631,0.0,0.03380714729428291
198.0,220.0,0.9296,-0.4385,9.4875,-0.0338,0.0218,-0.1153,-1.836771150628561,0.0,3.1913464069366455,-1.6675724983215332,-0.0,2.0712850093841553,4.872358786850729,-0.0,0.2949543297290802,-1.531609837208883,0.0,-0.010955950245261192,0.8461686372756958,-0.0,-0.018148094415664673,0.8886628150939941,0.0,0.024699289351701736
198.0,220.0,0.9296,-0.4385,9.4875,-0.0338,0.0218,-0.1153,-1.8367592296996058,0.0,3.17824649810791,-1.6675481796264648,-0.0,2.0495262145996094,4.872386711626806,-0.0,0.2948545217514038,-1.531609837208883,0.0,-0.017239680513739586,0.8462241291999817,-0.0,0.004225634969770908,0.8885948657989502,0.0,0.018299086019396782
198.0,220.0,0.9296,-0.4385,9.4875,-0.0338,0.0218,-0.1153,-1.836754938165182,0.0,3.2007129192352295,-1.6675044298171997,-0.0,2.077019691467285,4.872378948121824,-0.0,0.2946265935897827,-1.531581226979391,0.0,-0.020724251866340637,0.8462280631065369,-0.0,-0.0058463821187615395,0.8886067271232605,0.0,-0.03415244445204735
198.0,220.0,0.9296,-0.4385,9.4875,-0.0338,0.0218,-0.1153,-1.8367349110045375,0.0,3.1946122646331787,-1.667564034461975,-0.0,2.064157247543335,4.872399019985952,-0.0,0.28146830201148987,-1.5316374937640589,0.0,-0.0036034644581377506,0.8462241291999817,-0.0,-0.01080990582704544,0.8886270523071289,0.0,-0.0020354818552732468
198.0,220.0,0.9296,-0.4385,9.4875,-0.0338,0.0218,-0.1153,-1.836766859094137,0.0,3.2367658615112305,-1.667540192604065,-0.0,2.074246406555176,4.872366624861517,-0.0,0.29899609088897705,-1.531614128743307,0.0,-0.019808057695627213,0.8461488485336304,-0.0,0.001731034368276596,0.888623058795929,0.0,-0.0313868448138237
198.0,220.0,0.9296,-0.4385,9.4875,-0.0338,0.0218,-0.1153,-1.8367306194701136,0.0,3.155827283859253,-1.6675844192504883,-0.0,2.082167863845825,4.872346642404356,-0.0,0.2876073718070984,-1.5316417852984827,0.0,-0.0071747153997421265,0.846188485622406,-0.0,0.0003265969571657479,0.8886351585388184,0.0,-0.003289318410679698
198.0,220.0,0.9296,-0.4385,9.4875,-0.0338,0.0218,-0.1153,-1.8367473087706507,0.0,3.181212902069092,-1.6675724983215332,-0.0,2.0798873901367188,4.872346657305517,-0.0,0.2931221127510071,-1.5316055456744593,0.0,-0.018410921096801758,0.8462042212486267,-0.0,-0.015563171356916428,0.8886671662330627,0.0,0.06486210227012634
198.0,220.0,0.9296,-0.4385,9.4875,-0.0338,0.0218,-0.1153,-1.8367506466307582,0.0,3.2001795768737793,-1.6675361394882202,-0.0,2.0516138076782227,4.872318702727117,-0.0,0.3078991770744324,-1.5315974394427698,0.0,-0.014473512768745422,0.8462240695953369,-0.0,-0.008831609040498734,0.8886189460754395,0.0,0.028264302760362625
198.0,220.0,0.9296,-0.4385,9.4875,-0.0338,0.0218,-0.1153,-1.8367706737914027,0.0,3.206717014312744,-1.6675519943237305,-0.0,2.077033519744873,4.872366595059194,-0.0,0.2820262014865875,-1.5315974394427698,0.0,-0.02073010802268982,0.8461407423019409,-0.0,0.0017076192889362574,0.8886148929595947,0.0,0.017307834699749947
198.0,220.0,0.9296,-0.4385,9.4875,-0.0338,0.0218,-0.1153,-1.8367511234679164,0.0,3.1705985069274902,-1.6675844192504883,-0.0,2.0616393089294434,4.872302400856771,-0.0,0.3001771569252014,-1.5316179434405726,0.0,-0.015445075929164886,0.8462525606155396,-0.0,0.0016580241499468684,0.8886107802391052,0.0,-0.00722893513739109
198.0,220.0,0.9296,-0.4385,9.4875,-0.0338,0.0218,-0.1153,-1.8367630443968714,0.0,3.2519707679748535,-1.66756010055542,-0.0,2.068817615509033,4.8723424700792215,-0.0,0.29557284712791443,-1.5316293875323694,0.0,-0.013937734998762608,0.846184492111206,-0.0,0.0016324911266565323,0.8886190056800842,0.0,0.0065360842272639275
198.0,220.0,0.9296,-0.4385,9.4875,-0.0338,0.0218,-0.1153,-1.8367792568602503,0.0,3.161004066467285,-1.6675442457199097,-0.0,2.0816938877105713,4.872362944274702,-0.0,0.29377585649490356,-1.5315974394427698,0.0,-0.01022712979465723,0.8461171388626099,-0.0,-0.0042625837959349155,0.8886589407920837,0.0,-0.012488346546888351
204.0,216.0,0.9242,-0.4792,9.5115,-0.0396,0.025,-0.1135,-1.836766859094137,0.0,3.2182044982910156,-1.6675963401794434,-0.0,2.083430290222168,4.872386711626806,-0.0,0.2878137528896332,-1.531614128743307,0.0,-0.02082665264606476,0.8461923599243164,-0.0,-0.005422911606729031,0.8886189460754395,0.0,0.009112835861742496
204.0,216.0,0.9242,-0.4792,9.5115,-0.0396,0.025,-0.1135,-1.836754938165182,0.0,3.2365164756774902,-1.667564034461975,-0.0,2.088742971420288,4.872374790697851,-0.0,0.29141542315483093,-1.5315974394427698,0.0,-0.015476938337087631,0.8462241291999817,-0.0,-0.00522358063608408,0.8886430263519287,0.0,0.04335354268550873
204.0,216.0,0.9242,-0.4792,9.5115,-0.0396,0.025,-0.1135,-1.836726804772848,0.0,3.213596820831299,-1.6675481796264648,-0.0,2.054959774017334,4.872346478491583,-0.0,0.29319125413894653,-1.531593147908346,0.0,-0.0052585722878575325,0.8461527824401855,-0.0,-0.0008254474960267544,0.8886107802391052,0.0,-0.025055114179849625
204.0,216.0,0.9242,-0.4792,9.5115,-0.0396,0.025,-0.1135,-1.8367024860777796,0.0,3.166934013366699,-1.667564034461975,-0.0,2.0677645206451416,4.872426542430677,-0.0,0.2921586036682129,-1.531614128743307,0.0,-0.01567671075463295,0.846188485622406,-0.0,0.0034245045389980078,0.888654887676239,0.0,-0.016462819650769234
204.0,216.0,0.9242,-0.4792,9.5115,-0.0396,0.025,-0.1135,-1.8367473087706507,0.0,3.2261600494384766,-1.667596459388733,-0.0,2.025768280029297,4.872354703932562,-0.0,0.2891571819782257,-1.5316055456744593,0.0,-0.018121041357517242,0.8461408019065857,-0.0,-0.005663545336574316,0.8886189460754395,0.0,0.009555716998875141
204.0,216.0,0.9242,-0.4792,9.5115,-0.0396,0.025,-0.1135,-1.8367473087706507,0.0,3.1871109008789062,-1.667580485343933,-0.0,2.0601067543029785,4.872346597700872,-0.0,0.286662757396698,-1.531593147908346,0.0,-0.014626579359173775,0.846184492111206,-0.0,-0.006331423297524452,0.8886670470237732,0.0,-0.024216359481215477
204.0,216.0,0.9242,-0.4792,9.5115,-0.0396,0.025,-0.1135,-1.8367029629149378,0.0,3.172278881072998,-1.6675281524658203,-0.0,2.064682722091675,4.872358757048406,-0.0,0.2751745581626892,-1.5316255728351038,0.0,-0.01507506798952818,0.8461290001869202,-0.0,0.0024340515956282616,0.888638973236084,0.0,-0.02724241465330124
204.0,216.0,0.9242,-0.4792,9.5115,-0.0396,0.025,-0.1135,-1.8367473087706507,0.0,3.207634687423706,-1.66756010055542,-0.0,2.0271379947662354,4.872330102115431,-0.0,0.27871623635292053,-1.5316255728351038,0.0,-0.02457609958946705,0.8462287783622742,-0.0,-0.0022331736981868744,0.8886067271232605,0.0,0.0532895028591156
204.0,216.0,0.9242,-0.4792,9.5115,-0.0396,0.025,-0.1135,-1.8367673359312953,0.0,3.1975879669189453,-1.6676043272018433,-0.0,2.0688676834106445,4.872358786850729,-0.0,0.2967309057712555,-1.531609837208883,0.0,-0.018170151859521866,0.8462003469467163,-0.0,-0.004896280821412802,0.8886270523071289,0.0,0.001239771954715252
204.0,216.0,0.9242,-0.4792,9.5115,-0.0396,0.025,-0.1135,-1.836783071557516,0.0,3.179286479949951,-1.6675684452056885,-0.0,2.076962471008301,4.872407096415319,-0.0,0.2868136465549469,-1.531614128743307,0.0,-0.013410519808530807,0.8461488485336304,-0.0,0.0001522547099739313,0.8886430263519287,0.0,-0.021444356068968773
204.0,216.0,0.9242,-0.4792,9.5115,-0.0396,0.025,-0.1135,-1.836771150628561,0.0,3.2260544300079346,-1.6675442457199097,-0.0,2.0531272888183594,4.872395011573591,-0.0,0.2962822914123535,-1.5315774122821253,0.0,-0.01637900248169899,0.8461765050888062,-0.0,0.0024812682531774044,0.8886107206344604,0.0,0.034214604645967484
204.0,216.0,0.9242,-0.4792,9.5115,-0.0396,0.025,-0.1135,-1.836783071557516,0.0,3.222075939178467,-1.667580485343933,-0.0,2.082338809967041,4.872358757048406,-0.0,0.2883007824420929,-1.5316174666034144,0.0,-0.01946808397769928,0.8461646437644958,-0.0,-0.007820958271622658,0.8886471390724182,0.0,0.027996912598609924
204.0,216.0,0.9242,-0.4792,9.5115,-0.0396,0.025,-0.1135,-1.8367592296996058,0.0,3.2283449172973633,-1.6675519943237305,-0.0,2.0669775009155273,4.872362959175863,-0.0,0.28748640418052673,-1.5315974394427698,0.0,-0.020470773801207542,0.8461884260177612,-0.0,-0.004526177421212196,0.8886026740074158,0.0,0.02336633950471878
204.0,216.0,0.9242,-0.4792,9.5115,-0.0396,0.025,-0.1135,-1.836783071557516,0.0,3.205643653869629,-1.6675684452056885,-0.0,2.071901321411133,4.872322413116255,-0.0,0.29924651980400085,-1.531614128743307,0.0,0.0005678613670170307,0.8462122678756714,-0.0,-0.0038431123830378056,0.8886311650276184,0.0,0.006180590949952602
204.0,216.0,0.9242,-0.4792,9.5115,-0.0396,0.025,-0.1135,-1.8367792568602503,0.0,3.2063074111938477,-1.6675243377685547,-0.0,2.076179027557373,4.872346627503195,-0.0,0.28252726793289185,-1.531614128743307,0.0,-0.012510498985648155,0.846172571182251,-0.0,-0.0035499739460647106,0.8886509537696838,0.0,0.02393336221575737
206.0,218.0,1.2514,-0.6185,9.1801,-0.0394,0.0063,-0.0994,-1.836743017236227,0.0,3.2228212356567383,-1.66755211353302,-0.0,2.049471378326416,4.872346642404356,-0.0,0.28475460410118103,-1.5315974394427698,0.0,-0.006679019425064325,0.846192479133606,-0.0,-0.012463163584470749,0.8886190056800842,0.0,0.0012644380331039429
206.0,218.0,1.2514,-0.6185,9.1801,-0.0394,0.0063,-0.0994,-1.836754938165182,0.0,3.2002012729644775,-1.6675400733947754,-0.0,2.0606307983398438,4.872362959175863,-0.0,0.29223352670669556,-1.5316222349749964,0.0,-0.005881014280021191,0.8462247848510742,-0.0,0.002109464490786195,0.8886067271232605,0.0,0.005712153390049934
206.0,218.0,1.2514,-0.6185,9.1801,-0.0394,0.0063,-0.0994,-1.836754938165182,0.0,3.193634510040283,-1.66756010055542,-0.0,2.1092586517333984,4.872374805599012,-0.0,0.2838875651359558,-1.5316293875323694,0.0,-0.0022488096728920937,0.8461567163467407,-0.0,-0.006895364262163639,0.8886311054229736,0.0,0.00459451274946332
206.0,218.0,1.2514,-0.6185,9.1801,-0.0394,0.0063,-0.0994,-1.836743017236227,0.0,3.242633819580078,-1.6675442457199097,-0.0,2.130796432495117,4.87239499667243,-0.0,0.2867351174354553,-1.5316012541400355,0.0,-0.022381549701094627,0.8461323976516724,-0.0,0.0010923421941697598,0.8886148929595947,0.0,-0.03132240101695061
206.0,218.0,1.2514,-0.6185,9.1801,-0.0394,0.0063,-0.0994,-1.8367592296996058,0.0,3.254401445388794,-1.6675844192504883,-0.0,2.0457630157470703,4.872354703932562,-0.0,0.29416966438293457,-1.5316336790667933,0.0,-0.004250599071383476,0.8462201952934265,-0.0,0.0036891046911478043,0.8886067271232605,0.0,0.012143000960350037
206.0,218.0,1.2514,-0.6185,9.1801,-0.0394,0.0063,-0.0994,-1.836726804772848,0.0,3.2158992290496826,-1.6675519943237305,-0.0,2.033134698867798,4.8723830608423135,-0.0,0.29026979207992554,-1.531593147908346,0.0,-0.017059992998838425,0.8462206125259399,-0.0,-0.006708239205181599,0.888623058795929,0.0,0.014029689133167267
206.0,218.0,1.2514,-0.6185,9.1801,-0.0394,0.0063,-0.0994,-1.836743017236227,0.0,3.202929735183716,-1.667600393295288,-0.0,2.103607177734375,4.872387143760481,-0.0,0.298380583524704,-1.5315611998187464,0.0,-0.018879583105444908,0.8462371826171875,-0.0,-0.011433550156652927,0.888654887676239,0.0,0.001571363303810358
206.0,218.0,1.2514,-0.6185,9.1801,-0.0394,0.0063,-0.0994,-1.8367229900755824,0.0,3.231265068054199,-1.6675283908843994,-0.0,2.05782413482666,4.8724031178052805,-0.0,0.297392338514328,-1.531609837208883,0.0,-0.018038466572761536,0.8462045788764954,-0.0,-0.002017844468355179,0.8886067271232605,0.0,-0.02281942032277584
206.0,218.0,1.2514,-0.6185,9.1801,-0.0394,0.0063,-0.0994,-1.836743017236227,0.0,3.191349744796753,-1.6675645112991333,-0.0,2.095628261566162,4.872378963022985,-0.0,0.29329055547714233,-1.531593147908346,0.0,-0.0162553358823061,0.8461607694625854,-0.0,-0.0111420638859272,0.8886471390724182,0.0,-0.03273395821452141
206.0,218.0,1.2514,-0.6185,9.1801,-0.0394,0.0063,-0.0994,-1.836771150628561,0.0,3.2284629344940186,-1.6675684452056885,-0.0,2.050889253616333,4.872362959175863,-0.0,0.2919822633266449,-1.5316055456744593,0.0,-0.012607214972376823,0.8461844325065613,-0.0,0.002565142698585987,0.8885989189147949,0.0,-0.004667049273848534
206.0,218.0,1.2514,-0.6185,9.1801,-0.0394,0.0063,-0.0994,-1.8367191753783167,0.0,3.1857941150665283,-1.6675684452056885,-0.0,2.080784797668457,4.872362467437544,-0.0,0.28411608934402466,-1.5316179434405726,0.0,-0.016101738438010216,0.846168577671051,-0.0,0.003098686458542943,0.8886107802391052,0.0,-0.004548998549580574
206.0,218.0,1.2514,-0.6185,9.1801,-0.0394,0.0063,-0.0994,-1.8367229900755824,0.0,3.200212001800537,-1.6675645112991333,-0.0,2.094635009765625,4.87234245517806,-0.0,0.2932860851287842,-1.531593147908346,0.0,-0.008298356086015701,0.846192479133606,-0.0,0.004578063264489174,0.8885708451271057,0.0,0.006681893020868301
206.0,218.0,1.2514,-0.6185,9.1801,-0.0394,0.0063,-0.0994,-1.836698671380514,0.0,3.269000291824341,-1.6675481796264648,-0.0,2.055471420288086,4.872350635915556,-0.0,0.2973316013813019,-1.531581226979391,0.0,-0.01377219706773758,0.8461804389953613,-0.0,-0.009803470224142075,0.8886511325836182,0.0,0.01828334853053093
206.0,218.0,1.2514,-0.6185,9.1801,-0.0394,0.0063,-0.0994,-1.836714883843893,0.0,3.2099087238311768,-1.6675201654434204,-0.0,2.0846080780029297,4.872334289341726,-0.0,0.29046809673309326,-1.5315893332110804,0.0,0.0014519485412165523,0.8462205529212952,-0.0,-0.0010891527635976672,0.8886589407920837,0.0,-0.006002359092235565
206.0,218.0,1.2514,-0.6185,9.1801,-0.0394,0.0063,-0.0994,-1.8367506466307582,0.0,3.2105519771575928,-1.6675645112991333,-0.0,2.038609027862549,4.872358786850729,-0.0,0.27924802899360657,-1.531609837208883,0.0,-0.017842121422290802,0.8461766242980957,-0.0,-0.002557588741183281,0.8885948061943054,0.0,-0.004052134230732918
198.0,221.0,0.8919,-0.3302,9.4044,-0.0333,0.0145,-0.1159,-1.8367024860777796,0.0,3.2167797088623047,-1.6675844192504883,-0.0,2.055161476135254,4.8723424700792215,-0.0,0.28091713786125183,-1.531593147908346,0.0,-0.021155623719096184,0.8461400866508484,-0.0,-0.0024485811591148376,0.8886189460754395,0.0,0.026612136512994766
198.0,221.0,0.8919,-0.3302,9.4044,-0.0333,0.0145,-0.1159,-1.8367229900755824,0.0,3.189426898956299,-1.6675519943237305,-0.0,2.0781972408294678,4.872362482338705,-0.0,0.2977927327156067,-1.531593147908346,0.0,-0.0073013911023736,0.8462042212486267,-0.0,-0.014682288281619549,0.8886589407920837,0.0,-0.023486357182264328
198.0,221.0,0.8919,-0.3302,9.4044,-0.0333,0.0145,-0.1159,-1.836766859094137,0.0,3.194960594177246,-1.6675684452056885,-0.0,2.044250965118408,4.872403028398313,-0.0,0.2896029055118561,-1.531581226979391,0.0,-0.013325975276529789,0.8461525440216064,-0.0,-0.0033256891183555126,0.8886511325836182,0.0,-0.014285690151154995
198.0,221.0,0.8919,-0.3302,9.4044,-0.0333,0.0145,-0.1159,-1.836743017236227,0.0,3.184516429901123,-1.6675320863723755,-0.0,2.097745895385742,4.872394937067785,-0.0,0.2865726947784424,-1.53162128130068,0.0,-0.007460050750523806,0.8461886048316956,-0.0,-0.010830958373844624,0.8886148929595947,0.0,0.036883048713207245
198.0,221.0,0.8919,-0.3302,9.4044,-0.0333,0.0145,-0.1159,-1.8367229900755824,0.0,3.2371926307678223,-1.6675320863723755,-0.0,2.0434930324554443,4.872366624861517,-0.0,0.2986098527908325,-1.531614128743307,0.0,-0.01702263206243515,0.8461886048316956,-0.0,0.001575929345563054,0.8885948657989502,0.0,-0.02291247993707657
198.0,221.0,0.8919,-0.3302,9.4044,-0.0333,0.0145,-0.1159,-1.836738725701803,0.0,3.176199436187744,-1.667576551437378,-0.0,2.0821330547332764,4.872378948121824,-0.0,0.2917732000350952,-1.531609837208883,0.0,-0.01285990234464407,0.8461964130401611,-0.0,-0.007736349478363991,0.8886190056800842,0.0,-0.04714906960725784
198.0,221.0,0.8919,-0.3302,9.4044,-0.0333,0.0145,-0.1159,-1.8367592296996058,0.0,3.2285420894622803,-1.6675963401794434,-0.0,2.0720419883728027,4.872415306955137,-0.0,0.2954639792442322,-1.5316017309771937,0.0,-0.0206212867051363,0.8461763262748718,-0.0,-0.007942236959934235,0.8886471390724182,0.0,0.019868774339556694
198.0,221.0,0.8919,-0.3302,9.4044,-0.0333,0.0145,-0.1159,-1.8367792568602503,0.0,3.1786656379699707,-1.6675519943237305,-0.0,2.024749755859375,4.872382628708639,-0.0,0.28036612272262573,-1.5316460768329065,0.0,0.0023620370775461197,0.8461365103721619,-0.0,-0.008976495824754238,0.8886270523071289,0.0,0.002451049629598856
198.0,221.0,0.8919,-0.3302,9.4044,-0.0333,0.0145,-0.1159,-1.836754938165182,0.0,3.191667318344116,-1.6675604581832886,-0.0,2.099649429321289,4.872378948121824,-0.0,0.2889567017555237,-1.531614128743307,0.0,-0.012471693567931652,0.8461406230926514,-0.0,0.004959574434906244,0.8886148929595947,0.0,-0.0011570006608963013
198.0,221.0,0.8919,-0.3302,9.4044,-0.0333,0.0145,-0.1159,-1.836754938165182,0.0,3.1831326484680176,-1.6675323247909546,-0.0,2.0803470611572266,4.8723424700792215,-0.0,0.2891830801963806,-1.5316460768329065,0.0,-0.003333431202918291,0.846229076385498,-0.0,0.004012663383036852,0.8886107802391052,0.0,0.04949967935681343
198.0,221.0,0.8919,-0.3302,9.4044,-0.0333,0.0145,-0.1159,-1.8367506466307582,0.0,3.1748366355895996,-1.6675925254821777,-0.0,2.1005876064300537,4.872326466232099,-0.0,0.28499385714530945,-1.5315693060504358,0.0,-0.009100660681724548,0.8461679220199585,-0.0,0.0012847956968471408,0.8886549472808838,0.0,0.03442152962088585
198.0,221.0,0.8919,-0.3302,9.4044,-0.0333,0.0145,-0.1159,-1.8367749653258265,0.0,3.228471040725708,-1.6676124334335327,-0.0,2.064438581466675,4.872410791903295,-0.0,0.2901532053947449,-1.5316169897662562,0.0,-0.011950066313147545,0.8462164998054504,-0.0,-0.005393209867179394,0.8886270523071289,0.0,-0.026216009631752968
198.0,221.0,0.8919,-0.3302,9.4044,-0.0333,0.0145,-0.1159,-1.836783071557516,0.0,3.2076363563537598,-1.667540192604065,-0.0,2.1249780654907227,4.872358786850729,-0.0,0.29899147152900696,-1.5316293875323694,0.0,-0.005244522355496883,0.8462287783622742,-0.0,0.0072811986319720745,0.8886429667472839,0.0,-0.03789700195193291
198.0,221.0,0.8919,-0.3302,9.4044,-0.0333,0.0145,-0.1159,-1.8367110691466273,0.0,3.220729112625122,-1.6675481796264648,-0.0,2.0600602626800537,4.872378501086988,-0.0,0.29533112049102783,-1.5316055456744593,0.0,-0.0027003642171621323,0.8462125062942505,-0.0,-0.0035719536244869232,0.8886067271232605,0.0,0.017298145219683647
198.0,221.0,0.8919,-0.3302,9.4044,-0.0333,0.0145,-0.1159,-1.8367916546263636,0.0,3.197526454925537,-1.6675604581832886,-0.0,2.0423200130462646,4.872326436429777,-0.0,0.28483057022094727,-1.5316737333880823,0.0,-0.006786472629755735,0.846172571182251,-0.0,0.013585178181529045,0.8886471390724182,0.0,0.01909676566720009
194.0,215.0,0.8453,-0.3505,9.5976,-0.0215,0.0156,-0.1261,-1.8367506466307582,0.0,3.1761603355407715,-1.667588472366333,-0.0,2.0652763843536377,4.872350606113233,-0.0,0.30037787556648254,-1.5315693060504358,0.0,-0.013393258675932884,0.846160352230072,-0.0,0.003045930527150631,0.8886190056800842,0.0,0.004331246949732304
194.0,215.0,0.8453,-0.3505,9.5976,-0.0215,0.0156,-0.1261,-1.8367067776122035,0.0,3.214398145675659,-1.6675684452056885,-0.0,2.040071964263916,4.872338387161054,-0.0,0.2896853983402252,-1.531553093587057,0.0,-0.022392675280570984,0.8462004661560059,-0.0,-0.009147970005869865,0.8885830044746399,0.0,-0.038664717227220535
194.0,215.0,0.8453,-0.3505,9.5976,-0.0215,0.0156,-0.1261,-1.8367229900755824,0.0,3.226916551589966,-1.6675442457199097,-0.0,2.052612781524658,4.872366669565,-0.0,0.28621214628219604,-1.531593147908346,0.0,-0.02023441530764103,0.8461644053459167,-0.0,-0.005713796243071556,0.8886589407920837,0.0,-0.0035721887834370136
194.0,215.0,0.8453,-0.3505,9.5976,-0.0215,0.0156,-0.1261,-1.8367473087706507,0.0,3.219879150390625,-1.66756010055542,-0.0,2.0630993843078613,4.872350606113233,-0.0,0.2958725392818451,-1.5316293875323694,0.0,-0.00797535665333271,0.846184492111206,-0.0,0.0014261831529438496,0.8886508941650391,0.0,-0.015795836225152016
194.0,215.0,0.8453,-0.3505,9.5976,-0.0215,0.0156,-0.1261,-1.8367067776122035,0.0,3.191819190979004,-1.667576551437378,-0.0,2.0579264163970947,4.87234245517806,-0.0,0.29469773173332214,-1.531593147908346,0.0,-0.01314866729080677,0.846160352230072,-0.0,0.008282595314085484,0.8886352181434631,0.0,0.004087721463292837
194.0,215.0,0.8453,-0.3505,9.5976,-0.0215,0.0156,-0.1261,-1.8367506466307582,0.0,3.209127902984619,-1.6675680875778198,-0.0,2.0914549827575684,4.872374820500173,-0.0,0.29105523228645325,-1.5315569082843226,0.0,-0.014273189939558506,0.8461999893188477,-0.0,0.002663754392415285,0.888638973236084,0.0,0.02336299978196621
194.0,215.0,0.8453,-0.3505,9.5976,-0.0215,0.0156,-0.1261,-1.836743017236227,0.0,3.2079715728759766,-1.66756010055542,-0.0,2.0743446350097656,4.872390779643812,-0.0,0.29449740052223206,-1.531637970601217,0.0,-0.004218536429107189,0.8462041020393372,-0.0,0.00523071875795722,0.8886708617210388,0.0,0.029744785279035568
194.0,215.0,0.8453,-0.3505,9.5976,-0.0215,0.0156,-0.1261,-1.8367630443968714,0.0,3.165633201599121,-1.667596459388733,-0.0,2.0857043266296387,4.872346478491583,-0.0,0.29559069871902466,-1.531614128743307,0.0,-0.021238766610622406,0.8462083339691162,-0.0,0.011184893548488617,0.8886190056800842,0.0,0.023939305916428566
194.0,215.0,0.8453,-0.3505,9.5976,-0.0215,0.0156,-0.1261,-1.836743017236227,0.0,3.1970372200012207,-1.66755211353302,-0.0,2.0536465644836426,4.872390854149618,-0.0,0.28621065616607666,-1.531593147908346,0.0,-0.020822353661060333,0.8462123870849609,-0.0,0.004083860199898481,0.8886349201202393,0.0,-0.010182133875787258
194.0,215.0,0.8453,-0.3505,9.5976,-0.0215,0.0156,-0.1261,-1.836743017236227,0.0,3.2127695083618164,-1.6675760746002197,-0.0,2.110269069671631,4.872419076948919,-0.0,0.28287598490715027,-1.5315974394427698,0.0,-0.009905057027935982,0.8461885452270508,-0.0,-0.0026994477957487106,0.888667106628418,0.0,0.03315907344222069
194.0,215.0,0.8453,-0.3505,9.5976,-0.0215,0.0156,-0.1261,-1.8367630443968714,0.0,3.2115464210510254,-1.6675242185592651,-0.0,2.1240086555480957,4.872370722680845,-0.0,0.2844356894493103,-1.5316460768329065,0.0,-0.003570869332179427,0.8462331295013428,-0.0,-0.013449170626699924,0.888638973236084,0.0,0.02575978823006153
194.0,215.0,0.8453,-0.3505,9.5976,-0.0215,0.0156,-0.1261,-1.8367067776122035,0.0,3.2131576538085938,-1.667616367340088,-0.0,2.097585916519165,4.872378977924146,-0.0,0.31210365891456604,-1.5316055456744593,0.0,-0.024770980700850487,0.8461400866508484,-0.0,0.009271779097616673,0.8886349201202393,0.0,0.021048540249466896
194.0,215.0,0.8453,-0.3505,9.5976,-0.0215,0.0156,-0.1261,-1.8367754421629847,0.0,3.227731943130493,-1.6675680875778198,-0.0,2.114797592163086,4.872382613807478,-0.0,0.28420373797416687,-1.5316055456744593,0.0,-0.006182574201375246,0.8461926579475403,-0.0,0.0010283200535923243,0.8886508941650391,0.0,-0.00578308617696166
194.0,215.0,0.8453,-0.3505,9.5976,-0.0215,0.0156,-0.1261,-1.8367067776122035,0.0,3.222733736038208,-1.667580485343933,-0.0,2.076063394546509,4.872427287488737,-0.0,0.2892237901687622,-1.5315974394427698,0.0,-0.02023898996412754,0.8461644053459167,-0.0,-0.004667932167649269,0.8886027336120605,0.0,-0.00894912425428629
200.0,217.0,1.1127,-0.6024,9.3434,-0.0281,0.0308,-0.1168,-1.836743017236227,0.0,3.20371150970459,-1.66756010055542,-0.0,2.068570137023926,4.872338342457571,-0.0,0.2783965766429901,-1.53162128130068,0.0,-0.010247370228171349,0.8462045788764954,-0.0,-0.0005857015494257212,0.8885827660560608,0.0,-0.04246772080659866
200.0,217.0,1.1127,-0.6024,9.3434,-0.0281,0.0308,-0.1168,-1.8367306194701136,0.0,3.243865489959717,-1.6675323247909546,-0.0,2.0760717391967773,4.872402998595991,-0.0,0.2886691391468048,-1.5315855185138147,0.0,-0.00775967538356781,0.8461565375328064,-0.0,0.0072759040631353855,0.888663113117218,0.0,0.018344204872846603
200.0,217.0,1.1127,-0.6024,9.3434,-0.0281,0.0308,-0.1168,-1.8367349110045375,0.0,3.2542648315429688,-1.6675442457199097,-0.0,2.057067394256592,4.8723666099603555,-0.0,0.2900652289390564,-1.5316017309771937,0.0,-0.015512455254793167,0.8461923599243164,-0.0,-0.00561627559363842,0.8886351585388184,0.0,0.012649785727262497
200.0,217.0,1.1127,-0.6024,9.3434,-0.0281,0.0308,-0.1168,-1.836714883843893,0.0,3.1551709175109863,-1.6675362586975098,-0.0,2.0897421836853027,4.8723826734121225,-0.0,0.2881500720977783,-1.5316460768329065,0.0,-0.014064818620681763,0.846164345741272,-0.0,-0.005346114281564951,0.8885989189147949,0.0,0.009815636090934277
200.0,217.0,1.1127,-0.6024,9.3434,-0.0281,0.0308,-0.1168,-1.836738725701803,0.0,3.2509241104125977,-1.6675481796264648,-0.0,2.0360305309295654,4.87234644868926,-0.0,0.28819864988327026,-1.5316179434405726,0.0,-0.008217605762183666,0.8461923599243164,-0.0,-0.0039045035373419523,0.8886630535125732,0.0,0.032546136528253555
200.0,217.0,1.1127,-0.6024,9.3434,-0.0281,0.0308,-0.1168,-1.8367110691466273,0.0,3.212759494781494,-1.66755211353302,-0.0,2.0799691677093506,4.872370722680845,-0.0,0.2890145778656006,-1.5315731207477015,0.0,-0.008672395721077919,0.8461644649505615,-0.0,-0.003952650353312492,0.8886107802391052,0.0,-0.02790583297610283
200.0,217.0,1.1127,-0.6024,9.3434,-0.0281,0.0308,-0.1168,-1.8367554150023402,0.0,3.1702961921691895,-1.6675724983215332,-0.0,2.0724024772644043,4.872403028398313,-0.0,0.3013177216053009,-1.531614128743307,0.0,-0.011855214834213257,0.8461885452270508,-0.0,0.00337244663387537,0.8886349201202393,0.0,-0.02691725827753544
200.0,217.0,1.1127,-0.6024,9.3434,-0.0281,0.0308,-0.1168,-1.8367630443968714,0.0,3.200300693511963,-1.667588472366333,-0.0,2.078721046447754,4.872374805599012,-0.0,0.2868250608444214,-1.5315731207477015,0.0,-0.01022519264370203,0.8461999893188477,-0.0,0.0017965059960260987,0.8886229991912842,0.0,-0.0211808905005455
200.0,217.0,1.1127,-0.6024,9.3434,-0.0281,0.0308,-0.1168,-1.8367353878416957,0.0,3.2056257724761963,-1.66756010055542,-0.0,2.105963706970215,4.8723948923643015,-0.0,0.2991925776004791,-1.531614128743307,0.0,-0.02128848247230053,0.846184492111206,-0.0,0.0014339883346110582,0.8886067271232605,0.0,-0.01194331981241703
200.0,217.0,1.1127,-0.6024,9.3434,-0.0281,0.0308,-0.1168,-1.836714883843893,0.0,3.2248053550720215,-1.6675680875778198,-0.0,2.112084150314331,4.872370707779684,-0.0,0.28787195682525635,-1.5316293875323694,0.0,-0.006062697619199753,0.846160352230072,-0.0,0.005548401735723019,0.8886352181434631,0.0,0.043532345443964005
200.0,217.0,1.1127,-0.6024,9.3434,-0.0281,0.0308,-0.1168,-1.8367630443968714,0.0,3.191986560821533,-1.6675481796264648,-0.0,2.056025743484497,4.8724030432994745,-0.0,0.289508193731308,-1.5316255728351038,0.0,-0.018449153751134872,0.8461926579475403,-0.0,-0.005420176312327385,0.8886148929595947,0.0,0.007413145154714584
200.0,217.0,1.1127,-0.6024,9.3434,-0.0281,0.0308,-0.1168,-1.8367110691466273,0.0,3.167151927947998,-1.6675442457199097,-0.0,2.0840001106262207,4.872362467437544,-0.0,0.29014116525650024,-1.531581226979391,0.0,-0.024578167125582695,0.846156120300293,-0.0,-0.008323850110173225,0.8886107802391052,0.0,-0.04226669296622276
200.0,217.0,1.1127,-0.6024,9.3434,-0.0281,0.0308,-0.1168,-1.8367392025389613,0.0,3.2087111473083496,-1.6675323247909546,-0.0,2.0696914196014404,4.872378456383505,-0.0,0.2887198030948639,-1.531614128743307,0.0,-0.0067343502305448055,0.8461840748786926,-0.0,-0.00371356587857008,0.8886107802391052,0.0,0.0045000109821558
200.0,217.0,1.1127,-0.6024,9.3434,-0.0281,0.0308,-0.1168,-1.8367110691466273,0.0,3.2257843017578125,-1.6675163507461548,-0.0,2.0605416297912598,4.872354703932562,-0.0,0.28327590227127075,-1.5316293875323694,0.0,-0.012622561305761337,0.8461644053459167,-0.0,-0.006585923954844475,0.8886349201202393,0.0,-0.0018647052347660065
200.0,217.0,1.1127,-0.6024,9.3434,-0.0281,0.0308,-0.1168,-1.8367353878416957,0.0,3.2195634841918945,-1.6675323247909546,-0.0,2.0579938888549805,4.872366639762678,-0.0,0.29803478717803955,-1.5316255728351038,0.0,-0.018963078036904335,0.8462041616439819,-0.0,0.0007700257119722664,0.8886749148368835,0.0,0.04631747677922249
203.0,210.0,0.8859,-0.5761,9.5934,-0.046,0.0258,-0.1408,-1.836759706536764,0.0,3.2295656204223633,-1.6675163507461548,5.201703970669769e-05,2.100754737854004,4.872386711626806,-0.0,0.2903546094894409,-1.5316017309771937,0.0,-0.013867558911442757,0.8462124466896057,-0.0,0.008410453796386719,0.8886549472808838,0.0,-0.028451085090637207
203.0,210.0,0.8859,-0.5761,9.5934,-0.046,0.0258,-0.1408,-1.836743017236227,0.0,3.2360119819641113,-1.667576551437378,8.231520041590557e-05,2.1242074966430664,4.872378471284666,-0.0,0.2973923683166504,-1.5316055456744593,0.0,-0.015491623431444168,0.8461606502532959,-0.0,0.0006100787431932986,0.8885830044746399,0.0,-0.018216034397482872
203.0,210.0,0.8859,-0.5761,9.5934,-0.046,0.0258,-0.1408,-1.836698671380514,0.00015696779883001,3.2115421295166016,-1.6675243377685547,0.00091626460198313,2.0399956703186035,4.872370707779684,-0.0,0.28289809823036194,-1.5316055456744593,0.0,-0.01431221328675747,0.8461484313011169,-0.0,0.0019005893263965845,0.8886107802391052,0.0,0.008168349042534828
203.0,210.0,0.8859,-0.5761,9.5934,-0.046,0.0258,-0.1408,-1.8367234669127406,0.00016053694707807153,3.2154321670532227,-1.6674686670303345,0.0008309123804792762,2.0648391246795654,4.87239499667243,-0.0,0.2936645746231079,-1.5316336790667933,0.0,-0.012821437790989876,0.846184492111206,-0.0,0.0002139998832717538,0.8886950016021729,0.0,-0.022705713286995888
203.0,210.0,0.8859,-0.5761,9.5934,-0.046,0.0258,-0.1408,-1.836714883843893,0.00015624049410689622,3.209993362426758,-1.6675403118133545,0.0007454996812157333,2.1188535690307617,4.872370707779684,-0.0,0.28665032982826233,-1.5316460768329065,0.0,-0.011306707747280598,0.8462492227554321,-0.0,-0.00540193310007453,0.8887069225311279,0.001125047099776566,0.017384782433509827
203.0,210.0,0.8859,-0.5761,9.5934,-0.046,0.0258,-0.1408,-1.8367353878416957,0.0001454213197575882,3.209467887878418,-1.6675283908843994,0.0007022183272056282,2.022240161895752,4.872382658510961,-0.0,0.28232264518737793,-1.5316737333880823,0.0,-0.024232134222984314,0.8462082743644714,-0.0,0.00021491246297955513,0.888694703578949,0.0020860026124864817,0.010518597438931465
203.0,210.0,0.8859,-0.5761,9.5934,-0.046,0.0258,-0.1408,-1.8367392025389613,0.0001487839181208983,3.23362398147583,-1.667496681213379,0.0013036798918619752,2.096160411834717,4.872334289341726,-0.0,0.2836383879184723,-1.5316336790667933,0.0,-0.006247510202229023,0.8462610840797424,-0.0,0.0012368358438834548,0.8887026309967041,0.0036681098863482475,-0.012226248160004616
203.0,210.0,0.8859,-0.5761,9.5934,-0.046,0.0258,-0.1408,-1.8366781673827113,0.00014597823610529304,3.230921983718872,-1.667432427406311,0.0017277835868299007,2.0387954711914062,4.872403028398313,3.781235591304721e-08,0.29979628324508667,-1.5316169897662562,0.0,-0.0007529425201937556,0.8462246060371399,-0.0,-0.005628538317978382,0.8887267112731934,0.004590694326907396,0.020599961280822754
203.0,210.0,0.8859,-0.5761,9.5934,-0.046,0.0258,-0.1408,-1.8367353878416957,0.00013760844012722373,3.2341814041137695,-1.667472243309021,0.002213189145550132,2.0893566608428955,4.872378471284666,1.0525206574352186e-11,0.29318204522132874,-1.5316818396197718,0.0,-0.007135126739740372,0.8462041020393372,-0.0,-0.004918205551803112,0.8887504935264587,0.005083348602056503,0.04460335522890091
203.0,210.0,0.8859,-0.5761,9.5934,-0.046,0.0258,-0.1408,-1.8367234669127406,0.0001301463198615238,3.193474292755127,-1.6674443483352661,0.002173386514186859,2.0497658252716064,4.872426467924871,2.929730051699146e-15,0.29057955741882324,-1.531701389943258,0.0,-0.0051170578226447105,0.8462045192718506,-0.0,0.008834030479192734,0.8888309001922607,0.005186760798096657,0.012985123321413994
203.0,210.0,0.8859,-0.5761,9.5934,-0.046,0.0258,-0.1408,-1.8367067776122035,0.00012345192953944206,3.2078518867492676,-1.6674364805221558,0.001909217331558466,2.080845355987549,4.872450697212972,8.155010807977203e-19,0.29366302490234375,-1.5316413084613245,3.749939525565793e-10,-0.020395779982209206,0.8462045788764954,-0.0,-0.010044936090707779,0.8888746500015259,0.004764982499182224,0.06416729092597961
203.0,210.0,0.8859,-0.5761,9.5934,-0.046,0.0258,-0.1408,-1.8367234669127406,0.00011741262278519571,3.231832504272461,-1.6674363613128662,0.0014002626994624734,2.0954713821411133,4.872426467924871,2.269977420814477e-22,0.2871113121509552,-1.5316532293902796,1.0438095429231992e-13,-0.024570411071181297,0.8461964726448059,-0.0,0.001836541574448347,0.8888949155807495,0.00391541188582778,0.011224827729165554
203.0,210.0,0.8859,-0.5761,9.5934,-0.046,0.0258,-0.1408,-1.836726804772848,0.00011193640966666862,3.2184946537017822,-1.6674165725708008,0.000964102684520185,2.0430924892425537,4.872414949327268,6.318565077047191e-26,0.2958923876285553,-1.531637970601217,2.9054824895043504e-17,-0.008579825051128864,0.8462450504302979,-0.0,-0.008639510720968246,0.8889106512069702,0.003890145570039749,0.041634827852249146
203.0,210.0,0.8859,-0.5761,9.5934,-0.046,0.0258,-0.1408,-1.8367592296996058,0.00010694845695979893,3.208897352218628,-1.667484164237976,0.0005802821833640337,2.113265037536621,4.87239074984149,1.7587957877907118e-29,0.29681581258773804,-1.5316374937640589,8.087516908960711e-21,0.0006836376851424575,0.8462331295013428,-0.0,0.0007100872462615371,0.8889349102973938,0.0037024759221822023,-0.004252124112099409
203.0,210.0,0.8859,-0.5761,9.5934,-0.046,0.0258,-0.1408,-1.8367353878416957,0.00010238599497824907,3.2280521392822266,-1.6674485206604004,0.00041834122384898365,2.0460894107818604,4.872394788056173,4.895673893049708e-33,0.2876574993133545,-1.5316813627826136,2.2511899173843426e-24,-0.014471873641014099,0.8462205529212952,-0.0,0.009533239528536797,0.8889868259429932,0.004236506763845682,0.04256904497742653
199.0,218.0,1.002,-0.1591,9.4869,-0.0145,-0.0104,-0.0877,-1.8367191753783167,9.819693514145911e-05,3.1652915477752686,-1.6674001216888428,0.00039250412373803556,2.052732467651367,4.872394788056173,1.3627286321356814e-36,0.2868787348270416,-1.5316336790667933,6.266269704228961e-28,-0.00980041641741991,0.8462331295013428,-0.0,-0.0051624770276248455,0.8889705538749695,0.004134743940085173,0.027270253747701645
199.0,218.0,1.002,-0.1591,9.4869,-0.0145,-0.0104,-0.0877,-1.8367191753783167,8.255142893176526e-05,3.216064453125,-1.6674563884735107,0.00032222646404989064,2.058154344558716,4.872382613807478,3.793202839050134e-40,0.2978188097476959,-1.5316174666034144,1.7442393074040837e-31,-0.012716585770249367,0.8462287187576294,-0.0,0.0035702879540622234,0.8890106678009033,0.003187519498169422,-0.015227541327476501
199.0,218.0,1.002,-0.1591,9.4869,-0.0145,-0.0104,-0.0877,-1.836754938165182,7.942315278341994e-05,3.204437732696533,-1.667440414428711,0.00027329669683240354,2.0857176780700684,4.87237477579669,1.0509738482436128e-43,0.28742504119873047,-1.5316699186908167,4.855154419105871e-35,-0.015256689861416817,0.8462207913398743,-0.0,-0.01527632400393486,0.8889825344085693,0.002127220621332526,0.017717618495225906
199.0,218.0,1.002,-0.1591,9.4869,-0.0145,-0.0104,-0.0877,-1.8367110691466273,3.559744800440967e-05,3.230623245239258,-1.6674081087112427,0.00023726893414277583,2.0747756958007812,4.872350591212072,0.0,0.29879555106163025,-1.531689469014303,1.3514500740533904e-38,-0.009160877205431461,0.846184492111206,-0.0,0.0089854896068573,0.8890548348426819,0.0015015065437182784,0.010586163029074669
199.0,218.0,1.002,-0.1591,9.4869,-0.0145,-0.0104,-0.0877,-1.836766859094137,1.679251727182418e-05,3.2170660495758057,-1.6673723459243774,0.00020963416318409145,2.0836167335510254,4.872390794544973,0.0,0.288657009601593,-1.531637970601217,3.762486376712134e-42,-0.00773253757506609,0.8461524844169617,-0.0,0.00679122656583786,0.8890548348426819,0.0011106058955192566,0.029862117022275925
199.0,218.0,1.002,-0.1591,9.4869,-0.0145,-0.0104,-0.0877,-1.8368236027159632,2.1718368259371346e-07,3.1965160369873047,-1.667420506477356,0.00018776532670017332,2.0745863914489746,4.872318300395765,0.0,0.2873355746269226,-1.531637970601217,1.401298464324817e-45,-0.009733428247272968,0.8461766242980957,-0.0,-0.004031375981867313,0.8890306949615479,0.0007672978099435568,-0.048458751291036606
199.0,218.0,1.002,-0.1591,9.4869,-0.0145,-0.0104,-0.0877,-1.8367630443968714,5.244729889102018e-13,3.1965174674987793,-1.667388677597046,0.0001700284774415195,2.057971239089966,4.872403058200636,0.0,0.28387919068336487,-1.5316293875323694,0.0,-0.024211209267377853,0.8461359739303589,-0.0,0.0040637291967868805,0.8890548348426819,0.0005813547759316862,0.019749412313103676
199.0,218.0,1.002,-0.1591,9.4869,-0.0145,-0.0104,-0.0877,-1.836726804772848,1.2665406968378654e-18,3.183157444000244,-1.6673965454101562,0.00018124542839359492,2.067636489868164,4.872354703932562,0.0,0.29924285411834717,-1.5316293875323694,0.0,-0.0028935715090483427,0.8462041020393372,-0.0,-0.008627519011497498,0.8890347480773926,0.00041107050492428243,0.014451892115175724
199.0,218.0,1.002,-0.1591,9.4869,-0.0145,-0.0104,-0.0877,-1.836714883843893,3.0585466526043925e-24,3.1776514053344727,-1.6674244403839111,0.00019035210425499827,2.0748488903045654,4.872390794544973,0.0,0.2895931899547577,-1.5316618124591272,0.0,-0.02099016308784485,0.8462164998054504,-0.0,-2.2384338080883026e-05,0.8889787793159485,5.688312739948742e-05,0.08253862708806992
199.0,218.0,1.002,-0.1591,9.4869,-0.0145,-0.0104,-0.0877,-1.836754938165182,7.386031614691193e-30,3.1951003074645996,-1.6674643754959106,0.00012998361489735544,2.057689666748047,4.872374790697851,0.0,0.2984551191329956,-1.531637970601217,0.0,-0.012213139794766903,0.8462164998054504,-0.0,-0.005855980329215527,0.8890106678009033,3.960729244578687e-10,-0.04067017510533333
199.0,218.0,1.002,-0.1591,9.4869,-0.0145,-0.0104,-0.0877,-1.8367506466307582,1.7836396248597486e-35,3.1629300117492676,-1.667372226715088,0.00011432373867137358,2.0565695762634277,4.872350606113233,0.0,0.29172563552856445,-1.5316780249225062,0.0,-0.009234920144081116,0.8462494015693665,-0.0,-0.0022699807304888964,0.8889826536178589,-0.0005245570209808648,-0.015288343653082848
199.0,218.0,1.002,-0.1591,9.4869,-0.0145,-0.0104,-0.0877,-1.8367911777892054,4.3073112196416227e-41,3.164095878601074,-1.6674485206604004,0.0001274716923944652,2.1218490600585938,4.872403028398313,0.0,0.2893702983856201,-1.5315774122821253,0.0,-0.021518811583518982,0.8462127447128296,-0.0,-0.005584508180618286,0.8889545798301697,-0.0018016236135736108,0.022211691364645958
199.0,218.0,1.002,-0.1591,9.4869,-0.0145,-0.0104,-0.0877,-1.8367587528624476,0.0,3.1929986476898193,-1.6673966646194458,0.00011904258280992508,2.084211826324463,4.872366624861517,0.0,0.2794716954231262,-1.5316498915301722,0.0,-0.01145697571337223,0.846184492111206,-0.0,-0.005230908747762442,0.8889788389205933,-0.0015934425173327327,0.00799626111984253
199.0,218.0,1.002,-0.1591,9.4869,-0.0145,-0.0104,-0.0877,-1.8367749653258265,0.0,3.234771728515625,-1.667376160621643,0.00011165826435899362,2.0618934631347656,4.8723748354013345,0.0,0.2852901816368103,-1.531637970601217,0.0,-0.008657573722302914,0.8462083339691162,-0.0,-0.006242236588150263,0.8889226913452148,-0.0016441664192825556,0.019351724535226822
199.0,218.0,1.002,-0.1591,9.4869,-0.0145,-0.0104,-0.0877,-1.8367868862547816,-0.0002996568800881505,3.2010498046875,-1.6674325466156006,0.00010513644519960508,2.0721583366394043,4.872334274440565,-2.304643021489028e-05,0.2757106125354767,-1.5316255728351038,0.0,-0.01851867139339447,0.8461840152740479,-0.0,0.00011811614967882633,0.8889347910881042,-0.0020008969586342573,0.011878076940774918
198.0,220.0,1.078,-0.3087,9.594,-0.0483,0.0173,-0.1231,-1.8367792568602503,-0.00025145502877421677,3.2210731506347656,-1.6674842834472656,0.00011588909546844661,2.0466225147247314,4.872386711626806,-2.5654100682004355e-05,0.2928731441497803,-1.5316017309771937,0.0,-0.005440108012408018,0.846184492111206,-0.0,-0.006264455150812864,0.8888947367668152,-0.0022768958006054163,-0.013699271716177464
198.0,220.0,1.078,-0.3087,9.594,-0.0483,0.0173,-0.1231,-1.83681120494985,-0.000256659317528829,3.1879940032958984,-1.667452335357666,0.0001255180686712265,2.0840933322906494,4.872318315296926,-2.4603152269264683e-05,0.29147273302078247,-1.5316055456744593,0.0,-0.012785100378096104,0.8462041020393372,-0.0,-0.001739723258651793,0.8888628482818604,-0.002243803581222892,0.05129755288362503
198.0,220.0,1.078,-0.3087,9.594,-0.0483,0.0173,-0.1231,-1.8367873630919398,-0.0002259757020510733,3.202685832977295,-1.6674200296401978,0.000280614010989666,2.0732128620147705,4.8723424700792215,-2.3634052922716364e-05,0.2961605191230774,-1.531593147908346,0.0,-0.018101265653967857,0.8461999893188477,-0.0,-0.0055356621742248535,0.8888947367668152,-0.0018955382984131575,0.005397561006247997
198.0,220.0,1.078,-0.3087,9.594,-0.0483,0.0173,-0.1231,-1.8367587528624476,-0.00016866422083694488,3.1857123374938965,-1.667364239692688,0.0019488114630803466,2.0635008811950684,4.872358369618215,-2.2738387997378595e-05,0.28684377670288086,-1.5316255728351038,0.0,-0.012883673422038555,0.8462569713592529,-0.0,-0.00035104528069496155,0.8888866901397705,-0.0014193167444318533,0.00029960786923766136
198.0,220.0,1.078,-0.3087,9.594,-0.0483,0.0173,-0.1231,-1.8367544613280238,-0.00014564637967851013,3.181150436401367,-1.6673684120178223,0.003546788590028882,2.083224296569824,4.872366624861517,-1.0823939192050602e-05,0.2851405739784241,-1.531637970601217,0.0,-0.018379151821136475,0.846176266670227,-0.0,0.0004100954392924905,0.888922929763794,-0.0008557697874493897,-0.025594178587198257
198.0,220.0,1.078,-0.3087,9.594,-0.0483,0.0173,-0.1231,-1.8367992840208949,-0.0001327560021309182,3.206155300140381,-1.6673082113265991,0.00399871077388525,2.0652997493743896,4.8723583845193765,-1.0445532097946852e-05,0.2881518602371216,-1.5316737333880823,0.0,-0.018026629462838173,0.8461923003196716,-0.0,0.004298998974263668,0.8889232277870178,-0.0006535884458571672,0.002060272730886936
198.0,220.0,1.078,-0.3087,9.594,-0.0483,0.0173,-0.1231,-1.8367954693236292,-0.0001219616606249474,3.2235498428344727,-1.6672922372817993,0.005016964394599199,2.1128530502319336,4.872434678464689,-1.0094082426803652e-05,0.2941766381263733,-1.5316455999957483,0.0,-0.028103496879339218,0.8461840152740479,-0.0,0.004722220823168755,0.8888788223266602,-0.0004794152919203043,-0.026874123141169548
198.0,220.0,1.078,-0.3087,9.594,-0.0483,0.0173,-0.1231,-1.8367625675597132,-0.00011279099999228492,3.209092140197754,-1.6672606468200684,0.004800357855856419,2.1289939880371094,4.872346478491583,-8.395074502232092e-08,0.2859293818473816,-1.531637970601217,0.0,-0.0038762963376939297,0.8461440205574036,-0.0,-0.0032306937500834465,0.8888788223266602,-0.0003785578301176429,-0.002011506352573633
198.0,220.0,1.078,-0.3087,9.594,-0.0483,0.0173,-0.1231,-1.836771150628561,-0.00012342438276391476,3.2166919708251953,-1.6672567129135132,0.003996296785771847,2.099198818206787,4.872370707779684,-2.336800197788591e-11,0.28660082817077637,-1.5316656271563929,0.0,-0.016865335404872894,0.8462285995483398,-0.0,0.010332953184843063,0.8888907432556152,-0.00031276672962121665,-0.0026267084758728743
198.0,220.0,1.078,-0.3087,9.594,-0.0483,0.0173,-0.1231,-1.8368030987181605,-0.00011765531962737441,3.1953072547912598,-1.6672279834747314,0.003243948332965374,2.082369327545166,4.872426527529516,-6.504569289873113e-15,0.2951851785182953,-1.5316656271563929,0.0,-0.015617875382304192,0.8462486863136292,-0.0,0.00842901412397623,0.8888469338417053,-0.0002664612256921828,-0.01046029943972826
198.0,220.0,1.078,-0.3087,9.594,-0.0483,0.0173,-0.1231,-1.8368150196471156,-0.00012883938325103372,3.208648443222046,-1.6672040224075317,0.001965889008715749,2.097623109817505,4.872346478491583,-1.8105709750642444e-18,0.30032622814178467,-1.5316336790667933,0.0,-0.012330458499491215,0.84621262550354,-0.0,0.013278884813189507,0.8888706564903259,-0.00023210022482089698,-0.022042345255613327
198.0,220.0,1.078,-0.3087,9.594,-0.0483,0.0173,-0.1231,-1.8368030987181605,-0.0001387366937706247,3.217731475830078,-1.6671760082244873,0.0008745292434468865,2.086510181427002,4.872407096415319,-5.03979023782245e-22,0.2934374511241913,-1.5316293875323694,0.0,-0.019095037132501602,0.8461959362030029,-0.0,0.016998983919620514,0.8888868689537048,-0.00020558938558679074,0.020835038274526596
198.0,220.0,1.078,-0.3087,9.594,-0.0483,0.0173,-0.1231,-1.8367787800230921,-0.00013115543697495013,3.224548816680908,-1.667236328125,0.0005520316772162914,2.0633606910705566,4.872342365771093,-1.402844413263268e-25,0.2993767261505127,-1.5316656271563929,0.0,-0.01833042874932289,0.8462371826171875,-0.0,0.010046510025858879,0.88889479637146,-0.0001537675561849028,0.0046733682975173
198.0,220.0,1.078,-0.3087,9.594,-0.0483,0.0173,-0.1231,-1.836783071557516,-0.00012435945973265916,3.1646909713745117,-1.6672483682632446,0.0004034640151076019,2.1054811477661133,4.872394788056173,-3.9048690040078537e-29,0.30037036538124084,-1.5316174666034144,0.0,-0.016283271834254265,0.8462000489234924,-0.0,0.003451302647590637,0.8888147473335266,-0.00013946490071248263,0.031678538769483566
198.0,220.0,1.078,-0.3087,9.594,-0.0483,0.0173,-0.1231,-1.8368150196471156,-0.00011823313252534717,3.216494083404541,-1.6672159433364868,0.0003814689989667386,2.030811071395874,4.872354733734884,-1.0869345900780534e-32,0.30872228741645813,-1.5316818396197718,0.0,-0.01697184331715107,0.8461638689041138,-0.0,0.016948241740465164,0.8889070153236389,-0.00010208133608102798,-0.00588219752535224
201.0,214.0,1.0935,-0.6724,9.4977,-0.0296,-0.0139,-0.0997,-1.83681120494985,-0.00011268204252701253,3.195934772491455,-1.6671881675720215,0.00034194852923974395,2.073671340942383,4.872366595059194,-3.025522214587055e-36,0.2994711101055145,-1.531677548085348,0.0,-0.009025068022310734,0.8461763262748718,-0.0,0.02731417305767536,0.8889188766479492,3.813243893091567e-05,-0.0032856110483407974
201.0,214.0,1.0935,-0.6724,9.4977,-0.0296,-0.0139,-0.0997,-1.836823125878805,-0.00010762890451587737,3.211705207824707,-1.6672046184539795,0.001473790965974331,2.0378646850585938,4.872366624861517,-8.421649627761075e-40,0.2866288423538208,-1.5316575209247034,0.0,-0.043160997331142426,0.8462246656417847,-0.0,0.02958662435412407,0.888866662979126,7.255325908772647e-05,0.07494599372148514
201.0,214.0,1.0935,-0.6724,9.4977,-0.0296,-0.0139,-0.0997,-1.8368193111815394,-0.0001030094936140813,3.1742162704467773,-1.6671762466430664,0.002490395912900567,2.0977516174316406,4.872354733734884,-2.3401684354224445e-43,0.30142953991889954,-1.5316255728351038,0.0,-0.03524845838546753,0.84621661901474,0.0001877008908195421,0.025337280705571175,0.8888907432556152,0.00010425427899463102,0.0442303828895092
201.0,214.0,1.0935,-0.6724,9.4977,-0.0296,-0.0139,-0.0997,-1.836771150628561,-9.877028060145676e-05,3.2000157833099365,-1.6671603918075562,0.0030930419452488422,2.0698509216308594,4.872346433788099,-0.0,0.292091965675354,-1.5316413084613245,0.0,-0.03172221779823303,0.8462570309638977,0.00018335974891670048,0.015561278909444809,0.8888906836509705,0.00010414934513391927,0.08448132127523422
201.0,214.0,1.0935,-0.6724,9.4977,-0.0296,-0.0139,-0.0997,-1.8367911777892054,-9.48662418522872e-05,3.1606285572052,-1.667091727256775,0.0028681547846645117,2.063162326812744,4.8723826436098,-0.0,0.2959338426589966,-1.5316255728351038,0.0,-0.029919197782874107,0.8462283611297607,0.00018031755462288857,0.016445305198431015,0.8888706564903259,0.0003589999978430569,0.08408786356449127
201.0,214.0,1.0935,-0.6724,9.4977,-0.0296,-0.0139,-0.0997,-1.8367911777892054,-9.125901124207303e-05,3.176255702972412,-1.667128086090088,0.0023814826272428036,2.075840711593628,4.872346627503195,-0.0,0.30147817730903625,-1.5316656271563929,0.0,-0.027705367654561996,0.8462960124015808,0.0001639006077311933,0.02344084158539772,0.8889110684394836,0.0003410213394090533,0.06916943192481995
201.0,214.0,1.0935,-0.6724,9.4977,-0.0296,-0.0139,-0.0997,-1.8368269405760707,-6.622596265515313e-05,3.188115119934082,-1.6671286821365356,0.0018386916490271688,2.050644636154175,4.872407096415319,-0.0,0.3041393756866455,-1.5316255728351038,0.0,-0.029280440881848335,0.8462961316108704,0.0001744019245961681,0.014394698664546013,0.8888785243034363,0.0002915866207331419,0.04549350589513779
201.0,214.0,1.0935,-0.6724,9.4977,-0.0296,-0.0139,-0.0997,-1.8367864094176234,-7.608919986523688e-05,3.2085235118865967,-1.667108416557312,0.0012289711739867926,2.0964837074279785,4.872358786850729,-0.0,0.3047405183315277,-1.5316618124591272,0.0,-0.033399440348148346,0.8462445735931396,0.0001617569214431569,0.034112296998500824,0.8889191150665283,0.0002509335754439235,0.12545979022979736
201.0,214.0,1.0935,-0.6724,9.4977,-0.0296,-0.0139,-0.0997,-1.8368636570372523,-8.517285459674895e-05,3.1537818908691406,-1.6671444177627563,0.0007839776808395982,2.048870086669922,4.872338357358732,-0.0,0.2909899950027466,-1.5316575209247034,0.0,-0.032797154039144516,0.8462486267089844,0.000150187814142555,0.0243879035115242,0.8889029026031494,0.0002202293399022892,0.07685545086860657
201.0,214.0,1.0935,-0.6724,9.4977,-0.0296,-0.0139,-0.0997,-1.8368269405760707,-9.356599912280217e-05,3.2037172317504883,-1.667116641998291,0.0005745789385400712,2.1188273429870605,4.872338372259893,-0.0,0.31035473942756653,-1.5316045920001429,0.0,-0.03791063651442528,0.8462681174278259,0.0001401632762281224,0.039584703743457794,0.8888547420501709,0.00022892231936566532,0.05306608974933624
201.0,214.0,1.0935,-0.6724,9.4977,-0.0296,-0.0139,-0.0997,-1.8368388615050257,-0.0003165731905028224,3.198033332824707,-1.6671444177627563,0.000155000583617948,2.0704598426818848,4.872362988978185,-0.0,0.2988024652004242,-1.5316413084613245,0.0,-0.03165224939584732,0.8462206125259399,0.00013139292423147708,0.032184898853302,0.8889029026031494,0.00020642110030166805,0.07947184145450592
201.0,214.0,1.0935,-0.6724,9.4977,-0.0296,-0.0139,-0.0997,-1.8368469677367152,-0.0003136897285003215,3.13895320892334,-1.667159914970398,0.00012317141226958483,2.130317211151123,4.872378992825308,-0.0,0.2922220230102539,-1.5316737333880823,0.0,-0.04606084153056145,0.8462560176849365,0.0001236559182871133,0.03805260732769966,0.8889110684394836,0.00018794646894093603,0.10850570350885391
201.0,214.0,1.0935,-0.6724,9.4977,-0.0296,-0.0139,-0.0997,-1.8368226490416468,-0.0003116271982435137,3.167137384414673,-1.6671638488769531,0.0001532811438664794,2.0871100425720215,4.8723428575094125,-0.0,0.29478514194488525,-1.5316737333880823,0.0,-0.03735818341374397,0.8462560176849365,0.00013344301260076463,0.03060142695903778,0.8889148235321045,0.00017250710516236722,0.09345269203186035
201.0,214.0,1.0935,-0.6724,9.4977,-0.0296,-0.0139,-0.0997,-1.836867471734518,-0.00027137575671076775,3.181649684906006,-1.6671241521835327,0.00013097500777803361,2.107150077819824,4.872350725322523,-0.0,0.29224780201911926,-1.5316413084613245,0.0,-0.031840771436691284,0.8462083339691162,0.00012643125955946743,0.02153601497411728,0.888882577419281,0.00015941185120027512,0.09811972081661224
201.0,214.0,1.0935,-0.6724,9.4977,-0.0296,-0.0139,-0.0997,-1.8368188343443812,-0.00024031831708271056,3.1828806400299072,-1.667132019996643,0.0001143349873018451,2.057027816772461,4.872378977924146,-0.0,0.29221874475479126,-1.5316498915301722,0.0,-0.03358064591884613,0.8462406992912292,0.00012010401405859739,0.047232553362846375,0.8889430165290833,0.0001693297817837447,0.09801239520311356
199.0,221.0,1.0899,-0.5258,9.341,-0.0278,0.0223,-0.1153,-1.8368312321104945,-0.00021564000053331256,3.198671340942383,-1.6671042442321777,0.0001041613650158979,2.0646450519561768,4.872358816653051,-0.0,0.293984055519104,-1.5316737333880823,0.0,-0.028619972988963127,0.8462839126586914,0.00011438006913522258,0.031879253685474396,0.8889029026031494,0.0001581715332577005,0.08634184300899506
199.0,221.0,1.0899,-0.5258,9.341,-0.0278,0.0223,-0.1153,-1.8368269405760707,-0.0001955587649717927,3.1387901306152344,-1.6671404838562012,0.00017097193631343544,2.0915660858154297,4.872346627503195,-0.0,0.29425376653671265,-1.5316818396197718,0.0,-0.044109899550676346,0.8462326526641846,0.00010929766722256318,0.03870387375354767,0.8889029026031494,0.00014839171490166336,0.14009490609169006
199.0,221.0,1.0899,-0.5258,9.341,-0.0278,0.0223,-0.1153,-1.8368555508055628,-0.0001788988010957837,3.185854434967041,-1.667092204093933,0.0009311086614616215,2.068979263305664,4.872330623656072,-0.0,0.28261488676071167,-1.5316618124591272,0.0,-0.040397316217422485,0.846280038356781,9.50556859606877e-05,0.03231120482087135,0.8889188766479492,0.0001110257871914655,0.06939348578453064
199.0,221.0,1.0899,-0.5258,9.341,-0.0278,0.0223,-0.1153,-1.8368150196471156,-0.0001883673103293404,3.1811094284057617,-1.6670923233032227,0.0010836266446858644,2.0927586555480957,4.872354703932562,-0.0,0.30051663517951965,-1.5316169897662562,0.0,-0.02588101103901863,0.8463124632835388,8.938879909692332e-05,0.025126419961452484,0.8889307975769043,0.0001231730857398361,0.09458094835281372
199.0,221.0,1.0899,-0.5258,9.341,-0.0278,0.0223,-0.1153,-1.8368431530394496,-0.00017469158046878874,3.1982309818267822,-1.6671440601348877,0.0010850670514628291,2.0693860054016113,4.872358786850729,-0.0,0.2943418622016907,-1.5316255728351038,0.0,-0.02869083173573017,0.8462366461753845,0.0001010863998089917,0.03820296376943588,0.8889188766479492,0.00013525450776796788,0.10434181988239288
199.0,221.0,1.0899,-0.5258,9.341,-0.0278,0.0223,-0.1153,-1.8368431530394496,-0.0001395109575241804,3.1755332946777344,-1.6671003103256226,0.0010243885917589068,2.1117639541625977,4.872378948121824,-0.0,0.3002227246761322,-1.5316537062274378,0.0,-0.03810219466686249,0.8462406396865845,9.584305371390656e-05,0.02515553869307041,0.8889066576957703,0.0001453048607800156,0.10303850471973419
199.0,221.0,1.0899,-0.5258,9.341,-0.0278,0.0223,-0.1153,-1.8368588886656703,-0.00015316149801947176,3.179359197616577,-1.6670883893966675,0.0009747316944412887,2.1066484451293945,4.872306394367971,-0.0,0.2999836504459381,-1.5316413084613245,0.0,-0.042930617928504944,0.846251904964447,0.00010225556616205722,0.037268493324518204,0.8889188766479492,0.0004617717058863491,0.08494475483894348
199.0,221.0,1.0899,-0.5258,9.341,-0.0278,0.0223,-0.1153,-1.836863180200094,-0.00018544148770160973,3.183706283569336,-1.6670883893966675,0.0007620943943038583,2.111363410949707,4.872354703932562,-0.0,0.3047272264957428,-1.531677548085348,0.0,-0.04325542598962784,0.8463121056556702,0.00010105406545335427,0.03072766214609146,0.8889548778533936,0.0007653908687643707,0.1317932903766632
199.0,221.0,1.0899,-0.5258,9.341,-0.0278,0.0223,-0.1153,-1.836863180200094,-0.0004086023836862296,3.1856040954589844,-1.6670485734939575,0.0006063952459953725,2.0311083793640137,4.872358786850729,-0.0,0.3096206486225128,-1.5316579977618616,0.0,-0.03501234948635101,0.8462437987327576,9.641543874749914e-05,0.034324388951063156,0.8889908790588379,0.0007104730466380715,0.12361906468868256
199.0,221.0,1.0899,-0.5258,9.341,-0.0278,0.0223,-0.1153,-1.8369270763792933,-0.0004496172477956861,3.173980474472046,-1.6671401262283325,0.00052912428509444,2.1387178897857666,4.872386711626806,-0.0,0.3096618056297302,-1.5316937605487269,0.0,-0.04479986056685448,0.8462839126586914,0.00010534824104979634,0.0476958267390728,0.8889107704162598,0.0006187258986756206,0.07117761671543121
199.0,221.0,1.0899,-0.5258,9.341,-0.0278,0.0223,-0.1153,-1.8369032345213832,-0.0006013153470121324,3.147554397583008,-1.6670321226119995,0.00048288251855410635,2.0640387535095215,4.872362959175863,-0.0,0.29581278562545776,-1.5316537062274378,0.0,-0.04293544590473175,0.8461796641349792,0.00010092194133903831,0.042924173176288605,0.8889467716217041,0.0005251787370070815,0.111629419028759
199.0,221.0,1.0899,-0.5258,9.341,-0.0278,0.0223,-0.1153,-1.8369070492186488,-0.0005995072424411774,3.21722412109375,-1.6670525074005127,0.0003414879320189357,2.127556324005127,4.872338789492407,-0.0,0.31328141689300537,-1.5316293875323694,0.0,-0.050339311361312866,0.8462679386138916,9.684936958365142e-05,0.04003331437706947,0.8889589905738831,0.0004073063610121608,0.11566571891307831
199.0,221.0,1.0899,-0.5258,9.341,-0.0278,0.0223,-0.1153,-1.8368550739684046,-0.0006011944497004151,3.2110486030578613,-1.6670082807540894,0.00033314357278868556,2.108433723449707,4.872346627503195,-0.0,0.3108369708061218,-1.531677548085348,0.0,-0.04749418795108795,0.8462719917297363,9.309266170021147e-05,0.04205005615949631,0.8889627456665039,0.0003321344265714288,0.05773872882127762
199.0,221.0,1.0899,-0.5258,9.341,-0.0278,0.0223,-0.1153,-1.8369189701476039,-0.0006243452080525458,3.214085102081299,-1.667040228843689,0.0003279638185631484,2.1016664505004883,4.872302326350965,-0.0,0.31880247592926025,-1.531637970601217,0.0,-0.03903679922223091,0.8462679386138916,8.961607818491757e-05,0.04730752110481262,0.888934850692749,0.0002803907264024019,0.09345181286334991
199.0,221.0,1.0899,-0.5258,9.341,-0.0278,0.0223,-0.1153,-1.8368989429869593,-0.0008666710346005857,3.2167131900787354,-1.6670684814453125,0.0003101921174675226,2.1331095695495605,4.872367027192869,-0.0,0.3222944736480713,-1.5316017309771937,0.0,-0.0385432094335556,0.8462597727775574,8.536588575225323e-05,0.040241487324237823,0.8889267444610596,0.00023216547560878098,0.05268842726945877
208.0,210.0,1.0169,-0.4792,9.5258,-0.0363,0.0267,-0.1144,-1.8369151554503382,-0.0012736337957903743,3.209394931793213,-1.6670725345611572,0.000274705293122679,2.0864365100860596,4.872371095209875,-0.0,0.30928540229797363,-1.5315974394427698,0.0,-0.04424244910478592,0.8462478518486023,8.243377669714391e-05,0.04588831216096878,0.8889589905738831,0.00020564044825732708,0.09987526386976242
208.0,210.0,1.0169,-0.4792,9.5258,-0.0363,0.0267,-0.1144,-1.8369108639159144,-0.0017429005820304155,3.2289538383483887,-1.6670725345611572,0.0002464904391672462,2.085853099822998,4.872367027192869,-0.0,0.31926530599594116,-1.5316498915301722,0.0,-0.03377577289938927,0.8463166356086731,9.803250577533618e-05,0.029062125831842422,0.8889508247375488,0.0001845552324084565,0.03452293574810028
208.0,210.0,1.0169,-0.4792,9.5258,-0.0363,0.0267,-0.1144,-1.8369184933104457,-0.002956229029223323,3.2027266025543213,-1.6670764684677124,0.0002235321735497564,2.086240291595459,4.872330623656072,-0.0,0.31808024644851685,-1.531609837208883,0.0,-0.042734019458293915,0.8463245034217834,9.203919762512669e-05,0.04022233933210373,0.8889430165290833,0.00013949384447187185,0.056142017245292664
208.0,210.0,1.0169,-0.4792,9.5258,-0.0363,0.0267,-0.1144,-1.8370028934874476,-0.004221998155117035,3.1794328689575195,-1.6670725345611572,0.0002044865395873785,2.0828890800476074,4.872286322503843,-0.0,0.3121591806411743,-1.531614128743307,0.0,-0.025617701932787895,0.8462597727775574,8.671806426718831e-05,0.045194730162620544,0.8889224529266357,0.0001363588817184791,0.0799698755145073
208.0,210.0,1.0169,-0.4792,9.5258,-0.0363,0.0267,-0.1144,-1.8370558224120082,-0.004410369787365198,3.1556944847106934,-1.667040228843689,0.00017315322475042194,2.0863404273986816,4.872358861356535,-0.0,0.31169819831848145,-1.531637970601217,0.0,-0.03461473435163498,0.8462720513343811,8.197860006475821e-05,0.044309101998806,0.8889787197113037,0.00011761737550841644,0.03594242036342621
208.0,210.0,1.0169,-0.4792,9.5258,-0.0363,0.0267,-0.1144,-1.8370629749693812,-0.004619700368493795,3.2007317543029785,-1.6670843362808228,0.000155227942741476,2.1211819648742676,4.872318702727117,-0.0,0.3041800558567047,-1.5316169897662562,0.0,-0.027435563504695892,0.8462284803390503,7.773028482915834e-05,0.03509858250617981,0.888943076133728,0.00010906522948062047,0.024337049573659897
208.0,210.0,1.0169,-0.4792,9.5258,-0.0363,0.0267,-0.1144,-1.8370429478087367,-0.005391255021095276,3.173898935317993,-1.6670684814453125,0.00016879878239706159,2.0480475425720215,4.8722905097301386,-0.0,0.31240314245224,-1.5316169897662562,0.0,-0.029222629964351654,0.8462285399436951,7.390071550616995e-05,0.057971637696027756,0.888934850692749,0.00010167272557737306,0.05627687647938728
208.0,210.0,1.0169,-0.4792,9.5258,-0.0363,0.0267,-0.1144,-1.837095399896139,-0.0055460091680288315,3.1644582748413086,-1.6670442819595337,0.00015433078806381673,2.1255292892456055,4.872326466232099,-0.0,0.3083120584487915,-1.5316255728351038,-5.229418547969544e-06,-0.03397832810878754,0.846299946308136,7.043078221613541e-05,0.033260270953178406,0.8889026641845703,9.521867468720302e-05,0.05646922439336777
208.0,210.0,1.0169,-0.4792,9.5258,-0.0363,0.0267,-0.1144,-1.837090631524557,-0.004036502446979284,3.2364845275878906,-1.667068600654602,0.00014214344264473766,2.053321361541748,4.872350710421362,-0.0,0.2924225926399231,-1.5316055456744593,-1.4556278404853629e-09,-0.03747164458036423,0.8462719917297363,6.727201252942905e-05,0.02447696402668953,0.8889548778533936,8.953514043241739e-05,0.017100732773542404
208.0,210.0,1.0169,-0.4792,9.5258,-0.0363,0.0267,-0.1144,-1.8371626339354457,-0.001804667292162776,3.164857864379883,-1.6670361757278442,0.0001317401183769107,2.0820412635803223,4.872399079590597,-0.0,0.3058037757873535,-1.5316498915301722,-4.051792809687399e-13,-0.02769024856388569,0.8462839722633362,6.438450509449467e-05,0.05605483055114746,0.8889707922935486,8.449186861980706e-05,-0.026317603886127472
208.0,210.0,1.0169,-0.4792,9.5258,-0.0363,0.0267,-0.1144,-1.8371464214720667,-0.0012290790909901261,3.2061402797698975,-1.6671161651611328,0.00012275569315534085,2.094078540802002,4.87235480824069,-0.0,0.30736207962036133,-1.531609837208883,-1.1278315161095934e-16,-0.03331823647022247,0.8462126851081848,6.173468136694282e-05,0.03557872772216797,0.8889827132225037,7.998634100658819e-05,0.03622566908597946
208.0,210.0,1.0169,-0.4792,9.5258,-0.0363,0.0267,-0.1144,-1.8371583424010218,-0.0011320242192596197,3.1847000122070312,-1.6670645475387573,0.00011491860641399398,2.0909595489501953,4.8723347065742395,-0.0,0.2881770431995392,-1.5316017309771937,-3.139360450966146e-20,-0.03522713482379913,0.8462125062942505,5.929433973506093e-05,0.040263064205646515,0.8889908194541931,7.593713962705806e-05,-0.017788082361221313
208.0,210.0,1.0169,-0.4792,9.5258,-0.0363,0.0267,-0.1144,-1.837175031701559,-0.002085295971482992,3.146369457244873,-1.6670525074005127,0.00010802216274896637,2.099289655685425,4.8723347065742395,-0.0,0.3014008700847626,-1.5316055456744593,-8.738527002634331e-24,-0.022420063614845276,0.8462679386138916,5.703953866031952e-05,0.040611766278743744,0.888934850692749,7.227814785437658e-05,-0.040005773305892944
208.0,210.0,1.0169,-0.4792,9.5258,-0.0363,0.0267,-0.1144,-1.8371626339354457,-0.0016023304779082537,3.132855176925659,-1.6670644283294678,0.00010190648754360154,2.0992143154144287,4.872274476080694,-0.0,0.30163300037384033,-1.5316417852984827,-2.432400793733486e-27,-0.014985529705882072,0.8462597727775574,5.494996003108099e-05,0.050707846879959106,0.8889026641845703,6.895552360219881e-05,-0.009967377409338951
208.0,210.0,1.0169,-0.4792,9.5258,-0.0363,0.0267,-0.1144,-1.8372069797911585,-0.0009212424629367888,3.180713653564453,-1.667136788368225,9.644634701544419e-05,2.0810906887054443,4.872270393162527,-0.0,0.3016231656074524,-1.5316336790667933,-6.770677249154377e-31,-0.00936698354780674,0.8462437987327576,5.300810880726203e-05,0.034130893647670746,0.888934850692749,6.592498539248481e-05,0.013102982193231583
199.0,213.0,1.1013,-0.4193,9.4229,-0.0379,0.0183,-0.1119,-1.8371793232359828,-0.0006843718001618981,3.1209604740142822,-1.6670604944229126,9.154146391665563e-05,2.1003222465515137,4.872354778438368,-0.0,0.3055823743343353,-1.5316169897662562,-1.8846428864076368e-34,-0.024205990135669708,0.8462880253791809,5.1198803703300655e-05,0.035992905497550964,0.8889427781105042,5.199290535529144e-05,-0.002341535873711109
199.0,213.0,1.1013,-0.4193,9.4229,-0.0379,0.0183,-0.1119,-1.8372394047179164,-0.0006509989034384489,3.180070161819458,-1.6671202182769775,0.00010162902617594227,2.1043202877044678,4.872326838761129,-0.0,0.30663010478019714,-1.5316255728351038,-5.245972117008373e-38,-0.024416208267211914,0.8462880253791809,1.2720736776827835e-05,0.04012257978320122,0.8889226317405701,4.847882519243285e-05,-0.08768361806869507
199.0,213.0,1.1013,-0.4193,9.4229,-0.0379,0.0183,-0.1119,-1.8371945820250453,-0.0004445734084583819,3.1409971714019775,-1.667048454284668,9.693865285953507e-05,2.0722575187683105,4.872330638557234,-0.0,0.2875537872314453,-1.5316055456744593,-1.4602931296728919e-41,-0.02099371701478958,0.846299946308136,3.5408640464140717e-09,0.04491311311721802,0.8889707922935486,4.659638580051251e-05,-0.02248399704694748
199.0,213.0,1.1013,-0.4193,9.4229,-0.0379,0.0183,-0.1119,-1.8372308216490687,-0.00047154363710433245,3.1356406211853027,-1.6670645475387573,9.266128472518176e-05,2.105160713195801,4.872298630862989,-6.003230055284803e-07,0.3047633469104767,-1.5316017309771937,-4.203895392974451e-45,-0.02006462775170803,0.8462918996810913,9.8561241633488e-13,0.04577270522713661,0.8889667987823486,1.265087576030055e-05,-0.06779119372367859
199.0,213.0,1.1013,-0.4193,9.4229,-0.0379,0.0183,-0.1119,-1.837227006951803,-0.0007303718011826277,3.1081857681274414,-1.6670763492584229,8.874558261595666e-05,2.079275608062744,4.872326525836744,-1.6710210992698649e-10,0.29062244296073914,-1.5316293875323694,-0.0,-0.017313672229647636,0.8462715148925781,2.7434886294820475e-16,0.029549743980169296,0.8889867067337036,1.367499407933792e-06,-0.028123557567596436
199.0,213.0,1.1013,-0.4193,9.4229,-0.0379,0.0183,-0.1119,-1.8372107944884242,-0.0012735762866213918,3.1234540939331055,-1.6670565605163574,9.72547713899985e-05,2.037154197692871,4.872330623656072,-4.651348276267682e-14,0.29505467414855957,-1.5315893332110804,-0.0,-0.023436911404132843,0.8462125658988953,7.636601854688589e-20,0.04539373144507408,0.8889749050140381,3.3023501468110172e-12,-0.05297703295946121
199.0,213.0,1.1013,-0.4193,9.4229,-0.0379,0.0183,-0.1119,-1.8372670612730921,-0.0015528267249464989,3.1377975940704346,-1.667076587677002,9.351937478641048e-05,2.0765483379364014,4.872362988978185,-1.2947198038163725e-17,0.28090909123420715,-1.531593147908346,-0.0,-0.029190827161073685,0.8463079929351807,2.1256761125777546e-23,0.04307219758629799,0.8889787197113037,7.974787074258411e-18,-0.04187094047665596
199.0,213.0,1.1013,-0.4193,9.4229,-0.0379,0.0183,-0.1119,-1.8372470341124476,-0.0018255554605275393,3.1099114418029785,-1.6669918298721313,8.083983266260475e-05,2.10914945602417,4.872290494828977,-3.603899913097098e-21,0.3042704463005066,-1.531609837208883,-0.0,-0.007168292533606291,0.846275806427002,5.916897441928864e-27,0.03451812267303467,0.8889586925506592,1.925817097834744e-23,-0.0748584121465683
199.0,213.0,1.1013,-0.4193,9.4229,-0.0379,0.0183,-0.1119,-1.8372546635069789,-0.001966632204130292,3.113156795501709,-1.6670725345611572,9.204418893205002e-05,2.0866336822509766,4.872347059636869,-1.0031588158212126e-24,0.28320586681365967,-1.531609837208883,-0.0,-0.008047198876738548,0.8462958335876465,1.6469900249936064e-30,0.046462249010801315,0.8889508247375488,4.650621578542403e-29,-0.07174432277679443
199.0,213.0,1.1013,-0.4193,9.4229,-0.0379,0.0183,-0.1119,-1.8372470341124476,-0.0021490666549652815,3.092081069946289,-1.667040228843689,0.00010216364898951724,2.1160056591033936,4.872322755842962,-2.792329270651764e-28,0.28458595275878906,-1.531609837208883,-0.0,-0.008963409811258316,0.8462839126586914,4.584457814743173e-34,0.036449648439884186,0.8890030384063721,1.1230704022236088e-34,-0.09581446647644043
199.0,213.0,1.1013,-0.4193,9.4229,-0.0379,0.0183,-0.1119,-1.8372789822020472,-0.0020335621666163206,3.1031198501586914,-1.6670281887054443,0.00037439176230691373,2.0806267261505127,4.872330623656072,-7.772552024755693e-32,0.29580268263816833,-1.531609837208883,-0.0,-0.006592101883143187,0.8462365865707397,1.2761005180165492e-37,0.03306727111339569,0.8889389038085938,2.7120870608388942e-40,-0.07287217676639557
199.0,213.0,1.1013,-0.4193,9.4229,-0.0379,0.0183,-0.1119,-1.8373352489867152,-0.002038315637037158,3.137080192565918,-1.6670725345611572,0.00034727444290183485,2.0638649463653564,4.872302713781156,-2.163519020125795e-35,0.2881518006324768,-1.5316293875323694,-0.0,-0.01969316229224205,0.8462486267089844,3.5520113473705463e-41,0.03308190777897835,0.888947069644928,0.0,-0.08715745061635971
199.0,213.0,1.1013,-0.4193,9.4229,-0.0379,0.0183,-0.1119,-1.8372627697386683,-0.0017115171067416668,3.052180767059326,-1.667012333869934,0.00030590230016969144,2.126838207244873,4.872298705368795,-6.022234293266977e-39,0.30080869793891907,-1.5316169897662562,-0.0,-0.021215129643678665,0.8462638258934021,9.80908925027372e-45,0.04169072210788727,0.8888866901397705,-0.0004688776971306652,-0.07186112552881241
199.0,213.0,1.1013,-0.4193,9.4229,-0.0379,0.0183,-0.1119,-1.8373023472227992,-0.0015870766947045922,3.077098846435547,-1.6670684814453125,0.0002614627010188997,2.0706210136413574,4.872298705368795,-0.0001433006109436974,0.2979963421821594,-1.531614128743307,-0.0,-0.02325591817498207,0.8463165760040283,0.0,0.045894742012023926,0.8889830112457275,-0.0004299777210690081,-0.10956741124391556
199.0,213.0,1.1013,-0.4193,9.4229,-0.0379,0.0183,-0.1119,-1.837350984612936,-0.0014679866144433618,3.0719940662384033,-1.6670522689819336,0.0002663469931576401,2.0945496559143066,4.872331025987425,-0.0001589991879882291,0.2881818115711212,-1.531581226979391,-0.0,-0.008652230724692345,0.8462719917297363,0.0,0.03121599741280079,0.8889108300209045,-0.0004049000272061676,-0.10752931237220764
195.0,208.0,1.0929,-0.5234,9.4552,-0.042,0.0321,-0.1214,-1.8372823200621546,-0.0012215093011036515,3.0665693283081055,-1.6670604944229126,0.0002687636006157845,2.0580525398254395,4.872242870717802,-0.00017053235205821693,0.286609411239624,-1.5315693060504358,-0.0,-0.01747351884841919,0.8462479114532471,0.0,0.04340694099664688,0.8889107704162598,-0.00038216065149754286,-0.0988973006606102
195.0,208.0,1.0929,-0.5234,9.4552,-0.042,0.0321,-0.1214,-1.8373023472227992,-0.0011239644372835755,3.037229537963867,-1.6670726537704468,0.00024076829140540212,2.146223783493042,4.872298705368795,-0.00018027023179456592,0.2901178002357483,-1.5315893332110804,-0.0,-0.005402089562267065,0.8462285995483398,0.0,0.04910583049058914,0.8889347910881042,-0.0003339496615808457,-0.04982452839612961
195.0,208.0,1.0929,-0.5234,9.4552,-0.042,0.0321,-0.1214,-1.8373471699156703,-0.0009279868681915104,3.049039363861084,-1.666995882987976,0.0002887762675527483,2.0719194412231445,4.87227443137721,-0.00033683149376884103,0.2909483015537262,-1.5316055456744593,-0.0,-0.016245640814304352,0.8462958931922913,0.0,0.04867362231016159,0.8889548778533936,-0.00029315552092157304,-0.10028915107250214
195.0,208.0,1.0929,-0.5234,9.4552,-0.042,0.0321,-0.1214,-1.8373352489867152,-0.0008164629689417779,3.0749616622924805,-1.6669844388961792,0.0006160520133562386,2.130610704421997,4.872255104571142,-0.0002753609442152083,0.2785196900367737,-1.5316055456744593,-0.0,-0.02393370494246483,0.8462719917297363,0.0,0.0497150644659996,0.8889510631561279,-0.0002612436655908823,-0.06751202791929245
195.0,208.0,1.0929,-0.5234,9.4552,-0.042,0.0321,-0.1214,-1.8373428783812464,-0.0006671384908258915,3.057408332824707,-1.6670726537704468,0.0007004219805821776,2.0700957775115967,4.87226668277339,-0.0002326374815311283,0.2927444577217102,-1.5316255728351038,-0.0,-0.00936264730989933,0.8463521599769592,0.0,0.04353630915284157,0.8889029026031494,-0.00023559766123071313,-0.1348915696144104
195.0,208.0,1.0929,-0.5234,9.4552,-0.042,0.0321,-0.1214,-1.8373547993102015,-0.0006217752234078944,3.0132126808166504,-1.6669844388961792,0.0009472295641899109,2.1054067611694336,4.872306886106291,-0.00020139366097282618,0.28436195850372314,-1.5315774122821253,-0.0,-0.01554977335035801,0.8462242484092712,0.0,0.0406060628592968,0.8889185786247253,-0.00018772156909108162,-0.14109931886196136
195.0,208.0,1.0929,-0.5234,9.4552,-0.042,0.0321,-0.1214,-1.8373671970763148,-0.0005905812722630799,3.0368099212646484,-1.6669964790344238,0.0013143264222890139,2.092057466506958,4.87232685366229,-0.00017755069711711258,0.28374168276786804,-1.5315974394427698,-0.0,-0.014108799397945404,0.8462556004524231,0.0,0.04087921231985092,0.888947069644928,-0.00017231632955372334,-0.12496334314346313
195.0,208.0,1.0929,-0.5234,9.4552,-0.042,0.0321,-0.1214,-1.8372985325255335,-0.0005424764240160584,3.0814383029937744,-1.6669596433639526,0.0018200213089585304,2.1225011348724365,4.872306737094679,-0.00015875601093284786,0.3051856756210327,-1.531593147908346,-0.0,-0.003870107000693679,0.8463243246078491,0.0,0.03413981944322586,0.888962984085083,-0.00015924910258036107,-0.09770778566598892
195.0,208.0,1.0929,-0.5234,9.4552,-0.042,0.0321,-0.1214,-1.837322851220602,-0.0006651646690443158,3.059138298034668,-1.6669883728027344,0.0017485320568084717,2.086998701095581,4.8722785440977,-0.00011583500599954277,0.2845749258995056,-1.5316336790667933,7.523960812250152e-05,-0.008976854383945465,0.8462958335876465,0.0,0.0480300672352314,0.8889347910881042,-0.00014802392979618162,-0.0885671079158783
195.0,208.0,1.0929,-0.5234,9.4552,-0.042,0.0321,-0.1214,-1.8373590908446253,-0.0009232793236151338,3.0712742805480957,-1.6669400930404663,0.0016912537394091487,2.0988049507141113,4.872290465026655,-0.00010184992424910888,0.2841264009475708,-1.5316055456744593,8.050250244195922e-08,-0.012367099523544312,0.8462839126586914,0.0,0.042758964002132416,0.8889389038085938,-0.00013530738942790776,-0.09081323444843292
195.0,208.0,1.0929,-0.5234,9.4552,-0.042,0.0321,-0.1214,-1.837419172326559,-0.0012781560653820634,3.0655322074890137,-1.6669602394104004,0.001697676139883697,2.096621036529541,4.872347000032224,-9.388120815856382e-05,0.3062019646167755,-1.5316255728351038,2.2408169070287087e-11,-0.025824815034866333,0.8462598919868469,0.0,0.04153840243816376,0.8889508843421936,-0.0001450278068659827,-0.15092021226882935
195.0,208.0,1.0929,-0.5234,9.4552,-0.042,0.0321,-0.1214,-1.8373824558653773,-0.0014005216071382165,3.043304920196533,-1.6669882535934448,0.0015602580970153213,2.0588889122009277,4.872294533043661,-8.70692019816488e-05,0.2973094880580902,-1.5315850416766565,6.237397310617215e-15,-0.01670195162296295,0.8462284803390503,0.0,0.039979636669158936,0.8889185786247253,-0.00011988895130343735,-0.08546623587608337
195.0,208.0,1.0929,-0.5234,9.4552,-0.042,0.0321,-0.1214,-1.8374434910216273,-0.0014412684831768274,3.025343418121338,-1.6668646335601807,0.0017485774587839842,2.1121323108673096,4.872315051942625,-8.117877587210387e-05,0.29829928278923035,-1.5316055456744593,1.736202474912052e-18,-0.017990341410040855,0.8462598323822021,0.0,0.03640072047710419,0.8889667987823486,-0.00011338970216456801,-0.10684315860271454
195.0,208.0,1.0929,-0.5234,9.4552,-0.042,0.0321,-0.1214,-1.8373905620970667,-0.0013980513904243708,3.0581963062286377,-1.6669644117355347,0.0018676712643355131,2.0472216606140137,4.872282269387998,-7.603497942909598e-05,0.29666081070899963,-1.5316255728351038,4.83278303887287e-22,-0.03090405836701393,0.8462839126586914,0.0,0.03487605229020119,0.8889263868331909,-0.0001176964069600217,-0.12330981343984604
195.0,208.0,1.0929,-0.5234,9.4552,-0.042,0.0321,-0.1214,-1.8374391994872035,-0.0013173108454793692,3.0682997703552246,-1.6669923067092896,0.0022959099151194096,2.142683982849121,4.872278529196539,-7.150414603529498e-05,0.2995838224887848,-1.5315693060504358,1.3452229312580143e-25,-0.022400908172130585,0.8462679386138916,0.0,0.040791139006614685,0.8889753222465515,-0.00010404539352748543,-0.1022796481847763
201.0,217.0,0.9882,-0.3858,9.5438,-0.0363,0.0203,-0.117,-1.83740295986318,-0.0012984166387468576,3.080171585083008,-1.6668959856033325,0.0025936781894415617,2.0708227157592773,4.872298705368795,-6.748291343683377e-05,0.30196425318717957,-1.531593147908346,3.7444775582392847e-29,-0.02008691616356373,0.8462285399436951,0.0,0.03432490676641464,0.888934850692749,-0.00011152080696774647,-0.09379590302705765
201.0,217.0,0.9882,-0.3858,9.5438,-0.0363,0.0203,-0.117,-1.8374391994872035,-0.0012351637706160545,3.057039260864258,-1.6668442487716675,0.002855211729183793,2.108950614929199,4.872258427530088,-6.389005284290761e-05,0.30396705865859985,-1.5316336790667933,1.0422890207602352e-32,-0.027495311573147774,0.8462206125259399,0.0,0.04843205213546753,0.8890112042427063,-0.0001065712422132492,-0.10339125990867615
201.0,217.0,0.9882,-0.3858,9.5438,-0.0363,0.0203,-0.117,-1.8374511204161585,-0.0013892001006752253,3.084740400314331,-1.6668763160705566,0.0034210041631013155,2.0985991954803467,4.872258427530088,-6.066032801754773e-05,0.3071741759777069,-1.5315774122821253,2.9012497754677287e-36,-0.031690023839473724,0.8462917804718018,0.0,0.060545921325683594,0.8889349102973938,-0.00010204032878391445,-0.11506906151771545
201.0,217.0,0.9882,-0.3858,9.5438,-0.0363,0.0203,-0.117,-1.8374668560423792,-0.0014144686283543706,3.0917415618896484,-1.6668763160705566,0.0032438626512885094,2.129528522491455,4.872290450125494,-5.774151941295713e-05,0.2972605228424072,-1.531614128743307,8.075739101842494e-40,-0.026959162205457687,0.8462719917297363,0.0,0.040672458708286285,0.8889429569244385,-9.787889575818554e-05,-0.14154770970344543
201.0,217.0,0.9882,-0.3858,9.5438,-0.0363,0.0203,-0.117,-1.8374549351134242,-0.0014998172409832478,3.0982284545898438,-1.666831612586975,0.003276960924267769,2.055452823638916,4.872358891158857,-5.50906770513393e-05,0.2853175699710846,-1.5316293875323694,2.2420775429197073e-43,-0.012390689924359322,0.8462917804718018,0.0,0.04050957038998604,0.8889226317405701,-9.404354932485148e-05,-0.11940884590148926
201.0,217.0,0.9882,-0.3858,9.5438,-0.0363,0.0203,-0.117,-1.837503572503561,-0.0018566034268587828,3.043522357940674,-1.666836142539978,0.003586779348552227,2.150109052658081,4.872290867358007,-5.2672538004117087e-05,0.30889013409614563,-1.5315611998187464,0.0,-0.02772827073931694,0.8462839126586914,0.0,0.041507456451654434,0.8889029026031494,-9.049750951817259e-05,-0.13877692818641663
201.0,217.0,0.9882,-0.3858,9.5438,-0.0363,0.0203,-0.117,-1.8375112018980921,-0.0019245035946369171,3.105630397796631,-1.666852593421936,0.0034800947178155184,2.1353862285614014,4.872294533043661,-5.045772923040204e-05,0.29371073842048645,-1.5315693060504358,0.0,-0.018254905939102173,0.8462638854980469,0.0,0.03505735099315643,0.8889148235321045,-6.0600723372772336e-05,-0.12713992595672607
201.0,217.0,0.9882,-0.3858,9.5438,-0.0363,0.0203,-0.117,-1.837442537347311,-0.002302655018866062,3.050229549407959,-1.6667882204055786,0.0030380859971046448,2.1429662704467773,4.872270735889234,-4.842171983909793e-05,0.30147606134414673,-1.5315974394427698,0.0,-0.0275992751121521,0.8462958335876465,0.0,0.03339341655373573,0.888947069644928,-6.973325071157888e-05,-0.1283983588218689
201.0,217.0,0.9882,-0.3858,9.5438,-0.0363,0.0203,-0.117,-1.8375593624510707,-0.002783710602670908,3.051001787185669,-1.6667197942733765,0.0028905970975756645,2.0723772048950195,4.872342887311735,-4.654362055589445e-05,0.29528796672821045,-1.531593147908346,0.0,-0.02453465387225151,0.8462519645690918,0.0,0.03440091013908386,0.8889148235321045,-7.804632332408801e-05,-0.15471717715263367
201.0,217.0,0.9882,-0.3858,9.5438,-0.0363,0.0203,-0.117,-1.837510725060934,-0.002707929350435734,3.041749954223633,-1.6666923761367798,0.002865977818146348,2.131488561630249,4.87228678443984,-4.480580901145004e-05,0.29345571994781494,-1.5316336790667933,0.0,-0.023712292313575745,0.8463159203529358,0.0,0.05030442774295807,0.8889347910881042,-8.645650814287364e-05,-0.11065562814474106
201.0,217.0,0.9882,-0.3858,9.5438,-0.0363,0.0203,-0.117,-1.8375426731505335,-0.003381791291758418,3.0221190452575684,-1.6667603254318237,0.002501609968021512,2.0999631881713867,4.8723268685634515,-4.319307117839344e-05,0.2816311717033386,-1.531581226979391,0.0,-0.008982375264167786,0.8462719917297363,0.0,0.04227543994784355,0.8888988494873047,-0.00032041853410191834,-0.14895370602607727
201.0,217.0,0.9882,-0.3858,9.5438,-0.0363,0.0203,-0.117,-1.8375026188292445,-0.004014040343463421,3.023298740386963,-1.6667044162750244,0.002153453417122364,2.068673849105835,4.872255089669981,-4.1692408558446914e-05,0.2943105101585388,-1.531593147908346,0.0,-0.02014784887433052,0.846232533454895,0.0,0.03653227537870407,0.8888866305351257,-0.00036333102616481483,-0.16356730461120605
201.0,217.0,0.9882,-0.3858,9.5438,-0.0363,0.0203,-0.117,-1.8375264606871546,-0.00368747441098094,3.0313003063201904,-1.6667168140411377,0.002039143582805991,2.119961738586426,4.872310924320974,-4.029252886539325e-05,0.3101171851158142,-1.5315492788897913,0.0,-0.024185221642255783,0.8462917804718018,0.0,0.03830350190401077,0.8889148235321045,-0.00035912945168092847,-0.14804552495479584
201.0,217.0,0.9882,-0.3858,9.5438,-0.0363,0.0203,-0.117,-1.8375870190062464,-0.0038359726313501596,3.0318267345428467,-1.6667206287384033,0.0021119220182299614,2.100367784500122,4.87226668277339,-1.1172262929903809e-05,0.29547184705734253,-1.5315974394427698,0.0,-0.011083794757723808,0.8462998867034912,0.0,0.04255090281367302,0.8889307975769043,-0.0003985052462667227,-0.15336838364601135
201.0,217.0,0.9882,-0.3858,9.5438,-0.0363,0.0203,-0.117,-1.8376065693297328,-0.004401326645165682,2.9767088890075684,-1.6666803359985352,0.00209150486625731,2.1400763988494873,4.872263181000509,-1.0713962183217518e-05,0.28314363956451416,-1.5316293875323694,0.0,-0.00971619226038456,0.8462759256362915,0.0,0.0361478328704834,0.8889267444610596,-0.0003778232494369149,-0.1508558988571167
200.0,224.0,0.9446,-0.5623,9.3272,-0.0429,0.017,-0.1187,-1.8376504383482875,-0.005186529364436865,2.9627833366394043,-1.6666522026062012,0.0015859107952564955,2.09077787399292,4.872315037041464,-1.034452270687325e-05,0.29001808166503906,-1.5316293875323694,0.0,-0.00582500034943223,0.846360445022583,0.0,0.04271797463297844,0.8888826370239258,-0.0003640556533355266,-0.1643674373626709
200.0,224.0,0.9446,-0.5623,9.3272,-0.0429,0.017,-0.1187,-1.8376466236510218,-0.00564280990511179,3.006542444229126,-1.6666165590286255,0.001447809161618352,2.134314775466919,4.872290867358007,-9.999719623010606e-06,0.2823657691478729,-1.5316374937640589,0.0,-0.011594354175031185,0.8462284803390503,0.0,0.04366636648774147,0.888878583908081,-0.000310447794618085,-0.14540371298789978
200.0,224.0,0.9446,-0.5623,9.3272,-0.0429,0.017,-0.1187,-1.8377553425230921,-0.006419592071324587,2.9429900646209717,-1.6666245460510254,0.0012184805236756802,2.0855841636657715,4.872319075256147,-1.083292922032797e-08,0.2881394326686859,-1.5316055456744593,0.0,-0.020296283066272736,0.8462355732917786,0.0,0.05140194296836853,0.8888989090919495,-0.00027046212926506996,-0.17897570133209229
200.0,224.0,0.9446,-0.5623,9.3272,-0.0429,0.017,-0.1187,-1.8377582035460414,-0.006783057004213333,2.9900002479553223,-1.666632056236267,0.0012167635140940547,2.0861740112304688,4.872262555151739,-3.0153854673614644e-12,0.2881820797920227,-1.531581226979391,0.0,-0.015668019652366638,0.8462998867034912,0.0,0.05122508108615875,0.8888989090919495,-0.0002738236216828227,-0.2516469657421112
200.0,224.0,0.9446,-0.5623,9.3272,-0.0429,0.017,-0.1187,-1.8377944431700648,-0.007587128318846226,2.9499168395996094,-1.666632056236267,0.001045272103510797,2.1381802558898926,4.872282701521673,-8.393437409778034e-16,0.2952013313770294,-1.5315774122821253,0.0,-0.004075631499290466,0.846275806427002,0.0,0.04423581063747406,0.8889510631561279,-0.00024578586453571916,-0.23850159347057343
200.0,224.0,0.9446,-0.5623,9.3272,-0.0429,0.017,-0.1187,-1.8378383121886195,-0.009441769681870937,2.940363883972168,-1.6666165590286255,0.0009711760794743896,2.082883358001709,4.872259187489309,-2.336344239798236e-19,0.2788006067276001,-1.5315936247455042,0.0,-0.02715526893734932,0.8462598323822021,0.0,0.04530710726976395,0.8889267444610596,-0.00022295287635643035,-0.17264637351036072
200.0,224.0,0.9446,-0.5623,9.3272,-0.0429,0.017,-0.1187,-1.8379384479918421,-0.011234095320105553,2.9709086418151855,-1.6666359901428223,0.000649580149911344,2.094331741333008,4.8723231730754755,-6.503300513971086e-23,0.27959030866622925,-1.5315497557269495,0.0,-0.0067606642842292786,0.846251904964447,0.0,0.02585066854953766,0.8889510631561279,-0.0002040012477664277,-0.21574941277503967
200.0,224.0,0.9446,-0.5623,9.3272,-0.0429,0.017,-0.1187,-1.8379904232420863,-0.01271521020680666,2.9294557571411133,-1.6666439771652222,0.00045315586612559855,2.091315746307373,4.872331025987425,-1.8102174540637264e-26,0.2916712164878845,-1.5315535704242151,0.0,-0.01066544745117426,0.8462675213813782,0.0,0.02696731872856617,0.8888989090919495,-0.00018801949045155197,-0.20669841766357422
200.0,224.0,0.9446,-0.5623,9.3272,-0.0429,0.017,-0.1187,-1.838090559045309,-0.014676320366561413,2.91696834564209,-1.6666001081466675,0.00041754168341867626,2.108745813369751,4.872306856303968,-5.0388067519184025e-30,0.2792389988899231,-1.5315936247455042,0.0,-0.023056596517562866,0.8463364839553833,0.0,0.04029428958892822,0.8889188766479492,-0.00017435966583434492,-0.2247639298439026
200.0,224.0,0.9446,-0.5623,9.3272,-0.0429,0.017,-0.1187,-1.8381663761534632,-0.01742996834218502,2.979217767715454,-1.6665681600570679,0.000394617673009634,2.0733461380004883,4.872302788286962,-1.4025701965358944e-33,0.2788921594619751,-1.5316055456744593,0.0,-0.014912687242031097,0.8463644981384277,0.0,0.03617226332426071,0.8889108300209045,-0.00016255049558822066,-0.1697719693183899
200.0,224.0,0.9446,-0.5623,9.3272,-0.0429,0.017,-0.1187,-1.8382989368834437,-0.02025936171412468,2.913689613342285,-1.666632056236267,0.00037834409158676863,2.121520519256592,4.872282701521673,-3.904104962633114e-37,0.2874998450279236,-1.5315654913531702,0.0,0.005316246300935745,0.8462716341018677,0.0,0.03635203838348389,0.8888989090919495,-0.00015223950322251767,-0.1958385556936264
200.0,224.0,0.9446,-0.5623,9.3272,-0.0429,0.017,-0.1187,-1.8384300671019496,-0.02434486523270607,2.935060977935791,-1.6666041612625122,0.0003139830660074949,2.082676410675049,4.872255089669981,-1.481164144934155e-05,0.284084677696228,-1.5315659681903284,0.0,-0.009422900155186653,0.8463039994239807,0.0,0.037926577031612396,0.8889107704162598,-0.00014315854059532285,-0.19165411591529846
200.0,224.0,0.9446,-0.5623,9.3272,-0.0429,0.017,-0.1187,-1.8385659656920375,-0.02797205187380314,2.927393913269043,-1.666696310043335,0.00037284131394699216,2.0992016792297363,4.872263181000509,-0.00010208708408754319,0.2760748267173767,-1.5315492788897913,0.0,0.006415108684450388,0.8462875485420227,0.0,0.0593535415828228,0.8888989090919495,-0.00013509986456483603,-0.20116958022117615
200.0,224.0,0.9446,-0.5623,9.3272,-0.0429,0.017,-0.1187,-1.8386980495848597,-0.03182346001267433,2.877631664276123,-1.666608214378357,0.0009461724548600614,2.1126444339752197,4.87229901829318,-0.00011221605382161215,0.28371432423591614,-1.5315335432635706,0.0,-0.008212871849536896,0.8462679386138916,0.0,0.03139010816812515,0.8889069557189941,-0.00012790040636900812,-0.19418597221374512
