ramyac6/ROB537/final_project/csv/good/good_31.csv
tof_0,tof_1,accelx,accely,accelz,gyrox,gyroy,gyroz,shoulder_lift_joint_position,shoulder_lift_joint_velocity,shoulder_lift_joint_effort,elbow_joint_position,elbow_joint_velocity,elbow_joint_effort,wrist_1_joint_position,wrist_1_joint_velocity,wrist_1_joint_effort,wrist_2_joint_position,wrist_2_joint_velocity,wrist_2_joint_effort,wrist_3_joint_position,wrist_3_joint_velocity,wrist_3_joint_effort,shoulder_pan_joint_position,shoulder_pan_joint_velocity,shoulder_pan_joint_effort
429.0,805.0,3.722,-0.0897,8.6584,-0.0331,0.029,-0.1165,-1.630195756951803,0.0,2.41090989112854,-1.7073086500167847,-0.0,2.20039701461792,4.457526846522949,-0.0,0.28982457518577576,-1.4514344374286097,-0.0,-0.02911388874053955,0.5666554570198059,0.0,-0.007900726050138474,1.1898611783981323,0.0,0.01150437630712986
429.0,805.0,3.722,-0.0897,8.6584,-0.0331,0.029,-0.1165,-1.6302234135069789,0.0,2.397592544555664,-1.7073934078216553,-0.0,2.17891263961792,4.457562609309814,-0.0,0.2947699725627899,-1.451458756123678,-0.0,-0.02305697649717331,0.5666919350624084,0.0,0.0024680225178599358,1.1898366212844849,0.0,0.0025287331081926823
429.0,805.0,3.722,-0.0897,8.6584,-0.0331,0.029,-0.1165,-1.630195756951803,0.0,2.393416404724121,-1.7073732614517212,-0.0,2.1805381774902344,4.457502527827881,-0.0,0.2883572578430176,-1.4514225164996546,-0.0,-0.024652916938066483,0.5666801333427429,0.0,0.002437236486002803,1.1898571252822876,0.0,0.007429479621350765
429.0,805.0,3.722,-0.0897,8.6584,-0.0331,0.029,-0.1165,-1.6301995716490687,0.0,2.430253744125366,-1.7073086500167847,-0.0,2.1823368072509766,4.457562609309814,-0.0,0.2858935594558716,-1.4514310995685022,-0.0,-0.002129641594365239,0.5666398406028748,0.0,-0.01073124073445797,1.1898611783981323,0.0,-0.019448351114988327
429.0,805.0,3.722,-0.0897,8.6584,-0.0331,0.029,-0.1165,-1.6302277050414027,0.0,2.3967487812042236,-1.707353115081787,-0.0,2.103233814239502,4.457466288203857,-0.0,0.2864927053451538,-1.4514344374286097,-0.0,-0.016642235219478607,0.5666517615318298,0.0,0.0036275689490139484,1.1898808479309082,0.0,0.01450470369309187
429.0,805.0,3.722,-0.0897,8.6584,-0.0331,0.029,-0.1165,-1.6302234135069789,0.0,2.468315601348877,-1.7073692083358765,-0.0,2.1864540576934814,4.457458181972168,-0.0,0.2981521487236023,-1.4514425436602991,-0.0,-0.02479812130331993,0.5666399002075195,0.0,0.0058476682752370834,1.1898730993270874,0.0,-0.0036723692901432514
429.0,805.0,3.722,-0.0897,8.6584,-0.0331,0.029,-0.1165,-1.6302234135069789,0.0,2.4387247562408447,-1.7073447704315186,-0.0,2.150125503540039,4.457550688380859,-0.0,0.2819806635379791,-1.451498810444967,-0.0,-0.02466004155576229,0.5667001605033875,0.0,-0.010397566482424736,1.1898890733718872,0.0,-0.01321534626185894
429.0,805.0,3.722,-0.0897,8.6584,-0.0331,0.029,-0.1165,-1.630195756951803,0.0,2.3985397815704346,-1.7073655128479004,-0.0,2.1459217071533203,4.457502527827881,-0.0,0.30077776312828064,-1.4514344374286097,-0.0,-0.027189919725060463,0.5666316747665405,0.0,-0.016871348023414612,1.1898808479309082,0.0,0.03494494408369064
429.0,805.0,3.722,-0.0897,8.6584,-0.0331,0.029,-0.1165,-1.630195756951803,0.0,2.4296181201934814,-1.7073287963867188,-0.0,2.1849875450134277,4.457514448756836,-0.0,0.28793689608573914,-1.451458756123678,-0.0,-0.03365691751241684,0.5666235089302063,0.0,-0.001898491638712585,1.1898046731948853,0.0,-0.018200460821390152
398.0,856.0,3.923,-0.1101,8.519,-0.0367,0.025,-0.118,-1.6302153072752894,0.0,2.397306203842163,-1.7073086500167847,-0.0,2.1905784606933594,4.457474394435547,-0.0,0.2984136939048767,-1.4514549414264124,-0.0,-0.020297924056649208,0.5667001008987427,0.0,-0.010263573378324509,1.1898488998413086,0.0,0.0037536253221333027
398.0,856.0,3.923,-0.1101,8.519,-0.0367,0.025,-0.118,-1.6302033863463343,0.0,2.4343276023864746,-1.7073650360107422,-0.0,2.164560079574585,4.457474394435547,-0.0,0.2861212193965912,-1.4514144102679651,-0.0,-0.02249213121831417,0.5666797161102295,0.0,-0.010884889401495457,1.1898407936096191,0.0,0.0019873990677297115
398.0,856.0,3.923,-0.1101,8.519,-0.0367,0.025,-0.118,-1.6302076778807582,0.0,2.422542095184326,-1.7073692083358765,-0.0,2.198760986328125,4.457478685969971,-0.0,0.3014000356197357,-1.4514549414264124,-0.0,-0.00688982754945755,0.5666637420654297,0.0,-0.013024020940065384,1.1898648738861084,0.0,0.03807564824819565
398.0,856.0,3.923,-0.1101,8.519,-0.0367,0.025,-0.118,-1.6302076778807582,0.0,2.4476490020751953,-1.707353115081787,-0.0,2.174833297729492,4.45754258214917,-0.0,0.27826040983200073,-1.4514020125018519,-0.0,-0.03782499581575394,0.5666842460632324,0.0,-0.012204499915242195,1.1898529529571533,0.0,0.01913725771009922
398.0,856.0,3.923,-0.1101,8.519,-0.0367,0.025,-0.118,-1.6302396259703578,0.0,2.4194176197052,-1.7073324918746948,-0.0,2.1730964183807373,4.457453890437744,-0.0,0.28030142188072205,-1.4513867537127894,-0.0,-0.006720925215631723,0.5666636824607849,0.0,-0.01541545893996954,1.1898366212844849,0.0,-0.0010362497996538877
398.0,856.0,3.923,-0.1101,8.519,-0.0367,0.025,-0.118,-1.6302234135069789,0.0,2.43572735786438,-1.7073324918746948,-0.0,2.155323028564453,4.457550211543701,-0.0,0.3017294704914093,-1.451430622731344,-0.0,-0.03481163829565048,0.5666477084159851,0.0,-0.0034559962805360556,1.1898648738861084,0.0,0.016827253624796867
398.0,856.0,3.923,-0.1101,8.519,-0.0367,0.025,-0.118,-1.6302195988097132,0.0,2.4155211448669434,-1.707336664199829,-0.0,2.148609161376953,4.457506342525146,-0.0,0.27712103724479675,-1.451418701802389,-0.0,-0.017577949911355972,0.5666677951812744,0.0,-0.002431843662634492,1.1898730993270874,0.0,-0.007400193717330694
398.0,856.0,3.923,-0.1101,8.519,-0.0367,0.025,-0.118,-1.6302434406676234,0.0,2.399320602416992,-1.7073732614517212,-0.0,2.142037868499756,4.45754258214917,-0.0,0.28199416399002075,-1.4514430204974573,-0.0,-0.023315053433179855,0.5666837692260742,0.0,0.0013018735917285085,1.1898325681686401,0.0,0.05537133291363716
398.0,856.0,3.923,-0.1101,8.519,-0.0367,0.025,-0.118,-1.6301795444884242,0.0,2.465205669403076,-1.707389235496521,-0.0,2.191354513168335,4.45751063405957,-0.0,0.2900645434856415,-1.451458756123678,-0.0,-0.03139781951904297,0.5666477680206299,0.0,-0.008534705266356468,1.1898611783981323,0.0,-0.028203275054693222
398.0,856.0,3.923,-0.1101,8.519,-0.0367,0.025,-0.118,-1.6301833591856898,0.0,2.4328126907348633,-1.7073732614517212,-0.0,2.174999475479126,4.457550688380859,-0.0,0.2820708155632019,-1.4514506498919886,-0.0,-0.02557513490319252,0.5666194558143616,0.0,0.003240038640797138,1.1898689270019531,0.0,0.0447811596095562
398.0,856.0,3.923,-0.1101,8.519,-0.0367,0.025,-0.118,-1.6302234135069789,0.0,2.3875412940979004,-1.7073609828948975,-0.0,2.1756482124328613,4.457558794612549,-0.0,0.29975372552871704,-1.45140248933901,-0.0,-0.024641793221235275,0.5667201280593872,0.0,3.7818856071680784e-05,1.1898571252822876,0.0,0.014267472550272942
398.0,856.0,3.923,-0.1101,8.519,-0.0367,0.025,-0.118,-1.6302195988097132,0.0,2.4158968925476074,-1.7073407173156738,-0.0,2.1503958702087402,4.457550211543701,-0.0,0.29520362615585327,-1.4514506498919886,-0.0,-0.013732354156672955,0.566683828830719,0.0,-0.006080279126763344,1.1898407936096191,0.0,0.014962336048483849
398.0,856.0,3.923,-0.1101,8.519,-0.0367,0.025,-0.118,-1.6302195988097132,0.0,2.391679286956787,-1.7073004245758057,-0.0,2.1652231216430664,4.457506342525146,-0.0,0.30063357949256897,-1.4514344374286097,-0.0,-0.026702584698796272,0.5666719079017639,0.0,-0.005528624169528484,1.1898529529571533,0.0,-0.013396482914686203
398.0,856.0,3.923,-0.1101,8.519,-0.0367,0.025,-0.118,-1.6302195988097132,0.0,2.3965060710906982,-1.7073571681976318,-0.0,2.132047414779663,4.457526846522949,-0.0,0.2913379669189453,-1.451418701802389,-0.0,-0.02783793956041336,0.5667001008987427,0.0,-0.007902631536126137,1.1898285150527954,0.0,0.0205650944262743
398.0,856.0,3.923,-0.1101,8.519,-0.0367,0.025,-0.118,-1.6301995716490687,0.0,2.3506360054016113,-1.7073733806610107,-0.0,2.1487483978271484,4.457546873683594,-0.0,0.2943410277366638,-1.451418701802389,-0.0,-0.015249921008944511,0.5666554570198059,0.0,-0.0050401403568685055,1.1898529529571533,0.0,-0.0016322573646903038
398.0,856.0,3.923,-0.1101,8.519,-0.0367,0.025,-0.118,-1.6301757297911585,0.0,2.4384093284606934,-1.7073692083358765,-0.0,2.2194457054138184,4.457502527827881,-0.0,0.28370362520217896,-1.4514506498919886,-0.0,-0.023336417973041534,0.5666637420654297,0.0,-0.010729696601629257,1.1898407936096191,0.0,0.02433701790869236
398.0,856.0,3.923,-0.1101,8.519,-0.0367,0.025,-0.118,-1.6301914654173792,0.0,2.3941473960876465,-1.7074017524719238,-0.0,2.1157426834106445,4.45751874029126,-0.0,0.2918435335159302,-1.451458756123678,-0.0,-0.02460145391523838,0.5666800737380981,0.0,-0.004307464696466923,1.189904808998108,0.0,0.026920802891254425
403.0,840.0,3.8447,-0.1196,8.7171,-0.0383,0.0217,-0.1173,-1.6301714382567347,0.0,2.43953275680542,-1.7073044776916504,-0.0,2.1123735904693604,4.45754258214917,-0.0,0.29949915409088135,-1.4514668623553675,-0.0,-0.024264443665742874,0.5666918754577637,0.0,0.00121908204164356,1.1898571252822876,0.0,-0.02168700285255909
403.0,840.0,3.8447,-0.1196,8.7171,-0.0383,0.0217,-0.1173,-1.630259176293844,0.0,2.463162422180176,-1.7073163986206055,-0.0,2.159421682357788,4.457514448756836,-0.0,0.289098858833313,-1.451418701802389,-0.0,-0.027432981878519058,0.5666154623031616,0.0,-0.0021029505878686905,1.1898447275161743,0.0,-0.033535681664943695
403.0,840.0,3.8447,-0.1196,8.7171,-0.0383,0.0217,-0.1173,-1.6301876507201136,0.0,2.4181137084960938,-1.7073650360107422,-0.0,2.1907057762145996,4.457578821773193,-0.0,0.3015890121459961,-1.451474968587057,-0.0,-0.027813132852315903,0.5666878819465637,0.0,-0.011372367851436138,1.1898490190505981,0.0,0.009513900615274906
403.0,840.0,3.8447,-0.1196,8.7171,-0.0383,0.0217,-0.1173,-1.6302277050414027,0.0,2.398481845855713,-1.7073732614517212,-0.0,2.1424918174743652,4.457502527827881,-0.0,0.29036757349967957,-1.4514268080340784,-0.0,-0.022524410858750343,0.5666435956954956,0.0,-0.0023956375662237406,1.189820647239685,0.0,0.014783329330384731
403.0,840.0,3.8447,-0.1196,8.7171,-0.0383,0.0217,-0.1173,-1.6302234135069789,0.0,2.3999271392822266,-1.707336664199829,-0.0,2.1114554405212402,4.457514448756836,-0.0,0.287338525056839,-1.451446835194723,-0.0,-0.03749306499958038,0.5666637420654297,0.0,-0.009962780401110649,1.1898046731948853,0.0,0.04101376235485077
403.0,840.0,3.8447,-0.1196,8.7171,-0.0383,0.0217,-0.1173,-1.6301833591856898,0.0,2.4179835319519043,-1.707353115081787,-0.0,2.1654984951019287,4.45751874029126,-0.0,0.2934211492538452,-1.4514463583575647,-0.0,-0.021819502115249634,0.5667124390602112,0.0,0.005863150116056204,1.1898813247680664,0.0,0.02816939167678356
403.0,840.0,3.8447,-0.1196,8.7171,-0.0383,0.0217,-0.1173,-1.6301795444884242,0.0,2.4086930751800537,-1.7073609828948975,-0.0,2.138387441635132,4.457534952754639,-0.0,0.29295435547828674,-1.4514549414264124,-0.0,-0.021044965833425522,0.5666919350624084,0.0,-0.018440507352352142,1.1898767948150635,0.0,0.001737726852297783
403.0,840.0,3.8447,-0.1196,8.7171,-0.0383,0.0217,-0.1173,-1.630259176293844,0.0,2.413511276245117,-1.7072967290878296,-0.0,2.1696739196777344,4.45753447591748,-0.0,0.2991507053375244,-1.4514344374286097,-0.0,-0.007726892828941345,0.5666759014129639,0.0,-0.012445444241166115,1.1898932456970215,0.0,-0.01306263916194439
403.0,840.0,3.8447,-0.1196,8.7171,-0.0383,0.0217,-0.1173,-1.6302277050414027,0.0,2.4354584217071533,-1.707353115081787,-0.0,2.1607186794281006,4.457503004665039,-0.0,0.2849690914154053,-1.4514630476581019,-0.0,-0.031031396239995956,0.566696047782898,0.0,-0.0009113436099141836,1.1898529529571533,0.0,-0.008125029504299164
403.0,840.0,3.8447,-0.1196,8.7171,-0.0383,0.0217,-0.1173,-1.6302153072752894,0.0,2.3543453216552734,-1.707353115081787,-0.0,2.1180453300476074,4.457570715541504,-0.0,0.2958359122276306,-1.4514387289630335,-0.0,-0.017133556306362152,0.5666800737380981,0.0,0.007233975455164909,1.189812421798706,0.0,0.030514519661664963
403.0,840.0,3.8447,-0.1196,8.7171,-0.0383,0.0217,-0.1173,-1.6302234135069789,0.0,2.4159774780273438,-1.7073086500167847,-0.0,2.1925058364868164,4.457498713130615,-0.0,0.2887992858886719,-1.4514225164996546,-0.0,-0.021297920495271683,0.5666318535804749,0.0,-0.002875654259696603,1.1898125410079956,0.0,0.010796397924423218
403.0,840.0,3.8447,-0.1196,8.7171,-0.0383,0.0217,-0.1173,-1.6301752529540003,0.0,2.415361166000366,-1.7073571681976318,-0.0,2.0972464084625244,4.4575230318256835,-0.0,0.2928895950317383,-1.4514430204974573,-0.0,-0.021488234400749207,0.566644012928009,0.0,-0.005703320726752281,1.1898529529571533,0.0,0.012043769471347332
403.0,840.0,3.8447,-0.1196,8.7171,-0.0383,0.0217,-0.1173,-1.6302195988097132,0.0,2.437838077545166,-1.7073732614517212,-0.0,2.1595940589904785,4.457494421596191,-0.0,0.29840195178985596,-1.4514387289630335,-0.0,-0.024922620505094528,0.5666599869728088,0.0,-0.011159171350300312,1.1898407936096191,0.0,-0.03824117034673691
403.0,840.0,3.8447,-0.1196,8.7171,-0.0383,0.0217,-0.1173,-1.6302277050414027,0.0,2.4178452491760254,-1.7073650360107422,-0.0,2.1522774696350098,4.45751063405957,-0.0,0.2864028811454773,-1.4514787832843226,-0.0,-0.02817254513502121,0.5666435360908508,0.0,-0.014817534014582634,1.1898407936096191,0.0,-0.02924206480383873
403.0,840.0,3.8447,-0.1196,8.7171,-0.0383,0.0217,-0.1173,-1.6302672825255335,0.0,2.436257839202881,-1.7073044776916504,-0.0,2.1203160285949707,4.457490606898926,-0.0,0.2806067168712616,-1.451458756123678,-0.0,-0.04012309014797211,0.5666117668151855,0.0,-0.006297420710325241,1.189828872680664,0.0,0.060536548495292664
403.0,840.0,3.8447,-0.1196,8.7171,-0.0383,0.0217,-0.1173,-1.6301952801146449,0.0,2.405881404876709,-1.7073489427566528,-0.0,2.1544711589813232,4.457522554988525,-0.0,0.29586654901504517,-1.4514506498919886,-0.0,-0.03037554770708084,0.5666599869728088,0.0,0.0012443194864317775,1.1898325681686401,0.0,0.005436922889202833
386.0,830.0,3.7448,-0.1208,8.7015,-0.042,0.0264,-0.1187,-1.6302277050414027,0.0,2.382751226425171,-1.7073324918746948,-0.0,2.154628276824951,4.4574619966694335,-0.0,0.29737037420272827,-1.451470677052633,-0.0,-0.033229194581508636,0.5666518211364746,0.0,-0.0013896450400352478,1.1898571252822876,0.0,-0.02386852353811264
386.0,830.0,3.7448,-0.1208,8.7015,-0.042,0.0264,-0.1187,-1.630195756951803,0.0,2.4717891216278076,-1.7073287963867188,-0.0,2.148981809616089,4.457566900844238,-0.0,0.3046840727329254,-1.4513986746417444,-0.0,-0.02194562368094921,0.5666797161102295,0.0,-0.00110008311457932,1.1897801160812378,0.0,-0.026336409151554108
386.0,830.0,3.7448,-0.1208,8.7015,-0.042,0.0264,-0.1187,-1.6302234135069789,0.0,2.456050395965576,-1.7073205709457397,-0.0,2.19390869140625,4.457470579738281,-0.0,0.2950848340988159,-1.4514387289630335,-0.0,-0.015875590965151787,0.5666195154190063,0.0,-0.005662527866661549,1.1898407936096191,0.0,-0.02441003918647766
386.0,830.0,3.7448,-0.1208,8.7015,-0.042,0.0264,-0.1187,-1.6302072010436,0.0,2.408290147781372,-1.7073407173156738,-0.0,2.1655054092407227,4.45751063405957,-0.0,0.2950359284877777,-1.4514511267291468,-0.0,-0.030171269550919533,0.5666759610176086,0.0,-0.0016666906885802746,1.1898366212844849,0.0,0.012684275396168232
386.0,830.0,3.7448,-0.1208,8.7015,-0.042,0.0264,-0.1187,-1.6302072010436,0.0,2.4167027473449707,-1.7073004245758057,-0.0,2.1892621517181396,4.457550688380859,-0.0,0.3014703392982483,-1.4514945189105433,-0.0,-0.02012617699801922,0.5666637420654297,0.0,-0.0072092898190021515,1.1898366212844849,0.0,-0.0023424820974469185
386.0,830.0,3.7448,-0.1208,8.7015,-0.042,0.0264,-0.1187,-1.6301995716490687,0.0,2.42633056640625,-1.707336664199829,-0.0,2.2168893814086914,4.457526846522949,-0.0,0.2894226908683777,-1.4514268080340784,-0.0,-0.023707568645477295,0.5666399002075195,0.0,-0.017592497169971466,1.1898248195648193,0.0,-0.04791133105754852
386.0,830.0,3.7448,-0.1208,8.7015,-0.042,0.0264,-0.1187,-1.630195756951803,0.0,2.397768974304199,-1.707344889640808,-0.0,2.1488680839538574,4.457502527827881,-0.0,0.2884722054004669,-1.4514506498919886,-0.0,-0.013192846439778805,0.5666477680206299,0.0,-0.006054965779185295,1.1898689270019531,0.0,0.0033724713139235973
386.0,830.0,3.7448,-0.1208,8.7015,-0.042,0.0264,-0.1187,-1.6301914654173792,0.0,2.437828302383423,-1.7073613405227661,-0.0,2.152937173843384,4.45751874029126,-0.0,0.2807862460613251,-1.451458756123678,-0.0,-0.018488455563783646,0.5666399002075195,0.0,0.0021396472584456205,1.189884901046753,0.0,0.04902376979589462
386.0,830.0,3.7448,-0.1208,8.7015,-0.042,0.0264,-0.1187,-1.6302195988097132,0.0,2.426934242248535,-1.707344889640808,-0.0,2.147179126739502,4.457494421596191,-0.0,0.2866145968437195,-1.4514463583575647,-0.0,-0.03156648203730583,0.566687822341919,0.0,0.007948143407702446,1.189820647239685,0.0,0.003726721741259098
386.0,830.0,3.7448,-0.1208,8.7015,-0.042,0.0264,-0.1187,-1.630259176293844,0.0,2.403552532196045,-1.70730459690094,-0.0,2.1624343395233154,4.457543058986328,-0.0,0.29437533020973206,-1.4514344374286097,-0.0,-0.027090243995189667,0.5666797161102295,0.0,0.0011302741477265954,1.1898407936096191,0.0,-0.022361207753419876
386.0,830.0,3.7448,-0.1208,8.7015,-0.042,0.0264,-0.1187,-1.6302114925780238,0.0,2.4389243125915527,-1.7073246240615845,-0.0,2.1552512645721436,4.457538767451904,-0.0,0.29281944036483765,-1.4514344374286097,-0.0,-0.01687316596508026,0.5666797757148743,0.0,-0.009148459881544113,1.1898571252822876,0.0,-0.03591778874397278
386.0,830.0,3.7448,-0.1208,8.7015,-0.042,0.0264,-0.1187,-1.6302234135069789,0.0,2.408107280731201,-1.7073163986206055,-0.0,2.230053186416626,4.457498236293457,-0.0,0.2922958731651306,-1.451430622731344,-0.0,-0.017851034179329872,0.5666235685348511,0.0,0.003082604380324483,1.1898730993270874,0.0,0.02592361345887184
386.0,830.0,3.7448,-0.1208,8.7015,-0.042,0.0264,-0.1187,-1.6302277050414027,0.0,2.4175474643707275,-1.7073163986206055,-0.0,2.1659746170043945,4.45751063405957,-0.0,0.2981792688369751,-1.4514344374286097,-0.0,-0.020681850612163544,0.5666837692260742,0.0,-0.0058848499320447445,1.1898488998413086,0.0,-0.03863317519426346
386.0,830.0,3.7448,-0.1208,8.7015,-0.042,0.0264,-0.1187,-1.6302272282042445,0.0,2.4339370727539062,-1.70732843875885,-0.0,2.148026704788208,4.457445784206055,-0.0,0.28261658549308777,-1.4514105955706995,-0.0,-0.02685074508190155,0.5666759610176086,0.0,-0.013377059251070023,1.1898285150527954,0.0,-0.03621654212474823
386.0,830.0,3.7448,-0.1208,8.7015,-0.042,0.0264,-0.1187,-1.6301914654173792,0.0,2.4159817695617676,-1.7073814868927002,-0.0,2.1464905738830566,4.457470102901123,-0.0,0.28793972730636597,-1.4514463583575647,-0.0,-0.04199931398034096,0.5666678547859192,0.0,-0.012017499655485153,1.1898767948150635,0.0,-0.04576725512742996
386.0,830.0,3.7448,-0.1208,8.7015,-0.042,0.0264,-0.1187,-1.6302315197386683,0.0,2.4041357040405273,-1.7073898315429688,-0.0,2.185274124145508,4.45754258214917,-0.0,0.2759653627872467,-1.4514787832843226,-0.0,-0.022136976942420006,0.5666837692260742,0.0,-0.011254600249230862,1.1898648738861084,0.0,-0.0001909115817397833
386.0,830.0,3.7448,-0.1208,8.7015,-0.042,0.0264,-0.1187,-1.63023104290151,0.0,2.4221668243408203,-1.7073324918746948,-0.0,2.1647684574127197,4.457506342525146,-0.0,0.29334864020347595,-1.4514463583575647,-0.0,-0.008400334045290947,0.5666677951812744,0.0,0.006852665916085243,1.1898407936096191,0.0,-0.01458735577762127
405.0,780.0,3.792,-0.0939,8.5795,-0.0451,0.0301,-0.1165,-1.6302315197386683,0.0,2.364786386489868,-1.7073086500167847,-0.0,2.212369441986084,4.4574619966694335,-0.0,0.29593223333358765,-1.4513943831073206,-0.0,-0.025038311257958412,0.5666477680206299,0.0,-0.003716462291777134,1.1898529529571533,0.0,0.005567137151956558
405.0,780.0,3.792,-0.0939,8.5795,-0.0451,0.0301,-0.1165,-1.6302234135069789,0.0,2.444887161254883,-1.7073407173156738,-0.0,2.1784515380859375,4.45751063405957,-0.0,0.29809996485710144,-1.4514063040362757,-0.0,-0.018893273547291756,0.5666435956954956,0.0,-0.01164122112095356,1.189925193786621,0.0,-0.008950658142566681
405.0,780.0,3.792,-0.0939,8.5795,-0.0451,0.0301,-0.1165,-1.6301914654173792,0.0,2.3896634578704834,-1.7073328495025635,-0.0,2.1377124786376953,4.457558794612549,-0.0,0.2850431203842163,-1.451430622731344,-0.0,-0.023532100021839142,0.5666555762290955,0.0,-0.004312462639063597,1.1898689270019531,0.0,-0.009141849353909492
405.0,780.0,3.792,-0.0939,8.5795,-0.0451,0.0301,-0.1165,-1.6302315197386683,0.0,2.437232732772827,-1.7073816061019897,-0.0,2.1770029067993164,4.457478685969971,-0.0,0.29909008741378784,-1.451458756123678,-0.0,-0.024379543960094452,0.5666837692260742,0.0,0.005726607982069254,1.1898248195648193,0.0,0.0006958665326237679
405.0,780.0,3.792,-0.0939,8.5795,-0.0451,0.0301,-0.1165,-1.6302553615965785,0.0,2.4291906356811523,-1.70732843875885,-0.0,2.167283058166504,4.457494421596191,-0.0,0.2985871136188507,-1.451430622731344,-0.0,-0.02314753830432892,0.566696047782898,0.0,-0.010201077908277512,1.1898407936096191,0.0,-0.01158055104315281
405.0,780.0,3.792,-0.0939,8.5795,-0.0451,0.0301,-0.1165,-1.6302072010436,0.0,2.418750524520874,-1.7073568105697632,-0.0,2.199369430541992,4.457546873683594,-0.0,0.2948209047317505,-1.4514387289630335,-0.0,-0.014414290897548199,0.5666637420654297,0.0,-0.004227633588016033,1.1898325681686401,0.0,0.05591912940144539
405.0,780.0,3.792,-0.0939,8.5795,-0.0451,0.0301,-0.1165,-1.6302234135069789,0.0,2.41241192817688,-1.707344889640808,-0.0,2.13482403755188,4.4575463968464355,-0.0,0.29786378145217896,-1.4514463583575647,-0.0,-0.024859482422471046,0.5666481256484985,0.0,-0.0059752995148301125,1.1898689270019531,0.0,0.02140708640217781
405.0,780.0,3.792,-0.0939,8.5795,-0.0451,0.0301,-0.1165,-1.6302358112730921,0.0,2.428060293197632,-1.70730459690094,-0.0,2.182387113571167,4.4575182634541015,-0.0,0.28379395604133606,-1.4514630476581019,-0.0,-0.017752012237906456,0.5667038559913635,0.0,0.00034307874739170074,1.1898648738861084,0.0,-0.0005092257633805275
405.0,780.0,3.792,-0.0939,8.5795,-0.0451,0.0301,-0.1165,-1.6301995716490687,0.0,2.3923282623291016,-1.7073650360107422,-0.0,2.2028355598449707,4.457526846522949,-0.0,0.28156813979148865,-1.4514506498919886,-0.0,-0.013962795026600361,0.5666599869728088,0.0,-0.008756313472986221,1.1898571252822876,0.0,0.027720779180526733
405.0,780.0,3.792,-0.0939,8.5795,-0.0451,0.0301,-0.1165,-1.6302153072752894,0.0,2.4156885147094727,-1.707344889640808,-0.0,2.152890682220459,4.457478685969971,-0.0,0.2900753617286682,-1.4514344374286097,-0.0,-0.02301212213933468,0.5667082071304321,0.0,-0.004312626551836729,1.1897965669631958,0.0,-0.0023455722257494926
405.0,780.0,3.792,-0.0939,8.5795,-0.0451,0.0301,-0.1165,-1.6302153072752894,0.0,2.369950294494629,-1.7073856592178345,-0.0,2.164104461669922,4.45751063405957,-0.0,0.29304856061935425,-1.4514430204974573,-0.0,-0.022693082690238953,0.5666797161102295,0.0,-0.00034452800173312426,1.1898325681686401,0.0,-0.0033714422024786472
405.0,780.0,3.792,-0.0939,8.5795,-0.0451,0.0301,-0.1165,-1.6302195988097132,0.0,2.4210729598999023,-1.707336664199829,-0.0,2.144070625305176,4.457526846522949,-0.0,0.2870651185512543,-1.4514382521258753,-0.0,-0.021067168563604355,0.5666878819465637,0.0,-0.004350502043962479,1.1898325681686401,0.0,-0.005440136417746544
405.0,780.0,3.792,-0.0939,8.5795,-0.0451,0.0301,-0.1165,-1.6301833591856898,0.0,2.4455175399780273,-1.7073655128479004,-0.0,2.1819374561309814,4.457502527827881,-0.0,0.2996939420700073,-1.451486889516012,-0.0,-0.00555962510406971,0.5667081475257874,0.0,-0.002389720641076565,1.1898611783981323,0.0,-0.017384015023708344
405.0,780.0,3.792,-0.0939,8.5795,-0.0451,0.0301,-0.1165,-1.6302553615965785,0.0,2.4300684928894043,-1.7072843313217163,-0.0,2.144904136657715,4.457514448756836,-0.0,0.2971073389053345,-1.451418701802389,-0.0,-0.014239799231290817,0.5666435956954956,0.0,-0.011895282194018364,1.1898607015609741,0.0,-0.02017856575548649
405.0,780.0,3.792,-0.0939,8.5795,-0.0451,0.0301,-0.1165,-1.6301757297911585,0.0,2.422795534133911,-1.7073489427566528,-0.0,2.1409835815429688,4.457490606898926,-0.0,0.28798237442970276,-1.4514067808734339,-0.0,-0.008150982670485973,0.566687822341919,0.0,0.005314748268574476,1.1898730993270874,0.0,-0.00225723534822464
405.0,780.0,3.792,-0.0939,8.5795,-0.0451,0.0301,-0.1165,-1.6302076778807582,0.0,2.4337635040283203,-1.7073323726654053,-0.0,2.1526684761047363,4.457550688380859,-0.0,0.2925336956977844,-1.4514506498919886,-0.0,-0.04005222022533417,0.5666596293449402,0.0,-0.013536007143557072,1.1898735761642456,0.0,0.03118123859167099
405.0,780.0,3.792,-0.0939,8.5795,-0.0451,0.0301,-0.1165,-1.6302391491331996,0.0,2.4337947368621826,-1.7072885036468506,-0.0,2.1654317378997803,4.457502527827881,-0.0,0.29142504930496216,-1.451458756123678,-0.0,-0.017890706658363342,0.5666439533233643,0.0,-0.005647686310112476,1.1898890733718872,0.0,0.04314464330673218
410.0,825.0,3.8501,-0.119,8.6231,-0.0388,0.0182,-0.1184,-1.6302153072752894,0.0,2.393702983856201,-1.707344889640808,-0.0,2.138406753540039,4.457474394435547,-0.0,0.2932540476322174,-1.4513986746417444,-0.0,-0.010917017236351967,0.5666959881782532,0.0,0.010040986351668835,1.1898366212844849,0.0,0.013494042679667473
410.0,825.0,3.8501,-0.119,8.6231,-0.0388,0.0182,-0.1184,-1.6302234135069789,0.0,2.4201266765594482,-1.7073571681976318,-0.0,2.1632797718048096,4.4575511652180175,-0.0,0.303115576505661,-1.451446835194723,-0.0,-0.015528867952525616,0.5666558742523193,0.0,-0.006913311779499054,1.1898325681686401,0.0,-0.01525472104549408
410.0,825.0,3.8501,-0.119,8.6231,-0.0388,0.0182,-0.1184,-1.6301757297911585,0.0,2.411799192428589,-1.7073370218276978,-0.0,2.1631510257720947,4.457453890437744,-0.0,0.29154065251350403,-1.4514549414264124,-0.0,-0.016960974782705307,0.5666521191596985,0.0,-0.010668592527508736,1.1898285150527954,0.0,0.017240090295672417
410.0,825.0,3.8501,-0.119,8.6231,-0.0388,0.0182,-0.1184,-1.6302072010436,0.0,2.3895926475524902,-1.7073653936386108,-0.0,2.1509511470794678,4.457498236293457,-0.0,0.28692859411239624,-1.4514549414264124,-0.0,-0.020967423915863037,0.5666195750236511,0.0,-0.014460695907473564,1.1898695230484009,0.0,0.0008819052018225193
410.0,825.0,3.8501,-0.119,8.6231,-0.0388,0.0182,-0.1184,-1.6302114925780238,0.0,2.405646800994873,-1.7073246240615845,-0.0,2.1552469730377197,4.457514925593994,-0.0,0.29159045219421387,-1.4514582792865198,-0.0,-0.022919122129678726,0.566687822341919,0.0,0.002673083683475852,1.1898407936096191,0.0,0.0037094545550644398
410.0,825.0,3.8501,-0.119,8.6231,-0.0388,0.0182,-0.1184,-1.6301833591856898,0.0,2.3738694190979004,-1.707389235496521,-0.0,2.167701244354248,4.45751874029126,-0.0,0.28430813550949097,-1.4514463583575647,-0.0,-0.014159616082906723,0.5667282342910767,0.0,-0.011101114563643932,1.1898046731948853,0.0,0.029380911961197853
410.0,825.0,3.8501,-0.119,8.6231,-0.0388,0.0182,-0.1184,-1.6301914654173792,0.0,2.3707871437072754,-1.7072843313217163,-0.0,2.1711771488189697,4.457506342525146,-0.0,0.30198734998703003,-1.4514387289630335,-0.0,-0.01573909819126129,0.5666677951812744,0.0,0.0009029360953718424,1.1898407936096191,0.0,0.025818489491939545
410.0,825.0,3.8501,-0.119,8.6231,-0.0388,0.0182,-0.1184,-1.6302072010436,0.0,2.467616081237793,-1.7073081731796265,-0.0,2.1693685054779053,4.457530661220215,-0.0,0.2929597496986389,-1.4514268080340784,-0.0,-0.027178656309843063,0.5666637420654297,0.0,-0.015336591750383377,1.1898448467254639,0.0,0.012354830279946327
410.0,825.0,3.8501,-0.119,8.6231,-0.0388,0.0182,-0.1184,-1.6302515468993128,0.0,2.411000967025757,-1.7073324918746948,-0.0,2.1387839317321777,4.457490606898926,-0.0,0.2983740270137787,-1.4514506498919886,-0.0,-0.02346821501851082,0.5666317939758301,0.0,0.0026574530638754368,1.1898730993270874,0.0,0.013940664939582348
410.0,825.0,3.8501,-0.119,8.6231,-0.0388,0.0182,-0.1184,-1.630259176293844,0.0,2.4306907653808594,-1.7072926759719849,-0.0,2.189835786819458,4.457550688380859,-0.0,0.2956068217754364,-1.45140248933901,-0.0,-0.020241130143404007,0.5666877627372742,0.0,-0.005887345410883427,1.189800500869751,0.0,0.03588016331195831
410.0,825.0,3.8501,-0.119,8.6231,-0.0388,0.0182,-0.1184,-1.6302315197386683,0.0,2.471740245819092,-1.7073407173156738,-0.0,2.1544666290283203,4.457546873683594,-0.0,0.2946355640888214,-1.4514225164996546,-0.0,-0.016575245186686516,0.5666797161102295,0.0,0.003851652145385742,1.1898612976074219,0.0,0.008435782045125961
410.0,825.0,3.8501,-0.119,8.6231,-0.0388,0.0182,-0.1184,-1.6302315197386683,0.0,2.398460865020752,-1.7072926759719849,-0.0,2.1645920276641846,4.457474394435547,-0.0,0.2922854721546173,-1.4514387289630335,-0.0,-0.006517271976917982,0.5666559338569641,0.0,-0.004480116534978151,1.189820647239685,0.0,0.08113110065460205
410.0,825.0,3.8501,-0.119,8.6231,-0.0388,0.0182,-0.1184,-1.6302153072752894,0.0,2.4492359161376953,-1.7073571681976318,-0.0,2.155482292175293,4.457498236293457,-0.0,0.3006376028060913,-1.4514825979815882,-0.0,-0.020960254594683647,0.5665996074676514,0.0,-0.006443283520638943,1.1898890733718872,0.0,0.04571229964494705
410.0,825.0,3.8501,-0.119,8.6231,-0.0388,0.0182,-0.1184,-1.6302234135069789,0.0,2.413641929626465,-1.7073769569396973,-0.0,2.1951889991760254,4.457514448756836,-0.0,0.28951990604400635,-1.4514625708209437,-0.0,-0.029465327039361,0.5667400360107422,0.0,-0.0011036633513867855,1.1898730993270874,0.0,0.02777591161429882
410.0,825.0,3.8501,-0.119,8.6231,-0.0388,0.0182,-0.1184,-1.6301914654173792,0.0,2.4226937294006348,-1.7073613405227661,-0.0,2.155515193939209,4.457502050990723,-0.0,0.2973701059818268,-1.4514506498919886,-0.0,-0.021536825224757195,0.5666599273681641,0.0,0.0035567786544561386,1.189904808998108,0.0,0.005551582667976618
410.0,825.0,3.8501,-0.119,8.6231,-0.0388,0.0182,-0.1184,-1.6302076778807582,0.0,2.4117588996887207,-1.7072925567626953,-0.0,2.1511905193328857,4.457542105312012,-0.0,0.2881927192211151,-1.4514864126788538,-0.0,-0.015597360208630562,0.5667038559913635,0.0,-0.0026002342347055674,1.1898648738861084,0.0,0.005590443033725023
429.0,809.0,4.2054,-1.5362,8.522,-0.1116,-0.0176,-0.1081,-1.6302114925780238,0.0,2.423110246658325,-1.7073246240615845,-0.0,2.1400623321533203,4.457562609309814,-0.0,0.2949276566505432,-1.451494042073385,-0.0,-0.025110356509685516,0.5666637420654297,0.0,-0.011325633153319359,1.1898925304412842,0.0,0.013736340217292309
429.0,809.0,4.2054,-1.5362,8.522,-0.1116,-0.0176,-0.1081,-1.630167146722311,0.0,2.3884854316711426,-1.7073168754577637,9.227845154669012e-10,2.14831805229187,4.457554026240967,-0.0,0.28866174817085266,-1.4514983336078089,-0.001170318922959268,-0.02883182279765606,0.5666318535804749,0.0,-0.0017433834727853537,1.1899129152297974,0.0,-0.004855473525822163
429.0,809.0,4.2054,-1.5362,8.522,-0.1116,-0.0176,-0.1081,-1.630195756951803,0.0,2.4224839210510254,-1.7072968482971191,0.002299302024766803,2.2049779891967773,4.457586451167725,0.0009095058194361627,0.29076942801475525,-1.4515178839312952,-0.007767185103148222,-0.027670476585626602,0.5666877627372742,0.0,-0.0005286907544359565,1.1898720264434814,0.0023915935307741165,0.0008660759776830673
429.0,809.0,4.2054,-1.5362,8.522,-0.1116,-0.0176,-0.1081,-1.6301914654173792,0.001066724886186421,2.4230356216430664,-1.7072806358337402,0.0023968135938048363,2.161675214767456,4.457586451167725,0.000712633307557553,0.2877156734466553,-1.451629940663473,-0.028201740235090256,-0.038868147879838943,0.5666478276252747,0.0,-0.008770734071731567,1.1899001598358154,0.0035437375772744417,0.006514628417789936
429.0,809.0,4.2054,-1.5362,8.522,-0.1116,-0.0176,-0.1081,-1.6301871738829554,0.0017911068862304091,2.4313111305236816,-1.7072486877441406,0.002006080700084567,2.1804895401000977,4.457542105312012,0.0005811852170154452,0.2858806550502777,-1.4516900221454065,-0.02371320128440857,-0.03459195792675018,0.56667560338974,0.0,0.0008328699041157961,1.1899609565734863,0.0031363945454359055,0.04563102126121521
429.0,809.0,4.2054,-1.5362,8.522,-0.1116,-0.0176,-0.1081,-1.6301313839354457,0.001451707212254405,2.425389289855957,-1.707284688949585,0.001422513392753899,2.1520721912384033,4.457542105312012,0.00045511178905144334,0.29700610041618347,-1.4517934958087366,-0.009794631041586399,-0.04302075132727623,0.56667560338974,0.0,-0.003297757124528289,1.1899604797363281,0.0018616504967212677,-0.03972284495830536
429.0,809.0,4.2054,-1.5362,8.522,-0.1116,-0.0176,-0.1081,-1.6301914654173792,0.0006761435652151704,2.429316997528076,-1.707284688949585,0.0007172028417699039,2.190211057662964,4.457550211543701,0.0001420860644429922,0.2803420126438141,-1.451745335255758,-0.00021493795793503523,-0.03026629239320755,0.5666797161102295,0.0,6.202934309840202e-05,1.1899604797363281,0.0012317171785980463,-0.025227133184671402
429.0,809.0,4.2054,-1.5362,8.522,-0.1116,-0.0176,-0.1081,-1.630195756951803,0.00046310864854604006,2.4416661262512207,-1.707236647605896,0.0009827602189034224,2.157078981399536,4.45756642400708,0.0001138869411079213,0.2941175401210785,-1.4517658392535608,0.0028539826162159443,-0.007071000523865223,0.5666959881782532,0.0,-0.01233366783708334,1.1900166273117065,0.002034291159361601,0.033755745738744736
429.0,809.0,4.2054,-1.5362,8.522,-0.1116,-0.0176,-0.1081,-1.6301876507201136,0.00038403153303079307,2.4289722442626953,-1.7072008848190308,0.004276014864444733,2.180680990219116,4.457562609309814,8.977319521363825e-05,0.28392767906188965,-1.4517377058612269,0.001742280786857009,-0.004958502948284149,0.5666596293449402,0.0,-0.00768677145242691,1.19004487991333,0.004479411989450455,0.05646664649248123
429.0,809.0,4.2054,-1.5362,8.522,-0.1116,-0.0176,-0.1081,-1.6301757297911585,0.0003057344874832779,2.418879270553589,-1.7072173357009888,0.005105278920382261,2.191512107849121,4.457558317775391,6.549269892275333e-05,0.2949810326099396,-1.451745335255758,0.0008873738697730005,-0.0211022961884737,0.5666074752807617,0.0,0.0016173410695046186,1.1900886297225952,0.009308802895247936,0.013865293934941292
429.0,809.0,4.2054,-1.5362,8.522,-0.1116,-0.0176,-0.1081,-1.6301752529540003,0.00025396261480636895,2.462332248687744,-1.7071812152862549,0.0028903179336339235,2.1403872966766357,4.457542105312012,3.7865753256483003e-05,0.289445698261261,-1.451745335255758,0.000623008469119668,-0.017710089683532715,0.5666918158531189,0.0,-0.0016504826489835978,1.1901283264160156,0.01223830971866846,0.01622847653925419
429.0,809.0,4.2054,-1.5362,8.522,-0.1116,-0.0176,-0.1081,-1.63012756923818,0.0002606202324386686,2.3902721405029297,-1.7072091102600098,0.0012248223647475243,2.1455602645874023,4.45753447591748,3.361645576660521e-05,0.2945346236228943,-1.4517658392535608,0.0004803486808668822,-0.01617647334933281,0.5666073560714722,0.0,-0.006490590050816536,1.1901801824569702,0.010715137235820293,-0.030433684587478638
429.0,809.0,4.2054,-1.5362,8.522,-0.1116,-0.0176,-0.1081,-1.630139490167135,0.00022765854373574257,2.4164767265319824,-1.7072049379348755,0.0007514601456932724,2.1617774963378906,4.457554026240967,3.022873352165334e-05,0.29593905806541443,-1.451733414326803,0.0003908802755177021,-0.03172736242413521,0.5666638016700745,0.0,-0.010116045363247395,1.1902239322662354,0.005940649658441544,0.006932881660759449
429.0,809.0,4.2054,-1.5362,8.522,-0.1116,-0.0176,-0.1081,-1.6301313839354457,0.0002099545527016744,2.402921438217163,-1.7071527242660522,0.0014120589476078749,2.1324822902679443,4.457498236293457,2.8325752282398753e-05,0.2925109565258026,-1.4517377058612269,0.0003477144055068493,-0.022822102531790733,0.5666596293449402,0.0,-0.004991954658180475,1.190151572227478,0.0033309804275631905,0.06336391717195511
429.0,809.0,4.2054,-1.5362,8.522,-0.1116,-0.0176,-0.1081,-1.6302038631834925,0.0001571208704262972,2.410449504852295,-1.7071967124938965,0.0007625608704984188,2.177431583404541,4.4575463968464355,2.5881750843836926e-05,0.29652082920074463,-1.451745335255758,0.00029830465791746974,-0.010556867346167564,0.5666877627372742,0.0,-0.009217635728418827,1.1902445554733276,0.0006277612992562354,0.023486990481615067
429.0,809.0,4.2054,-1.5362,8.522,-0.1116,-0.0176,-0.1081,-1.6301309070982875,0.00014186609769240022,2.414252996444702,-1.7071728706359863,-0.0007022651843726635,2.1465115547180176,4.457522554988525,2.382609454798512e-05,0.2956809401512146,-1.4517419973956507,0.00026119264657609165,-0.028797032311558723,0.5666480660438538,0.0,-0.006851181387901306,1.1901596784591675,-0.001681489055044949,0.0027937255799770355
429.0,809.0,4.2054,-1.5362,8.522,-0.1116,-0.0176,-0.1081,-1.630195756951803,0.00012960776803083718,2.4176266193389893,-1.707289695739746,-0.0013424578355625272,2.1605443954467773,4.457494421596191,2.2072958017815836e-05,0.28406181931495667,-1.4517176787005823,0.0002322955842828378,-0.008796971291303635,0.5666959881782532,0.0,0.006474686320871115,1.1901638507843018,-0.0019471216946840286,-0.02926032803952694
400.0,793.0,2.9587,-0.4223,9.1196,-0.0153,0.0377,-0.1205,-1.6301351986327113,9.837690595304593e-05,2.3537354469299316,-1.7072489261627197,-0.0004368110094219446,2.1494808197021484,4.457566900844238,2.104084524034988e-05,0.2957865595817566,-1.4517696539508265,0.00021633913274854422,-0.025164879858493805,0.5666559338569641,0.0,-0.007390575483441353,1.190208077430725,-0.0013067651307210326,-0.007896803319454193
400.0,793.0,2.9587,-0.4223,9.1196,-0.0153,0.0377,-0.1205,-1.6301590404906214,9.063419565791264e-05,2.4537463188171387,-1.7072333097457886,-0.00022663341951556504,2.172405242919922,4.457546873683594,1.966177296708338e-05,0.3032980263233185,-1.4517539183246058,0.0001961316156666726,-0.02254461497068405,0.5666640400886536,0.0,-0.00886486191302538,1.190136194229126,-0.0008457325166091323,-0.01792135275900364
400.0,793.0,2.9587,-0.4223,9.1196,-0.0153,0.0377,-0.1205,-1.630195756951803,2.221576141892001e-05,2.3973402976989746,-1.7072333097457886,-0.00016447108646389097,2.1801040172576904,4.4575182634541015,1.8452392396284267e-05,0.2928868234157562,-1.4517419973956507,0.00019195584172848612,-0.016610976308584213,0.5666478276252747,0.0,-0.006175272166728973,1.1901161670684814,-0.0006156855379231274,0.054991163313388824
400.0,793.0,2.9587,-0.4223,9.1196,-0.0153,0.0377,-0.1205,-1.630139490167135,2.0673900507972576e-05,2.418355941772461,-1.707205057144165,-0.00012907771451864392,2.176626205444336,4.4575182634541015,1.73831831489224e-05,0.28498879075050354,-1.4517377058612269,0.00018886447651311755,-0.014674348756670952,0.5667121410369873,0.0,0.006260951515287161,1.1901001930236816,-0.0014122019056230783,0.02244894951581955
400.0,793.0,2.9587,-0.4223,9.1196,-0.0153,0.0377,-0.1205,-1.6301795444884242,3.721675602719188e-05,2.4018006324768066,-1.7072008848190308,-5.647579382639378e-05,2.1574654579162598,4.457562609309814,1.6736634279368445e-05,0.2896745502948761,-1.4517377058612269,0.00017945286526810378,-0.024844232946634293,0.5667040348052979,0.0,-0.0015790632460266352,1.1900960206985474,-0.0023874540347605944,-0.02873532846570015
400.0,793.0,2.9587,-0.4223,9.1196,-0.0153,0.0377,-0.1205,-1.6301871738829554,3.708803706103936e-05,2.4408936500549316,-1.7072571516036987,-1.1410493661045962e-09,2.125715494155884,4.457510157222412,1.5852254364290275e-05,0.29025712609291077,-1.4517138640033167,0.0001669678749749437,-0.025957491248846054,0.5666640400886536,0.0,-0.009446743875741959,1.1901001930236816,-0.0020919532980769873,-0.022256501019001007
400.0,793.0,2.9587,-0.4223,9.1196,-0.0153,0.0377,-0.1205,-1.6301475963988246,3.4929023968288675e-05,2.432101011276245,-1.7072210311889648,-2.7555000331301463e-15,2.1281259059906006,4.457558317775391,1.5056648408062756e-05,0.2901327610015869,-1.451721493397848,0.00010027924872701988,-0.01940443366765976,0.5666599273681641,0.0,-0.001598068280145526,1.1900320053100586,-0.002305679488927126,-0.04825827479362488
400.0,793.0,2.9587,-0.4223,9.1196,-0.0153,0.0377,-0.1205,-1.630195756951803,1.672930557106156e-05,2.4328534603118896,-1.7072292566299438,-6.654207989552732e-21,2.169675827026367,4.45753447591748,1.4337079846882261e-05,0.2934454381465912,-1.4517419973956507,9.355883958050981e-05,-0.025240594521164894,0.5666518211364746,0.0,-0.008389848284423351,1.1900722980499268,-0.00288796448148787,-0.02914074808359146
400.0,793.0,2.9587,-0.4223,9.1196,-0.0153,0.0377,-0.1205,-1.630150934258932,1.5919937141006812e-05,2.4395010471343994,-1.707241177558899,-1.1977339218919171e-24,2.148850202560425,4.457526369685791,1.3894401490688324e-05,0.2964875102043152,-1.4517138640033167,8.982358849607408e-05,-0.022258417680859566,0.5667039155960083,0.0,0.0027077551931142807,1.190028429031372,-0.0030825678259134293,-0.007606932893395424
400.0,793.0,2.9587,-0.4223,9.1196,-0.0153,0.0377,-0.1205,-1.6301714382567347,1.5117656403162982e-05,2.4140141010284424,-1.7072091102600098,-2.8923866050005363e-30,2.159649133682251,4.457562609309814,1.3279384802444838e-05,0.2909778356552124,-1.4517181555377405,8.474851347273216e-05,-0.02499387413263321,0.5666439533233643,0.0,0.0021256401669234037,1.1900485754013062,-0.003037238260731101,0.0004431561101227999
400.0,793.0,2.9587,-0.4223,9.1196,-0.0153,0.0377,-0.1205,-1.6302114925780238,3.125593117658809e-10,2.3966825008392334,-1.707205057144165,-6.98477322678272e-36,2.1752026081085205,4.457538290614746,1.2716479432128835e-05,0.2949065864086151,-1.4517181555377405,8.021626126719639e-05,-0.012002748437225819,0.5666359066963196,0.0,0.009457680396735668,1.19004487991333,-0.0027214621659368277,0.00882332306355238
400.0,793.0,2.9587,-0.4223,9.1196,-0.0153,0.0377,-0.1205,-1.6302315197386683,7.547940239136224e-16,2.410266160964966,-1.7071967124938965,-1.6867429615077823e-41,2.117391586303711,4.457522554988525,1.2199376214994118e-05,0.28971633315086365,-1.451721493397848,7.614424248458818e-05,-0.027780085802078247,0.5666959285736084,0.0,-0.009104331955313683,1.1900088787078857,-0.0021918851416558027,0.036581531167030334
400.0,793.0,2.9587,-0.4223,9.1196,-0.0153,0.0377,-0.1205,-1.6302153072752894,1.358602538593779e-19,2.4344873428344727,-1.707221508026123,-2.802596928649634e-45,2.157111883163452,4.457486315364502,3.9857832234702073e-07,0.29831311106681824,-1.4516738096820276,7.365167402895167e-05,-0.02339586801826954,0.5666318535804749,0.0,-0.0031958972103893757,1.1899724006652832,-0.0019948482513427734,-0.005972558632493019
400.0,793.0,2.9587,-0.4223,9.1196,-0.0153,0.0377,-0.1205,-1.6303121052184046,-0.0010162882972508669,2.3947527408599854,-1.7071243524551392,0.0049363854341208935,2.17657208442688,4.4575463968464355,1.1094573176828604e-10,0.29913654923439026,-1.4517138640033167,7.020457269391045e-05,-0.0396091565489769,0.5666758418083191,0.0,-0.013589240610599518,1.1899924278259277,-0.002120513468980789,-0.04291244596242905
400.0,793.0,2.9587,-0.4223,9.1196,-0.0153,0.0377,-0.1205,-1.630230566064352,-0.0020576550159603357,2.4142956733703613,-1.7070807218551636,0.008437619544565678,2.194718360900879,4.457530661220215,3.0882153794929354e-14,0.2925315499305725,-1.4517419973956507,8.041984983719885e-05,-0.02435225434601307,0.56667160987854,0.0,0.0043006157502532005,1.1899645328521729,-0.0016118913190439343,0.010641412809491158
400.0,793.0,2.9587,-0.4223,9.1196,-0.0153,0.0377,-0.1205,-1.6302992306151332,-0.0019993826281279325,2.367497444152832,-1.7070848941802979,0.00401675421744585,2.1656088829040527,4.457530661220215,8.596161014505183e-18,0.2939375042915344,-1.451721493397848,7.703452865825966e-05,-0.00731273740530014,0.5666478276252747,0.0,0.0011497645173221827,1.1899843215942383,-0.0008108352776616812,-0.01508583128452301
400.0,793.0,2.9587,-0.4223,9.1196,-0.0153,0.0377,-0.1205,-1.6303111515440882,-0.0013427883386611938,2.420137405395508,-1.7070605754852295,0.0010915931779891253,2.165675163269043,4.4575182634541015,3.664678301074139e-20,0.29016613960266113,-1.4517458120929163,7.489764539059252e-05,-0.015142965130507946,0.5666439533233643,0.0,-0.002584747038781643,1.1899362802505493,-0.0005958218825981021,-0.019900178536772728
409.0,824.0,3.8124,-1.0349,9.1807,-0.1019,0.0008,-0.1174,-1.6302710972227992,-0.0007080162758938968,2.3949787616729736,-1.7070766687393188,7.683822467186019e-09,2.142110586166382,4.4575182634541015,2.779703208943829e-05,0.2853459119796753,-1.4517501036273401,7.19057279638946e-05,-0.016720503568649292,0.566731870174408,0.0,-0.011354003101587296,1.189980149269104,-0.000257085426710546,-0.07168611884117126
409.0,824.0,3.8124,-1.0349,9.1807,-0.1019,0.0008,-0.1174,-1.6302997074522914,-0.0003861200239043683,2.3967361450195312,-1.7070770263671875,-3.978178938268684e-06,2.1762712001800537,4.4575463968464355,6.0100515838712454e-05,0.2994219660758972,-1.4517620245562952,6.914354889886454e-05,-0.017710503190755844,0.5666597485542297,0.0,0.0011897175572812557,1.1899559497833252,0.00038717332063242793,-0.008007824420928955
409.0,824.0,3.8124,-1.0349,9.1807,-0.1019,0.0008,-0.1174,-1.6302391491331996,-0.0002272377605549991,2.4179086685180664,-1.7070733308792114,0.0023505601566284895,2.188492774963379,4.457558317775391,5.0074944738298655e-05,0.2932206392288208,-1.4517419973956507,6.658584607066587e-05,-0.020380571484565735,0.5667359232902527,0.0,0.002006570342928171,1.1899964809417725,0.0010937884217128158,0.01692526787519455
409.0,824.0,3.8124,-1.0349,9.1807,-0.1019,0.0008,-0.1174,-1.6302877865233363,-0.00017577451944816858,2.4079997539520264,-1.7069963216781616,0.0016709271585568786,2.1603660583496094,4.457606955165527,8.576695108786225e-05,0.2807791233062744,-1.4517458120929163,6.421050784410909e-05,-0.017667070031166077,0.5666599273681641,0.0,0.00027589104138314724,1.1900006532669067,0.0007278157863765955,0.038955505937337875
409.0,824.0,3.8124,-1.0349,9.1807,-0.1019,0.0008,-0.1174,-1.6303278408446253,-0.00015552164404653013,2.4061279296875,-1.7070691585540771,0.0016228831373155117,2.1635563373565674,4.4575745302387695,7.834720599930733e-05,0.28798311948776245,-1.4517620245562952,6.27190456725657e-05,-0.03047199733555317,0.5666717886924744,0.0,0.0002287690294906497,1.189988374710083,0.0002674028801266104,0.009348000399768353
409.0,824.0,3.8124,-1.0349,9.1807,-0.1019,0.0008,-0.1174,-1.6302677593626917,-0.00017679708253126591,2.4205307960510254,-1.7069926261901855,0.0024468100164085627,2.1472153663635254,4.457565947169922,0.00012954494741279632,0.30470120906829834,-1.451733414326803,6.0607268096646294e-05,-0.013027722015976906,0.5666319727897644,0.0,-0.009970204904675484,1.190024733543396,0.0001780554885044694,0.05113505572080612
409.0,824.0,3.8124,-1.0349,9.1807,-0.1019,0.0008,-0.1174,-1.6302954159178675,-4.2958130507031456e-05,2.4482405185699463,-1.7070494890213013,0.0025841828901320696,2.167799234390259,4.457582159633301,0.00012423993030097336,0.3150205612182617,-1.4517653624164026,9.94425477074401e-07,-0.026812061667442322,0.5667044520378113,0.0,-0.006840350106358528,1.1899843215942383,9.97693746285222e-07,0.038825150579214096
409.0,824.0,3.8124,-1.0349,9.1807,-0.1019,0.0008,-0.1174,-1.6302710972227992,-3.752832708414644e-05,2.4258627891540527,-1.706992745399475,0.0012969610979780555,2.1508922576904297,4.457542105312012,0.00011258439917583019,0.3020856976509094,-1.4516976515399378,2.768019702337199e-10,-0.02279914915561676,0.5666877627372742,0.0,-0.0014770262641832232,1.1899523735046387,2.40931320033555e-12,0.007464035879820585
409.0,824.0,3.8124,-1.0349,9.1807,-0.1019,0.0008,-0.1174,-1.6303273640074671,-3.463932080194354e-05,2.420142412185669,-1.707037091255188,0.0007361118332482874,2.1759755611419678,4.4576141077229,0.0001059567803167738,0.2957102060317993,-1.4517377058612269,1.1800503066025647e-12,-0.017419185489416122,0.5666278004646301,0.0,-0.008833951316773891,1.1899640560150146,4.3366784586263774e-16,0.0011692955158650875
409.0,824.0,3.8124,-1.0349,9.1807,-0.1019,0.0008,-0.1174,-1.630331655541891,-3.105362338828854e-05,2.4088358879089355,-1.707045316696167,0.0005544796586036682,2.181271553039551,4.4575745302387695,0.00017335797019768506,0.3024390637874603,-1.451721493397848,3.2847133013221876e-16,-0.027049638330936432,0.56667560338974,0.0,-0.010242623277008533,1.1899445056915283,1.0472569016738407e-21,-0.011954127810895443
409.0,824.0,3.8124,-1.0349,9.1807,-0.1019,0.0008,-0.1174,-1.6302834949889125,-2.8140650101704523e-05,2.4468984603881836,-1.7069967985153198,0.0005883804406039417,2.1678965091705322,4.457565947169922,0.00018356383952777833,0.30696049332618713,-1.4517338911639612,9.143119408702423e-20,-0.04489636793732643,0.5666558742523193,0.0,-0.0023070720490068197,1.189948558807373,2.5290023582560386e-27,0.06933676451444626
409.0,824.0,3.8124,-1.0349,9.1807,-0.1019,0.0008,-0.1174,-1.6302677593626917,-6.79563488814594e-11,2.432955265045166,-1.7070209980010986,0.0005124719464220107,2.183198928833008,4.4576427179523925,0.0002162107703043148,0.30512547492980957,-1.4516938368426722,2.5450208436134937e-23,-0.02731713280081749,0.566615641117096,0.0,0.0025356048718094826,1.1899404525756836,-0.0003578198084142059,0.006805861368775368
409.0,824.0,3.8124,-1.0349,9.1807,-0.1019,0.0008,-0.1174,-1.6302715740599574,-1.2231901994378628e-14,2.4290266036987305,-1.7069926261901855,0.0012015689862892032,2.15847110748291,4.457562132472656,0.00021725789702031761,0.30256521701812744,-1.451721493397848,1.0849822792277108e-25,-0.03524121269583702,0.5666918158531189,0.0,-0.0073746875859797,1.1899645328521729,-0.0003681568196043372,0.011913659051060677
409.0,824.0,3.8124,-1.0349,9.1807,-0.1019,0.0008,-0.1174,-1.6302033863463343,-2.953860351839728e-20,2.452338695526123,-1.7069729566574097,0.0014416510239243507,2.149477005004883,4.4575697618671875,0.0004932252923026681,0.31661731004714966,-1.4516938368426722,3.020087759759743e-29,-0.04195085167884827,0.5666157007217407,0.0,-0.0029483861289918423,1.1899362802505493,-0.00040818535489961505,0.03185863792896271
409.0,824.0,3.8124,-1.0349,9.1807,-0.1019,0.0008,-0.1174,-1.6302834949889125,-7.133224815356841e-26,2.535637140274048,-1.7070049047470093,0.002359387231990695,2.2066404819488525,4.4576141077229,0.0008682429906912148,0.3152817487716675,-1.4517300764666956,8.406525074702542e-33,-0.042625993490219116,0.5667037963867188,0.0,-0.0057399156503379345,1.1899404525756836,-0.0006096349097788334,0.007988585159182549
409.0,824.0,3.8124,-1.0349,9.1807,-0.1019,0.0008,-0.1174,-1.6303235493102015,-1.7225899928461195e-31,2.44465970993042,-1.7069810628890991,0.0021848620381206274,2.158356189727783,4.457574053401611,0.0015659990021958947,0.3166239261627197,-1.451681915913717,2.3399872755569766e-36,-0.05490998551249504,0.5666677951812744,0.0,-0.01349265780299902,1.1898884773254395,-0.0005990970530547202,-0.02321460470557213
400.0,796.0,4.0774,-0.4349,8.2893,-0.0655,0.0324,-0.1119,-1.6302796802916468,-3.1006008177949117e-35,2.415862560272217,-1.7069568634033203,0.0014207449276000261,2.1876819133758545,4.457597895259521,0.0013993552420288324,0.3126644790172577,-1.4516900221454065,9.975733064949691e-39,-0.04495510458946228,0.5666359066963196,0.0,0.0021625147201120853,1.1899687051773071,-0.0006335824728012085,-0.012071902863681316
400.0,796.0,4.0774,-0.4349,8.2893,-0.0655,0.0324,-0.1119,-1.6303273640074671,-7.487558084426795e-41,2.4561233520507812,-1.7069894075393677,0.0007937014452181756,2.2162857055664062,4.457666559810303,0.0011067143641412258,0.3186855912208557,-1.451681915913717,2.7773735562917874e-42,-0.045852698385715485,0.5666959881782532,0.0,0.007219112012535334,1.1899125576019287,-0.0006860466091893613,0.04223058372735977
400.0,796.0,4.0774,-0.4349,8.2893,-0.0655,0.0324,-0.1119,-1.630303522149557,-0.0,2.4320645332336426,-1.7069976329803467,0.0005506845191121101,2.200861692428589,4.457650347346924,0.0009156330488622189,0.33424827456474304,-1.451738182698385,1.401298464324817e-45,-0.048755060881376266,0.56667560338974,0.0,-0.017581559717655182,1.1899001598358154,-0.0007902983343228698,-0.048041120171546936
400.0,796.0,4.0774,-0.4349,8.2893,-0.0655,0.0324,-0.1119,-1.630303522149557,0.0,2.4125165939331055,-1.7069528102874756,0.00035136507358402014,2.1951568126678467,4.457634611720703,0.0006468956125900149,0.32832688093185425,-1.4517181555377405,0.0,-0.056172147393226624,0.5666797161102295,0.0,3.025587648153305e-05,1.1899445056915283,-0.0008602330926805735,-0.0012864833697676659
400.0,796.0,4.0774,-0.4349,8.2893,-0.0655,0.0324,-0.1119,-1.630303522149557,0.0,2.4384658336639404,-1.7069646120071411,0.00030389789026230574,2.190591812133789,4.457646532649658,0.0005365684046410024,0.3181205689907074,-1.4517419973956507,0.0,-0.04857940226793289,0.5666919350624084,0.0,-0.0008547932375222445,1.1899446249008179,-0.0008788756676949561,0.008216442540287971
400.0,796.0,4.0774,-0.4349,8.2893,-0.0655,0.0324,-0.1119,-1.6302677593626917,0.0,2.4387319087982178,-1.7070090770721436,0.0002526943280827254,2.192413091659546,4.457617922420166,0.00048818934010341763,0.3197232484817505,-1.4517057577716272,0.0,-0.047606855630874634,0.5666319131851196,0.0,0.007608695887029171,1.1899166107177734,-0.0008514142828062177,-0.007861253805458546
400.0,796.0,4.0774,-0.4349,8.2893,-0.0655,0.0324,-0.1119,-1.6302391491331996,0.0,2.4511985778808594,-1.7069646120071411,0.00029762685880996287,2.1616079807281494,4.4576141077229,0.00040682457620278,0.33624374866485596,-1.4516976515399378,0.0,-0.052899070084095,0.56667160987854,0.0,-0.01312331110239029,1.1898925304412842,-0.000865895941387862,-0.010289948433637619
400.0,796.0,4.0774,-0.4349,8.2893,-0.0655,0.0324,-0.1119,-1.6302792034544886,0.0,2.4771082401275635,-1.706993579864502,0.0002177226560888812,2.212822914123535,4.457630320186279,0.000361188140232116,0.33032509684562683,-1.4517062346087855,0.0,-0.058584317564964294,0.5667197704315186,0.0,0.004275695886462927,1.1899691820144653,-0.0007790967938490212,0.013654801063239574
400.0,796.0,4.0774,-0.4349,8.2893,-0.0655,0.0324,-0.1119,-1.6303116283812464,0.0,2.4315152168273926,-1.7069687843322754,0.00030108619830571115,2.205592155456543,4.457626028651855,0.0006335556390695274,0.32698631286621094,-1.4517062346087855,0.0,-0.061498694121837616,0.5667119026184082,0.0,-0.008247537538409233,1.1899125576019287,-0.0007055812166072428,0.026457706466317177
400.0,796.0,4.0774,-0.4349,8.2893,-0.0655,0.0324,-0.1119,-1.6302553615965785,0.0,2.4368515014648438,-1.7069449424743652,0.0023288072552531958,2.2306299209594727,4.457658453578613,0.0015081792371347547,0.3389800488948822,-1.4517019430743616,0.0,-0.07024025917053223,0.566731870174408,0.0,-0.0020098714157938957,1.1899285316467285,-0.0006066967034712434,-0.04251943901181221
400.0,796.0,4.0774,-0.4349,8.2893,-0.0655,0.0324,-0.1119,-1.6303192577757777,0.0,2.4724321365356445,-1.7068727016448975,0.0033831812907010317,2.2007997035980225,4.4576660829731445,0.0021767951548099518,0.32391810417175293,-1.451681915913717,0.0,-0.07036733627319336,0.5667119026184082,0.0,-0.001792629947885871,1.1898808479309082,-0.0006808095495216548,-0.005320999771356583
400.0,796.0,4.0774,-0.4349,8.2893,-0.0655,0.0324,-0.1119,-1.6303111515440882,0.0,2.459139347076416,-1.706897258758545,0.004404952749609947,2.2236690521240234,4.457726641292236,0.0023006005212664604,0.34172433614730835,-1.4517062346087855,0.0,-0.04680185765028,0.5667439103126526,0.0,0.0020616657566279173,1.1899006366729736,-0.0010535994078963995,-0.019837761297822
400.0,796.0,4.0774,-0.4349,8.2893,-0.0655,0.0324,-0.1119,-1.6303273640074671,0.0,2.4905734062194824,-1.7068568468093872,0.00547276996076107,2.207902669906616,4.457678480739258,0.0021259617060422897,0.3425346314907074,-1.4517062346087855,0.0,-0.06658048182725906,0.5667119026184082,0.0,-0.008261951617896557,1.1898608207702637,-0.002410681452602148,-0.06266344338655472
400.0,796.0,4.0774,-0.4349,8.2893,-0.0655,0.0324,-0.1119,-1.630315443078512,0.0,2.4177770614624023,-1.7068371772766113,0.00470684003084898,2.201673984527588,4.457657976741455,0.0018253049347549677,0.33559051156044006,-1.4516976515399378,0.0,-0.05600511655211449,0.5666918754577637,0.0,0.008145447820425034,1.1898808479309082,-0.003370220074430108,-0.034138258546590805
400.0,796.0,4.0774,-0.4349,8.2893,-0.0655,0.0324,-0.1119,-1.6303235493102015,0.0,2.4079015254974365,-1.7068573236465454,0.0038341667968779802,2.1780731678009033,4.457674189204834,0.0010945185786113143,0.32842379808425903,-1.4516943136798304,0.0,-0.05684356018900871,0.5666918754577637,0.0,0.005194112192839384,1.1898529529571533,-0.0037755414377897978,-0.06546899676322937
400.0,796.0,4.0774,-0.4349,8.2893,-0.0655,0.0324,-0.1119,-1.6302710972227992,0.0,2.416294813156128,-1.7067761421203613,0.0032266927883028984,2.1697123050689697,4.457714720363281,0.0007584439008496702,0.33898770809173584,-1.4516857306109827,0.0,-0.05506694316864014,0.5667282938957214,4.8926543968264014e-05,-0.002379856538027525,1.1898488998413086,-0.003089518751949072,-0.07398872822523117
400.0,796.0,4.0774,-0.4349,8.2893,-0.0655,0.0324,-0.1119,-1.6303192577757777,0.0,2.3686275482177734,-1.706821084022522,0.0023545792791992426,2.1988344192504883,4.457689924831055,0.0005332885193638504,0.33779245615005493,-1.4516857306109827,0.0,-0.0641682893037796,0.5666998028755188,6.260734517127275e-05,-0.0006030324148014188,1.1898248195648193,-0.0030810667667537928,-0.06716308742761612
405.0,808.0,4.0014,-0.0814,8.4778,-0.0377,0.0102,-0.1197,-1.6303273640074671,0.0,2.403088092803955,-1.7068051099777222,0.0019411820685490966,2.1450445652008057,4.457702322597168,0.0004452404973562807,0.3238978385925293,-1.4516943136798304,0.0,-0.06011750549077988,0.5667523741722107,6.692045280942693e-05,0.0016987663693726063,1.189825177192688,-0.0027507981285452843,-0.038805123418569565
405.0,808.0,4.0014,-0.0814,8.4778,-0.0377,0.0102,-0.1197,-1.6303030453123988,-0.0002700270852074027,2.378031015396118,-1.706821084022522,0.001370467129163444,2.130981683731079,4.457689924831055,0.00035689453943632543,0.31956520676612854,-1.4516857306109827,0.0,-0.04683636873960495,0.566731870174408,7.024556543910876e-05,0.003405235707759857,1.1898612976074219,-0.0015251773875206709,-0.0694524273276329
405.0,808.0,4.0014,-0.0814,8.4778,-0.0377,0.0102,-0.1197,-1.6303273640074671,-0.0003169586998410523,2.3625102043151855,-1.7067482471466064,0.0009856470860540867,2.145035743713379,4.457682772273682,0.0002978154516313225,0.31920111179351807,-1.451653782521383,0.0,-0.03950633108615875,0.5667037963867188,7.813188130967319e-05,-0.0012371753109619021,1.1898128986358643,-0.0008461521356366575,-0.11477378755807877
405.0,808.0,4.0014,-0.0814,8.4778,-0.0377,0.0102,-0.1197,-1.6303636036314906,-0.0007759826839901507,2.2826716899871826,-1.7068008184432983,0.0007758920546621084,2.2006189823150635,4.4576379495808105,0.0002555238315835595,0.32468152046203613,-1.4516657034503382,1.33486321374221e-06,-0.052299756556749344,0.5666793584823608,8.137504482874647e-05,0.01060935016721487,1.189744472503662,-0.000637869699858129,-0.16213825345039368
405.0,808.0,4.0014,-0.0814,8.4778,-0.0377,0.0102,-0.1197,-1.6303192577757777,-0.0009691030718386173,2.366032123565674,-1.7067852020263672,0.0005801856750622392,2.1299831867218018,4.457714720363281,0.00023342827626038343,0.3111637532711029,-1.451653782521383,5.690730997542914e-09,-0.04832373186945915,0.5667397975921631,8.486474689561874e-05,-0.013503959402441978,1.1897609233856201,-0.0006010578945279121,-0.08217158913612366
405.0,808.0,4.0014,-0.0814,8.4778,-0.0377,0.0102,-0.1197,-1.630359788934225,-0.001372501254081726,2.312927007675171,-1.7067843675613403,0.00041828828398138285,2.1443140506744385,4.457682772273682,0.0001897628972074017,0.3204512596130371,-1.4516494909869593,1.5840357454541265e-12,-0.04084700345993042,0.5667558908462524,0.00027491472428664565,0.01421825960278511,1.189825177192688,-0.0005342845106497407,-0.1703397035598755
405.0,808.0,4.0014,-0.0814,8.4778,-0.0377,0.0102,-0.1197,-1.6303793392577113,-0.001453501870855689,2.294069766998291,-1.706764817237854,0.00032705755438655615,2.142693042755127,4.457698031062744,0.00015446083853021264,0.3232080936431885,-1.451669994984762,4.409221007207196e-16,-0.03755345940589905,0.5667115449905396,0.0003006001643370837,0.01567319966852665,1.1898211240768433,-0.0006209239363670349,-0.1530108004808426
405.0,808.0,4.0014,-0.0814,8.4778,-0.0377,0.0102,-0.1197,-1.630383630792135,-0.0016165449051186442,2.264439105987549,-1.7067646980285645,0.00026850265567190945,2.1550707817077637,4.4576379495808105,0.00014003489923197776,0.3143690824508667,-1.4516494909869593,1.22732290077399e-19,-0.043075643479824066,0.5667358040809631,0.0004750864172820002,-0.0005208759102970362,1.189736247062683,-0.0007654018118046224,-0.14919376373291016
405.0,808.0,4.0014,-0.0814,8.4778,-0.0377,0.0102,-0.1197,-1.6303993664183558,-0.0018076939741149545,2.2602896690368652,-1.7067369222640991,0.00023987345048226416,2.1435279846191406,4.457653685207031,0.0001318293361691758,0.33186349272727966,-1.4516494909869593,5.23226977434148e-22,-0.021908801048994064,0.5667036175727844,0.0004948650021106005,0.006914022844284773,1.1897649765014648,-0.0007923703524284065,-0.19999289512634277
405.0,808.0,4.0014,-0.0814,8.4778,-0.0377,0.0102,-0.1197,-1.6303869686522425,-0.002251846482977271,2.231949806213379,-1.7068172693252563,0.00020679978479165584,2.1344006061553955,4.457686586970947,0.0001211784765473567,0.3153802156448364,-1.4516494909869593,1.4564215040150668e-25,-0.034666817635297775,0.5667155385017395,0.0005111168138682842,0.00984245166182518,1.1897809505462646,-0.0010355324484407902,-0.18841378390789032
405.0,808.0,4.0014,-0.0814,8.4778,-0.0377,0.0102,-0.1197,-1.630350729028219,-0.002856173785403371,2.2335996627807617,-1.7067606449127197,0.00018174237629864365,2.1081786155700684,4.457661791438721,9.008490451378748e-05,0.3070845305919647,-1.4516614119159144,2.358876918151509e-05,-0.03407203406095505,0.5667440295219421,0.0004285175527911633,0.021700577810406685,1.1897609233856201,-0.001249004970304668,-0.21094556152820587
405.0,808.0,4.0014,-0.0814,8.4778,-0.0377,0.0102,-0.1197,-1.6304270229735316,-0.00421544723212719,2.264906883239746,-1.7067451477050781,0.00016210123430937529,2.0973689556121826,4.457658453578613,8.345793321495876e-05,0.3069635033607483,-1.451653782521383,0.00019613066979218274,-0.030930688604712486,0.5667716264724731,0.00038767355727031827,0.017973676323890686,1.189744472503662,-0.0013580385129898787,-0.24303807318210602
405.0,808.0,4.0014,-0.0814,8.4778,-0.0377,0.0102,-0.1197,-1.6304875812926234,-0.004807032644748688,2.2083382606506348,-1.7067687511444092,0.0001512069720774889,2.1155765056610107,4.4576660829731445,7.975953485583887e-05,0.30864182114601135,-1.4516657034503382,0.0002152850793208927,-0.021017953753471375,0.5667235255241394,0.0003877610433846712,0.03040444478392601,1.1897526979446411,-0.0019340455764904618,-0.2515222132205963
405.0,808.0,4.0014,-0.0814,8.4778,-0.0377,0.0102,-0.1197,-1.630463262597555,-0.005385182797908783,2.234344959259033,-1.7067655324935913,0.000191923973034136,2.118812084197998,4.457634134883545,5.6133671023417264e-05,0.29819169640541077,-1.451669994984762,0.00019328318012412637,-0.011528088711202145,0.5667115449905396,0.00032509074662812054,0.010378504171967506,1.1896883249282837,-0.002401278354227543,-0.22706831991672516
405.0,808.0,4.0014,-0.0814,8.4778,-0.0377,0.0102,-0.1197,-1.6304995022215785,-0.002787989331409335,2.218404769897461,-1.706716537475586,0.0001523896644357592,2.1129133701324463,4.457690878505371,5.280057666823268e-05,0.3151334524154663,-1.4516618887530726,0.00020356124150566757,-0.02674427069723606,0.5667796730995178,0.0003211229632142931,0.02589470148086548,1.1897006034851074,-0.0036078423727303743,-0.2583230137825012
405.0,808.0,4.0014,-0.0814,8.4778,-0.0377,0.0102,-0.1197,-1.6305233440794886,-0.0012007461627945304,2.208096981048584,-1.7067532539367676,0.00019250465265940875,2.118467330932617,4.457649870509766,4.987455395166762e-05,0.2955645024776459,-1.451681915913717,0.00021208450198173523,-0.01108596846461296,0.5666916966438293,0.00027860497357323766,0.03480016812682152,1.1897289752960205,-0.004035910125821829,-0.2586497962474823
405.0,808.0,4.0014,-0.0814,8.4778,-0.0377,0.0102,-0.1197,-1.630531450311178,-0.0011018054792657495,2.244541645050049,-1.70673668384552,0.00018175627337768674,2.0951926708221436,4.457678480739258,-3.106385702267289e-05,0.29235658049583435,-1.4516218344317835,0.0002786932745948434,-0.021663397550582886,0.566731870174408,0.0002918773388955742,0.010657606646418571,1.189688801765442,-0.0049700322560966015,-0.21347570419311523
379.0,824.0,3.542,0.0108,8.5962,-0.0283,0.0386,-0.1167,-1.6305395565428675,-0.002232135273516178,2.1677944660186768,-1.7067326307296753,0.0001998007792280987,2.08058500289917,4.457650347346924,-4.7970792365958914e-05,0.29621049761772156,-1.4516218344317835,0.0002870099269784987,-0.0160379521548748,0.5667155385017395,0.0002607402275316417,0.007909189909696579,1.1896330118179321,-0.005277398973703384,-0.2489911913871765
379.0,824.0,3.542,0.0108,8.5962,-0.0283,0.0386,-0.1167,-1.630526681939596,-0.003061728086322546,2.1571567058563232,-1.7067451477050781,0.00014987195027060807,2.130340576171875,4.4576460558125,-6.079307058826089e-05,0.28703585267066956,-1.451613728200094,0.0002877244260162115,0.0027862945571541786,0.5667477250099182,0.00023518624948337674,0.011830708011984825,1.1896250247955322,-0.005677552428096533,-0.30356019735336304
379.0,824.0,3.542,0.0108,8.5962,-0.0283,0.0386,-0.1167,-1.630571027795309,-0.0030313110910356045,2.1793417930603027,-1.7067492008209229,0.00011991225619567558,2.0898616313934326,4.4576379495808105,-5.787742338725366e-05,0.29320746660232544,-1.4516375700580042,0.00027193286223337054,0.005412376951426268,0.5667477250099182,0.00021419412223622203,0.008689341135323048,1.1896257400512695,-0.005746700335294008,-0.354720801115036
379.0,824.0,3.542,0.0108,8.5962,-0.0283,0.0386,-0.1167,-1.630587717095846,-0.0025477863382548094,2.189518451690674,-1.7067811489105225,9.993646381190047e-05,2.077315092086792,4.457634134883545,-5.5214371968759224e-05,0.2950352132320404,-1.4516375700580042,0.000259104126598686,-0.004226433113217354,0.5667917132377625,0.00019664295541588217,0.0137823186814785,1.189549446105957,-0.005619368981570005,-0.34774887561798096
379.0,824.0,3.542,0.0108,8.5962,-0.0283,0.0386,-0.1167,-1.6305834255614222,-0.0024586168583482504,2.1750998497009277,-1.7067574262619019,0.00013489520642906427,2.1020686626434326,4.457702322597168,-5.357112968340516e-05,0.2879224121570587,-1.451658074055807,0.0002417095092823729,-0.0032356237061321735,0.5667477250099182,0.00018645725504029542,0.018485581502318382,1.1895415782928467,-0.005475935526192188,-0.3375731110572815
379.0,824.0,3.542,0.0108,8.5962,-0.0283,0.0386,-0.1167,-1.630627294579977,-0.0024316145572811365,2.173680305480957,-1.7067770957946777,0.00011733070277841762,2.0627219676971436,4.457657976741455,-5.128179327584803e-05,0.2748464047908783,-1.4516256491290491,0.00025206932332366705,-0.009838651865720749,0.5667756795883179,0.00013714414671994746,0.016546163707971573,1.1895174980163574,-0.0048086089082062244,-0.3516165018081665
379.0,824.0,3.542,0.0108,8.5962,-0.0283,0.0386,-0.1167,-1.6306311092772425,-0.002783446107059717,2.1211419105529785,-1.7067687511444092,0.00010379787272540852,2.0437233448028564,4.457661791438721,-4.9180063797393814e-05,0.27869322896003723,-1.4516337553607386,0.00021608403767459095,0.0037171216681599617,0.5668079257011414,0.00012559007154777646,0.01797674596309662,1.189473271369934,-0.004616919904947281,-0.3943521976470947
379.0,824.0,3.542,0.0108,8.5962,-0.0283,0.0386,-0.1167,-1.630679269830221,-0.003915342967957258,2.115807056427002,-1.7067326307296753,9.306448191637173e-05,2.1084611415863037,4.457649870509766,-4.7243891458492726e-05,0.2814127802848816,-1.451613728200094,0.00022532798175234348,-0.008094944059848785,0.566727876663208,0.00011588656343519688,0.023514103144407272,1.189481496810913,-0.004838499706238508,-0.39207515120506287
379.0,824.0,3.542,0.0108,8.5962,-0.0283,0.0386,-0.1167,-1.6306992969908656,-0.004444839432835579,2.084096908569336,-1.706744909286499,8.70624789968133e-05,2.0419275760650635,4.457658453578613,-4.6035598643356934e-05,0.2725066542625427,-1.451641861592428,0.0002090832422254607,-0.001457609934732318,0.5667437314987183,0.00011020978126907721,0.02874259278178215,1.1894539594650269,-0.005310462787747383,-0.3855994939804077
379.0,824.0,3.542,0.0108,8.5962,-0.0283,0.0386,-0.1167,-1.6306830845274867,-0.005483034998178482,2.09596586227417,-1.706744909286499,7.938321505207568e-05,2.0366411209106445,4.457718535060547,-4.4334847189020365e-05,0.27178701758384705,-1.4515937010394495,0.00018732566968537867,-0.0008382603409700096,0.5667597651481628,0.0001026662066578865,0.019545279443264008,1.1893692016601562,-0.005538258235901594,-0.36285728216171265
379.0,824.0,3.542,0.0108,8.5962,-0.0283,0.0386,-0.1167,-1.630735536614889,-0.006885322742164135,2.0778849124908447,-1.7067408561706543,9.440974827157333e-05,2.089830160140991,4.457682772273682,-4.2755196773214266e-05,0.2770114541053772,-1.451629940663473,0.00019060260092373937,-0.002254198770970106,0.5667477250099182,9.608917753212154e-05,0.006117621436715126,1.1893696784973145,-0.006895109545439482,-0.4209776520729065
379.0,824.0,3.542,0.0108,8.5962,-0.0283,0.0386,-0.1167,-1.630803724328512,-0.0071387821808457375,2.117003917694092,-1.7067047357559204,8.997235272545367e-05,2.0644166469573975,4.457698031062744,-4.128431100980379e-05,0.2757168412208557,-1.4516461531268519,0.0001808898086892441,-0.004844723269343376,0.5667438507080078,9.030418732436374e-05,0.007613419555127621,1.1893219947814941,-0.007330287713557482,-0.42850393056869507
379.0,824.0,3.542,0.0108,8.5962,-0.0283,0.0386,-0.1167,-1.630815168420309,-0.007188921328634024,2.057774305343628,-1.706716537475586,5.21002548339311e-05,2.0336151123046875,4.457706614131592,-4.035867459606379e-05,0.29074597358703613,-1.451613728200094,0.00017106746963690966,-0.0005721729248762131,0.5667396783828735,8.681964391143993e-05,0.010470302775502205,1.1893424987792969,-0.007078256458044052,-0.45191216468811035
379.0,824.0,3.542,0.0108,8.5962,-0.0283,0.0386,-0.1167,-1.6308633289732875,-0.007408618927001953,2.0995984077453613,-1.70673668384552,4.674046067520976e-05,1.9922254085540771,4.4576660829731445,-3.356581999014452e-07,0.2760130763053894,-1.451653782521383,0.0001581811811774969,0.009603213518857956,0.5667277574539185,8.206941129174083e-05,0.007909255102276802,1.1892781257629395,-0.007145545911043882,-0.38606882095336914
379.0,824.0,3.542,0.0108,8.5962,-0.0283,0.0386,-0.1167,-1.6308871708311976,-0.00805665273219347,2.072476625442505,-1.7067975997924805,6.503203621832654e-05,2.0478217601776123,4.4576460558125,-9.343169293796194e-11,0.2801836133003235,-1.451653782521383,0.00014710024697706103,-6.699236109852791e-05,0.566767692565918,7.781202293699607e-05,0.010682757943868637,1.189238429069519,-0.00714886374771595,-0.44901353120803833
379.0,824.0,3.542,0.0108,8.5962,-0.0283,0.0386,-0.1167,-1.630951543847555,-0.008095975033938885,2.0233349800109863,-1.7067170143127441,0.00010028850374510512,2.020820140838623,4.457698031062744,-2.6007057361073123e-14,0.26574864983558655,-1.4516499678241175,0.00014712750271428376,-0.006901329383254051,0.5667358040809631,7.397457375191152e-05,0.006722570862621069,1.1891659498214722,-0.006613380275666714,-0.38293302059173584
375.0,861.0,3.8387,-0.2548,8.5741,-0.0287,0.0223,-0.1367,-1.631003042260641,-0.007835403084754944,2.0194640159606934,-1.7066807746887207,0.0004252086509950459,2.0130014419555664,4.457685633296631,-1.1087215925516993e-16,0.2749464809894562,-1.4516661802874964,0.00015049625653773546,-0.0007171968463808298,0.5667036771774292,7.161987741710618e-05,0.008971542119979858,1.1891380548477173,-0.006691447459161282,-0.4808277487754822
375.0,861.0,3.8387,-0.2548,8.5741,-0.0287,0.0223,-0.1367,-1.631014963189596,-0.00875335093587637,2.040764093399048,-1.7067656517028809,0.0004855502920690924,1.9972929954528809,4.457710428828857,-3.086167244582731e-20,0.2607502341270447,-1.4516256491290491,0.00014165352331474423,-0.004414577968418598,0.5667397975921631,5.51447992620524e-05,0.004272760823369026,1.189122200012207,-0.0071519361808896065,-0.4517592787742615
375.0,861.0,3.8387,-0.2548,8.5741,-0.0287,0.0223,-0.1367,-1.6310745678343714,-0.00967338029295206,2.038609504699707,-1.7067210674285889,0.0008917230879887938,2.0449318885803223,4.457714720363281,-8.590460966167968e-24,0.2632167339324951,-1.4515779654132288,0.00013375857088249177,0.0017383414087817073,0.5667076706886292,5.230156239122152e-05,0.01579713076353073,1.1890424489974976,-0.0071398247964680195,-0.43677499890327454
375.0,861.0,3.8387,-0.2548,8.5741,-0.0287,0.0223,-0.1367,-1.6311513386168421,-0.010442862287163734,2.069164514541626,-1.7067092657089233,0.0008947937749326229,2.0195930004119873,4.457674189204834,-2.3911864707025824e-27,0.2689303159713745,-1.451613728200094,0.0001266973267775029,-0.0026084422133862972,0.5667597651481628,5.011709436075762e-05,0.009088210761547089,1.1890385150909424,-0.008013618178665638,-0.43079352378845215
375.0,861.0,3.8387,-0.2548,8.5741,-0.0287,0.0223,-0.1367,-1.6312033138670863,-0.011119142174720764,2.0217525959014893,-1.7067010402679443,0.0008961514104157686,2.0526297092437744,4.457698031062744,-1.0194004371686863e-29,0.2668147385120392,-1.451641861592428,0.0001223899016622454,0.001085825962945819,0.5667276382446289,4.875954255112447e-05,0.0051203458569943905,1.1889704465866089,-0.008383906446397305,-0.46871811151504517
375.0,861.0,3.8387,-0.2548,8.5741,-0.0287,0.0223,-0.1367,-1.6312061748900355,-0.012201447039842606,2.0335545539855957,-1.7067012786865234,0.000977616640739143,2.0383238792419434,4.457685633296631,-2.8375383030773973e-33,0.2710511386394501,-1.451613728200094,0.00011645123595371842,0.0010390515672042966,0.566687822341919,4.685564272222109e-05,0.007719937711954117,1.1889467239379883,-0.00910944864153862,-0.46885454654693604
375.0,861.0,3.8387,-0.2548,8.5741,-0.0287,0.0223,-0.1367,-1.6313306293883265,-0.01265687495470047,2.0565783977508545,-1.706705093383789,0.0011849302100017667,2.0224337577819824,4.457674189204834,-7.898391665028562e-37,0.25356191396713257,-1.4516494909869593,0.00011106237798230723,-0.0030850509647279978,0.5667076706886292,4.509486461756751e-05,0.008651970885694027,1.1888384819030762,-0.00969020090997219,-0.4447752833366394
375.0,861.0,3.8387,-0.2548,8.5741,-0.0287,0.0223,-0.1367,-1.631378789941305,-0.0134730264544487,2.021848440170288,-1.7066693305969238,0.0014623194001615047,2.0564165115356445,4.4576660829731445,-2.1985532126177785e-40,0.2688867449760437,-1.4516375700580042,0.00010615004430292174,0.006251424551010132,0.5667358040809631,4.346163768786937e-05,-0.006137480027973652,1.1887789964675903,-0.010534367524087429,-0.43740156292915344
375.0,861.0,3.8387,-0.2548,8.5741,-0.0287,0.0223,-0.1367,-1.6314550838866175,-0.014205464161932468,2.076592445373535,-1.7067055702209473,0.001757706399075687,2.02066707611084,4.457685633296631,-9.374686726333026e-43,0.2776223421096802,-1.4516223112689417,0.00010310985089745373,-0.003214683849364519,0.5667597651481628,4.2436993680894375e-05,0.007295083720237017,1.1887712478637695,-0.010283447802066803,-0.4832254946231842
375.0,861.0,3.8387,-0.2548,8.5741,-0.0287,0.0223,-0.1367,-1.6315142116942347,-0.015708673745393753,2.0077121257781982,-1.7066890001296997,0.002443688688799739,2.0496482849121094,4.457689924831055,-0.0,0.2773406505584717,-1.4516256491290491,9.886243788059801e-05,-0.003768020775169134,0.5667118430137634,4.098752106074244e-05,0.001035226508975029,1.1886630058288574,-0.010349703021347523,-0.4690147638320923
375.0,861.0,3.8387,-0.2548,8.5741,-0.0287,0.0223,-0.1367,-1.6316758594908656,-0.017573412507772446,2.0290322303771973,-1.7066487073898315,0.0026336165610700846,2.0540761947631836,4.457670374507568,-0.0,0.2741580009460449,-1.4516180197345179,8.534779044566676e-05,0.004664147272706032,0.5667077898979187,2.008986848522909e-05,0.012171628884971142,1.1886553764343262,-0.010998212732374668,-0.48476409912109375
375.0,861.0,3.8387,-0.2548,8.5741,-0.0287,0.0223,-0.1367,-1.6317178211607875,-0.018559664487838745,2.0726070404052734,-1.7066166400909424,0.0037729840259999037,2.057985544204712,4.457657976741455,-0.0,0.26677364110946655,-1.4516180197345179,7.17876318958588e-05,0.0016968713607639074,0.5667915940284729,5.592089014072599e-09,-6.615265738219023e-05,1.1885792016983032,-0.010040570050477982,-0.4613453149795532
375.0,861.0,3.8387,-0.2548,8.5741,-0.0287,0.0223,-0.1367,-1.6318141422667445,-0.020805148407816887,2.0683176517486572,-1.7066210508346558,0.005182165186852217,2.0110867023468018,4.457729979152344,-2.181684430979658e-05,0.27546268701553345,-1.4515979925738733,6.850632053101435e-05,-0.0057594734244048595,0.5667396187782288,1.5565784338561484e-12,0.002010761760175228,1.1885114908218384,-0.010098090395331383,-0.48675528168678284
375.0,861.0,3.8387,-0.2548,8.5741,-0.0287,0.0223,-0.1367,-1.6319309673705042,-0.020639870315790176,2.059448003768921,-1.706568956375122,0.006188587285578251,2.044816493988037,4.457718535060547,-2.137210867658723e-05,0.26536816358566284,-1.4516342321978968,6.648211274296045e-05,-0.012078963220119476,0.5666877627372742,6.635937323728677e-15,-0.013756023719906807,1.1884716749191284,-0.010255412198603153,-0.4855872392654419
375.0,861.0,3.8387,-0.2548,8.5741,-0.0287,0.0223,-0.1367,-1.6320582828917445,-0.022074008360505104,2.0511369705200195,-1.706540822982788,0.007838277146220207,2.006057024002075,4.457729979152344,-2.0637315174099058e-05,0.27430927753448486,-1.4516060988055628,6.366058369167149e-05,-0.0015053185634315014,0.5666838884353638,1.8471373212227636e-18,0.005846683867275715,1.1884078979492188,-0.010873179882764816,-0.4765217900276184
375.0,861.0,3.8387,-0.2548,8.5741,-0.0287,0.0223,-0.1367,-1.632214208642477,-0.02448456920683384,2.0170774459838867,-1.706424355506897,0.00934379082173109,2.0350754261016846,4.457741900081299,-1.9951095964643173e-05,0.26403892040252686,-1.4516380468951624,6.106876389821991e-05,-0.010186441242694855,0.5667518973350525,5.141575256483562e-22,-0.0077340686693787575,1.1884244680404663,-0.01220208965241909,-0.4650155305862427
375.0,861.0,3.8387,-0.2548,8.5741,-0.0287,0.0223,-0.1367,-1.6323744259276332,-0.026924842968583107,2.007841110229492,-1.7063721418380737,0.010898877866566181,2.063880681991577,4.45770184576001,-8.2545064117312e-09,0.25270920991897583,-1.451629940663473,5.867979416507296e-05,0.001957976259291172,0.5667637586593628,1.431176475933797e-25,-0.004848707467317581,1.188264012336731,-0.013785022310912609,-0.4447527527809143
416.0,847.0,2.997,0.0102,9.0239,-0.0333,0.0009,-0.1396,-1.6324221096434535,-0.029111765325069427,1.9899647235870361,-1.7064290046691895,0.011884181760251522,2.04132080078125,4.457689924831055,-3.519026042786422e-11,0.25829192996025085,-1.451601807271139,5.718832471757196e-05,-0.007831481285393238,0.566743791103363,6.101329693414236e-28,-0.0004877508617937565,1.188179850578308,-0.0146909449249506,-0.4986115097999573
416.0,847.0,2.997,0.0102,9.0239,-0.0333,0.0009,-0.1396,-1.6326548061766566,-0.032622095197439194,2.0573201179504395,-1.706292748451233,0.012279612012207508,2.0393950939178467,4.457754297847412,-9.795337182702275e-15,0.2581561803817749,-1.4516060988055628,5.508810863830149e-05,-0.002102560829371214,0.5667117238044739,1.6983276718957124e-31,0.00806671567261219,1.1881325244903564,-0.01584486849606037,-0.46259698271751404
416.0,847.0,2.997,0.0102,9.0239,-0.0333,0.0009,-0.1396,-1.6328827343382777,-0.036990076303482056,1.988980770111084,-1.7061924934387207,0.015192379243671894,2.062453508377075,4.457741900081299,-2.7265684515289283e-18,0.2748371660709381,-1.4516461531268519,5.313662040862255e-05,0.005986449308693409,0.5667277574539185,4.7273570036101874e-35,-0.009585915133357048,1.188056230545044,-0.017657119780778885,-0.48695677518844604
416.0,847.0,2.997,0.0102,9.0239,-0.0333,0.0009,-0.1396,-1.6330534420409144,-0.04253994673490524,2.0020437240600586,-1.7061409950256348,0.016007380560040474,2.0607192516326904,4.457702322597168,-7.589503289209071e-22,0.2724778652191162,-1.4515860716449183,5.1318704208824784e-05,0.0014259098097682,0.566699743270874,1.3158772717574263e-38,-0.009076209738850594,1.187944769859314,-0.019599992781877518,-0.4980396330356598
416.0,847.0,2.997,0.0102,9.0239,-0.0333,0.0009,-0.1396,-1.633221288720602,-0.04607022926211357,1.9610832929611206,-1.7060002088546753,0.01673121564090252,2.065703868865967,4.457770033473633,-3.2355238496014267e-24,0.2552027106285095,-1.451601807271139,5.017429430154152e-05,6.81545352563262e-05,0.5667677521705627,-4.274960247130366e-06,-0.015961866825819016,1.1878448724746704,-0.022739345207810402,-0.5223745107650757
416.0,847.0,2.997,0.0102,9.0239,-0.0333,0.0009,-0.1396,-1.6334973774352015,-0.049589358270168304,2.000983476638794,-1.7059288024902344,0.019156334921717644,2.076841354370117,4.457754297847412,-9.00619923591881e-28,0.25916343927383423,-1.4516542593585413,1.2587855735546327e-07,-0.0024058774579316378,0.5666797161102295,-1.7289652376462072e-08,-0.0009332885383628309,1.187677025794983,-0.02416088990867138,-0.4853244125843048
416.0,847.0,2.997,0.0102,9.0239,-0.0333,0.0009,-0.1396,-1.633801599542135,-0.05330019071698189,1.9633806943893433,-1.7057970762252808,0.021491939201951027,2.0489394664764404,4.4577295023151855,-2.506908858425215e-31,0.2563222646713257,-1.4516618887530726,3.503876008781326e-11,-0.011486316099762917,0.5666596293449402,-4.812638568912897e-12,-0.004936898127198219,1.187553882598877,-0.027888622134923935,-0.5030018091201782
416.0,847.0,2.997,0.0102,9.0239,-0.0333,0.0009,-0.1396,-1.6341330013670863,-0.05706216022372246,1.9611223936080933,-1.7056324481964111,0.02448919415473938,2.048431396484375,4.457718058223389,-6.978071961929479e-35,0.2589876651763916,-1.4516499678241175,9.753168494456167e-15,0.009897084906697273,0.5667077898979187,-1.3396157462467373e-15,0.0029530611354857683,1.1873738765716553,-0.031186511740088463,-0.5389543175697327
416.0,847.0,2.997,0.0102,9.0239,-0.0333,0.0009,-0.1396,-1.6344300709166468,-0.06145432963967323,1.9619853496551514,-1.7055245637893677,0.024557849392294884,2.0549700260162354,4.457786245937012,-2.9748613514660126e-37,0.2605164051055908,-1.4515979925738733,4.1579282354994653e-17,0.00964425690472126,0.5667077302932739,-5.7109918474574806e-18,0.011598842218518257,1.187226414680481,-0.033162958920001984,-0.5141106247901917
416.0,847.0,2.997,0.0102,9.0239,-0.0333,0.0009,-0.1396,-1.634829660455221,-0.06425049901008606,1.9022173881530762,-1.7054572105407715,0.025301987305283546,2.0419721603393555,4.4577576357075195,-8.280693015234642e-41,0.25932034850120544,-1.4515937010394495,1.1573745533160739e-20,0.0033171754330396652,0.5666676759719849,-1.5896755396456952e-21,-0.0013368693180382252,1.186982274055481,-0.03586577624082565,-0.5405561327934265
416.0,847.0,2.997,0.0102,9.0239,-0.0333,0.0009,-0.1396,-1.63519348720693,-0.06724909693002701,1.9745310544967651,-1.705264687538147,0.02722584456205368,2.07985782623291,4.457766218776367,-2.2420775429197073e-44,0.2496131956577301,-1.451601807271139,3.221594735382713e-24,-0.004959139972925186,0.5666677951812744,-4.4249200047632235e-25,0.010242801159620285,1.1868151426315308,-0.03968503326177597,-0.507841944694519
416.0,847.0,2.997,0.0102,9.0239,-0.0333,0.0009,-0.1396,-1.6356078586974085,-0.06805426627397537,1.9605791568756104,-1.7050843238830566,0.028412172570824623,2.0250043869018555,4.457769556636475,-0.0,0.2550448179244995,-1.4516060988055628,8.967425451313434e-28,0.009495020844042301,0.5667118430137634,-1.231692745858264e-28,-0.00016838451847434044,1.1865196228027344,-0.04213264212012291,-0.5638741254806519
416.0,847.0,2.997,0.0102,9.0239,-0.0333,0.0009,-0.1396,-1.6358114681639613,-0.06764987856149673,1.9762901067733765,-1.704972505569458,0.0291152261197567,2.0830938816070557,4.457769556636475,0.00021329316950868815,0.2620588541030884,-1.4516060988055628,3.822954012490011e-30,0.012380188331007957,0.5666959285736084,-5.250898940688114e-31,0.00424971804022789,1.1863477230072021,-0.04462967813014984,-0.5430738925933838
416.0,847.0,2.997,0.0102,9.0239,-0.0333,0.0009,-0.1396,-1.636315485040182,-0.06746437400579453,1.9536724090576172,-1.704804539680481,0.029980117455124855,2.106691360473633,4.457790060634277,0.00026557897217571735,0.25051450729370117,-1.4515941778766077,1.0641335261551535e-33,0.007644254714250565,0.5666760206222534,-1.4616068059531774e-34,-0.015030790120363235,1.1860926151275635,-0.0473853275179863,-0.5512996912002563
416.0,847.0,2.997,0.0102,9.0239,-0.0333,0.0009,-0.1396,-1.6367041073241175,-0.06938742846250534,1.9513931274414062,-1.704660415649414,0.02933679148554802,2.067234516143799,4.457753821010254,0.00027004737057723105,0.2626301646232605,-1.451601807271139,2.9620548287486095e-37,0.021467547863721848,0.5666197538375854,-4.068435794063871e-38,-0.011338423937559128,1.1857815980911255,-0.051449187099933624,-0.5315221548080444
416.0,847.0,2.997,0.0102,9.0239,-0.0333,0.0009,-0.1396,-1.6371151409544886,-0.07197722792625427,1.9307670593261719,-1.704432725906372,0.0299746785312891,2.0172431468963623,4.457801981563232,0.0005035133217461407,0.2689143419265747,-1.4516060988055628,7.341926539083943e-05,0.012197183445096016,0.5666277408599854,-0.0001444382796762511,-0.010977981612086296,1.1854578256607056,-0.05681975930929184,-0.5717198252677917
416.0,847.0,2.997,0.0102,9.0239,-0.0333,0.0009,-0.1396,-1.6374503574767054,-0.073433518409729,1.9165074825286865,-1.7043085098266602,0.02892974391579628,2.0565505027770996,4.457793398494385,0.0005096415989100933,0.26068297028541565,-1.4516180197345179,7.119240035535768e-05,-0.0011020591482520103,0.566683828830719,-0.00013623507402371615,-0.007861046120524406,1.1852788925170898,-0.06167810410261154,-0.6191623210906982
442.0,830.0,3.4241,-0.6939,8.6901,-0.0993,-0.0232,-0.1961,-1.6378432712950648,-0.07405064254999161,1.9754667282104492,-1.7042211294174194,0.029310759156942368,2.0654051303863525,4.4577976900288085,0.0007426877273246646,0.2618335783481598,-1.4515779654132288,6.796695379307494e-05,0.0025965413078665733,0.5666837692260742,-0.0001496506592957303,-0.015213221311569214,1.1848394870758057,-0.06842965632677078,-0.6137635707855225
442.0,830.0,3.4241,-0.6939,8.6901,-0.0993,-0.0232,-0.1961,-1.6382175884642542,-0.07458574324846268,1.972766399383545,-1.7039602994918823,0.03122836910188198,2.099538803100586,4.457837744350098,0.0007124165422283113,0.26234328746795654,-1.4516180197345179,6.50207803118974e-05,0.020393960177898407,0.5666877627372742,-0.00013835178106091917,-0.025744758546352386,1.1844162940979004,-0.07420547306537628,-0.5967285633087158
442.0,830.0,3.4241,-0.6939,8.6901,-0.0993,-0.0232,-0.1961,-1.6386810741820277,-0.07732044160366058,1.9812688827514648,-1.7037478685379028,0.03305642306804657,2.040544033050537,4.457805796260498,0.0009061360615305603,0.2765626311302185,-1.4516461531268519,6.231940642464906e-05,0.014093013480305672,0.5666316747665405,-0.00013899982150178403,-0.028405189514160156,1.1839128732681274,-0.07578648626804352,-0.6287446618080139
442.0,830.0,3.4241,-0.6939,8.6901,-0.0993,-0.0232,-0.1961,-1.6391579113402308,-0.0810685083270073,1.978745460510254,-1.703613042831421,0.03540140017867088,2.062858819961548,4.457870169276855,0.0009422646253369749,0.26129940152168274,-1.4515937010394495,5.983356459182687e-05,0.0025473383720964193,0.5666400194168091,-0.00013989977014716715,-0.01903342455625534,1.1835066080093384,-0.07502555102109909,-0.6003648638725281
442.0,830.0,3.4241,-0.6939,8.6901,-0.0993,-0.0232,-0.1961,-1.6395169697203578,-0.08320797979831696,2.0189857482910156,-1.7034122943878174,0.03693230450153351,2.085740804672241,4.457810087794922,0.0009026663028635085,0.2637617886066437,-1.451629940663473,5.8283632824895903e-05,0.007750180549919605,0.5667118430137634,-0.00013395329006016254,-0.032183222472667694,1.1831907033920288,-0.0736226812005043,-0.6004657745361328
442.0,830.0,3.4241,-0.6939,8.6901,-0.0993,-0.0232,-0.1961,-1.6400095425047816,-0.0826517641544342,1.9780105352401733,-1.7032043933868408,0.038236282765865326,2.0812878608703613,4.457833929652832,0.000639242643956095,0.25828108191490173,-1.451613728200094,5.610368316411041e-05,0.007266996428370476,0.5666439533233643,-0.00012592093844432384,-0.030077435076236725,1.1827638149261475,-0.07050033658742905,-0.5744305849075317
442.0,830.0,3.4241,-0.6939,8.6901,-0.0993,-0.0232,-0.1961,-1.6405250034727992,-0.08063288778066635,1.9944639205932617,-1.702972412109375,0.03886078670620918,2.0573856830596924,4.457894011134766,0.0007035833550617099,0.26657602190971375,-1.4516423384295862,5.4080956033430994e-05,0.0005019425880163908,0.5666837096214294,-0.00011879740486619994,-0.011475085280835629,1.182324767112732,-0.06994175910949707,-0.5417851805686951
442.0,830.0,3.4241,-0.6939,8.6901,-0.0993,-0.0232,-0.1961,-1.6409555874266566,-0.07632100582122803,1.9956002235412598,-1.7027126550674438,0.0369722805917263,2.136223077774048,4.457821531886719,0.0009816443780437112,0.2662316560745239,-1.4516499678241175,5.219896411290392e-05,0.005898122675716877,0.5666479468345642,-0.00011243675544392318,-0.021313587203621864,1.181914210319519,-0.07027389109134674,-0.5517987012863159
442.0,830.0,3.4241,-0.6939,8.6901,-0.0993,-0.0232,-0.1961,-1.6412793598570765,-0.07779313623905182,2.002279281616211,-1.7025927305221558,0.03391832485795021,2.0666561126708984,4.457873983974121,0.0011354336747899652,0.2732537090778351,-1.451658074055807,5.101546412333846e-05,0.013099165633320808,0.5666360259056091,-0.00010856163862627,-0.014052150771021843,1.1816307306289673,-0.0698750838637352,-0.5696021318435669
442.0,830.0,3.4241,-0.6939,8.6901,-0.0993,-0.0232,-0.1961,-1.6417724094786585,-0.083121158182621,2.045513391494751,-1.7023922204971313,0.02875084988772869,2.032914638519287,4.457906408900879,0.0009638227638788521,0.26307785511016846,-1.4516542593585413,6.425419996958226e-06,0.013793153688311577,0.5667237043380737,-0.0001032253130688332,-0.03727269545197487,1.1811909675598145,-0.06982447952032089,-0.5751498341560364
442.0,830.0,3.4241,-0.6939,8.6901,-0.0993,-0.0232,-0.1961,-1.6421786747374476,-0.08687078207731247,2.0186166763305664,-1.7022122144699097,0.02294415794312954,2.0913357734680176,4.457933588618896,0.0018288629362359643,0.27338242530822754,-1.4516180197345179,1.7885393166494623e-09,0.0009279013611376286,0.56659996509552,-0.00011243636254221201,-0.03228934854269028,1.1808083057403564,-0.07032666355371475,-0.581015408039093
442.0,830.0,3.4241,-0.6939,8.6901,-0.0993,-0.0232,-0.1961,-1.6426998577513636,-0.08502734452486038,2.0718159675598145,-1.702128529548645,0.019870540127158165,2.088015079498291,4.457941694850586,0.004829054232686758,0.2795741558074951,-1.4516342321978968,4.978465556471079e-13,0.002001590561121702,0.5666716694831848,-0.00010741202277131379,-0.026837196201086044,1.180401086807251,-0.07371644675731659,-0.6039934158325195
442.0,830.0,3.4241,-0.6939,8.6901,-0.0993,-0.0232,-0.1961,-1.6429978809752406,-0.0798276960849762,2.0671026706695557,-1.7019925117492676,0.019953930750489235,2.0754077434539795,4.4579736429401855,0.00793051440268755,0.2748273015022278,-1.4515937010394495,2.1223977504408915e-15,0.012986709363758564,0.5666717886924744,-0.00010430006659589708,-0.027568092569708824,1.180105447769165,-0.07820579409599304,-0.6110495328903198
442.0,830.0,3.4241,-0.6939,8.6901,-0.0993,-0.0232,-0.1961,-1.6434465847411097,-0.07346983999013901,2.079772710800171,-1.7019410133361816,0.020599527284502983,2.0705113410949707,4.458081408137939,0.012912667356431484,0.28084272146224976,-1.4516461531268519,5.907772531714711e-19,-0.00873550120741129,0.5666519999504089,-0.00010511365690035746,-0.033023346215486526,1.1796022653579712,-0.08428902924060822,-0.6152931451797485
442.0,830.0,3.4241,-0.6939,8.6901,-0.0993,-0.0232,-0.1961,-1.643837114373678,-0.06599479913711548,2.0881314277648926,-1.7018529176712036,0.020466361194849014,2.0978879928588867,4.458089037532471,0.017562735825777054,0.2820364832878113,-1.4516175428973597,1.6444501029106034e-22,0.01532800868153572,0.5665718913078308,-0.0001153285993495956,-0.033650606870651245,1.1791273355484009,-0.08775637298822403,-0.6275181174278259
442.0,830.0,3.4241,-0.6939,8.6901,-0.0993,-0.0232,-0.1961,-1.6442858181395472,-0.062195613980293274,2.164958953857422,-1.7017006874084473,0.02022787369787693,2.0675954818725586,4.4582530695148925,0.020642835646867752,0.28506821393966675,-1.4516056219684046,4.5773875892578803e-26,-0.0012953466502949595,0.5666956901550293,-0.00011065953003708273,-0.02114664390683174,1.178592562675476,-0.08772856742143631,-0.5907410383224487
459.0,861.0,4.4716,-0.7872,8.9886,-0.0889,0.0037,-0.1726,-1.6445943317809046,-0.06485482305288315,2.1374123096466064,-1.7016209363937378,0.02079031430184841,2.09982967376709,4.458368464107178,0.02211780659854412,0.2859933078289032,-1.451669994984762,1.9514121642226664e-28,0.005965045187622309,0.5666558742523193,-0.00010630322503857315,-0.022639449685811996,1.1782653331756592,-0.08506667613983154,-0.5998667478561401
459.0,861.0,4.4716,-0.7872,8.9886,-0.0889,0.0037,-0.1726,-1.644949575463766,-0.06549851596355438,2.1751441955566406,-1.7014883756637573,0.019943973049521446,2.1140213012695312,4.458456202144287,0.02169162593781948,0.29486092925071716,-1.451658074055807,5.431827739782498e-32,0.0062469784170389175,0.5666110515594482,-0.00011695856665028259,-0.04130694270133972,1.1777182817459106,-0.08207865059375763,-0.5833415389060974
459.0,861.0,4.4716,-0.7872,8.9886,-0.0889,0.0037,-0.1726,-1.6453453503050746,-0.0655510425567627,2.117940664291382,-1.7013403177261353,0.018829282373189926,2.1122403144836426,4.4585510927387695,0.018085911870002747,0.29920023679733276,-1.451669994984762,1.511968990265924e-35,-0.006887216120958328,0.5666876435279846,-0.00011091899068560451,-0.03827068209648132,1.177223563194275,-0.07927137613296509,-0.5696309804916382
459.0,861.0,4.4716,-0.7872,8.9886,-0.0889,0.0037,-0.1726,-1.645729204217428,-0.06362894922494888,2.1630730628967285,-1.7012646198272705,0.020756518468260765,2.113053321838379,4.458679361934326,0.013140063732862473,0.29619863629341125,-1.4516256491290491,4.208621972694619e-39,-0.0013925950042903423,0.5666238069534302,-0.00010535428737057373,-0.026048284024000168,1.1767929792404175,-0.07624820619821548,-0.5438055396080017
459.0,861.0,4.4716,-0.7872,8.9886,-0.0889,0.0037,-0.1726,-1.645951887170309,-0.060042597353458405,2.1706948280334473,-1.7011604309082031,0.022355539724230766,2.137727975845337,4.458687945003174,0.009698611684143543,0.3026852011680603,-1.451641861592428,1.7942225537214958e-41,-0.01895790733397007,0.5666320323944092,-0.00010194461356149986,-0.0315701924264431,1.1764854192733765,-0.07346468418836594,-0.5455593466758728
459.0,861.0,4.4716,-0.7872,8.9886,-0.0889,0.0037,-0.1726,-1.646304269830221,-0.055858876556158066,2.1767280101776123,-1.7010325193405151,0.02694995328783989,2.118741750717163,4.458711310023926,0.004613950848579407,0.28913527727127075,-1.4516618887530726,5.605193857299268e-45,-0.011110369116067886,0.5666316151618958,-9.722482354845852e-05,-0.03932751715183258,1.1760667562484741,-0.07097777724266052,-0.5295020341873169
459.0,861.0,4.4716,-0.7872,8.9886,-0.0889,0.0037,-0.1726,-1.6465956173338832,-0.05492578074336052,2.23579740524292,-1.7008687257766724,0.031177477911114693,2.1755950450897217,4.458723230952881,0.0016799073200672865,0.29169565439224243,-1.4516618887530726,0.0,-0.0023722026962786913,0.5666677951812744,-9.292271715821698e-05,-0.034369926899671555,1.1757079362869263,-0.06696901470422745,-0.5192517042160034
459.0,861.0,4.4716,-0.7872,8.9886,-0.0889,0.0037,-0.1726,-1.6469718418517054,-0.05539115518331528,2.226191520690918,-1.700644612312317,0.03502088785171509,2.12176513671875,4.458775683040283,0.0009305642452090979,0.3054701089859009,-1.4516056219684046,0.0,-0.004613255150616169,0.5666760206222534,-8.898523810785264e-05,-0.022438231855630875,1.1753087043762207,-0.062530018389225,-0.5052518844604492
459.0,861.0,4.4716,-0.7872,8.9886,-0.0889,0.0037,-0.1726,-1.6471921406187953,-0.057231009006500244,2.1651246547698975,-1.7004761695861816,0.03840833902359009,2.163033962249756,4.458779020900391,0.0007179081439971924,0.29810214042663574,-1.451653782521383,0.0,-0.014720147475600243,0.5666797757148743,-8.654053817735985e-05,-0.028614629060029984,1.175057291984558,-0.06114468351006508,-0.46954673528671265
459.0,861.0,4.4716,-0.7872,8.9886,-0.0889,0.0037,-0.1726,-1.6475068531432093,-0.060041025280952454,2.2591428756713867,-1.7002286911010742,0.04351343587040901,2.1354172229766846,4.45876328527417,0.000610819086432457,0.3023506999015808,-1.451641861592428,0.0,-0.037859007716178894,0.5666237473487854,-9.420334390597418e-05,-0.029003459960222244,1.1747138500213623,-0.061447881162166595,-0.4890633225440979
459.0,861.0,4.4716,-0.7872,8.9886,-0.0889,0.0037,-0.1726,-1.6478668651976527,-0.0609307587146759,2.2296667098999023,-1.6999484300613403,0.052873458713293076,2.182781457901001,4.458767576808594,0.00048368785064667463,0.308815598487854,-1.4516456762896937,-2.2489870389108546e-05,-0.021897373721003532,0.5666118860244751,-9.137239976553246e-05,-0.03472040966153145,1.1743347644805908,-0.06450621038675308,-0.5015487670898438
459.0,861.0,4.4716,-0.7872,8.9886,-0.0889,0.0037,-0.1726,-1.648234029809469,-0.06101297587156296,2.18635630607605,-1.6995478868484497,0.059657126665115356,2.158132553100586,4.45878712713208,0.0012695214245468378,0.30177056789398193,-1.4516661802874964,-2.193609361711424e-05,-0.025200255215168,0.566615879535675,-8.802147931419313e-05,-0.03972236067056656,1.1739877462387085,-0.06670786440372467,-0.4323577880859375
459.0,861.0,4.4716,-0.7872,8.9886,-0.0889,0.0037,-0.1726,-1.6485821209349574,-0.06073621287941933,2.2007546424865723,-1.699139952659607,0.06848885864019394,2.212873935699463,4.4588515001484375,0.002044675638899207,0.29868239164352417,-1.4516056219684046,-2.1162466509849764e-05,-0.03432328626513481,0.5666360259056091,-8.490750042255968e-05,-0.03167116641998291,1.1735278367996216,-0.06640402227640152,-0.44483834505081177
459.0,861.0,4.4716,-0.7872,8.9886,-0.0889,0.0037,-0.1726,-1.6488176784911097,-0.05866621062159538,2.2358925342559814,-1.6989036798477173,0.07542846351861954,2.1675875186920166,4.458799048061035,0.002312568249180913,0.29802247881889343,-1.4516337553607386,-2.067628338409122e-05,-0.033974528312683105,0.566627562046051,-8.305134542752057e-05,-0.041388172656297684,1.1732808351516724,-0.06598562002182007,-0.4498575031757355
459.0,861.0,4.4716,-0.7872,8.9886,-0.0889,0.0037,-0.1726,-1.6491691074767054,-0.05895303934812546,2.229933977127075,-1.6983641386032104,0.08390653133392334,2.2112536430358887,4.45881096898999,0.0029939620289951563,0.28759610652923584,-1.4516857306109827,-2.9895298212068155e-05,-0.03434349596500397,0.5666078925132751,-9.227975533576682e-05,-0.03166332468390465,1.1728858947753906,-0.06634937971830368,-0.4198594093322754
459.0,861.0,4.4716,-0.7872,8.9886,-0.0889,0.0037,-0.1726,-1.649531980554098,-0.06144952401518822,2.2019598484039307,-1.6978517770767212,0.08800824731588364,2.245863914489746,4.458830996150635,0.0031746430322527885,0.299892783164978,-1.4516461531268519,-3.245559199172021e-08,-0.021642960608005524,0.566619873046875,-0.00010424537322251126,-0.025320470333099365,1.1724982261657715,-0.06675504148006439,-0.4676222801208496
459.0,861.0,4.4716,-0.7872,8.9886,-0.0889,0.0037,-0.1726,-1.6499330006041468,-0.06276994943618774,2.2287726402282715,-1.6972960233688354,0.08945353329181671,2.219923496246338,4.458911581630371,0.0033886597957462072,0.2989790737628937,-1.4516661802874964,-9.034132816831963e-12,-0.02978956699371338,0.566644012928009,-0.00011500502296257764,-0.04583015292882919,1.1721396446228027,-0.06548705697059631,-0.42961588501930237
495.0,839.0,4.6636,-0.609,9.2243,-0.0765,0.0965,-0.1506,-1.6502582035460414,-0.06098083406686783,2.2121801376342773,-1.69699227809906,0.09023042023181915,2.2094297409057617,4.458907290095947,0.004046862479299307,0.3014644980430603,-1.4516375700580042,-3.851391726155881e-14,-0.019388597458600998,0.5666519403457642,-0.00012657213665079325,-0.0513325072824955,1.1718323230743408,-0.06385922431945801,-0.4499448537826538
495.0,839.0,4.6636,-0.609,9.2243,-0.0765,0.0965,-0.1506,-1.6505519352354945,-0.0564618855714798,2.271468162536621,-1.6963675022125244,0.09359637647867203,2.25894832611084,4.458946867580078,0.005824388936161995,0.2907775938510895,-1.4516375700580042,-1.0720492349258754e-17,-0.011590181849896908,0.566615879535675,-0.0003079465823248029,-0.044803768396377563,1.1715373992919922,-0.060110874474048615,-0.4397793114185333
