ramyac6/ROB537/final_project/csv/good/good_8.csv
tof_0,tof_1,accelx,accely,accelz,gyrox,gyroy,gyroz,shoulder_lift_joint_position,shoulder_lift_joint_velocity,shoulder_lift_joint_effort,elbow_joint_position,elbow_joint_velocity,elbow_joint_effort,wrist_1_joint_position,wrist_1_joint_velocity,wrist_1_joint_effort,wrist_2_joint_position,wrist_2_joint_velocity,wrist_2_joint_effort,wrist_3_joint_position,wrist_3_joint_velocity,wrist_3_joint_effort,shoulder_pan_joint_position,shoulder_pan_joint_velocity,shoulder_pan_joint_effort
227.0,772.0,-4.9292,2.9617,8.1649,-0.0379,0.0289,-0.1187,-2.2414690456786097,0.0,4.576047897338867,-1.455207109451294,-0.0,1.8639576435089111,-0.7117226880839844,0.0,0.25071731209754944,-1.973478142415182,0.0,0.050266481935977936,0.4523756802082062,0.0,0.0067599862813949585,1.0958256721496582,-1.5979118492573035e-39,0.043745897710323334
227.0,772.0,-4.9292,2.9617,8.1649,-0.0379,0.0289,-0.1187,-2.241464754144186,0.0,4.5262041091918945,-1.4552032947540283,-0.0,1.8441864252090454,-0.7117467683604737,0.0,0.24744561314582825,-1.97353440919985,0.0,0.04786030203104019,0.4523395597934723,0.0,0.017789218574762344,1.0958857536315918,-0.0,0.05805237218737602
227.0,772.0,-4.9292,2.9617,8.1649,-0.0379,0.0289,-0.1187,-2.2414852581419886,0.0,4.521944999694824,-1.455246925354004,-0.0,1.8731216192245483,-0.711738721733429,0.0,0.23992818593978882,-1.9734943548785608,0.0,0.046720512211322784,0.45242321491241455,0.0,0.0058646369725465775,1.0958656072616577,0.0,0.02676309645175934
227.0,772.0,-4.9292,2.9617,8.1649,-0.0379,0.0289,-0.1187,-2.2414733372130335,0.0,4.572031497955322,-1.4551910161972046,-0.0,1.8577392101287842,-0.7117067736438294,-1.4170078443953571e-08,0.2451382875442505,-1.9734986464129847,0.0,0.04044429585337639,0.45237958431243896,0.0,0.012948952615261078,1.0958577394485474,0.0,0.036419469863176346
227.0,772.0,-4.9292,2.9617,8.1649,-0.0379,0.0289,-0.1187,-2.2414609394469203,0.0,4.562048435211182,-1.4552230834960938,-0.0,1.8977268934249878,-0.7117185753634949,-2.575341741077597e-13,0.23917683959007263,-1.9734700361834925,0.0,0.04981526732444763,0.45239150524139404,0.0,0.026928456500172615,1.0958857536315918,0.0,-0.003076316323131323
227.0,772.0,-4.9292,2.9617,8.1649,-0.0379,0.0289,-0.1187,-2.2414690456786097,0.0,4.563287258148193,-1.4552829265594482,-0.0,1.8621950149536133,-0.7117467683604737,-3.056068403913914e-19,0.2523435056209564,-1.973506275807516,0.0,0.035417765378952026,0.45241522789001465,0.0,0.010233133099973202,1.0958497524261475,-1.684737469531683e-07,0.03481574356555939
223.0,746.0,-4.9878,2.8319,7.9567,-0.0505,0.0325,-0.1179,-2.2414971790709437,0.0,4.565629005432129,-1.455259084701538,-0.0,1.8835910558700562,-0.7117626828006287,-5.554253671108077e-24,0.24455952644348145,-1.9735143820392054,0.0,0.048790331929922104,0.45235976576805115,0.0,0.0050020464695990086,1.0958576202392578,-5.458335369248283e-15,0.023207921534776688
223.0,746.0,-4.9878,2.8319,7.9567,-0.0505,0.0325,-0.1179,-2.2414523563780726,0.0,4.563104629516602,-1.4552509784698486,-0.0,1.9052138328552246,-0.7117467683604737,-1.009458124757341e-28,0.24630269408226013,-1.9734824339496058,0.0,0.05315682291984558,0.4524073600769043,0.0,0.018344108015298843,1.0958458185195923,-1.7684312693074827e-22,-0.009577542543411255
223.0,746.0,-4.9878,2.8319,7.9567,-0.0505,0.0325,-0.1179,-2.241448541680807,0.0,4.543452739715576,-1.4552876949310303,-0.0,1.8617253303527832,-0.7118144792369385,-1.8346403184184077e-33,0.24944153428077698,-1.9734943548785608,0.0,0.04161959886550903,0.45241132378578186,0.0,0.002624443033710122,1.0958656072616577,-5.729492249749698e-30,0.0058065722696483135
223.0,746.0,-4.9878,2.8319,7.9567,-0.0505,0.0325,-0.1179,-2.2414890728392542,0.0,4.514328479766846,-1.4552314281463623,-0.0,1.9288214445114136,-0.7117546957782288,-2.177104938322823e-39,0.253448486328125,-1.9734743277179163,0.0,0.04424246400594711,0.45233961939811707,0.0,0.0033209703397005796,1.0958176851272583,-2.490439478841245e-39,0.012015332467854023
223.0,746.0,-4.9878,2.8319,7.9567,-0.0505,0.0325,-0.1179,-2.241432329217428,0.0,4.568340301513672,-1.4552788734436035,-0.0,1.8594744205474854,-0.7117467683604737,-3.923635700109488e-44,0.2519463300704956,-1.9734867254840296,0.0,0.03989696502685547,0.4523676633834839,0.0,0.017621949315071106,1.0958738327026367,-0.0,0.015415366739034653
223.0,746.0,-4.9878,2.8319,7.9567,-0.0505,0.0325,-0.1179,-2.24149288753652,0.0,4.5510053634643555,-1.4552552700042725,-0.0,1.9108493328094482,-0.7117948693088074,-0.0,0.2558194398880005,-1.9734986464129847,0.0,0.04246751591563225,0.45235148072242737,0.0,0.010186455212533474,1.0958937406539917,0.0,0.029592376202344894
223.0,746.0,-4.9878,2.8319,7.9567,-0.0505,0.0325,-0.1179,-2.241509099999899,0.0,4.520647048950195,-1.4552271366119385,-0.0,1.9303359985351562,-0.7117908757976075,-0.0,0.25440216064453125,-1.9735143820392054,0.0,0.03834965452551842,0.45239150524139404,0.0,0.0016463723732158542,1.0958538055419922,0.0,0.014348320662975311
223.0,746.0,-4.9878,2.8319,7.9567,-0.0505,0.0325,-0.1179,-2.2415009937682093,0.0,4.505068302154541,-1.455275535583496,-0.0,1.8385586738586426,-0.7117586892894288,-0.0,0.24889439344406128,-1.9735067526446741,0.0,0.04605262726545334,0.4523676633834839,0.0,0.0088643254712224,1.0958536863327026,0.0,0.022266322746872902
223.0,746.0,-4.9878,2.8319,7.9567,-0.0505,0.0325,-0.1179,-2.241480966607565,0.0,4.560787677764893,-1.455246925354004,-0.0,1.8993215560913086,-0.7117348474315186,-0.0,0.24576370418071747,-1.973490063344137,0.0,0.05106407403945923,0.45239144563674927,0.0,0.009792771190404892,1.0958778858184814,0.0,-0.006444932892918587
223.0,746.0,-4.9878,2.8319,7.9567,-0.0505,0.0325,-0.1179,-2.2414566479124964,0.0,4.51076602935791,-1.455275535583496,-0.0,1.8401825428009033,-0.7117707890323182,-0.0,0.25915125012397766,-1.973490063344137,0.0,0.031590767204761505,0.45237159729003906,0.0,0.014954754151403904,1.0958818197250366,0.0,-0.005534995347261429
223.0,746.0,-4.9765,2.9928,7.9914,-0.0261,0.0321,-0.1182,-2.241476675073141,0.0,4.525852203369141,-1.455207109451294,-0.0,1.8303520679473877,-0.711714581852295,-0.0,0.24865442514419556,-1.973478142415182,0.0,0.04979235306382179,0.4523355960845947,0.0,0.010753927752375603,1.0958497524261475,0.0,0.0006140302866697311
227.0,769.0,-4.9765,2.9928,7.9914,-0.0261,0.0321,-0.1182,-2.241464754144186,0.0,4.592384338378906,-1.4552550315856934,-0.0,1.8693304061889648,-0.7117626828006287,-0.0,0.23316088318824768,-1.9734576384173792,0.0,0.05474725365638733,0.45238351821899414,0.0,0.0077309878543019295,1.0958898067474365,0.0,-0.019246289506554604
227.0,769.0,-4.9765,2.9928,7.9914,-0.0261,0.0321,-0.1182,-2.241464754144186,0.0,4.509130477905273,-1.455207109451294,-0.0,1.8563237190246582,-0.7117348474315186,-0.0,0.24132171273231506,-1.9735024611102503,0.0,0.058860793709754944,0.45236751437187195,0.0,0.006473950110375881,1.0958455801010132,0.0,0.014589205384254456
227.0,769.0,-4.9765,2.9928,7.9914,-0.0261,0.0321,-0.1182,-2.2414566479124964,0.0,4.514023780822754,-1.455235481262207,-0.0,1.866018533706665,-0.7117507618716736,-0.0,0.2431606501340866,-1.9734905401812952,0.0,0.05270051211118698,0.45234307646751404,0.0,0.0032218145206570625,1.0958497524261475,0.0,-0.0009232079610228539
227.0,769.0,-4.9765,2.9928,7.9914,-0.0261,0.0321,-0.1182,-2.241476675073141,0.0,4.527642250061035,-1.455275535583496,-0.0,1.8948909044265747,-0.7117746037295838,-0.0,0.24645507335662842,-1.973478142415182,0.0,0.03319539129734039,0.4523913562297821,0.0,0.0023419137578457594,1.0958696603775024,0.0,0.0171979833394289
227.0,769.0,-4.9765,2.9928,7.9914,-0.0261,0.0321,-0.1182,-2.241509576837057,0.0,4.552609443664551,-1.455259084701538,-0.0,1.8447401523590088,-0.7117468279651185,-0.0,0.23878398537635803,-1.9735143820392054,0.0,0.04525446891784668,0.45240774750709534,0.0,0.010186570696532726,1.0958497524261475,-7.735880353720859e-05,0.027334770187735558
227.0,769.0,-4.9765,2.9928,7.9914,-0.0261,0.0321,-0.1182,-2.241464754144186,0.0,4.567357063293457,-1.455227017402649,-0.0,1.8883082866668701,-0.7117828291705628,-0.0,0.2331947684288025,-1.973478142415182,0.0,0.0469706654548645,0.45238351821899414,0.0,-0.001357590314000845,1.0958375930786133,-9.398065594723448e-05,0.0642864853143692
227.0,769.0,-4.9765,2.9928,7.9914,-0.0261,0.0321,-0.1182,-2.2414609394469203,0.0,4.559484004974365,-1.4552671909332275,-0.0,1.8830854892730713,-0.7117548745921631,-0.0,0.24904972314834595,-1.973450009022848,0.0,0.05227716639637947,0.4523954391479492,0.0,0.018573934212327003,1.0957695245742798,-0.0003962592745665461,0.03835606575012207
227.0,769.0,-4.9765,2.9928,7.9914,-0.0261,0.0321,-0.1182,-2.2414523563780726,0.0,4.585695266723633,-1.455259084701538,-0.0,1.8904354572296143,-0.7117346686175843,-0.0,0.2554805874824524,-1.973494831715719,0.0,0.03632506728172302,0.45242375135421753,2.573449364717817e-06,0.009417323395609856,1.0958415269851685,-0.00035257733543403447,-0.010705367662012577
227.0,769.0,-4.9765,2.9928,7.9914,-0.0261,0.0321,-0.1182,-2.2414847813048304,0.0,4.573938369750977,-1.4552311897277832,-0.0,1.8639583587646484,-0.7117746037295838,-1.3894534134362146e-10,0.2290877252817154,-1.9734461943255823,0.0,0.030002905055880547,0.45240360498428345,-6.254845175135415e-06,0.004939114674925804,1.0958495140075684,-0.0003101597831118852,-3.8100406527519226e-06
227.0,769.0,-4.9765,2.9928,7.9914,-0.0261,0.0321,-0.1182,-2.241476675073141,0.0,4.5369367599487305,-1.4551831483840942,-0.0,1.8593981266021729,-0.7117626828006287,-2.5252631372975082e-15,0.23534870147705078,-1.973461929951803,0.0,0.03947795182466507,0.4523512125015259,-1.1367874003243017e-10,0.003483597422018647,1.095821738243103,-0.00025912749697454274,-0.003758156206458807
219.0,780.0,-4.9484,2.7876,8.0871,-0.0386,0.0258,-0.1142,-2.2414566479124964,0.0,4.547115325927734,-1.4552671909332275,-0.0,1.8982579708099365,-0.7117746037295838,-4.589540219799156e-20,0.2420400083065033,-1.973450009022848,0.0,0.03995945304632187,0.45238351821899414,-2.06605481285543e-15,0.006639133207499981,1.0958455801010132,-0.00022251623158808798,0.004344218410551548
219.0,780.0,-4.9484,2.7876,8.0871,-0.0386,0.0258,-0.1142,-2.2414971790709437,0.0,4.554010391235352,-1.4552671909332275,-0.0,1.8605841398239136,-0.7117306751063843,-8.341262370006592e-25,0.23308643698692322,-1.9734824339496058,0.0,0.04172873497009277,0.4523351788520813,-3.7549521402372306e-20,0.009079109877347946,1.095833659172058,-0.0001949697470990941,-0.019842617213726044
219.0,780.0,-4.9484,2.7876,8.0871,-0.0386,0.0258,-0.1142,-2.241477151910299,0.0,4.515995502471924,-1.455227017402649,-0.0,1.8691890239715576,-0.7118064326098938,-1.5159832672724296e-29,0.2406204491853714,-1.9734624067889612,0.0,0.04761241748929024,0.45239177346229553,-6.8244391423334335e-25,-0.0012739980593323708,1.095861792564392,-0.00017349279369227588,-0.039802033454179764
219.0,780.0,-4.9484,2.7876,8.0871,-0.0386,0.0258,-0.1142,-2.241545339623922,0.0,4.547241687774658,-1.4552477598190308,-0.0,1.8467628955841064,-0.7117746633342286,-1.7989651037600016e-35,0.24114277958869934,-1.9734700361834925,0.0,0.029648862779140472,0.4524155259132385,-8.098323827165179e-31,-0.006877990439534187,1.0958455801010132,-0.00015249518037308007,0.00318814255297184
219.0,780.0,-4.9484,2.7876,8.0871,-0.0386,0.0258,-0.1142,-2.241505285302633,0.0,4.53868293762207,-1.4552950859069824,-0.0,1.8286168575286865,-0.7118184727481385,-3.2695235899473064e-40,0.24187210202217102,-1.9734461943255823,0.0,0.029702918604016304,0.4523634612560272,-1.4718302777685955e-35,0.014766134321689606,1.0957738161087036,-0.0001390335091855377,-0.009195313788950443
219.0,780.0,-4.9484,2.7876,8.0871,-0.0386,0.0258,-0.1142,-2.241464754144186,0.0,4.57039213180542,-1.455259084701538,-0.0,1.8764852285385132,-0.7117984455874939,-0.00013537346967495978,0.24188095331192017,-1.9734423796283167,0.0,0.032470703125,0.4524155557155609,-2.674980677503573e-40,0.008496548049151897,1.0958458185195923,-0.0001397633459419012,0.03932664170861244
219.0,780.0,-4.9484,2.7876,8.0871,-0.0386,0.0258,-0.1142,-2.2415009937682093,0.0,4.565215110778809,-1.4553031921386719,-0.0,1.8595709800720215,-0.7117903989604493,-0.00012160574260633439,0.239609956741333,-1.9734261671649378,0.0,0.03209536522626877,0.45236751437187195,-4.203895392974451e-45,0.006266737822443247,1.095793604850769,-0.00013505213428288698,-0.027273129671812057
219.0,780.0,-4.9484,2.7876,8.0871,-0.0386,0.0258,-0.1142,-2.2414523563780726,0.0,4.530186653137207,-1.4552152156829834,1.4373791870289643e-12,1.87729012966156,-0.7117544573596497,-0.0001285494799958542,0.24312275648117065,-1.9734142462359827,0.0,0.032507650554180145,0.4523753523826599,-0.0,0.008827747777104378,1.0957976579666138,-0.00012347228766884655,0.04643348231911659
219.0,780.0,-4.9484,2.7876,8.0871,-0.0386,0.0258,-0.1142,-2.2414566479124964,0.0,4.577988147735596,-1.455207347869873,0.0008066906011663377,1.8731229305267334,-0.7117983859828492,-0.0001173778873635456,0.231094628572464,-1.9734342733966272,0.0,0.02537589892745018,0.45240360498428345,-0.0,0.010066786780953407,1.0958055257797241,-0.00010121497325599194,0.01781396195292473
219.0,780.0,-4.9484,2.7876,8.0871,-0.0386,0.0258,-0.1142,-2.241476675073141,0.0,4.523420810699463,-1.4551913738250732,0.0010558830108493567,1.9211950302124023,-0.711794452076294,-0.00010798838047776371,0.24410362541675568,-1.9734342733966272,0.0,0.026593022048473358,0.45238760113716125,-0.0,0.004106137435883284,1.095821738243103,-0.00012721771781798452,0.002553260885179043
219.0,780.0,-4.9484,2.7876,8.0871,-0.0386,0.0258,-0.1142,-2.241432329217428,0.0,4.480031967163086,-1.4552154541015625,0.0018015847308561206,1.8729221820831299,-0.7117868822864075,-9.998976020142436e-05,0.2478095293045044,-1.9734180609332483,0.0,0.031865816563367844,0.452379435300827,-0.0,-0.00035617093089967966,1.0958653688430786,-0.000605479464866221,-0.0042037866078317165
226.0,774.0,-5.0195,2.8564,8.0901,-0.0447,0.0284,-0.1225,-2.2414971790709437,0.0,4.542971611022949,-1.4551752805709839,0.005260033067315817,1.9162111282348633,-0.7118184131434937,-9.151680569630116e-05,0.2581496238708496,-1.973438564931051,0.0,0.00885050743818283,0.45237159729003906,-0.0,0.008263690397143364,1.0957896709442139,-0.0006919422303326428,0.01853952184319496
226.0,774.0,-5.0195,2.8564,8.0901,-0.0447,0.0284,-0.1225,-2.2414971790709437,0.0,4.559964179992676,-1.4551193714141846,0.006411464884877205,1.9052300453186035,-0.7118104261210938,-9.812384814722463e-05,0.2391832023859024,-1.9734261671649378,0.0,0.03685038164258003,0.45234712958335876,-0.0,0.011484308168292046,1.0957775115966797,-0.0007681857096031308,0.037165164947509766
226.0,774.0,-5.0195,2.8564,8.0901,-0.0447,0.0284,-0.1225,-2.241436620751852,0.0,4.562651634216309,-1.4550312757492065,0.003255261108279228,1.8994933366775513,-0.7118305724910279,-9.40220124903135e-05,0.23302069306373596,-1.9734824339496058,0.0,0.03986087441444397,0.45238757133483887,-0.0,0.006111635360866785,1.0957695245742798,-0.0007281677681021392,0.008211765438318253
226.0,774.0,-5.0195,2.8564,8.0901,-0.0447,0.0284,-0.1225,-2.2414523563780726,0.0,4.558868408203125,-1.45506751537323,0.001305317273363471,1.8684581518173218,-0.7117788356593628,-9.813863289309666e-05,0.23854811489582062,-1.973426644002096,0.0,0.028653182089328766,0.4523311257362366,-0.0,-0.01308949664235115,1.0957814455032349,-0.0006968806846998632,0.012572025880217552
226.0,774.0,-5.0195,2.8564,8.0901,-0.0447,0.0284,-0.1225,-2.2414165935912074,0.0,4.538447856903076,-1.45506751537323,0.0007350287050940096,1.868083119392395,-0.7118345063975831,-9.472989768255502e-05,0.2567370533943176,-1.973410431538717,0.0,0.0177305918186903,0.4523753523826599,-0.0,-0.003296241629868746,1.0957417488098145,-0.0007760383887216449,0.012863490730524063
226.0,774.0,-5.0195,2.8564,8.0901,-0.0447,0.0284,-0.1225,-2.2414890728392542,0.0,4.557863712310791,-1.4550271034240723,0.0005274563445709646,1.9039390087127686,-0.7118064326098938,-9.234432218363509e-05,0.24653729796409607,-1.9734023253070276,0.0,0.01957288384437561,0.4523593783378601,-0.0,0.002375615295022726,1.095773458480835,-0.0005947889294475317,-0.026917124167084694
226.0,774.0,-5.0195,2.8564,8.0901,-0.0447,0.0284,-0.1225,-2.241452833215231,2.2518267805970993e-10,4.562066555023193,-1.455107569694519,0.0009573822608217597,1.8649201393127441,-0.7117862862399598,-0.0001024142766254954,0.2528904974460602,-1.9734423796283167,0.0,0.02811923623085022,0.4523429870605469,-0.0,0.007813936099410057,1.0957655906677246,-0.00044711006921716034,0.015143251977860928
226.0,774.0,-5.0195,2.8564,8.0901,-0.0447,0.0284,-0.1225,-2.2414971790709437,7.295632913863585e-18,4.560271263122559,-1.4550395011901855,0.0010675929952412844,1.8454585075378418,-0.7118264001658936,-0.00011106569581897929,0.2585527300834656,-1.9734466711627405,0.0,0.02065339870750904,0.45240360498428345,-0.0,0.0009619423653930426,1.0957216024398804,-0.0003172574797645211,-0.002293437486514449
226.0,774.0,-5.0195,2.8564,8.0901,-0.0447,0.0284,-0.1225,-2.2414285145201625,3.1711946463412238e-27,4.521243572235107,-1.4550198316574097,0.0008666553767398,1.916078805923462,-0.7118144792369385,-0.00011665195052046329,0.2590482831001282,-1.9734142462359827,2.8442925792404594e-10,0.030965669080615044,0.452363520860672,-0.0,0.00500340573489666,1.0957096815109253,-0.0002669626846909523,0.010631194338202477
226.0,774.0,-5.0195,2.8564,8.0901,-0.0447,0.0284,-0.1225,-2.24143709758901,1.0274268324230563e-34,4.564667224884033,-1.454995036125183,0.0006153991562314332,1.8703994750976562,-0.7118104857257386,-0.00023840530775487423,0.24490205943584442,-1.9734061400042933,5.169361608963006e-15,0.027839217334985733,0.4523954391479492,-0.0,0.009604914113879204,1.0957136154174805,-0.00029814543086104095,0.018912700936198235
226.0,774.0,-4.9256,2.8887,8.1966,-0.0429,0.0284,-0.1171,-2.2414566479124964,3.3280838527714405e-42,4.59012508392334,-1.4549671411514282,0.0005000013043172657,1.8854498863220215,-0.7118383210948487,-0.00023618900740984827,0.2588356137275696,-1.9733942190753382,9.395061174945029e-20,0.012219968251883984,0.45237118005752563,-0.0,-7.90129997767508e-05,1.0957098007202148,-0.00047500195796601474,0.020926374942064285
222.0,736.0,-4.9256,2.8887,8.1966,-0.0429,0.0284,-0.1171,-2.2414733372130335,0.0,4.547050952911377,-1.4549589157104492,0.00043301685946062207,1.8665930032730103,-0.7118224066546937,-0.00023449862783309072,0.2612505257129669,-1.9734347502337855,1.7075059954298897e-24,0.016542306169867516,0.45236343145370483,-0.0,0.0054386877454817295,1.0956939458847046,-0.000417285889852792,0.0160698052495718
222.0,736.0,-4.9256,2.8887,8.1966,-0.0429,0.0284,-0.1171,-2.2414285145201625,0.0,4.562745571136475,-1.454991340637207,0.0010242261923849583,1.850740671157837,-0.711886541252472,-0.00019771418010350317,0.25205525755882263,-1.973426644002096,2.0262379806479878e-30,0.020703546702861786,0.4523511528968811,-0.0,-0.007248421665281057,1.0957176685333252,-0.0004147685249336064,-0.048310287296772
222.0,736.0,-4.9256,2.8887,8.1966,-0.0429,0.0284,-0.1171,-2.241481443444723,0.0,4.586853981018066,-1.4549587965011597,0.0018872164655476809,1.8587781190872192,-0.711850182419159,-0.00020053319167345762,0.2552909255027771,-1.9733784834491175,3.68258732472362e-35,0.026409903541207314,0.45239582657814026,-0.0,0.004832222126424313,1.095701813697815,-0.0004237811954226345,-0.03348259627819061
222.0,736.0,-4.9256,2.8887,8.1966,-0.0429,0.0284,-0.1171,-2.241449018517965,0.0,4.545511722564697,-1.4549710750579834,0.002337381476536393,1.8849048614501953,-0.7118542951396485,-0.00018061063019558787,0.2547367215156555,-1.9734423796283167,6.692923764262121e-40,0.012311216443777084,0.45239949226379395,-0.0,-0.005259003955870867,1.0956820249557495,-0.0004806725773960352,0.03947867080569267
222.0,736.0,-4.9256,2.8887,8.1966,-0.0429,0.0284,-0.1171,-2.241449018517965,0.0,4.58049201965332,-1.4550120830535889,0.002771528670564294,1.8892111778259277,-0.7118342083743592,-0.00016382927424274385,0.2630009651184082,-1.9733908812152308,1.2611686178923354e-44,0.013874119147658348,0.45237982273101807,-0.0,-0.0012995334109291434,1.0957335233688354,-0.0007815544959157705,0.0013673901557922363
222.0,736.0,-4.9256,2.8887,8.1966,-0.0429,0.0284,-0.1171,-2.2414328060545863,9.890062938211486e-05,4.554994106292725,-1.4548667669296265,0.003396329004317522,1.9342279434204102,-0.7118746203235169,-0.00016631578910164535,0.25751248002052307,-1.9733546415912073,0.0,0.024207059293985367,0.45231518149375916,-0.0,-0.0052399164997041225,1.095701813697815,-0.0010981472441926599,-0.04852839186787605
222.0,736.0,-4.9256,2.8887,8.1966,-0.0429,0.0284,-0.1171,-2.241452833215231,0.00012654434249270707,4.574923038482666,-1.4548792839050293,0.004088957328349352,1.8944334983825684,-0.7118582886508484,-0.0001726406189845875,0.25107690691947937,-1.973382298146383,0.0,0.01437913253903389,0.4523552656173706,-0.0,0.009713073261082172,1.095710277557373,-0.0013966804835945368,-0.06256943941116333
222.0,736.0,-4.9256,2.8887,8.1966,-0.0429,0.0284,-0.1171,-2.2414571247496546,0.0001326121564488858,4.592967510223389,-1.4548596143722534,0.004492613952606916,1.919264793395996,-0.7118743819049378,-0.00015567564696539193,0.25121626257896423,-1.973382298146383,0.0,0.030411425977945328,0.45237165689468384,-0.0,-0.0007445490919053555,1.0957096815109253,-0.001472987118177116,-0.051849815994501114
222.0,736.0,-4.9256,2.8887,8.1966,-0.0429,0.0284,-0.1171,-2.241425176660055,0.00029113845084793866,4.582427024841309,-1.454811453819275,0.004392068367451429,1.8914765119552612,-0.7118302148631592,-0.00016191037138924003,0.25387248396873474,-1.973370377217428,0.0,0.016716156154870987,0.45238393545150757,-0.0,-0.010692287236452103,1.0956459045410156,-0.0016696304082870483,-0.10244372487068176
222.0,736.0,-4.9256,2.8887,8.1966,-0.0429,0.0284,-0.1171,-2.2414289913573207,0.0002777608169708401,4.549925804138184,-1.4547836780548096,0.004691258538514376,1.9016718864440918,-0.7118945282748719,-0.00018287081911694258,0.24998122453689575,-1.9733665625201624,0.0,0.02415609359741211,0.45239585638046265,-0.0,-0.0032646290492266417,1.0956501960754395,-0.002640239894390106,-0.06260398775339127
222.0,736.0,-4.9669,2.8648,8.2044,-0.0359,0.0322,-0.1245,-2.241408964196676,0.00025775781250558794,4.589892387390137,-1.4546635150909424,0.004600669723004103,1.9773247241973877,-0.7118821305087586,-0.0001824045757530257,0.26001301407814026,-1.9733665625201624,0.0,0.022121163085103035,0.45239177346229553,-0.0,-0.0027162989135831594,1.095589518547058,-0.003968971315771341,-0.07867859303951263
217.0,761.0,-4.9669,2.8648,8.2044,-0.0359,0.0322,-0.1245,-2.2414452038206996,0.0003098853339906782,4.617384910583496,-1.4546594619750977,0.0045533315278589725,1.9019246101379395,-0.7118662160686036,-0.00016070507990662009,0.26492878794670105,-1.973358456288473,0.0,0.02750510349869728,0.4523392617702484,-0.0,0.013962981291115284,1.0955818891525269,-0.00581285310909152,-0.1800912618637085
217.0,761.0,-4.9669,2.8648,8.2044,-0.0359,0.0322,-0.1245,-2.2414046726622523,0.0003404292219784111,4.61174201965332,-1.4545713663101196,0.005208528134971857,1.9465789794921875,-0.7117942732623597,-0.0001436083548469469,0.2664138078689575,-1.9733746687518519,6.72229944029823e-05,0.03151204437017441,0.45235568284988403,-0.0,-0.0018081746529787779,1.0955016613006592,-0.006445846986025572,-0.14601880311965942
217.0,761.0,-4.9669,2.8648,8.2044,-0.0359,0.0322,-0.1245,-2.241368433038229,0.000499041227158159,4.609553337097168,-1.454587697982788,0.005260871257632971,1.982177972793579,-0.7118623417666932,-0.00012979996972717345,0.2506457269191742,-1.9733789602862757,6.343586574075744e-05,0.03335421532392502,0.4523552656173706,-0.0,-0.004284944850951433,1.0954618453979492,-0.007736320607364178,-0.1214103102684021
217.0,761.0,-4.9669,2.8648,8.2044,-0.0359,0.0322,-0.1245,-2.241401334802145,0.0005223685875535011,4.622185707092285,-1.4545111656188965,0.005201441701501608,1.9384410381317139,-0.7119065088084717,-0.000135185313411057,0.25530874729156494,-1.973358456288473,5.925902587478049e-05,0.024717777967453003,0.4523511826992035,-0.0,0.005983191076666117,1.0953654050827026,-0.009350097738206387,-0.1315740942955017
217.0,761.0,-4.9669,2.8648,8.2044,-0.0359,0.0322,-0.1245,-2.2413441143431605,0.0007083920063450933,4.634224891662598,-1.454459309577942,0.005578398704528809,1.9746503829956055,-0.7119225424579163,-0.0001424246293026954,0.2634847164154053,-1.9733465353595179,6.755171489203349e-05,0.03750365227460861,0.4523310661315918,-0.0,0.0031592510640621185,1.0953056812286377,-0.009853682480752468,-0.11749724298715591
217.0,761.0,-4.9669,2.8648,8.2044,-0.0359,0.0322,-0.1245,-2.241368433038229,0.0007740546716377139,4.674587726593018,-1.4543911218643188,0.006651078350841999,1.9458030462265015,-0.711858407860138,-0.00017959259275812656,0.2636359632015228,-1.9733627478228968,6.961944745853543e-05,0.04317684844136238,0.45236754417419434,-0.0,0.0017201609443873167,1.0952296257019043,-0.011446040123701096,-0.14097362756729126
217.0,761.0,-4.9669,2.8648,8.2044,-0.0359,0.0322,-0.1245,-2.2413445911803187,0.0008100749109871686,4.642504692077637,-1.4543393850326538,0.006257655564695597,2.0216989517211914,-0.7119184893420716,-0.0008749627158977091,0.2625739574432373,-1.9733627478228968,7.668780745007098e-05,0.03501485288143158,0.4523155391216278,-0.0,-0.0020493287593126297,1.095097303390503,-0.01353585347533226,-0.25392037630081177
217.0,761.0,-4.9669,2.8648,8.2044,-0.0359,0.0322,-0.1245,-2.241368909875387,0.0007703153532929718,4.688549041748047,-1.454351544380188,0.006213219836354256,1.966792106628418,-0.7120108765414734,-0.017421089112758636,0.2495691478252411,-1.973358456288473,8.671950268990258e-08,0.049639616161584854,0.45236748456954956,-0.0,0.004752723965793848,1.094969630241394,-0.016307352110743523,-0.18415173888206482
217.0,761.0,-4.9669,2.8648,8.2044,-0.0359,0.0322,-0.1245,-2.2413770161070765,0.0008753772708587348,4.651228427886963,-1.4542872905731201,0.007192256860435009,1.998692274093628,-0.7122062009624024,-0.030331391841173172,0.2424319088459015,-1.973370377217428,0.00013507709081750363,0.04521805793046951,0.4523511826992035,-0.0,0.004790276754647493,1.0948982238769531,-0.018916448578238487,-0.24627605080604553
217.0,761.0,-4.9669,2.8648,8.2044,-0.0359,0.0322,-0.1245,-2.241329332391256,0.0011368977138772607,4.680651664733887,-1.4542524814605713,0.007516483310610056,1.9936126470565796,-0.7124136847308655,-0.02158794365823269,0.2518698573112488,-1.9733627478228968,0.00012059939763275906,0.05035709589719772,0.4523274302482605,-0.0,-0.009884931147098541,1.0947619676589966,-0.020926911383867264,-0.30491843819618225
219.0,775.0,-4.7527,2.9456,8.08,-0.029,0.0318,-0.1339,-2.2413326702513636,0.0011449820594862103,4.728189468383789,-1.4541722536087036,0.008084489963948727,2.0163867473602295,-0.7125130456737061,-0.009972404688596725,0.26177743077278137,-1.9733870665179651,0.0001089221696020104,0.038708433508872986,0.45237165689468384,-0.0,-0.006278690882027149,1.094517469406128,-0.022350406274199486,-0.28287699818611145
219.0,775.0,-4.7527,2.9456,8.08,-0.029,0.0318,-0.1339,-2.2413488827147425,0.0006678886129520833,4.72502326965332,-1.4540928602218628,0.00841576512902975,1.999626636505127,-0.7125412386706849,0.0007642543059773743,0.26155638694763184,-1.9733551184283655,9.716267231851816e-05,0.05138970911502838,0.4523392915725708,-0.0,-0.004236453212797642,1.0942572355270386,-0.024216795340180397,-0.22780537605285645
219.0,775.0,-4.7527,2.9456,8.08,-0.029,0.0318,-0.1339,-2.241345068017477,0.0005212134565226734,4.6499528884887695,-1.4540520906448364,0.00811799056828022,1.9258286952972412,-0.7125289601138611,0.0007624534773640335,0.2607138752937317,-1.973414723073141,8.94379845703952e-05,0.038686979562044144,0.4523593783378601,-0.0,0.0031473711133003235,1.0941178798675537,-0.026148511096835136,-0.2566946744918823
219.0,775.0,-4.7527,2.9456,8.08,-0.029,0.0318,-0.1339,-2.241312643090719,0.00039251259295269847,4.684640407562256,-1.4538754224777222,0.008566601201891899,1.9773753881454468,-0.7125893396190186,0.00014266607468016446,0.2605658173561096,-1.973386589680807,8.285103103844449e-05,0.03656111657619476,0.4523998498916626,-0.0,0.005442779511213303,1.0938533544540405,-0.028303885832428932,-0.19601371884346008
219.0,775.0,-4.7527,2.9456,8.08,-0.029,0.0318,-0.1339,-2.241312643090719,0.00039508569170720875,4.681150436401367,-1.453859567642212,0.008693301118910313,1.9865550994873047,-0.712517039184906,8.523261203663424e-05,0.2641749382019043,-1.9733260313617151,7.716789696132764e-05,0.046887241303920746,0.452363520860672,-0.0,0.019254932180047035,1.0936779975891113,-0.029785454273223877,-0.2147848904132843
219.0,775.0,-4.7527,2.9456,8.08,-0.029,0.0318,-0.1339,-2.2412883243956507,0.0004765333142131567,4.66677713394165,-1.453766942024231,0.007888531312346458,2.0270071029663086,-0.7125811737826844,2.9707867724937387e-05,0.2613452672958374,-1.9733946959124964,7.107388955773786e-05,0.048078566789627075,0.45237982273101807,-0.0,0.0046983081847429276,1.0933778285980225,-0.03172804042696953,-0.2653142809867859
219.0,775.0,-4.7527,2.9456,8.08,-0.029,0.0318,-0.1339,-2.241312643090719,0.0005406525451689959,4.666876792907715,-1.453647494316101,0.00810215063393116,1.9488658905029297,-0.7125452917865296,5.399257152483017e-10,0.27174967527389526,-1.9733908812152308,6.685040716547519e-05,0.040793441236019135,0.4523552656173706,-0.0,0.005210718605667353,1.0930453538894653,-0.03417225554585457,-0.26999935507774353
219.0,775.0,-4.7527,2.9456,8.08,-0.029,0.0318,-0.1339,-2.241312643090719,0.0006730196764692664,4.6690449714660645,-1.4536919593811035,0.0074654314666986465,2.02781081199646,-0.7126055520823975,9.812881776138753e-15,0.26829466223716736,-1.9733465353595179,6.310084427241236e-05,0.03773985803127289,0.4523392617702484,-0.0,-0.001507334876805544,1.0928056240081787,-0.03441595658659935,-0.26745057106018066
219.0,775.0,-4.7527,2.9456,8.08,-0.029,0.0318,-0.1339,-2.241300722161764,0.0005594576941803098,4.6656975746154785,-1.4535918235778809,0.006651487201452255,1.9945855140686035,-0.7125771206668396,1.7834423719540432e-19,0.2796768546104431,-1.9733827749835413,5.974951636744663e-05,0.04252232611179352,0.452363520860672,-0.0,-0.011897112242877483,1.0925782918930054,-0.03533636033535004,-0.26763054728507996
219.0,775.0,-4.7527,2.9456,8.08,-0.029,0.0318,-0.1339,-2.241300722161764,0.0005517200916074216,4.650768280029297,-1.4534918069839478,0.005721814930438995,1.980358600616455,-0.7126053136638184,2.116348887474977e-25,0.28316938877105713,-1.9733746687518519,5.602978490060195e-05,0.05518239736557007,0.4523351788520813,-0.0,0.003132445039227605,1.092162013053894,-0.039129339158535004,-0.2519390881061554
219.0,775.0,-4.9717,2.9474,8.0124,-0.0151,0.0244,-0.1535,-2.24127258876943,0.0005234137643128633,4.625188827514648,-1.453467607498169,0.005252232775092125,1.975620985031128,-0.7125290793231507,3.846359327529008e-30,0.2788214087486267,-1.973330322896139,5.3371670219348744e-05,0.04722035303711891,0.452419638633728,-0.0,-0.006409602705389261,1.091858148574829,-0.0424303337931633,-0.20653098821640015
218.0,752.0,-4.9717,2.9474,8.0124,-0.0151,0.0244,-0.1535,-2.241276880303854,0.00044047017581760883,4.696828365325928,-1.4534398317337036,0.004543803632259369,1.9334771633148193,-0.712597207432129,6.990567903097327e-35,0.2798522710800171,-1.9733827749835413,4.110464942641556e-05,0.03729165717959404,0.45237118005752563,-0.0,-0.011426574550569057,1.0915138721466064,-0.044388651847839355,-0.20390471816062927
218.0,752.0,-4.9717,2.9474,8.0124,-0.0151,0.0244,-0.1535,-2.241301198998922,0.00039288660627789795,4.613296031951904,-1.4534356594085693,0.004095777403563261,1.9991258382797241,-0.7125331324389954,1.2705012656647386e-39,0.2618895173072815,-1.9733627478228968,3.3524125342410116e-07,0.053744133561849594,0.45237159729003906,-0.0,0.00044610491022467613,1.0911335945129395,-0.04514971375465393,-0.24523551762104034
218.0,752.0,-4.9717,2.9474,8.0124,-0.0151,0.0244,-0.1535,-2.241276880303854,0.0003090943209826946,4.658353805541992,-1.4533519744873047,0.003359578549861908,1.9453456401824951,-0.7125649613193055,1.401298464324817e-45,0.27572643756866455,-1.9733746687518519,3.9781922873093067e-13,0.047286055982112885,0.4523155689239502,-0.0,0.004536510445177555,1.0906982421875,-0.04120074585080147,-0.2110278606414795
218.0,752.0,-4.9717,2.9474,8.0124,-0.0151,0.0244,-0.1535,-2.24129643062734,0.0002637938305269927,4.62314510345459,-1.4533801078796387,0.002542367670685053,1.9868934154510498,-0.7125893396190186,0.0,0.2861989736557007,-1.973382298146383,1.256360519619193e-05,0.016661863774061203,0.45237573981285095,-0.0,-0.0037810984067618847,1.0903781652450562,-0.03653259575366974,-0.17927557229995728
218.0,752.0,-4.9717,2.9474,8.0124,-0.0151,0.0244,-0.1535,-2.2413088283934535,0.00020145211601629853,4.6216888427734375,-1.453328013420105,0.0012415011879056692,1.966238021850586,-0.7125731271556397,0.0,0.272702693939209,-1.9733908812152308,1.189673912449507e-05,0.04040740802884102,0.4523635506629944,-0.0,0.01106008980423212,1.0900822877883911,-0.03253684565424919,-0.19771185517311096
218.0,752.0,-4.9717,2.9474,8.0124,-0.0151,0.0244,-0.1535,-2.2412764034666957,0.00017849905998446047,4.658487796783447,-1.4533801078796387,0.0007540989900007844,1.966658115386963,-0.7126251024058838,-0.0001342890755040571,0.26409801840782166,-1.9733384291278284,1.1299292054900434e-05,0.03421958163380623,0.4523594379425049,-0.0,0.004757176619023085,1.089814305305481,-0.029329650104045868,-0.1788797527551651
218.0,752.0,-4.9717,2.9474,8.0124,-0.0151,0.0244,-0.1535,-2.2412969074644984,0.0001603286509634927,4.660735607147217,-1.4533402919769287,0.0005823263782076538,1.9849519729614258,-0.7126251024058838,-0.00018165874644182622,0.2677809000015259,-1.973358456288473,1.07589930848917e-05,0.04195599630475044,0.4523552656173706,-0.0,0.004967364948242903,1.0895699262619019,-0.026887575164437294,-0.20998135209083557
218.0,752.0,-4.9717,2.9474,8.0124,-0.0151,0.0244,-0.1535,-2.24127258876943,0.00016254911315627396,4.668276786804199,-1.453356385231018,0.0004520551592577249,1.9435476064682007,-0.7126491826823731,-0.0011835515033453703,0.2812996506690979,-1.9733827749835413,1.0152176400879398e-05,0.04890933260321617,0.45238351821899414,-0.0,0.014194795861840248,1.0893826484680176,-0.024162281304597855,-0.19630640745162964
218.0,752.0,-4.9717,2.9474,8.0124,-0.0151,0.0244,-0.1535,-2.2412449322142542,0.00014908603043295443,4.649456977844238,-1.4533238410949707,0.0017722712364047766,1.9693233966827393,-0.7126488846591492,-0.0024314040783792734,0.29215139150619507,-1.9733508268939417,2.145393374064497e-08,0.040318895131349564,0.4523552656173706,-0.0,-0.01043972559273243,1.0891461372375488,-0.023058123886585236,-0.2333221733570099
218.0,752.0,-4.9717,2.9474,8.0124,-0.0151,0.0244,-0.1535,-2.241288801232809,0.0001376824948238209,4.695001602172852,-1.4533443450927734,0.0017682077595964074,1.994697093963623,-0.7127168935588379,-0.00446522980928421,0.2803046703338623,-1.9733508268939417,3.899146630570449e-13,0.0343284085392952,0.4524401128292084,-0.0,0.002830031793564558,1.0890026092529297,-0.02122407779097557,-0.21152415871620178
218.0,752.0,-5.0052,2.4395,8.1781,-0.0325,0.017,-0.1336,-2.2413131199278773,0.0001278994168387726,4.664389133453369,-1.4532599449157715,0.0014398011844605207,2.001347780227661,-0.7127608817866822,-0.0064382306300103664,0.2781410813331604,-1.9733341375934046,7.086505938578541e-18,0.05033954232931137,0.45238760113716125,-0.0,0.02292189560830593,1.0888667106628418,-0.019455628469586372,-0.2282910794019699
220.0,743.0,-5.0052,2.4395,8.1781,-0.0325,0.017,-0.1336,-2.241276880303854,0.00010298327833879739,4.693700790405273,-1.4532839059829712,0.0007132659666240215,1.993270754814148,-0.7128895682147522,-0.008642511442303658,0.2791772186756134,-1.9733465353595179,8.409310103336636e-24,0.043955206871032715,0.45238760113716125,-0.0,0.00937102735042572,1.088658094406128,-0.015197251923382282,-0.23925825953483582
220.0,743.0,-5.0052,2.4395,8.1781,-0.0325,0.017,-0.1336,-2.2412926159300746,9.648648847360164e-05,4.6899237632751465,-1.4532878398895264,0.00046659508370794356,1.9906924962997437,-0.7129648488811036,-0.007858539931476116,0.2791883945465088,-1.9733341375934046,1.5283505963176568e-28,0.04966123402118683,0.45236751437187195,-0.0,-0.0005221005412749946,1.088594675064087,-0.011464325711131096,-0.21020355820655823
220.0,743.0,-5.0052,2.4395,8.1781,-0.0325,0.017,-0.1336,-2.2413083515562953,9.091692481888458e-05,4.660937786102295,-1.4533082246780396,0.0004036853788420558,2.008570432662964,-0.7129642528346558,-0.004306109622120857,0.2757159471511841,-1.9734109083758753,2.777701599858712e-33,0.0558629035949707,0.4524278938770294,-0.0,-0.0008881841786205769,1.0885183811187744,-0.008353885263204575,-0.2091984748840332
220.0,743.0,-5.0052,2.4395,8.1781,-0.0325,0.017,-0.1336,-2.241284509698385,8.595523104304448e-05,4.6722636222839355,-1.4532921314239502,0.0003677919739857316,1.989452600479126,-0.7130044263652344,-0.0018560782773420215,0.27461889386177063,-1.9733908812152308,5.048335223677544e-38,0.06061740964651108,0.4524114429950714,-0.0,0.018024848774075508,1.0884183645248413,-0.003849920118227601,-0.18182267248630524
220.0,743.0,-5.0052,2.4395,8.1781,-0.0325,0.017,-0.1336,-2.2412568531432093,8.046605216804892e-05,4.708121299743652,-1.4532802104949951,0.001319668721407652,2.0091917514801025,-0.7130122941783448,-0.0009711870807223022,0.2864532172679901,-1.9733989874469202,6.025583396596713e-44,0.050702594220638275,0.45238354802131653,-0.0,-0.0009831261122599244,1.0884629487991333,-0.00123017025180161,-0.2621620297431946
220.0,743.0,-5.0052,2.4395,8.1781,-0.0325,0.017,-0.1336,-2.241300722161764,8.3757950051222e-05,4.7096638679504395,-1.4532439708709717,0.004581461660563946,2.0600969791412354,-0.7130445402911683,-0.0010498238261789083,0.28267011046409607,-1.9733946959124964,0.0,0.05298037827014923,0.4524115025997162,-0.0,0.00975903868675232,1.088486671447754,-0.0002348286216147244,-0.2553706467151642
220.0,743.0,-5.0052,2.4395,8.1781,-0.0325,0.017,-0.1336,-2.24129643062734,8.343593799509108e-05,4.700679779052734,-1.4531962871551514,0.008203229866921902,2.0236504077911377,-0.7130682629397889,-0.001021179254166782,0.26358526945114136,-1.973370377217428,0.0,0.059197865426540375,0.45237159729003906,-0.0,0.00408294890075922,1.088470697402954,-7.71213963162154e-05,-0.22061476111412048
220.0,743.0,-5.0052,2.4395,8.1781,-0.0325,0.017,-0.1336,-2.241305013696188,5.42349080205895e-05,4.702143669128418,-1.4531041383743286,0.012084372341632843,2.035919666290283,-0.7130768460086365,-0.0010221373522654176,0.2715514600276947,-1.9733508268939417,0.0,0.04102568328380585,0.4523913562297821,-0.0,0.005598456598818302,1.0884582996368408,-4.107719941970345e-09,-0.22607110440731049
220.0,743.0,-5.0052,2.4395,8.1781,-0.0325,0.017,-0.1336,-2.241264959374899,6.136821320978925e-05,4.678323745727539,-1.4529446363449097,0.018673669546842575,2.0241856575012207,-0.7130720776370545,-0.001693184138275683,0.27691352367401123,-1.9733546415912073,0.0,0.04610148072242737,0.4523913562297821,-0.0,-0.003428371623158455,1.0884506702423096,-1.7855038869862843e-18,-0.20726889371871948
220.0,743.0,-5.0052,2.4395,8.1781,-0.0325,0.017,-0.1336,-2.241300722161764,2.717083305014967e-07,4.690773010253906,-1.4528087377548218,0.023014366626739502,2.053783416748047,-0.7131121915629883,-0.0026408310513943434,0.2662859261035919,-1.9733222166644495,0.0,0.04345778748393059,0.4524359107017517,-0.0,-0.003306687343865633,1.088458776473999,-5.784805148539935e-26,-0.25603413581848145
220.0,743.0,-5.0979,2.8887,8.2696,-0.0425,0.04,-0.1294,-2.241305013696188,8.803004203675972e-15,4.6901679039001465,-1.4525479078292847,0.028900090605020523,2.094393491744995,-0.7131405037692566,-0.0032151455525308847,0.25667324662208557,-1.9733708540545862,0.0,0.054226621985435486,0.45238763093948364,-0.0,0.014735141769051552,1.0884146690368652,-1.874203417505255e-33,-0.26176753640174866
220.0,712.0,-5.0979,2.8887,8.2696,-0.0425,0.04,-0.1294,-2.2412525616087855,2.8520618531234676e-22,4.695339679718018,-1.4523003101348877,0.036643579602241516,2.065417528152466,-0.713156597023346,-0.003206126391887665,0.2784706950187683,-1.9733551184283655,0.0,0.05751464143395424,0.45240774750709534,-0.0,0.0035449962597340345,1.088467001914978,-0.0009604982915334404,-0.24769443273544312
220.0,712.0,-5.0979,2.8887,8.2696,-0.0425,0.04,-0.1294,-2.241316934625143,1.2397066701314356e-31,4.705835342407227,-1.4518558979034424,0.0502198152244091,2.077664852142334,-0.7131400269320984,-0.001952903694473207,0.27280089259147644,-1.9733260313617151,0.0,0.048198871314525604,0.4523593783378601,-0.0,0.01965584233403206,1.0884747505187988,-0.001882517128251493,-0.34692850708961487
220.0,712.0,-5.0979,2.8887,8.2696,-0.0425,0.04,-0.1294,-2.2412687740721644,4.016492742847972e-39,4.762467861175537,-1.4514119625091553,0.06310377269983292,2.099040985107422,-0.7131920617869874,-0.0010488663101568818,0.27596336603164673,-1.9733102957354944,3.203437245247187e-06,0.07597416639328003,0.45236751437187195,-0.0,0.007318701595067978,1.0884146690368652,-0.0019124846439808607,-0.275682270526886
220.0,712.0,-5.0979,2.8887,8.2696,-0.0425,0.04,-0.1294,-2.241305013696188,0.0,4.712130546569824,-1.450823426246643,0.07582085579633713,2.1544928550720215,-0.7131764453700562,-0.0006295621278695762,0.2709925174713135,-1.9733184019671839,5.822089338414216e-11,0.05988432094454765,0.4523913562297821,-0.0,-3.393320366740227e-05,1.0883585214614868,-0.002526801312342286,-0.32017141580581665
220.0,712.0,-5.0979,2.8887,8.2696,-0.0425,0.04,-0.1294,-2.24124874691152,0.0,4.715539932250977,-1.4501917362213135,0.08983074873685837,2.1331958770751953,-0.7131763857654114,-0.0005138748092576861,0.2754431664943695,-1.97331411043276,1.0581360040831742e-15,0.06637459993362427,0.4523954391479492,-0.0,-0.007640491239726543,1.088330626487732,-0.004640413913875818,-0.35152170062065125
220.0,712.0,-5.0979,2.8887,8.2696,-0.0425,0.04,-0.1294,-2.2412969074644984,0.0,4.735461711883545,-1.449181079864502,0.10700184106826782,2.1785123348236084,-0.7132163208774109,-0.0003786753222811967,0.28102314472198486,-1.9733145872699183,1.2556538084811563e-21,0.06422121822834015,0.45240360498428345,-0.0,0.007611015811562538,1.0882787704467773,-0.007157701533287764,-0.38353288173675537
220.0,712.0,-5.0979,2.8887,8.2696,-0.0425,0.04,-0.1294,-2.241329332391256,0.0,4.774306297302246,-1.448265790939331,0.11510240286588669,2.17043399810791,-0.7131642264178772,-0.0003128421085420996,0.2788165807723999,-1.9733589331256312,0.00023260059242602438,0.060176823288202286,0.4523753821849823,-0.0,0.007666280493140221,1.088307499885559,-0.008761326782405376,-0.36814841628074646
220.0,712.0,-5.0979,2.8887,8.2696,-0.0425,0.04,-0.1294,-2.241260667840475,0.0,4.79566764831543,-1.4472894668579102,0.11953089386224747,2.2330739498138428,-0.7131642264178772,-0.00026651317602954805,0.27383357286453247,-1.9733427206622522,0.00023129301553126425,0.06730218231678009,0.45239177346229553,-0.0,0.008346009068191051,1.088162899017334,-0.0099516361951828,-0.38263580203056335
220.0,712.0,-5.0979,2.8887,8.2696,-0.0425,0.04,-0.1294,-2.2413088283934535,0.001158324652351439,4.768306732177734,-1.4462255239486694,0.13588237762451172,2.2254486083984375,-0.7131241124919434,-0.00015726596757303923,0.2734820246696472,-1.9732702414142054,0.00019745778990909457,0.08160507678985596,0.452419638633728,-0.0,0.007080834824591875,1.0880907773971558,-0.010596975684165955,-0.4130827486515045
220.0,712.0,-5.406,2.7667,8.263,-0.0666,0.1481,-0.188,-2.241276880303854,0.0010281463619321585,4.752997398376465,-1.4451539516448975,0.1553328037261963,2.2492027282714844,-0.7132001680186768,-0.00017887238936964422,0.2706490159034729,-1.9733026663409632,0.00015890369832050055,0.08126451075077057,0.4523512125015259,-0.0,-0.004261788912117481,1.0879944562911987,-0.010646187700331211,-0.41399338841438293
199.0,418.0,-5.406,2.7667,8.263,-0.0666,0.1481,-0.188,-2.2413250408568324,0.00028950185514986515,4.741209506988525,-1.4434608221054077,0.1764068454504013,2.24200177192688,-0.7132244867137452,-0.0018374721985310316,0.26193302869796753,-1.973318878804342,0.00013144886179361492,0.08438383787870407,0.4523671269416809,-0.0,0.012495994567871094,1.0879226922988892,-0.010387558490037918,-0.36179935932159424
199.0,418.0,-5.406,2.7667,8.263,-0.0666,0.1481,-0.188,-2.241312643090719,-0.0002660817699506879,4.760610580444336,-1.4420254230499268,0.1802176982164383,2.2666053771972656,-0.713224009876587,-0.0039326162077486515,0.2754584550857544,-1.9733384291278284,0.00011001862731063738,0.09116344153881073,0.452379435300827,-0.0,-0.005282120779156685,1.0878267288208008,-0.011071383021771908,-0.3826603293418884
199.0,418.0,-5.406,2.7667,8.263,-0.0666,0.1481,-0.188,-2.2412806950011195,-0.00019151483138557523,4.753133773803711,-1.4405524730682373,0.1904214322566986,2.344961404800415,-0.7132716339877625,-0.003956147003918886,0.2608654201030731,-1.9733184019671839,9.459767170483246e-05,0.06851860880851746,0.452379435300827,-0.0,0.004972301423549652,1.0876944065093994,-0.011137482710182667,-0.407090961933136
199.0,418.0,-5.406,2.7667,8.263,-0.0666,0.1481,-0.188,-2.2412811718382777,-9.946403588401154e-05,4.742507457733154,-1.4389424324035645,0.20303696393966675,2.354161024093628,-0.7133520406535645,-0.0022265517618507147,0.264523983001709,-1.9732864538775843,8.296853775391355e-05,0.0822247713804245,0.4523634910583496,-0.0,0.005861111916601658,1.0876344442367554,-0.01161631103605032,-0.38906168937683105
199.0,418.0,-5.406,2.7667,8.263,-0.0666,0.1481,-0.188,-2.2412525616087855,-7.792437099851668e-05,4.783994674682617,-1.4368380308151245,0.21172794699668884,2.3382487297058105,-0.7132681173137208,-0.00042840244714170694,0.24992549419403076,-1.9733465353595179,9.589034016244113e-05,0.07979797571897507,0.45241183042526245,-0.0,0.011806294322013855,1.0875828266143799,-0.009665379300713539,-0.4078550338745117
199.0,418.0,-5.406,2.7667,8.263,-0.0666,0.1481,-0.188,-2.241305013696188,-6.642164225922897e-05,4.754278182983398,-1.4350345134735107,0.22017523646354675,2.3637070655822754,-0.7133319538882752,-0.00027643266366794705,0.2722909450531006,-1.9733026663409632,8.665693167131394e-05,0.07364614307880402,0.45232704281806946,-0.0,0.0028173348400741816,1.0875234603881836,-0.008167686872184277,-0.3821386396884918
199.0,418.0,-5.406,2.7667,8.263,-0.0666,0.1481,-0.188,-2.241276880303854,-8.341061766259372e-05,4.800297737121582,-1.4332715272903442,0.23143935203552246,2.3967654705047607,-0.7133201521686097,-0.00024407626187894493,0.26308321952819824,-1.9733546415912073,7.904566155048087e-05,0.06851859390735626,0.45238354802131653,-0.0,-0.007181987166404724,1.0873780250549316,-0.008141350001096725,-0.41488075256347656
199.0,418.0,-5.406,2.7667,8.263,-0.0666,0.1481,-0.188,-2.2412883243956507,-0.00010252319771097973,4.746644020080566,-1.4314017295837402,0.23863594233989716,2.3764123916625977,-0.713347927933075,-0.00024089650833047926,0.27256521582603455,-1.9732664267169397,5.2680370572488755e-05,0.07873811572790146,0.45239582657814026,-0.0,0.009698120877146721,1.0873949527740479,-0.008221330121159554,-0.4325978755950928
199.0,418.0,-5.406,2.7667,8.263,-0.0666,0.1481,-0.188,-2.2413770161070765,-0.00019161522504873574,4.777867794036865,-1.4289219379425049,0.24533455073833466,2.3642325401306152,-0.7133758825114747,-0.0030055723618716,0.2590348422527313,-1.9732745329486292,6.892594683449715e-05,0.08764008432626724,0.45237985253334045,-0.0,-0.0024024543818086386,1.0873271226882935,-0.009104005061089993,-0.45252758264541626
199.0,418.0,-5.406,2.7667,8.263,-0.0666,0.1481,-0.188,-2.2413488827147425,-0.0004695823881775141,4.749659538269043,-1.4269391298294067,0.24765397608280182,2.371878147125244,-0.7134440702250977,-0.006813813000917435,0.24872401356697083,-1.9732983748065394,8.302613423438743e-05,0.08577203005552292,0.4523150622844696,-0.0,0.004590146243572235,1.0872588157653809,-0.010069018229842186,-0.3949800729751587
199.0,418.0,-5.2923,3.0724,8.1571,-0.0637,0.2382,-0.2118,-2.241316934625143,-0.0004000611079391092,4.8090338706970215,-1.4249426126480103,0.2536225914955139,2.405287504196167,-0.7135483187488099,-0.011365776881575584,0.24811920523643494,-1.973278824483053,7.631546759512275e-05,0.0869893729686737,0.45236751437187195,-0.0,-0.01244736835360527,1.087154746055603,-0.010336115956306458,-0.4898640513420105
187.0,275.0,-5.2923,3.0724,8.1571,-0.0637,0.2382,-0.2118,-2.241312643090719,-0.0002950933121610433,4.854583740234375,-1.4229196310043335,0.2593192160129547,2.4132635593414307,-0.7136278313449402,-0.014847952872514725,0.25247108936309814,-1.973290745412008,8.79172730492428e-05,0.09129750728607178,0.4523269832134247,-0.0,-0.004453359637409449,1.0871113538742065,-0.01136102620512247,-0.44170206785202026
187.0,275.0,-5.2923,3.0724,8.1571,-0.0637,0.2382,-0.2118,-2.2414337597289027,-0.00026666501071304083,4.851890563964844,-1.4203776121139526,0.2612925171852112,2.434969186782837,-0.7138239306262513,-0.020397601649165154,0.2615808844566345,-1.9732745329486292,8.010995225049555e-05,0.08924706280231476,0.45237576961517334,-0.0,0.0015893762465566397,1.08701491355896,-0.010433787479996681,-0.49833381175994873
187.0,275.0,-5.2923,3.0724,8.1571,-0.0637,0.2382,-0.2118,-2.241385122338766,-0.0002925124717876315,4.853580474853516,-1.418269395828247,0.26722437143325806,2.4624104499816895,-0.7140325468829651,-0.032450657337903976,0.23838463425636292,-1.973295036946432,0.0001504604733781889,0.10426750779151917,0.4523954391479492,-0.0,0.00109002273529768,1.0869390964508057,-0.01143193244934082,-0.5000765919685364
187.0,275.0,-5.2923,3.0724,8.1571,-0.0637,0.2382,-0.2118,-2.241401334802145,-0.0003408628108445555,4.854513168334961,-1.4161633253097534,0.2630705237388611,2.4142279624938965,-0.714359239940979,-0.061534684151411057,0.2262650728225708,-1.973278824483053,0.00013703475997317582,0.08799940347671509,0.45235946774482727,-0.0,-0.00776754692196846,1.086838960647583,-0.012766771949827671,-0.5577269792556763
187.0,275.0,-5.2923,3.0724,8.1571,-0.0637,0.2382,-0.2118,-2.2414332828917445,-0.0010369871743023396,4.794342041015625,-1.4140639305114746,0.26938968896865845,2.4339818954467773,-0.7150308054736634,-0.11975623667240143,0.19954004883766174,-1.973295036946432,0.00014647487842012197,0.10485582053661346,0.4524112939834595,-0.0,0.011551928706467152,1.086666464805603,-0.01475762389600277,-0.5271276235580444
187.0,275.0,-5.2923,3.0724,8.1571,-0.0637,0.2382,-0.2118,-2.241420885125631,-0.0006026975461281836,4.850698471069336,-1.4114166498184204,0.2701406478881836,2.4295029640197754,-0.7166287463954468,-0.17449358105659485,0.1805114448070526,-1.9732988516436976,0.00014984526205807924,0.09819530695676804,0.452379435300827,-0.0,0.008970428258180618,1.0866234302520752,-0.017764797434210777,-0.5418837070465088
187.0,275.0,-5.2923,3.0724,8.1571,-0.0637,0.2382,-0.2118,-2.2414447269835414,-0.00034451275132596493,4.831896781921387,-1.4092357158660889,0.2731415331363678,2.4844188690185547,-0.7181844276240845,-0.20336629450321198,0.16766944527626038,-1.973278824483053,0.00013743697491008788,0.10659219324588776,0.4524478316307068,-0.0,0.0066841719672083855,1.0864429473876953,-0.019289519637823105,-0.5475602149963379
187.0,275.0,-5.2923,3.0724,8.1571,-0.0637,0.2382,-0.2118,-2.2414046726622523,-0.000316465157084167,4.918388366699219,-1.4070854187011719,0.2749923765659332,2.512190341949463,-0.720091776256897,-0.2528914511203766,0.14479516446590424,-1.9732549826251429,0.00014445385022554547,0.10807530581951141,0.4523872137069702,-0.0,0.013335434719920158,1.0862951278686523,-0.020965542644262314,-0.5509454011917114
187.0,275.0,-5.2923,3.0724,8.1571,-0.0637,0.2382,-0.2118,-2.2414609394469203,-0.0007213377975858748,4.890324592590332,-1.404848575592041,0.26515546441078186,2.518885374069214,-0.7222827237895508,-0.2934103012084961,0.12340491265058517,-1.9732268492328089,0.00017114750517066568,0.10508062690496445,0.4523593485355377,-0.0,-0.010858308523893356,1.0861430168151855,-0.022488640621304512,-0.5774662494659424
187.0,275.0,-6.1095,1.9143,7.9807,-0.047,-0.0102,-0.1428,-2.2415172062315882,-0.002035688841715455,4.874726295471191,-1.402204990386963,0.26508527994155884,2.533865451812744,-0.7255643767169495,-0.3467809557914734,0.08634566515684128,-1.973194424306051,0.00023137290554586798,0.10586133599281311,0.4524073600769043,-0.0,-0.0006602231878787279,1.0858790874481201,-0.024789441376924515,-0.6200969219207764
187.0,275.0,-6.1095,1.9143,7.9807,-0.047,-0.0102,-0.1428,-2.241476675073141,-0.0007512617157772183,4.920719146728516,-1.4000394344329834,0.2597324848175049,2.5250306129455566,-0.7286152404597779,-0.400687575340271,0.0638255774974823,-1.9732235113727015,0.0006182409124448895,0.12949691712856293,0.45238348841667175,-0.0,0.00269144494086504,1.0856871604919434,-0.026532519608736038,-0.6268290281295776
180.0,299.0,-6.1095,1.9143,7.9807,-0.047,-0.0102,-0.1428,-2.2414971790709437,-0.000540339678991586,4.9136223793029785,-1.3979671001434326,0.2595471739768982,2.541863441467285,-0.7321129006198426,-0.460898220539093,0.04442697763442993,-1.9731505552874964,0.0009246604167856276,0.11153292655944824,0.45234304666519165,-0.0,-0.003325368743389845,1.0853904485702515,-0.02712855488061905,-0.6226052045822144
180.0,299.0,-6.1095,1.9143,7.9807,-0.047,-0.0102,-0.1428,-2.2415129146971644,-0.0003858502604998648,4.947452545166016,-1.3958837985992432,0.2558743357658386,2.5669872760772705,-0.7361613076976319,-0.5201452374458313,0.014773747883737087,-1.9732030073748987,0.002078430727124214,0.13516461849212646,0.45240360498428345,-0.0,0.003897300688549876,1.085210919380188,-0.027849311009049416,-0.6865739822387695
180.0,299.0,-6.1095,1.9143,7.9807,-0.047,-0.0102,-0.1428,-2.241476675073141,-0.00033165101194754243,4.941823482513428,-1.3933526277542114,0.2593093812465668,2.5672125816345215,-0.7418726247600098,-0.5937603712081909,0.027932442724704742,-1.9731276671039026,0.022471321746706963,0.1473536491394043,0.4523753523826599,-0.0,0.013484269380569458,1.0849432945251465,-0.028501439839601517,-0.7692102789878845
180.0,299.0,-6.1095,1.9143,7.9807,-0.047,-0.0102,-0.1428,-2.2415291271605433,-0.0002713270077947527,4.948087215423584,-1.391296625137329,0.2574651837348938,2.570517063140869,-0.7468958658031006,-0.6434472799301147,0.015356257557868958,-1.972919766102926,0.02456049434840679,0.1406291425228119,0.4523954391479492,-0.0,-0.011807756498456001,1.0846753120422363,-0.029913317412137985,-0.8102096319198608
180.0,299.0,-6.1095,1.9143,7.9807,-0.047,-0.0102,-0.1428,-2.2415410480894984,-0.0032530450262129307,4.974350452423096,-1.3893133401870728,0.25223469734191895,2.5550618171691895,-0.7521748703769227,-0.6945831179618835,0.03183160722255707,-1.9727562109576624,0.017396625131368637,0.13298381865024567,0.4523753225803375,-0.0,-0.0018365352880209684,1.084463357925415,-0.0323028601706028,-0.8152821660041809
180.0,299.0,-6.1095,1.9143,7.9807,-0.047,-0.0102,-0.1428,-2.2416087589659632,-0.0032799136824905872,4.985677719116211,-1.3873364925384521,0.2543000280857086,2.6177520751953125,-0.7578640145114441,-0.7347460389137268,0.020986046642065048,-1.9726164976703089,0.014580363407731056,0.12849768996238708,0.4523511230945587,-0.0,0.004970000125467777,1.084190845489502,-0.03292253613471985,-0.8179908990859985
180.0,299.0,-6.1095,1.9143,7.9807,-0.047,-0.0102,-0.1428,-2.241584440270895,-0.0028516023885458708,4.9864325523376465,-1.385333776473999,0.2422449141740799,2.5552051067352295,-0.7638191741755982,-0.7659587264060974,0.0025493260473012924,-1.9724729696856897,0.020499426871538162,0.15133534371852875,0.452379435300827,-0.0,0.009878050535917282,1.0838667154312134,-0.03462184593081474,-0.8320789337158203
180.0,299.0,-6.1095,1.9143,7.9807,-0.047,-0.0102,-0.1428,-2.2415806255736292,-0.0012603530194610357,5.002963542938232,-1.3829411268234253,0.24487406015396118,2.5601327419281006,-0.771628276710846,-0.7993341088294983,0.006695309653878212,-1.9721458593951624,0.043275587260723114,0.1576761156320572,0.4523475170135498,-0.0,-0.004027619492262602,1.0835955142974854,-0.03363122418522835,-0.8256789445877075
180.0,299.0,-6.1095,1.9143,7.9807,-0.047,-0.0102,-0.1428,-2.241629262963766,-0.0007991531165316701,5.003907203674316,-1.380989909172058,0.24400533735752106,2.5977234840393066,-0.777929500942566,-0.8066015243530273,0.004504947457462549,-1.9716714064227503,0.08795981854200363,0.1655759960412979,0.45235562324523926,-0.0,-0.01052457932382822,1.0833194255828857,-0.03259003907442093,-0.8443343639373779
180.0,299.0,-5.4048,4.2772,7.7994,0.0996,-0.4872,0.0658,-2.24168123821401,-0.0016281941207125783,5.007863521575928,-1.379111886024475,0.23500168323516846,2.5348711013793945,-0.784306065445282,-0.8012231588363647,0.006320057902485132,-1.9706581274615687,0.15876245498657227,0.17136722803115845,0.45232367515563965,-0.0,-0.0070855142548680305,1.0830590724945068,-0.02878214791417122,-0.8530926704406738
180.0,299.0,-5.4048,4.2772,7.7994,0.0996,-0.4872,0.0658,-2.2416569195189417,-0.0011988457990810275,4.980437278747559,-1.3772631883621216,0.2297050505876541,2.5761361122131348,-0.7906498473933716,-0.7916206121444702,0.019714418798685074,-1.9691169897662562,0.18197548389434814,0.2108304798603058,0.4523274302482605,-0.0,0.004140990320593119,1.0828111171722412,-0.027784019708633423,-0.8473230600357056
156.0,456.0,-5.4048,4.2772,7.7994,0.0996,-0.4872,0.0658,-2.2416445217528285,-0.0006251025479286909,5.017516136169434,-1.3749077320098877,0.2198689728975296,2.5414862632751465,-0.7984644931605835,-0.774550199508667,0.013447076082229614,-1.9672744909869593,0.21442905068397522,0.19916588068008423,0.45229923725128174,-0.0,0.004627913702279329,1.0825954675674438,-0.025907814502716064,-0.8291358351707458
156.0,456.0,-5.4048,4.2772,7.7994,0.0996,-0.4872,0.0658,-2.2416569195189417,-0.0005919263348914683,4.994243621826172,-1.3731719255447388,0.21152234077453613,2.564709186553955,-0.8045135897449036,-0.7478145360946655,0.004803083837032318,-1.9653876463519495,0.22877182066440582,0.21254006028175354,0.45233964920043945,-0.0,-0.004962156992405653,1.0824154615402222,-0.025008738040924072,-0.8173664212226868
156.0,456.0,-5.4048,4.2772,7.7994,0.0996,-0.4872,0.0658,-2.24159636119985,-0.0004454282461665571,5.001609802246094,-1.371485948562622,0.20896372199058533,2.587102174758911,-0.8101914686015625,-0.7132205963134766,0.018674645572900772,-1.963437859212057,0.2780473530292511,0.22649185359477997,0.4523879587650299,-0.0,0.0003928545629605651,1.0821994543075562,-0.025702619925141335,-0.796216607093811
156.0,456.0,-5.4048,4.2772,7.7994,0.0996,-0.4872,0.0658,-2.2416731319823207,-0.0003570585395209491,4.969010829925537,-1.3698573112487793,0.205473393201828,2.500969171524048,-0.8156933945468445,-0.666461169719696,0.018370574340224266,-1.9610922972308558,0.2879311144351959,0.2230629026889801,0.4522913694381714,-0.0,0.0002183242468163371,1.0819875001907349,-0.0269639790058136,-0.7980474829673767
156.0,456.0,-5.4048,4.2772,7.7994,0.0996,-0.4872,0.0658,-2.24168123821401,-0.000249394157435745,4.939539432525635,-1.367849349975586,0.20003801584243774,2.496730089187622,-0.8219095033458252,-0.5971037149429321,0.018497230485081673,-1.9578817526446741,0.32312628626823425,0.23913010954856873,0.4523073434829712,-0.0,-0.008340543136000633,1.0817272663116455,-0.02676481008529663,-0.7895960211753845
156.0,456.0,-5.4048,4.2772,7.7994,0.0996,-0.4872,0.0658,-2.2417050800719203,-0.00032686672057025135,4.933513164520264,-1.366186261177063,0.19588080048561096,2.476750373840332,-0.8263887924006958,-0.5386140942573547,0.027973342686891556,-1.9550946394549769,0.3609860837459564,0.24592722952365875,0.4522472620010376,-0.0,-0.004334257449954748,1.0814752578735352,-0.02778499759733677,-0.7437660694122314
156.0,456.0,-5.4048,4.2772,7.7994,0.0996,-0.4872,0.0658,-2.2416845760741175,-0.001713520847260952,4.932438850402832,-1.364721655845642,0.18650081753730774,2.464035987854004,-0.8303046387485047,-0.4701649844646454,0.0348823219537735,-1.9520710150348108,0.38892054557800293,0.2386745810508728,0.4522913694381714,-8.644312856631586e-07,-0.018091535195708275,1.0812709331512451,-0.029618728905916214,-0.7371888160705566
156.0,456.0,-5.4048,4.2772,7.7994,0.0996,-0.4872,0.0658,-2.241665025750631,-0.0019427819643169641,4.892886161804199,-1.3632302284240723,0.18091920018196106,2.4599621295928955,-0.8337335151484986,-0.40296316146850586,0.05838232487440109,-1.9487641493426722,0.4255615770816803,0.26422590017318726,0.45233154296875,-1.5710609896357752e-11,-0.010338892228901386,1.0810555219650269,-0.02966226264834404,-0.6933109164237976
156.0,456.0,-5.4048,4.2772,7.7994,0.0996,-0.4872,0.0658,-2.2417408428587855,-0.002582465298473835,4.867475509643555,-1.3615305423736572,0.17450261116027832,2.4296584129333496,-0.8370474737933655,-0.296095609664917,0.10222972184419632,-1.9445098082171839,0.4354984164237976,0.25332337617874146,0.4523073732852936,-1.8643234873736553e-17,-0.022089431062340736,1.0807795524597168,-0.026496872305870056,-0.585536539554596
156.0,456.0,-2.5316,3.6616,8.187,-0.3749,-0.3007,-0.1052,-2.2417813740172328,-0.003739197039976716,4.8691020011901855,-1.360175371170044,0.16468647122383118,2.3731765747070312,-0.8389361065677186,-0.21593792736530304,0.13986048102378845,-1.9409034887896937,0.44823500514030457,0.24166205525398254,0.4523155689239502,-3.3883158649762692e-22,-0.02325444296002388,1.0805554389953613,-0.021299045532941818,-0.543454647064209
142.0,274.0,-2.5316,3.6616,8.187,-0.3749,-0.3007,-0.1052,-2.2417646847166957,-0.004031018353998661,4.802570819854736,-1.358904480934143,0.15264494717121124,2.328613042831421,-0.8403496903232117,-0.1384277045726776,0.17491284012794495,-1.9373348394977015,0.45180511474609375,0.22246482968330383,0.45235562324523926,-6.158096285932055e-27,-0.017541754990816116,1.0804035663604736,-0.01499482523649931,-0.5027638673782349
142.0,274.0,-2.5316,3.6616,8.187,-0.3749,-0.3007,-0.1052,-2.2417971096434535,-0.002136858878657222,4.808431625366211,-1.3577172756195068,0.1503901481628418,2.297567367553711,-0.8409993213466187,-0.039405979216098785,0.22936630249023438,-1.9337461630450647,0.4511087238788605,0.21260270476341248,0.4523196220397949,-1.1192035703938957e-31,-0.013276559300720692,1.080336093902588,-0.011049527674913406,-0.4159492552280426
142.0,274.0,-2.5316,3.6616,8.187,-0.3749,-0.3007,-0.1052,-2.241812845269674,-0.003229446243494749,4.772906303405762,-1.356298565864563,0.14268259704113007,2.278325080871582,-0.8408744496158143,0.0511496439576149,0.2818250358104706,-1.929267708455221,0.4521462321281433,0.2110854685306549,0.4523155391216278,-1.328120192232478e-37,-0.0213816799223423,1.0802961587905884,-0.004897595848888159,-0.34464508295059204
142.0,274.0,-2.5316,3.6616,8.187,-0.3749,-0.3007,-0.1052,-2.241840978662008,-0.0048801410011947155,4.7078680992126465,-1.3551913499832153,0.1301945447921753,2.203216075897217,-0.8403812807849427,0.08058413863182068,0.2912084460258484,-1.92570668855776,0.439336895942688,0.18951602280139923,0.45237159729003906,-2.4144372540316598e-42,-0.005036543123424053,1.0802236795425415,-0.00162272818852216,-0.3012310564517975
142.0,274.0,-2.5316,3.6616,8.187,-0.3749,-0.3007,-0.1052,-2.241857191125387,-0.0023140981793403625,4.664438724517822,-1.3541513681411743,0.11539976298809052,2.2059242725372314,-0.8397178214839478,0.07993578910827637,0.30050933361053467,-1.9222849051104944,0.42379865050315857,0.18024380505084991,0.45230329036712646,-0.0,-0.025607850402593613,1.0801794528961182,-0.00025210389867424965,-0.20471113920211792
142.0,274.0,-2.5316,3.6616,8.187,-0.3749,-0.3007,-0.1052,-2.241881032983297,-0.00047345945495180786,4.684185028076172,-1.3532296419143677,0.110723577439785,2.1675848960876465,-0.8392284673503418,0.06278543174266815,0.2800065279006958,-1.9190190474139612,0.40024930238723755,0.16249319911003113,0.45231959223747253,-0.0,-0.01382552832365036,1.0801880359649658,-8.251808321801946e-05,-0.1704295426607132
142.0,274.0,-2.5316,3.6616,8.187,-0.3749,-0.3007,-0.1052,-2.2418328724303187,-0.0002466257137712091,4.724102973937988,-1.352150559425354,0.10854791849851608,2.171323299407959,-0.8388087314418335,0.01986883394420147,0.2729661464691162,-1.9151089827166956,0.3741782307624817,0.1354541778564453,0.45230329036712646,-0.0,-0.00559634855017066,1.0802556276321411,0.001448916271328926,-0.12794217467308044
142.0,274.0,-2.5316,3.6616,8.187,-0.3749,-0.3007,-0.1052,-2.241828580895895,-0.000219986482989043,4.69890022277832,-1.351351022720337,0.1128242015838623,2.117111921310425,-0.8388331693461915,-0.009395131841301918,0.26602888107299805,-1.91237718263735,0.32682687044143677,0.12802039086818695,0.4523678719997406,-0.0,-0.017875071614980698,1.0802597999572754,0.0022015823051333427,-0.0999307781457901
142.0,274.0,-2.5316,3.6616,8.187,-0.3749,-0.3007,-0.1052,-2.2418772182860316,-5.372809027903713e-05,4.705994606018066,-1.3504291772842407,0.10563401132822037,2.17471981048584,-0.8389488023570557,-0.01867222785949707,0.2549296021461487,-1.9099448362933558,0.2795941233634949,0.10192666947841644,0.4522992968559265,-0.0,-0.021690189838409424,1.08027982711792,0.0015023688320070505,-0.10067744553089142
142.0,274.0,-4.078,1.41,8.2104,-0.328,-0.0182,-0.1706,-2.2418605289854945,-0.0008013054612092674,4.660333633422852,-1.3497411012649536,0.0900581032037735,2.1487531661987305,-0.8391047877124329,-0.015797965228557587,0.27037593722343445,-1.907830540333883,0.26019278168678284,0.10862945020198822,0.45237576961517334,-0.0,-0.0013810083037242293,1.0802879333496094,0.0010787213686853647,-0.07123427093029022
142.0,274.0,-4.078,1.41,8.2104,-0.328,-0.0182,-0.1706,-2.241869112054342,-0.0008221618481911719,4.6932783126831055,-1.348899245262146,0.07153830677270889,2.127175807952881,-0.8391924661448975,-0.005259162280708551,0.27118349075317383,-1.9058411757098597,0.17244286835193634,0.07485389709472656,0.45234382152557373,-0.0,-0.010370947420597076,1.0802556276321411,0.0006103640189394355,-0.056253377348184586
151.0,224.0,-4.078,1.41,8.2104,-0.328,-0.0182,-0.1706,-2.241845270196432,-0.0003798489342443645,4.658044338226318,-1.348362684249878,0.06255548447370529,2.111830234527588,-0.839245156650879,-0.0007418040186166763,0.27446120977401733,-1.904604736958639,0.13767506182193756,0.05768238753080368,0.452355295419693,-0.0,-0.0064774854108691216,1.0802838802337646,0.000490268983412534,-0.06120183318853378
151.0,224.0,-4.078,1.41,8.2104,-0.328,-0.0182,-0.1706,-2.241869112054342,-0.0002003517874982208,4.676236629486084,-1.347898244857788,0.05741715058684349,2.0854949951171875,-0.8392203611186524,-0.0004313284298405051,0.27471688389778137,-1.9038355986224573,0.05780917778611183,0.025872457772493362,0.4523838758468628,-0.0,0.006344062741845846,1.0803039073944092,0.0004931805888190866,-0.06186140701174736
151.0,224.0,-4.078,1.41,8.2104,-0.328,-0.0182,-0.1706,-2.2418772182860316,-0.00015446386532858014,4.645755290985107,-1.3474942445755005,0.05222509428858757,2.1153008937835693,-0.8392325204661866,-0.0002915229124482721,0.26374346017837524,-1.9038251082049769,-0.023232242092490196,0.010850477032363415,0.4523434638977051,-0.0,-0.0024076090194284916,1.0802756547927856,0.000938843353651464,0.008476488292217255
151.0,224.0,-4.078,1.41,8.2104,-0.328,-0.0182,-0.1706,-2.2417966328062953,-0.000125696838949807,4.6705522537231445,-1.3470816612243652,0.049130212515592575,2.1030335426330566,-0.8392763894847413,-0.00010217519593425095,0.2836989164352417,-1.9041760603534144,-0.06344791501760483,-0.01890241540968418,0.4523552656173706,-0.0,0.014987630769610405,1.0803568363189697,0.0008101669955067337,0.034689582884311676
151.0,224.0,-4.078,1.41,8.2104,-0.328,-0.0182,-0.1706,-2.2418486080565394,-0.00013594655320048332,4.652710914611816,-1.346601128578186,0.04613600671291351,2.0703938007354736,-0.839252309208252,-0.001004234654828906,0.27132129669189453,-1.9047225157367151,-0.05364469811320305,-0.02842433750629425,0.45236751437187195,-0.0,-0.010614793747663498,1.0802998542785645,0.00041745847556740046,0.005030587315559387
151.0,224.0,-4.078,1.41,8.2104,-0.328,-0.0182,-0.1706,-2.241869112054342,-6.230489816516638e-05,4.682562351226807,-1.3463010787963867,0.041413724422454834,2.04823637008667,-0.8392883104136963,-0.003667266108095646,0.2906024754047394,-1.9049857298480433,-0.019492529332637787,-0.0021189656108617783,0.4523552656173706,-0.0,-0.005096933804452419,1.0802713632583618,0.0002897542726714164,-0.0015362706035375595
151.0,224.0,-4.078,1.41,8.2104,-0.328,-0.0182,-0.1706,-2.241856714288229,-0.00011582623119466007,4.689829349517822,-1.3459922075271606,0.035379406064748764,2.0818679332733154,-0.839295820598938,-0.003994861617684364,0.28535306453704834,-1.9049609343158167,0.010054819285869598,-0.010385309346020222,0.45238351821899414,-0.0,-0.00816058088093996,1.0802356004714966,0.0002304032677784562,0.019403059035539627
151.0,224.0,-4.078,1.41,8.2104,-0.328,-0.0182,-0.1706,-2.2418328724303187,-0.0004942196537740529,4.647706031799316,-1.3456214666366577,0.03061300702393055,2.042388677597046,-0.8394004267505188,-0.002507344353944063,0.2805373966693878,-1.9049013296710413,0.008407309651374817,0.007824566215276718,0.4523954391479492,-0.0,0.0018772397888824344,1.0803121328353882,0.00019123473612125963,-0.0012884587049484253
151.0,224.0,-4.078,1.41,8.2104,-0.328,-0.0182,-0.1706,-2.2419010601439417,-0.0002825288975145668,4.680178642272949,-1.3453381061553955,0.027183199301362038,2.076935052871704,-0.8393199008754273,-0.0009635998867452145,0.2918094992637634,-1.9048131147967737,0.002095789648592472,-0.0017055068165063858,0.4523879289627075,-0.0,-0.009210499934852123,1.0803121328353882,0.00015772011829540133,0.025204777717590332
151.0,224.0,-4.4704,0.9344,8.0746,-0.1161,0.0593,-0.1742,-2.241845270196432,-0.0001806498330552131,4.701503753662109,-1.3451584577560425,0.025446591898798943,2.073929786682129,-0.8393963736346741,-0.0005161630106158555,0.2744305729866028,-1.9048455397235315,0.0004435254668351263,-0.004486939869821072,0.45240318775177,-0.0,0.004161918070167303,1.080271601676941,0.00013832682452630252,-0.0009906468912959099
151.0,224.0,-4.4704,0.9344,8.0746,-0.1161,0.0593,-0.1742,-2.241824289361471,-0.00011283589265076444,4.659485816955566,-1.3449455499649048,0.02344571053981781,2.0292418003082275,-0.8393963736346741,-0.0003536732983775437,0.29929763078689575,-1.9048579374896448,0.00026851496659219265,0.00010695005767047405,0.4524155855178833,-0.0,0.006701188161969185,1.0803080797195435,0.00013162211689632386,0.020132146775722504
150.0,217.0,-4.4704,0.9344,8.0746,-0.1161,0.0593,-0.1742,-2.241812845269674,-9.667465201346204e-05,4.711357116699219,-1.3447781801223755,0.018890123814344406,2.024850368499756,-0.8393522065928956,-0.00031910979305393994,0.27748051285743713,-1.9048126379596155,0.0001920428330777213,-0.0034798637498170137,0.45236751437187195,-0.0,0.0032591286581009626,1.0802675485610962,0.00011102409189334139,0.031570348888635635
150.0,217.0,-4.4704,0.9344,8.0746,-0.1161,0.0593,-0.1742,-2.2418610058226527,-8.199491276172921e-05,4.666643142700195,-1.3447065353393555,0.011838194914162159,2.052588939666748,-0.8393916648677369,-0.0003266929415985942,0.27882474660873413,-1.9048779646502894,0.0001416437007719651,3.797200042754412e-05,0.45239952206611633,-0.0,-0.003944699186831713,1.0802961587905884,9.883215534500778e-05,0.00064059067517519
150.0,217.0,-4.4704,0.9344,8.0746,-0.1161,0.0593,-0.1742,-2.241812845269674,-7.311344234040007e-05,4.694655895233154,-1.3446024656295776,0.005996326915919781,2.0051965713500977,-0.8394323152354737,-0.001333198044449091,0.2917843461036682,-1.9048212210284632,0.00011707031808327883,-0.0018954200204461813,0.45238760113716125,-0.0,0.0027435212396085262,1.0803241729736328,7.26806974853389e-05,0.007547188084572554
150.0,217.0,-4.4704,0.9344,8.0746,-0.1161,0.0593,-0.1742,-2.2418528995909632,5.285617953632027e-05,4.663460731506348,-1.3445615768432617,0.0033318311907351017,2.0416369438171387,-0.8394201558879395,-0.0017929855966940522,0.2892749309539795,-1.9048579374896448,9.976417641155422e-05,-0.014471237547695637,0.452379435300827,-2.3177224584003397e-09,-0.0030973099637776613,1.0803080797195435,1.826001789595466e-05,0.03115805983543396
150.0,217.0,-4.4704,0.9344,8.0746,-0.1161,0.0593,-0.1742,-2.241784235040182,7.095954788383096e-05,4.702688694000244,-1.344529628753662,0.001832775305956602,1.959420919418335,-0.8394679588130494,-0.0038333337288349867,0.2931872010231018,-1.9048579374896448,8.721397898625582e-05,-0.015566729940474033,0.45245984196662903,-4.212345668672471e-14,-0.0059837717562913895,1.0802717208862305,1.68815313372761e-05,0.05827176198363304
150.0,217.0,-4.4704,0.9344,8.0746,-0.1161,0.0593,-0.1742,-2.2417928181090296,8.362414519069716e-05,4.721989154815674,-1.3444526195526123,0.0017156441463157535,2.0059828758239746,-0.8395596307567139,-0.009390110149979591,0.2867601215839386,-1.9048460165606897,-2.7129994123242795e-05,-0.012764614075422287,0.45240318775177,-4.998644363722277e-20,0.009949930012226105,1.0803080797195435,1.5434039596584626e-05,0.07318001985549927
150.0,217.0,-4.4704,0.9344,8.0746,-0.1161,0.0593,-0.1742,-2.2418252430357875,9.56434741965495e-05,4.64981746673584,-1.3444819450378418,0.0036706188693642616,2.0571224689483643,-0.839619593029358,-0.012594505213201046,0.27272072434425354,-1.9048855940448206,-2.1425827867460612e-07,-0.00027672178111970425,0.4523311257362366,-9.084788425080684e-25,0.001781711122021079,1.0802998542785645,2.8886564905405976e-05,0.05068061873316765
150.0,217.0,-4.4704,0.9344,8.0746,-0.1161,0.0593,-0.1742,-2.2418252430357875,8.814927423372865e-05,4.688857555389404,-1.344446063041687,0.004705910570919514,1.9978182315826416,-0.8398203414729615,-0.011513174511492252,0.26370173692703247,-1.9048293272601526,-3.8940383036145665e-12,-0.02043966017663479,0.45248013734817505,-1.6511153895039754e-29,0.012021263130009174,1.0803321599960327,2.714419133553747e-05,0.03397176414728165
150.0,217.0,-4.4704,0.9344,8.0746,-0.1161,0.0593,-0.1742,-2.241788526574606,8.174432150553912e-05,4.671999931335449,-1.34442138671875,0.00567485298961401,2.0205867290496826,-0.8398478788188477,-0.008090485818684101,0.2825307846069336,-1.90489370027651,-7.077221663383246e-17,-0.017992323264479637,0.45241957902908325,-3.000820345878367e-34,0.016161484643816948,1.080271601676941,3.8399197364924476e-05,0.025141779333353043
150.0,217.0,-4.7521,2.2726,8.4138,-0.0403,0.0283,-0.111,-2.241788526574606,7.493799785152078e-05,4.687890529632568,-1.3443621397018433,0.006975333206355572,1.998840570449829,-0.8398798269084473,-0.0021253209561109543,0.27487415075302124,-1.904841725026266,-8.398293976339586e-23,-0.009891685098409653,0.45236343145370483,-3.560965644557582e-40,0.007609684951603413,1.0803197622299194,0.0002457835653331131,0.04836384952068329
150.0,217.0,-4.7521,2.2726,8.4138,-0.0403,0.0283,-0.111,-2.241788526574606,7.0258101914078e-05,4.681086540222168,-1.344252586364746,0.00804575439542532,2.0489113330841064,-0.8398757737926026,-0.0008250282844528556,0.2747589349746704,-1.9048460165606897,-1.5263482069544774e-27,-0.010664444416761398,0.45235520601272583,-7.006492321624085e-45,0.00568868825212121,1.080356240272522,0.0020712949335575104,0.04031221941113472
150.0,218.0,-4.7521,2.2726,8.4138,-0.0403,0.0283,-0.111,-2.241788526574606,6.61283265799284e-05,4.720738410949707,-1.344212532043457,0.009166495874524117,2.0297398567199707,-0.839935914879181,-0.0005887255538254976,0.27784374356269836,-1.904837433491842,-2.774062342816963e-32,-0.014124037697911263,0.45242375135421753,-0.0,0.002085429150611162,1.080388069152832,0.0032158729154616594,0.0832885354757309
150.0,218.0,-4.7521,2.2726,8.4138,-0.0403,0.0283,-0.111,-2.241800447503561,6.245711847441271e-05,4.654117584228516,-1.344109058380127,0.011326228268444538,2.02299165725708,-0.8399436634830018,-0.0023417151533067226,0.28476908802986145,-1.9048336187945765,-5.041721655445316e-37,-0.0048733605071902275,0.45238757133483887,-0.0,0.008025608025491238,1.0803720951080322,0.004638307727873325,0.0772518515586853
150.0,218.0,-4.7521,2.2726,8.4138,-0.0403,0.0283,-0.111,-2.241788526574606,5.840411176905036e-05,4.620889663696289,-1.3440085649490356,0.013729887083172798,2.006671667098999,-0.8400157254985352,-0.006703394465148449,0.2764306664466858,-1.904780689870016,-5.983544442666969e-43,-0.020709864795207977,0.45239168405532837,-0.0,0.020826127380132675,1.08047616481781,0.005591000430285931,0.10173755884170532
150.0,218.0,-4.7521,2.2726,8.4138,-0.0403,0.0283,-0.111,-2.2417804203429164,5.5521755712106824e-05,4.681305885314941,-1.3438645601272583,0.01603105664253235,2.0895252227783203,-0.8400915426066895,-0.011439750902354717,0.25110918283462524,-1.9048617521869105,-0.0,-0.006083909422159195,0.4524036645889282,-0.0,0.008079436607658863,1.0805162191390991,0.005100800655782223,0.08864085376262665
150.0,218.0,-4.7521,2.2726,8.4138,-0.0403,0.0283,-0.111,-2.241821428338522,5.291055276757106e-05,4.6523590087890625,-1.3437191247940063,0.017890937626361847,2.032787561416626,-0.8401787442019959,-0.014745146036148071,0.2605651617050171,-1.9047816435443323,-0.0,-0.022686991840600967,0.45247626304626465,-0.0,-0.00011971546337008476,1.0805236101150513,0.004443226382136345,0.08520977944135666
150.0,218.0,-4.7521,2.2726,8.4138,-0.0403,0.0283,-0.111,-2.2418090305724085,5.053390486864373e-05,4.650937080383301,-1.3435347080230713,0.019342390820384026,2.0271174907684326,-0.8403152984431763,-0.014289766550064087,0.27001386880874634,-1.9047940413104456,-0.0,-0.009806632995605469,0.4523715674877167,-0.0,0.005774955730885267,1.0805357694625854,0.004295650869607925,0.05874450504779816
150.0,218.0,-4.7521,2.2726,8.4138,-0.0403,0.0283,-0.111,-2.2418366871275843,1.0361161928429397e-09,4.688848495483398,-1.3433911800384521,0.022410085424780846,2.1147148609161377,-0.8404391568950196,-0.011471055448055267,0.2649751901626587,-1.9047897497760218,0.0009599896147847176,-0.006705285049974918,0.45242369174957275,-0.0,0.009704516269266605,1.080567717552185,0.0037681132089346647,0.043023236095905304
150.0,218.0,-4.7521,2.2726,8.4138,-0.0403,0.0283,-0.111,-2.241812845269674,4.503689276597294e-19,4.653317451477051,-1.3431618213653564,0.02385634556412697,2.0865139961242676,-0.8404989999583741,-0.006104636937379837,0.2767341136932373,-1.9047372976886194,0.0008232297259382904,-0.0056373318657279015,0.4523753523826599,-0.0,0.008204464800655842,1.0806078910827637,0.003305186750367284,0.10352244973182678
150.0,218.0,-4.4865,2.3139,8.4168,-0.04,0.0334,-0.1162,-2.2418366871275843,1.459137989683026e-26,4.665218353271484,-1.3429501056671143,0.025506485253572464,2.0929417610168457,-0.8405108612826844,-0.0018222727812826633,0.29269739985466003,-1.9048054854022425,0.0005404104595072567,-0.013229756616055965,0.4524155259132385,-0.0,0.007506363559514284,1.0806721448898315,0.003176793223246932,0.01985909603536129
150.0,218.0,-4.4865,2.3139,8.4168,-0.04,0.0334,-0.1162,-2.2418328724303187,4.727421345854683e-34,4.6703996658325195,-1.3428069353103638,0.02564525045454502,2.0617361068725586,-0.8405265969089051,-0.0008662344771437347,0.3039431571960449,-1.9048054854022425,0.0004022769571747631,-0.006790775340050459,0.45239949226379395,-0.0,0.017973709851503372,1.0806999206542969,0.003849978093057871,0.0012988243252038956
149.0,210.0,-4.4865,2.3139,8.4168,-0.04,0.0334,-0.1162,-2.24187769512319,1.531619221507025e-41,4.697768211364746,-1.3425861597061157,0.025474118068814278,2.03763484954834,-0.8406077188304444,-0.0007380962488241494,0.2899472415447235,-1.9048097769366663,0.00032040462247096,-0.01188849937170744,0.45242783427238464,-0.0,0.0032743129413574934,1.080748200416565,0.004420550540089607,0.03601963073015213
149.0,210.0,-4.4865,2.3139,8.4168,-0.04,0.0334,-0.1162,-2.2418090305724085,0.0,4.706526279449463,-1.3422768115997314,0.02709285169839859,2.087313175201416,-0.8405949634364625,-0.002155695576220751,0.28016847372055054,-1.9047535101519983,0.00025543392985127866,-0.022971998900175095,0.4523753523826599,-0.0,-0.000750348495785147,1.0807965993881226,0.0047669848427176476,0.03401075676083565
149.0,210.0,-4.4865,2.3139,8.4168,-0.04,0.0334,-0.1162,-2.241821428338522,0.0,4.710047245025635,-1.3420974016189575,0.029425764456391335,2.0702388286590576,-0.8405984205058594,-0.00390050676651299,0.28818583488464355,-1.9047454039203089,0.00021978342556394637,-0.019425353035330772,0.4523831307888031,-0.0,-0.0025995250325649977,1.0807878971099854,0.004185017663985491,0.013115993700921535
149.0,210.0,-4.4865,2.3139,8.4168,-0.04,0.0334,-0.1162,-2.2417766056456507,0.0,4.672468185424805,-1.3418283462524414,0.03240903094410896,2.0498533248901367,-0.8407231134227295,-0.00557060306891799,0.2914511561393738,-1.9047616163836878,0.00021993690461385995,-0.006774791982024908,0.4523950517177582,-0.0,0.009200711734592915,1.0808358192443848,0.004016051068902016,-0.003002006560564041
149.0,210.0,-4.4865,2.3139,8.4168,-0.04,0.0334,-0.1162,-2.2417766056456507,0.0,4.679599761962891,-1.3415595293045044,0.036820512264966965,2.0424327850341797,-0.8407588762095948,-0.005560755729675293,0.3085342049598694,-1.9047859350787562,0.00019637004879768938,-0.022000901401042938,0.4523913860321045,-0.0,0.004544868599623442,1.0808758735656738,0.004216430243104696,0.030015498399734497
149.0,210.0,-4.4865,2.3139,8.4168,-0.04,0.0334,-0.1162,-2.241821428338522,0.0,4.697211742401123,-1.3411998748779297,0.04326528310775757,2.0414364337921143,-0.840746597652771,-0.0034742450807243586,0.306633323431015,-1.9047816435443323,0.00011709229875123128,-0.0035912301391363144,0.4523913860321045,-0.0,0.007940287701785564,1.0809237957000732,0.0044284421019256115,-0.01696600392460823
149.0,210.0,-4.4865,2.3139,8.4168,-0.04,0.0334,-0.1162,-2.241909166375631,8.045475397011614e-08,4.701344966888428,-1.3408147096633911,0.0480288527905941,2.1310276985168457,-0.8407867711833497,-0.00209186808206141,0.3020537197589874,-1.9047496954547327,0.0001469824492232874,-0.02196686342358589,0.45235109329223633,-0.0,0.014680379070341587,1.0809357166290283,0.004427932668477297,-0.01165113877505064
149.0,210.0,-4.4865,2.3139,8.4168,-0.04,0.0334,-0.1162,-2.2418204746642054,2.6066314515513613e-15,4.712154865264893,-1.3404053449630737,0.050593338906764984,2.142030715942383,-0.8407748502543946,-0.0013204094721004367,0.29559895396232605,-1.9047578016864222,0.00013562220556195825,-0.018859852105379105,0.4524238109588623,-0.0,0.007786501199007034,1.080967903137207,0.00372661417350173,-0.007849405519664288
149.0,210.0,-4.4865,2.3139,8.4168,-0.04,0.0334,-0.1162,-2.2418366871275843,8.445153576287163e-23,4.686264514923096,-1.3399602174758911,0.05135713890194893,2.1149468421936035,-0.8408387464335938,-0.0016331067308783531,0.29995810985565186,-1.904774014149801,0.00012486946070566773,-0.011328475549817085,0.4524155259132385,-0.0,0.01298386137932539,1.0809354782104492,0.0030408361926674843,-0.030368013307452202
149.0,210.0,-4.7049,2.141,8.7236,-0.0516,0.0881,-0.1356,-2.2418366871275843,3.670857268634856e-32,4.697944641113281,-1.3394603729248047,0.051965467631816864,2.11946439743042,-0.8408387464335938,-0.0021832555066794157,0.31515493988990784,-1.9047735373126429,0.00011361012002453208,-0.011500653810799122,0.45238348841667175,-0.0,0.0058386973105371,1.0810158252716064,0.003917306195944548,-0.0016512640286237001
149.0,210.0,-4.7049,2.141,8.7236,-0.0516,0.0881,-0.1356,-2.2418090305724085,1.189311433940223e-39,4.7389397621154785,-1.339028000831604,0.05448121204972267,2.1469078063964844,-0.8408346933177491,-0.0010809156810864806,0.3141744136810303,-1.9047578016864222,0.00010596622450975701,-0.015795912593603134,0.4524318277835846,-0.0,0.006250312551856041,1.0811042785644531,0.005241005681455135,0.018359865993261337
155.0,185.0,-4.7049,2.141,8.7236,-0.0516,0.0881,-0.1356,-2.241845270196432,0.0,4.728226661682129,-1.3385460376739502,0.05994666367769241,2.0849123001098633,-0.8408908408931275,-0.0007524556713178754,0.3053516745567322,-1.904762093220846,0.00011346184328431264,-0.0097548458725214,0.45241957902908325,-0.0,0.025190237909555435,1.0811192989349365,0.00612443033605814,-0.04150334745645523
155.0,185.0,-4.7049,2.141,8.7236,-0.0516,0.0881,-0.1356,-2.241800447503561,0.0,4.733138561248779,-1.3380491733551025,0.06648200750350952,2.12563419342041,-0.8409348887256165,-0.0011247557122260332,0.31013113260269165,-1.904745880757467,0.00019961058569606394,-0.01841919869184494,0.45241591334342957,-0.0,0.016069959849119186,1.0811798572540283,0.0072773778811097145,0.016974782571196556
155.0,185.0,-4.7049,2.141,8.7236,-0.0516,0.0881,-0.1356,-2.2418648205199183,-5.4175521654542536e-05,4.721865653991699,-1.337380051612854,0.07087185233831406,2.1389317512512207,-0.8409386438182374,-0.005087112542241812,0.31455013155937195,-1.9047659079181116,0.0007185304421000183,-0.00848840270191431,0.45247191190719604,-0.0,0.015827717259526253,1.081223487854004,0.007906840182840824,-0.00396199245005846
155.0,185.0,-4.7049,2.141,8.7236,-0.0516,0.0881,-0.1356,-2.241845270196432,-0.00010104186367243528,4.8126420974731445,-1.3367996215820312,0.07064484059810638,2.1227667331695557,-0.8410150569728394,-0.008903653360903263,0.30548983812332153,-1.9047578016864222,0.00056584517005831,-0.00449890922755003,0.4524155259132385,-0.0,0.011036287993192673,1.0812957286834717,0.007511156145483255,-0.03343898802995682
155.0,185.0,-4.7049,2.141,8.7236,-0.0516,0.0881,-0.1356,-2.2418724499144496,-9.167331154458225e-05,4.774662017822266,-1.3362219333648682,0.07195903360843658,2.188178539276123,-0.841142551308014,-0.012343555688858032,0.2979034185409546,-1.9047535101519983,0.00043045927304774523,-0.014270327053964138,0.4524155259132385,-0.0,0.0281674824655056,1.0813639163970947,0.008709687739610672,-0.09356334060430527
155.0,185.0,-4.7049,2.141,8.7236,-0.0516,0.0881,-0.1356,-2.241941114465231,-0.000273143348749727,4.7041916847229,-1.3356287479400635,0.07250707596540451,2.1608121395111084,-0.8412502569011231,-0.015835285186767578,0.3058428168296814,-1.9047659079181116,0.0003473588149063289,-0.0017292210832238197,0.4523753523826599,-0.0,0.013996272347867489,1.0814557075500488,0.01071130856871605,-0.04596837982535362
155.0,185.0,-4.7049,2.141,8.7236,-0.0516,0.0881,-0.1356,-2.2418328724303187,-0.00020954156934749335,4.721546173095703,-1.3349204063415527,0.07099688053131104,2.167952537536621,-0.8414381307414551,-0.014279268682003021,0.30810773372650146,-1.9047296682940882,0.00027984005282633007,-0.016751455143094063,0.45233890414237976,-0.0,0.02381029911339283,1.0815961360931396,0.0134432977065444,-0.05664942413568497
155.0,185.0,-4.7049,2.141,8.7236,-0.0516,0.0881,-0.1356,-2.241929670373434,-0.00017663893231656402,4.7372331619262695,-1.334363579750061,0.06982289999723434,2.1623752117156982,-0.8415302199176331,-0.01340746320784092,0.2990490198135376,-1.9047496954547327,0.00021367422596085817,0.0024182582274079323,0.4524155259132385,-0.0,0.02624707669019699,1.0817320346832275,0.017494764178991318,-0.017510872334241867
155.0,185.0,-4.7049,2.141,8.7236,-0.0516,0.0881,-0.1356,-2.2418767414488734,-0.00012213406444061548,4.780453205108643,-1.3337947130203247,0.06863074749708176,2.1393494606018066,-0.8416501444629212,-0.012807228602468967,0.3069094121456146,-1.9047659079181116,0.00015764236741233617,-0.024504609405994415,0.4524114727973938,-0.0,0.006488279905170202,1.0818517208099365,0.021286476403474808,-0.009440316818654537
155.0,185.0,-4.6062,2.1817,8.2427,-0.0605,0.0799,-0.1255,-2.2418886623778285,-0.00010753998503787443,4.7320404052734375,-1.3332246541976929,0.06943686306476593,2.1549556255340576,-0.8417581480792542,-0.014134140685200691,0.31034451723098755,-1.9047382513629358,0.00016579253133386374,-0.011714261025190353,0.452419638633728,-0.0,0.014223030768334866,1.0819957256317139,0.025723891332745552,-0.07412383705377579
155.0,185.0,-4.6062,2.1817,8.2427,-0.0605,0.0799,-0.1255,-2.241913457910055,-3.5155811929143965e-05,4.6988444328308105,-1.3325035572052002,0.07302843034267426,2.1779990196228027,-0.8419858378222962,-0.02200777642428875,0.30924057960510254,-1.904722038899557,0.00019165361300110817,-0.006371878087520599,0.452371209859848,-0.0,0.004920498933643103,1.082311749458313,0.03043440543115139,-0.04094519838690758
168.0,182.0,-4.6062,2.1817,8.2427,-0.0605,0.0799,-0.1255,-2.241896768609518,-9.079139272216707e-05,4.692956924438477,-1.3319926261901855,0.07493532449007034,2.180659532546997,-0.8421651881984253,-0.03781150281429291,0.2955646514892578,-1.9047659079181116,0.0001732984819682315,-0.009832216426730156,0.45242375135421753,-0.0,0.002768207574263215,1.0825798511505127,0.03601236268877983,-0.04488569498062134
168.0,182.0,-4.6062,2.1817,8.2427,-0.0605,0.0799,-0.1255,-2.2419172726073207,-0.000572093587834388,4.709327697753906,-1.3313370943069458,0.07475514709949493,2.134896755218506,-0.8425733012012024,-0.06334242224693298,0.28656822443008423,-1.9047415892230433,0.00015807829913683236,-0.0165519118309021,0.4523913562297821,-0.0,0.001627289573661983,1.082851767539978,0.041902344673871994,-0.04640974476933479
168.0,182.0,-4.6062,2.1817,8.2427,-0.0605,0.0799,-0.1255,-2.241912981072897,-0.001015031710267067,4.734179496765137,-1.3306872844696045,0.07603099197149277,2.1448380947113037,-0.8432889741710206,-0.10119617730379105,0.2706337571144104,-1.904762093220846,0.00014531597844325006,-0.01034203078597784,0.4524802565574646,-0.0,0.01021658070385456,1.0831713676452637,0.04537135735154152,0.014779854565858841
168.0,182.0,-4.6062,2.1817,8.2427,-0.0605,0.0799,-0.1255,-2.2419210873045863,-0.0007055532187223434,4.744950771331787,-1.330114483833313,0.07524091005325317,2.1729726791381836,-0.8441599172404786,-0.1217620000243187,0.2541409432888031,-1.904745880757467,0.00013446074444800615,-0.02076392062008381,0.4523753821849823,-0.0,0.013834883458912373,1.0835355520248413,0.049198586493730545,-0.013149728998541832
168.0,182.0,-4.6062,2.1817,8.2427,-0.0605,0.0799,-0.1255,-2.2418843708434046,-0.0004734880058094859,4.7621283531188965,-1.3293583393096924,0.0712866559624672,2.165529489517212,-0.8454225820354004,-0.12316330522298813,0.2533375918865204,-1.9047258535968226,0.0001229773770319298,-0.00655154837295413,0.4524155259132385,-0.0,0.012944689020514488,1.0841078758239746,0.04967748001217842,0.014690564014017582
168.0,182.0,-4.6062,2.1817,8.2427,-0.0605,0.0799,-0.1255,-2.2418767414488734,-0.00037486437940970063,4.779196739196777,-1.3288257122039795,0.06471577286720276,2.192208766937256,-0.8465584081462403,-0.16215869784355164,0.2344496250152588,-1.9046977202044886,0.00011511268530739471,-0.022119976580142975,0.4524073600769043,-0.0,0.020324500277638435,1.0844916105270386,0.05251091346144676,0.0459584966301918
168.0,182.0,-4.6062,2.1817,8.2427,-0.0605,0.0799,-0.1255,-2.2418605289854945,-0.00027146650245413184,4.755368232727051,-1.328336477279663,0.057703495025634766,2.11738920211792,-0.8480292719653626,-0.17813412845134735,0.2360808253288269,-1.904733959828512,0.00010655122605385259,-0.012127760797739029,0.45231881737709045,-0.0,0.01929314061999321,1.0849356651306152,0.05278688296675682,0.04529877007007599
168.0,182.0,-4.6062,2.1817,8.2427,-0.0605,0.0799,-0.1255,-2.2418648205199183,-0.00023155381495598704,4.757175445556641,-1.3279005289077759,0.05537394806742668,2.108095645904541,-0.8494705122760315,-0.18463134765625,0.2202000916004181,-1.904717747365133,0.00013559348008129746,-0.021367203444242477,0.4523908793926239,-0.0,0.019907578825950623,1.0853476524353027,0.05061870813369751,0.02002420462667942
168.0,182.0,-5.2223,1.8395,7.7426,-0.0382,-0.0628,-0.0183,-2.241868635217184,-0.000195605811313726,4.725371837615967,-1.3274364471435547,0.05660397931933403,2.1107492446899414,-0.8515243095210572,-0.22021399438381195,0.20989730954170227,-1.9047420660602015,0.00041365280048921704,-0.010954051278531551,0.4523593783378601,-0.0,-0.000485096825286746,1.0858473777770996,0.045319922268390656,0.01092266384512186
168.0,182.0,-5.2223,1.8395,7.7426,-0.0382,-0.0628,-0.0183,-2.241924902001852,-0.00016189654706977308,4.781116962432861,-1.3269344568252563,0.055628228932619095,2.1424989700317383,-0.8533110183528443,-0.2479357272386551,0.19942355155944824,-1.9047101179706019,0.000381559511879459,-0.009029033593833447,0.45239174365997314,-0.0,0.017012944445014,1.086207389831543,0.041495341807603836,-0.043170928955078125
168.0,182.0,-5.2223,1.8395,7.7426,-0.0382,-0.0628,-0.0183,-2.2419806919493617,-0.0026700375601649284,4.7618303298950195,-1.3264769315719604,0.05543521046638489,2.129155158996582,-0.8555461925319214,-0.2724308967590332,0.18111491203308105,-1.9047020117389124,0.00034872451215051115,-0.011448144912719727,0.4524478316307068,-0.0,0.0059391893446445465,1.0865472555160522,0.04025256633758545,0.02146374061703682
158.0,213.0,-5.2223,1.8395,7.7426,-0.0382,-0.0628,-0.0183,-2.2420011959471644,-0.0039346786215901375,4.710854530334473,-1.3260480165481567,0.05509915575385094,2.1672937870025635,-0.8577293914607544,-0.29708364605903625,0.1679416298866272,-1.9046414534198206,0.0003125432995148003,0.003125376533716917,0.45239174365997314,3.767730571979655e-10,0.009453946724534035,1.086867332458496,0.040076181292533875,-0.05797465518116951
158.0,213.0,-5.2223,1.8395,7.7426,-0.0382,-0.0628,-0.0183,-2.242032667199606,-0.004212360363453627,4.735105514526367,-1.3255319595336914,0.054701030254364014,2.160461187362671,-0.8607808512500306,-0.3288264274597168,0.148077130317688,-1.9046457449542444,0.00037062857882119715,-0.005785237066447735,0.45243144035339355,4.471035883511039e-16,-0.001099972054362297,1.0872387886047363,0.04195918142795563,-0.056590136140584946
158.0,213.0,-5.2223,1.8395,7.7426,-0.0382,-0.0628,-0.0183,-2.2420369587340296,-0.00286313914693892,4.712679386138916,-1.325070858001709,0.051757268607616425,2.154606819152832,-0.8635604542544861,-0.3431706130504608,0.1440780758857727,-1.9046738783465784,0.0006663423264399171,-0.010923514142632484,0.45235946774482727,8.125887103390661e-21,0.0032460058573633432,1.0875349044799805,0.045850809663534164,-0.03754888474941254
158.0,213.0,-5.2223,1.8395,7.7426,-0.0382,-0.0628,-0.0183,-2.242012163201803,-0.0015394979855045676,4.772706508636475,-1.3246989250183105,0.04510432854294777,2.152543783187866,-0.8663643163493653,-0.3499886989593506,0.1378626823425293,-1.9046943823443812,0.0007812372641637921,-0.005498611368238926,0.45232290029525757,1.4768399359515482e-25,-0.005431757774204016,1.087927222251892,0.05042028799653053,-0.0628315657377243
158.0,213.0,-5.2223,1.8395,7.7426,-0.0382,-0.0628,-0.0183,-2.2420932255186976,-0.0009853518567979336,4.797304153442383,-1.324353814125061,0.036859046667814255,2.148618698120117,-0.8692112129977723,-0.3604345917701721,0.12798592448234558,-1.9046619574176233,0.0007909827982075512,-0.0001699217245914042,0.4524114429950714,2.6840839278992314e-30,0.011743118986487389,1.0883152484893799,0.05157536640763283,-0.09151894599199295
158.0,213.0,-5.2223,1.8395,7.7426,-0.0382,-0.0628,-0.0183,-2.2420245609679164,-0.00046244595432654023,4.735024929046631,-1.3240898847579956,0.02160559594631195,2.053682804107666,-0.8727431458285828,-0.36276766657829285,0.1263808161020279,-1.904665772114889,0.0019246345618739724,-0.011150074191391468,0.4523954689502716,3.185109348035604e-36,0.002547828946262598,1.088843584060669,0.050636254251003265,-0.09772808849811554
158.0,213.0,-5.2223,1.8395,7.7426,-0.0382,-0.0628,-0.0183,-2.2420245609679164,-0.00032502744579687715,4.8027849197387695,-1.323974609375,0.010281863622367382,2.1074142456054688,-0.875694529419281,-0.3737647235393524,0.11972120404243469,-1.9045899550067347,0.0036336779594421387,0.00019516539759933949,0.4523470103740692,5.788763956125819e-41,0.016885286197066307,1.0892834663391113,0.04839279502630234,-0.08035269379615784
158.0,213.0,-5.2223,1.8395,7.7426,-0.0382,-0.0628,-0.0183,-2.242032667199606,-0.00020172883523628116,4.764131546020508,-1.3239222764968872,0.002209500875324011,2.0680103302001953,-0.8787207764438172,-0.37094295024871826,0.11767159402370453,-1.9045708815204065,0.010500931181013584,0.00011700321920216084,0.45238348841667175,1.401298464324817e-45,-0.005608243402093649,1.0895987749099731,0.044665127992630005,-0.10426592081785202
158.0,213.0,-4.5284,2.1733,8.2792,0.038,-0.2659,0.0519,-2.2420813045897425,-0.00016478898760396987,4.7614641189575195,-1.323982834815979,-0.0033119195140898228,2.13604736328125,-0.881647066479065,-0.37220415472984314,0.12443630397319794,-1.904494587575094,0.011302273720502853,0.012192394584417343,0.45241183042526245,0.0,0.004364073742181063,1.0899229049682617,0.04170018434524536,-0.10980981588363647
158.0,213.0,-4.5284,2.1733,8.2792,0.038,-0.2659,0.0519,-2.242045064965719,-0.00010092683805851266,4.738518238067627,-1.323974609375,-0.001451779156923294,2.084150552749634,-0.885303334598877,-0.3672288656234741,0.11636722832918167,-1.9044187704669397,0.005768738221377134,0.004006441682577133,0.4524277448654175,0.0,0.013600891456007957,1.090294361114502,0.036155253648757935,-0.1941675841808319
134.0,349.0,-4.5284,2.1733,8.2792,0.038,-0.2659,0.0519,-2.2420970402159632,-0.0008995940443128347,4.812439918518066,-1.3239378929138184,-0.0006004641181789339,2.1628551483154297,-0.8881061238101502,-0.35878270864486694,0.12399457395076752,-1.9043872992144983,0.0025875649880617857,0.005556202959269285,0.45240360498428345,0.0,0.020865198224782944,1.0906152725219727,0.02919563464820385,-0.13770198822021484
134.0,349.0,-4.5284,2.1733,8.2792,0.038,-0.2659,0.0519,-2.242072721520895,-0.0025185630656778812,4.763675212860107,-1.3240103721618652,-0.0003911378444172442,2.1140506267547607,-0.890805260544159,-0.3324075937271118,0.13049063086509705,-1.9043267408954065,0.001469531562179327,0.008298534899950027,0.45239174365997314,0.0,0.00344443297944963,1.0908429622650146,0.022008296102285385,-0.2073771357536316
134.0,349.0,-4.5284,2.1733,8.2792,0.038,-0.2659,0.0519,-2.2421370945372523,-0.0024326739367097616,4.806215286254883,-1.3239502906799316,-0.0002902117557823658,2.1427502632141113,-0.8933770817569275,-0.31236234307289124,0.1366274505853653,-1.904311482106344,0.0012166164815425873,0.001215852564200759,0.45240318775177,0.0,0.005916825029999018,1.090994954109192,0.015083123929798603,-0.2638685405254364
134.0,349.0,-4.5284,2.1733,8.2792,0.038,-0.2659,0.0519,-2.2421122990050257,-0.0014397759223356843,4.788543701171875,-1.3239905834197998,-0.00021944116451777518,2.1077523231506348,-0.8963588041118165,-0.2883095145225525,0.1418534219264984,-1.9043553511248987,0.0007613556226715446,0.009855017997324467,0.4523676037788391,0.0,0.0015622767386958003,1.0910900831222534,0.011109176091849804,-0.3482438027858734
134.0,349.0,-4.5284,2.1733,8.2792,0.038,-0.2659,0.0519,-2.2421332798399867,-0.0007487671100534499,4.789362907409668,-1.323982834815979,-0.00014689762610942125,2.13533878326416,-0.8984204095653077,-0.24975840747356415,0.15296003222465515,-1.9043553511248987,0.0005995131796225905,0.011445790529251099,0.45232710242271423,0.0,-0.003770971205085516,1.0911214351654053,0.007207117974758148,-0.27148938179016113
134.0,349.0,-4.5284,2.1733,8.2792,0.038,-0.2659,0.0519,-2.242124696771139,-0.0005617761635221541,4.780110836029053,-1.3239831924438477,9.074279660126194e-05,2.1330513954162598,-0.9001023930362244,-0.1902175396680832,0.19588369131088257,-1.9043028990374964,0.0004970533773303032,0.02831873670220375,0.4524121880531311,0.0,0.0005736950552091002,1.0912624597549438,0.004967375658452511,-0.2760239839553833
134.0,349.0,-4.5284,2.1733,8.2792,0.038,-0.2659,0.0519,-2.2421452007689417,-0.0004774967092089355,4.822179317474365,-1.3239585161209106,8.905085996957496e-05,2.1669750213623047,-0.9014554184726258,-0.1647137701511383,0.1997564435005188,-1.9043391386615198,0.0003767804300878197,0.013789471238851547,0.4523114562034607,0.0,-0.0061393058858811855,1.091306209564209,0.0036465772427618504,-0.2610980272293091
134.0,349.0,-4.5284,2.1733,8.2792,0.038,-0.2659,0.0519,-2.242181440392965,-0.0007168699521571398,4.820927619934082,-1.3239870071411133,7.644432480446994e-05,2.1075525283813477,-0.9028704327395936,-0.11343501508235931,0.2235257923603058,-1.9043143431292933,0.0003273007459938526,0.01757950149476528,0.45241183042526245,0.0,0.00042163603939116,1.0912902355194092,0.001281928038224578,-0.32534343004226685
134.0,349.0,-4.5284,2.1733,8.2792,0.038,-0.2659,0.0519,-2.2421285114684046,-0.001032207626849413,4.812223434448242,-1.3239378929138184,4.579101369017735e-05,2.093851327896118,-0.9034907978824158,-0.05439000204205513,0.253569096326828,-1.9043548742877405,0.00027097566635347903,0.019819464534521103,0.452339231967926,0.0,0.003703430760651827,1.0912623405456543,0.0007063155062496662,-0.3278096318244934
