ramyac6/ROB537/final_project/csv/good/good_145.csv
tof_0,tof_1,accelx,accely,accelz,gyrox,gyroy,gyroz,shoulder_lift_joint_position,shoulder_lift_joint_velocity,shoulder_lift_joint_effort,elbow_joint_position,elbow_joint_velocity,elbow_joint_effort,wrist_1_joint_position,wrist_1_joint_velocity,wrist_1_joint_effort,wrist_2_joint_position,wrist_2_joint_velocity,wrist_2_joint_effort,wrist_3_joint_position,wrist_3_joint_velocity,wrist_3_joint_effort,shoulder_pan_joint_position,shoulder_pan_joint_velocity,shoulder_pan_joint_effort
881.0,887.0,0.8315,0.6096,9.4092,-0.0417,0.0252,-0.1138,-1.920406003991598,0.0,3.3877642154693604,-1.7639451026916504,-0.0,1.869462251663208,5.070335942297735,-0.0,0.28886678814888,-1.6422060171710413,-0.0,0.0038302140310406685,0.8115043044090271,0.0,-0.0023001895751804113,0.785051703453064,0.0,0.004935859702527523
881.0,887.0,0.8315,0.6096,9.4092,-0.0417,0.0252,-0.1138,-1.920389791528219,0.0,3.355494499206543,-1.7639328241348267,-0.0,1.9076534509658813,5.070388036757269,-0.0,0.28804922103881836,-1.6422141234027308,-0.0,-0.005189221352338791,0.8115847706794739,0.0,0.0012770837638527155,0.7850476503372192,0.0,0.01637990213930607
881.0,887.0,0.8315,0.6096,9.4092,-0.0417,0.0252,-0.1138,-1.9204336605467738,0.0,3.366940975189209,-1.7639575004577637,-0.0,1.9285402297973633,5.070327925473013,-0.0,0.29850903153419495,-1.642237965260641,-0.0,-0.008014757186174393,0.8115121722221375,0.0,0.003214798169210553,0.7850557565689087,0.0,0.006775793619453907
881.0,887.0,0.8315,0.6096,9.4092,-0.0417,0.0252,-0.1138,-1.9203816852965296,0.0,3.3688955307006836,-1.763978123664856,-0.0,1.8934838771820068,5.07035585024909,-0.0,0.28898465633392334,-1.642233673726217,-0.0,-0.00034666957799345255,0.8114838600158691,0.0,0.001160777872428298,0.785047709941864,0.0,0.0008800816722214222
881.0,887.0,0.8315,0.6096,9.4092,-0.0417,0.0252,-0.1138,-1.920394083062643,0.0,3.405339002609253,-1.7638810873031616,-0.0,1.8946107625961304,5.070315885334768,-0.0,0.2866363823413849,-1.642176930104391,-0.0,0.0007905372185632586,0.8115400075912476,0.0,-0.02237761579453945,0.7850877046585083,0.0,0.007462712470442057
881.0,887.0,0.8315,0.6096,9.4092,-0.0417,0.0252,-0.1138,-1.920389791528219,0.0,3.3580119609832764,-1.7639409303665161,-0.0,1.9359822273254395,5.070351826935568,-0.0,0.2885802388191223,-1.6421735922442835,-0.0,0.007362580392509699,0.811516284942627,0.0,-0.0004982487298548222,0.7851036190986633,0.0,-0.001547791063785553
881.0,887.0,0.8315,0.6096,9.4092,-0.0417,0.0252,-0.1138,-1.920450349847311,0.0,3.4156670570373535,-1.7639131546020508,-0.0,1.9245717525482178,5.0703599629695795,-0.0,0.2875078320503235,-1.6422179380999964,-0.0,-0.005497417412698269,0.8115646243095398,0.0,-0.006140758749097586,0.7850397229194641,0.0,0.027274824678897858
908.0,905.0,0.8064,0.5767,9.4935,-0.0368,0.0269,-0.118,-1.9203936062254847,0.0,3.384000301361084,-1.763892412185669,-0.0,1.9494168758392334,5.070343720703878,-0.0,0.290428102016449,-1.6421735922442835,-0.0,0.004060585051774979,0.811495840549469,0.0,0.004681926220655441,0.7850677371025085,0.0,-0.0504043884575367
908.0,905.0,0.8064,0.5767,9.4935,-0.0368,0.0269,-0.118,-1.9204017124571742,0.0,3.3901782035827637,-1.7640060186386108,-0.0,1.8889577388763428,5.070384013443746,-0.0,0.2980857193470001,-1.642193619404928,-0.0,0.0025300073903054,0.811495840549469,0.0,-0.013424166478216648,0.785079836845398,0.0,0.010082850232720375
908.0,905.0,0.8064,0.5767,9.4935,-0.0368,0.0269,-0.118,-1.9203936062254847,0.0,3.3681159019470215,-1.7639533281326294,-0.0,1.9305002689361572,5.070343720703878,-0.0,0.29594969749450684,-1.6422298590289515,-0.0,-0.002580795204266906,0.8115606307983398,0.0,-0.0011140421265736222,0.7850596904754639,0.0,-0.017569953575730324
908.0,905.0,0.8064,0.5767,9.4935,-0.0368,0.0269,-0.118,-1.9203974209227503,0.0,3.393284559249878,-1.763908863067627,-0.0,1.8702971935272217,5.07035984376029,-0.0,0.2961844205856323,-1.6421893278705042,-0.0,-0.004408915992826223,0.8115040063858032,0.0,-0.009750673547387123,0.7850677371025085,0.0,-0.0082446513697505
908.0,905.0,0.8064,0.5767,9.4935,-0.0368,0.0269,-0.118,-1.9203816852965296,0.0,3.40670108795166,-1.7639491558074951,-0.0,1.92585289478302,5.070351826935568,-0.0,0.29961806535720825,-1.6421697775470179,-0.0,-0.006724031642079353,0.8115079998970032,0.0,-0.014869406819343567,0.7850476503372192,0.0,-0.05191665142774582
908.0,905.0,0.8064,0.5767,9.4935,-0.0368,0.0269,-0.118,-1.920389791528219,0.0,3.3744945526123047,-1.763978123664856,-0.0,1.8877015113830566,5.0703239915664575,-0.0,0.29099759459495544,-1.6422060171710413,-0.0,-0.005231807939708233,0.8115040063858032,0.0,0.008061141707003117,0.7849918007850647,0.0,-0.06375708431005478
908.0,905.0,0.8064,0.5767,9.4935,-0.0368,0.0269,-0.118,-1.9204017124571742,0.0,3.3827853202819824,-1.763892412185669,-0.0,1.943979263305664,5.070368069201269,-0.0,0.3011241853237152,-1.6421893278705042,-0.0,0.003922428470104933,0.8115081191062927,0.0,0.012496504932641983,0.7850637435913086,0.0,-0.012332858517765999
908.0,905.0,0.8064,0.5767,9.4935,-0.0368,0.0269,-0.118,-1.920394083062643,0.0,3.3600895404815674,-1.7639657258987427,-0.0,1.863663673400879,5.070335912495413,-0.0,0.2907772958278656,-1.6421974341021937,-0.0,0.005481455475091934,0.8115729093551636,0.0,-0.005467921029776335,0.7850597500801086,0.0,-0.0317041240632534
908.0,905.0,0.8064,0.5767,9.4935,-0.0368,0.0269,-0.118,-1.9204141102232875,0.0,3.3964149951934814,-1.763908863067627,-0.0,1.9257056713104248,5.070355820446768,-0.0,0.28695616126060486,-1.642221752797262,-0.0,-0.0006304096896201372,0.811581015586853,0.0,-0.006729452405124903,0.7850637435913086,0.0,0.0038944529369473457
908.0,905.0,0.8064,0.5767,9.4935,-0.0368,0.0269,-0.118,-1.9203573666014613,0.0,3.367171049118042,-1.7639007568359375,-0.0,1.8553833961486816,5.0703159151370905,-0.0,0.3008309006690979,-1.642165486012594,-0.0,-0.00594387948513031,0.8115040063858032,0.0,-0.004189773462712765,0.7850557565689087,0.0,-0.013880673795938492
908.0,905.0,0.8064,0.5767,9.4935,-0.0368,0.0269,-0.118,-1.920389791528219,0.0,3.422985076904297,-1.7639336585998535,-0.0,1.9281513690948486,5.07034798243598,-0.0,0.3009982705116272,-1.642193619404928,-0.0,-0.004171944689005613,0.8115400671958923,0.0,-0.01367936097085476,0.7850437164306641,0.0,0.028140416368842125
908.0,905.0,0.8064,0.5767,9.4935,-0.0368,0.0269,-0.118,-1.920373102227682,0.0,3.3872604370117188,-1.7639697790145874,-0.0,1.943139910697937,5.0703036961849115,-0.0,0.2816883623600006,-1.6422060171710413,-0.0,-0.003416856750845909,0.8115322589874268,0.0,-0.00434539932757616,0.7850637435913086,0.0,0.004457887262105942
908.0,905.0,0.8064,0.5767,9.4935,-0.0368,0.0269,-0.118,-1.9203816852965296,0.0,3.3905625343322754,-1.7639491558074951,-0.0,1.8728123903274536,5.070375907212057,-0.0,0.2940157353878021,-1.642237965260641,-0.0,0.0016141908708959818,0.8115122318267822,0.0,-0.008917192928493023,0.7850797772407532,0.0,-0.004655246622860432
908.0,905.0,0.8064,0.5767,9.4935,-0.0368,0.0269,-0.118,-1.920389791528219,0.0,3.3379006385803223,-1.7639822959899902,-0.0,1.9397602081298828,5.070351826935568,-0.0,0.29040271043777466,-1.642221752797262,-0.0,-0.003786944318562746,0.811499834060669,0.0,-0.003733089193701744,0.7850877046585083,0.0,-0.030897488817572594
877.0,897.0,0.8339,0.5647,9.5061,-0.0368,0.0318,-0.124,-1.9204260311522425,0.0,3.386983871459961,-1.7639936208724976,-0.0,1.8706746101379395,5.070380168944158,-0.0,0.2901516854763031,-1.6421330610858362,-0.0,-0.012267135083675385,0.811516284942627,0.0,0.006991729140281677,0.7851077318191528,0.0,0.03728064149618149
877.0,897.0,0.8339,0.5647,9.5061,-0.0368,0.0318,-0.124,-1.9204017124571742,0.0,3.385488510131836,-1.763993740081787,-0.0,1.9330997467041016,5.0703318295772455,-0.0,0.2953798174858093,-1.6421850363360804,-0.0,-0.011206740513443947,0.8114998936653137,0.0,-0.006081408821046352,0.7850597500801086,0.0,0.036379363387823105
877.0,897.0,0.8339,0.5647,9.5061,-0.0368,0.0318,-0.124,-1.920417924920553,0.0,3.3765854835510254,-1.7639575004577637,-0.0,1.9315893650054932,5.070311891823568,-0.0,0.29574403166770935,-1.642209831868307,-0.0,0.005223479121923447,0.8115326166152954,0.0,-0.006197624374181032,0.7850316762924194,0.0,-0.002207815647125244
877.0,897.0,0.8339,0.5647,9.5061,-0.0368,0.0318,-0.124,-1.9204217396178187,0.0,3.4272985458374023,-1.7639254331588745,-0.0,1.9108452796936035,5.07035984376029,-0.0,0.2815299928188324,-1.6421893278705042,-0.0,0.00710456445813179,0.8115523457527161,0.0,0.008886884897947311,0.785047709941864,0.0,0.050796039402484894
877.0,897.0,0.8339,0.5647,9.5061,-0.0368,0.0318,-0.124,-1.9203974209227503,0.0,3.394221782684326,-1.7639658451080322,-0.0,1.9220032691955566,5.0703438995178125,-0.0,0.2861805558204651,-1.642193619404928,-0.0,-0.009190610609948635,0.8115605711936951,0.0,0.006497570313513279,0.7850677371025085,0.0,-0.02093040756881237
877.0,897.0,0.8339,0.5647,9.5061,-0.0368,0.0318,-0.124,-1.9204017124571742,0.0,3.3753061294555664,-1.7639658451080322,-0.0,1.9325172901153564,5.070376086025991,-0.0,0.29411017894744873,-1.642165486012594,-0.0,0.0051169078797101974,0.8114756941795349,0.0,-0.006518276873975992,0.785047709941864,0.0,-0.001282933633774519
877.0,897.0,0.8339,0.5647,9.5061,-0.0368,0.0318,-0.124,-1.9203816852965296,0.0,3.3798060417175293,-1.7639049291610718,-0.0,1.88960599899292,5.0703477440174005,-0.0,0.2972877025604248,-1.6421850363360804,-0.0,0.0047106510028243065,0.8115040063858032,0.0,0.0026908733416348696,0.7850316762924194,0.0,0.004088215529918671
877.0,897.0,0.8339,0.5647,9.5061,-0.0368,0.0318,-0.124,-1.920417924920553,0.0,3.4159252643585205,-1.7639172077178955,-0.0,1.9388786554336548,5.070299613266744,-0.0,0.2990490198135376,-1.642233673726217,-0.0,0.00811474584043026,0.8115686774253845,0.0,-0.004714189562946558,0.7850397229194641,0.0,-0.009181417524814606
877.0,897.0,0.8339,0.5647,9.5061,-0.0368,0.0318,-0.124,-1.920389791528219,0.0,3.379399061203003,-1.7639927864074707,-0.0,1.930889368057251,5.070355820446768,-0.0,0.29321879148483276,-1.6421974341021937,-0.0,-0.013904420658946037,0.811495840549469,0.0,0.0017902625259011984,0.7850277423858643,0.0,0.00953560508787632
877.0,897.0,0.8339,0.5647,9.5061,-0.0368,0.0318,-0.124,-1.920406003991598,0.0,3.388723850250244,-1.7639782428741455,-0.0,1.968156337738037,5.070343750506201,-0.0,0.28462693095207214,-1.642193619404928,-0.0,0.010009454563260078,0.811564564704895,0.0,-0.011124743148684502,0.7850797772407532,0.0,0.01023339107632637
877.0,897.0,0.8339,0.5647,9.5061,-0.0368,0.0318,-0.124,-1.9203974209227503,0.0,3.4061436653137207,-1.763932704925537,-0.0,1.8795397281646729,5.070307749300756,-0.0,0.2962462306022644,-1.6422060171710413,-0.0,-0.0038502742536365986,0.8114604949951172,0.0,-0.005006949882954359,0.7850316762924194,0.0,-0.026801416650414467
877.0,897.0,0.8339,0.5647,9.5061,-0.0368,0.0318,-0.124,-1.9204260311522425,0.0,3.397203207015991,-1.7639296054840088,-0.0,1.9381229877471924,5.070351826935568,-0.0,0.2902601361274719,-1.6421812216388147,-0.0,-0.014891701750457287,0.8115441799163818,0.0,-0.012905186973512173,0.7850677371025085,0.0,0.011346486397087574
877.0,897.0,0.8339,0.5647,9.5061,-0.0368,0.0318,-0.124,-1.9203854999937953,0.0,3.398287296295166,-1.7639739513397217,-0.0,1.9393385648727417,5.07033588269309,-0.0,0.27333012223243713,-1.6422017256366175,-0.0,0.0013131026644259691,0.8114798069000244,0.0,0.0031456281431019306,0.7850078344345093,0.0,-0.05115966498851776
877.0,897.0,0.8339,0.5647,9.5061,-0.0368,0.0318,-0.124,-1.9203573666014613,0.0,3.3653948307037354,-1.763953447341919,-0.0,1.931251049041748,5.070327865868368,-0.0,0.2927655875682831,-1.6421850363360804,-0.0,-0.0017714145360514522,0.811528205871582,0.0,-0.0008452885667793453,0.7850956320762634,0.0,-0.0031677973456680775
877.0,877.0,0.865,0.6299,9.414,-0.0417,0.0255,-0.1217,-1.920406003991598,0.0,3.3995299339294434,-1.763969898223877,-0.0,1.8800404071807861,5.0703318295772455,-0.0,0.29284292459487915,-1.6421893278705042,-0.0,-0.004908864386379719,0.8115523457527161,0.0,-0.009629972279071808,0.7850637435913086,0.0,-0.028002560138702393
877.0,877.0,0.865,0.6299,9.414,-0.0417,0.0255,-0.1217,-1.9204098186888636,0.0,3.39444637298584,-1.7639368772506714,-0.0,1.9499528408050537,5.07035185673789,-0.0,0.2781413495540619,-1.6421893278705042,-0.0,-0.001731254393234849,0.8115121722221375,0.0,-0.0023630864452570677,0.7850637435913086,0.0,0.023292504251003265
877.0,877.0,0.865,0.6299,9.414,-0.0417,0.0255,-0.1217,-1.9204422436156214,0.0,3.361553430557251,-1.763978123664856,-0.0,1.9303748607635498,5.070372122317114,-0.0,0.27518945932388306,-1.6421812216388147,-0.0,0.0039476449601352215,0.8115000128746033,0.0,-0.004928309470415115,0.7850637435913086,0.0,0.019730161875486374
877.0,877.0,0.865,0.6299,9.414,-0.0417,0.0255,-0.1217,-1.9203692875304164,0.0,3.3906657695770264,-1.7639296054840088,-0.0,1.8969812393188477,5.07032002785758,-0.0,0.2890487015247345,-1.6422017256366175,-0.0,-0.001137870247475803,0.8115686774253845,0.0,-0.0010927747935056686,0.7850597500801086,0.0,-0.021873412653803825
877.0,877.0,0.865,0.6299,9.414,-0.0417,0.0255,-0.1217,-1.920373102227682,0.0,3.435223340988159,-1.7639336585998535,-0.0,1.8995559215545654,5.070311742811956,-0.0,0.27420538663864136,-1.642176930104391,-0.0,-0.0017521325498819351,0.8115606904029846,0.0,-0.013563455082476139,0.785047709941864,0.0,0.006270783022046089
877.0,877.0,0.865,0.6299,9.414,-0.0417,0.0255,-0.1217,-1.9204017124571742,0.0,3.4299778938293457,-1.7639254331588745,-0.0,1.9445991516113281,5.070323961764135,-0.0,0.27801722288131714,-1.642209831868307,-0.0,-0.005042554344981909,0.8115400075912476,0.0,0.016510898247361183,0.7850597500801086,0.0,-0.006872235331684351
877.0,877.0,0.865,0.6299,9.414,-0.0417,0.0255,-0.1217,-1.9203692875304164,0.0,3.389817476272583,-1.763978123664856,-0.0,1.8980724811553955,5.070351826935568,-0.0,0.27949753403663635,-1.6421697775470179,-0.0,-0.01850450038909912,0.8115686774253845,0.0,-0.009173485450446606,0.7850877642631531,0.0,0.0025851228274405003
877.0,877.0,0.865,0.6299,9.414,-0.0417,0.0255,-0.1217,-1.9204260311522425,0.0,3.3884196281433105,-1.7639377117156982,-0.0,1.904987096786499,5.070355820446768,-0.0,0.28635314106941223,-1.642221752797262,-0.0,-0.005707363598048687,0.8115122318267822,0.0,-0.008763694204390049,0.7850797772407532,0.0,0.029817838221788406
877.0,877.0,0.865,0.6299,9.414,-0.0417,0.0255,-0.1217,-1.9203649959959925,0.0,3.40201473236084,-1.7639212608337402,-0.0,1.9150292873382568,5.070323961764135,-0.0,0.29926273226737976,-1.6422179380999964,-0.0,0.003929185215383768,0.8115040063858032,0.0,0.007524971850216389,0.7850877642631531,0.0,0.04221460968255997
877.0,877.0,0.865,0.6299,9.414,-0.0417,0.0255,-0.1217,-1.9203607044615687,0.0,3.401717185974121,-1.7639491558074951,-0.0,1.9480324983596802,5.07035585024909,-0.0,0.28261542320251465,-1.6422017256366175,-0.0,0.004378644283860922,0.8115565180778503,0.0,-0.01559009775519371,0.7850597500801086,0.0,-0.036232225596904755
877.0,877.0,0.865,0.6299,9.414,-0.0417,0.0255,-0.1217,-1.920406003991598,0.0,3.3955330848693848,-1.76394522190094,-0.0,1.9059406518936157,5.070315825730123,-0.0,0.28553301095962524,-1.6421821753131312,-0.0,0.004499422386288643,0.8115162253379822,0.0,0.005054764449596405,0.7851157188415527,0.0,0.014946251176297665
877.0,877.0,0.865,0.6299,9.414,-0.0417,0.0255,-0.1217,-1.9203773937621058,0.0,3.435084342956543,-1.763953447341919,-0.0,1.8898364305496216,5.070363926678457,-0.0,0.2856326103210449,-1.6422060171710413,-0.0,0.0015751157188788056,0.8115122318267822,0.0,-0.007394510321319103,0.7850677371025085,0.0,-0.027339663356542587
877.0,877.0,0.865,0.6299,9.414,-0.0417,0.0255,-0.1217,-1.920373102227682,0.0,3.4418094158172607,-1.7639533281326294,-0.0,1.928282618522644,5.07035984376029,-0.0,0.29378780722618103,-1.642221752797262,-0.0,0.010687774047255516,0.8115081787109375,0.0,0.0033026516903191805,0.7850996851921082,0.0,0.07159791141748428
887.0,897.0,0.8279,0.588,9.4846,-0.0399,0.0295,-0.122,-1.920417924920553,0.0,3.4315829277038574,-1.763961672782898,-0.0,1.896894931793213,5.070319968252935,-0.0,0.2947676181793213,-1.6422060171710413,-0.0,-0.004598264116793871,0.8115322589874268,0.0,-0.014158204197883606,0.7850238084793091,0.0,0.006296047940850258
887.0,897.0,0.8279,0.588,9.4846,-0.0399,0.0295,-0.122,-1.9204336605467738,0.0,3.4231338500976562,-1.763978123664856,-0.0,1.9427893161773682,5.07033588269309,-0.0,0.2975497841835022,-1.6421850363360804,-0.0,-0.0017459644004702568,0.8114798069000244,0.0,0.005868085194379091,0.7850637435913086,0.0,-0.005443460773676634
887.0,897.0,0.8279,0.588,9.4846,-0.0399,0.0295,-0.122,-1.9203607044615687,0.0,3.393848419189453,-1.76394522190094,-0.0,1.894588589668274,5.07035585024909,-0.0,0.29353630542755127,-1.6422017256366175,-0.0,-0.011860898695886135,0.8115441799163818,0.0,0.0027995561249554157,0.7850196957588196,0.0,0.01662418432533741
887.0,897.0,0.8279,0.588,9.4846,-0.0399,0.0295,-0.122,-1.9203854999937953,0.0,3.37957763671875,-1.7639656066894531,-0.0,1.9540431499481201,5.070388006954946,-0.0,0.2973214089870453,-1.6421530882464808,-0.0,-0.006541482172906399,0.8115805983543396,0.0,-0.0007993476465344429,0.7850677371025085,0.0,-0.03613314777612686
887.0,897.0,0.8279,0.588,9.4846,-0.0399,0.0295,-0.122,-1.9203854999937953,0.0,3.4151668548583984,-1.7639657258987427,-0.0,1.8797259330749512,5.070383953839102,-0.0,0.27896177768707275,-1.6421850363360804,-0.0,-0.007347644306719303,0.81154465675354,0.0,-0.004754875786602497,0.7850316762924194,0.0,0.011461851187050343
887.0,897.0,0.8279,0.588,9.4846,-0.0399,0.0295,-0.122,-1.9204260311522425,0.0,3.401092529296875,-1.7639377117156982,-0.0,1.9503147602081299,5.0703599629695795,-0.0,0.28847241401672363,-1.642176930104391,-0.0,0.006105772219598293,0.8115687370300293,0.0,0.0055706393904984,0.7850637435913086,0.0,-0.012962132692337036
887.0,897.0,0.8279,0.588,9.4846,-0.0399,0.0295,-0.122,-1.9203816852965296,0.0,3.4017205238342285,-1.7639822959899902,-0.0,1.8819503784179688,5.070363956480779,-0.0,0.284477174282074,-1.6422017256366175,-0.0,-0.011475762352347374,0.8115040063858032,0.0,0.010911510325968266,0.7850236892700195,0.0,0.005118469707667828
887.0,897.0,0.8279,0.588,9.4846,-0.0399,0.0295,-0.122,-1.9204017124571742,0.0,3.3964381217956543,-1.763961672782898,-0.0,1.9444644451141357,5.070363986283102,-0.0,0.2879425883293152,-1.6421697775470179,-0.0,0.013774797320365906,0.8115729093551636,0.0,-0.009298085235059261,0.7850356698036194,0.0,-0.001213177340105176
887.0,897.0,0.8279,0.588,9.4846,-0.0399,0.0295,-0.122,-1.920406003991598,0.0,3.398653268814087,-1.7639575004577637,-0.0,1.903517723083496,5.070315855532446,-0.0,0.28683871030807495,-1.642237965260641,-0.0,-0.0019579457584768534,0.8115162253379822,0.0,-0.0029634993989020586,0.7850997447967529,0.0,-0.019827233627438545
887.0,897.0,0.8279,0.588,9.4846,-0.0399,0.0295,-0.122,-1.9204417667784632,0.0,3.4178342819213867,-1.7639368772506714,-0.0,1.9523816108703613,5.070347714215078,-0.0,0.2834702134132385,-1.6421821753131312,-0.0,0.006311959121376276,0.8115040063858032,0.0,0.0029309820383787155,0.7850437164306641,0.0,0.016252592206001282
887.0,897.0,0.8279,0.588,9.4846,-0.0399,0.0295,-0.122,-1.920389791528219,0.0,3.3780155181884766,-1.7639048099517822,-0.0,1.8896605968475342,5.070383953839102,-0.0,0.2934355139732361,-1.6422260443316858,-0.0,-0.0036513195373117924,0.8114999532699585,0.0,0.002309313742443919,0.7850637435913086,0.0,-0.020096948370337486
887.0,897.0,0.8279,0.588,9.4846,-0.0399,0.0295,-0.122,-1.9203692875304164,0.0,3.4056968688964844,-1.7639409303665161,-0.0,1.9239490032196045,5.070351826935568,-0.0,0.29096806049346924,-1.6421492735492151,-0.0,0.0068663181737065315,0.8114756941795349,0.0,-0.00647092005237937,0.7850437164306641,0.0,0.0074867866933345795
887.0,897.0,0.8279,0.588,9.4846,-0.0399,0.0295,-0.122,-1.9203936062254847,0.0,3.4433958530426025,-1.763969898223877,-0.0,1.9075355529785156,5.07035984376029,-0.0,0.28547048568725586,-1.6422017256366175,-0.0,0.007233437616378069,0.8115040063858032,0.0,0.0032548028975725174,0.7850757837295532,0.0,0.004807529971003532
887.0,897.0,0.8279,0.588,9.4846,-0.0399,0.0295,-0.122,-1.9203773937621058,0.0,3.3563232421875,-1.7639697790145874,-0.0,1.8866965770721436,5.070303845196523,-0.0,0.2939058542251587,-1.6422017256366175,-0.0,0.003088002558797598,0.8115564584732056,0.0,0.005636928603053093,0.7850597500801086,0.0,-0.013928568921983242
901.0,879.0,0.8291,0.5844,9.3613,-0.0327,0.0279,-0.1176,-1.9204336605467738,0.0,3.396068572998047,-1.7639822959899902,-0.0,1.9130979776382446,5.070351826935568,-0.0,0.30389368534088135,-1.6422179380999964,-0.0,-0.0022892309352755547,0.811524510383606,0.0,0.005963611416518688,0.7851076722145081,0.0,-0.044147785753011703
901.0,879.0,0.8291,0.5844,9.3613,-0.0327,0.0279,-0.1176,-1.9203854999937953,0.0,3.433028221130371,-1.7639007568359375,-0.0,1.9233753681182861,5.070363926678457,-0.0,0.2913491129875183,-1.642176930104391,-0.0,0.009379073046147823,0.8115646243095398,0.0,0.003996473737061024,0.7850956916809082,0.0,-0.026019014418125153
901.0,879.0,0.8291,0.5844,9.3613,-0.0327,0.0279,-0.1176,-1.9203654728331507,0.0,3.370316982269287,-1.7639822959899902,-0.0,1.9568722248077393,5.070380168944158,-0.0,0.28998613357543945,-1.6422017256366175,-0.0,-0.008268795907497406,0.8114798665046692,0.0,-0.018480127677321434,0.7850717306137085,0.0,-0.012708459980785847
901.0,879.0,0.8291,0.5844,9.3613,-0.0327,0.0279,-0.1176,-1.9204260311522425,0.0,3.3675570487976074,-1.763961672782898,-0.0,1.900444746017456,5.070311832218923,-0.0,0.28497499227523804,-1.642221752797262,-0.0,-0.0029690819792449474,0.811516284942627,0.0,0.0030985563062131405,0.7850797772407532,0.0,0.04353620111942291
901.0,879.0,0.8291,0.5844,9.3613,-0.0327,0.0279,-0.1176,-1.9203530750670375,0.0,3.3634066581726074,-1.7639328241348267,-0.0,1.9136643409729004,5.070351826935568,-0.0,0.2946012020111084,-1.6422017256366175,-0.0,0.00425758957862854,0.8115121722221375,0.0,0.004052545875310898,0.7850516438484192,0.0,0.03732297569513321
901.0,879.0,0.8291,0.5844,9.3613,-0.0327,0.0279,-0.1176,-1.9203654728331507,0.0,3.3780417442321777,-1.7639657258987427,-0.0,1.8728868961334229,5.070359873562612,-0.0,0.30369430780410767,-1.642221752797262,-0.0,-0.0038201070856302977,0.8114798069000244,0.0,-0.01365232840180397,0.7850956916809082,0.0,-0.047476544976234436
901.0,879.0,0.8291,0.5844,9.3613,-0.0327,0.0279,-0.1176,-1.9204217396178187,0.0,3.4135255813598633,-1.7639131546020508,-0.0,1.934466004371643,5.070319968252935,-0.0,0.29537853598594666,-1.6421616713153284,-0.0,0.009664105251431465,0.8115404844284058,0.0,-0.0004993628244847059,0.7850357294082642,0.0,0.02213132753968239
901.0,879.0,0.8291,0.5844,9.3613,-0.0327,0.0279,-0.1176,-1.9203530750670375,0.0,3.4130477905273438,-1.763961672782898,-0.0,1.9278979301452637,5.070299732476034,-0.0,0.28635454177856445,-1.642165486012594,-0.0,0.0024147224612534046,0.8115363717079163,0.0,0.005444517359137535,0.7851036190986633,0.0,-0.02345014363527298
901.0,879.0,0.8291,0.5844,9.3613,-0.0327,0.0279,-0.1176,-1.9203692875304164,0.0,3.4204797744750977,-1.7638530731201172,-0.0,1.9079982042312622,5.070388036757269,-0.0,0.2926071882247925,-1.642233673726217,-0.0,-0.011553832329809666,0.811495840549469,0.0,0.002212728140875697,0.7850397825241089,0.0,-0.011205620132386684
901.0,879.0,0.8291,0.5844,9.3613,-0.0327,0.0279,-0.1176,-1.920406003991598,0.0,3.380302906036377,-1.763961672782898,-0.0,1.9073041677474976,5.070363986283102,-0.0,0.29602986574172974,-1.642176930104391,-0.0,-0.005916430149227381,0.8115523457527161,0.0,-0.0007892498979344964,0.7850437164306641,0.0,0.029417414218187332
901.0,879.0,0.8291,0.5844,9.3613,-0.0327,0.0279,-0.1176,-1.920361181298727,0.0,3.3810720443725586,-1.7639532089233398,-0.0,1.9113589525222778,5.070347714215078,-0.0,0.2996513843536377,-1.6421778837787073,-0.0,-0.0006898860447108746,0.811471700668335,0.0,-0.007937923073768616,0.7850956916809082,0.0,-0.013494747690856457
901.0,879.0,0.8291,0.5844,9.3613,-0.0327,0.0279,-0.1176,-1.9204098186888636,0.0,3.398644208908081,-1.7639049291610718,-0.0,1.9542020559310913,5.070351826935568,-0.0,0.29677820205688477,-1.6421850363360804,-0.0,0.0015335665084421635,0.8115565180778503,0.0,0.0010822819313034415,0.7850677371025085,0.0,0.005274563562124968
901.0,879.0,0.8291,0.5844,9.3613,-0.0327,0.0279,-0.1176,-1.9204217396178187,0.0,3.378572940826416,-1.7638922929763794,-0.0,1.934532880783081,5.0703599629695795,-0.0,0.2875966429710388,-1.6422017256366175,-0.0,-0.001502340892329812,0.8115079998970032,0.0,0.006340659223496914,0.7850916385650635,0.0,-0.03233862295746803
901.0,879.0,0.8291,0.5844,9.3613,-0.0327,0.0279,-0.1176,-1.9204098186888636,0.0,3.4223883152008057,-1.7639862298965454,-0.0,1.8982869386672974,5.070323961764135,-0.0,0.2852868139743805,-1.6422579924212855,-0.0,0.00020926527213305235,0.8114880323410034,0.0,-0.004561406560242176,0.7850437164306641,0.0,0.010536414571106434
914.0,893.0,0.9188,0.4379,9.4229,-0.0354,0.0246,-0.1208,-1.920389314691061,0.0,3.3733391761779785,-1.7638965845108032,-0.0,1.9145030975341797,5.070359873562612,-0.0,0.2978368401527405,-1.6422093550311487,-0.0,-0.0022476701997220516,0.8114999532699585,0.0,-0.0029178494587540627,0.7850677371025085,0.0,0.04942135885357857
914.0,893.0,0.9188,0.4379,9.4229,-0.0354,0.0246,-0.1208,-1.9203974209227503,0.0,3.4051618576049805,-1.7639296054840088,-0.0,1.9119595289230347,5.070376115828314,-0.0,0.28395625948905945,-1.6421974341021937,-0.0,0.011298188008368015,0.8115485310554504,0.0,-0.011475837789475918,0.785051703453064,0.0,0.0037595992907881737
914.0,893.0,0.9188,0.4379,9.4229,-0.0354,0.0246,-0.1208,-1.9203492603697718,0.0,3.41043758392334,-1.7639491558074951,-0.0,1.8828966617584229,5.0703239915664575,-0.0,0.3042547106742859,-1.6421697775470179,-0.0,-0.000815001199953258,0.811564564704895,0.0,-0.0003222079249098897,0.7850797772407532,0.0,0.00167132169008255
914.0,893.0,0.9188,0.4379,9.4229,-0.0354,0.0246,-0.1208,-1.920361181298727,0.0,3.401197910308838,-1.763978123664856,-0.0,1.8749558925628662,5.070355820446768,-0.0,0.2974528968334198,-1.6421893278705042,-0.0,0.0012724250555038452,0.8115122318267822,0.0,-0.0015371055342257023,0.7850437164306641,0.0,0.024193808436393738
914.0,893.0,0.9188,0.4379,9.4229,-0.0354,0.0246,-0.1208,-1.920417924920553,0.0,3.438962936401367,-1.7640130519866943,-0.0,1.8881397247314453,5.070335912495413,-0.0,0.2864598035812378,-1.6422179380999964,-0.0,0.0006062686443328857,0.811528205871582,0.0,-0.0017072067130357027,0.7850956320762634,0.0,-0.008325356058776379
914.0,893.0,0.9188,0.4379,9.4229,-0.0354,0.0246,-0.1208,-1.9204098186888636,0.0,3.3720266819000244,-1.7639657258987427,-0.0,1.881775140762329,5.070287811547079,-0.0,0.2904528081417084,-1.6421812216388147,-0.0,-0.008929879404604435,0.8115162253379822,0.0,0.010496837086975574,0.7850916981697083,0.0,0.014002231881022453
914.0,893.0,0.9188,0.4379,9.4229,-0.0354,0.0246,-0.1208,-1.9203692875304164,0.0,3.4047327041625977,-1.7639451026916504,-0.0,1.9325015544891357,5.070355820446768,-0.0,0.299731969833374,-1.642221752797262,-0.0,-0.004643846303224564,0.8115363121032715,0.0,-0.001503749517723918,0.7850677371025085,0.0,0.011877605691552162
914.0,893.0,0.9188,0.4379,9.4229,-0.0354,0.0246,-0.1208,-1.9203654728331507,0.0,3.391509532928467,-1.7639697790145874,-0.0,1.8977569341659546,5.070355820446768,-0.0,0.28583499789237976,-1.6422298590289515,-0.0,-0.006982759572565556,0.8114798665046692,0.0,0.007915190421044827,0.7851036190986633,0.0,0.03100021928548813
914.0,893.0,0.9188,0.4379,9.4229,-0.0354,0.0246,-0.1208,-1.9203854999937953,0.0,3.422281503677368,-1.7639491558074951,-0.0,1.9246826171875,5.0703399060066126,-0.0,0.2850465774536133,-1.6422093550311487,-0.0,0.010225384496152401,0.811524510383606,0.0,0.0041711460798978806,0.7850877046585083,0.0,0.0007725236937403679
914.0,893.0,0.9188,0.4379,9.4229,-0.0354,0.0246,-0.1208,-1.9204017124571742,0.0,3.3863601684570312,-1.7639451026916504,-0.0,1.8196793794631958,5.0703599629695795,-0.0,0.29069411754608154,-1.6422212759601038,-0.0,0.012207217514514923,0.8115040063858032,0.0,-0.006647330243140459,0.7850639224052429,0.0,0.023562069982290268
914.0,893.0,0.9188,0.4379,9.4229,-0.0354,0.0246,-0.1208,-1.920361181298727,0.0,3.3581337928771973,-1.7639451026916504,-0.0,1.9139950275421143,5.0703239915664575,-0.0,0.3045557141304016,-1.6421778837787073,-0.0,-0.0027583958581089973,0.8114962577819824,0.0,-0.006404106505215168,0.7850637435913086,0.0,-0.01880551688373089
914.0,893.0,0.9188,0.4379,9.4229,-0.0354,0.0246,-0.1208,-1.920394083062643,0.0,3.390312671661377,-1.7639213800430298,-0.0,1.9036588668823242,5.0703399060066126,-0.0,0.2869560122489929,-1.642193619404928,-0.0,0.0013752925442531705,0.8114563226699829,0.0,0.0007712151855230331,0.7850318551063538,0.0,0.0076328180730342865
914.0,893.0,0.9188,0.4379,9.4229,-0.0354,0.0246,-0.1208,-1.9204260311522425,0.0,3.405174732208252,-1.7639739513397217,-0.0,1.9124000072479248,5.070315885334768,-0.0,0.29698318243026733,-1.642237965260641,-0.0,-0.000808047829195857,0.8114685416221619,0.0,0.0017865500412881374,0.7850956320762634,0.0,0.03517111390829086
914.0,893.0,0.9188,0.4379,9.4229,-0.0354,0.0246,-0.1208,-1.9203974209227503,0.0,3.3542346954345703,-1.7640172243118286,-0.0,1.8936877250671387,5.070399898081579,-0.0,0.28969499468803406,-1.6422537008868616,-0.0,7.677621761104092e-05,0.811524510383606,0.0,-0.0017833069432526827,0.7850518226623535,0.0,0.03232908993959427
890.0,881.0,0.7113,0.4726,9.6317,-0.049,0.0249,-0.1101,-1.9203854999937953,0.0,3.388223171234131,-1.7639049291610718,-0.0,1.9827563762664795,5.070343929320135,-0.0,0.3020802438259125,-1.6422212759601038,-0.0,0.006490176077932119,0.8114999532699585,0.0,-0.008160087279975414,0.7850518226623535,0.0,-0.023181041702628136
890.0,881.0,0.7113,0.4726,9.6317,-0.049,0.0249,-0.1101,-1.9203573666014613,0.0,3.4265859127044678,-1.7639296054840088,-0.0,1.8972856998443604,5.0703477440174005,-0.0,0.285982608795166,-1.6421731154071253,-0.0,-0.009041253477334976,0.811495840549469,0.0,-0.01565018855035305,0.7851195931434631,0.0,-0.013262955471873283
890.0,881.0,0.7113,0.4726,9.6317,-0.049,0.0249,-0.1101,-1.9203692875304164,0.0,3.3782148361206055,-1.7639657258987427,-0.0,1.916627287864685,5.070384013443746,-0.0,0.2931349277496338,-1.6422374884234827,-0.0,-0.0008963689324446023,0.8115203380584717,0.0,-0.007752644829452038,0.7850437164306641,0.0,0.021096494048833847
890.0,881.0,0.7113,0.4726,9.6317,-0.049,0.0249,-0.1101,-1.9203492603697718,0.0,3.364932060241699,-1.7639904022216797,-0.0,1.926877737045288,5.070343720703878,-0.0,0.2919844686985016,-1.6421697775470179,-0.0,-7.928227569209412e-05,0.811528205871582,0.0,-0.01107257790863514,0.7850757837295532,0.0,-0.009488238021731377
890.0,881.0,0.7113,0.4726,9.6317,-0.049,0.0249,-0.1101,-1.920389791528219,0.0,3.399484634399414,-1.7639296054840088,-0.0,1.9204199314117432,5.070343750506201,-0.0,0.3041802942752838,-1.642249886189596,-0.0,0.0016664214199408889,0.811508059501648,0.0,0.005358617752790451,0.785047709941864,0.0,-0.025689221918582916
890.0,881.0,0.7113,0.4726,9.6317,-0.049,0.0249,-0.1101,-1.9203854999937953,0.0,3.4130544662475586,-1.763961672782898,-0.0,1.9443278312683105,5.070355820446768,-0.0,0.28018271923065186,-1.6421812216388147,-0.0,-0.002164695179089904,0.8115565180778503,0.0,0.0031610855367034674,0.7850158214569092,0.0,0.0140004251152277
890.0,881.0,0.7113,0.4726,9.6317,-0.049,0.0249,-0.1101,-1.9203854999937953,0.0,3.4215707778930664,-1.763969898223877,-0.0,1.8935465812683105,5.070331799774923,-0.0,0.2966674268245697,-1.6422179380999964,-0.0,-0.002461933996528387,0.8114921450614929,0.0,-2.278480678796768e-06,0.7850837111473083,0.0,-0.04152054339647293
890.0,881.0,0.7113,0.4726,9.6317,-0.049,0.0249,-0.1101,-1.9204217396178187,0.0,3.384932518005371,-1.763953447341919,-0.0,1.8725841045379639,5.070392000466146,-0.0,0.29266488552093506,-1.6421778837787073,-0.0,0.0032581763807684183,0.8115121722221375,0.0,-0.0005665890639647841,0.7851076722145081,0.0,-0.01846921630203724
890.0,881.0,0.7113,0.4726,9.6317,-0.049,0.0249,-0.1101,-1.9203573666014613,0.0,3.3990917205810547,-1.7639213800430298,-0.0,1.9334230422973633,5.070343750506201,-0.0,0.28377655148506165,-1.6422255674945276,-0.0,0.0018992000259459019,0.8115203976631165,0.0,0.0023849152494221926,0.7850677371025085,0.0,0.01444757729768753
890.0,881.0,0.7113,0.4726,9.6317,-0.049,0.0249,-0.1101,-1.9204260311522425,0.0,3.3798184394836426,-1.7639822959899902,-0.0,1.9180853366851807,5.070343720703878,-0.0,0.29303038120269775,-1.6422699133502405,-0.0,0.0017219046130776405,0.8114917278289795,0.0,-0.00705780228599906,0.7850837707519531,0.0,-0.0036906301975250244
890.0,881.0,0.7113,0.4726,9.6317,-0.049,0.0249,-0.1101,-1.9203411541380824,0.0,3.4000601768493652,-1.7639968395233154,-0.0,1.918396234512329,5.070367949991979,-0.0,0.2893475592136383,-1.642233673726217,-0.0,-0.0022878937888890505,0.8115002512931824,0.0,0.010844603180885315,0.7851037383079529,0.0,-0.034227993339300156
890.0,881.0,0.7113,0.4726,9.6317,-0.049,0.0249,-0.1101,-1.9203854999937953,0.0,3.389348030090332,-1.76388418674469,-0.0,1.9042587280273438,5.070415782719412,8.653776603750885e-05,0.29891258478164673,-1.642257038746969,-0.0,-0.008519884198904037,0.8115040063858032,0.0,0.004996059462428093,0.7850797772407532,0.0,-0.024748405441641808
890.0,881.0,0.7113,0.4726,9.6317,-0.049,0.0249,-0.1101,-1.9203735790648402,0.0006183383520692587,3.4218788146972656,-1.7638883590698242,-0.0,1.897084355354309,5.07037581780509,0.00011005809210473672,0.29578301310539246,-1.6422494093524378,-0.0,0.001238795928657055,0.8115523457527161,0.0,0.003416675142943859,0.785111665725708,0.0,0.007889840751886368
893.0,896.0,0.9015,0.588,9.6156,-0.0686,0.0122,-0.0948,-1.9203249416747035,0.0008251217077486217,3.4063501358032227,-1.7639254331588745,-0.0,1.904442548751831,5.070435631066122,0.00010544812539592385,0.28499898314476013,-1.6422212759601038,-0.0,-0.012411905452609062,0.8115322589874268,0.0,-0.002479403978213668,0.785111665725708,0.000951213703956455,0.023897115141153336
893.0,896.0,0.9015,0.588,9.6156,-0.0686,0.0122,-0.0948,-1.9203492603697718,0.0006975145079195499,3.4062552452087402,-1.7639697790145874,-0.0,1.9641838073730469,5.070367949991979,0.00010101014049723744,0.30275195837020874,-1.642245117818014,-0.0,-0.0036183218471705914,0.811468243598938,0.0,0.005741977598518133,0.785111665725708,0.0013407107908278704,-0.014233124442398548
893.0,896.0,0.9015,0.588,9.6156,-0.0686,0.0122,-0.0948,-1.9203573666014613,0.00045981109724380076,3.3809754848480225,-1.763961672782898,-0.0,1.9205536842346191,5.070399510651388,8.369445276912302e-05,0.28815871477127075,-1.6422293821917933,-0.0,-0.010684278793632984,0.8115769624710083,0.0,-0.004689380060881376,0.7851317524909973,0.0015801554545760155,0.022694043815135956
893.0,896.0,0.9015,0.588,9.6156,-0.0686,0.0122,-0.0948,-1.9203454456725062,0.00030607113149017096,3.411559581756592,-1.763978123664856,-0.0,1.8721802234649658,5.070383924036779,8.057203376665711e-05,0.28632980585098267,-1.6422737280475062,-0.0,-0.0033236152958124876,0.8115605115890503,0.0,-0.005524465814232826,0.7851036787033081,0.0013578708749264479,-0.05560644716024399
893.0,896.0,0.9015,0.588,9.6156,-0.0686,0.0122,-0.0948,-1.920373102227682,0.00020295634749345481,3.382600784301758,-1.763961672782898,-0.0,1.964503288269043,5.0703477440174005,4.214353612042032e-05,0.28430497646331787,-1.6422694365130823,-0.0,-0.006186134181916714,0.8114962577819824,0.0,-0.020395547151565552,0.7850997447967529,0.0011686974903568625,0.025322675704956055
893.0,896.0,0.9015,0.588,9.6156,-0.0686,0.0122,-0.0948,-1.9203978977599085,-0.0001041726500261575,3.4209847450256348,-1.763928771018982,-0.0,1.8756978511810303,5.0703239915664575,1.4851531116022443e-09,0.28692078590393066,-1.6422255674945276,-4.398969394969754e-05,-0.00011629721848294139,0.8115122318267822,0.0,-0.007124288007616997,0.7851836681365967,0.0007896419847384095,-0.05544024705886841
893.0,896.0,0.9015,0.588,9.6156,-0.0686,0.0122,-0.0948,-1.9204260311522425,-0.00013328492059372365,3.365126132965088,-1.7639575004577637,-0.0,1.9332787990570068,5.070368069201269,4.133977502766145e-13,0.3019722104072571,-1.6422575155841272,-4.9080590542871505e-05,-0.003682637820020318,0.8115565180778503,0.0,0.014937804080545902,0.7851676344871521,0.0005940910195931792,0.03712765872478485
893.0,896.0,0.9015,0.588,9.6156,-0.0686,0.0122,-0.0948,-1.9204260311522425,-0.0001160908504971303,3.3508524894714355,-1.7639254331588745,-0.0,1.9248508214950562,5.070287811547079,1.150707890781462e-16,0.2925897538661957,-1.642205540333883,-4.5371205487754196e-05,-0.005463282577693462,0.8114756941795349,0.0,0.011692416854202747,0.785135805606842,0.00047618563985452056,0.014377497136592865
893.0,896.0,0.9015,0.588,9.6156,-0.0686,0.0122,-0.0948,-1.9204098186888636,-0.00010282666335115209,3.3897833824157715,-1.7638964653015137,-0.0,1.982120394706726,5.070351826935568,3.203037525378817e-20,0.2961982488632202,-1.6422374884234827,-4.2181334720226005e-05,0.0019355758558958769,0.8115203380584717,0.0,-0.009042804129421711,0.7851357460021973,0.0003973370185121894,0.04751858487725258
893.0,896.0,0.9015,0.588,9.6156,-0.0686,0.0122,-0.0948,-1.9203573666014613,-8.923283166950569e-05,3.375415325164795,-1.7639368772506714,-0.0,1.8676072359085083,5.070359992771902,5.821361579185459e-25,0.3051644563674927,-1.6422131697284144,-3.856617331621237e-05,0.0010621207766234875,0.8115240335464478,0.0,-0.012686006724834442,0.785155713558197,0.0002864571288228035,0.01793469488620758
893.0,896.0,0.9015,0.588,9.6156,-0.0686,0.0122,-0.0948,-1.920373102227682,-5.4124124289955944e-05,3.3701610565185547,-1.763969898223877,-0.0,1.9621684551239014,5.07033588269309,1.6203975291147282e-28,0.281707763671875,-1.6422093550311487,-3.623693191912025e-05,-0.005900768097490072,0.8115404844284058,0.0,-0.00047000101767480373,0.7851278185844421,0.0002507838362362236,-0.0006103708292357624
893.0,896.0,0.9015,0.588,9.6156,-0.0686,0.0122,-0.0948,-1.920406003991598,-4.964415347785689e-05,3.3889310359954834,-1.7639451026916504,-0.0,1.9216396808624268,5.07033588269309,4.510435888547237e-32,0.2936161756515503,-1.642249886189596,-1.766412788128946e-05,-0.014613724313676357,0.811495840549469,0.0,0.0019671074114739895,0.7851437330245972,7.241743878694251e-05,0.030127620324492455
893.0,896.0,0.9015,0.588,9.6156,-0.0686,0.0122,-0.0948,-1.9203773937621058,-6.706729618599638e-05,3.385439872741699,-1.764029860496521,-0.0,1.9316613674163818,5.070368069201269,8.19749467439524e-37,0.29279789328575134,-1.6422017256366175,-1.5880508726695552e-05,-0.00849299319088459,0.8115203380584717,0.0,0.0030753384344279766,0.7851278781890869,1.4840577478025807e-07,0.02896016277372837
893.0,896.0,0.9015,0.588,9.6156,-0.0686,0.0122,-0.0948,-1.9204136333861292,-8.293574501294643e-05,3.378756523132324,-1.7639368772506714,-0.0,1.869490146636963,5.0703599629695795,2.281804354383316e-40,0.28645652532577515,-1.642237965260641,-1.5082112440722995e-05,-0.0022056750021874905,0.8115404844284058,0.0,-0.00019029207760468125,0.7851357460021973,3.5838254022410587e-13,0.015417071059346199
893.0,892.0,0.5575,0.3601,9.7717,-0.024,0.0267,-0.104,-1.9204017124571742,-9.72697016550228e-05,3.3935763835906982,-1.7639904022216797,-0.0,1.9186630249023438,5.070395874768057,6.305843089461677e-44,0.29230988025665283,-1.6421850363360804,-1.4360171917360276e-05,-0.004815682768821716,0.8115605711936951,0.0,-0.0061811963096261024,0.785111665725708,8.654515194600772e-19,-0.0049057588912546635
893.0,892.0,0.5575,0.3601,9.7717,-0.024,0.0267,-0.104,-1.9204055271544398,-0.0001558073126943782,3.3957881927490234,-1.7639254331588745,-0.0,1.9193165302276611,5.070343750506201,0.0,0.2923952043056488,-1.6421616713153284,-3.934429226859493e-09,-0.004780670627951622,0.8115441799163818,0.0,-0.006340323481708765,0.7851195931434631,2.803953086016017e-26,0.0016721324063837528
893.0,892.0,0.5575,0.3601,9.7717,-0.024,0.0267,-0.104,-1.9204660854735316,-0.00018839277618099004,3.374163866043091,-1.7639132738113403,-0.0,1.8774774074554443,5.070395427733221,0.0,0.27685871720314026,-1.6422017256366175,-1.0951629143482466e-12,0.011218827217817307,0.8115363121032715,0.0,-0.012758314609527588,0.7851076722145081,6.77121715370971e-32,-0.03672356158494949
893.0,892.0,0.5575,0.3601,9.7717,-0.024,0.0267,-0.104,-1.920457502404684,-0.0005663722986355424,3.403158664703369,-1.7639575004577637,-0.0,1.9295891523361206,5.0703914044196985,8.215576963266358e-05,0.28144222497940063,-1.642209831868307,-3.048426313845108e-16,0.013375258073210716,0.8115522861480713,0.0,0.00418021809309721,0.785155713558197,5.8048237406183034e-05,-0.031097976490855217
893.0,892.0,0.5575,0.3601,9.7717,-0.024,0.0267,-0.104,-1.9204780064024867,-0.0013071992434561253,3.422348737716675,-1.763961672782898,-0.0,1.9225120544433594,5.070443558483877,0.00010824716446222737,0.2807829976081848,-1.6421812216388147,-8.485406777911343e-20,-0.006188348866999149,0.8115322589874268,0.0,0.003950274083763361,0.7852116823196411,0.0020980588160455227,-0.0032388840336352587
893.0,892.0,0.5575,0.3601,9.7717,-0.024,0.0267,-0.104,-1.9205295048155726,-0.0022336584515869617,3.369899272918701,-1.763953447341919,-0.0,1.9207077026367188,5.070403444557943,8.260140020865947e-05,0.2882288098335266,-1.6422017256366175,-1.5421807670410356e-24,-0.012418420985341072,0.8115400671958923,0.0,-0.000999881885945797,0.7852197885513306,0.005885918624699116,-0.015013577416539192
893.0,892.0,0.5575,0.3601,9.7717,-0.024,0.0267,-0.104,-1.920509477654928,-0.0032330816611647606,3.3752589225769043,-1.7639213800430298,-0.0,1.8937208652496338,5.070395874768057,0.00014002695388626307,0.29871517419815063,-1.6421735922442835,-4.292716808624376e-28,-0.00556559581309557,0.8115404844284058,0.0,0.010375932790338993,0.7852919101715088,0.009198020212352276,0.014923220500349998
893.0,892.0,0.5575,0.3601,9.7717,-0.024,0.0267,-0.104,-1.9205295048155726,-0.003046975005418062,3.404452323913574,-1.7640215158462524,-0.0,1.8871415853500366,5.070384013443746,2.1759085484518437e-06,0.28130197525024414,-1.6422017256366175,-1.1948934165444726e-31,-0.011976415291428566,0.8115646243095398,0.0,-0.0032364376820623875,0.7853602170944214,0.009597456082701683,0.022078726440668106
893.0,892.0,0.5575,0.3601,9.7717,-0.024,0.0267,-0.104,-1.9204770527281703,-0.0012259002542123199,3.3483710289001465,-1.7639409303665161,-0.0,1.904220700263977,5.070355939656057,3.954606087042123e-11,0.2802840769290924,-1.642249886189596,-2.1716596270151092e-36,-0.004013818223029375,0.8115441799163818,0.0,-0.00356158590875566,0.7854524850845337,0.011089164763689041,-0.015035800635814667
893.0,892.0,0.5575,0.3601,9.7717,-0.024,0.0267,-0.104,-1.9205337963499964,-0.0005390107980929315,3.3965272903442383,-1.7639532089233398,-0.0,1.9240282773971558,5.0703718838985345,1.1007791154830394e-14,0.2792946696281433,-1.6422179380999964,-6.044893289435109e-40,0.012045202776789665,0.811495840549469,0.0,0.0058384910225868225,0.78547203540802,0.009874116629362106,0.025804337114095688
893.0,892.0,0.5575,0.3601,9.7717,-0.024,0.0267,-0.104,-1.920481344262594,-0.00037180082290433347,3.3822708129882812,-1.7639254331588745,-0.0,1.9284336566925049,5.070375907212057,3.064058968631176e-18,0.29264146089553833,-1.6421893278705042,-1.6815581571897805e-43,-0.007895505987107754,0.8115404844284058,0.0,0.004038085229694843,0.7855404019355774,0.008404246531426907,-0.014337177388370037
893.0,892.0,0.5575,0.3601,9.7717,-0.024,0.0267,-0.104,-1.9205171070494593,-0.0002630787785165012,3.369529962539673,-1.7639296054840088,-0.0,1.9069044589996338,5.070395874768057,5.568776127056652e-23,0.2976759672164917,-1.6422503630267542,-0.0,0.0025666358415037394,0.8115203380584717,0.0,-0.0005434232298284769,0.7855519652366638,0.004740052856504917,0.014118591323494911
893.0,892.0,0.5575,0.3601,9.7717,-0.024,0.0267,-0.104,-1.9205576382079066,-6.483294419012964e-05,3.398085117340088,-1.7639697790145874,-0.0,1.8866431713104248,5.070375907212057,1.5500891838975378e-26,0.2736598253250122,-1.642233673726217,-0.0,0.009570354595780373,0.8115686178207397,0.0,-0.005876390729099512,0.785568118095398,0.002629720838740468,-0.06181303411722183
893.0,892.0,0.5575,0.3601,9.7717,-0.024,0.0267,-0.104,-1.920565744439596,-0.00013749737991020083,3.4064276218414307,-1.7639296054840088,-0.0,1.903258204460144,5.070399957686224,4.3147293152017164e-30,0.2871914803981781,-1.6422179380999964,-0.0,0.0007026544772088528,0.811516284942627,0.0,-0.007060333155095577,0.7855519652366638,0.0011796476319432259,0.01756632700562477
882.0,881.0,0.9673,0.6437,9.548,-0.0212,0.0275,-0.1153,-1.9205576382079066,-0.0008931640768423676,3.402362823486328,-1.763969898223877,-0.0,1.9301446676254272,5.070368069201269,1.2010208534988666e-33,0.2847144901752472,-1.6421850363360804,-0.0,0.0022542220540344715,0.8114922046661377,0.0,0.0050324006006121635,0.785564124584198,0.00024200824555009604,0.007003909908235073
882.0,881.0,0.9673,0.6437,9.548,-0.0212,0.0275,-0.1153,-1.9206258259215296,-0.002165911253541708,3.4286892414093018,-1.7639368772506714,-0.0,1.952206015586853,5.0703718838985345,2.182796592295371e-38,0.29921481013298035,-1.6421616713153284,-0.0,-0.0010507424594834447,0.8114999532699585,0.0,0.0024632925633341074,0.7855643033981323,5.984578610451763e-09,0.08781268447637558
882.0,881.0,0.9673,0.6437,9.548,-0.0212,0.0275,-0.1153,-1.9205810032286585,-0.0020999936386942863,3.360849142074585,-1.7639493942260742,-0.0,1.968675136566162,5.070307808905401,6.076030141312407e-42,0.2909022867679596,-1.642176930104391,-0.0,0.00017050036694854498,0.8115359544754028,0.0,-0.005215178243815899,0.7854999899864197,-0.0013311676448211074,0.023080583661794662
882.0,881.0,0.9673,0.6437,9.548,-0.0212,0.0275,-0.1153,-1.9206134281554164,-0.001128156902268529,3.3542754650115967,-1.7639895677566528,-0.0,1.872727870941162,5.070395874768057,1.401298464324817e-45,0.29359719157218933,-1.642209831868307,-0.0,-0.0136487428098917,0.8114482760429382,0.0,-0.015019259415566921,0.785487711429596,-0.0014842062955722213,-0.003538158256560564
882.0,881.0,0.9673,0.6437,9.548,-0.0212,0.0275,-0.1153,-1.9206177196898402,-0.0005627890350297093,3.3496253490448,-1.763961672782898,-0.0,1.9174867868423462,5.070335733681478,0.0,0.28328531980514526,-1.642209831868307,-0.0,-0.0031491878908127546,0.8114922046661377,0.0,-0.020896853879094124,0.7854761481285095,-0.0008500568219460547,-0.04555884376168251
882.0,881.0,0.9673,0.6437,9.548,-0.0212,0.0275,-0.1153,-1.9205452404417933,-0.00040917875594459474,3.3960814476013184,-1.7639409303665161,-0.0,1.8825836181640625,5.070391851454534,0.0,0.2967928349971771,-1.642176930104391,-0.0,0.000567822193261236,0.8114961981773376,0.0,0.005467232316732407,0.785520076751709,-0.0006909696967341006,0.015273031778633595
882.0,881.0,0.9673,0.6437,9.548,-0.0212,0.0275,-0.1153,-1.9205452404417933,-0.0002574906393419951,3.4207019805908203,-1.7639575004577637,-0.0,1.9362270832061768,5.070391851454534,0.0,0.30248695611953735,-1.6422060171710413,-0.0,-0.004346789326518774,0.8114999532699585,0.0,-0.0037585003301501274,0.7854315638542175,-0.0005367348785512149,0.030931256711483
882.0,881.0,0.9673,0.6437,9.548,-0.0212,0.0275,-0.1153,-1.9205695591368617,-0.00016101368237286806,3.3809871673583984,-1.7639296054840088,-0.0,1.8977324962615967,5.070411669998922,0.0,0.28661295771598816,-1.642193619404928,-0.0,-0.0065613738261163235,0.811572790145874,0.0,-0.0029705895576626062,0.7854918837547302,-0.00032352155540138483,0.02871762029826641
882.0,881.0,0.9673,0.6437,9.548,-0.0212,0.0275,-0.1153,-1.9205776653685511,8.890567551134154e-05,3.427987575531006,-1.7639657258987427,-0.0,1.9107565879821777,5.070371913700857,0.0,0.28995564579963684,-1.642237965260641,-0.0,-0.010279901325702667,0.8115764260292053,0.0,-0.0006821071729063988,0.7855042219161987,-0.0003846096806228161,0.011334681883454323
882.0,881.0,0.9673,0.6437,9.548,-0.0212,0.0275,-0.1153,-1.9206015072264613,8.439879457000643e-05,3.3709280490875244,-1.7638964653015137,0.00037185612018220127,1.8901008367538452,5.0704074678714655,0.0,0.2927689850330353,-1.6421697775470179,-0.0,-0.008865706622600555,0.811540424823761,0.0,-0.0032047987915575504,0.7855286002159119,-0.0004927393747493625,-0.016343776136636734
882.0,881.0,0.9673,0.6437,9.548,-0.0212,0.0275,-0.1153,-1.9205976925291957,7.39902607165277e-05,3.395235061645508,-1.763986349105835,0.0003070472739636898,1.9410055875778198,5.070431697159567,0.0,0.2921940088272095,-1.6421697775470179,-0.0,-0.008063675835728645,0.811528205871582,0.0,-0.006768289487808943,0.7854840755462646,-0.000446766905952245,-0.007973222993314266
882.0,881.0,0.9673,0.6437,9.548,-0.0212,0.0275,-0.1153,-1.920589109460348,3.178891711286269e-05,3.39465069770813,-1.7639740705490112,0.00024120496527757496,1.9143879413604736,5.0703914044196985,0.0,0.29633596539497375,-1.642176930104391,-0.0,-0.004168285988271236,0.8115764260292053,0.0,-0.009528516791760921,0.7854319214820862,-0.0003356672532390803,0.03262025862932205
882.0,881.0,0.9673,0.6437,9.548,-0.0212,0.0275,-0.1153,-1.9205614529051722,9.85493534244597e-06,3.4029529094696045,-1.7639296054840088,0.00020778887846972793,1.935416579246521,5.07039954045371,0.0,0.29151952266693115,-1.642193619404928,-0.0,0.0010876355227082968,0.8115563988685608,0.0,0.005245491862297058,0.7854840755462646,-0.0002829033473972231,0.06055203825235367
897.0,883.0,0.9009,0.9224,9.2949,-0.0134,0.0086,-0.111,-1.9206134281554164,2.3798504833472123e-11,3.3829128742218018,-1.7639089822769165,0.00018250550783704966,1.9323246479034424,5.070399510651388,0.0,0.2917148470878601,-1.6422093550311487,-0.0,0.010427498258650303,0.8115522861480713,0.0,-0.00759447505697608,0.7855281233787537,-0.00020373068400658667,-0.02104363776743412
897.0,883.0,0.9009,0.9224,9.2949,-0.0134,0.0086,-0.111,-1.920605321923727,7.710413636439139e-19,3.398855209350586,-1.763908863067627,0.00012562397751025856,1.908871054649353,5.0704076466854,0.0,0.28536027669906616,-1.6422060171710413,-0.0,-0.010433755815029144,0.8114959597587585,0.0,-0.0025963294319808483,0.7855080366134644,7.538507634308189e-05,-0.04422504082322121
897.0,883.0,0.9009,0.9224,9.2949,-0.0134,0.0086,-0.111,-1.920589109460348,-0.0006860240828245878,3.383150339126587,-1.7639739513397217,0.00011371883738320321,1.930523157119751,5.070431667357244,0.0,0.2970464825630188,-1.6422537008868616,-0.0,-0.005958247929811478,0.8114959597587585,0.0,-0.0035111415199935436,0.7855121493339539,0.000908296147827059,-0.0006302492693066597
897.0,883.0,0.9009,0.9224,9.2949,-0.0134,0.0086,-0.111,-1.9206296406187953,-0.0010682586580514908,3.373326063156128,-1.763961672782898,0.00010387476504547521,1.8863401412963867,5.0704236207302,0.0,0.3043087124824524,-1.6422255674945276,-0.0,-0.003230038098990917,0.8114564418792725,0.0,-0.0056376210413873196,0.7855082154273987,0.0012962609762325883,0.020003192126750946
897.0,883.0,0.9009,0.9224,9.2949,-0.0134,0.0086,-0.111,-1.9206615887083949,-0.0010293506784364581,3.4246363639831543,-1.7639451026916504,9.559956379234791e-05,1.8867030143737793,5.070447641402044,0.0,0.28614866733551025,-1.6422136465655726,-0.0,-0.004809957928955555,0.8115363121032715,0.0,0.0005683203344233334,0.7855600714683533,0.001367285498417914,-0.001956939697265625
897.0,883.0,0.9009,0.9224,9.2949,-0.0134,0.0086,-0.111,-1.9207178554930628,-0.0007111957529559731,3.4299449920654297,-1.7639377117156982,8.641986642032862e-05,1.9193730354309082,5.070419567614355,0.0,0.29132118821144104,-1.642249886189596,-0.0,-0.00783710740506649,0.8114880919456482,0.0,-0.0069285049103200436,0.7855516672134399,0.002209626603871584,-0.00043935980647802353
897.0,883.0,0.9009,0.9224,9.2949,-0.0134,0.0086,-0.111,-1.9206491909422816,-0.0006841355352662504,3.4141664505004883,-1.7639377117156982,8.061435801209882e-05,1.8923923969268799,5.07043148854331,0.00016443799540866166,0.30009925365448,-1.6422255674945276,-0.0,0.006536346860229969,0.8115322589874268,0.0,-0.006504664197564125,0.7856201529502869,0.0026331059634685516,-0.03989941254258156
897.0,883.0,0.9009,0.9224,9.2949,-0.0134,0.0086,-0.111,-1.9206372700133265,-0.0007594324415549636,3.3832297325134277,-1.7639862298965454,7.553971954621375e-05,1.934321403503418,5.070399570256033,0.00015081260062288493,0.283234179019928,-1.6421492735492151,-0.0,-0.0004267018521204591,0.8115684986114502,0.0,0.0009056197013705969,0.7856197953224182,0.003183453343808651,-0.021754097193479538
897.0,883.0,0.9009,0.9224,9.2949,-0.0134,0.0086,-0.111,-1.9206649265685023,-0.0019858444575220346,3.4021191596984863,-1.7639451026916504,6.969047535676509e-05,1.949760913848877,5.0704797981079,0.00013298429257702082,0.27656492590904236,-1.6422017256366175,-0.0,-0.006181134842336178,0.8115363121032715,0.0,-0.011705826967954636,0.7856521606445312,0.0034172660671174526,-0.011017014272511005
897.0,883.0,0.9009,0.9224,9.2949,-0.0134,0.0086,-0.111,-1.920701643029684,-0.0034999074414372444,3.411342144012451,-1.7639532089233398,6.58652643323876e-05,1.9195976257324219,5.070383357792654,0.00014336316962726414,0.28283435106277466,-1.6422255674945276,-0.0,-0.0018240278586745262,0.811568558216095,0.0,0.011063842102885246,0.7856074571609497,0.0030777091160416603,0.008833937346935272
897.0,883.0,0.9009,0.9224,9.2949,-0.0134,0.0086,-0.111,-1.9207736454405726,-0.004405280575156212,3.38350772857666,-1.7639533281326294,6.243831012398005e-05,1.935626745223999,5.07044334986762,0.00013554454199038446,0.2926267683506012,-1.6421616713153284,-0.0,-0.0008720217738300562,0.8114806413650513,0.0,-0.01417279988527298,0.7856362462043762,0.0022397206630557775,0.0006426684558391571
897.0,883.0,0.9009,0.9224,9.2949,-0.0134,0.0086,-0.111,-1.9207855663695277,-0.004606693517416716,3.3555705547332764,-1.7639130353927612,5.838765355292708e-05,1.943976640701294,5.070423590927877,0.00014368312258739024,0.28899142146110535,-1.6421735922442835,-0.0,-0.00019841402536258101,0.8115000128746033,0.0,-0.00679433811455965,0.7857002019882202,0.0011221978347748518,0.016318008303642273
897.0,883.0,0.9009,0.9224,9.2949,-0.0134,0.0086,-0.111,-1.9207855663695277,-0.003884641919285059,3.4171619415283203,-1.763978123664856,4.176649235887453e-05,1.9357664585113525,5.0704155443008325,0.000197463552467525,0.28789547085762024,-1.6421974341021937,-0.0,-0.010576624423265457,0.8115441799163818,0.0,-0.005283157806843519,0.7857440710067749,0.0008061618427745998,-0.018414676189422607
897.0,883.0,0.9009,0.9224,9.2949,-0.0134,0.0086,-0.111,-1.9208175144591273,-0.0030169133096933365,3.348769187927246,-1.7639296054840088,3.9907321479404345e-05,1.8765804767608643,5.070467489748754,0.00029894773615524173,0.29332056641578674,-1.6421492735492151,-0.0,-0.0006207308615557849,0.8115244507789612,0.0,-0.013695715926587582,0.785667896270752,0.0005824303952977061,-0.0031156749464571476
880.0,892.0,0.6072,0.6694,9.4289,-0.0307,0.0396,-0.1164,-1.9208413563170375,-0.0020563523285090923,3.3917365074157715,-1.7638965845108032,5.095050437375903e-05,1.8989909887313843,5.07051562049941,0.0011075051734223962,0.27939289808273315,-1.6421850363360804,-0.0,-0.009564464911818504,0.811516284942627,0.0,0.0006413664086721838,0.7856881618499756,0.00045593761024065316,0.017076607793569565
880.0,892.0,0.6072,0.6694,9.4289,-0.0307,0.0396,-0.1164,-1.920821329156393,-0.0010963644599542022,3.4234566688537598,-1.7639336585998535,4.825170253752731e-05,1.9518699645996094,5.070495354920187,0.0009060959564521909,0.3033694624900818,-1.6422060171710413,-0.0,-0.01320602186024189,0.8115203380584717,0.0,-0.0061951554380357265,0.7856922745704651,0.0003535662835929543,-0.012173550203442574
880.0,892.0,0.6072,0.6694,9.4289,-0.0307,0.0396,-0.1164,-1.920805116693014,-0.0006583358626812696,3.4132838249206543,-1.763908863067627,1.346888984699035e-05,1.865942358970642,5.070535141020574,0.0008273638086393476,0.29932451248168945,-1.6422537008868616,-0.0,0.00039856950752437115,0.8115203380584717,0.0,-0.008624558337032795,0.7856922745704651,0.00030261153005994856,-0.024683402851223946
880.0,892.0,0.6072,0.6694,9.4289,-0.0307,0.0396,-0.1164,-1.920833250085348,-0.00020826677791774273,3.427452564239502,-1.7639656066894531,3.8494803447974846e-05,1.9448895454406738,5.0705230114753626,0.00110435055103153,0.2954014837741852,-1.642209831868307,-0.0,-0.013985726982355118,0.811540424823761,0.0,-0.0018287200946360826,0.785712480545044,0.00026449435972608626,0.054795265197753906
880.0,892.0,0.6072,0.6694,9.4289,-0.0307,0.0396,-0.1164,-1.9208337269225062,-6.113058771006763e-05,3.387521266937256,-1.763840675354004,0.0005392137682065368,1.9176595211029053,5.070527034788885,0.0016352505190297961,0.29466670751571655,-1.6421974341021937,-0.0,-0.0038169159088283777,0.8115441799163818,0.0,-0.006791525520384312,0.7856476902961731,0.00022646204160992056,-0.027083104476332664
880.0,892.0,0.6072,0.6694,9.4289,-0.0307,0.0396,-0.1164,-1.9208456478514613,-2.979193070018482e-08,3.401942014694214,-1.763908863067627,0.000557903666049242,1.9530012607574463,5.070595311909475,0.002169504528865218,0.30729809403419495,-1.6422455946551722,-0.0,-0.0030506218317896128,0.8115604519844055,0.0,0.008710531517863274,0.7857204675674438,0.0002301811327924952,-0.021290887147188187
880.0,892.0,0.6072,0.6694,9.4289,-0.0307,0.0396,-0.1164,-1.9207569561400355,-7.194400376006951e-14,3.4181952476501465,-1.7639418840408325,0.0008179821888916194,1.8860976696014404,5.070595282107153,0.0026572775095701218,0.2934368848800659,-1.6421812216388147,-0.0,0.005540248937904835,0.8114684224128723,0.0,-0.0019887995440512896,0.7856840491294861,0.00021289569849614054,-0.007580779492855072
880.0,892.0,0.6072,0.6694,9.4289,-0.0307,0.0396,-0.1164,-1.9207893810667933,-2.330894395875347e-21,3.3856027126312256,-1.763829231262207,0.0006501947646029294,1.9290964603424072,5.070622640639105,0.003373332554474473,0.28751277923583984,-1.642221752797262,-0.0,0.0004178467206656933,0.8114684224128723,0.0,-0.007078101858496666,0.7857246398925781,0.00019033989519812167,0.0023718448355793953
880.0,892.0,0.6072,0.6694,9.4289,-0.0307,0.0396,-0.1164,-1.920817037621969,-5.6288361001468655e-27,3.4185945987701416,-1.7639129161834717,0.0005441855173557997,1.9227396249771118,5.070646780520239,0.003302098484709859,0.28656771779060364,-1.6421616713153284,-0.0,0.0012466697953641415,0.811504065990448,0.0,-0.001024280791170895,0.7856678366661072,0.00017638657300267369,0.011389553546905518
880.0,892.0,0.6072,0.6694,9.4289,-0.0307,0.0396,-0.1164,-1.920861383477682,-1.3592975862527374e-32,3.4002132415771484,-1.7638415098190308,0.0004178183735348284,1.9508793354034424,5.0706263957317255,0.0028610483277589083,0.2951635718345642,-1.6421812216388147,-0.0,-0.0016086018877103925,0.8115482330322266,0.0,0.0014081061817705631,0.7857081890106201,0.00016431060794275254,-0.0031226705759763718
880.0,892.0,0.6072,0.6694,9.4289,-0.0307,0.0396,-0.1164,-1.920793195764059,-3.282543894758427e-38,3.3764536380767822,-1.7639169692993164,0.0003390913479961455,1.8940341472625732,5.070734607964315,0.0030999379232525826,0.30016711354255676,-1.6422179380999964,-0.0,0.004532590974122286,0.8115482330322266,0.0,-0.010134498588740826,0.7856960892677307,0.00010186077997786924,-0.028819384053349495
880.0,892.0,0.6072,0.6694,9.4289,-0.0307,0.0396,-0.1164,-1.9208294353880824,-1.401298464324817e-45,3.3951501846313477,-1.763881802558899,0.00036112687666900456,1.9117809534072876,5.0707066533859155,0.002219084184616804,0.2873193919658661,-1.642176930104391,-0.0,0.006367051973938942,0.8115522861480713,0.0,-0.015641378238797188,0.7857205271720886,0.00014835939509794116,-0.03316861391067505
880.0,892.0,0.6072,0.6694,9.4289,-0.0307,0.0396,-0.1164,-1.9207812748351039,0.0,3.3848445415496826,-1.7638777494430542,0.0003421931469347328,1.9559190273284912,5.070702481060781,0.0013826631475239992,0.2820243537425995,-1.642193619404928,-0.0,0.004654975607991219,0.8115203380584717,0.0,0.001860948745161295,0.7857204675674438,0.0008704807842150331,0.02576027810573578
880.0,892.0,0.6072,0.6694,9.4289,-0.0307,0.0396,-0.1164,-1.9208013019957484,0.0,3.3782615661621094,-1.7638250589370728,0.0008034623460844159,1.9238786697387695,5.070738839894094,0.0008185913320630789,0.2917584478855133,-1.6421616713153284,-0.0,0.0019489963306114078,0.8115404844284058,0.0,0.003615160472691059,0.7857282757759094,0.00174916279502213,-0.032157812267541885
909.0,879.0,0.9511,0.8554,9.4774,-0.0394,0.0061,-0.1307,-1.920821329156393,0.0,3.384953737258911,-1.7638859748840332,0.0007622037664987147,1.9329373836517334,5.07073079326705,0.0006605119560845196,0.29510942101478577,-1.6422136465655726,-0.0,-0.0017245144117623568,0.8115244507789612,0.0,0.0026453575119376183,0.7857566475868225,0.001849090214818716,0.04100707918405533
909.0,879.0,0.9511,0.8554,9.4774,-0.0394,0.0061,-0.1307,-1.9208532772459925,0.0,3.4166207313537598,-1.7638611793518066,0.0005737299215979874,1.9315400123596191,5.070674496680059,0.000502476585097611,0.2959177494049072,-1.6422298590289515,-0.0,-0.0063338493928313255,0.8114962577819824,0.0,0.0036002707201987505,0.7858006954193115,0.002141586970537901,-0.016398422420024872
909.0,879.0,0.9511,0.8554,9.4774,-0.0394,0.0061,-0.1307,-1.920861383477682,-0.001159451436251402,3.4048328399658203,-1.763845682144165,0.0004149283922743052,1.8994642496109009,5.07073079326705,0.00040540387271903455,0.29119348526000977,-1.6421616713153284,-0.0,-0.002732367254793644,0.8114922046661377,0.0,-0.010755416937172413,0.7857520580291748,0.0016597388312220573,-0.00019346363842487335
909.0,879.0,0.9511,0.8554,9.4774,-0.0394,0.0061,-0.1307,-1.9209300480284632,-0.0026468944270163774,3.393982172012329,-1.7638933658599854,0.000324997934512794,1.9462171792984009,5.070698606758871,0.00033977997372858226,0.292415976524353,-1.6421893278705042,-0.0,0.002306455746293068,0.8115524053573608,0.0,-0.008615827187895775,0.7858124375343323,0.001327364705502987,0.004048820585012436
909.0,879.0,0.9511,0.8554,9.4774,-0.0394,0.0061,-0.1307,-1.9208976231017054,-0.003443213412538171,3.4026312828063965,-1.7638373374938965,0.0002521436254028231,1.8900718688964844,5.070682573109426,0.00027946976479142904,0.2889803946018219,-1.6421778837787073,-0.0,0.0036241449415683746,0.81158447265625,0.0,0.0011725518852472305,0.7857116460800171,0.0006480863085016608,-0.0013821106404066086
909.0,879.0,0.9511,0.8554,9.4774,-0.0394,0.0061,-0.1307,-1.92091765026235,-0.0034752259962260723,3.3386545181274414,-1.763821005821228,0.00021585584909189492,1.95084810256958,5.070726769953527,0.0002466400619596243,0.30729997158050537,-1.642193619404928,-0.0,0.0014840180519968271,0.811528205871582,0.0,0.003764023073017597,0.7857279777526855,0.0004524488758761436,-0.018597565591335297
909.0,879.0,0.9511,0.8554,9.4774,-0.0394,0.0061,-0.1307,-1.9209453068175257,-0.003173873061314225,3.4091269969940186,-1.7639024257659912,0.00018869918130803853,1.915572166442871,5.070726591139593,0.0002207134384661913,0.3086106479167938,-1.6421778837787073,-0.0,-0.013292779214680195,0.8115201592445374,0.0,-0.0027115996927022934,0.7857443690299988,0.00027805715217255056,-0.008497859351336956
909.0,879.0,0.9511,0.8554,9.4774,-0.0394,0.0061,-0.1307,-1.9209896526732386,-0.0030920470599085093,3.3963584899902344,-1.7639098167419434,0.00016159350343514234,1.9332964420318604,5.070710676699438,0.0001935827312991023,0.28063297271728516,-1.6421578566180628,-0.0,-0.012216841802001,0.8114878535270691,0.0,0.0014021036913618445,0.7857117652893066,-0.000139097377541475,0.004171127453446388
909.0,879.0,0.9511,0.8554,9.4774,-0.0394,0.0061,-0.1307,-1.9209653339781703,-0.003262540092691779,3.406543731689453,-1.7639137506484985,0.0001458777696825564,1.9069740772247314,5.070770430355825,5.818605495733209e-05,0.3063523769378662,-1.6421893278705042,-0.0,0.008760025724768639,0.8115244507789612,0.0,0.00812609028071165,0.7857567071914673,-0.00022098842600826174,0.03109818324446678
909.0,879.0,0.9511,0.8554,9.4774,-0.0394,0.0061,-0.1307,-1.9209772549071253,-0.003407325129956007,3.398545265197754,-1.76389741897583,0.00013294818927533925,1.9470069408416748,5.070754486113348,7.798772276146337e-05,0.29458796977996826,-1.6421735922442835,1.6108293365846293e-08,-0.000421405304223299,0.8115482330322266,0.0,-0.011527149938046932,0.7857040762901306,-0.0002392393653281033,0.026482168585062027
909.0,879.0,0.9511,0.8554,9.4774,-0.0394,0.0061,-0.1307,-1.9210573635497035,-0.0032571391202509403,3.3949432373046875,-1.7638612985610962,0.00011889725283253938,1.9264627695083618,5.070718455105581,7.063280645525083e-05,0.2850273847579956,-1.642165486012594,2.927602821625741e-13,0.006611554883420467,0.8114922046661377,0.0,-0.0017405303660780191,0.785740315914154,-0.0005538760451599956,-0.0025577214546501637
909.0,879.0,0.9511,0.8554,9.4774,-0.0394,0.0061,-0.1307,-1.9210049114623011,-0.0030137058347463608,3.3505568504333496,-1.7638933658599854,0.00011016501957783476,1.9386831521987915,5.070742893009939,6.549258250743151e-05,0.28292930126190186,-1.642125431691305,8.14909090380783e-17,-0.006614891346544027,0.8115643262863159,0.0,-0.004031106363981962,0.7857040166854858,-0.000501585949677974,0.02818516455590725
909.0,879.0,0.9511,0.8554,9.4774,-0.0394,0.0061,-0.1307,-1.9210449657835902,-0.002563674934208393,3.386936902999878,-1.76389741897583,0.0001026276804623194,1.890505313873291,5.0706665990646265,6.104983913246542e-05,0.286883682012558,-1.6421454588519495,2.268329733983718e-20,-0.007517751306295395,0.8115604519844055,0.0,-0.009115666151046753,0.7857081890106201,-0.00046219315845519304,-0.012775439769029617
898.0,896.0,0.8423,0.4199,9.2704,-0.0278,0.0305,-0.1124,-1.921077390710348,-0.0023634741082787514,3.3749780654907227,-1.7638334035873413,9.605573723092675e-05,1.9115420579910278,5.070702510863104,5.7171542721334845e-05,0.2783283591270447,-1.642153565083639,6.313979576516561e-24,0.0053904238156974316,0.811540424823761,0.0,-0.024494655430316925,0.7857043147087097,-0.00042384598054923117,-0.019240036606788635
898.0,896.0,0.8423,0.4199,9.2704,-0.0278,0.0305,-0.1124,-1.9211298427977503,-0.0018857679096981883,3.4030754566192627,-1.7638415098190308,8.849947334965691e-05,1.8748064041137695,5.070722567826071,5.2707200666191056e-05,0.29053881764411926,-1.6421778837787073,1.1475345424840243e-28,0.002335476689040661,0.8115284442901611,0.0,0.009645489044487476,0.7856678366661072,-0.000376554555259645,-0.013146629557013512
898.0,896.0,0.8423,0.4199,9.2704,-0.0278,0.0305,-0.1124,-1.921105524102682,-0.0014495666837319732,3.371960163116455,-1.7639129161834717,6.693335308227688e-05,1.9347538948059082,5.07075850942687,4.97911823913455e-05,0.2995719313621521,-1.6421902815448206,3.1942043010784003e-32,-0.018615597859025,0.8115121722221375,0.0,-3.4113647416234016e-05,0.7857002019882202,-0.00038628981565125287,-0.028800945729017258
898.0,896.0,0.8423,0.4199,9.2704,-0.0278,0.0305,-0.1124,-1.9210769138731898,-0.0011889742454513907,3.396811008453369,-1.7638695240020752,6.332714838208631e-05,1.9335479736328125,5.070722597628393,4.7180921683320776e-05,0.2948383092880249,-1.6421778837787073,8.891185574061646e-36,-0.0008877420914359391,0.8115362524986267,0.0,0.005898256320506334,0.7857246398925781,-0.00031465862412005663,-0.02143513225018978
898.0,896.0,0.8423,0.4199,9.2704,-0.0278,0.0305,-0.1124,-1.921089311639303,-0.0008037714869715273,3.396450996398926,-1.7638819217681885,1.6276133464998566e-05,1.915001392364502,5.07076250293807,4.4098502257838845e-05,0.29976779222488403,-1.6421573797809046,1.6159353501054493e-40,-0.00021702435333281755,0.8115642666816711,0.0,-0.002007891424000263,0.7857205271720886,-0.0002458765811752528,-0.020786907523870468
898.0,896.0,0.8423,0.4199,9.2704,-0.0278,0.0305,-0.1124,-1.9211136303343714,-0.0007294295355677605,3.395145893096924,-1.7638695240020752,1.5417495887959376e-05,1.9131675958633423,5.070734727173605,4.2038682295242324e-05,0.28883031010627747,-1.6421335379229944,4.484155085839415e-44,-0.0021554590202867985,0.811504065990448,0.0,0.00987424235790968,0.7856963872909546,-0.00021124619524925947,-0.02679833397269249
898.0,896.0,0.8423,0.4199,9.2704,-0.0278,0.0305,-0.1124,-1.9210850201048792,-0.0005092493956908584,3.3629188537597656,-1.763829231262207,1.4663909496448468e-05,1.9277421236038208,5.070718425303259,5.3491454309551045e-05,0.298961877822876,-1.6421492735492151,0.0,-0.0016157872742041945,0.8115203380584717,0.0,2.4985289201140404e-05,0.7856923341751099,-0.0001851670240284875,0.004987836815416813
898.0,896.0,0.8423,0.4199,9.2704,-0.0278,0.0305,-0.1124,-1.9211017094054164,-0.000416672439314425,3.3668017387390137,-1.7638859748840332,1.3766708434559405e-05,1.8911504745483398,5.070754247694769,4.3153559090569615e-05,0.2936711609363556,-1.6421454588519495,0.0,-0.010460971854627132,0.8114960789680481,0.0,-0.008356671780347824,0.7857365012168884,-0.00012719756341539323,-0.008865933865308762
898.0,896.0,0.8423,0.4199,9.2704,-0.0278,0.0305,-0.1124,-1.9211212597289027,-0.00039475332596339285,3.359586238861084,-1.7638778686523438,2.5800745788728818e-05,1.9277698993682861,5.070754247694769,6.987473170738667e-05,0.28773096203804016,-1.6421411673175257,0.0,0.0016870468389242887,0.8114606738090515,0.0,0.0018881208961829543,0.7857205271720886,-0.00011500627442728728,-0.030590321868658066
898.0,896.0,0.8423,0.4199,9.2704,-0.0278,0.0305,-0.1124,-1.9211212597289027,-0.0004287039046175778,3.387530565261841,-1.763829231262207,2.521893839002587e-05,1.8947649002075195,5.070746409683981,0.0003503459447529167,0.28138279914855957,-1.64213735262026,0.0,0.00572957843542099,0.8115163445472717,0.0,-0.009224221110343933,0.7856998443603516,-8.77055135788396e-05,-0.018891051411628723
898.0,896.0,0.8423,0.4199,9.2704,-0.0278,0.0305,-0.1124,-1.9211131534972132,-0.00040190090658143163,3.3774309158325195,-1.7638942003250122,4.699208875535987e-05,1.9326926469802856,5.070766466646948,0.0006865513860248029,0.2852211594581604,-1.642125431691305,0.0,-0.0016283950535580516,0.8115441799163818,0.0,2.5261309929192066e-05,0.7857246994972229,-7.238070975290611e-05,0.015538163483142853
898.0,896.0,0.8423,0.4199,9.2704,-0.0278,0.0305,-0.1124,-1.9211093387999476,-0.0004122743266634643,3.381336212158203,-1.7638777494430542,0.00025296927196905017,1.904806137084961,5.07077436426238,0.0015235941391438246,0.2970512807369232,-1.6421416441546839,0.0,-0.007227850612252951,0.8115362524986267,0.0,0.00741190928965807,0.7856960892677307,-6.537089211633429e-05,0.0478600412607193
898.0,896.0,0.8423,0.4199,9.2704,-0.0278,0.0305,-0.1124,-1.9211293659605921,-0.0004210883635096252,3.3940138816833496,-1.763921856880188,0.001094137434847653,1.9419760704040527,5.070822524815359,0.002189665799960494,0.28765183687210083,-1.6421096960650843,0.0,0.0005960993003100157,0.8115400671958923,0.0,-0.00030367542058229446,0.7856961488723755,-6.0944235883653164e-05,-0.029853973537683487
898.0,896.0,0.8423,0.4199,9.2704,-0.0278,0.0305,-0.1124,-1.9211050472655238,-0.0004600854590535164,3.3857107162475586,-1.763862133026123,0.0014929663157090545,1.907909870147705,5.0708422539527795,0.003189834300428629,0.288301944732666,-1.642085377370016,0.0,1.4399527572095394e-05,0.8115322589874268,0.0,-0.004066071473062038,0.7857163548469543,-7.610179454786703e-05,0.01635400392115116
896.0,882.0,0.8758,0.4738,9.4457,-0.0405,0.0316,-0.122,-1.921140810052389,-0.0006420051795430481,3.3626928329467773,-1.7638094425201416,0.002292624209076166,1.9295120239257812,5.070874112635412,0.0037593645974993706,0.29944074153900146,-1.6421178022967737,0.0,-0.0018879103008657694,0.8115362524986267,0.0,-0.011727795004844666,0.7857002019882202,-7.017162715783343e-05,-0.027927201241254807
896.0,882.0,0.8758,0.4738,9.4457,-0.0405,0.0316,-0.122,-1.9211694202818812,-0.0009785785805433989,3.4158406257629395,-1.763833999633789,0.0024958993308246136,1.915834665298462,5.07084612825469,0.003699804889038205,0.2927621006965637,-1.64211351076235,0.0,0.00042750919237732887,0.8115323781967163,0.0,-0.0022110571153461933,0.7856518626213074,-6.629498238908127e-05,-0.011461067013442516
896.0,882.0,0.8758,0.4738,9.4457,-0.0405,0.0316,-0.122,-1.9211164913573207,-0.0012905149487778544,3.406306743621826,-1.7638020515441895,0.002786539029330015,2.0015480518341064,5.0708820698554895,0.002720986260101199,0.2858865261077881,-1.6421015898333948,5.113687439006753e-05,-0.007255167700350285,0.8115803599357605,0.0,0.0003888518549501896,0.7857122421264648,-1.9428482119110413e-05,-0.012389020062983036
896.0,882.0,0.8758,0.4738,9.4457,-0.0405,0.0316,-0.122,-1.9211732349791468,-0.0014290380058810115,3.385289192199707,-1.763757586479187,0.0025987860281020403,1.9289917945861816,5.070842075138845,0.0014586233301088214,0.30504435300827026,-1.6421497503863733,6.32385490462184e-05,-0.001696086721494794,0.8115604519844055,0.0,-0.008071042597293854,0.785635769367218,-1.8246522813569754e-05,-0.0078061772510409355
896.0,882.0,0.8758,0.4738,9.4457,-0.0405,0.0316,-0.122,-1.9211489162840785,-0.0014368813717737794,3.4102864265441895,-1.7637906074523926,0.0017227090429514647,1.927232265472412,5.070829856186666,0.000824444810859859,0.2878398895263672,-1.6420934836017054,6.577830208698288e-05,-0.011857327073812485,0.8115684390068054,0.0,0.001958408858627081,0.7856960892677307,-3.375552478246391e-05,-0.006961837410926819
896.0,882.0,0.8758,0.4738,9.4457,-0.0405,0.0316,-0.122,-1.9211493931212367,-0.0013090603752061725,3.39705228805542,-1.7637295722961426,0.001234962954185903,1.9078067541122437,5.070970254927435,0.0008150407811626792,0.29234883189201355,-1.6421459356891077,6.909227522555739e-05,-0.0030267054680734873,0.8114842176437378,0.0,-0.0055450741201639175,0.7856678366661072,-3.195771569153294e-05,-0.007090650033205748
896.0,882.0,0.8758,0.4738,9.4457,-0.0405,0.0316,-0.122,-1.9211451015868128,-0.0010804239427670836,3.4671356678009033,-1.7637419700622559,0.0007447837851941586,1.976489782333374,5.070905941515722,0.0010093318996950984,0.288726806640625,-1.6420615355121058,6.653981836279854e-05,0.004325011745095253,0.8115403652191162,0.0,-0.001527169719338417,0.785676121711731,-3.0341654564836062e-05,-0.015332592651247978
896.0,882.0,0.8758,0.4738,9.4457,-0.0405,0.0316,-0.122,-1.921168943444723,-0.0007617473602294922,3.4112789630889893,-1.7637864351272583,0.0005375281907618046,1.9082587957382202,5.070997524052419,0.0015947382198646665,0.30697423219680786,-1.6421054045306605,6.341424159472808e-05,-0.003904067212715745,0.811500072479248,0.0,-0.0020810309797525406,0.7857166528701782,-4.263763185008429e-05,0.01984538324177265
896.0,882.0,0.8758,0.4738,9.4457,-0.0405,0.0316,-0.122,-1.9211646519102992,-0.0006511782412417233,3.4004321098327637,-1.763765811920166,0.00048282311763614416,1.8804676532745361,5.070958065777578,0.0015421692514792085,0.3006075322628021,-1.6421015898333948,6.125618529040366e-05,0.004556439816951752,0.8115082383155823,0.0,-0.00968053750693798,0.785712480545044,-5.427868018159643e-05,-0.009908923879265785
896.0,882.0,0.8758,0.4738,9.4457,-0.0405,0.0316,-0.122,-1.9211770496764125,-0.0005901010008528829,3.423290967941284,-1.7637379169464111,0.00044865597737953067,1.9137660264968872,5.070958006172933,0.0014332503778859973,0.2823001444339752,-1.6421378294574183,8.97934387467103e-06,-0.0037379697896540165,0.8115161657333374,0.0,-0.005687568802386522,0.78568434715271,-0.0001748998329276219,0.021209683269262314
896.0,882.0,0.8758,0.4738,9.4457,-0.0405,0.0316,-0.122,-1.9211813412108363,-0.0005428093136288226,3.391146183013916,-1.7637057304382324,0.00035096632200293243,1.9391335248947144,5.0709736225898645,0.0012573364656418562,0.2954595386981964,-1.6420977751361292,1.631951102032403e-10,-0.00770959397777915,0.8115121722221375,0.0,-0.002346926834434271,0.7856480479240417,-0.0001515211333753541,-0.005177629180252552
896.0,882.0,0.8758,0.4738,9.4457,-0.0405,0.0316,-0.122,-1.9212171039977015,-0.0005812029703520238,3.4148521423339844,-1.7637099027633667,0.00034285063156858087,1.9749228954315186,5.070997553854742,0.0011187357595190406,0.28444552421569824,-1.6421058813678187,4.54259534447745e-14,-0.006488262675702572,0.8115322589874268,0.0,0.003444320522248745,0.7856559753417969,-0.00013761920854449272,0.02894764579832554
896.0,882.0,0.8758,0.4738,9.4457,-0.0405,0.0316,-0.122,-1.9212333164610804,-0.000586417387239635,3.385521173477173,-1.7637336254119873,0.00033186207292601466,1.923626184463501,5.070958006172933,0.001036012195982039,0.29165035486221313,-1.6421096960650843,1.2644481366832594e-17,0.00023938575759530067,0.8115203380584717,0.0,-0.0017297705635428429,0.7856279611587524,-0.0001260541466763243,-0.014868662692606449
896.0,882.0,0.8758,0.4738,9.4457,-0.0405,0.0316,-0.122,-1.921152254144186,-0.000618593767285347,3.3866138458251953,-1.7637171745300293,0.0002953931107185781,1.915758490562439,5.070969599276342,0.0007622376433573663,0.293134480714798,-1.6420696417437952,3.519638158335361e-21,-0.007482492830604315,0.8115081787109375,0.0,0.0033868644386529922,0.785652220249176,-0.00011628222273429856,-0.03821633756160736
894.0,875.0,0.7998,0.4546,9.3882,-0.0368,0.0168,-0.1118,-1.9212094746031703,-0.0006119524477981031,3.398723602294922,-1.7637090682983398,0.00025374925462529063,1.8998944759368896,5.070997732668676,0.0005454621859826148,0.30137965083122253,-1.6421058813678187,6.396768926145792e-26,-0.0033841358963400126,0.8115562796592712,0.0,-0.013024908490478992,0.7856603860855103,-0.00010538893548073247,-0.01344711147248745
894.0,875.0,0.7998,0.4546,9.3882,-0.0368,0.0168,-0.1118,-1.9211932621397914,-0.0005569828790612519,3.4100403785705566,-1.7637584209442139,0.00023724677157588303,1.915257453918457,5.070957976370611,0.0004833170969504863,0.2931177616119385,-1.6421101729022425,1.7805640623769792e-29,-0.017658358439803123,0.8115121722221375,0.0,-0.000903870037291199,0.7856724262237549,-9.847035107668489e-05,-0.03617488220334053
894.0,875.0,0.7998,0.4546,9.3882,-0.0368,0.0168,-0.1118,-1.9212051830687464,-0.0005704782088287175,3.4187119007110596,-1.7637213468551636,0.00020485150162130594,1.95559823513031,5.070945876627722,0.0003960958565585315,0.30309200286865234,-1.6421220938311976,4.956264382020858e-33,5.75078884139657e-05,0.811512291431427,0.0,0.004028027877211571,0.7856320738792419,-9.240437066182494e-05,-0.005307458806782961
894.0,875.0,0.7998,0.4546,9.3882,-0.0368,0.0168,-0.1118,-1.9212171039977015,-0.0006938348524272442,3.394016742706299,-1.7637253999710083,0.00017329469847027212,1.8651506900787354,5.070949840336599,0.00031647455762140453,0.30331480503082275,-1.642073933278219,9.007765691759745e-38,-0.019331026822328568,0.8115082383155823,0.0,-0.005189482122659683,0.7856642007827759,-8.539076225133613e-05,-0.019028231501579285
894.0,875.0,0.7998,0.4546,9.3882,-0.0368,0.0168,-0.1118,-1.9212128124632777,-0.0010801837779581547,3.408520460128784,-1.7637667655944824,0.00015534635167568922,1.8787338733673096,5.070938008814611,0.0002750166167970747,0.29155388474464417,-1.6420539061175745,5.641824100166559e-05,-0.022030193358659744,0.8115602731704712,0.0,0.007951954379677773,0.7856724262237549,-8.079150575213134e-05,0.010931015014648438
894.0,875.0,0.7998,0.4546,9.3882,-0.0368,0.0168,-0.1118,-1.9212209186949671,-0.0017192530212923884,3.376007556915283,-1.7637419700622559,0.00014076780644245446,1.9332866668701172,5.070969599276342,0.0002431652246741578,0.30805012583732605,-1.6420658270465296,7.99427944002673e-05,-0.004390697926282883,0.8115763068199158,0.0,0.002827351912856102,0.7856884598731995,-7.666241435799748e-05,-0.005870765075087547
894.0,875.0,0.7998,0.4546,9.3882,-0.0368,0.0168,-0.1118,-1.921281477014059,-0.0037551128771156073,3.3572232723236084,-1.7637016773223877,0.00012511260865721852,1.9333025217056274,5.070989715843954,0.00024114678672049195,0.29291126132011414,-1.6421096960650843,7.464566442649812e-05,0.0009117284789681435,0.8115362524986267,0.0,-0.003932045307010412,0.7856801748275757,-7.177167572081089e-05,-0.03076127916574478
894.0,875.0,0.7998,0.4546,9.3882,-0.0368,0.0168,-0.1118,-1.9212810001769007,-0.005116226617246866,3.3980467319488525,-1.7637419700622559,0.00011548041948117316,1.9521701335906982,5.071025568037786,0.00021316892525646836,0.29310476779937744,-1.6421058813678187,8.166354382410645e-05,-0.012316454201936722,0.8115203380584717,0.0,0.0028074306901544333,0.7856476902961731,-6.849436613265425e-05,0.019612040370702744
894.0,875.0,0.7998,0.4546,9.3882,-0.0368,0.0168,-0.1118,-1.9213248691954554,-0.007962089031934738,3.371701717376709,-1.76372230052948,0.00010722527076723054,1.9662532806396484,5.07100127914504,0.000949569686781615,0.2977778911590576,-1.6420539061175745,8.146355685312301e-05,-0.011518924497067928,0.8115001320838928,0.0,0.004440006799995899,0.785676121711731,-6.550336547661573e-05,-0.01901186630129814
894.0,875.0,0.7998,0.4546,9.3882,-0.0368,0.0168,-0.1118,-1.9213973484435023,-0.00961223989725113,3.3644626140594482,-1.7637295722961426,0.00010007197852246463,1.8656041622161865,5.071021574526586,0.0017008486902341247,0.2973785102367401,-1.6421058813678187,7.793909753672779e-05,-0.011588206514716148,0.8115123510360718,0.0,0.00165878189727664,0.7856637239456177,-5.026844155509025e-05,-0.05221903696656227
894.0,875.0,0.7998,0.4546,9.3882,-0.0368,0.0168,-0.1118,-1.9214769802489222,-0.01114900503307581,3.3147311210632324,-1.7637253999710083,0.0001102768728742376,1.932654619216919,5.071037280350485,0.0028016124852001667,0.30127987265586853,-1.642113987599508,8.596566476626322e-05,-0.011922391131520271,0.8114802241325378,0.0,-0.00027637870516628027,0.7857046127319336,-4.75570086564403e-05,-0.030215231701731682
894.0,875.0,0.7998,0.4546,9.3882,-0.0368,0.0168,-0.1118,-1.9215089283385218,-0.012797663919627666,3.3803188800811768,-1.7637181282043457,0.00010391101386630908,1.9467265605926514,5.0710375783737085,0.0038350073155015707,0.3008921444416046,-1.6420577208148401,8.258516754722223e-05,-0.0013344272738322616,0.8115683794021606,0.0,-0.003476771293208003,0.7856802344322205,-4.5744149247184396e-05,0.004820249974727631
894.0,875.0,0.7998,0.4546,9.3882,-0.0368,0.0168,-0.1118,-1.9216247997679652,-0.014212428592145443,3.3307671546936035,-1.7637419700622559,0.00011461003305157647,1.9538860321044922,5.071092623263159,0.004820025060325861,0.284672349691391,-1.6420701185809534,7.945992547320202e-05,-0.00024131720419973135,0.8115603923797607,0.0,-0.007488541770726442,0.7856922745704651,-3.3197964512510225e-05,0.005334431305527687
894.0,875.0,0.7998,0.4546,9.3882,-0.0368,0.0168,-0.1118,-1.9217688045897425,-0.016133110970258713,3.366218328475952,-1.7637336254119873,0.0001221011480083689,1.9182549715042114,5.071169096022405,0.006327253300696611,0.3086976706981659,-1.6421096960650843,7.56436274969019e-05,0.0024132155813276768,0.8114961385726929,0.0,0.000808639801107347,0.7857002019882202,2.9275368433445692e-05,-0.0053073447197675705
899.0,872.0,0.8506,0.5629,9.4822,-0.0382,0.0079,-0.1168,-1.921913286248678,-0.017423003911972046,3.2929415702819824,-1.7637419700622559,0.00010045691306004301,1.9516180753707886,5.071189152985372,0.006500619929283857,0.3118448555469513,-1.6421096960650843,7.301264122361317e-05,-0.01060574408620596,0.8115683794021606,0.0,-0.005695609841495752,0.7857122421264648,2.7916919862036593e-05,-0.05228305980563164
899.0,872.0,0.8506,0.5629,9.4822,-0.0382,0.0079,-0.1168,-1.9219323597350062,-0.018936406821012497,3.3219053745269775,-1.7637181282043457,0.0001129796655732207,1.890832781791687,5.071252929955282,0.007161232642829418,0.2946051359176636,-1.6420939604388636,8.059538231464103e-05,-0.007302010897547007,0.8115282654762268,0.0,-0.011588646098971367,0.7857125401496887,2.6675752451410517e-05,0.043005891144275665
899.0,872.0,0.8506,0.5629,9.4822,-0.0382,0.0079,-0.1168,-1.9220968685545863,-0.02025974541902542,3.341639757156372,-1.763714075088501,0.00012163065548520535,1.937753438949585,5.071272867708959,0.007824634201824665,0.2824828028678894,-1.642113987599508,4.378989615361206e-08,-0.014101916924118996,0.8115562200546265,0.0,-0.0008216446149162948,0.7857205271720886,3.777416350203566e-05,-0.006188150495290756
899.0,872.0,0.8506,0.5629,9.4822,-0.0382,0.0079,-0.1168,-1.9222046337523402,-0.021189717575907707,3.3176822662353516,-1.7637181282043457,0.00013139625662006438,1.8798102140426636,5.071288364916601,0.008820906281471252,0.28202974796295166,-1.6420863310443323,1.2189077872037934e-11,-0.006223814561963081,0.8115362524986267,0.0,-0.012384877540171146,0.7857043147087097,3.625286990427412e-05,-0.013267911970615387
899.0,872.0,0.8506,0.5629,9.4822,-0.0382,0.0079,-0.1168,-1.9222961864867152,-0.021195899695158005,3.3201746940612793,-1.7636860609054565,0.00033498540869913995,1.9154185056686401,5.071376877814092,0.009403964504599571,0.2935960292816162,-1.6420415083514612,3.3928753852800623e-15,-0.015647152438759804,0.8115242123603821,0.0,0.0018320102244615555,0.7856840491294861,3.484914486762136e-05,0.019894786179065704
899.0,872.0,0.8506,0.5629,9.4822,-0.0382,0.0079,-0.1168,-1.922464510003561,-0.020930355414748192,3.3267359733581543,-1.7637336254119873,0.00037873690598644316,1.9330755472183228,5.071468758374014,0.010512085631489754,0.2897731065750122,-1.6420701185809534,9.444192989144294e-19,0.0075451890006661415,0.8115521669387817,0.0,0.01226593554019928,0.7857122421264648,3.3550055377418175e-05,-0.027388548478484154
899.0,872.0,0.8506,0.5629,9.4822,-0.0382,0.0079,-0.1168,-1.9226566753783167,-0.02122136391699314,3.355130672454834,-1.7636737823486328,0.0005930571933276951,1.9463378190994263,5.071496027498998,0.014536726288497448,0.3050275444984436,-1.642062012349264,8.313023863593116e-05,-0.0028280592523515224,0.8115242123603821,0.0,-0.0006788489408791065,0.785676121711731,3.196147736161947e-05,-0.055809468030929565
899.0,872.0,0.8506,0.5629,9.4822,-0.0382,0.0079,-0.1168,-1.922772069970602,-0.019793406128883362,3.348471164703369,-1.763677954673767,0.0005916326772421598,1.9129046201705933,5.071651655226507,0.021187694743275642,0.3040481209754944,-1.6420982519732874,8.033737685764208e-05,-0.004479453898966312,0.8115361332893372,0.0,0.00011546304449439049,0.7856881618499756,3.0865398002788424e-05,0.002169031649827957
899.0,872.0,0.8506,0.5629,9.4822,-0.0382,0.0079,-0.1168,-1.9228798351683558,-0.019893905147910118,3.343205451965332,-1.7637221813201904,0.0004766157071571797,1.87300443649292,5.071835982590475,0.0329408161342144,0.2971421778202057,-1.642090145741598,7.625187572557479e-05,-0.011252056807279587,0.8115843534469604,0.0,-0.007382511161267757,0.7857485413551331,2.9841978175682016e-05,-0.01682295836508274
899.0,872.0,0.8506,0.5629,9.4822,-0.0382,0.0079,-0.1168,-1.9230357609190882,-0.02059313654899597,3.359279155731201,-1.763677954673767,0.00037682350375689566,1.9553568363189697,5.072157937079229,0.06114824861288071,0.3367307484149933,-1.6420863310443323,8.563094161218032e-05,-0.007670138962566853,0.8115001320838928,0.0,-0.005267843138426542,0.785692036151886,2.832999243182477e-12,-0.07595270872116089
899.0,872.0,0.8506,0.5629,9.4822,-0.0382,0.0079,-0.1168,-1.9231797657408656,-0.021253962069749832,3.347288131713867,-1.763677954673767,0.0003256828058511019,1.9317653179168701,5.072620409518041,0.09615616500377655,0.34430092573165894,-1.6420944372760218,8.179954602383077e-05,0.0011792845325544477,0.8115282654762268,0.0,0.010526378639042377,0.7856602072715759,6.841360210700488e-18,-0.05087295174598694
899.0,872.0,0.8506,0.5629,9.4822,-0.0382,0.0079,-0.1168,-1.9233118496336878,-0.022419992834329605,3.305403232574463,-1.7636984586715698,0.0002867658040486276,1.9374949932098389,5.073370295553961,0.12880700826644897,0.34278595447540283,-1.6420577208148401,9.042049350682646e-05,-0.005044667981564999,0.8115521669387817,0.0,-0.0017615142278373241,0.7856919765472412,1.652107922816382e-23,0.030864525586366653
899.0,872.0,0.8506,0.5629,9.4822,-0.0382,0.0079,-0.1168,-1.923399110833639,-0.0239118542522192,3.350597381591797,-1.763730525970459,0.00025615713093429804,1.9248666763305664,5.074155527144232,0.14551857113838196,0.3618486821651459,-1.6420701185809534,8.748147956794128e-05,-0.002595964353531599,0.8114842176437378,0.0,-0.007463639602065086,0.7856518626213074,3.989646333673903e-29,-0.04566621780395508
893.0,890.0,1.2867,0.5701,9.8842,-0.0344,0.2821,-0.1376,-1.9236237011351527,-0.024150768294930458,3.3289408683776855,-1.7636622190475464,0.00020875151676591486,1.9430456161499023,5.075412618904867,0.16769754886627197,0.3653841018676758,-1.6420744101153772,8.287833770737052e-05,-0.004200180061161518,0.8115321397781372,0.0,0.005020924843847752,0.7856478095054626,1.2925946529311186e-36,-0.027168570086359978
893.0,890.0,1.2867,0.5701,9.8842,-0.0344,0.2821,-0.1376,-1.9237472019591273,-0.023351481184363365,3.330165386199951,-1.7637025117874146,0.0009630458080209792,1.9473119974136353,5.076570260315695,0.19724726676940918,0.38357579708099365,-1.6420782248126429,9.110909013543278e-05,0.0020604960154742002,0.8115362524986267,0.0,-0.007347161415964365,0.7856799364089966,3.1220929785156924e-42,-0.0720280259847641
893.0,890.0,1.2867,0.5701,9.8842,-0.0344,0.2821,-0.1376,-1.9238716564574183,-0.02115730009973049,3.338998794555664,-1.7636663913726807,0.0011367411352694035,1.954451322555542,5.077859091549673,0.21282215416431427,0.3856102228164673,-1.6420982519732874,8.778880146564916e-05,0.006956703029572964,0.8115242123603821,0.0,-0.007089890539646149,0.7856922745704651,0.0,-0.06973524391651154
893.0,890.0,1.2867,0.5701,9.8842,-0.0344,0.2821,-0.1376,-1.9240790806212367,-0.019868552684783936,3.353945016860962,-1.7636374235153198,0.0015320423990488052,1.961946725845337,5.07952560761527,0.22672982513904572,0.3904613256454468,-1.6420257727252405,0.00010719930287450552,0.004617066588252783,0.8114961385726929,0.0,-0.010282851755619049,0.7857084274291992,0.0,-0.08591378480195999
893.0,890.0,1.2867,0.5701,9.8842,-0.0344,0.2821,-0.1376,-1.9241591892638148,-0.018975069746375084,3.311863422393799,-1.7636704444885254,0.002385741798207164,1.9272260665893555,5.081043857126989,0.24667119979858398,0.4024896025657654,-1.6420534292804163,0.00012122897896915674,0.002482509473338723,0.8115724325180054,0.0,0.004088536836206913,0.7857323288917542,0.0,-0.05059545487165451
893.0,890.0,1.2867,0.5701,9.8842,-0.0344,0.2821,-0.1376,-1.9242831669249476,-0.019143009558320045,3.3429367542266846,-1.763641595840454,0.0023931742180138826,1.951533317565918,5.0826037404830835,0.2604517340660095,0.4062806963920593,-1.6420820395099085,0.0001345772616332397,-0.004780747927725315,0.8115242123603821,0.0,-8.229399099946022e-06,0.7857323288917542,0.0,-0.08056609332561493
893.0,890.0,1.2867,0.5701,9.8842,-0.0344,0.2821,-0.1376,-1.9244023762144984,-0.020320136100053787,3.3473339080810547,-1.7636299133300781,0.004015728831291199,1.9566144943237305,5.0848880884941,0.29899075627326965,0.4283115863800049,-1.64203387895693,0.00014244610792957246,0.025458626449108124,0.8115962147712708,0.0,-0.008223422802984715,0.7857323884963989,0.0,-0.04442089423537254
893.0,890.0,1.2867,0.5701,9.8842,-0.0344,0.2821,-0.1376,-1.9245826206602992,-0.02094811014831066,3.3191001415252686,-1.763537883758545,0.004707603715360165,1.9202615022659302,5.086717802077093,0.3151763379573822,0.43880265951156616,-1.6420782248126429,0.0001515327749075368,0.007559002842754126,0.8115003705024719,0.0,-0.001627773279324174,0.7857323884963989,0.0,-0.03526995703577995
893.0,890.0,1.2867,0.5701,9.8842,-0.0344,0.2821,-0.1376,-1.9246751270689906,-0.020993106067180634,3.3387622833251953,-1.7635905742645264,0.006195990834385157,1.9483890533447266,5.088763403683462,0.3337915241718292,0.4419146180152893,-1.6420462767230433,0.00014365956303663552,0.0011326520470902324,0.8115521669387817,0.0,0.006709662266075611,0.7857405543327332,0.0,-0.08682112395763397
893.0,890.0,1.2867,0.5701,9.8842,-0.0344,0.2821,-0.1376,-1.9247986278929652,-0.02066907100379467,3.3309073448181152,-1.7634819746017456,0.007030021864920855,1.9568418264389038,5.09086840131835,0.35995110869407654,0.44835513830184937,-1.642090145741598,0.00027944715111516416,0.017386076971888542,0.8115281462669373,0.0,0.004642521496862173,0.7857002019882202,0.0,-0.09382881969213486
893.0,890.0,1.2867,0.5701,9.8842,-0.0344,0.2821,-0.1376,-1.9249664745726527,-0.022783188149333,3.3136942386627197,-1.7634220123291016,0.0074357385747134686,1.9350171089172363,5.093870329647817,0.3827788829803467,0.4695058763027191,-1.6420295874225062,0.00031135539757087827,0.01477547362446785,0.8115523457527161,0.0,0.013117616064846516,0.7857286930084229,0.0,-0.12796388566493988
893.0,890.0,1.2867,0.5701,9.8842,-0.0344,0.2821,-0.1376,-1.9251147709288539,-0.02331031672656536,3.3223140239715576,-1.7634589672088623,0.008568545803427696,1.9603888988494873,5.096294927387991,0.4099481403827667,0.46596595644950867,-1.6420419851886194,0.0006238617352209985,0.018569596111774445,0.8115242123603821,0.0,0.00760993268340826,0.7857164144515991,0.0,-0.10344937443733215
893.0,890.0,1.2867,0.5701,9.8842,-0.0344,0.2821,-0.1376,-1.9253226719298304,-0.02521537058055401,3.3208413124084473,-1.763386607170105,0.008321522735059261,1.934576153755188,5.0988588509853265,0.4421178996562958,0.497627317905426,-1.6420419851886194,0.000963886093813926,0.015638122335076332,0.8115361928939819,0.0,-0.002531178994104266,0.7856882214546204,0.0,-0.07220707088708878
893.0,890.0,1.2867,0.5701,9.8842,-0.0344,0.2821,-0.1376,-1.9254423580565394,-0.028471004217863083,3.248504400253296,-1.763314962387085,0.008284002542495728,1.9720237255096436,5.102466928749838,0.47374454140663147,0.4888107478618622,-1.642017666493551,0.0025918944738805294,0.024708332493901253,0.8115801811218262,0.0,0.02366710640490055,0.7856999039649963,0.0,-0.106891930103302
897.0,902.0,1.2987,0.1155,9.3135,-0.0628,0.5974,-0.1478,-1.9256259403624476,-0.030411837622523308,3.2717254161834717,-1.76328706741333,0.008052714169025421,1.9935271739959717,5.10534884312705,0.5096275210380554,0.5246233940124512,-1.6419780890094202,0.009845343418419361,0.036823615431785583,0.8115243911743164,0.0,-0.009514092467725277,0.785740315914154,0.0,-0.0715787261724472
897.0,902.0,1.2987,0.1155,9.3135,-0.0628,0.5974,-0.1478,-1.9258181057372035,-0.031627047806978226,3.2354283332824707,-1.7631990909576416,0.008355943486094475,1.9368038177490234,5.1085038659866235,0.5373165011405945,0.49365031719207764,-1.6418622175799769,0.01943671889603138,0.03065895475447178,0.8115242123603821,0.0,0.00011779135093092918,0.7856758236885071,0.0,-0.1060517430305481
897.0,902.0,1.2987,0.1155,9.3135,-0.0628,0.5974,-0.1478,-1.9260903797545375,-0.031737085431814194,3.249666213989258,-1.763166904449463,0.008365963585674763,1.9341522455215454,5.1128901717956445,0.5650826096534729,0.502824068069458,-1.6417902151690882,0.01189318299293518,0.03502621501684189,0.8115523457527161,0.0,0.00938191544264555,0.7857485413551331,0.0,-0.10509957373142242
897.0,902.0,1.2987,0.1155,9.3135,-0.0628,0.5974,-0.1478,-1.9262496433653773,-0.031817566603422165,3.2592153549194336,-1.7631356716156006,0.00887647271156311,1.9454801082611084,5.1163455722625635,0.5891584753990173,0.5048887133598328,-1.6417749563800257,0.002615127246826887,0.02766907960176468,0.8115763068199158,0.0,0.012103304266929626,0.785740315914154,0.0,-0.11845046281814575
897.0,902.0,1.2987,0.1155,9.3135,-0.0628,0.5974,-0.1478,-1.9264456234373988,-0.03127054125070572,3.2067489624023438,-1.7630436420440674,0.009832579642534256,1.9406380653381348,5.119989949255743,0.6038601994514465,0.48961690068244934,-1.6417306105243128,-0.00036960080615244806,0.04185407608747482,0.8115960955619812,0.0,0.002707431558519602,0.7857362031936646,0.0,-0.1341644525527954
897.0,902.0,1.2987,0.1155,9.3135,-0.0628,0.5974,-0.1478,-1.9266497097411097,-0.03316827863454819,3.277585744857788,-1.7629917860031128,0.009595571085810661,1.9554574489593506,5.123665976315298,0.6104034781455994,0.4784095287322998,-1.641754452382223,-0.0001296860136790201,0.03147316724061966,0.8115841746330261,0.0,0.01076728105545044,0.7857648134231567,0.0,-0.14745180308818817
897.0,902.0,1.2987,0.1155,9.3135,-0.0628,0.5974,-0.1478,-1.9268890819945277,-0.03608176112174988,3.2476563453674316,-1.7628881931304932,0.009935558773577213,1.966032862663269,5.128747302084722,0.6284278035163879,0.5001349449157715,-1.6417425314532679,-8.216821152018383e-05,0.033591508865356445,0.8115682601928711,0.0,0.011120719835162163,0.7857648134231567,0.0,-0.1637454777956009
897.0,902.0,1.2987,0.1155,9.3135,-0.0628,0.5974,-0.1478,-1.927145620385641,-0.03742162883281708,3.240544319152832,-1.7628600597381592,0.011310034431517124,1.9487802982330322,5.132474618941107,0.6390909552574158,0.5136218667030334,-1.641827408467428,-6.448834028560668e-05,0.046430934220552444,0.8115523457527161,0.0,0.010564127005636692,0.7857163548469543,0.0,-0.18578608334064484
897.0,902.0,1.2987,0.1155,9.3135,-0.0628,0.5974,-0.1478,-1.927361627618307,-0.03906875476241112,3.1914191246032715,-1.7627441883087158,0.012572258710861206,2.0196423530578613,5.136341053038397,0.6460000276565552,0.4921373724937439,-1.6417468229876917,-1.3973706700198818e-05,0.046159226447343826,0.811608076095581,0.0,0.01984981633722782,0.7857443690299988,0.0,-0.1189352422952652
897.0,902.0,1.2987,0.1155,9.3135,-0.0628,0.5974,-0.1478,-1.927681108514303,-0.04309447482228279,3.211655378341675,-1.7626571655273438,0.013630700297653675,1.9479334354400635,5.141440796643057,0.6417450904846191,0.48704665899276733,-1.6417387167560022,-2.539652099731171e-10,0.06212208792567253,0.8115242719650269,0.0,-0.007928367704153061,0.7857158780097961,0.0,-0.1607520580291748
897.0,902.0,1.2987,0.1155,9.3135,-0.0628,0.5974,-0.1478,-1.927964826623434,-0.047857679426670074,3.225886583328247,-1.7625813484191895,0.014761442318558693,1.9565584659576416,5.145295220404424,0.6429422497749329,0.499042809009552,-1.6417668501483362,-7.069215682666344e-14,0.05265539139509201,0.8115682005882263,0.0,0.017193634063005447,0.7857200503349304,0.0,-0.1997658908367157
897.0,902.0,1.2987,0.1155,9.3135,-0.0628,0.5974,-0.1478,-1.9282366238036097,-0.05189766362309456,3.141620635986328,-1.7624531984329224,0.01664624735713005,1.9874491691589355,5.149137574225225,0.6444432735443115,0.4948984980583191,-1.6417105833636683,-1.9677420743303426e-17,0.04218243062496185,0.811556339263916,0.0,0.033636465668678284,0.7857282161712646,0.0,-0.2115345150232315
897.0,902.0,1.2987,0.1155,9.3135,-0.0628,0.5974,-0.1478,-1.928648134271139,-0.057755421847105026,3.165472984313965,-1.7623658180236816,0.017617473378777504,2.007079601287842,5.154294627695837,0.6369051933288574,0.47675803303718567,-1.6416786352740687,-3.576273272133338e-22,0.06389963626861572,0.811572253704071,0.0,0.022920425981283188,0.785740315914154,0.0,-0.15955404937267303
897.0,902.0,1.2987,0.1155,9.3135,-0.0628,0.5974,-0.1478,-1.9290081463255824,-0.06046632304787636,3.182107448577881,-1.762281894683838,0.018809955567121506,2.0109803676605225,5.158096033125677,0.6319460868835449,0.4772680103778839,-1.6417468229876917,-9.954688764576018e-26,0.06459290534257889,0.8116917610168457,0.0,0.009052740409970284,0.7857241630554199,0.0,-0.19458971917629242
891.0,886.0,-0.6395,0.7256,9.4229,-0.0224,0.5812,-0.1523,-1.929392000237936,-0.0635138601064682,3.154772996902466,-1.7621699571609497,0.021209869533777237,2.0191354751586914,5.161874609976568,0.6234769821166992,0.4699684679508209,-1.6417630354510706,-2.7709241843232903e-29,0.05602196604013443,0.811572253704071,0.0,0.028619006276130676,0.7857320308685303,0.0,-0.21460893750190735
891.0,886.0,-0.6395,0.7256,9.4229,-0.0224,0.5812,-0.1523,-1.929779668847555,-0.06408926844596863,3.128638505935669,-1.7619938850402832,0.021940581500530243,2.0076351165771484,5.165614294796743,0.615627646446228,0.48707449436187744,-1.6417830626117151,-7.712968714038007e-33,0.056521229445934296,0.8115761876106262,0.0,0.03816444054245949,0.7857561707496643,9.08605302107901e-10,-0.19745388627052307
891.0,886.0,-0.6395,0.7256,9.4229,-0.0224,0.5812,-0.1523,-1.9302712879576625,-0.06654787808656693,3.1500489711761475,-1.7618352174758911,0.02371683530509472,2.005286931991577,5.170457321196356,0.6126896739006042,0.47259336709976196,-1.6417391935931605,-1.4017942997734338e-37,0.0642830953001976,0.8116000890731812,0.0,0.02500578761100769,0.7857320308685303,2.9437657317422846e-17,-0.17565521597862244
891.0,886.0,-0.6395,0.7256,9.4229,-0.0224,0.5812,-0.1523,-1.9307390652098597,-0.06675341725349426,3.1599948406219482,-1.7616591453552246,0.024362875148653984,2.0318069458007812,5.174075948982992,0.5999160408973694,0.48192930221557617,-1.6417272726642054,0.0001850875123636797,0.06972937285900116,0.8115563988685608,0.0,0.041780926287174225,0.7857521176338196,7.10884907748046e-23,-0.15680080652236938
