ramyac6/ROB537/final_project/csv/good/good_157.csv
tof_0,tof_1,accelx,accely,accelz,gyrox,gyroy,gyroz,shoulder_lift_joint_position,shoulder_lift_joint_velocity,shoulder_lift_joint_effort,elbow_joint_position,elbow_joint_velocity,elbow_joint_effort,wrist_1_joint_position,wrist_1_joint_velocity,wrist_1_joint_effort,wrist_2_joint_position,wrist_2_joint_velocity,wrist_2_joint_effort,wrist_3_joint_position,wrist_3_joint_velocity,wrist_3_joint_effort,shoulder_pan_joint_position,shoulder_pan_joint_velocity,shoulder_pan_joint_effort
343.0,347.0,5.9922,-0.4175,6.9799,-0.0305,0.0199,-0.1141,-1.5554042619517823,0.0,1.9484584331512451,-1.1857924461364746,-0.0,2.0637686252593994,3.5765425401875,1.527270615042653e-05,0.264305979013443,-1.5831063429461878,-0.0,-0.0027245567180216312,0.853219211101532,-0.0,-0.00441835867241025,0.7858443856239319,0.0,-0.018154622986912727
343.0,347.0,5.9922,-0.4175,6.9799,-0.0305,0.0199,-0.1141,-1.5553922218135376,0.0,2.023254871368408,-1.1858681440353394,-0.0,2.0483551025390625,3.5765387254902343,1.4532839486491866e-05,0.2588406205177307,-1.5831297079669397,-0.0,-0.012895515188574791,0.8531991243362427,-0.0,-0.0024188386742025614,0.7858361601829529,0.0,0.041881728917360306
343.0,347.0,5.9922,-0.4175,6.9799,-0.0305,0.0199,-0.1141,-1.5553721629879256,0.0,1.98909330368042,-1.1857962608337402,-0.0,2.0569725036621094,3.5765182214924316,1.3861366824130528e-05,0.29689478874206543,-1.5830500761615198,-0.0,-0.017498422414064407,0.8532236218452454,-0.0,0.0010578270303085446,0.7858121991157532,0.0,-0.020392192527651787
343.0,347.0,5.9922,-0.4175,6.9799,-0.0305,0.0199,-0.1141,-1.5553962833112855,0.0,1.9786605834960938,-1.185856819152832,-0.0,2.0137085914611816,3.5765425401875,1.324918594036717e-05,0.271129846572876,-1.5831216017352503,-0.0,-0.014003864489495754,0.8532794713973999,-0.0,-0.0011983318254351616,0.7858322858810425,0.0,-0.030024264007806778
343.0,347.0,5.9922,-0.4175,6.9799,-0.0305,0.0199,-0.1141,-1.555388212469854,0.0,1.9900596141815186,-1.1858086585998535,-0.0,2.0750434398651123,3.5765344339558105,1.2688808965322096e-05,0.274006724357605,-1.5831025282489222,-0.0,-0.003025354817509651,0.853219211101532,-0.0,-0.011140037328004837,0.7858684659004211,0.0,0.02532852441072464
343.0,347.0,5.9922,-0.4175,6.9799,-0.0305,0.0199,-0.1141,-1.5554161828807374,0.0,1.9748083353042603,-1.1858487129211426,-0.0,2.06357741355896,3.576502485866211,1.2173903087386861e-05,0.2743419110774994,-1.5831502119647425,-0.0,0.0023458292707800865,0.8532593846321106,-0.0,-0.0035500514786690474,0.7858643531799316,0.0,0.03507964313030243
343.0,347.0,5.9922,-0.4175,6.9799,-0.0305,0.0199,-0.1141,-1.5554282314008852,0.0,1.9883573055267334,-1.1858363151550293,-0.0,2.057837963104248,3.5765387254902343,1.1699165042955428e-05,0.2715374827384949,-1.5830901304828089,-0.0,-0.009858207777142525,0.8532032370567322,-0.0,-0.01102097425609827,0.7858443260192871,0.0,0.04170018434524536
343.0,347.0,5.9922,-0.4175,6.9799,-0.0305,0.0199,-0.1141,-1.5554161912626405,0.0,1.9736456871032715,-1.1858561038970947,-0.0,2.04150652885437,3.5765506464191894,1.1260053724981844e-05,0.27547502517700195,-1.5831177870379847,-0.0,-0.0037005830090492964,0.8532634973526001,-0.0,-0.00661577470600605,0.7858121991157532,0.0,-0.04757757484912872
329.0,321.0,5.9898,-0.4325,6.9852,-0.0342,0.025,-0.1203,-1.555388212469854,0.0,1.932110071182251,-1.1858363151550293,-0.0,2.021900177001953,3.5764824587055664,1.0852718332898803e-05,0.2769419848918915,-1.5831339995013636,-0.0,-0.01810942403972149,0.8532555103302002,-0.0,-0.002826787531375885,0.7858322858810425,0.0,-0.009706680662930012
329.0,321.0,5.9898,-0.4325,6.9852,-0.0342,0.025,-0.1203,-1.5554402110031624,0.0,1.984041452407837,-1.1858322620391846,-0.0,1.9958391189575195,3.5765105920979003,1.0473824659129605e-05,0.27404555678367615,-1.5830982367144983,-0.0,-0.006499681621789932,0.8532795310020447,-0.0,-0.008739345706999302,0.7858404517173767,0.0,-0.03190445527434349
329.0,321.0,5.9898,-0.4325,6.9852,-0.0342,0.025,-0.1203,-1.5554481225884338,0.0,1.9579576253890991,-1.1859006881713867,-0.0,2.0549464225769043,3.576514883632324,1.0120495971932542e-05,0.2725761830806732,-1.5830820242511194,-0.0,-0.01357855275273323,0.8532471656799316,-0.0,-0.005536634940654039,0.785812258720398,0.0,-0.01755303144454956
329.0,321.0,5.9898,-0.4325,6.9852,-0.0342,0.025,-0.1203,-1.5554042619517823,0.0,1.9994850158691406,-1.1858601570129395,-0.0,2.0508527755737305,3.576474352473877,1.6604884933713038e-07,0.2658749222755432,-1.5830982367144983,-0.0,-0.006304564885795116,0.853271484375,-0.0,-0.01796417310833931,0.7858885526657104,0.0,0.00042681675404310226
329.0,321.0,5.9898,-0.4325,6.9852,-0.0342,0.025,-0.1203,-1.5554082042402406,0.0,1.9993019104003906,-1.1858527660369873,-0.0,2.058577537536621,3.5765425401875,4.622030883028039e-11,0.275046706199646,-1.5831258932696741,-0.0,0.0015290502924472094,0.8532314300537109,-0.0,-0.0012214196613058448,0.7858524918556213,0.0,0.0027139359153807163
329.0,321.0,5.9898,-0.4325,6.9852,-0.0342,0.025,-0.1203,-1.5553962507149954,0.0,1.9490950107574463,-1.1857964992523193,-0.0,1.9896979331970215,3.5764986711689453,1.286559190617504e-14,0.28339654207229614,-1.5831382910357874,-0.0,-0.010132579132914543,0.8532388210296631,-0.0,-0.005824761465191841,0.7858684062957764,0.0,-0.026387203484773636
329.0,321.0,5.9898,-0.4325,6.9852,-0.0342,0.025,-0.1203,-1.5554002926549693,0.0,1.99178946018219,-1.1858128309249878,-0.0,2.0404164791107178,3.576498194331787,3.581184990639115e-18,0.2679990530014038,-1.5831216017352503,-0.0,0.008114596828818321,0.8532427549362183,-0.0,-0.014826811850070953,0.785828173160553,0.0,-0.037482719868421555
329.0,321.0,5.9898,-0.4325,6.9852,-0.0342,0.025,-0.1203,-1.5553842422417183,0.0,1.9837746620178223,-1.1858289241790771,-0.0,2.020303249359131,3.5765182214924316,9.968360428121856e-22,0.2733897566795349,-1.5831258932696741,-0.0,-0.01174355112016201,0.8532223701477051,-0.0,-0.024099376052618027,0.7858644127845764,0.0,-0.021313944831490517
329.0,321.0,5.9898,-0.4325,6.9852,-0.0342,0.025,-0.1203,-1.5554362016594787,0.0,1.9739511013031006,-1.1858363151550293,-0.0,1.9945704936981201,3.5765344339558105,2.774729240744039e-25,0.28310495615005493,-1.5831025282489222,-0.0,-0.0013896649470552802,0.8532074093818665,-0.0,-0.004586556926369667,0.7858603000640869,0.0,-0.020137690007686615
329.0,321.0,5.9898,-0.4325,6.9852,-0.0342,0.025,-0.1203,-1.5554481225884338,0.0,1.99479341506958,-1.1858241558074951,-0.0,2.061657190322876,3.5765425401875,7.723561068947885e-29,0.2764132618904114,-1.5830939451800745,-0.0,0.0004346459172666073,0.853223443031311,-0.0,-0.02167418785393238,0.7858081459999084,0.0,0.04460647702217102
329.0,321.0,5.9898,-0.4325,6.9852,-0.0342,0.025,-0.1203,-1.5554042619517823,0.0,1.9431004524230957,-1.1857964992523193,-0.0,2.0618367195129395,3.576558752650879,2.1498817485596395e-32,0.28608787059783936,-1.5831216017352503,-0.0,-0.004651542287319899,0.8532074093818665,-0.0,0.005523735657334328,0.7858766317367554,0.0,0.006531648337841034
329.0,321.0,5.9898,-0.4325,6.9852,-0.0342,0.025,-0.1203,-1.55544411324475,0.0,2.000978469848633,-1.1857922077178955,-0.0,2.0032217502593994,3.5764986711689453,5.98427428374874e-36,0.2837230861186981,-1.5831101576434534,-0.0,0.001861307304352522,0.853246808052063,-0.0,-0.0026101507246494293,0.7858766317367554,0.0,0.05406760424375534
329.0,321.0,5.9898,-0.4325,6.9852,-0.0342,0.025,-0.1203,-1.5553721629879256,0.0,1.9656842947006226,-1.1858527660369873,-0.0,2.0763185024261475,3.5765063005634765,1.665744504019875e-39,0.2764500081539154,-1.5830982367144983,-0.0,-0.011818360537290573,0.8531914949417114,-0.0,-0.006077810190618038,0.785828173160553,0.0,-0.02498486451804638
329.0,321.0,5.9898,-0.4325,6.9852,-0.0342,0.025,-0.1203,-1.5554520844346662,0.0,1.975736379623413,-1.1858248710632324,-0.0,2.044386386871338,3.5765225130268554,4.6382979169151445e-43,0.2942982316017151,-1.5830939451800745,-0.0,-0.006934782024472952,0.8532427549362183,-0.0,0.0008570806821808219,0.7858725786209106,0.0,-0.009257209487259388
329.0,321.0,5.9898,-0.4325,6.9852,-0.0342,0.025,-0.1203,-1.5554002926549693,0.0,2.0196948051452637,-1.1858248710632324,-0.0,2.0060925483703613,3.576490564937256,0.0,0.27449989318847656,-1.5831101576434534,-0.0,-0.007503666449338198,0.8532236218452454,-0.0,-0.01027178205549717,0.7857961058616638,0.0,-0.02329114079475403
329.0,321.0,5.9898,-0.4325,6.9852,-0.0342,0.025,-0.1203,-1.555476121870317,0.0,1.9587340354919434,-1.1858282089233398,-0.0,2.017014980316162,3.576558752650879,0.0,0.26830053329467773,-1.583158318196432,-0.0,-0.007490096613764763,0.853219211101532,-0.0,-0.0006871768273413181,0.7858484387397766,0.0,-0.02181105688214302
336.0,349.0,5.9414,-0.4265,7.1563,-0.0327,0.0298,-0.1155,-1.5554002926549693,0.0,2.0041630268096924,-1.1858289241790771,-0.0,2.103032112121582,3.576546831721924,0.0,0.274455726146698,-1.5831502119647425,-0.0,-0.009290450252592564,0.8532554507255554,-0.0,0.0017312070121988654,0.7858565449714661,0.0,-0.02559051662683487
336.0,349.0,5.9414,-0.4265,7.1563,-0.0327,0.0298,-0.1155,-1.555424161521234,0.0,1.9780527353286743,-1.1858723163604736,-0.0,2.033407688140869,3.5765268045612792,0.0,0.27244895696640015,-1.5831177870379847,-0.0,0.001100666238926351,0.853203296661377,-0.0,0.007243400439620018,0.7858241200447083,0.0,-0.038505565375089645
336.0,349.0,5.9414,-0.4265,7.1563,-0.0327,0.0298,-0.1155,-1.555420172666647,0.0,1.9246569871902466,-1.1859124898910522,-0.0,2.023906707763672,3.5765182214924316,0.0,0.26758748292922974,-1.583085838948385,-0.0,-0.007519008591771126,0.8532264232635498,-0.0,-0.004537081811577082,0.7859007716178894,0.0,0.004736481234431267
336.0,349.0,5.9414,-0.4265,7.1563,-0.0327,0.0298,-0.1155,-1.5554322323626657,0.0,1.9573497772216797,-1.1858527660369873,-0.0,2.127157688140869,3.576514406795166,0.0,0.28229621052742004,-1.5830777327166956,-0.0,0.003770962357521057,0.8532508611679077,-0.0,-0.025017550215125084,0.7858484387397766,0.0,0.018439970910549164
336.0,349.0,5.9414,-0.4265,7.1563,-0.0327,0.0298,-0.1155,-1.5554042619517823,0.0,1.9317529201507568,-1.1858043670654297,-0.0,2.0240886211395264,3.5764705377766113,0.0,0.2758760154247284,-1.5831025282489222,-0.0,-0.01650368981063366,0.8532075881958008,-0.0,-0.01521044597029686,0.7858322858810425,0.0,0.025767983868718147
336.0,349.0,5.9414,-0.4265,7.1563,-0.0327,0.0298,-0.1155,-1.555428223018982,0.0,1.9332685470581055,-1.185840368270874,-0.0,2.0369064807891846,3.5765268045612792,0.0,0.2841699719429016,-1.5831177870379847,-0.0,-0.0189206525683403,0.8531229496002197,-0.0,-0.01863691955804825,0.7858322858810425,0.0,0.001999194733798504
336.0,349.0,5.9414,-0.4265,7.1563,-0.0327,0.0298,-0.1155,-1.5554322323626657,0.0,1.975238561630249,-1.1858608722686768,-0.0,2.049036979675293,3.5765301424213867,0.0,0.27635976672172546,-1.5830901304828089,-0.0,-0.00014597977860830724,0.853246808052063,-0.0,0.00027989462250843644,0.7858443260192871,0.0,0.008790138177573681
336.0,349.0,5.9414,-0.4265,7.1563,-0.0327,0.0298,-0.1155,-1.5554161744988342,0.0,1.950947642326355,-1.1858124732971191,-0.0,2.0454208850860596,3.5765425401875,0.0,0.26758408546447754,-1.5831025282489222,-0.0,-0.014775805175304413,0.8532549738883972,-0.0,-0.007343594450503588,0.7858765721321106,0.0,0.015236361883580685
336.0,349.0,5.9414,-0.4265,7.1563,-0.0327,0.0298,-0.1155,-1.5553842590055247,0.0,1.9721564054489136,-1.1858043670654297,-0.0,2.0499911308288574,3.576530619258545,0.0,0.2854352593421936,-1.5831258932696741,-0.0,-0.005575180985033512,0.8532554507255554,-0.0,-0.0017920589307323098,0.7858684659004211,0.0,-4.257494583725929e-05
336.0,349.0,5.9414,-0.4265,7.1563,-0.0327,0.0298,-0.1155,-1.55544411324475,0.0,2.019437551498413,-1.1858484745025635,-0.0,2.0162134170532227,3.5765506464191894,0.0,0.2733311951160431,-1.5831063429461878,-0.0,-0.012342271395027637,0.853223443031311,-0.0,-0.004717128351330757,0.7858203649520874,0.0,-0.022151751443743706
336.0,349.0,5.9414,-0.4265,7.1563,-0.0327,0.0298,-0.1155,-1.555428223018982,0.0,1.9977582693099976,-1.1858689785003662,-0.0,1.9967808723449707,3.576441927547119,0.0,0.2807767391204834,-1.5831258932696741,-0.0,-0.012469758279621601,0.8532388210296631,-0.0,-0.008244059979915619,0.7858684062957764,0.0,0.01514057070016861
336.0,349.0,5.9414,-0.4265,7.1563,-0.0327,0.0298,-0.1155,-1.5553962833112855,0.0,1.9304280281066895,-1.1858444213867188,-0.0,2.004560708999634,3.5765268045612792,0.0,0.2831801176071167,-1.5831063429461878,-0.0,-0.006259608082473278,0.8532427549362183,-0.0,-0.009311745874583721,0.7858565449714661,0.0,0.029193582013249397
336.0,349.0,5.9414,-0.4265,7.1563,-0.0327,0.0298,-0.1155,-1.5554122806391497,0.0,1.9676332473754883,-1.1857962608337402,-0.0,2.0292394161224365,3.5765268045612792,0.0,0.27731627225875854,-1.5831339995013636,-0.0,-0.012803982943296432,0.8532354831695557,-0.0,-0.010981845669448376,0.7858684062957764,0.0,-0.011280748061835766
336.0,349.0,5.9414,-0.4265,7.1563,-0.0327,0.0298,-0.1155,-1.5554161828807374,0.0,1.9323900938034058,-1.1858124732971191,-0.0,1.9894378185272217,3.576490564937256,0.0,0.2751978635787964,-1.5831025282489222,-0.0,0.0078048305585980415,0.8532508611679077,-0.0,-0.012059678323566914,0.7858322858810425,0.0,0.03252503275871277
336.0,349.0,5.9414,-0.4265,7.1563,-0.0327,0.0298,-0.1155,-1.5554161912626405,0.0,1.9763203859329224,-1.1858006715774536,-0.0,2.0101730823516846,3.57651869832959,0.0,0.2688860297203064,-1.583085838948385,-0.0,-0.014573419466614723,0.8531313538551331,-0.0,-0.0035913516767323017,0.7858361601829529,0.0,-0.017735352739691734
340.0,344.0,5.8307,-0.5097,7.3202,-0.0418,0.0159,-0.1118,-1.555388168697693,0.0,1.9796550273895264,-1.185800313949585,-0.0,2.073945999145508,3.5765225130268554,0.0,0.27335962653160095,-1.5831216017352503,-0.0,-0.006059541366994381,0.8532195091247559,-0.0,-0.008285639807581902,0.7858081459999084,0.0,-0.03833306208252907
340.0,344.0,5.8307,-0.5097,7.3202,-0.0418,0.0159,-0.1118,-1.5554042619517823,0.0,1.9666732549667358,-1.185800313949585,-0.0,2.0546765327453613,3.5765225130268554,0.0,0.26966598629951477,-1.5831177870379847,-0.0,-0.013966888189315796,0.8532512187957764,-0.0,-0.005699131637811661,0.7858121991157532,0.0,-0.019181426614522934
340.0,344.0,5.8307,-0.5097,7.3202,-0.0418,0.0159,-0.1118,-1.5554520844346662,0.0,1.9583208560943604,-1.1858446598052979,-0.0,2.0667073726654053,3.5764667230793457,0.0,0.2789725363254547,-1.5830939451800745,-0.0,0.001993066631257534,0.8532388210296631,-0.0,-0.015539336949586868,0.7858843803405762,0.0,-0.03424391523003578
340.0,344.0,5.8307,-0.5097,7.3202,-0.0418,0.0159,-0.1118,-1.5553923289156337,0.0,1.9527318477630615,-1.1858208179473877,-0.0,2.0362861156463623,3.5765387254902343,0.0,0.27333253622055054,-1.5830901304828089,-0.0,-0.012439239770174026,0.8531994819641113,-0.0,-0.0023824889212846756,0.785828173160553,0.0,-0.04611366614699364
340.0,344.0,5.8307,-0.5097,7.3202,-0.0418,0.0159,-0.1118,-1.5553922609290858,0.0,1.9826204776763916,-1.1858124732971191,-0.0,2.0043246746063232,3.5765425401875,0.0,0.28385600447654724,-1.5831297079669397,-0.0,-0.0024781792890280485,0.8532674908638,-0.0,-0.013600322417914867,0.785828173160553,0.0,0.014643910340964794
340.0,344.0,5.8307,-0.5097,7.3202,-0.0418,0.0159,-0.1118,-1.5553962991437693,0.0,1.972473382949829,-1.185880422592163,-0.0,2.0614593029022217,3.5765387254902343,0.0,0.29343193769454956,-1.5831216017352503,-0.0,-0.00502655329182744,0.8532075881958008,-0.0,-0.013956533744931221,0.7858765721321106,0.0,-0.04304362088441849
340.0,344.0,5.8307,-0.5097,7.3202,-0.0418,0.0159,-0.1118,-1.5554241782850404,0.0,1.9339401721954346,-1.1858001947402954,-0.0,2.0917491912841797,3.5765506464191894,0.0,0.28049585223197937,-1.5831025282489222,-0.0,-0.0043639494106173515,0.8532354831695557,-0.0,-0.011278376914560795,0.7858644127845764,0.0,0.034344904124736786
340.0,344.0,5.8307,-0.5097,7.3202,-0.0418,0.0159,-0.1118,-1.555380225447454,0.0,1.966853141784668,-1.1858248710632324,-0.0,2.0486576557159424,3.5764619547077636,0.0,0.27674105763435364,-1.5831144491778772,-0.0,-0.0027782334946095943,0.8532273769378662,-0.0,-0.0020229776855558157,0.7858241200447083,0.0,-0.050520315766334534
340.0,344.0,5.8307,-0.5097,7.3202,-0.0418,0.0159,-0.1118,-1.5553962833112855,0.0,1.9666688442230225,-1.1858446598052979,-0.0,2.052210807800293,3.5765625673481445,0.0,0.2814939618110657,-1.5830944220172327,-0.0,-0.009641367942094803,0.8532555103302002,-0.0,0.0019355122931301594,0.7858363389968872,0.0,-0.013949071988463402
340.0,344.0,5.8307,-0.5097,7.3202,-0.0418,0.0159,-0.1118,-1.5553882366842409,0.0,1.9760148525238037,-1.1858527660369873,-0.0,2.0755069255828857,3.5765105920979003,0.0,0.2771015465259552,-1.583113972340719,-0.0,-0.01722745969891548,0.8532387614250183,-0.0,-0.012653414160013199,0.7858081459999084,0.0,-0.01583038456737995
340.0,344.0,5.8307,-0.5097,7.3202,-0.0418,0.0159,-0.1118,-1.555428223018982,0.0,1.9341062307357788,-1.1858642101287842,-0.0,2.040757417678833,3.57651869832959,0.0,0.2812802195549011,-1.583085838948385,-0.0,-0.00046893185935914516,0.8532791137695312,-0.0,-0.00019738241098821163,0.7858443260192871,0.0,0.02251964993774891
340.0,344.0,5.8307,-0.5097,7.3202,-0.0418,0.0159,-0.1118,-1.5554082750207563,0.0,1.942687749862671,-1.1857843399047852,-0.0,2.027151584625244,3.576502485866211,0.0,0.2844724655151367,-1.5830820242511194,-0.0,0.00409883726388216,0.8531875610351562,-0.0,-0.009114406071603298,0.785804033279419,0.0,-0.00469282828271389
340.0,344.0,5.8307,-0.5097,7.3202,-0.0418,0.0159,-0.1118,-1.5554121735370536,0.0,1.9657764434814453,-1.1858646869659424,-0.0,2.019476890563965,3.576514406795166,0.0,0.2880287170410156,-1.583085838948385,-0.0,-0.004854790400713682,0.8532235622406006,-0.0,-0.02703610248863697,0.785828173160553,0.0,0.003124845214188099
340.0,344.0,5.8307,-0.5097,7.3202,-0.0418,0.0159,-0.1118,-1.5554122052020212,0.0,1.9611988067626953,-1.1858608722686768,-0.0,2.0135338306427,3.5765425401875,0.0,0.2780880033969879,-1.5831177870379847,-0.0,0.00985045451670885,0.853187620639801,-0.0,-0.006200467236340046,0.7858725190162659,0.0,0.0027861380949616432
340.0,344.0,5.8307,-0.5097,7.3202,-0.0418,0.0159,-0.1118,-1.5554322081482788,0.0,1.964477777481079,-1.1858363151550293,-0.0,2.037022590637207,3.5765668588825683,0.0,0.2836097478866577,-1.5831101576434534,-0.0,-0.01765538565814495,0.8532154560089111,-0.0,-0.006164878141134977,0.7858322858810425,0.0,-9.655766189098358e-05
324.0,337.0,6.0138,-0.4199,6.9649,-0.0359,0.0237,-0.1179,-1.5554003001055499,0.0,1.9551726579666138,-1.1858848333358765,-0.0,2.0568687915802,3.5765063005634765,0.0,0.2689058780670166,-1.5830782095538538,-0.0,-0.006866440176963806,0.8532155156135559,-0.0,-0.00919286161661148,0.7858725190162659,0.0,0.020391574129462242
324.0,337.0,6.0138,-0.4199,6.9649,-0.0359,0.0237,-0.1179,-1.55542014845226,0.0,1.9339888095855713,-1.1858208179473877,-0.0,2.0217461585998535,3.5764786440083007,0.0,0.27407538890838623,-1.5831339995013636,-0.0,-0.009386884048581123,0.8531954288482666,-0.0,-0.007196382619440556,0.7858402729034424,0.0,0.06206459179520607
324.0,337.0,6.0138,-0.4199,6.9649,-0.0359,0.0237,-0.1179,-1.5554083076170464,0.0,1.9691282510757446,-1.1857964992523193,-0.0,2.03128981590271,3.5765835481831054,0.0,0.271648108959198,-1.5831063429461878,-0.0,0.0005767801776528358,0.8532195091247559,-0.0,-0.007475094869732857,0.7858443260192871,0.0,0.014750627800822258
324.0,337.0,6.0138,-0.4199,6.9649,-0.0359,0.0237,-0.1179,-1.5554481225884338,0.0,1.9984259605407715,-1.1857922077178955,-0.0,2.0598487854003906,3.576490564937256,0.0,0.2797965109348297,-1.583085838948385,-0.0,-0.002465298864990473,0.8532236218452454,-0.0,-0.0005313819274306297,0.7858241200447083,0.0,-0.01138131134212017
324.0,337.0,6.0138,-0.4199,6.9649,-0.0359,0.0237,-0.1179,-1.5554041380858799,0.0,1.9646785259246826,-1.1857962608337402,-0.0,2.024549961090088,3.5765792566486816,0.0,0.2853906452655792,-1.5831025282489222,-0.0,-0.004388865549117327,0.8532593846321106,-0.0,0.002725643338635564,0.785828173160553,0.0,-0.047745924443006516
324.0,337.0,6.0138,-0.4199,6.9649,-0.0359,0.0237,-0.1179,-1.5554042461192985,0.0,1.964667797088623,-1.1859089136123657,-0.0,2.018343448638916,3.5765425401875,0.0,0.2881440222263336,-1.5831101576434534,-0.0,-0.00358638446778059,0.8532508611679077,-0.0,-0.012682106345891953,0.7858484387397766,0.0,0.028438303619623184
324.0,337.0,6.0138,-0.4199,6.9649,-0.0359,0.0237,-0.1179,-1.5554042461192985,0.0,1.9932881593704224,-1.1857802867889404,-0.0,2.0246403217315674,3.5764986711689453,0.0,0.26558828353881836,-1.5831459204303187,-0.0,-0.011683359742164612,0.8532752990722656,-0.0,-0.02286224439740181,0.7858443260192871,0.0,0.03288119286298752
324.0,337.0,6.0138,-0.4199,6.9649,-0.0359,0.0237,-0.1179,-1.5554161828807374,0.0,1.9618098735809326,-1.185792088508606,-0.0,2.055756092071533,3.5765625673481445,0.0,0.28198784589767456,-1.5831216017352503,-0.0,-0.004470444284379482,0.8532233834266663,-0.0,-0.011086828075349331,0.7858443260192871,0.0,-0.049682166427373886
324.0,337.0,6.0138,-0.4199,6.9649,-0.0359,0.0237,-0.1179,-1.555424253722169,0.0,2.0158941745758057,-1.1857883930206299,-0.0,1.9940884113311768,3.5764943796345214,0.0,0.2947643995285034,-1.5830982367144983,-0.0,-0.007946668192744255,0.8532388210296631,-0.0,-0.016774095594882965,0.7858121991157532,0.0,0.062321633100509644
324.0,337.0,6.0138,-0.4199,6.9649,-0.0359,0.0237,-0.1179,-1.5554161828807374,0.0,1.981514811515808,-1.1858127117156982,-0.0,2.0182719230651855,3.5765425401875,0.0,0.2727644741535187,-1.5831382910357874,-0.0,-0.007032892666757107,0.8532314896583557,-0.0,-0.012983648106455803,0.7858603000640869,0.0,-0.017064597457647324
324.0,337.0,6.0138,-0.4199,6.9649,-0.0359,0.0237,-0.1179,-1.5554121735370536,0.0,1.961839199066162,-1.1858043670654297,-0.0,2.0180063247680664,3.576514406795166,0.0,0.27823424339294434,-1.5831216017352503,-0.0,-0.013909819535911083,0.8532549738883972,-0.0,-0.018394870683550835,0.7858643531799316,0.0,-0.012736042961478233
324.0,337.0,6.0138,-0.4199,6.9649,-0.0359,0.0237,-0.1179,-1.5554042619517823,0.0,1.9727318286895752,-1.1858642101287842,-0.0,2.040842056274414,3.5765182214924316,0.0,0.28442636132240295,-1.5831216017352503,-0.0,-0.008683507330715656,0.853255033493042,-0.0,-0.01723172329366207,0.7858725190162659,0.0,-0.04267299175262451
324.0,337.0,6.0138,-0.4199,6.9649,-0.0359,0.0237,-0.1179,-1.5554042619517823,0.0,1.9932026863098145,-1.1858487129211426,-0.0,2.005805015563965,3.5764943796345214,0.0,0.2714368999004364,-1.5831096808062952,-0.0,-0.004263103008270264,0.853246808052063,-0.0,-0.005229961592704058,0.785848081111908,0.0,-0.013360230252146721
324.0,337.0,6.0138,-0.4199,6.9649,-0.0359,0.0237,-0.1179,-1.5554362016594787,0.0,1.9693031311035156,-1.1858723163604736,-0.0,2.0331850051879883,3.5765268045612792,0.0,0.27155598998069763,-1.583085838948385,-0.0,-0.0036710351705551147,0.8532388210296631,-0.0,-0.0018130912212654948,0.7858404517173767,0.0,0.03881589695811272
324.0,337.0,6.0138,-0.4199,6.9649,-0.0359,0.0237,-0.1179,-1.5554282388514657,0.0,1.9751901626586914,-1.1858444213867188,-0.0,2.065478801727295,3.5764543253132324,0.0,0.2644139528274536,-1.5831502119647425,-0.0,-0.008802415803074837,0.8532593846321106,-0.0,-0.0016220079269260168,0.7858042120933533,0.0,-0.003490134608000517
324.0,337.0,6.0138,-0.4199,6.9649,-0.0359,0.0237,-0.1179,-1.555420196881034,0.0,1.9904625415802002,-1.185868263244629,-0.0,2.071634531021118,3.576486273402832,0.0,0.28416958451271057,-1.5830944220172327,-0.0,-0.0053803762421011925,0.853246808052063,-0.0,-0.013516123406589031,0.7858404517173767,0.0,0.02607681415975094
333.0,327.0,5.8875,-0.5246,7.1635,-0.0298,0.0209,-0.1129,-1.5554002926549693,0.0,1.9374663829803467,-1.1858043670654297,-0.0,2.0520758628845215,3.5765425401875,0.0,0.2750221788883209,-1.5831578413592737,-0.0,0.004764052573591471,0.8532674908638,-0.0,-0.00864408165216446,0.7858684659004211,0.0,-0.010930543765425682
333.0,327.0,5.8875,-0.5246,7.1635,-0.0298,0.0209,-0.1129,-1.5553962833112855,0.0,1.9496476650238037,-1.1857362985610962,-0.0,2.0052902698516846,3.576514883632324,0.0,0.277732253074646,-1.5831258932696741,-0.0,0.0011345003731548786,0.853203535079956,-0.0,0.0056071775034070015,0.7858562469482422,0.0,0.0026281382888555527
333.0,327.0,5.8875,-0.5246,7.1635,-0.0298,0.0209,-0.1129,-1.555388188255467,0.0,2.003634452819824,-1.1858322620391846,-0.0,2.0670318603515625,3.576530619258545,0.0,0.2878970801830292,-1.5831101576434534,-0.0,-0.0062827360816299915,0.853234589099884,-0.0,-0.004137334413826466,0.7858322858810425,0.0,0.03160565346479416
333.0,327.0,5.8875,-0.5246,7.1635,-0.0298,0.0209,-0.1129,-1.555432260302343,0.0,1.960437536239624,-1.1858601570129395,-0.0,2.0318565368652344,3.5765425401875,0.0,0.27665743231773376,-1.5831096808062952,-0.0,-0.0006716081406921148,0.8532117605209351,-0.0,0.00965343602001667,0.7857961058616638,0.0,0.03013995662331581
333.0,327.0,5.8875,-0.5246,7.1635,-0.0298,0.0209,-0.1129,-1.5554402631572266,0.0,1.9262937307357788,-1.1858208179473877,-0.0,2.0637733936309814,3.5765268045612792,0.0,0.28030943870544434,-1.5830944220172327,-0.0,-0.010408218950033188,0.8531914949417114,-0.0,-0.007586790714412928,0.7858603000640869,0.0,-0.0008750560227781534
333.0,327.0,5.8875,-0.5246,7.1635,-0.0298,0.0209,-0.1129,-1.555388212469854,0.0,1.9677239656448364,-1.1858043670654297,-0.0,2.027193546295166,3.576458616847656,0.0,0.27959856390953064,-1.5831216017352503,-0.0,-0.01469467580318451,0.8532438278198242,-0.0,-0.010059268213808537,0.7858443260192871,0.0,0.015648508444428444
333.0,327.0,5.8875,-0.5246,7.1635,-0.0298,0.0209,-0.1129,-1.5554201363450666,0.0,1.960707426071167,-1.1858322620391846,-0.0,2.0567398071289062,3.576546831721924,0.0,0.27769672870635986,-1.5831063429461878,-0.0,-0.005013789050281048,0.8532593846321106,-0.0,0.0014612260274589062,0.7858443260192871,0.0,-0.025371216237545013
333.0,327.0,5.8875,-0.5246,7.1635,-0.0298,0.0209,-0.1129,-1.5554002926549693,0.0,1.9790854454040527,-1.1858723163604736,-0.0,2.041342258453369,3.576498194331787,0.0,0.27712318301200867,-1.5830982367144983,-0.0,-0.004897329490631819,0.8531994819641113,-0.0,-0.019214218482375145,0.7858925461769104,0.0,0.032908156514167786
333.0,327.0,5.8875,-0.5246,7.1635,-0.0298,0.0209,-0.1129,-1.555428223018982,0.0,1.972954511642456,-1.1858124732971191,-0.0,2.0330820083618164,3.5764943796345214,0.0,0.28085172176361084,-1.5831025282489222,-0.0,-0.003023720346391201,0.8532426953315735,-0.0,-0.014478964731097221,0.7858042120933533,0.0,-0.03333669528365135
333.0,327.0,5.8875,-0.5246,7.1635,-0.0298,0.0209,-0.1129,-1.555428223018982,0.0,2.0180463790893555,-1.1858322620391846,-0.0,2.034924268722534,3.576558752650879,0.0,0.28178709745407104,-1.5831459204303187,-0.0,0.0012835063971579075,0.8531871438026428,-0.0,-0.004773349966853857,0.7858402729034424,0.0,-0.016226407140493393
333.0,327.0,5.8875,-0.5246,7.1635,-0.0298,0.0209,-0.1129,-1.5554201521775504,0.0,1.9659199714660645,-1.1858241558074951,-0.0,2.068748950958252,3.5765425401875,0.0,0.2746331989765167,-1.5831177870379847,-0.0,-0.002276086248457432,0.8531994819641113,-0.0,-0.012719149701297283,0.7858363389968872,0.0,0.054421063512563705
333.0,327.0,5.8875,-0.5246,7.1635,-0.0298,0.0209,-0.1129,-1.5554282388514657,0.0,1.9408642053604126,-1.185800313949585,-0.0,2.0475902557373047,3.576502485866211,0.0,0.29333609342575073,-1.5831216017352503,-0.0,-0.01919211819767952,0.8531994819641113,-0.0,-0.011057858355343342,0.7858121991157532,0.0,-0.03425922617316246
333.0,327.0,5.8875,-0.5246,7.1635,-0.0298,0.0209,-0.1129,-1.5554441495663305,0.0,2.029963970184326,-1.185800313949585,-0.0,2.050977945327759,3.5764986711689453,0.0,0.2786408066749573,-1.583142105733053,-0.0,-0.004304141737520695,0.8532471060752869,-0.0,-0.012269338592886925,0.785828173160553,0.0,0.04558167979121208
333.0,327.0,5.8875,-0.5246,7.1635,-0.0298,0.0209,-0.1129,-1.5554082675701757,0.0,1.9858837127685547,-1.185800313949585,-0.0,2.06211256980896,3.5764986711689453,0.0,0.28455597162246704,-1.5831063429461878,-0.0,-0.008970389142632484,0.8532034754753113,-0.0,-0.008051536977291107,0.7858363389968872,0.0,-0.046965092420578
333.0,327.0,5.8875,-0.5246,7.1635,-0.0298,0.0209,-0.1129,-1.5554402110031624,0.0,2.0134735107421875,-1.185880422592163,-0.0,2.053722858428955,3.5764943796345214,0.0,0.28458213806152344,-1.5830820242511194,-0.0,-0.007407454773783684,0.8532388210296631,-0.0,-0.008184526115655899,0.7858361601829529,0.0,-0.006921451073139906
332.0,357.0,5.9043,-0.1567,7.1252,-0.018,0.0047,-0.1168,-1.5554162182709952,0.0,1.9801733493804932,-1.1857962608337402,-0.0,2.025195360183716,3.5765425401875,0.0,0.28392350673675537,-1.5831339995013636,-0.0,-0.01137453317642212,0.8532304763793945,-0.0,0.002521245740354061,0.7858322858810425,0.0,0.0017523596761748195
332.0,357.0,5.9043,-0.1567,7.1252,-0.018,0.0047,-0.1168,-1.555424253722169,0.0,1.962228536605835,-1.1858363151550293,-0.0,2.061649799346924,3.576514883632324,0.0,0.2715568542480469,-1.5831258932696741,-0.0,0.01385520026087761,0.8531950116157532,-0.0,-0.009543417021632195,0.7858725190162659,0.0,0.016393955796957016
332.0,357.0,5.9043,-0.1567,7.1252,-0.018,0.0047,-0.1168,-1.5554042619517823,0.0,1.9989689588546753,-1.1857802867889404,-0.0,2.0058674812316895,3.5765268045612792,0.0,0.2864600419998169,-1.5830944220172327,-0.0,-0.003934366628527641,0.853246808052063,-0.0,0.00040243915282189846,0.7858603000640869,0.0,0.023952381685376167
332.0,357.0,5.9043,-0.1567,7.1252,-0.018,0.0047,-0.1168,-1.5554520928165694,0.0,1.971555233001709,-1.1858608722686768,-0.0,2.0371909141540527,3.57651869832959,0.0,0.26869696378707886,-1.5830982367144983,-0.0,0.0019222249975427985,0.8532673120498657,-0.0,-0.008488225750625134,0.7858806848526001,0.0,-0.0012538015143945813
332.0,357.0,5.9043,-0.1567,7.1252,-0.018,0.0047,-0.1168,-1.5554042619517823,0.0,1.9501841068267822,-1.185873031616211,-0.0,2.037407636642456,3.5765301424213867,0.0,0.2864290475845337,-1.5831177870379847,-0.0,0.002897069090977311,0.8532396554946899,-0.0,-0.009163723327219486,0.7858603000640869,0.0,-0.006180587224662304
332.0,357.0,5.9043,-0.1567,7.1252,-0.018,0.0047,-0.1168,-1.5554481225884338,0.0,1.9551042318344116,-1.1857843399047852,-0.0,2.0957179069519043,3.5765425401875,0.0,0.2747724950313568,-1.5831216017352503,-0.0,-0.003919694572687149,0.853246808052063,-0.0,0.009370561689138412,0.7857961058616638,0.0,0.026360955089330673
332.0,357.0,5.9043,-0.1567,7.1252,-0.018,0.0047,-0.1168,-1.5553641843474288,0.0,1.9742988348007202,-1.1857962608337402,-0.0,2.0044476985931396,3.5765344339558105,0.0,0.2860378623008728,-1.5831177870379847,-0.0,-0.014257343485951424,0.853223443031311,-0.0,-0.0026489112060517073,0.7858121991157532,0.0,0.007182585075497627
332.0,357.0,5.9043,-0.1567,7.1252,-0.018,0.0047,-0.1168,-1.5553602141192933,0.0,1.9113627672195435,-1.1858124732971191,-0.0,2.0669288635253906,3.576558752650879,0.0,0.26967084407806396,-1.5830777327166956,-0.0,-0.011896583251655102,0.8532554507255554,-0.0,0.004478211980313063,0.7858322858810425,0.0,0.027588464319705963
332.0,357.0,5.9043,-0.1567,7.1252,-0.018,0.0047,-0.1168,-1.555388212469854,0.0,2.0180904865264893,-1.185800552368164,-0.0,2.0101397037506104,3.5765229898640136,0.0,0.2690788209438324,-1.5830777327166956,-0.0,-0.016575388610363007,0.853159487247467,-0.0,-0.002457752823829651,0.7858765721321106,0.0,-0.05980711802840233
332.0,357.0,5.9043,-0.1567,7.1252,-0.018,0.0047,-0.1168,-1.5554042619517823,0.0,1.9855681657791138,-1.1858208179473877,-0.0,2.0419623851776123,3.5765301424213867,0.0,0.27452921867370605,-1.5830939451800745,-0.0,-0.005603284575045109,0.8532076478004456,-0.0,-0.003817903809249401,0.7858562469482422,0.0,0.01977418176829815
332.0,357.0,5.9043,-0.1567,7.1252,-0.018,0.0047,-0.1168,-1.5553803250989695,0.0,1.9306707382202148,-1.1858444213867188,-0.0,2.017742156982422,3.5765425401875,0.0,0.28473013639450073,-1.5831339995013636,-0.0,-0.005793853662908077,0.8532549738883972,-0.0,0.002650289796292782,0.785828173160553,0.0,-0.017338279634714127
332.0,357.0,5.9043,-0.1567,7.1252,-0.018,0.0047,-0.1168,-1.5553802338293572,0.0,1.9906935691833496,-1.1857805252075195,-0.0,2.046795129776001,3.576514406795166,0.0,0.2678579092025757,-1.5831216017352503,-0.0,0.0003462398308329284,0.8532388210296631,-0.0,-0.018526142463088036,0.7857760787010193,0.0,0.02484380640089512
332.0,357.0,5.9043,-0.1567,7.1252,-0.018,0.0047,-0.1168,-1.555384243173041,0.0,1.9611058235168457,-1.1858124732971191,-0.0,2.0424952507019043,3.576502485866211,0.0,0.28047582507133484,-1.583085838948385,-0.0,-0.003960005473345518,0.8531954288482666,-0.0,-0.009407427161931992,0.7858445048332214,0.0,-0.01841411367058754
332.0,357.0,5.9043,-0.1567,7.1252,-0.018,0.0047,-0.1168,-1.5554242211258789,0.0,1.9637372493743896,-1.1858322620391846,-0.0,2.068455696105957,3.5764900881000976,0.0,0.2781982719898224,-1.5830977598773401,-0.0,-0.007101826369762421,0.8532427549362183,-0.0,-0.021175876259803772,0.785884439945221,0.0,-0.0027193939313292503
332.0,357.0,5.9043,-0.1567,7.1252,-0.018,0.0047,-0.1168,-1.5554681422984977,0.0,1.9556134939193726,-1.1858208179473877,-0.0,2.009634017944336,3.5765105920979003,0.0,0.2828252911567688,-1.583085838948385,-0.0,-0.0061057861894369125,0.8532554507255554,-0.0,-0.011449713259935379,0.785828173160553,0.0,0.03602146357297897
332.0,357.0,5.9043,-0.1567,7.1252,-0.018,0.0047,-0.1168,-1.5554042619517823,0.0,1.971951961517334,-1.1858526468276978,-0.0,2.009799003601074,3.5765344339558105,0.0,0.29395294189453125,-1.5831339995013636,-0.0,-0.004410296678543091,0.8532995581626892,-0.0,0.0041054850444197655,0.7858603000640869,0.0,0.01629682630300522
337.0,342.0,6.1765,-0.4995,6.8489,-0.0434,0.0182,-0.1159,-1.5554322044229885,0.0,2.0024526119232178,-1.1858601570129395,-0.0,2.0108823776245117,3.5765182214924316,0.0,0.28187453746795654,-1.5830982367144983,-0.0,-0.0070659019984304905,0.8532426953315735,-0.0,-0.007680632174015045,0.7858925461769104,0.0,0.021182173863053322
337.0,342.0,6.1765,-0.4995,6.8489,-0.0434,0.0182,-0.1159,-1.5554322407445689,0.0,1.9599539041519165,-1.1858042478561401,-0.0,1.9775716066360474,3.576546831721924,0.0,0.27802565693855286,-1.5830977598773401,-0.0,-0.013346084393560886,0.8531515002250671,-0.0,-0.00349260400980711,0.7858280539512634,0.0,-0.06665074080228806
337.0,342.0,6.1765,-0.4995,6.8489,-0.0434,0.0182,-0.1159,-1.5554282146370788,0.0,1.9735984802246094,-1.1858240365982056,-0.0,2.0132040977478027,3.5764943796345214,0.0,0.2757808566093445,-1.5830939451800745,-0.0,-0.008521475829184055,0.853255033493042,-0.0,-0.013421136885881424,0.7858521342277527,0.0,0.05458869785070419
337.0,342.0,6.1765,-0.4995,6.8489,-0.0434,0.0182,-0.1159,-1.5554161912626405,0.0,2.002256393432617,-1.1857964992523193,-0.0,2.0357742309570312,3.5764824587055664,0.0,0.2807495594024658,-1.5830538908587855,-0.0,-0.012738429941236973,0.8532835245132446,-0.0,-0.009352045133709908,0.7858762145042419,0.0,-0.04240367189049721
337.0,342.0,6.1765,-0.4995,6.8489,-0.0434,0.0182,-0.1159,-1.555408415650465,0.0,1.948859691619873,-1.185848593711853,-0.0,2.0652003288269043,3.576546831721924,0.0,0.2807745933532715,-1.583113972340719,-0.0,-0.009840376675128937,0.8532074689865112,-0.0,-0.00691002793610096,0.7858361601829529,0.0,-0.018324540928006172
337.0,342.0,6.1765,-0.4995,6.8489,-0.0434,0.0182,-0.1159,-1.5554121735370536,0.0,1.9907996654510498,-1.1857802867889404,-0.0,2.0511252880096436,3.576486273402832,0.0,0.263904869556427,-1.583154026662008,-0.0,0.010568440891802311,0.8532154560089111,-0.0,-0.010865156538784504,0.7858521342277527,0.0,0.03215062990784645
337.0,342.0,6.1765,-0.4995,6.8489,-0.0434,0.0182,-0.1159,-1.5554561934298654,0.0,1.9851008653640747,-1.185876727104187,-0.0,2.038349151611328,3.5765387254902343,0.0,0.2771855890750885,-1.5831177870379847,-0.0,0.006188412196934223,0.8532113432884216,-0.0,-0.016070455312728882,0.7858521342277527,0.0,0.03183913230895996
337.0,342.0,6.1765,-0.4995,6.8489,-0.0434,0.0182,-0.1159,-1.5554601627266784,0.0,1.9922738075256348,-1.1858322620391846,-0.0,2.0289103984832764,3.576474352473877,0.0,0.2647075355052948,-1.5831502119647425,-0.0,-0.005713867023587227,0.8532113432884216,-0.0,-0.011933724395930767,0.7858402729034424,0.0,0.006449148990213871
337.0,342.0,6.1765,-0.4995,6.8489,-0.0434,0.0182,-0.1159,-1.555428223018982,0.0,1.9795212745666504,-1.1858445405960083,8.015614283429784e-10,2.0280723571777344,3.5765463548847656,0.0,0.2837587893009186,-1.5831063429461878,-0.0,-0.002224557101726532,0.853219211101532,-0.0,0.0012751086615025997,0.7858200073242188,0.0,0.008032616227865219
337.0,342.0,6.1765,-0.4995,6.8489,-0.0434,0.0182,-0.1159,-1.555424253722169,0.0,1.9803926944732666,-1.1858445405960083,1.9356765369987327e-15,1.994807243347168,3.576514883632324,0.0,0.2688765823841095,-1.5831025282489222,-0.0,0.004986056126654148,0.8532273769378662,-0.0,-0.009426170028746128,0.7858562469482422,0.0,-0.008799536153674126
337.0,342.0,6.1765,-0.4995,6.8489,-0.0434,0.0182,-0.1159,-1.5554002926549693,0.0,2.0122029781341553,-1.1858445405960083,4.6744319727637546e-21,2.0497212409973145,3.5764943796345214,0.0,0.2836136221885681,-1.5831177870379847,-0.0,0.00016730371862649918,0.8532273769378662,-0.0,-0.013299317099153996,0.7858725190162659,0.0,-0.0077504427172243595
337.0,342.0,6.1765,-0.4995,6.8489,-0.0434,0.0182,-0.1159,-1.5554520928165694,0.0,1.947095513343811,-1.185840368270874,1.1288202041772157e-26,2.0134100914001465,3.5765182214924316,0.0,0.2885781228542328,-1.5831382910357874,-0.0,-0.0025157062336802483,0.8532113432884216,-0.0,-0.0069486522115767,0.7858684062957764,0.0,0.006928776856511831
337.0,342.0,6.1765,-0.4995,6.8489,-0.0434,0.0182,-0.1159,-1.5554241298562665,0.0,1.9438179731369019,-1.1858848333358765,2.725967873073832e-32,2.033456802368164,3.5765301424213867,0.0,0.2859956920146942,-1.583085838948385,-0.0,0.004404399078339338,0.8532314896583557,-0.0,-0.0032828475814312696,0.7858644127845764,0.0,0.010480968281626701
337.0,342.0,6.1765,-0.4995,6.8489,-0.0434,0.0182,-0.1159,-1.555460019303002,0.0,1.9928240776062012,-1.185840368270874,6.582892127285179e-38,2.024890899658203,3.5765344339558105,0.0,0.2852034270763397,-1.5830820242511194,-0.0,-0.019623219966888428,0.8532468676567078,-0.0,-0.011993056163191795,0.7858402729034424,0.0,0.0334240086376667
337.0,342.0,6.1765,-0.4995,6.8489,-0.0434,0.0182,-0.1159,-1.555412185644247,0.0,1.9313082695007324,-1.185856819152832,1.5834672646870433e-43,2.070385694503784,3.576514406795166,0.0,0.29535725712776184,-1.5830939451800745,-0.0,-0.002994681242853403,0.8532154560089111,-0.0,-0.0028193737380206585,0.7858200073242188,0.0,0.06029365211725235
333.0,324.0,5.5448,-0.5474,7.4231,-0.0331,0.0255,-0.1133,-1.5554081958583375,0.0,1.9980363845825195,-1.1858845949172974,-0.0,2.043241500854492,3.5765835481831054,0.0,0.27698686718940735,-1.5830944220172327,-0.0,0.0007906243554316461,0.8532427549362183,-0.0,-0.018288293853402138,0.7858524918556213,0.0,0.041972383856773376
333.0,324.0,5.5448,-0.5474,7.4231,-0.0331,0.0255,-0.1133,-1.5553922059810539,0.0,1.9565526247024536,-1.1858446598052979,-0.0,2.0420923233032227,3.576558752650879,0.0,0.28030455112457275,-1.5831177870379847,-0.0,0.0012717307545244694,0.8532554507255554,-0.0,-0.015532001852989197,0.785828173160553,0.0,0.0015760547248646617
333.0,324.0,5.5448,-0.5474,7.4231,-0.0331,0.0255,-0.1133,-1.5554362016594787,0.0,1.9755055904388428,-1.1858208179473877,-0.0,2.050780773162842,3.576546831721924,0.0,0.28625941276550293,-1.583085838948385,-0.0,-0.02349814400076866,0.8532114028930664,-0.0,-0.013189395889639854,0.7858521342277527,0.0,-0.0048853131011128426
333.0,324.0,5.5448,-0.5474,7.4231,-0.0331,0.0255,-0.1133,-1.555408271295466,0.0,1.9659558534622192,-1.1858208179473877,2.8324026061454788e-05,2.04998517036438,3.576546831721924,0.0,0.28070059418678284,-1.5831459204303187,-0.0,-0.009865449741482735,0.8532154560089111,-0.0,-0.004794799257069826,0.785828173160553,0.0,-0.04032263159751892
333.0,324.0,5.5448,-0.5474,7.4231,-0.0331,0.0255,-0.1133,-1.555352390078344,0.0,1.9381988048553467,-1.1858609914779663,2.5884863134706393e-05,2.076721668243408,3.576490564937256,0.0,0.2814091444015503,-1.5831339995013636,-0.0,-0.0077099488116800785,0.8532314300537109,-0.0,-0.005584163125604391,0.785828173160553,0.0,-0.010099409148097038
333.0,324.0,5.5448,-0.5474,7.4231,-0.0331,0.0255,-0.1133,-1.5554361783764143,0.0,1.957777976989746,-1.1858083009719849,2.3828803023207e-05,2.0594515800476074,3.576558752650879,0.0,0.2739182114601135,-1.5831216017352503,-0.0,0.00084275146946311,0.8532553911209106,-0.0,-0.009175268933176994,0.7858402729034424,0.0,-0.027211247012019157
333.0,324.0,5.5448,-0.5474,7.4231,-0.0331,0.0255,-0.1133,-1.5554161828807374,0.0,1.9563201665878296,-1.1858330965042114,2.2075388187658973e-05,2.0453062057495117,3.576558752650879,0.0,0.27818384766578674,-1.5831063429461878,-0.0,-0.005030808970332146,0.8532355427742004,-0.0,-0.00568627193570137,0.7858203649520874,0.0,-0.005839328281581402
333.0,324.0,5.5448,-0.5474,7.4231,-0.0331,0.0255,-0.1133,-1.5553962833112855,0.0,1.9730621576309204,-1.185876488685608,2.0562303689075634e-05,2.0570626258850098,3.5765225130268554,0.0,0.2741440236568451,-1.5830820242511194,-0.0,0.0016955704195424914,0.8532236814498901,-0.0,1.0095536708831787e-05,0.785828173160553,0.0,-0.03564831241965294
333.0,324.0,5.5448,-0.5474,7.4231,-0.0331,0.0255,-0.1133,-1.5554402110031624,0.0,2.0025131702423096,-1.1858205795288086,3.8396432501031086e-05,2.0479869842529297,3.5765463548847656,0.0,0.2785545289516449,-1.5831101576434534,-0.0,-0.00813285168260336,0.8532468676567078,-0.0,0.004304465837776661,0.7858765721321106,0.0,-0.01883459836244583
333.0,324.0,5.5448,-0.5474,7.4231,-0.0331,0.0255,-0.1133,-1.5553602821058412,0.0,1.9701429605484009,-1.185800552368164,7.160874520195648e-05,2.014216184616089,3.576554461116455,3.472548826266575e-08,0.2778049111366272,-1.5831177870379847,-0.0,-0.013189656659960747,0.8532355427742004,-0.0,-0.02204619161784649,0.7858765721321106,0.0,0.006615715567022562
333.0,324.0,5.5448,-0.5474,7.4231,-0.0331,0.0255,-0.1133,-1.5553760279766102,9.616973693482578e-05,1.942307472229004,-1.1858124732971191,0.0002689285611268133,1.9912323951721191,3.576571150416992,9.665967679040044e-12,0.27050137519836426,-1.5831025282489222,-0.0,-0.0032992111518979073,0.8532675504684448,-0.0,0.0008109113550744951,0.7858603000640869,0.0,0.00761142373085022
333.0,324.0,5.5448,-0.5474,7.4231,-0.0331,0.0255,-0.1133,-1.5554162424853821,0.00011272256961092353,1.943650245666504,-1.1857845783233643,0.0008409799193032086,2.044382333755493,3.5766231256672363,2.6905578053059223e-15,0.26808109879493713,-1.5831463972674769,-0.0,-0.004180758725851774,0.853179395198822,-0.0,-0.013571623712778091,0.7858643531799316,0.0,0.05052996426820755
333.0,324.0,5.5448,-0.5474,7.4231,-0.0331,0.0255,-0.1133,-1.5553480827114363,0.0001222867431351915,1.9668972492218018,-1.1858046054840088,0.0007593145128339529,2.0533554553985596,3.5765225130268554,7.489266382685205e-19,0.26591506600379944,-1.5830820242511194,-0.0,0.003956382162868977,0.8532634973526001,-0.0,-0.010763730853796005,0.7858524918556213,0.0,0.051140762865543365
333.0,324.0,5.5448,-0.5474,7.4231,-0.0331,0.0255,-0.1133,-1.5553962395391245,0.00011636064300546423,1.9570987224578857,-1.1858086585998535,0.0006375547382049263,2.0200958251953125,3.5765463548847656,0.0003259188961237669,0.28094711899757385,-1.5831339995013636,-0.0,-0.01090698316693306,0.8532154560089111,-0.0,-0.005841880105435848,0.7858925461769104,0.0,-0.03302532806992531
333.0,324.0,5.5448,-0.5474,7.4231,-0.0331,0.0255,-0.1133,-1.555368260746338,0.0001109800796257332,1.948183298110962,-1.1858124732971191,0.0005037390510551631,2.043944835662842,3.5765301424213867,0.0002718089963309467,0.2816014289855957,-1.5831459204303187,-0.0,-0.010809270665049553,0.8532150983810425,-0.0,-0.0087601188570261,0.7858603000640869,0.0,-0.01118185929954052
354.0,340.0,6.2632,-0.9476,6.7017,-0.0528,-0.0047,-0.1141,-1.555364291449525,0.00010607501462800428,1.9263248443603516,-1.185800552368164,0.0004163371922913939,1.9873976707458496,3.5765301424213867,0.00023009793949313462,0.27403169870376587,-1.5831177870379847,-0.0,0.0017098153475672007,0.8531991243362427,-0.0,-0.007316711824387312,0.7858524918556213,0.0,0.043780699372291565
354.0,340.0,6.2632,-0.9476,6.7017,-0.0528,-0.0047,-0.1141,-1.5553721629879256,0.00010158526129089296,1.992863655090332,-1.185776710510254,0.0003547841915860772,2.0048422813415527,3.5765668588825683,0.00019948830595239997,0.2865632474422455,-1.583113972340719,-0.0,0.0034812726080417633,0.853234589099884,-0.0,0.0032733881380409002,0.7858684062957764,0.0,0.05529898405075073
354.0,340.0,6.2632,-0.9476,6.7017,-0.0528,-0.0047,-0.1141,-1.5553721629879256,9.746009163791314e-05,1.9292047023773193,-1.1858046054840088,0.00030908852932043374,2.034902811050415,3.5765463548847656,0.00021005947201047093,0.2747877836227417,-1.5831339995013636,-0.0,-0.003861737437546253,0.8532314896583557,-0.0,0.001232047681696713,0.7858282327651978,0.0,0.030732301995158195
354.0,340.0,6.2632,-0.9476,6.7017,-0.0528,-0.0047,-0.1141,-1.555380181675293,9.36569704208523e-05,2.0117645263671875,-1.1858445405960083,0.00027382164262235165,2.0551223754882812,3.576554461116455,0.0001890830899355933,0.2813352346420288,-1.5831339995013636,-0.0,-0.012266580946743488,0.8532355427742004,-0.0,-0.006241048686206341,0.7858603000640869,0.0,0.01035027951002121
354.0,340.0,6.2632,-0.9476,6.7017,-0.0528,-0.0047,-0.1141,-1.5553400798565526,9.013942326419055e-05,1.9425873756408691,-1.1857603788375854,0.0002457789669279009,2.0604100227355957,3.576583071345947,0.00017110702174250036,0.2658117413520813,-1.5831177870379847,-0.0,0.004277312196791172,0.8532314896583557,-0.0,-0.004731331951916218,0.7858806848526001,0.0,-0.01146957091987133
354.0,340.0,6.2632,-0.9476,6.7017,-0.0528,-0.0047,-0.1141,-1.5553642830676218,8.68765710038133e-05,1.9627447128295898,-1.1858288049697876,0.0002229473029728979,2.0838963985443115,3.5765630441853027,0.00015625239757355303,0.28411665558815,-1.5831177870379847,-0.0,0.005170081742107868,0.8532634377479553,-0.0,-0.004788238555192947,0.7858884930610657,0.0,0.02119756117463112
354.0,340.0,6.2632,-0.9476,6.7017,-0.0528,-0.0047,-0.1141,-1.5553722700900217,8.384166721953079e-05,1.9213223457336426,-1.185800552368164,0.00020399666391313076,2.017475128173828,3.576522036189697,0.0001437711762264371,0.26642823219299316,-1.5831339995013636,-0.0,-0.03018002025783062,0.8532233834266663,-0.0,-0.005352260544896126,0.785828173160553,0.0,-0.0033172923140227795
354.0,340.0,6.2632,-0.9476,6.7017,-0.0528,-0.0047,-0.1141,-1.555380181675293,0.00011527558672241867,1.9653233289718628,-1.1858165264129639,0.00018801548867486417,2.0281805992126465,3.576510115260742,0.00013313662202563137,0.27968475222587585,-1.5831263701068323,-0.0,-0.009658124297857285,0.8532355427742004,-0.0,-0.009361926466226578,0.7858443260192871,0.0,-0.04511094093322754
354.0,340.0,6.2632,-0.9476,6.7017,-0.0528,-0.0047,-0.1141,-1.5553722812658926,0.0001110346638597548,1.9470022916793823,-1.1857484579086304,0.00017435634799767286,2.054215431213379,3.5765301424213867,0.00012396695092320442,0.2621598243713379,-1.583113972340719,-0.0,-0.004248956684023142,0.8532317876815796,-0.0,-0.004837682470679283,0.7858402729034424,0.0,0.02611532434821129
354.0,340.0,6.2632,-0.9476,6.7017,-0.0528,-0.0047,-0.1141,-1.5553480827114363,0.00010338200809201226,1.925877571105957,-1.1857726573944092,0.0001625476434128359,2.018622398376465,3.5765668588825683,9.681880328571424e-05,0.2682996988296509,-1.583113972340719,-0.0,-0.004320177249610424,0.8532427549362183,-0.0,-0.0021911622025072575,0.7858521342277527,7.151862746468396e-07,-0.0176452174782753
354.0,340.0,6.2632,-0.9476,6.7017,-0.0528,-0.0047,-0.1141,-1.5553842906704922,7.737342093605548e-05,1.9391911029815674,-1.1858124732971191,0.00015223688387777656,2.0098347663879395,3.5765301424213867,9.079885785467923e-05,0.2781388759613037,-1.5831177870379847,-0.0,-0.010797572322189808,0.853187620639801,-0.0,-0.003231266513466835,0.7858082056045532,1.7270906926825091e-12,0.009728891775012016
354.0,340.0,6.2632,-0.9476,6.7017,-0.0528,-0.0047,-0.1141,-1.5553962311572214,5.4599891882389784e-05,1.9647891521453857,-1.1857686042785645,0.00012526502541732043,2.037898063659668,3.5764986711689453,6.963248597458005e-05,0.2706853747367859,-1.583113972340719,-0.0,-0.005779259372502565,0.8532273769378662,-0.0,-0.00183271081186831,0.7858241200447083,4.170720335518414e-18,-0.015650173649191856
354.0,340.0,6.2632,-0.9476,6.7017,-0.0528,-0.0047,-0.1141,-1.5554082433557888,-0.0001740428269840777,1.9692163467407227,-1.1858124732971191,0.0001182107807835564,2.0178074836730957,3.5764824587055664,6.479478906840086e-05,0.2886659502983093,-1.5831216017352503,-0.0,-0.008534735068678856,0.8532674908638,-0.0,-0.004001580644398928,0.7858282327651978,1.0071798173488278e-23,-0.016470177099108696
354.0,340.0,6.2632,-0.9476,6.7017,-0.0528,-0.0047,-0.1141,-1.555403754380979,-0.0002459826646372676,2.0017809867858887,-1.1858046054840088,4.365535278338939e-05,2.0383472442626953,3.576490564937256,4.6174147428246215e-05,0.2938384413719177,-1.5831339995013636,-0.0,-0.0009457362466491759,0.8532387614250183,-0.0,0.0002569024218246341,0.7858483791351318,2.432220514653629e-29,0.030379358679056168
354.0,340.0,6.2632,-0.9476,6.7017,-0.0528,-0.0047,-0.1141,-1.5554401122829695,-0.0007760837324894965,1.9781485795974731,-1.1858164072036743,3.2724634365877137e-05,2.0372912883758545,3.5764824587055664,-3.628878039307892e-05,0.27133530378341675,-1.5830901304828089,-0.0,-0.003082702402025461,0.8531755208969116,-0.0,-0.0048447647131979465,0.7858244180679321,5.873525697635899e-35,-0.035157203674316406
354.0,340.0,6.2632,-0.9476,6.7017,-0.0528,-0.0047,-0.1141,-1.555464100358524,-0.000979453674517572,1.9939403533935547,-1.1858248710632324,3.103213748545386e-05,2.0231194496154785,3.5764943796345214,-3.4300570405321196e-05,0.2832135260105133,-1.583085838948385,-0.0,-0.0021117955911904573,0.8532032370567322,-0.0,-0.00659780390560627,0.7858361601829529,1.4183943055895798e-40,-0.022439762949943542
335.0,325.0,6.1137,-0.6508,6.9117,-0.0502,-0.0125,-0.1153,-1.5554601077786465,-0.0011461140820756555,1.9754505157470703,-1.1858206987380981,1.9794624677160755e-05,2.0172295570373535,3.5764943796345214,-3.2445710530737415e-05,0.2814979553222656,-1.5830901304828089,-0.0,0.005649748258292675,0.8532593250274658,-0.0,-0.0027057600673288107,0.7858200669288635,0.0,-0.03835377097129822
335.0,325.0,6.1137,-0.6508,6.9117,-0.0502,-0.0125,-0.1153,-1.5554761451533814,-0.0014428329886868596,1.9830983877182007,-1.1858278512954712,2.2388073617207738e-08,2.0183730125427246,3.57651869832959,-4.5908218453405425e-05,0.2762696146965027,-1.5830977598773401,-0.0,-0.005622895900160074,0.8532752990722656,-0.0,-0.007843885570764542,0.7858603000640869,0.0,0.032605208456516266
335.0,325.0,6.1137,-0.6508,6.9117,-0.0502,-0.0125,-0.1153,-1.5555037439665576,-0.002657560631632805,1.9853901863098145,-1.1858322620391846,5.40645680351462e-14,2.0465540885925293,3.576474829311035,-4.3918549636146054e-05,0.27777186036109924,-1.5831101576434534,-0.0,-0.010712958872318268,0.853246808052063,-0.0,-0.0027399654500186443,0.7858484983444214,0.0,-0.043343182653188705
335.0,325.0,6.1137,-0.6508,6.9117,-0.0502,-0.0125,-0.1153,-1.5555844095400353,-0.004713719245046377,1.9631850719451904,-1.185840368270874,1.3055957709656152e-19,2.05195689201355,3.5765387254902343,-4.187517333775759e-05,0.26860126852989197,-1.5830782095538538,-0.0,-0.012246567755937576,0.8532154560089111,-0.0,-0.01136046089231968,0.7858440279960632,0.0,-0.022148646414279938
335.0,325.0,6.1137,-0.6508,6.9117,-0.0502,-0.0125,-0.1153,-1.5555797566524525,-0.006601269822567701,1.9418408870697021,-1.1857962608337402,3.1528601014194484e-25,2.09085750579834,3.5764705377766113,-4.0013434045249596e-05,0.26695287227630615,-1.5830701033221644,-0.0,-0.007507202681154013,0.8532076478004456,-0.0,-0.011245767585933208,0.7858765721321106,0.0,0.02103685401380062
335.0,325.0,6.1137,-0.6508,6.9117,-0.0502,-0.0125,-0.1153,-1.555643991833069,-0.008034317754209042,1.9546386003494263,-1.1858363151550293,7.613786466349453e-31,1.9980292320251465,3.576514406795166,-3.831021240330301e-05,0.2787073254585266,-1.5830939451800745,-0.0,-0.008417125791311264,0.8532273769378662,-0.0,0.00367589108645916,0.7858803272247314,0.0,-0.01723424717783928
335.0,325.0,6.1137,-0.6508,6.9117,-0.0502,-0.0125,-0.1153,-1.55567998465661,-0.00946836732327938,1.9485970735549927,-1.185848593711853,1.8386395447763626e-36,2.015721559524536,3.5764824587055664,-3.674606341519393e-05,0.28497177362442017,-1.5830782095538538,-0.0,-0.012161272577941418,0.8532634377479553,-0.0,-0.0014886781573295593,0.7857919931411743,0.0,0.044842153787612915
335.0,325.0,6.1137,-0.6508,6.9117,-0.0502,-0.0125,-0.1153,-1.555767909889557,-0.010750903747975826,1.9213707447052002,-1.1858402490615845,-0.0001555318449391052,2.082568645477295,3.576474352473877,-4.629425529856235e-05,0.28313419222831726,-1.5831101576434534,-0.0,-0.008917411789298058,0.8532549142837524,-0.0,0.0036118938587605953,0.7858521342277527,0.000583515502512455,0.011280052363872528
335.0,325.0,6.1137,-0.6508,6.9117,-0.0502,-0.0125,-0.1153,-1.5558642533472558,-0.01239418052136898,1.925755262374878,-1.185876727104187,-0.0002274958387715742,2.0586118698120117,3.576446219081543,-4.529577199718915e-05,0.2842908203601837,-1.5830820242511194,-0.0,0.004638401325792074,0.8532388210296631,-0.0,-0.015397638082504272,0.7859083414077759,0.0005855121416971087,-0.07698231190443039
335.0,325.0,6.1137,-0.6508,6.9117,-0.0502,-0.0125,-0.1153,-1.555967628290393,-0.014641888439655304,1.9587953090667725,-1.1858445405960083,-0.0002370406873524189,2.0303595066070557,3.576502962703369,-4.364844426163472e-05,0.28236252069473267,-1.5831063429461878,-0.0,-0.01794852688908577,0.8532035946846008,-0.0,-0.004573523998260498,0.7858681082725525,0.000640859710983932,-0.01415901631116867
335.0,325.0,6.1137,-0.6508,6.9117,-0.0502,-0.0125,-0.1153,-1.5560355347445984,-0.015880122780799866,1.9542876482009888,-1.1858479976654053,-0.00027878835680894554,1.9917840957641602,3.5765387254902343,-4.211650957586244e-05,0.27592962980270386,-1.5830543676959437,-0.0,-0.025435050949454308,0.8532437682151794,-0.0,0.005028426181524992,0.7859082818031311,0.000554229598492384,0.01696029305458069
335.0,325.0,6.1137,-0.6508,6.9117,-0.0502,-0.0125,-0.1153,-1.5561636064997693,-0.016360148787498474,1.9609352350234985,-1.1858725547790527,-0.0003771682095248252,2.0542352199554443,3.5764824587055664,-4.06884792027995e-05,0.28202903270721436,-1.5831177870379847,-0.0,0.000896088604349643,0.8531914949417114,-0.0,0.010387047193944454,0.7859367728233337,0.0005011102766729891,0.021300025284290314
335.0,325.0,6.1137,-0.6508,6.9117,-0.0502,-0.0125,-0.1153,-1.5562674564174195,-0.017253413796424866,1.9286041259765625,-1.185928463935852,-0.0003018365241587162,2.0289926528930664,3.576559229488037,-2.5979434212786146e-06,0.2781432271003723,-1.5831177870379847,-0.0,-0.0028996651526540518,0.8532355427742004,-0.0,-0.005309246946126223,0.7859285473823547,0.0004041761567350477,0.005596322938799858
335.0,325.0,6.1137,-0.6508,6.9117,-0.0502,-0.0125,-0.1153,-1.5563913744739075,-0.017382662743330002,1.9808735847473145,-1.1858439445495605,-0.00030149053782224655,2.0238449573516846,3.5764705377766113,-7.231471532698208e-10,0.2808701992034912,-1.583102051411764,-0.0,-0.01181851141154766,0.8532509207725525,-0.0,-0.006409690715372562,0.7859203815460205,0.0003183782391715795,0.01228405348956585
335.0,325.0,6.1137,-0.6508,6.9117,-0.0502,-0.0125,-0.1153,-1.5565274844742198,-0.01676163263618946,1.982862949371338,-1.1858805418014526,-0.0003012256056535989,2.030144453048706,3.57651869832959,-2.0129068496656938e-13,0.2720346450805664,-1.5831339995013636,-0.0,-0.004542410373687744,0.8531914949417114,-0.0,-0.006090786308050156,0.7858762741088867,0.0002626251080073416,0.009881077334284782
346.0,342.0,5.2522,-0.7292,6.9912,-0.0678,-0.0284,-0.1109,-1.5566031497767945,-0.016171850264072418,1.9799714088439941,-1.1858805418014526,-0.00030113058164715767,2.08145809173584,3.5764667230793457,-5.603000523356539e-17,0.2693815231323242,-1.5830820242511194,-0.0,-0.0037017613649368286,0.8531994819641113,-0.0,-0.0014890562742948532,0.7859326601028442,0.00022349052596837282,0.014376879669725895
346.0,342.0,5.2522,-0.7292,6.9912,-0.0678,-0.0284,-0.1109,-1.556755351168551,-0.01629791595041752,1.926921010017395,-1.1859118938446045,-0.0002775536850094795,2.0629043579101562,3.576502962703369,-1.559615602315062e-20,0.284197062253952,-1.5830977598773401,-0.0,-0.021413154900074005,0.8531872034072876,-0.0,-0.01808967813849449,0.78592449426651,0.00019450808758847415,0.023863941431045532
346.0,342.0,5.2522,-0.7292,6.9912,-0.0678,-0.0284,-0.1109,-1.556823031311371,-0.017449552193284035,1.9418658018112183,-1.1858763694763184,-0.0002342133375350386,2.044365406036377,3.5764986711689453,-3.0207724194042385e-05,0.2793040871620178,-1.5831063429461878,-0.0,-0.0031542163342237473,0.8532554507255554,-0.0,-0.005120149813592434,0.7859001755714417,0.0001721798034850508,0.053730204701423645
346.0,342.0,5.2522,-0.7292,6.9912,-0.0678,-0.0284,-0.1109,-1.5569549177638073,-0.019040627405047417,1.9376089572906494,-1.1858881711959839,-0.000283415341982618,2.0846776962280273,3.57651869832959,-2.8815027690143324e-05,0.26829302310943604,-1.583061997090475,-0.0,0.002181516494601965,0.853246808052063,-0.0,-0.013188294135034084,0.7858923673629761,0.00012720035738311708,0.0008951316121965647
346.0,342.0,5.2522,-0.7292,6.9912,-0.0678,-0.0284,-0.1109,-1.557078955029585,-0.02095012366771698,1.9484920501708984,-1.185883641242981,-0.000630637223366648,2.0388870239257812,3.5764667230793457,-2.749462510109879e-05,0.27946895360946655,-1.5830977598773401,-0.0,-0.00013895973097532988,0.8532716631889343,-0.0,-0.011226829141378403,0.7858762145042419,0.00011202500172657892,0.027305470779538155
346.0,342.0,5.2522,-0.7292,6.9912,-0.0678,-0.0284,-0.1109,-1.557262835358717,-0.022979015484452248,1.9460792541503906,-1.1859687566757202,-0.0016645494615659118,2.039673328399658,3.576491041774414,-3.605119854910299e-05,0.2673998177051544,-1.583102051411764,-0.0,-0.005489323288202286,0.8532355427742004,-0.0,-0.007826656103134155,0.7859083414077759,0.0001024598313961178,0.02603343315422535
346.0,342.0,5.2522,-0.7292,6.9912,-0.0678,-0.0284,-0.1109,-1.5573989537409325,-0.02501532807946205,1.9549248218536377,-1.1859281063079834,-0.0022307841572910547,2.0513267517089844,3.5764667230793457,-3.7778550904477015e-05,0.2823069095611572,-1.5830662886248987,-0.0,-0.01117666158825159,0.8532593846321106,-0.0,-0.010755131021142006,0.7859124541282654,9.439959103474393e-05,0.009068828076124191
346.0,342.0,5.2522,-0.7292,6.9912,-0.0678,-0.0284,-0.1109,-1.5575138863972207,-0.025674622505903244,1.957458734512329,-1.185935616493225,-0.0040083834901452065,2.05511212348938,3.576514883632324,-3.625751560321078e-05,0.2606462240219116,-1.5831101576434534,-0.0,-0.002569831209257245,0.8532273769378662,-0.0,-0.019753601402044296,0.7858642339706421,6.56364718452096e-05,-0.002318897284567356
346.0,342.0,5.2522,-0.7292,6.9912,-0.0678,-0.0284,-0.1109,-1.5577143489247938,-0.028106074780225754,1.9282840490341187,-1.186043620109558,-0.00580989383161068,2.0373356342315674,3.5765506464191894,-3.485340130282566e-05,0.269861102104187,-1.5831058661090296,-0.0,-0.013440720736980438,0.8532031774520874,-0.0,-0.010470307432115078,0.7859164476394653,6.117490556789562e-05,-0.006589461117982864
346.0,342.0,5.2522,-0.7292,6.9912,-0.0678,-0.0284,-0.1109,-1.5579587624273081,-0.030823225155472755,1.9756529331207275,-1.1860679388046265,-0.006530436687171459,2.033046007156372,3.576474352473877,-3.355400622240268e-05,0.2724408209323883,-1.5830701033221644,-0.0,-0.009757475927472115,0.8532031774520874,-0.0,-0.013830289244651794,0.7858762145042419,5.72814024053514e-05,-0.010362692177295685
346.0,342.0,5.2522,-0.7292,6.9912,-0.0678,-0.0284,-0.1109,-1.5581101647442956,-0.03542722761631012,1.9565365314483643,-1.1860226392745972,-0.006331668235361576,2.0527167320251465,3.5765067774006347,-3.234801988583058e-05,0.28811150789260864,-1.5830977598773401,-0.0,-0.009453336708247662,0.853234589099884,-0.0,-0.002266836818307638,0.7858521342277527,-4.317937055020593e-05,-0.007942238822579384
346.0,342.0,5.2522,-0.7292,6.9912,-0.0678,-0.0284,-0.1109,-1.558390381080546,-0.04332834109663963,1.9288387298583984,-1.1861273050308228,-0.004623684100806713,2.040677070617676,3.576462431544922,-3.12257106998004e-05,0.28312480449676514,-1.5830701033221644,-0.0,-0.004175321664661169,0.853246808052063,-0.0,-0.0033967038616538048,0.7858883142471313,-6.189485429786146e-05,0.020725391805171967
346.0,342.0,5.2522,-0.7292,6.9912,-0.0678,-0.0284,-0.1109,-1.5586905314451833,-0.05191430822014809,1.9147742986679077,-1.1862034797668457,-0.003710550721734762,2.0078608989715576,3.5765110689350585,-3.017866038135253e-05,0.2783958613872528,-1.5830782095538538,-0.0,-0.011776686646044254,0.8531914353370667,-0.0,-0.0078545231372118,0.7858402729034424,-5.816125121782534e-05,0.040273889899253845
346.0,342.0,5.2522,-0.7292,6.9912,-0.0678,-0.0284,-0.1109,-1.5589856461486598,-0.059484973549842834,1.8760972023010254,-1.1861435174942017,-0.0025415390264242887,2.0669968128204346,3.576462431544922,-1.2723425868443883e-07,0.28569579124450684,-1.5830782095538538,-0.0,-0.02167864516377449,0.8532594442367554,-0.0,-0.008455456234514713,0.7858477830886841,-8.892016194295138e-05,0.053035274147987366
346.0,342.0,5.2522,-0.7292,6.9912,-0.0678,-0.0284,-0.1109,-1.5593169306269665,-0.06674349308013916,1.9402692317962646,-1.1860874891281128,-0.001442686072550714,2.0453286170959473,3.5764500337788085,-3.54161214244364e-11,0.27936434745788574,-1.583102051411764,-0.0,-0.016965903341770172,0.853246808052063,-0.0,-0.009745253250002861,0.7858322858810425,-0.00034858097205869853,-0.004763427656143904
339.0,338.0,3.9278,-0.3015,7.6463,-0.0576,-0.0003,-0.1287,-1.5598050349256773,-0.07428357005119324,1.91947340965271,-1.1861674785614014,-0.0007890953565947711,2.023606777191162,3.576514883632324,-9.858209050245172e-15,0.27426233887672424,-1.5830662886248987,-0.0,-0.010605104267597198,0.8532471060752869,-0.0,0.0010761350858956575,0.7858843803405762,-0.00039559928700327873,0.003515681717544794
339.0,338.0,3.9278,-0.3015,7.6463,-0.0576,-0.0003,-0.1287,-1.5602283862284203,-0.08382531255483627,1.947418451309204,-1.1861155033111572,-0.0005734385922551155,2.037590503692627,3.5765268045612792,-2.7440689049535596e-18,0.2857171893119812,-1.583061997090475,-0.0,-0.028361164033412933,0.853271484375,-0.0,-0.003300097770988941,0.7858527898788452,-0.0003646608965937048,-0.01861143670976162
339.0,338.0,3.9278,-0.3015,7.6463,-0.0576,-0.0003,-0.1287,-1.560780181815364,-0.09323710948228836,1.8864459991455078,-1.1861236095428467,-0.000450408406322822,2.0419678688049316,3.576486273402832,-7.63821576565083e-22,0.27660703659057617,-1.5830701033221644,-0.0,-0.010584404692053795,0.8532345294952393,-0.0,-0.01058161724358797,0.7858884930610657,-0.0004183735582046211,-0.01339458953589201
339.0,338.0,3.9278,-0.3015,7.6463,-0.0576,-0.0003,-0.1287,-1.5613521833768864,-0.09708543121814728,1.8901060819625854,-1.186207890510559,-0.000370852358173579,2.038865327835083,3.576546831721924,1.7517506421427242e-05,0.2779659032821655,-1.5830939451800745,-0.0,0.0018772401381283998,0.8531835079193115,-0.0,0.0011936237569898367,0.7858163118362427,-0.000401960191084072,-0.016113802790641785
339.0,338.0,3.9278,-0.3015,7.6463,-0.0576,-0.0003,-0.1287,-1.5619069722345849,-0.09831852465867996,1.876820683479309,-1.1861236095428467,-0.00031518496689386666,2.066004991531372,3.5764662462421875,1.701473411230836e-05,0.2777740955352783,-1.583085838948385,-0.0,-0.005079501308500767,0.8532427549362183,-0.0,-0.0007230723276734352,0.7858163714408875,-0.0003287964209448546,0.00017341948114335537
339.0,338.0,3.9278,-0.3015,7.6463,-0.0576,-0.0003,-0.1287,-1.5626033603078504,-0.09537410736083984,1.8967843055725098,-1.1861515045166016,-0.00027405002037994564,2.0759546756744385,3.5764667230793457,1.6101643268484622e-05,0.28514182567596436,-1.58307391801943,-0.0,-0.006324562709778547,0.8532195687294006,-0.0,0.0029213211964815855,0.7858765721321106,-0.0002780076174531132,0.0045622591860592365
339.0,338.0,3.9278,-0.3015,7.6463,-0.0576,-0.0003,-0.1287,-1.5631943957744916,-0.09175346791744232,1.9421448707580566,-1.1861634254455566,-0.00024241345818154514,2.06909441947937,3.576446219081543,1.528144821349997e-05,0.2872655391693115,-1.583102051411764,-0.0,0.007827362045645714,0.8532274961471558,-0.0,-0.004944725893437862,0.7858361601829529,-0.00020543024584185332,-0.03061310574412346
339.0,338.0,3.9278,-0.3015,7.6463,-0.0576,-0.0003,-0.1287,-1.563793940735497,-0.09621305018663406,1.8876755237579346,-1.1861103773117065,-0.00018894067034125328,2.0365030765533447,3.576530619258545,1.454076209483901e-05,0.28217774629592896,-1.5830343405352991,-0.0,-0.02205071970820427,0.8532074689865112,-0.0,-0.017707323655486107,0.7859126925468445,-0.00014577791444025934,-0.018409665673971176
339.0,338.0,3.9278,-0.3015,7.6463,-0.0576,-0.0003,-0.1287,-1.564494280876108,-0.10502765327692032,1.938422679901123,-1.186166524887085,-0.0019162091193720698,2.0713534355163574,3.576514883632324,1.3868566384189762e-05,0.28640589118003845,-1.5830939451800745,-0.0,-0.00424130680039525,0.8531712293624878,-0.0,-0.0047087655402719975,0.7858603000640869,-0.00012665119720622897,0.002551039680838585
339.0,338.0,3.9278,-0.3015,7.6463,-0.0576,-0.0003,-0.1287,-1.5650929625010868,-0.11929544061422348,1.9595109224319458,-1.1862521171569824,-0.0036068761255592108,2.044583320617676,3.5765301424213867,1.3255767044029199e-05,0.28229326009750366,-1.5830701033221644,-0.0,0.0001343304757028818,0.853246808052063,-0.0,-0.005368017591536045,0.7858402729034424,-8.592012454755604e-05,0.0015663569793105125
339.0,338.0,3.9278,-0.3015,7.6463,-0.0576,-0.0003,-0.1287,-1.565800342043378,-0.1283293217420578,1.9467192888259888,-1.1862032413482666,-0.002162426942959428,2.0206754207611084,3.576558752650879,1.89499587577302e-05,0.2744526267051697,-1.5830701033221644,-0.0,-0.010981208644807339,0.8531953692436218,-0.0,-0.006028022617101669,0.7858926057815552,-7.843214552849531e-05,0.02256665751338005
339.0,338.0,3.9278,-0.3015,7.6463,-0.0576,-0.0003,-0.1287,-1.5665357953733583,-0.13412289321422577,1.8939530849456787,-1.1861834526062012,-0.00020533587667159736,2.0662784576416016,3.5764824587055664,2.435712121950928e-05,0.2941209077835083,-1.5830581823932093,-0.0,0.0023470199666917324,0.8531914949417114,-0.0,-0.010538561269640923,0.785848081111908,-9.619320189813152e-05,0.04171471297740936
339.0,338.0,3.9278,-0.3015,7.6463,-0.0576,-0.0003,-0.1287,-1.567327148081251,-0.13358350098133087,1.9013888835906982,-1.1861674785614014,-2.883677296949827e-08,2.0862650871276855,3.5765387254902343,0.00010081900836667046,0.2864448130130768,-1.5830820242511194,-0.0,-0.01490021962672472,0.853171169757843,-0.0,-0.01177898421883583,0.7858725786209106,-6.709707668051124e-05,-0.03092915564775467
339.0,338.0,3.9278,-0.3015,7.6463,-0.0576,-0.0003,-0.1287,-1.5681542586865653,-0.12525218725204468,1.9559990167617798,-1.1862150430679321,-6.963741107195165e-14,2.083555221557617,3.5765907007404785,0.0002266958326799795,0.27480214834213257,-1.5830462614642542,-0.0,-0.013767977245151997,0.8532314896583557,-0.0,-0.015125272795557976,0.7859206199645996,-6.21766084805131e-05,-0.03076927922666073
339.0,338.0,3.9278,-0.3015,7.6463,-0.0576,-0.0003,-0.1287,-1.5689538366026063,-0.12553445994853973,1.9610601663589478,-1.1861903667449951,-1.6816616749885145e-19,2.041949987411499,3.576522036189697,0.0007441166089847684,0.2728099822998047,-1.5830662886248987,-0.0,-0.010232537053525448,0.8532757759094238,-0.0,0.001695411279797554,0.7858923673629761,8.986886678030714e-05,0.0437195785343647
339.0,338.0,3.9278,-0.3015,7.6463,-0.0576,-0.0003,-0.1287,-1.5698090588305895,-0.1390121728181839,1.9269357919692993,-1.186343789100647,-4.0610150179183104e-25,2.0664572715759277,3.5765792566486816,0.0004971666494384408,0.2841225266456604,-1.5830424467669886,-0.0,-0.01517792884260416,0.8531830906867981,-0.0,-8.133100345730782e-05,0.7858881950378418,0.0011603804305195808,-0.009662513621151447
335.0,339.0,4.919,-0.0311,7.0989,-0.0547,-0.1176,-0.128,-1.570648497352824,-0.1554596722126007,1.9125001430511475,-1.1863160133361816,-0.004275862127542496,2.0318353176116943,3.5765630441853027,0.0003732761833816767,0.2755366563796997,-1.5830662886248987,-0.0,-0.02046237699687481,0.8532110452651978,-0.0,-0.012544071301817894,0.7858761548995972,0.001147033297456801,1.3723969459533691e-05
335.0,339.0,4.919,-0.0311,7.0989,-0.0547,-0.1176,-0.128,-1.5715881786742152,-0.17370717227458954,1.952152967453003,-1.186291217803955,-0.004666945431381464,2.046992301940918,3.5765463548847656,0.0002988492778968066,0.28008753061294556,-1.583033863698141,-0.0,-0.005334274843335152,0.853223443031311,-0.0,-0.009692239575088024,0.7858883142471313,0.0008484069257974625,0.00873212143778801
335.0,339.0,4.919,-0.0311,7.0989,-0.0547,-0.1176,-0.128,-1.5725623569884242,-0.1815045028924942,1.9124912023544312,-1.186327338218689,-0.002157247392460704,2.0817246437072754,3.5765630441853027,0.0002491830091457814,0.27892982959747314,-1.58307391801943,-0.0,-0.005903190933167934,0.853223443031311,-0.0,-0.004558894317597151,0.7858883142471313,0.0002479973481968045,0.009198745712637901
335.0,339.0,4.919,-0.0311,7.0989,-0.0547,-0.1176,-0.128,-1.5736414394774378,-0.17596039175987244,1.9177378416061401,-1.186242699623108,-2.5641262254794128e-05,2.0846478939056396,3.576538248653076,0.00021367524459492415,0.2784371078014374,-1.5830901304828089,-0.0,-0.00031434581615030766,0.8531994223594666,-0.0,0.006571239326149225,0.7858961224555969,8.771122520556673e-05,0.033562954515218735
335.0,339.0,4.919,-0.0311,7.0989,-0.0547,-0.1176,-0.128,-1.5746609173216761,-0.16727906465530396,1.8893280029296875,-1.1862549781799316,-6.192063528587255e-11,2.050872802734375,3.5765625673481445,0.00025189953157678246,0.28423207998275757,-1.5830581823932093,-0.0,-0.0022001159377396107,0.8531875014305115,-0.0,0.0019643758423626423,0.7858762741088867,2.1181226217414917e-10,-0.01789369061589241
335.0,339.0,4.919,-0.0311,7.0989,-0.0547,-0.1176,-0.128,-1.5756598911681117,-0.1646982580423355,1.9993796348571777,-1.1863112449645996,-1.4953104075287672e-16,2.054831027984619,3.576521559352539,0.00022100085334386677,0.28730571269989014,-1.5830300490008753,-0.0,-0.0060682231560349464,0.8532273769378662,-0.0,-0.008959243074059486,0.7859204411506653,5.115017033858354e-16,-0.0033845696598291397
335.0,339.0,4.919,-0.0311,7.0989,-0.0547,-0.1176,-0.128,-1.5767351589598597,-0.1741892695426941,1.9940829277038574,-1.186279296875,-0.00037512846756726503,2.04929780960083,3.5765787798115234,0.00020266446517780423,0.2687038779258728,-1.583061997090475,-0.0,-0.005180039908736944,0.8532388210296631,-0.0,-0.010864370502531528,0.7859001755714417,1.235216328314827e-21,0.01638972945511341
335.0,339.0,4.919,-0.0311,7.0989,-0.0547,-0.1176,-0.128,-1.5778118572630824,-0.1895502358675003,1.951805830001831,-1.186347246170044,-0.002500690519809723,2.090808868408203,3.5765749651142578,0.00018215301679447293,0.2903304100036621,-1.5830820242511194,-0.0,-0.00778339896351099,0.8532273769378662,-0.0,-0.011239591985940933,0.7859286069869995,2.9829020608753225e-27,-0.0031692818738520145
335.0,339.0,4.919,-0.0311,7.0989,-0.0547,-0.1176,-0.128,-1.578947206536764,-0.1985541582107544,1.9215023517608643,-1.1863269805908203,-0.003041257383301854,2.046858072280884,3.5765506464191894,0.00016541339573450387,0.29164010286331177,-1.5830543676959437,-0.0,-0.00539064034819603,0.8532113432884216,-0.0,-0.013504947535693645,0.7859083414077759,7.20335738280999e-33,-0.028935246169567108
335.0,339.0,4.919,-0.0311,7.0989,-0.0547,-0.1176,-0.128,-1.5801297626891078,-0.20627500116825104,1.9686838388442993,-1.1863548755645752,-0.001674500759691,2.038327217102051,3.57656638204541,0.0001514908653916791,0.28322768211364746,-1.58307391801943,-0.0,-0.011072607710957527,0.853223443031311,-0.0,-0.012294899672269821,0.7858883142471313,1.739525951023198e-38,0.020972799509763718
335.0,339.0,4.919,-0.0311,7.0989,-0.0547,-0.1176,-0.128,-1.5813037357726039,-0.2047336846590042,1.997757911682129,-1.18635892868042,-0.0001726048212731257,2.092133045196533,3.576538248653076,0.00013972990564070642,0.2726309299468994,-1.58307391801943,-0.0,0.0015365761937573552,0.8532154560089111,-0.0,-0.01213500089943409,0.7858643531799316,4.203895392974451e-44,0.0008248448139056563
335.0,339.0,4.919,-0.0311,7.0989,-0.0547,-0.1176,-0.128,-1.5824982128539027,-0.19854187965393066,1.9453654289245605,-1.1863470077514648,-1.1678926714608906e-09,2.0975425243377686,3.5765907007404785,0.00015108432853594422,0.2875204086303711,-1.5830462614642542,-0.0,-0.002319978317245841,0.8532395958900452,-0.0,0.0024584217462688684,0.7858884930610657,0.0,0.014006451703608036
335.0,339.0,4.919,-0.0311,7.0989,-0.0547,-0.1176,-0.128,-1.583689352075094,-0.1949388086795807,2.026456117630005,-1.1863709688186646,-2.8203236763417548e-15,2.0548408031463623,3.5765864092060546,0.000197467757971026,0.2752872407436371,-1.5830662886248987,-0.0,-0.009923511184751987,0.8532074689865112,-0.0,0.004016509745270014,0.7858762741088867,0.0,-0.006709931883960962
335.0,339.0,4.919,-0.0311,7.0989,-0.0547,-0.1176,-0.128,-1.5848843059935511,-0.19418497383594513,1.9787323474884033,-1.1863429546356201,-6.810749093200908e-21,2.0442075729370117,3.5765425401875,0.00023247975332196802,0.2730403542518616,-1.5830257574664515,-0.0,-0.00759220402687788,0.8532032370567322,-0.0,-0.0035136681981384754,0.7858843803405762,0.0,0.015663161873817444
335.0,339.0,4.919,-0.0311,7.0989,-0.0547,-0.1176,-0.128,-1.586196085015768,-0.20706821978092194,1.9632039070129395,-1.1863110065460205,-1.6447156687435225e-26,2.087238073348999,3.5765625673481445,0.00022408524819184095,0.283904492855072,-1.5830977598773401,-0.0,-0.008078347891569138,0.8532314300537109,-0.0,-0.01796545833349228,0.7858521342277527,0.0,0.01348460279405117
310.0,321.0,6.5922,-0.122,6.6455,-0.033,-0.2109,-0.1211,-1.5874225101866664,-0.21871274709701538,1.9401593208312988,-1.1863389015197754,-3.971794401894519e-32,2.0574934482574463,3.576598806972168,0.0002024811110459268,0.2803241014480591,-1.5830500761615198,-0.0,-0.0010017644381150603,0.8531994223594666,-0.0,-0.006894284393638372,0.7859005928039551,3.6779871152248234e-05,-0.0013544810935854912
310.0,321.0,6.5922,-0.122,6.6455,-0.033,-0.2109,-0.1211,-1.5887652836241664,-0.21804605424404144,1.9537358283996582,-1.1862789392471313,-9.591416030980588e-38,2.1198887825012207,3.576610727901123,0.00018467310292180628,0.27524247765541077,-1.5830782095538538,-0.0,-0.008844666182994843,0.8532151579856873,-0.0,0.000355000258423388,0.7859001755714417,3.275689232395962e-05,0.03401481360197067
310.0,321.0,6.5922,-0.122,6.6455,-0.033,-0.2109,-0.1211,-1.5900417766966761,-0.21405000984668732,2.009126663208008,-1.186331033706665,-2.312142466135948e-43,2.0293214321136475,3.5765744882770996,0.00019377950229682028,0.2680092453956604,-1.58307391801943,-0.0,-0.010211440734565258,0.8532151579856873,-0.0,-0.0036577931605279446,0.7858961224555969,1.4061028252854157e-07,0.03214121609926224
310.0,321.0,6.5922,-0.122,6.6455,-0.033,-0.2109,-0.1211,-1.591367860833639,-0.21886403858661652,1.9526773691177368,-1.1862748861312866,-0.0,2.061171293258667,3.576634092921875,0.00029071170138195157,0.2660881578922272,-1.5830300490008753,-0.0,-0.018684787675738335,0.8532114028930664,-0.0,-0.01524936780333519,0.7859566807746887,3.395572397476426e-13,0.009751747362315655
310.0,321.0,6.5922,-0.122,6.6455,-0.033,-0.2109,-0.1211,-1.5927826366820277,-0.22752287983894348,1.982912302017212,-1.186331033706665,-0.0,2.0811731815338135,3.576594515437744,0.0003236524935346097,0.2908681035041809,-1.58307391801943,-0.0,-0.008790549822151661,0.8532314300537109,-0.0,0.004663432948291302,0.7858923673629761,8.199908620662933e-19,-0.022042635828256607
310.0,321.0,6.5922,-0.122,6.6455,-0.033,-0.2109,-0.1211,-1.5941745243468226,-0.22221043705940247,1.985459566116333,-1.1863192319869995,-0.0,2.0616979598999023,3.576578302974365,0.0006639049970544875,0.28153160214424133,-1.5831058661090296,-0.0,-0.021298609673976898,0.853246808052063,-0.0,0.01366315595805645,0.7858643531799316,1.9801816837763216e-24,-0.03640949726104736
310.0,321.0,6.5922,-0.122,6.6455,-0.033,-0.2109,-0.1211,-1.5955215893187464,-0.21670329570770264,2.0089783668518066,-1.1863269805908203,-0.0,2.0704259872436523,3.5765902239033203,0.001307784579694271,0.2839438319206238,-1.58307391801943,-0.0,-0.014273116365075111,0.8532074689865112,-0.0,-0.0016982525121420622,0.785872220993042,4.7819053767721816e-30,-0.01611294224858284
310.0,321.0,6.5922,-0.122,6.6455,-0.033,-0.2109,-0.1211,-1.5968686542906703,-0.22304584085941315,1.9957947731018066,-1.186282992362976,-0.0,2.0876214504241943,3.5766426759907226,0.00179750204551965,0.27162420749664307,-1.5830820242511194,-0.0,-0.014807615429162979,0.8532509207725525,-0.0,-0.009158437140285969,0.7859002351760864,1.1547737517621966e-35,0.018476217985153198
310.0,321.0,6.5922,-0.122,6.6455,-0.033,-0.2109,-0.1211,-1.5982676945128382,-0.2366374135017395,1.986275315284729,-1.186302900314331,-0.0,2.064915180206299,3.576638384456299,0.0015757880173623562,0.2743174433708191,-1.58307391801943,-0.0,-0.005169875919818878,0.8532236218452454,-0.0,-0.011600329540669918,0.7859283685684204,0.0007497086771763861,0.036793455481529236
310.0,321.0,6.5922,-0.122,6.6455,-0.033,-0.2109,-0.1211,-1.5996700725951136,-0.23512105643749237,2.001403570175171,-1.186302900314331,-0.0,2.067213535308838,3.5766865450092773,0.0016423171618953347,0.27866387367248535,-1.5830581823932093,-0.0,-0.012034457176923752,0.8532509207725525,-0.0,-0.010941877961158752,0.7859156727790833,0.0015296295750886202,-0.014957902021706104
310.0,321.0,6.5922,-0.122,6.6455,-0.033,-0.2109,-0.1211,-1.601060529748434,-0.22944021224975586,2.0183658599853516,-1.1863511800765991,-0.0,2.1008217334747314,3.576662226314209,0.0035159087274223566,0.2764466106891632,-1.5830257574664515,-0.0,-0.015186788514256477,0.8531633615493774,-0.0,-0.008423094637691975,0.785952627658844,0.001281651435419917,-0.005748489871621132
310.0,321.0,6.5922,-0.122,6.6455,-0.033,-0.2109,-0.1211,-1.6024524174132289,-0.23021845519542694,2.0456483364105225,-1.1863192319869995,-0.0,2.060774087905884,3.576690359706543,0.009087782353162766,0.2910291254520416,-1.5830543676959437,-0.0,-0.013138670474290848,0.8532388806343079,-0.0,-0.0033916281536221504,0.7859888076782227,0.0010452161077409983,-0.03691596910357475
310.0,321.0,6.5922,-0.122,6.6455,-0.033,-0.2109,-0.1211,-1.6038462124266566,-0.23656047880649567,1.9895291328430176,-1.1863470077514648,-0.0,2.066749095916748,3.5767223077961425,0.01214233972132206,0.28531113266944885,-1.583061997090475,-0.0,-0.014861449599266052,0.8532074689865112,-0.0,-0.009527384303510189,0.7859684228897095,0.0009829060873016715,-0.02475403994321823
310.0,321.0,6.5922,-0.122,6.6455,-0.033,-0.2109,-0.1211,-1.6052285633482875,-0.2353147715330124,2.074320077896118,-1.1863350868225098,-0.0,2.076680898666382,3.5768343645283203,0.008476520888507366,0.2897052764892578,-1.5830662886248987,-0.0,-0.0027251269202679396,0.8532235026359558,-0.0,0.0031368739437311888,0.7859030365943909,0.0007930714637041092,-0.0009815432131290436
310.0,321.0,6.5922,-0.122,6.6455,-0.033,-0.2109,-0.1211,-1.6066247425475062,-0.22886185348033905,2.0809364318847656,-1.1863634586334229,-0.0,2.0963709354400635,3.5768300729938964,0.005574787501245737,0.2677271068096161,-1.5830462614642542,-0.0,-0.005761637818068266,0.8532509207725525,-0.0,-0.0024897903203964233,0.7859643697738647,0.0005973784136585891,-0.005217159166932106
310.0,321.0,6.5922,-0.122,6.6455,-0.033,-0.2109,-0.1211,-1.6079794369139613,-0.2274484485387802,2.0221002101898193,-1.1863154172897339,-0.0,2.059692859649658,3.576906843776367,0.0035764595959335566,0.27581876516342163,-1.5830500761615198,-0.0,-0.007514717057347298,0.853195071220398,-0.0,-0.013434280641376972,0.7859888076782227,0.0005314637091942132,0.05697641521692276
306.0,301.0,6.9841,-0.5713,6.0317,-0.0287,-0.2104,-0.1283,-1.6093150577940882,-0.2310231328010559,2.0775887966156006,-1.186291217803955,-0.0,2.084735870361328,3.5768300729938964,0.001785948290489614,0.2811698615550995,-1.5830701033221644,-0.0,-0.014054442755877972,0.8532195091247559,-0.0,-0.01011632289737463,0.7859966158866882,0.0004979118821211159,0.0171267781406641
306.0,301.0,6.9841,-0.5713,6.0317,-0.0287,-0.2104,-0.1283,-1.6106850109496058,-0.2291509062051773,2.110929489135742,-1.1863350868225098,-0.0,2.1003432273864746,3.57689015447583,0.0008997437544167042,0.2742535471916199,-1.5831297079669397,-0.0,-0.016366178169846535,0.8532154560089111,-0.0,-0.012759332545101643,0.7859561443328857,0.0009149159304797649,-0.010276230983436108
306.0,301.0,6.9841,-0.5713,6.0317,-0.0287,-0.2104,-0.1283,-1.6120478115477503,-0.23251204192638397,2.0647478103637695,-1.1863511800765991,-0.0,2.071641206741333,3.576902075404785,0.0005992727819830179,0.26815855503082275,-1.58307391801943,-0.0,-0.019005777314305305,0.8532154560089111,-0.0,-0.013526316732168198,0.7859281301498413,0.0006153559661470354,0.022567536681890488
306.0,301.0,6.9841,-0.5713,6.0317,-0.0287,-0.2104,-0.1283,-1.6134311161436976,-0.23162707686424255,2.0681231021881104,-1.1863110065460205,-0.0,2.028441905975342,3.5769144731708984,0.0005242899642325938,0.2736697196960449,-1.5830181280719202,-0.0,-0.008040654473006725,0.8532277345657349,-0.0,-0.009726103395223618,0.7859764695167542,0.00045852488256059587,-0.011846993118524551
306.0,301.0,6.9841,-0.5713,6.0317,-0.0287,-0.2104,-0.1283,-1.614786287347311,-0.22720400989055634,2.130547046661377,-1.1863071918487549,-0.0,2.069087028503418,3.576873942012451,0.0004752518143504858,0.26634421944618225,-1.5830820242511194,-0.0,-0.012364532798528671,0.8532117009162903,-0.0,-0.00869707204401493,0.7860047221183777,0.0003654149768408388,0.02499515190720558
306.0,301.0,6.9841,-0.5713,6.0317,-0.0287,-0.2104,-0.1283,-1.616068502465719,-0.2223767191171646,2.074984073638916,-1.1863274574279785,2.6782598069985397e-05,2.052013397216797,3.576906366939209,0.0002792480227071792,0.2810586094856262,-1.583102051411764,-0.0,0.0007484168745577335,0.8531712293624878,-0.0,-0.003938313107937574,0.7859643697738647,0.0003037417773157358,0.013262119144201279
306.0,301.0,6.9841,-0.5713,6.0317,-0.0287,-0.2104,-0.1283,-1.6174270115294398,-0.22359395027160645,2.1083178520202637,-1.1862629652023315,2.563695488788653e-05,2.102799654006958,3.57691399633374,0.0003649796126410365,0.27333778142929077,-1.583085838948385,-0.0,-0.00411103805527091,0.8532154560089111,-0.0,-0.00816566776484251,0.785936176776886,0.0002165692567359656,0.0021301060914993286
306.0,301.0,6.9841,-0.5713,6.0317,-0.0287,-0.2104,-0.1283,-1.6187907658019007,-0.22531665861606598,2.083115339279175,-1.1862953901290894,3.687735443236306e-05,2.076986312866211,3.576918287868164,0.001028441940434277,0.25712087750434875,-1.5830701033221644,-0.0,-0.013106245547533035,0.8532236218452454,-0.0,-0.014755464158952236,0.7859565615653992,0.00018924431060440838,-0.028062470257282257
306.0,301.0,6.9841,-0.5713,6.0317,-0.0287,-0.2104,-0.1283,-1.620157857934469,-0.21783986687660217,2.1144914627075195,-1.186291217803955,4.723646998172626e-05,2.0816469192504883,3.5768939691730957,0.0016991274897009134,0.2756490111351013,-1.583102051411764,-0.0,-0.027886327356100082,0.853255033493042,-0.0,-0.01056477427482605,0.7858958840370178,0.0001680424902588129,0.029674379155039787
306.0,301.0,6.9841,-0.5713,6.0317,-0.0287,-0.2104,-0.1283,-1.621472497979635,-0.2152012288570404,2.148324966430664,-1.186335563659668,4.544821786112152e-05,2.039472818374634,3.576990767116211,0.0022112661972641945,0.26758047938346863,-1.5830662886248987,-0.0,-0.009466845542192459,0.8532154560089111,-0.0,-0.0022549377754330635,0.7859806418418884,0.0001511127920821309,0.03361843526363373
306.0,301.0,6.9841,-0.5713,6.0317,-0.0287,-0.2104,-0.1283,-1.6228562794127406,-0.22184033691883087,2.127953052520752,-1.1862828731536865,4.378978701424785e-05,2.1209189891815186,3.5769616800495605,0.002177327871322632,0.28259479999542236,-1.5830662886248987,-0.0,-0.01273246482014656,0.8532154560089111,-0.0,-0.005167244467884302,0.786000669002533,0.00013728238991461694,0.005557020660489798
306.0,301.0,6.9841,-0.5713,6.0317,-0.0287,-0.2104,-0.1283,-1.6242109737791957,-0.22650007903575897,2.1305911540985107,-1.1862386465072632,4.224813892506063e-05,2.071582555770874,3.576970263118408,0.0017263105837628245,0.26339292526245117,-1.5830543676959437,-0.0,-0.011096329428255558,0.8531636595726013,-0.0,-0.0045250640250742435,0.7858999967575073,0.00012577140296343714,0.04065088927745819
306.0,301.0,6.9841,-0.5713,6.0317,-0.0287,-0.2104,-0.1283,-1.6255222759642542,-0.21742719411849976,2.1731834411621094,-1.1863316297531128,0.00019227892335038632,2.0516445636749268,3.577010317439697,0.002223140327259898,0.2821381390094757,-1.583102051411764,-0.0,-0.005550364498049021,0.8531755805015564,-0.0,-0.014479036442935467,0.7859483957290649,9.376617526868358e-05,0.006077711936086416
306.0,301.0,6.9841,-0.5713,6.0317,-0.0287,-0.2104,-0.1283,-1.6268450222411097,-0.207508847117424,2.1801795959472656,-1.186279296875,0.0002450723259244114,2.107170581817627,3.5770184236713867,0.0036635224241763353,0.269652783870697,-1.5830901304828089,-0.0,-0.0010889604454860091,0.8532356023788452,-0.0,-0.00012001534923911095,0.7859565615653992,8.616728882770985e-05,0.02224072627723217
306.0,301.0,6.9841,-0.5713,6.0317,-0.0287,-0.2104,-0.1283,-1.62815584758901,-0.2099960297346115,2.1833481788635254,-1.1862632036209106,0.0002620816812850535,2.1095023155212402,3.577026053065918,0.003571660490706563,0.27350354194641113,-1.5830939451800745,-0.0,-0.010774617083370686,0.8532081246376038,-1.6237327038481908e-09,-0.021071452647447586,0.7859724760055542,8.039449312491342e-05,-0.06712835282087326
298.0,320.0,7.5601,-0.5761,5.7625,-0.0397,-0.2231,-0.1223,-1.6294104061522425,-0.21932296454906464,2.1239283084869385,-1.1863034963607788,0.00018609121616464108,2.1079518795013428,3.577054186458252,0.0022536320611834526,0.2766428291797638,-1.583061997090475,-0.0,-0.010202654637396336,0.8531556129455566,-4.519719288501728e-13,-0.012611811980605125,0.7859521508216858,7.534657197538763e-05,-0.012915821745991707
298.0,320.0,7.5601,-0.5761,5.7625,-0.0397,-0.2231,-0.1223,-1.6307293377318324,-0.21381384134292603,2.162839412689209,-1.1863071918487549,0.00014202391321305186,2.096120595932007,3.5770699220844726,0.0013075703755021095,0.28374022245407104,-1.5830977598773401,-0.0,-0.016957959160208702,0.8531395196914673,-1.2580805665022752e-16,-0.021145543083548546,0.7859806418418884,7.089521386660635e-05,-0.0018400880508124828
298.0,320.0,7.5601,-0.5761,5.7625,-0.0397,-0.2231,-0.1223,-1.6318842373290003,-0.20801140367984772,2.1616854667663574,-1.1862590312957764,0.00011483550042612478,2.0938644409179688,3.5770699220844726,0.0008833964820951223,0.27453863620758057,-1.5830462614642542,-0.0,-0.006166330073028803,0.8532281517982483,-3.501913713448138e-20,-0.002366048749536276,0.7859483957290649,6.694049807265401e-05,-0.046588167548179626
298.0,320.0,7.5601,-0.5761,5.7625,-0.0397,-0.2231,-0.1223,-1.6331964931883753,-0.20895668864250183,2.1458985805511475,-1.186271071434021,9.638560732128099e-05,2.0799434185028076,3.577026053065918,0.0004793632833752781,0.2740485370159149,-1.583085838948385,-0.0,0.007634525652974844,0.8531554937362671,-9.747704925769993e-24,-0.019110223278403282,0.785988450050354,1.734566831146367e-05,0.015762843191623688
298.0,320.0,7.5601,-0.5761,5.7625,-0.0397,-0.2231,-0.1223,-1.6344262562193812,-0.21290864050388336,2.19979190826416,-1.186250925064087,8.304372022394091e-05,2.0575296878814697,3.5770818430134277,0.0003629264247138053,0.28454118967056274,-1.5830701033221644,-0.0,-0.017771940678358078,0.853179395198822,-2.7133092317020306e-27,-0.005748004652559757,0.7859483957290649,7.569371263116409e-08,0.017732447013258934
298.0,320.0,7.5601,-0.5761,5.7625,-0.0397,-0.2231,-0.1223,-1.6357022724547328,-0.21419109404087067,2.2166757583618164,-1.1863192319869995,7.294667011592537e-05,2.1262245178222656,3.577033682460449,0.00033518177224323153,0.2817094027996063,-1.58307391801943,-0.0,-0.013679157942533493,0.853203535079956,-7.552596343016269e-31,-0.018120991066098213,0.7859887480735779,1.8279140408337252e-13,-0.015945490449666977
298.0,320.0,7.5601,-0.5761,5.7625,-0.0397,-0.2231,-0.1223,-1.6369043789305628,-0.20632751286029816,2.2196249961853027,-1.1862468719482422,9.754048369359225e-05,2.11246919631958,3.5770417886921386,0.00034144631354138255,0.26344481110572815,-1.5830581823932093,-0.0,-0.016868984326720238,0.8531715273857117,-2.1022928975077057e-34,-0.0105762779712677,0.7859684228897095,4.414197640100948e-19,-0.03163643926382065
298.0,320.0,7.5601,-0.5761,5.7625,-0.0397,-0.2231,-0.1223,-1.6381594143309535,-0.2013126015663147,2.205937147140503,-1.1862711906433105,8.801749936537817e-05,2.06953763961792,3.577065630550049,0.0004245543968863785,0.2682744562625885,-1.583085838948385,-0.0,-0.003280577715486288,0.8532117009162903,-5.851808374035793e-38,-0.009423784911632538,0.7859363555908203,1.0659767957800933e-24,-0.0007868636748753488
298.0,320.0,7.5601,-0.5761,5.7625,-0.0397,-0.2231,-0.1223,-1.6393324337401332,-0.2000713348388672,2.2274789810180664,-1.1863192319869995,-3.2445623219246045e-05,2.0846574306488037,3.5770861345478515,0.0011003477266058326,0.26422446966171265,-1.5830581823932093,-0.0,-0.01687033474445343,0.853131115436554,-1.6288693349311674e-41,-0.021558156237006187,0.7859724760055542,2.574208684176459e-30,-0.01124183926731348
298.0,320.0,7.5601,-0.5761,5.7625,-0.0397,-0.2231,-0.1223,-1.640571733514303,-0.203138068318367,2.2044434547424316,-1.1862468719482422,-2.942888022516854e-05,2.0836050510406494,3.5770861345478515,0.0008149441564455628,0.2744423449039459,-1.583085838948385,-0.0,-0.00918551068753004,0.8532075881958008,-4.203895392974451e-45,-0.020785238593816757,0.7859281897544861,6.216410741697289e-36,-0.012234571389853954
298.0,320.0,7.5601,-0.5761,5.7625,-0.0397,-0.2231,-0.1223,-1.641712327996725,-0.2038397490978241,2.194880962371826,-1.1862871646881104,-2.6799894840223715e-05,2.1081676483154297,3.577106161708496,0.0005869045853614807,0.27814579010009766,-1.5830901304828089,-0.0,-0.010578857734799385,0.8531796336174011,-0.0,-0.01729152724146843,0.7859281897544861,1.5012110448311765e-41,-0.004214375279843807
298.0,320.0,7.5601,-0.5761,5.7625,-0.0397,-0.2231,-0.1223,-1.6433731518187464,-0.20810551941394806,2.2020387649536133,-1.1862343549728394,-2.3947468434926122e-05,2.088360071182251,3.577037497157715,0.00042746850522235036,0.272361159324646,-1.5830543676959437,-0.0,-0.00872700847685337,0.8532236218452454,-0.0,-0.020163265988230705,0.7859643697738647,0.0,-0.008354553021490574
298.0,320.0,7.5601,-0.5761,5.7625,-0.0397,-0.2231,-0.1223,-1.6445924244322718,-0.2070332169532776,2.2154407501220703,-1.1862468719482422,-2.2177171558723785e-05,2.1105422973632812,3.5770174699970703,0.0003551407717168331,0.2647155821323395,-1.5830939451800745,-0.0,-0.003932247404009104,0.8531718850135803,-0.0,-0.020747117698192596,0.7859765887260437,0.0,-0.015133414417505264
298.0,320.0,7.5601,-0.5761,5.7625,-0.0397,-0.2231,-0.1223,-1.645778318444723,-0.20290952920913696,2.237788200378418,-1.1863113641738892,-2.0650611986638978e-05,2.118014335632324,3.5771028238483886,0.00030375405913218856,0.2751632332801819,-1.5830543676959437,-0.0,-0.0036312928423285484,0.8532117009162903,-0.0,-0.014601929113268852,0.7859242558479309,0.0,0.04489794000983238
298.0,320.0,7.5601,-0.5761,5.7625,-0.0397,-0.2231,-0.1223,-1.6469189129271449,-0.1990146040916443,2.243428945541382,-1.186250925064087,-1.9320672436151654e-05,2.064577579498291,3.577066107387207,0.0002653611300047487,0.26954033970832825,-1.5831144491778772,-0.0,-0.012998262420296669,0.8532076478004456,-0.0,-0.01432245783507824,0.7859363555908203,0.0,0.02702871337532997
292.0,312.0,6.9589,-0.9733,6.2614,-0.0547,-0.1988,-0.1136,-1.6482135258116664,-0.19891327619552612,2.2470366954803467,-1.186291217803955,-1.8151660697185434e-05,2.069028615951538,3.5770456033894042,0.00023558628163300455,0.27650099992752075,-1.583102051411764,-0.0,-0.01456029899418354,0.8531596064567566,-0.0,-0.023005584254860878,0.7859444618225098,0.0,0.011016334407031536
292.0,312.0,6.9589,-0.9733,6.2614,-0.0547,-0.1988,-0.1136,-1.6493832073607386,-0.19962170720100403,2.2255749702453613,-1.186287522315979,-1.7116082744905725e-05,2.1041393280029297,3.5770904260822753,0.00021182022464927286,0.2803129255771637,-1.5830701033221644,-0.0,-0.010415363125503063,0.8531715273857117,-0.0,-0.01803375780582428,0.7859324216842651,0.0,-0.01737293042242527
292.0,312.0,6.9589,-0.9733,6.2614,-0.0547,-0.1988,-0.1136,-1.6505896053709925,-0.1977343112230301,2.2880964279174805,-1.186267375946045,-1.6192263501579873e-05,2.1082510948181152,3.577021284694336,0.00019241009431425482,0.26525118947029114,-1.5830901304828089,-0.0,-0.002391653601080179,0.8531433939933777,-0.0,-0.017271844670176506,0.7859887480735779,0.0,0.009020131081342697
292.0,312.0,6.9589,-0.9733,6.2614,-0.0547,-0.1988,-0.1136,-1.651804586450094,-0.19047555327415466,2.318150281906128,-1.186291217803955,-1.5363057173090056e-05,2.0864546298980713,3.5770537096210937,0.00017625934560783207,0.27681994438171387,-1.5830701033221644,-0.0,-0.004703816957771778,0.8531674146652222,-0.0,-0.02212945558130741,0.7859281897544861,0.0,-0.002215321408584714
292.0,312.0,6.9589,-0.9733,6.2614,-0.0547,-0.1988,-0.1136,-1.6529766521849574,-0.1931518316268921,2.2253777980804443,-1.186279296875,-1.4614657629863359e-05,2.0419082641601562,3.5770575243183593,0.00016260988195426762,0.2623025178909302,-1.583061997090475,-0.0,-0.0074204751290380955,0.8531956672668457,-0.0,-0.019243158400058746,0.7859163284301758,0.0,-0.0005475874058902264
292.0,312.0,6.9589,-0.9733,6.2614,-0.0547,-0.1988,-0.1136,-1.654177804986471,-0.202625572681427,2.2865731716156006,-1.186299443244934,-1.3935788047092501e-05,2.1283340454101562,3.577078028316162,0.0001509228750364855,0.26621168851852417,-1.58307391801943,-0.0,-0.0034617965575307608,0.8531834483146667,-0.0,-0.0184780340641737,0.7859646677970886,0.0,-0.01676921918988228
292.0,312.0,6.9589,-0.9733,6.2614,-0.0547,-0.1988,-0.1136,-1.655375143090719,-0.20939768850803375,2.3025460243225098,-1.1862989664077759,-1.3317180673766416e-05,2.060143232345581,3.5771023470112304,0.00014080325490795076,0.2596402168273926,-1.583085838948385,-0.0,-0.003191559575498104,0.853255033493042,-0.0,-0.00630208058282733,0.7859488725662231,-0.00013575631601270288,-0.04301767796278
292.0,312.0,6.9589,-0.9733,6.2614,-0.0547,-0.1988,-0.1136,-1.6566435299315394,-0.19663141667842865,2.3231472969055176,-1.186287522315979,-5.080538585389149e-07,2.077125310897827,3.5770861345478515,0.00013195557403378189,0.2571077346801758,-1.5830820242511194,-0.0,-0.003919942304491997,0.8531594276428223,-0.0,-0.005922156386077404,0.7859243154525757,-0.00022300366254057735,0.031172793358564377
292.0,312.0,6.9589,-0.9733,6.2614,-0.0547,-0.1988,-0.1136,-1.657827993432516,-0.18759866058826447,2.3744778633117676,-1.1863110065460205,-1.2268903341189352e-12,2.1126136779785156,3.5771419244953613,0.0001417353341821581,0.2750052213668823,-1.5830939451800745,-0.0,-0.0021870899945497513,0.8531793355941772,-0.0,-0.009099304676055908,0.7859324216842651,-0.00023156485985964537,0.019672522321343422
292.0,312.0,6.9589,-0.9733,6.2614,-0.0547,-0.1988,-0.1136,-1.6590501270689906,-0.19226837158203125,2.283430576324463,-1.1862748861312866,-2.9627959316327408e-18,2.0538394451141357,3.5770699220844726,0.00013396964641287923,0.26913896203041077,-1.5830462614642542,-0.0,-0.01625966466963291,0.8531875014305115,-0.0,-0.006664476357400417,0.785912275314331,-0.00018486668705008924,0.015960024669766426
292.0,312.0,6.9589,-0.9733,6.2614,-0.0547,-0.1988,-0.1136,-1.6602851353087367,-0.2020074427127838,2.3508431911468506,-1.1863352060317993,-7.154803538425386e-24,2.0595364570617676,3.5770818430134277,0.00011129774065921083,0.2611962854862213,-1.5830782095538538,-0.0,-0.0013441056944429874,0.8532117605209351,-0.0,-0.008728033863008022,0.7859324216842651,-0.00014872848987579346,-0.02642396092414856
292.0,312.0,6.9589,-0.9733,6.2614,-0.0547,-0.1988,-0.1136,-1.6614867649474085,-0.20538462698459625,2.2983052730560303,-1.1863274574279785,-1.7278009546013373e-29,2.0881409645080566,3.5770298677631835,0.00010545074474066496,0.26955774426460266,-1.5830581823932093,-0.0,-0.007828637957572937,0.8532356023788452,-0.0,-0.009185236878693104,0.7859202027320862,-0.00011906671716133133,-0.024804146960377693
292.0,312.0,6.9589,-0.9733,6.2614,-0.0547,-0.1988,-0.1136,-1.6626011333861292,-0.19410757720470428,2.348475456237793,-1.1863515377044678,-4.1724358523288666e-35,2.116518259048462,3.577078028316162,0.00010040871711680666,0.26745980978012085,-1.5831182638751429,-0.0,-0.006998120341449976,0.8532396554946899,-0.0,-0.016101911664009094,0.7859565019607544,-9.934842819347978e-05,-0.019476205110549927
292.0,312.0,6.9589,-0.9733,6.2614,-0.0547,-0.1988,-0.1136,-1.6637937031187953,-0.189578577876091,2.3792545795440674,-1.1862711906433105,-1.0075896477881165e-40,2.134401321411133,3.5770694452473144,0.0001095124171115458,0.2576962113380432,-1.5830820242511194,-0.0,0.007606191094964743,0.8532074689865112,-0.0,-0.016438523307442665,0.785940408706665,-8.523376891389489e-05,-0.0464148186147213
292.0,312.0,6.9589,-0.9733,6.2614,-0.0547,-0.1988,-0.1136,-1.664938589135641,-0.19729824364185333,2.3099892139434814,-1.186250925064087,-0.0,2.1437525749206543,3.5770537096210937,0.00010473716247361153,0.2655479609966278,-1.5830662886248987,-0.0,0.000617187237367034,0.853255033493042,-0.0,-0.006832851096987724,0.7859242558479309,-3.733690027729608e-05,-0.03418603539466858
292.0,312.0,6.9589,-0.9733,6.2614,-0.0547,-0.1988,-0.1136,-1.6660849056639613,-0.2033361941576004,2.299541711807251,-1.1863150596618652,-0.0,2.09490704536438,3.577122374171875,0.00010035751620307565,0.2641889452934265,-1.5830901304828089,-0.0,-0.007561580743640661,0.8531834483146667,-0.0,-0.019078679382801056,0.7859524488449097,-7.622333875190179e-10,0.02952587604522705
289.0,318.0,6.3314,-0.4696,6.5127,-0.0626,-0.1388,-0.1255,-1.6673361263670863,-0.20109696686267853,2.3505983352661133,-1.186250925064087,-0.0,2.0662550926208496,3.5771142679401855,7.1593007305637e-05,0.274152547121048,-1.583085838948385,-0.0,-0.0017213106621056795,0.8531875610351562,-0.0,-0.0038085556589066982,0.7859765887260437,-1.8407040265790283e-15,-0.03644467517733574
289.0,318.0,6.3314,-0.4696,6.5127,-0.0626,-0.1388,-0.1255,-1.668462415734762,-0.19313804805278778,2.377815008163452,-1.1863071918487549,-0.0,2.1035733222961426,3.57713429510083,0.0006631204159930348,0.2710847854614258,-1.5830901304828089,-0.0,-0.008375291712582111,0.8531875014305115,-0.0,-0.0008897468214854598,0.7859485745429993,-4.4450832232363565e-21,-0.024209553375840187
289.0,318.0,6.3314,-0.4696,6.5127,-0.0626,-0.1388,-0.1255,-1.669582029382223,-0.1886289268732071,2.3556926250457764,-1.186259150505066,-0.0,2.0975239276885986,3.5770980554768066,0.0019549597054719925,0.26063525676727295,-1.5830581823932093,-0.0,-0.015968045219779015,0.8532427549362183,-0.0,-0.004375586751848459,0.7859114408493042,-1.0734354663944942e-26,0.0016130167059600353
289.0,318.0,6.3314,-0.4696,6.5127,-0.0626,-0.1388,-0.1255,-1.6707645855345667,-0.1913255900144577,2.2975149154663086,-1.1863112449645996,-0.0,2.0743796825408936,3.5771376329609375,0.0022576809860765934,0.2631974220275879,-1.5830424467669886,-0.0,-0.0030935807153582573,0.8531314134597778,-0.0,-0.008609816431999207,0.7859442830085754,-2.5922201258372724e-32,-0.0044748783111572266
289.0,318.0,6.3314,-0.4696,6.5127,-0.0626,-0.1388,-0.1255,-1.671880384484762,-0.1934678554534912,2.365363597869873,-1.186282992362976,-0.0,2.059108018875122,3.577129526729248,0.0017214440740644932,0.2681884765625,-1.5830820242511194,-0.0,-0.008648394607007504,0.8531796932220459,-0.0,-0.0009684339165687561,0.7859243154525757,-6.259907404762338e-38,0.07460439950227737
289.0,318.0,6.3314,-0.4696,6.5127,-0.0626,-0.1388,-0.1255,-1.6729771099486292,-0.1946907490491867,2.389373779296875,-1.1862508058547974,-0.0,2.050868511199951,3.577141447658203,0.0011803674278780818,0.27049073576927185,-1.583061997090475,-0.0,-0.0069873519241809845,0.8532716035842896,-0.0,-0.010285189375281334,0.7859887480735779,-1.5134023414708024e-43,-0.037727925926446915
