ramyac6/ROB537/final_project/csv/good/good_34.csv
tof_0,tof_1,accelx,accely,accelz,gyrox,gyroy,gyroz,shoulder_lift_joint_position,shoulder_lift_joint_velocity,shoulder_lift_joint_effort,elbow_joint_position,elbow_joint_velocity,elbow_joint_effort,wrist_1_joint_position,wrist_1_joint_velocity,wrist_1_joint_effort,wrist_2_joint_position,wrist_2_joint_velocity,wrist_2_joint_effort,wrist_3_joint_position,wrist_3_joint_velocity,wrist_3_joint_effort,shoulder_pan_joint_position,shoulder_pan_joint_velocity,shoulder_pan_joint_effort
222.0,482.0,-2.1278,0.6179,9.2913,-0.0446,0.0244,-0.1145,-2.091278692285055,0.0,4.07823371887207,-1.5527808666229248,-0.0,1.9093776941299438,5.335746395378866,0.0,0.24219663441181183,-1.6590188185321253,-0.0,-0.01309297326952219,0.5180051326751709,0.0,0.001271057641133666,1.0969692468643188,0.0,0.007218511775135994
222.0,482.0,-2.1278,0.6179,9.2913,-0.0446,0.0244,-0.1145,-2.0912629566588343,0.0,4.08206844329834,-1.5527489185333252,-0.0,1.9084079265594482,5.3357746479804895,0.0,0.23858782649040222,-1.659051243458883,-0.0,-0.003143215784803033,0.5179690718650818,0.0,-0.0015268689021468163,1.097029447555542,0.0,0.007478266954421997
222.0,482.0,-2.1278,0.6179,9.2913,-0.0446,0.0244,-0.1145,-2.0913268528380335,0.0,4.063776969909668,-1.5527887344360352,-0.0,1.9511072635650635,5.335746276169576,0.0,0.2478582262992859,-1.6590636412249964,-0.0,-0.020690586417913437,0.5179490447044373,0.0,0.0068901702761650085,1.096993327140808,0.0,0.011243225075304508
222.0,482.0,-2.1278,0.6179,9.2913,-0.0446,0.0244,-0.1145,-2.091278692285055,0.0,4.054950714111328,-1.5527729988098145,-0.0,1.9629371166229248,5.335758316307821,0.0,0.24625757336616516,-1.659107510243551,-0.0,-0.005915107671171427,0.5179932117462158,0.0,0.01122882217168808,1.0969974994659424,0.0,-0.018480688333511353
222.0,482.0,-2.1278,0.6179,9.2913,-0.0446,0.0244,-0.1145,-2.091339250604147,0.0,4.060786247253418,-1.5527287721633911,-0.0,1.9464054107666016,5.335818934231558,0.0,0.25007760524749756,-1.6590636412249964,-0.0,-0.015723247081041336,0.5180051326751709,0.0,-0.00700015015900135,1.096981167793274,0.0,-0.05929367244243622
222.0,482.0,-2.1278,0.6179,9.2913,-0.0446,0.0244,-0.1145,-2.091294904748434,0.0,4.0565104484558105,-1.5527931451797485,-0.0,1.9341976642608643,5.3357984898384,0.0,0.239732563495636,-1.6590712706195276,-0.0,-0.0009401692659594119,0.517977237701416,0.0,-0.004277663771063089,1.097017526626587,0.0,0.006337654776871204
222.0,482.0,-2.1278,0.6179,9.2913,-0.0446,0.0244,-0.1145,-2.0912867985167445,0.0,4.07575798034668,-1.5527287721633911,-0.0,1.9355978965759277,5.335842656880178,0.0,0.2450760006904602,-1.659067455922262,-0.0,0.007159663829952478,0.5180091857910156,0.0,0.004307752475142479,1.096989393234253,0.0,-0.016157126054167747
222.0,482.0,-2.1278,0.6179,9.2913,-0.0446,0.0244,-0.1145,-2.0913149319090785,0.0,4.04192590713501,-1.5527247190475464,-0.0,1.9501621723175049,5.335831153183737,0.0,0.2420763075351715,-1.6590755621539515,-0.0,-0.007488083094358444,0.5179572105407715,0.0,-0.005902701988816261,1.097001552581787,0.0,0.0023667067289352417
222.0,482.0,-2.1278,0.6179,9.2913,-0.0446,0.0244,-0.1145,-2.0912705860533656,0.0,4.063950538635254,-1.552756667137146,-0.0,1.8911027908325195,5.335782456188955,0.0,0.25085389614105225,-1.6590593496905726,-0.0,-0.016146019101142883,0.5179814100265503,0.0,-0.0005201947642490268,1.0970418453216553,0.0,0.044289104640483856
222.0,482.0,-2.1278,0.6179,9.2913,-0.0446,0.0244,-0.1145,-2.091307302514547,0.0,4.078677654266357,-1.5527324676513672,-0.0,1.8645312786102295,5.3357825157936,0.0,0.2521241009235382,-1.6590917746173304,-0.0,0.004605584777891636,0.5180010795593262,0.0,-0.004686181899160147,1.0969573259353638,0.0,0.01786496490240097
221.0,478.0,-2.1583,0.6108,9.3398,-0.0363,0.0202,-0.1179,-2.091294904748434,0.0,4.067378997802734,-1.5527927875518799,-0.0,1.922584056854248,5.3357825157936,0.0,0.2553137242794037,-1.6590636412249964,-0.0,-0.0012008023913949728,0.5179568529129028,0.0,-0.0009707423159852624,1.0969655513763428,0.0,-0.0257706455886364
221.0,478.0,-2.1583,0.6108,9.3398,-0.0363,0.0202,-0.1179,-2.0912662945189417,0.0,4.079935550689697,-1.5527808666229248,-0.0,1.8809611797332764,5.335742401867666,0.0,0.22604140639305115,-1.659022633229391,-0.0,0.00039518869016319513,0.517985463142395,0.0,0.005993410013616085,1.0969734191894531,0.0,-0.030328556895256042
221.0,478.0,-2.1583,0.6108,9.3398,-0.0363,0.0202,-0.1179,-2.091294904748434,0.0,4.070506572723389,-1.55275297164917,-0.0,1.9285823106765747,5.3357746479804895,0.0,0.2513432800769806,-1.6590755621539515,-0.0,-0.010372829623520374,0.5179650187492371,0.0,0.010133364237844944,1.0969692468643188,0.0,-0.041966892778873444
221.0,478.0,-2.1583,0.6108,9.3398,-0.0363,0.0202,-0.1179,-2.0912705860533656,0.0,4.068209171295166,-1.5527127981185913,-0.0,1.927588701248169,5.335750567704,0.0,0.2475704848766327,-1.6590755621539515,-0.0,-0.001232003327459097,0.5179892182350159,0.0,0.001617317320778966,1.0970377922058105,0.0,0.005051604472100735
221.0,478.0,-2.1583,0.6108,9.3398,-0.0363,0.0202,-0.1179,-2.0913268528380335,0.0,4.051432132720947,-1.5527489185333252,-0.0,1.9014790058135986,5.335786568909445,0.0,0.23871372640132904,-1.6590712706195276,-0.0,-0.004418008960783482,0.5179449915885925,0.0,-0.002559388056397438,1.097049593925476,0.0,-0.016328712925314903
221.0,478.0,-2.1583,0.6108,9.3398,-0.0363,0.0202,-0.1179,-2.091278692285055,0.0,4.053101539611816,-1.55275297164917,-0.0,1.9370307922363281,5.335806596070089,0.0,0.24210381507873535,-1.6591194311725062,-0.0,0.0004421211779117584,0.517977237701416,0.0,0.006811479106545448,1.0969974994659424,0.0,0.022317515686154366
221.0,478.0,-2.1583,0.6108,9.3398,-0.0363,0.0202,-0.1179,-2.091334959069723,0.0,4.088179111480713,-1.55275297164917,-0.0,1.8925395011901855,5.3357984898384,0.0,0.2537820339202881,-1.6590188185321253,-0.0,0.001799408346414566,0.5180251002311707,0.0,0.00926052313297987,1.0969769954681396,0.0,-0.04932345077395439
221.0,478.0,-2.1583,0.6108,9.3398,-0.0363,0.0202,-0.1179,-2.0913311443724574,0.0,4.055422306060791,-1.5527489185333252,-0.0,1.888726830482483,5.335826980858602,0.0,0.24363002181053162,-1.6590350309955042,-0.0,-0.0008158136624842882,0.5180092453956604,0.0,-0.00020155159290879965,1.0969934463500977,0.0,0.0069745564833283424
221.0,478.0,-2.1583,0.6108,9.3398,-0.0363,0.0202,-0.1179,-2.0912991962828578,0.0,4.077023029327393,-1.5527808666229248,1.465937371492032e-09,1.916965365409851,5.335734295635977,0.0,0.2532939016819,-1.6590917746173304,-0.0,-0.006481817923486233,0.5180051326751709,0.0,-0.0031472411938011646,1.0969769954681396,0.0,-0.01690538227558136
221.0,478.0,-2.1583,0.6108,9.3398,-0.0363,0.0202,-0.1179,-2.0912748775877894,0.0,4.047447681427002,-1.5527808666229248,2.638635566553499e-13,1.924726963043213,5.335770594864645,0.0,0.2372036576271057,-1.6590636412249964,-0.0,-0.016061626374721527,0.5179932117462158,0.0,0.003665038151666522,1.09694504737854,0.0,0.049011681228876114
221.0,478.0,-2.1583,0.6108,9.3398,-0.0363,0.0202,-0.1179,-2.091294904748434,0.0,4.046499729156494,-1.552785038948059,6.371994563285596e-19,1.8998675346374512,5.335818874626913,0.0,0.25083619356155396,-1.6590474287616175,-0.0,-0.0017902940744534135,0.517977237701416,0.0,0.0020189848728477955,1.097017526626587,0.0,0.005740362219512463
221.0,478.0,-2.1583,0.6108,9.3398,-0.0363,0.0202,-0.1179,-2.0912748775877894,0.0,4.069127082824707,-1.5527526140213013,1.146936355915609e-22,1.907724380493164,5.335786568909445,0.0,0.24165655672550201,-1.659067455922262,-0.0,-0.007945863530039787,0.5180374383926392,0.0,-0.016104575246572495,1.0970377922058105,0.0,0.005695031490176916
221.0,478.0,-2.1583,0.6108,9.3398,-0.0363,0.0202,-0.1179,-2.091302534142965,0.0,4.059723854064941,-1.55277681350708,2.064445137103499e-26,1.9370191097259521,5.335810649185934,0.0,0.23444122076034546,-1.6590712706195276,-0.0,-0.007333616726100445,0.5180055499076843,0.0,-0.008913598954677582,1.096989393234253,0.0,-0.00036772899329662323
221.0,478.0,-2.1583,0.6108,9.3398,-0.0363,0.0202,-0.1179,-2.091294904748434,0.0,4.078198432922363,-1.5527808666229248,3.7159287313109205e-30,1.9343135356903076,5.335790622025289,0.0,0.25578272342681885,-1.6590998808490198,-0.0,-0.0008052790071815252,0.5180010795593262,0.0,0.006613610778003931,1.0969734191894531,0.0,0.03249268978834152
221.0,478.0,-2.1583,0.6108,9.3398,-0.0363,0.0202,-0.1179,-2.0912381611266078,0.0,4.03730583190918,-1.5527448654174805,8.973529728198746e-36,1.9222657680511475,5.335810649185934,0.0,0.2441055178642273,-1.6591394583331507,-0.0,-0.008137062191963196,0.5179813504219055,0.0,-0.00013809814117848873,1.096989393234253,0.0,0.026941567659378052
221.0,478.0,-2.1583,0.6108,9.3398,-0.0363,0.0202,-0.1179,-2.091323514977926,0.0,4.013269901275635,-1.5527287721633911,1.6152038723070717e-39,1.9515583515167236,5.335754620819845,0.0,0.25214242935180664,-1.6590712706195276,-0.0,-0.007498563267290592,0.5179974436759949,0.0,0.009847749955952168,1.0970216989517212,0.0,0.011300014331936836
221.0,478.0,-2.1583,0.6108,9.3398,-0.0363,0.0202,-0.1179,-2.091294904748434,0.0,4.057062149047852,-1.5527410507202148,2.9006878211523713e-43,1.8788644075393677,5.335814761906423,0.0,0.2507840394973755,-1.659067455922262,-0.0,-0.003178164130076766,0.5180091857910156,0.0,0.005558365024626255,1.096981167793274,0.0,-0.010681023821234703
221.0,478.0,-2.1583,0.6108,9.3398,-0.0363,0.0202,-0.1179,-2.0912867985167445,0.0,4.063177108764648,-1.552764892578125,-0.0,1.9214568138122559,5.3358545182044885,0.0,0.24653387069702148,-1.659083668385641,-0.0,-0.014157734811306,0.5180252194404602,0.0,0.013565734028816223,1.0969974994659424,0.0,-0.0036086514592170715
221.0,478.0,-2.1583,0.6108,9.3398,-0.0363,0.0202,-0.1179,-2.0912867985167445,0.0,4.07064151763916,-1.5527887344360352,-0.0,1.9435797929763794,5.335814761906423,0.0,0.23898980021476746,-1.659111801777975,-0.0,-0.005596629343926907,0.5179568529129028,0.0,0.0069662220776081085,1.0970134735107422,0.0,-0.02526923455297947
221.0,478.0,-2.1583,0.6108,9.3398,-0.0363,0.0202,-0.1179,-2.0912262401976527,0.0,4.065761566162109,-1.5527210235595703,-0.0,1.8998994827270508,5.335786270886221,0.0,0.25278857350349426,-1.6590636412249964,-0.0,-0.005996947642415762,0.5179731845855713,0.0,-0.004050650633871555,1.0970057249069214,0.0,-0.02413112297654152
220.0,468.0,-2.2086,0.615,9.481,-0.0458,0.0246,-0.1156,-2.0912262401976527,0.0,4.047973155975342,-1.5527689456939697,-0.0,1.907785415649414,5.335814821511068,0.0,0.24604862928390503,-1.6590831915484827,-0.0,-0.004556084983050823,0.5180014967918396,0.0,0.005093345418572426,1.0970097780227661,0.0,-0.01088380254805088
220.0,468.0,-2.2086,0.615,9.481,-0.0458,0.0246,-0.1156,-2.0912867985167445,0.0,4.077329635620117,-1.5527164936065674,-0.0,1.9046812057495117,5.335750567704,0.0,0.2567089796066284,-1.659067455922262,-0.0,0.0074850949458777905,0.5179527401924133,0.0,0.00044116529170423746,1.0970377922058105,0.0,-0.012893997132778168
220.0,468.0,-2.2086,0.615,9.481,-0.0458,0.0246,-0.1156,-2.091294904748434,0.0,4.0549774169921875,-1.55277681350708,-0.0,1.8864295482635498,5.335802542954244,0.0,0.24912142753601074,-1.6590917746173304,-0.0,-0.006267128977924585,0.5180093050003052,0.0,0.0027789385057985783,1.0970336198806763,0.0,-0.006314973346889019
220.0,468.0,-2.2086,0.615,9.481,-0.0458,0.0246,-0.1156,-2.0913478336729945,0.0,4.061470985412598,-1.5527452230453491,-0.0,1.9726147651672363,5.3357984898384,0.0,0.25327831506729126,-1.6590712706195276,-0.0,-0.010370232164859772,0.5179731845855713,0.0,-0.001365645439364016,1.0970216989517212,0.0,0.06416456401348114
220.0,468.0,-2.2086,0.615,9.481,-0.0458,0.0246,-0.1156,-2.09129061321401,0.0,4.094643592834473,-1.5527164936065674,-0.0,1.9050452709197998,5.335814761906423,0.0,0.24900393187999725,-1.659111801777975,-0.0,-0.00747404620051384,0.5179891586303711,0.0,-0.00523608410730958,1.097029447555542,2.5080242949115927e-07,-0.034310609102249146
220.0,468.0,-2.2086,0.615,9.481,-0.0458,0.0246,-0.1156,-2.0912867985167445,0.0,4.04066276550293,-1.5528252124786377,-0.0,1.8721158504486084,5.335786568909445,0.0,0.24540817737579346,-1.659055534993307,-0.0,-0.00399568397551775,0.5179809927940369,0.0,-0.00015869259368628263,1.0970536470413208,4.514355556040073e-11,0.026250336319208145
220.0,468.0,-2.2086,0.615,9.481,-0.0458,0.0246,-0.1156,-2.091302534142965,0.0,4.0533246994018555,-1.55277681350708,-0.0,1.8958587646484375,5.335774349957266,0.0,0.23238301277160645,-1.659095589314596,-0.0,-0.008878188207745552,0.5179690718650818,0.0,0.002260381355881691,1.0970216989517212,8.125680236634701e-15,0.018730521202087402
220.0,468.0,-2.2086,0.615,9.481,-0.0458,0.0246,-0.1156,-2.0913268528380335,0.0,4.071115016937256,-1.55275297164917,-0.0,1.870819330215454,5.33579038360671,0.0,0.2511175274848938,-1.6590712706195276,-0.0,-0.0024874848313629627,0.5180334448814392,0.0,-0.001999105792492628,1.0970134735107422,1.9622559436741918e-20,-0.0011428530560806394
220.0,468.0,-2.2086,0.615,9.481,-0.0458,0.0246,-0.1156,-2.0913473568358363,0.0,4.040590763092041,-1.552821159362793,-0.0,1.9546016454696655,5.335770594864645,0.0,0.24124741554260254,-1.6590431372271937,-0.0,-0.0029514217749238014,0.5179809927940369,0.0,0.0015754858031868935,1.096993327140808,3.5319909912036454e-24,0.006432350724935532
220.0,468.0,-2.2086,0.615,9.481,-0.0458,0.0246,-0.1156,-2.0912867985167445,0.0,4.081599235534668,-1.5527608394622803,-0.0,1.930126667022705,5.335834550648489,0.0,0.25156286358833313,-1.659107510243551,-0.0,0.0037060438189655542,0.5179768204689026,0.0,0.009122832678258419,1.096981167793274,6.357458635235808e-28,-0.033814240247011185
220.0,468.0,-2.2086,0.615,9.481,-0.0458,0.0246,-0.1156,-2.091294904748434,0.0,4.032205104827881,-1.5528655052185059,-0.0,1.886051893234253,5.335770594864645,0.0,0.23940791189670563,-1.6590917746173304,-0.0,-0.003946454264223576,0.5179731845855713,0.0,0.006401657126843929,1.0969974994659424,1.5352513663200754e-33,-0.00370742566883564
220.0,468.0,-2.2086,0.615,9.481,-0.0458,0.0246,-0.1156,-2.0912629566588343,0.0,4.078972816467285,-1.5527927875518799,-0.0,1.932969331741333,5.3357665417488,0.0,0.24175907671451569,-1.6590712706195276,-0.0,-0.0059601059183478355,0.517977237701416,0.0,-0.006771126762032509,1.0970216989517212,2.7633982385512603e-37,-0.049945056438446045
220.0,468.0,-2.2086,0.615,9.481,-0.0458,0.0246,-0.1156,-2.091323038140768,0.0,4.072299480438232,-1.552756667137146,-0.0,1.8958992958068848,5.335738348751821,0.0,0.2518162727355957,-1.659051243458883,-0.0,0.003534708870574832,0.5179129242897034,0.0,-0.002180463168770075,1.097001552581787,4.974049028967371e-41,-0.025421418249607086
220.0,468.0,-2.2086,0.615,9.481,-0.0458,0.0246,-0.1156,-2.0912867985167445,0.0,4.041555404663086,-1.5526968240737915,-0.0,1.8957899808883667,5.335786568909445,0.0,0.24281418323516846,-1.6590068976031702,-0.0,-0.013784991577267647,0.5180092453956604,0.0,0.002113835886120796,1.096989393234253,8.407790785948902e-45,-0.07012814283370972
220.0,468.0,-2.2086,0.615,9.481,-0.0458,0.0246,-0.1156,-2.0912872753539027,0.0,4.087967872619629,-1.5528088808059692,-0.0,1.9149000644683838,5.335790622025289,0.0,0.2543456554412842,-1.6591036955462855,-0.0,-0.020349765196442604,0.5179650187492371,0.0,0.0020502207335084677,1.0970139503479004,0.0,-0.03561705723404884
220.0,468.0,-2.2086,0.615,9.481,-0.0458,0.0246,-0.1156,-2.0912991962828578,0.0,4.060937881469727,-1.5527845621109009,-0.0,1.9087271690368652,5.335794317513265,0.0,0.25644612312316895,-1.6590593496905726,-0.0,-0.005977339576929808,0.517949104309082,0.0,-0.006418631412088871,1.096989393234253,0.0,0.02878415212035179
220.0,468.0,-2.2086,0.615,9.481,-0.0458,0.0246,-0.1156,-2.0912586651244105,0.0,4.073088645935059,-1.552764892578125,-0.0,1.9585177898406982,5.33582632520751,0.0,0.24829405546188354,-1.659067455922262,-0.0,0.002196689136326313,0.5179891586303711,0.0,0.0007345797494053841,1.0969852209091187,0.0,-0.02902144007384777
220.0,468.0,-2.2086,0.615,9.481,-0.0458,0.0246,-0.1156,-2.0913268528380335,0.0,4.068174362182617,-1.552768588066101,-0.0,1.8890867233276367,5.33582632520751,0.0,0.23804613947868347,-1.6590712706195276,-0.0,-0.006859207525849342,0.5179650783538818,0.0,0.010539788752794266,1.096981167793274,0.0,-0.009284356608986855
220.0,468.0,-2.2086,0.615,9.481,-0.0458,0.0246,-0.1156,-2.091311117211813,0.0,4.113282203674316,-1.5528006553649902,-0.0,1.936140537261963,5.3357665417488,0.0,0.24918541312217712,-1.6590831915484827,-0.0,-0.01811726577579975,0.5179932117462158,0.0,0.0025584055110812187,1.0969734191894531,0.0,0.03902922198176384
220.0,468.0,-2.2086,0.615,9.481,-0.0458,0.0246,-0.1156,-2.0913311443724574,0.0,4.0724968910217285,-1.5527410507202148,-0.0,1.9270243644714355,5.335778343468466,0.0,0.24989962577819824,-1.659051243458883,-0.0,-0.007513942196965218,0.5180134177207947,0.0,-0.0013672088971361518,1.0969651937484741,0.0,-0.01743725687265396
220.0,478.0,-2.1661,0.5809,9.3326,-0.036,0.0234,-0.1115,-2.091278692285055,0.0,4.082351207733154,-1.552748441696167,-0.0,1.9275429248809814,5.335794317513265,0.0,0.24404650926589966,-1.6591070334063929,-9.125016617872461e-07,-0.0021365012507885695,0.5179970264434814,0.0,0.0021555679850280285,1.096972942352295,0.0,0.018598347902297974
220.0,478.0,-2.1661,0.5809,9.3326,-0.036,0.0234,-0.1115,-2.0912543735899867,0.0,4.032951354980469,-1.5527329444885254,-0.0,1.9716172218322754,5.3358386037643335,0.0,0.24262844026088715,-1.659118954335348,-3.890137989515097e-09,-0.0017919405363500118,0.518033504486084,0.0,0.0049763331189751625,1.0970901250839233,6.496347486972809e-05,-0.033576130867004395
220.0,478.0,-2.1661,0.5809,9.3326,-0.036,0.0234,-0.1115,-2.091278692285055,0.0,4.048417568206787,-1.5527410507202148,2.1765816200058907e-05,1.8936488628387451,5.335746395378866,0.0,0.24326224625110626,-1.6591351667987269,-1.6584265211117e-11,-0.009472512640058994,0.5179932713508606,0.0,-6.332201883196831e-05,1.097012996673584,0.0022569571156054735,0.030851557850837708
220.0,478.0,-2.1661,0.5809,9.3326,-0.036,0.0234,-0.1115,-2.0912667713561,0.0,4.086017608642578,-1.55271315574646,5.071910345577635e-05,1.9457364082336426,5.335778343468466,0.0,0.23971271514892578,-1.6591351667987269,-0.0007592340698465705,-0.011067304760217667,0.5179768204689026,0.0,0.013467102311551571,1.097105860710144,0.00573677709326148,-0.0020464062690734863
220.0,478.0,-2.1661,0.5809,9.3326,-0.036,0.0234,-0.1115,-2.0912586651244105,0.0,4.048316478729248,-1.5527331829071045,0.0009253268362954259,1.898819923400879,5.335814761906423,0.0,0.25087249279022217,-1.659130875264303,-0.0006919644074514508,-0.00953205768018961,0.5179444551467896,0.0,2.3176875401986763e-05,1.0971214771270752,0.007162337191402912,0.019678248092532158
220.0,478.0,-2.1661,0.5809,9.3326,-0.036,0.0234,-0.1115,-2.091234346429342,1.4112082169503992e-07,4.087032318115234,-1.5527089834213257,0.000939525431022048,1.9236226081848145,5.3358386037643335,0.0,0.25359395146369934,-1.6591633001910608,-0.0006507902289740741,0.012892344035208225,0.5179609656333923,0.0,0.0028148635756224394,1.097181797027588,0.00882368627935648,-0.02856750786304474
220.0,478.0,-2.1661,0.5809,9.3326,-0.036,0.0234,-0.1115,-2.0912629566588343,2.540125228212009e-11,4.05119514465332,-1.552725076675415,0.0010264653246849775,1.8966820240020752,5.335810649185934,1.2378167468796164e-07,0.2530544698238373,-1.6591389814959925,-0.0005601691664196551,-0.001787171931937337,0.5179731249809265,0.0,-8.309248369187117e-05,1.0972135066986084,0.009418854489922523,0.06914311647415161
220.0,478.0,-2.1661,0.5809,9.3326,-0.036,0.0234,-0.1115,-2.0912791691222132,6.134103416174786e-17,4.097346305847168,-1.5527575016021729,0.000762797542847693,1.9402306079864502,5.335822927742758,3.44550880881922e-11,0.24916116893291473,-1.6591065565692347,-0.00040906231151893735,-0.012228896841406822,0.5180092453956604,0.0,0.008021644316613674,1.0972377061843872,0.009695167653262615,0.09940855950117111
220.0,478.0,-2.1661,0.5809,9.3326,-0.036,0.0234,-0.1115,-2.0912586651244105,1.10411680422666e-20,4.091984748840332,-1.5527089834213257,0.0002994932292494923,1.9565279483795166,5.335778283863821,1.4688745283032018e-13,0.2487664818763733,-1.6591876188861292,-0.00041462076478637755,-0.00759947020560503,0.517937183380127,0.0,-0.004177188500761986,1.0972449779510498,0.008383411914110184,0.032511141151189804
220.0,478.0,-2.1661,0.5809,9.3326,-0.036,0.0234,-0.1115,-2.091250558892721,1.9873709676360533e-24,4.055658340454102,-1.5527089834213257,0.00019922107458114624,1.9134092330932617,5.335774290352621,6.262042581250526e-16,0.2413569986820221,-1.659142796193258,-0.0003598958719521761,0.008372364565730095,0.5179731845855713,0.0,-0.00949660874903202,1.0973905324935913,0.008218751288950443,0.005800429731607437
220.0,478.0,-2.1661,0.5809,9.3326,-0.036,0.0234,-0.1115,-2.0912910900511683,0.00014408961578737944,4.093928813934326,-1.5527610778808594,9.041596968017984e-06,1.8935563564300537,5.335782098561086,1.7430626456234722e-19,0.2573411464691162,-1.6591351667987269,-0.00029990458278916776,-0.0074816495180130005,0.517928957939148,0.0,0.011275000870227814,1.0973494052886963,0.008453065529465675,-0.029333870857954025
220.0,478.0,-2.1661,0.5809,9.3326,-0.036,0.0234,-0.1115,-2.091323038140768,6.220808427315205e-05,4.061640739440918,-1.5526930093765259,1.6274555036943639e-09,1.9221649169921875,5.335834491043844,7.430949063017869e-22,0.2516801357269287,-1.6591756979571741,-0.00026991352206096053,0.0036296374164521694,0.5179932713508606,0.0,0.003765577683225274,1.0973894596099854,0.007841667160391808,0.00595100037753582
220.0,478.0,-2.1661,0.5809,9.3326,-0.036,0.0234,-0.1115,-2.0912705860533656,2.695596208468487e-07,4.052343368530273,-1.5526847839355469,2.929362210701142e-13,1.8874642848968506,5.335790681629934,3.1679305001527906e-24,0.24784564971923828,-1.6591351667987269,-0.0002453767228871584,0.002070695161819458,0.5180130004882812,0.0,-0.002986936829984188,1.0974373817443848,0.007029511965811253,0.027532923966646194
220.0,478.0,-2.1661,0.5809,9.3326,-0.036,0.0234,-0.1115,-2.091254850427145,6.50954821729971e-13,4.090010166168213,-1.5527690649032593,7.074065142165744e-19,1.9400527477264404,5.335766482144155,8.818051287791732e-28,0.2502245008945465,-1.6591914335833948,-0.0001799883903004229,-0.0023852495942264795,0.5180174708366394,0.0,-0.0020304808858782053,1.097421407699585,0.005446190945804119,-0.04423384740948677
220.0,478.0,-2.1661,0.5809,9.3326,-0.036,0.0234,-0.1115,-2.0913268528380335,1.1716956466787493e-16,4.065322399139404,-1.552821159362793,1.2733068242222218e-22,1.9129314422607422,5.335778701096334,3.7592738159635934e-30,0.2595021426677704,-1.6591351667987269,-0.00016661759582348168,-0.004937093239277601,0.517977237701416,0.0,0.002656924072653055,1.0974533557891846,0.0038818558678030968,-0.01833387091755867
220.0,478.0,-2.1661,0.5809,9.3326,-0.036,0.0234,-0.1115,-2.091306825677389,2.1090105474794567e-20,4.095977783203125,-1.552773118019104,2.291907324296947e-26,1.96755051612854,5.335770594864645,1.6026372595636346e-32,0.24068108201026917,-1.6591432730304163,-0.00015512779646087438,-0.003360799979418516,0.5179449319839478,0.0,0.010787289589643478,1.09743332862854,0.0022542765364050865,-0.048729147762060165
220.0,478.0,-2.1661,0.5809,9.3326,-0.036,0.0234,-0.1115,-2.091318746606344,3.796145009621427e-24,4.102338790893555,-1.5527927875518799,4.12535209714865e-30,1.911062479019165,5.335770594864645,6.832293443271986e-35,0.25262370705604553,-1.6591032187091272,-0.00011622922465903684,0.002591747557744384,0.5179973840713501,0.0,0.002983341459184885,1.097364902496338,0.00103580963332206,0.08104389905929565
220.0,478.0,-2.1661,0.5809,9.3326,-0.036,0.0234,-0.1115,-2.091306825677389,9.167243722401803e-30,4.049237251281738,-1.5527410507202148,9.962240006878258e-36,1.900158166885376,5.335830497532644,1.9017935105950832e-38,0.24662084877490997,-1.6591113249408167,-0.00010585483687464148,0.0017881807871162891,0.5179690718650818,0.0,-0.0022719684056937695,1.097441554069519,-0.0005699928151443601,0.004209600854665041
220.0,478.0,-2.1661,0.5809,9.3326,-0.036,0.0234,-0.1115,-2.091302534142965,1.6500713586209925e-33,4.047384262084961,-1.5527329444885254,1.7931673759778592e-39,1.9168084859848022,5.335766482144155,8.107632654890527e-41,0.2579430341720581,-1.6591556707965296,-7.520280632888898e-05,0.0060941483825445175,0.5180010795593262,0.0,-0.005606197286397219,1.0973771810531616,-0.0019821329042315483,-0.03626387566328049
219.0,491.0,-2.2128,1.2138,9.676,-0.0086,0.0252,-0.1159,-2.091294904748434,2.970069807549039e-37,4.04072380065918,-1.552773118019104,-0.00016358371067326516,1.9031394720077515,5.335786568909445,3.461207206882298e-43,0.25495725870132446,-1.659079376851217,-7.10365129634738e-05,-0.004794921725988388,0.5179970264434814,0.0,-0.000940514262765646,1.0973575115203857,-0.003428019117563963,-0.011308226734399796
219.0,491.0,-2.2128,1.2138,9.676,-0.0086,0.0252,-0.1159,-2.0912586651244105,7.174648137343064e-43,4.0887556076049805,-1.5527209043502808,-8.96483616088517e-05,1.9234073162078857,5.335778343468466,0.0,0.24764323234558105,-1.6590269247638147,5.282200800138526e-05,0.004445918835699558,0.5179973840713501,0.0,0.0018810556503012776,1.0973374843597412,-0.0031681691762059927,0.043089695274829865
219.0,491.0,-2.2128,1.2138,9.676,-0.0086,0.0252,-0.1159,-2.0912629566588343,0.0,4.0592875480651855,-1.5527689456939697,-8.152655937010422e-05,1.9340996742248535,5.335818874626913,0.0,0.23816445469856262,-1.6590917746173304,5.013561894884333e-05,0.0037161260843276978,0.5180575251579285,0.0,-0.00632926169782877,1.0973014831542969,-0.0033016407396644354,0.010447843931615353
219.0,491.0,-2.2128,1.2138,9.676,-0.0086,0.0252,-0.1159,-2.091238637963766,0.0,4.088790416717529,-1.5527570247650146,-3.75572381017264e-05,1.947947382926941,5.335762309819021,0.0,0.2532770037651062,-1.659079376851217,4.749096115119755e-05,-0.006873369216918945,0.5179129242897034,0.0,0.0029331424739211798,1.097313404083252,-0.0037354917731136084,-0.0264159943908453
219.0,491.0,-2.2128,1.2138,9.676,-0.0086,0.0252,-0.1159,-2.0912424526610316,0.0,4.088134765625,-1.552725076675415,-3.323615965200588e-05,1.932060718536377,5.3357585547264,1.97716653929092e-05,0.2507990300655365,-1.659107510243551,5.4820488003315404e-05,-0.0026282218750566244,0.5180051326751709,0.0,-0.000947195163462311,1.0973061323165894,-0.003976715262979269,0.04418458044528961
219.0,491.0,-2.2128,1.2138,9.676,-0.0086,0.0252,-0.1159,-2.0913149319090785,0.0,4.072746753692627,-1.5527369976043701,-3.095010106335394e-05,1.915701150894165,5.335782456188955,2.0887924620183185e-05,0.2612248957157135,-1.6590874830829065,6.288607983151451e-05,0.0024913777597248554,0.5180171132087708,0.0,0.005483837798237801,1.0973056554794312,-0.004039312247186899,-0.031410202383995056
219.0,491.0,-2.2128,1.2138,9.676,-0.0086,0.0252,-0.1159,-2.091238637963766,0.0,4.086668491363525,-1.5527689456939697,-2.8958398615941405e-05,1.9395818710327148,5.33577053526,1.9969611457781866e-05,0.25049567222595215,-1.6590712706195276,6.013035817886703e-05,0.002818390028551221,0.5179731845855713,0.0,0.013927271589636803,1.0972942113876343,-0.003722543828189373,0.06716259568929672
219.0,491.0,-2.2128,1.2138,9.676,-0.0086,0.0252,-0.1159,-2.091294904748434,0.0,4.071819305419922,-1.5527209043502808,-2.7207552193431184e-05,1.9390310049057007,5.335794734745779,1.9121085642836988e-05,0.2458961308002472,-1.6590831915484827,5.7566416217014194e-05,0.001967125805094838,0.5180014967918396,0.0,0.010766894556581974,1.097209095954895,-0.003223379608243704,-0.010106520727276802
219.0,491.0,-2.2128,1.2138,9.676,-0.0086,0.0252,-0.1159,-2.091278692285055,0.0,4.066741943359375,-1.5527771711349487,-2.4945178665802814e-05,1.936751127243042,5.335794317513265,1.7975362425204366e-05,0.2596898674964905,-1.659107510243551,5.410555240814574e-05,-0.005799535661935806,0.517961323261261,0.0,-0.0007282962324097753,1.0972131490707397,-0.0024758861400187016,-0.0265570729970932
219.0,491.0,-2.2128,1.2138,9.676,-0.0086,0.0252,-0.1159,-2.0912910900511683,0.0,4.0813307762146,-1.552761197090149,-2.3635018806089647e-05,1.9359753131866455,5.335815000325002,1.728491042740643e-05,0.2522241473197937,-1.6591156164752405,5.202061583986506e-05,-0.0018227981636300683,0.5179408192634583,0.0,0.0038612131029367447,1.097217321395874,-0.0018850205233320594,-0.03906063735485077
219.0,491.0,-2.2128,1.2138,9.676,-0.0086,0.0252,-0.1159,-2.091246267358297,0.0,4.066617965698242,-1.5527971982955933,-2.2455607904703356e-05,1.9741541147232056,5.335802542954244,1.6645537471049465e-05,0.2582871913909912,-1.659107510243551,5.009038795833476e-05,-0.010710936039686203,0.517937183380127,0.0,0.007759929168969393,1.0971733331680298,-0.0017562739085406065,-0.015090275555849075
219.0,491.0,-2.2128,1.2138,9.676,-0.0086,0.0252,-0.1159,-2.0912629566588343,0.0,4.055055141448975,-1.5527610778808594,-2.8695126275124494e-07,1.9411433935165405,5.3357825157936,1.5770492609590292e-05,0.25993144512176514,-1.6590598265277308,6.11958239460364e-05,-0.003526796121150255,0.5179288983345032,0.0,-0.001744027016684413,1.097205400466919,-0.0016736399848014116,-0.011162210255861282
219.0,491.0,-2.2128,1.2138,9.676,-0.0086,0.0252,-0.1159,-2.0912910900511683,0.0,4.111234664916992,-1.5527374744415283,-5.1650208415798815e-11,1.8923041820526123,5.335822987347402,1.5236524632200599e-05,0.24583397805690765,-1.6590350309955042,6.110901449574158e-05,-0.005111007019877434,0.517949104309082,0.0,-0.006633138749748468,1.097221851348877,-0.0018989756936207414,-0.005310146138072014
219.0,491.0,-2.2128,1.2138,9.676,-0.0086,0.0252,-0.1159,-2.0912872753539027,0.0,4.06851053237915,-1.5527287721633911,-9.296854058078383e-15,1.9179909229278564,5.335786568909445,1.473752945457818e-05,0.25056517124176025,-1.6590469519244593,5.9110676374984905e-05,0.007396609988063574,0.5179891586303711,0.0,0.003947001416236162,1.0971570014953613,-0.002080871257930994,0.002301612636074424
219.0,491.0,-2.2128,1.2138,9.676,-0.0086,0.0252,-0.1159,-2.091282983819479,0.0,4.043501853942871,-1.5527931451797485,-2.2450812735682896e-20,1.9592655897140503,5.335774349957266,1.4047433069208637e-05,0.25370991230010986,-1.6590431372271937,7.035763701424003e-05,0.005955032538622618,0.5179932117462158,0.0,0.0017491565085947514,1.0971615314483643,-0.0021503635216504335,-0.008564561605453491
219.0,491.0,-2.2128,1.2138,9.676,-0.0086,0.0252,-0.1159,-2.0913435421385707,3.761727930395864e-05,4.043509483337402,-1.5527931451797485,-4.0410669936003736e-24,1.8940653800964355,5.335762309819021,1.3622199730889406e-05,0.25420159101486206,-1.659083668385641,6.82822719682008e-05,-0.0055811284109950066,0.5179855227470398,0.0,-0.00019383046310395002,1.0971492528915405,-0.0020988890901207924,0.004044382832944393
219.0,491.0,-2.2128,1.2138,9.676,-0.0086,0.0252,-0.1159,-2.091282983819479,3.698321233969182e-05,4.098483562469482,-1.5527172088623047,-7.273777102693881e-28,1.9442834854125977,5.335786568909445,1.3221954759501386e-05,0.24724312126636505,-1.6590312162982386,6.627130642300472e-05,0.001717527862638235,0.5180252194404602,0.0,0.012285914272069931,1.0971574783325195,-0.001968336058780551,0.015120875090360641
219.0,491.0,-2.2128,1.2138,9.676,-0.0086,0.0252,-0.1159,-2.0912629566588343,3.552364796632901e-05,4.048946380615234,-1.5527410507202148,-1.309254440749531e-31,1.933518886566162,5.335794734745779,1.284456538996892e-05,0.2503986358642578,-1.6590350309955042,0.0001163929482572712,-0.006543987430632114,0.5179731249809265,0.0,0.00500784907490015,1.0971455574035645,-0.0019751156214624643,0.0008372273296117783
219.0,491.0,-2.2128,1.2138,9.676,-0.0086,0.0252,-0.1159,-2.0912872753539027,1.8729606381384656e-05,4.086180686950684,-1.5527287721633911,-3.1616950183640375e-37,1.885460376739502,5.3357984898384,1.2317194887145888e-05,0.2551805377006531,-1.659055534993307,0.00010961946099996567,-0.002244985895231366,0.5179650187492371,0.0,3.2009556889533997e-06,1.0971739292144775,-0.0022774969693273306,-0.05450817197561264
219.0,491.0,-2.2128,1.2138,9.676,-0.0086,0.0252,-0.1159,-2.0912381611266078,1.6166934074135497e-05,4.088078498840332,-1.5527329444885254,-5.690953323315947e-41,1.980787992477417,5.335778283863821,1.1989039194304496e-05,0.25705718994140625,-1.6590231100665491,0.00010452720744069666,-0.007990416139364243,0.5179128646850586,0.0,0.0012721625389531255,1.097145676612854,-0.002125475788488984,-0.03991806507110596
223.0,468.0,-1.9842,0.253,9.2937,-0.046,0.0304,-0.1242,-2.0912543735899867,1.5605932276230305e-05,4.076739311218262,-1.552773118019104,-9.80908925027372e-45,1.8874927759170532,5.3357984898384,1.1677926522679627e-05,0.2599737048149109,-1.6590269247638147,9.988655074266717e-05,-0.00593265425413847,0.5179814100265503,0.0,0.0062120393849909306,1.097061276435852,-0.0021231856662780046,0.013881581835448742
223.0,468.0,-1.9842,0.253,9.2937,-0.046,0.0304,-0.1242,-2.091294904748434,1.4834277862973977e-05,4.075260162353516,-1.5527369976043701,-0.0,1.916062355041504,5.335766482144155,1.12403831735719e-05,0.24894875288009644,-1.6590350309955042,0.00010286285396432504,-0.001180135179311037,0.5179969072341919,0.0,-0.011168839409947395,1.0970653295516968,-0.0019438555464148521,-0.03611556068062782
223.0,468.0,-1.9842,0.253,9.2937,-0.046,0.0304,-0.1242,-2.0913149319090785,1.4360874956764746e-05,4.053201198577881,-1.5527329444885254,-0.0,1.9518976211547852,5.335786568909445,1.0966456102323718e-05,0.2576136589050293,-1.6590798536883753,0.00010784887126646936,0.00811336562037468,0.5179609060287476,0.0,0.0021522189490497112,1.0970611572265625,-0.0018016609828919172,-0.028062880039215088
223.0,468.0,-1.9842,0.253,9.2937,-0.046,0.0304,-0.1242,-2.0912586651244105,1.39167559609632e-05,4.069860458374023,-1.5527652502059937,-0.0,1.9670400619506836,5.335818934231558,1.0705562090151943e-05,0.2576602101325989,-1.6590593496905726,0.00010374360135756433,-0.005949903279542923,0.5179892182350159,0.0,0.0036002490669488907,1.0970531702041626,-0.0013560072984546423,0.011799978092312813
223.0,468.0,-1.9842,0.253,9.2937,-0.046,0.0304,-0.1242,-2.0913273296751917,1.3299820238898974e-05,4.0702900886535645,-1.552761197090149,-0.0,1.9605122804641724,5.335802602558889,1.0336705599911511e-05,0.24896326661109924,-1.6590469519244593,9.809037874219939e-05,-0.0014035210479050875,0.5179814100265503,0.0,-0.0020496335346251726,1.0970854759216309,-0.0009828987531363964,0.015217602252960205
223.0,468.0,-1.9842,0.253,9.2937,-0.046,0.0304,-0.1242,-2.0912667713561,3.452170130913146e-05,4.092750072479248,-1.5527291297912598,-0.0,1.8854786157608032,5.3357545612152,1.0104603461513761e-05,0.26006823778152466,-1.6590231100665491,9.465147741138935e-05,0.0013146379496902227,0.5180293917655945,0.0,0.015838081017136574,1.0971384048461914,-0.0007593805785290897,-0.025248095393180847
223.0,468.0,-1.9842,0.253,9.2937,-0.046,0.0304,-0.1242,-2.0912910900511683,3.456690683378838e-05,4.08082389831543,-1.5527373552322388,-0.0,1.9916777610778809,5.335794317513265,2.539215074648382e-06,0.2507644593715668,-1.6590636412249964,9.144580690190196e-05,-0.008171236142516136,0.5179449319839478,0.0,-0.0030181612819433212,1.0970735549926758,-0.0006954711861908436,-0.025956202298402786
223.0,468.0,-1.9842,0.253,9.2937,-0.046,0.0304,-0.1242,-2.0912872753539027,3.210144495824352e-05,4.0512847900390625,-1.5527291297912598,-0.0,1.919403314590454,5.335822927742758,1.0825072394027302e-08,0.25448882579803467,-1.6590469519244593,8.845008414937183e-05,-0.0041438136249780655,0.5180134177207947,0.0,0.00848304107785225,1.0970772504806519,-0.0005854479968547821,-0.009199445135891438
223.0,468.0,-1.9842,0.253,9.2937,-0.046,0.0304,-0.1242,-2.0912872753539027,5.798064012196846e-05,4.082232475280762,-1.5527534484863281,-0.0,1.906630277633667,5.335806655674734,3.01319906526043e-12,0.2601962983608246,-1.659011189137594,8.430727757513523e-05,0.0007190336473286152,0.5179731845855713,0.0,0.002141599776223302,1.0970854759216309,-0.00047061400255188346,0.01271551288664341
223.0,468.0,-1.9842,0.253,9.2937,-0.046,0.0304,-0.1242,-2.091278692285055,5.448566662380472e-05,4.033578872680664,-1.5527089834213257,-0.0,1.9367936849594116,5.335786568909445,1.2845739994990241e-14,0.26467087864875793,-1.6590350309955042,8.175446419045329e-05,0.0029304083436727524,0.5179650187492371,0.0,0.0002486450830474496,1.0971136093139648,-0.00031278186361305416,0.030743056908249855
223.0,468.0,-1.9842,0.253,9.2937,-0.046,0.0304,-0.1242,-2.0912791691222132,5.137538755661808e-05,4.041584014892578,-1.5527254343032837,-0.0,1.9205520153045654,5.335786568909445,5.476339650112214e-17,0.25295913219451904,-1.6591156164752405,7.935171015560627e-05,-0.004584547132253647,0.5179650783538818,0.0,0.00614550057798624,1.097069501876831,-0.00027455680537968874,-0.038005050271749496
223.0,468.0,-1.9842,0.253,9.2937,-0.046,0.0304,-0.1242,-2.0912424526610316,4.732328306999989e-05,4.088079452514648,-1.552680492401123,-0.0,1.9125070571899414,5.335762309819021,1.5243592905269767e-20,0.2513450086116791,-1.6590350309955042,7.600132812513039e-05,-0.006490714848041534,0.5179087519645691,0.0,-0.0031380215659737587,1.097105860710144,-0.00023207378399092704,-0.007224350236356258
223.0,468.0,-1.9842,0.253,9.2937,-0.046,0.0304,-0.1242,-2.091295381585592,4.495923712966032e-05,4.066958427429199,-1.552716851234436,-0.0,1.8979623317718506,5.33575867393569,6.498583125757864e-23,0.23110327124595642,-1.659039322529928,7.392054976662621e-05,0.0016959349159151316,0.5180293917655945,0.0,0.012357808649539948,1.0970652103424072,-0.00021037261467427015,0.03446672111749649
223.0,468.0,-1.9842,0.253,9.2937,-0.046,0.0304,-0.1242,-2.0912910900511683,4.2820192902581766e-05,4.050074577331543,-1.5526847839355469,-0.0,1.9747815132141113,5.335850584297933,2.7704481912190175e-25,0.25588858127593994,-1.6590712706195276,7.19506642781198e-05,0.014536580070853233,0.5180256366729736,0.0,-0.005049719475209713,1.097105860710144,-0.00019238339154981077,-0.024247895926237106
223.0,468.0,-1.9842,0.253,9.2937,-0.046,0.0304,-0.1242,-2.0912753544249476,3.996779923909344e-05,4.082991123199463,-1.5527091026306152,-0.0,1.9355887174606323,5.3357984898384,7.711644979270097e-29,0.24517296254634857,-1.659083668385641,6.91851819283329e-05,0.014522080309689045,0.517985463142395,0.0,-0.002002321183681488,1.09707772731781,-0.0001705116155790165,-0.044663380831480026
223.0,468.0,-1.9842,0.253,9.2937,-0.046,0.0304,-0.1242,-2.0912791691222132,3.8268353819148615e-05,4.06646203994751,-1.552769422531128,-0.0,1.9326143264770508,5.335830497532644,3.2875950938119645e-31,0.24974241852760315,-1.6590312162982386,6.745666905771941e-05,-0.0005701559130102396,0.5178965330123901,0.0,0.00435242522507906,1.0970854759216309,-0.00015849964984226972,-0.001808936009183526
223.0,468.0,-1.9842,0.253,9.2937,-0.046,0.0304,-0.1242,-2.091246267358297,3.670758451335132e-05,4.06768798828125,-1.5527652502059937,-0.0,1.9838985204696655,5.335782456188955,1.4015532102514408e-33,0.2623242139816284,-1.659083668385641,6.58124263281934e-05,0.0006748447194695473,0.5179527401924133,0.0,0.0007035558228380978,1.0970813035964966,-0.00014807003026362509,0.010271906852722168
223.0,468.0,-1.9842,0.253,9.2937,-0.046,0.0304,-0.1242,-2.0912629566588343,3.459132494754158e-05,4.081367015838623,-1.552769422531128,-0.0,1.9452872276306152,5.335794734745779,3.9012754607739496e-37,0.25444555282592773,-1.659022633229391,6.349107570713386e-05,0.000917583703994751,0.5180134177207947,0.0,0.013088727369904518,1.0970611572265625,-0.0001617197267478332,-0.07382138073444366
223.0,468.0,-1.9842,0.253,9.2937,-0.046,0.0304,-0.1242,-2.0912753544249476,3.331106199766509e-05,4.072510719299316,-1.5527328252792358,-0.0,1.919837474822998,5.335782456188955,1.6631745226363032e-39,0.2536708116531372,-1.659055534993307,6.20323553448543e-05,0.0022085215896368027,0.5179809927940369,0.0,0.008981753140687943,1.0971095561981201,-0.00015257971244864166,0.01697733625769615
220.0,481.0,-1.9023,0.7143,8.9438,-0.0373,0.0254,-0.1127,-2.091234346429342,3.2122141419677064e-05,4.078614234924316,-1.552721381187439,-0.0,1.9752535820007324,5.335786568909445,7.090570229483574e-42,0.25908783078193665,-1.6590636412249964,6.0639191360678524e-05,0.006151246838271618,0.5179690718650818,0.0,-0.0015147272497415543,1.0970813035964966,-0.000167520935065113,-0.02624131552875042
220.0,481.0,-1.9023,0.7143,8.9438,-0.0373,0.0254,-0.1127,-2.0912872753539027,3.1015191780170426e-05,4.052770614624023,-1.552761197090149,-0.0,1.9149916172027588,5.335794317513265,3.0828566215145976e-44,0.24857637286186218,-1.6590636412249964,1.523814626125386e-05,0.013579899445176125,0.5180215239524841,0.0,-0.004525310359895229,1.097069501876831,-0.0001749564689816907,-0.04714924097061157
220.0,481.0,-1.9023,0.7143,8.9438,-0.0373,0.0254,-0.1127,-2.0912629566588343,2.9490794986486435e-05,4.036554336547852,-1.5527091026306152,-0.0,1.9535819292068481,5.335790324002065,0.0,0.24809154868125916,-1.6590679327594202,4.241594186993325e-09,0.0033234909642487764,0.5179690718650818,0.0,0.0016526214312762022,1.0970854759216309,-0.000152529202750884,0.014092620462179184
220.0,481.0,-1.9023,0.7143,8.9438,-0.0373,0.0254,-0.1127,-2.0912667713561,2.8555125027196482e-05,4.078095436096191,-1.5527652502059937,-0.0,1.9607787132263184,5.3357746479804895,0.0,0.2469283938407898,-1.6590998808490198,1.8082580571787688e-11,0.011011932045221329,0.5180252194404602,0.0,-0.009864474646747112,1.0970935821533203,-0.00016954666352830827,-0.044786982238292694
220.0,481.0,-1.9023,0.7143,8.9438,-0.0373,0.0254,-0.1127,-2.0912872753539027,2.7677011530613527e-05,4.0500335693359375,-1.5527492761611938,-0.0,1.9337892532348633,5.335778701096334,0.0,0.25821825861930847,-1.6590593496905726,7.708887510542856e-14,0.004816243425011635,0.5180293917655945,1.5291955435259297e-07,0.005769041366875172,1.09707772731781,-0.00018622416246216744,-0.05989570915699005
220.0,481.0,-1.9023,0.7143,8.9438,-0.0373,0.0254,-0.1127,-2.091246267358297,2.6456633349880576e-05,4.052228927612305,-1.5527172088623047,-0.0,1.9991965293884277,5.335786568909445,0.0,0.2514422535896301,-1.6590760389911097,2.1457978297021796e-17,0.006173822563141584,0.5179970264434814,4.256572178062967e-11,-0.012850185856223106,1.097024917602539,-0.0005361947696655989,-0.0050517488270998
220.0,481.0,-1.9023,0.7143,8.9438,-0.0373,0.0254,-0.1127,-2.0912667713561,2.570112883404363e-05,4.083657264709473,-1.5527172088623047,0.00012082257308065891,1.9542477130889893,5.335770594864645,0.0,0.25342947244644165,-1.6590107123004358,9.147872466050335e-20,0.0004960360238328576,0.5179928541183472,1.814643948343589e-13,0.004510506056249142,1.0970696210861206,-0.0006463764002546668,0.02669420838356018
220.0,481.0,-1.9023,0.7143,8.9438,-0.0373,0.0254,-0.1127,-2.0912910900511683,2.498760113667231e-05,4.07415771484375,-1.552656888961792,0.0018526908243075013,1.9524431228637695,5.335814821511068,0.0,0.25610455870628357,-1.6590431372271937,3.8998814335037844e-22,0.012072250247001648,0.5180415511131287,7.736111255346727e-16,0.011400093324482441,1.09707772731781,-0.001143948407843709,-0.06915665417909622
220.0,481.0,-1.9023,0.7143,8.9438,-0.0373,0.0254,-0.1127,-2.0913149319090785,2.3988581233425066e-05,4.076412677764893,-1.5526328086853027,0.0038287537172436714,2.009787082672119,5.335846411972799,0.0,0.25792136788368225,-1.6590879599200647,1.0855463147749438e-25,0.00920020416378975,0.5179932117462158,2.1533749902288032e-19,0.0002490759361535311,1.0970536470413208,-0.0018089425284415483,-0.009470480494201183
220.0,481.0,-1.9023,0.7143,8.9438,-0.0373,0.0254,-0.1127,-2.0912753544249476,1.1701416042342316e-05,4.077694416046143,-1.552648901939392,0.00376392831094563,1.9404098987579346,5.335810649185934,0.0,0.2502956986427307,-1.6590879599200647,4.6278541375195185e-28,0.001027215737849474,0.5179485082626343,9.180175040271203e-22,0.011934027075767517,1.097001075744629,-0.0026383341755717993,-0.06535239517688751
220.0,481.0,-1.9023,0.7143,8.9438,-0.0373,0.0254,-0.1127,-2.091318746606344,1.1387277481844649e-05,4.068489074707031,-1.5526131391525269,0.0027500148862600327,1.9732353687286377,5.335810589581289,0.0,0.25758787989616394,-1.6590760389911097,1.9729267727703993e-30,0.015136206522583961,0.5179932713508606,3.913652152341339e-24,0.017330152913928032,1.0970253944396973,-0.0030195682775229216,-0.08945873379707336
220.0,481.0,-1.9023,0.7143,8.9438,-0.0373,0.0254,-0.1127,-2.091294904748434,1.11062363430392e-05,4.100795745849609,-1.5526611804962158,0.0015481301816180348,1.9595221281051636,5.335831212788381,0.0,0.25149914622306824,-1.6590030829059046,8.410896444319662e-33,0.009752641431987286,0.5179650187492371,1.6684512916013374e-26,-0.005257284734398127,1.0970700979232788,-0.003566710976883769,-0.09175711125135422
220.0,481.0,-1.9023,0.7143,8.9438,-0.0373,0.0254,-0.1127,-2.0913149319090785,2.3013130290294725e-10,4.082487106323242,-1.5526492595672607,0.000912644318304956,1.9514777660369873,5.335814881115713,0.0,0.24896779656410217,-1.6590312162982386,2.3412039165148665e-36,0.01153684500604868,0.5179974436759949,4.644196495691995e-30,-0.002518021035939455,1.0969650745391846,-0.002635757438838482,-0.04630234092473984
220.0,481.0,-1.9023,0.7143,8.9438,-0.0373,0.0254,-0.1127,-2.091250558892721,4.1422818137810263e-14,4.036447525024414,-1.552645206451416,0.0006818828405812383,1.9473159313201904,5.335778760700979,0.0,0.2605713903903961,-1.6590269247638147,9.980917869267693e-39,0.010840081609785557,0.5179650187492371,1.97989395129761e-32,-0.005182398483157158,1.0970336198806763,-0.0020184300374239683,-0.041642941534519196
220.0,481.0,-1.9023,0.7143,8.9438,-0.0373,0.0254,-0.1127,-2.0912872753539027,7.455961196091676e-18,4.105734825134277,-1.55266535282135,0.0005443231202661991,1.9164988994598389,5.335722195893087,0.0,0.24971438944339752,-1.6590192953692835,4.255042786922307e-41,0.01694875955581665,0.5179932117462158,8.440599877909121e-35,-0.0010601670946925879,1.097001552581787,-0.001499926787801087,-0.0909188985824585
220.0,481.0,-1.9023,0.7143,8.9438,-0.0373,0.0254,-0.1127,-2.0913192234435023,1.800527053423922e-23,4.068789005279541,-1.5526255369186401,0.00041789960232563317,1.9179551601409912,5.335790681629934,0.0,0.24597954750061035,-1.6590593496905726,1.1210387714598537e-44,0.0013242547865957022,0.5179690718650818,2.349472636836022e-38,-0.002028745599091053,1.096981167793274,-0.00085406907601282,-0.10082930326461792
220.0,481.0,-1.9023,0.7143,8.9438,-0.0373,0.0254,-0.1127,-2.0913268528380335,3.240885191750854e-27,4.013033866882324,-1.5526978969573975,0.00036187685327604413,1.9469115734100342,5.335798907070913,0.0,0.25067317485809326,-1.659051243458883,0.0,0.021713409572839737,0.5180092453956604,1.0016201163300927e-40,-0.009348387829959393,1.0969934463500977,-0.0006185281090438366,-0.07369555532932281
220.0,481.0,-1.9023,0.7143,8.9438,-0.0373,0.0254,-0.1127,-2.09129061321401,5.833479113130784e-31,4.101102352142334,-1.5526611804962158,0.00031909995595924556,1.988829255104065,5.33577053526,0.0,0.24160656332969666,-1.6590469519244593,0.0,0.014668765477836132,0.5180134177207947,4.273960316190692e-43,-0.004931775387376547,1.096993327140808,-0.0004850742407143116,-0.06118037924170494
220.0,481.0,-1.9023,0.7143,8.9438,-0.0373,0.0254,-0.1127,-2.091294904748434,1.4087165124002195e-36,4.0337677001953125,-1.5526492595672607,0.00034581898944452405,1.9840246438980103,5.335766482144155,0.0,0.23857104778289795,-1.659051243458883,0.0,0.013572183437645435,0.5179731845855713,0.0,0.0047358497977256775,1.0970134735107422,-0.00036650276160798967,-0.08630240708589554
220.0,481.0,-1.9023,0.7143,8.9438,-0.0373,0.0254,-0.1127,-2.0913268528380335,2.5356355582111132e-40,4.104496955871582,-1.5526772737503052,0.00026161549612879753,1.911442756652832,5.335782933026113,0.0,0.23714905977249146,-1.6590469519244593,0.0,0.012559423223137856,0.5180333852767944,0.0,-0.004968537949025631,1.0970094203948975,-0.0003151538548991084,-0.04852642863988876
224.0,479.0,-1.9759,0.74,9.3129,-0.04,0.022,-0.1159,-2.0912825069823207,4.624284932271896e-44,4.077887535095215,-1.5526492595672607,0.00024543097242712975,2.016582727432251,5.33577053526,0.0,0.23927414417266846,-1.659083668385641,0.0,0.0004658317193388939,0.5180293321609497,0.0,-0.003236695658415556,1.096981167793274,-0.00022342598822433501,-0.06155700236558914
224.0,479.0,-1.9759,0.74,9.3129,-0.04,0.022,-0.1159,-2.0912543735899867,0.0,4.067591667175293,-1.5526492595672607,0.0002961421851068735,1.956802248954773,5.335771012097158,0.0,0.24380171298980713,-1.659083668385641,0.0,0.013777151703834534,0.5180416107177734,0.0,-0.001237291842699051,1.0970094203948975,-0.00019694355432875454,-0.09311334788799286
224.0,479.0,-1.9759,0.74,9.3129,-0.04,0.022,-0.1159,-2.091278692285055,0.0,4.0414347648620605,-1.5526007413864136,0.0008539657574146986,1.9460763931274414,5.335794734745779,0.0,0.2381249964237213,-1.6590469519244593,0.0,0.014531354419887066,0.5180130004882812,0.0,-0.0006053202087059617,1.0970336198806763,-0.0001269518688786775,-0.014483144506812096
224.0,479.0,-1.9759,0.74,9.3129,-0.04,0.022,-0.1159,-2.0913149319090785,0.0,4.041703224182129,-1.552645206451416,0.0012457878328859806,2.013890266418457,5.335742640286245,0.0,0.2224029004573822,-1.6590469519244593,0.0,-0.002112089190632105,0.5180333852767944,0.0,0.00395283754914999,1.0970094203948975,-0.00011598016135394573,-0.061531201004981995
224.0,479.0,-1.9759,0.74,9.3129,-0.04,0.022,-0.1159,-2.0912867985167445,0.0,4.043773651123047,-1.552593469619751,0.0017693060217425227,1.9761148691177368,5.335726964264669,-0.0003237011260353029,0.2295142263174057,-1.6590998808490198,0.0,0.00741016399115324,0.5179928541183472,0.0,0.012843441218137741,1.097029447555542,-0.00010680384002625942,0.012491453438997269
224.0,479.0,-1.9759,0.74,9.3129,-0.04,0.022,-0.1159,-2.0912867985167445,0.0,4.0374298095703125,-1.5526047945022583,0.0028023389168083668,1.9516825675964355,5.33570288398818,-0.0003581864875741303,0.23663482069969177,-1.659055534993307,0.0,0.022504402324557304,0.5180251598358154,0.00010375195415690541,0.007714640349149704,1.096993327140808,-9.547350055072457e-05,-0.025560617446899414
224.0,479.0,-1.9759,0.74,9.3129,-0.04,0.022,-0.1159,-2.091294904748434,0.0,4.048526287078857,-1.552582025527954,0.003737791907042265,1.973888874053955,5.335766899376669,-0.0003163425426464528,0.22294780611991882,-1.6590717474566858,0.0,0.0018415688537061214,0.5180411338806152,0.00010430713155074045,0.007465428672730923,1.0970336198806763,-8.916714432416484e-05,-0.07482043653726578
224.0,479.0,-1.9759,0.74,9.3129,-0.04,0.022,-0.1159,-2.091334959069723,0.0,4.021512031555176,-1.5525290966033936,0.0035235187970101833,1.9303690195083618,5.33571885803298,-0.0003299080126453191,0.23270931839942932,-1.6590636412249964,0.0,0.013757679611444473,0.5180734992027283,0.00012535169662442058,-0.0036394502967596054,1.096993327140808,-0.00011151812213938683,-0.04842681437730789
224.0,479.0,-1.9759,0.74,9.3129,-0.04,0.022,-0.1159,-2.091271062890524,0.0,4.007165908813477,-1.552537441253662,0.0037518925964832306,1.9979095458984375,5.335730361729421,-0.0002854334015864879,0.2262459695339203,-1.6590312162982386,0.0,0.0023541508708149195,0.5180693864822388,0.00046176803880371153,0.004908701870590448,1.0969531536102295,-2.883122033381369e-05,-0.02754252776503563
224.0,479.0,-1.9759,0.74,9.3129,-0.04,0.022,-0.1159,-2.091238637963766,0.0,4.029372692108154,-1.5525176525115967,0.003337480593472719,1.9852097034454346,5.335738229542532,-0.0002617127902340144,0.22143474221229553,-1.6590679327594202,0.0,0.011204698123037815,0.5180169939994812,0.0004680351121351123,0.002746300771832466,1.097017526626587,-2.6990286642103456e-05,-0.05361362546682358
224.0,479.0,-1.9759,0.74,9.3129,-0.04,0.022,-0.1159,-2.0912791691222132,0.0,4.009220600128174,-1.552428960800171,0.0036005578003823757,2.015648603439331,5.335775005608358,-0.0002759934577625245,0.22687849402427673,-1.6590431372271937,0.0,-0.00105100660584867,0.5180211067199707,0.00046309124445542693,0.0080869747325778,1.096981167793274,-5.088467514724471e-05,-0.05400828272104263
224.0,479.0,-1.9759,0.74,9.3129,-0.04,0.022,-0.1159,-2.0912910900511683,0.0,4.014734745025635,-1.5524576902389526,0.003635370871052146,1.9688695669174194,5.335775005608358,-0.00025647523580119014,0.21469923853874207,-1.658999268208639,0.0,0.0012680892832577229,0.5180211067199707,0.0004072687297593802,-0.0002261861227452755,1.0969974994659424,-7.218419341370463e-05,-0.04980460926890373
224.0,479.0,-1.9759,0.74,9.3129,-0.04,0.022,-0.1159,-2.0913034878172816,0.0,4.003273963928223,-1.5524214506149292,0.003446904243901372,1.9788559675216675,5.335754620819845,-0.00023171091743279248,0.22966530919075012,-1.6590192953692835,0.0,0.008745214901864529,0.5180330276489258,0.00038979959208518267,0.012278212234377861,1.0969852209091187,-8.919348329072818e-05,-0.11764296144247055
224.0,479.0,-1.9759,0.74,9.3129,-0.04,0.022,-0.1159,-2.0912753544249476,0.0,4.048518657684326,-1.5524576902389526,0.0029919221997261047,2.025470733642578,5.335738646775045,-0.0002176975249312818,0.222981259226799,-1.6591036955462855,0.0,0.023321237415075302,0.5180734992027283,0.000351729744579643,0.015957433730363846,1.0970216989517212,-0.0003615990572143346,-0.0795343667268753
224.0,479.0,-1.9759,0.74,9.3129,-0.04,0.022,-0.1159,-2.091307302514547,0.0,4.0167741775512695,-1.5524132251739502,0.0027016866952180862,1.9979478120803833,5.335762786656179,-0.00019151130982208997,0.21660375595092773,-1.659011189137594,0.0,0.017574841156601906,0.5181137323379517,0.00032159965485334396,0.0014367573894560337,1.0969692468643188,-0.00037507075467146933,-0.07933903485536575
224.0,479.0,-1.9759,0.74,9.3129,-0.04,0.022,-0.1159,-2.091271062890524,0.0,4.023552894592285,-1.5523769855499268,0.0017465903656557202,1.9441030025482178,5.33575468042449,-0.00020282334298826754,0.21790960431098938,-1.6590469519244593,0.0,0.009673234075307846,0.5180128216743469,0.0002649050729814917,0.005137279629707336,1.096989393234253,-0.00041362509364262223,-0.11719124019145966
224.0,479.0,-1.9759,0.74,9.3129,-0.04,0.022,-0.1159,-2.091294904748434,0.0,4.025031089782715,-1.5524498224258423,0.0009856540709733963,2.0292999744415283,5.335698711663046,-0.00021856030798517168,0.22444361448287964,-1.6590474287616175,0.0,0.018183236941695213,0.5180334448814392,0.0002811212034430355,-0.0018998803570866585,1.0969774723052979,-0.000715501606464386,-0.10745187103748322
224.0,479.0,-1.9759,0.74,9.3129,-0.04,0.022,-0.1159,-2.091250558892721,0.0,4.015142440795898,-1.5524379014968872,0.0006849897326901555,1.9947831630706787,5.335710930615225,-0.00023468506697099656,0.22079692780971527,-1.6590717474566858,0.0,0.021930769085884094,0.5180169939994812,0.0002572670637164265,0.016615381464362144,1.0969774723052979,-0.0006962002371437848,-0.12374024093151093
224.0,479.0,-1.9759,0.74,9.3129,-0.04,0.022,-0.1159,-2.0912262401976527,0.0,4.026500225067139,-1.552425503730774,0.0004701177531387657,1.9513328075408936,5.335690963059225,-0.0006338136736303568,0.21969759464263916,-1.6590312162982386,0.0,-0.001592312823049724,0.5179928541183472,0.00022509857080876827,0.021046053618192673,1.096989393234253,-0.0009160072659142315,-0.11452220380306244
224.0,479.0,-1.9759,0.74,9.3129,-0.04,0.022,-0.1159,-2.0912991962828578,0.0,3.944705009460449,-1.5524213314056396,0.00038883794331923127,2.052112340927124,5.335726964264669,-0.0011542423162609339,0.22602015733718872,-1.658999268208639,0.0,0.00814206525683403,0.5180407762527466,0.0002077731624012813,0.008762181736528873,1.0969573259353638,-0.000814339320641011,-0.17251701653003693
218.0,486.0,-2.3976,0.6,9.3452,-0.0318,0.0197,-0.1161,-2.091246267358297,0.0,3.9712045192718506,-1.5524457693099976,0.00033152589458040893,2.023538589477539,5.3357669589813135,-0.0010140981758013368,0.2197774052619934,-1.659039322529928,0.0,0.017760712653398514,0.518024742603302,0.00022493102005682886,0.012554938904941082,1.0969734191894531,-0.000654031231533736,-0.12814052402973175
218.0,486.0,-2.3976,0.6,9.3452,-0.0318,0.0197,-0.1161,-2.0912991962828578,0.0,4.032027721405029,-1.5524457693099976,0.00028894300339743495,2.0299768447875977,5.335690963059225,-0.0008637444698251784,0.21746352314949036,-1.6590312162982386,0.0,0.015787731856107712,0.5180571675300598,0.0002100662240991369,0.009184103459119797,1.0969774723052979,-0.0006078885053284466,-0.17618036270141602
218.0,486.0,-2.3976,0.6,9.3452,-0.0318,0.0197,-0.1161,-2.091278692285055,0.0,4.009612083435059,-1.552441954612732,0.00024226777895819396,2.031680107116699,5.335682678013601,-0.0008170080836862326,0.21069566905498505,-1.6590636412249964,0.0,0.00997835025191307,0.5180771350860596,0.0001909621641971171,0.01103919930756092,1.0969974994659424,-0.0005270311376079917,-0.14134609699249268
218.0,486.0,-2.3976,0.6,9.3452,-0.0318,0.0197,-0.1161,-2.091278692285055,0.0,3.994206428527832,-1.552425503730774,0.00026066956343129277,1.9757542610168457,5.335695075779714,-0.0009018936543725431,0.21891196072101593,-1.6590431372271937,0.0,0.012467755936086178,0.5180530548095703,0.00018004637968260795,0.0022708724718540907,1.096989393234253,-0.0004538086068350822,-0.13244931399822235
218.0,486.0,-2.3976,0.6,9.3452,-0.0318,0.0197,-0.1161,-2.091306825677389,0.0,4.025356292724609,-1.5524699687957764,0.00023920502280816436,2.0520553588867188,5.335654842644491,-0.0008149883360601962,0.21717505156993866,-1.6590150038348597,0.0,0.016976168379187584,0.5180571675300598,0.00017031110473908484,0.014248443767428398,1.0969734191894531,-0.0003966549411416054,-0.15381959080696106
218.0,486.0,-2.3976,0.6,9.3452,-0.0318,0.0197,-0.1161,-2.0912543735899867,0.0,4.033286094665527,-1.552425503730774,0.0002458431990817189,2.01708722114563,5.335663008480825,-0.0006732769543305039,0.2074948251247406,-1.659039322529928,0.0,0.016424890607595444,0.5180570483207703,0.00017853172903414816,0.0014232872053980827,1.0969815254211426,-0.0003812622162513435,-0.06628333032131195
218.0,486.0,-2.3976,0.6,9.3452,-0.0318,0.0197,-0.1161,-2.091318746606344,0.0,3.9790477752685547,-1.5524736642837524,0.00022846818319521844,2.0003271102905273,5.33567904213027,-0.0005329020204953849,0.20573708415031433,-1.6590073744403284,0.0,0.010438529774546623,0.5180771946907043,0.00017145708261523396,0.01673082821071148,1.0969934463500977,-0.0003447706112638116,-0.1372968852519989
218.0,486.0,-2.3976,0.6,9.3452,-0.0318,0.0197,-0.1161,-2.0912991962828578,0.0,4.028717994689941,-1.5524699687957764,0.00024344220582861453,2.058992385864258,5.3356507299240015,-0.0005906117148697376,0.20432725548744202,-1.659039322529928,0.0,0.02973558008670807,0.5180210471153259,0.00016366774798370898,-0.00020118453539907932,1.0970139503479004,-0.0002758574264589697,-0.11743584275245667
218.0,486.0,-2.3976,0.6,9.3452,-0.0318,0.0197,-0.1161,-2.0913554630675257,0.0,3.982928991317749,-1.5523773431777954,0.00017013460455927998,1.991788387298584,5.335671293526449,-0.0007273778901435435,0.21285192668437958,-1.6590636412249964,0.0,0.025381213054060936,0.5180611610412598,0.0001532187598058954,0.010037031024694443,1.096989393234253,-0.00024339529045391828,-0.10444305092096329
218.0,486.0,-2.3976,0.6,9.3452,-0.0318,0.0197,-0.1161,-2.091318746606344,0.0,3.9848268032073975,-1.552417278289795,0.00016914850857574493,2.033431053161621,5.335695075779714,-0.0007686796598136425,0.20659705996513367,-1.6590150038348597,0.0,0.013106942176818848,0.5180087685585022,0.00014696375001221895,0.004852591082453728,1.097001552581787,-0.00022593693574890494,-0.11509636789560318
218.0,486.0,-2.3976,0.6,9.3452,-0.0318,0.0197,-0.1161,-2.0913149319090785,0.0,3.976675033569336,-1.552425503730774,0.00018566461221780628,2.037353754043579,5.33566306808547,-0.0009379914845339954,0.19748416543006897,-1.659051243458883,0.0,0.003718157298862934,0.518065333366394,0.00014119934348855168,0.0063100638799369335,1.096949577331543,-0.00021081528393551707,-0.13564738631248474
218.0,486.0,-2.3976,0.6,9.3452,-0.0318,0.0197,-0.1161,-2.091302534142965,0.0,3.901209831237793,-1.5523207187652588,0.00019498002075124532,2.059103488922119,5.3356432793434045,-0.0012976288562640548,0.1899963915348053,-1.6590917746173304,0.0,0.022969793528318405,0.5180371403694153,0.00013335364928934723,0.012328289449214935,1.0969934463500977,-0.00010903633665293455,-0.14716391265392303
218.0,486.0,-2.3976,0.6,9.3452,-0.0318,0.0197,-0.1161,-2.0913144550719203,0.0,3.955207109451294,-1.5523650646209717,0.00038278402644209564,1.98764967918396,5.3356191394622705,-0.0017833940219134092,0.19284401834011078,-1.659039322529928,0.0,0.022103335708379745,0.5180613398551941,0.00012859018170274794,0.013537219725549221,1.0970057249069214,-6.134862633189186e-05,-0.08787834644317627
218.0,486.0,-2.3976,0.6,9.3452,-0.0318,0.0197,-0.1161,-2.091306825677389,0.0,3.9881443977355957,-1.5524296760559082,0.0003995005681645125,2.1092023849487305,5.3356432793434045,-0.0019580635707825422,0.18537336587905884,-1.6590312162982386,0.0,0.017840007320046425,0.5180169939994812,0.0001241553545696661,0.005612497217953205,1.0969974994659424,-2.9111301046214066e-05,-0.13819855451583862
218.0,486.0,-2.3976,0.6,9.3452,-0.0318,0.0197,-0.1161,-2.091294904748434,0.0,3.9614996910095215,-1.5523412227630615,0.0004065661923959851,2.017244815826416,5.335591244488516,-0.0018559071468189359,0.19096998870372772,-1.659051243458883,1.0958133316307794e-06,-0.0002201269380748272,0.5181214809417725,0.00012001628783764318,0.01615304686129093,1.0969692468643188,-2.699117612792179e-05,-0.09518635272979736
218.0,486.0,-2.3976,0.6,9.3452,-0.0318,0.0197,-0.1161,-2.091294904748434,0.0,3.9436423778533936,-1.552397608757019,0.0006584933726117015,1.9677691459655762,5.335582959442892,-0.002113964408636093,0.20953044295310974,-1.6590154806720179,3.0502367298623767e-10,0.017668738961219788,0.5180448293685913,0.00011430042650317773,0.00535968504846096,1.0970336198806763,-8.485490070597734e-06,-0.12968143820762634
218.0,486.0,-2.3976,0.6,9.3452,-0.0318,0.0197,-0.1161,-2.09129061321401,0.0,3.9436144828796387,-1.5523815155029297,0.000708900741301477,2.041827917098999,5.335587131768026,-0.0028053305577486753,0.19419363141059875,-1.6590030829059046,1.3003640048428466e-12,0.010925752110779285,0.5180448293685913,0.00011078299576183781,-0.0016336506232619286,1.0969730615615845,-1.527358350905672e-09,-0.1370002031326294
218.0,486.0,-2.3976,0.6,9.3452,-0.0318,0.0197,-0.1161,-2.0913435421385707,0.0,3.959192991256714,-1.5523536205291748,0.0010423180647194386,2.0107474327087402,5.33559130409316,-0.0032378090545535088,0.1822490245103836,-1.659022633229391,5.543655727475788e-15,0.025535820052027702,0.518069326877594,0.00010747566557256505,0.013078713789582253,1.0970134735107422,-2.7491913910313026e-13,-0.07730673253536224
218.0,486.0,-2.3976,0.6,9.3452,-0.0318,0.0197,-0.1161,-2.091294904748434,0.0,3.993065357208252,-1.5523334741592407,0.001251936424523592,1.9840271472930908,5.335559236794271,-0.004591749049723148,0.17529278993606567,-1.659027401600973,1.5430968507188179e-18,0.018531475216150284,0.5180169939994812,0.00010286900214850903,0.016076555475592613,1.0970494747161865,-6.638974343817445e-19,-0.1353609263896942
216.0,484.0,-2.1793,0.4839,9.6251,-0.033,0.0162,-0.1106,-2.0913835964598597,0.0,3.9657535552978516,-1.5523695945739746,0.0015178885078057647,2.0657386779785156,5.335563647537985,-0.004880305379629135,0.18998008966445923,-1.659055534993307,6.5784636101608765e-21,0.013972792774438858,0.5180211067199707,0.00010001123882830143,0.016625210642814636,1.097001552581787,-1.1949919952132454e-22,-0.1134711503982544
216.0,484.0,-2.1793,0.4839,9.6251,-0.033,0.0162,-0.1106,-2.0913311443724574,0.0,3.960280418395996,-1.5523656606674194,0.001619982998818159,2.0360970497131348,5.3355275867278955,-0.004604654852300882,0.19034698605537415,-1.6590350309955042,2.8045018078009273e-23,0.018422778695821762,0.5180734395980835,9.730791498441249e-05,-0.0003844418388325721,1.0970299243927002,-2.1509432731377964e-26,-0.12228988111019135
216.0,484.0,-2.1793,0.4839,9.6251,-0.033,0.0162,-0.1106,-2.091306825677389,0.0,3.9341959953308105,-1.552301287651062,0.0021317952778190374,2.059828281402588,5.3355440376098535,-0.002812146907672286,0.19331561028957367,-1.6590350309955042,7.806433473343003e-27,0.022970322519540787,0.5180448889732361,9.35163552640006e-05,0.006935437675565481,1.0970094203948975,-5.194275025160699e-32,-0.14510995149612427
216.0,484.0,-2.1793,0.4839,9.6251,-0.033,0.0162,-0.1106,-2.091306825677389,0.0,3.9737000465393066,-1.5523219108581543,0.0022345215547829866,2.0965378284454346,5.335471737175741,-0.001504927291534841,0.17661093175411224,-1.6590436140643519,3.3280057401949283e-29,0.008740795776247978,0.518109142780304,9.114861313719302e-05,0.011416662484407425,1.0969892740249634,-9.349509989188072e-36,-0.1504150927066803
216.0,484.0,-2.1793,0.4839,9.6251,-0.033,0.0162,-0.1106,-2.0912867985167445,0.0,3.933873176574707,-1.5522851943969727,0.0027806672733277082,2.0111751556396484,5.335503387242117,-0.0009657373302616179,0.1858648955821991,-1.6590474287616175,1.4187811268873977e-31,0.020861800760030746,0.5180408358573914,8.889781020116061e-05,0.003506139852106571,1.0970134735107422,-1.6828781803431745e-39,-0.16619262099266052
216.0,484.0,-2.1793,0.4839,9.6251,-0.033,0.0162,-0.1106,-2.0912944279112757,0.0,3.9571621417999268,-1.5522934198379517,0.0027260147035121918,2.0244765281677246,5.3355440376098535,-0.0007105647237040102,0.17245186865329742,-1.6590269247638147,6.048486437524406e-34,0.030406378209590912,0.5180251598358154,8.675552817294374e-05,0.009264960885047913,1.097037672996521,-3.026804682941605e-43,-0.13397249579429626
216.0,484.0,-2.1793,0.4839,9.6251,-0.033,0.0162,-0.1106,-2.0913268528380335,0.0,3.9831202030181885,-1.5522737503051758,0.0035731089301407337,2.0780091285705566,5.335551786213674,-0.0005091782077215612,0.1873360425233841,-1.6590154806720179,1.6836185143478466e-37,0.018531419336795807,0.5180407762527466,8.372892625629902e-05,-0.00609174557030201,1.0969852209091187,0.0,-0.1637861430644989
216.0,484.0,-2.1793,0.4839,9.6251,-0.033,0.0162,-0.1106,-2.0913144550719203,0.0,3.9496374130249023,-1.552305817604065,0.004009730648249388,2.0327720642089844,5.335564183979788,-0.0004283158341422677,0.18604984879493713,-1.6590312162982386,7.1775348121795725e-40,0.026786312460899353,0.5180206894874573,8.182578312698752e-05,-0.0033828946761786938,1.0970094203948975,0.0,-0.18274790048599243
216.0,484.0,-2.1793,0.4839,9.6251,-0.033,0.0162,-0.1106,-2.091335435906881,0.0,3.963653564453125,-1.5522379875183105,0.0050450763665139675,2.05041766166687,5.33553575256423,-0.00036963605089113116,0.19145263731479645,-1.6590197722064417,3.0604358460854005e-42,0.016117719933390617,0.518057107925415,8.000733214430511e-05,0.01806403324007988,1.0969611406326294,0.0,-0.1858861744403839
216.0,484.0,-2.1793,0.4839,9.6251,-0.033,0.0162,-0.1106,-2.0913268528380335,0.0,3.9230334758758545,-1.5522823333740234,0.005644000601023436,2.0246517658233643,5.335511255055227,-0.00030663268989883363,0.18692103028297424,-1.6590760389911097,1.401298464324817e-45,0.020221160724759102,0.5180813074111938,8.667374373771963e-08,0.0009106729994527996,1.0970134735107422,0.0,-0.1425531506538391
216.0,484.0,-2.1793,0.4839,9.6251,-0.033,0.0162,-0.1106,-2.091318746606344,0.0,3.927596092224121,-1.5522384643554688,0.006072011776268482,2.068765878677368,5.3355193612869165,-0.00027535096160136163,0.1837727576494217,-1.659055534993307,0.0,0.02223239839076996,0.5180211067199707,4.5842109102522954e-05,0.008213036693632603,1.0970134735107422,0.0,-0.1488286256790161
216.0,484.0,-2.1793,0.4839,9.6251,-0.033,0.0162,-0.1106,-2.091335435906881,0.0,3.977907657623291,-1.5521700382232666,0.006702927872538567,2.0692930221557617,5.33554362037734,-0.0002498617395758629,0.19216349720954895,-1.6590593496905726,0.0,0.013235388323664665,0.5180890560150146,5.3135096095502377e-05,0.006395977921783924,1.097025752067566,0.0,-0.19454610347747803
216.0,484.0,-2.1793,0.4839,9.6251,-0.033,0.0162,-0.1106,-2.091306825677389,0.0,3.972876787185669,-1.5521023273468018,0.006902121473103762,2.05819034576416,5.335543560772695,-0.00021939974976703525,0.18070127069950104,-1.659011189137594,0.0,0.026095720008015633,0.5180931091308594,5.135154060553759e-05,0.006530881859362125,1.0970377922058105,3.863445090246387e-05,-0.20588958263397217
216.0,484.0,-2.1793,0.4839,9.6251,-0.033,0.0162,-0.1106,-2.091323038140768,0.0,3.990518093109131,-1.5520660877227783,0.006912410259246826,2.100100040435791,5.335563349514761,-0.00017358535842504352,0.19026488065719604,-1.659027401600973,0.0,0.026660282164812088,0.5180288553237915,5.020571552449837e-05,0.0031988101545721292,1.0969856977462769,-5.563273953157477e-05,-0.16424690186977386
216.0,484.0,-2.1793,0.4839,9.6251,-0.033,0.0162,-0.1106,-2.0912705860533656,0.0,3.933521032333374,-1.5521146059036255,0.0064418199472129345,2.0451133251190186,5.33556746223525,-0.00015728906146250665,0.19883233308792114,-1.6590030829059046,0.0,0.008849103935062885,0.5180530548095703,3.2419045510323485e-06,-0.003131338395178318,1.0969774723052979,-9.582104394212365e-05,-0.20093823969364166
216.0,484.0,-2.1793,0.4839,9.6251,-0.033,0.0162,-0.1106,-2.091306825677389,0.0,3.9191956520080566,-1.552038550376892,0.007085375487804413,2.054959774017334,5.335547375469961,-0.00014699427993036807,0.1770106703042984,-1.6590316931353968,0.0,0.02946844883263111,0.5180776119232178,1.3820748101522895e-08,0.015508174896240234,1.096961498260498,-0.00012377819803077728,-0.19501546025276184
216.0,484.0,-2.1793,0.4839,9.6251,-0.033,0.0162,-0.1106,-2.0913554630675257,0.0,3.977130651473999,-1.551982045173645,0.006861647590994835,2.1173925399780273,5.33557556846694,-0.0001338737492915243,0.19392548501491547,-1.659011189137594,0.0,0.02190477028489113,0.5181214213371277,3.84705548667208e-12,0.013580449856817722,1.096989393234253,-0.0007561066886410117,-0.17510688304901123
216.0,484.0,-2.1793,0.4839,9.6251,-0.033,0.0162,-0.1106,-2.091318746606344,0.0,3.9905805587768555,-1.5519702434539795,0.007749146781861782,2.091705799102783,5.335560011654653,-0.0001263569574803114,0.19463694095611572,-1.6589911619769495,0.0,0.03638460114598274,0.5180288553237915,1.6400600902312032e-14,0.01537434570491314,1.0970057249069214,-0.00109154696110636,-0.19941282272338867
216.0,484.0,-2.1793,0.4839,9.6251,-0.033,0.0162,-0.1106,-2.091294904748434,0.0,3.954367160797119,-1.5519022941589355,0.008542792871594429,2.072517156600952,5.3355756280715845,-0.00011963614815613255,0.18150600790977478,-1.659027401600973,0.0,0.02040412463247776,0.5180693864822388,6.991833463110622e-17,-0.0036217481829226017,1.0969536304473877,-0.0012683601817116141,-0.21251949667930603
216.0,484.0,-2.1793,0.4839,9.6251,-0.033,0.0162,-0.1106,-2.0913311443724574,0.0,3.9783549308776855,-1.5518743991851807,0.010102503001689911,2.108494758605957,5.3355275867278955,-0.00011079868272645399,0.18110214173793793,-1.658999268208639,0.0,0.01585392653942108,0.5180693864822388,1.9462025005595543e-20,0.012034455314278603,1.0969254970550537,-0.001508296118117869,-0.1731104552745819
225.0,473.0,-2.1039,0.6479,9.5426,-0.0363,0.029,-0.1243,-2.091294904748434,0.0,3.9863314628601074,-1.5518059730529785,0.011010638438165188,2.1056551933288574,5.335563707142629,-0.00012600001355167478,0.19086378812789917,-1.6589954535113733,0.0,0.015476810745894909,0.5180530548095703,8.296967001874482e-23,0.006931971292942762,1.096957802772522,-0.001619216869585216,-0.2228260189294815
225.0,473.0,-2.1039,0.6479,9.5426,-0.0363,0.029,-0.1243,-2.091294904748434,0.0,3.9472923278808594,-1.5517417192459106,0.012501508928835392,2.104320526123047,5.335555958538809,-0.00012103930930607021,0.193671315908432,-1.6590154806720179,0.0,0.025209560990333557,0.5180211067199707,3.537127313861346e-25,0.012745103798806667,1.0969254970550537,-0.0022206022404134274,-0.2092411071062088
225.0,473.0,-2.1039,0.6479,9.5426,-0.0363,0.029,-0.1243,-2.091294904748434,0.0,3.981473445892334,-1.5516546964645386,0.013879860751330853,2.0769331455230713,5.335519420891561,-0.00011341091158101335,0.19431734085083008,-1.6589954535113733,0.0,0.02083304151892662,0.5180652737617493,9.845724015368737e-29,0.005777596030384302,1.096901297569275,-0.0026383926160633564,-0.199848473072052
225.0,473.0,-2.1039,0.6479,9.5426,-0.0363,0.029,-0.1243,-2.091323038140768,0.0,3.9420199394226074,-1.5516835451126099,0.01566757634282112,2.0887279510498047,5.335539924889364,-0.0001088400385924615,0.19360561668872833,-1.6590278784381312,6.64770559524186e-05,0.030824972316622734,0.5180169939994812,4.197386579046136e-31,0.011886185966432095,1.0969135761260986,-0.002895836718380451,-0.26846426725387573
225.0,473.0,-2.1039,0.6479,9.5426,-0.0363,0.029,-0.1243,-2.0913268528380335,0.0,3.9801435470581055,-1.5515707731246948,0.017587890848517418,2.124235153198242,5.3355440376098535,-0.00010462252976140007,0.18099509179592133,-1.6590154806720179,6.626579852309078e-05,0.03689485415816307,0.5180330276489258,1.7894117039025817e-33,0.00018055352848023176,1.0969337224960327,-0.0036968437489122152,-0.23325619101524353
225.0,473.0,-2.1039,0.6479,9.5426,-0.0363,0.029,-0.1243,-2.0913149319090785,0.0,3.957578182220459,-1.551466703414917,0.019438762217760086,2.0989184379577637,5.33553575256423,-0.00011722138879122213,0.1842080056667328,-1.6589673201190394,6.437716365326196e-05,0.031564511358737946,0.5180330276489258,7.628542924709494e-36,-0.0020577663090080023,1.09687340259552,-0.003893825691193342,-0.2592616081237793
225.0,473.0,-2.1039,0.6479,9.5426,-0.0363,0.029,-0.1243,-2.0912987194456996,0.0,3.9717650413513184,-1.5513262748718262,0.022214166820049286,2.0973610877990723,5.335491585522451,-0.00011128225742140785,0.18155045807361603,-1.6590116659747522,7.407001976389438e-05,0.026735730469226837,0.5179848074913025,2.1234324045422537e-39,0.007000328041613102,1.0968133211135864,-0.005000500939786434,-0.2829630672931671
225.0,473.0,-2.1039,0.6479,9.5426,-0.0363,0.029,-0.1243,-2.0912543735899867,0.0,3.9742932319641113,-1.551247000694275,0.024844760075211525,2.150452136993408,5.335523593216696,-0.00012286740820854902,0.18107199668884277,-1.6589873472796839,8.102046558633447e-05,0.027428625151515007,0.518017053604126,9.052388079538318e-42,-0.002306327922269702,1.0968334674835205,-0.005442192777991295,-0.270486980676651
225.0,473.0,-2.1039,0.6479,9.5426,-0.0363,0.029,-0.1243,-2.0912872753539027,0.0,3.9189538955688477,-1.551167607307434,0.02732711285352707,2.164654493331909,5.335548090725698,-9.078608854906633e-05,0.19183111190795898,-1.6590035597430628,8.191094821086153e-05,0.03373301774263382,0.5180611610412598,3.923635700109488e-44,0.010145450010895729,1.096805214881897,-0.006347540766000748,-0.2766290605068207
225.0,473.0,-2.1039,0.6479,9.5426,-0.0363,0.029,-0.1243,-2.091311117211813,0.0,3.985149383544922,-1.551027774810791,0.03144276514649391,2.158907651901245,5.335499751358785,-0.00011572972289286554,0.17558357119560242,-1.6590035597430628,7.884804654167965e-05,0.03340540826320648,0.5180612802505493,0.0,0.007055259309709072,1.0967937707901,-0.007577748503535986,-0.2630981206893921
225.0,473.0,-2.1039,0.6479,9.5426,-0.0363,0.029,-0.1243,-2.091339250604147,0.0,3.9338018894195557,-1.5508315563201904,0.036444906145334244,2.126966953277588,5.335475909500875,-0.0008382275700569153,0.18468236923217773,-1.6589673201190394,7.692264625802636e-05,0.04531394690275192,0.518020749092102,0.0,0.011508707888424397,1.0967819690704346,-0.007552613038569689,-0.31327617168426514
225.0,473.0,-2.1039,0.6479,9.5426,-0.0363,0.029,-0.1243,-2.0913597546019496,0.0,3.9269018173217773,-1.5507242679595947,0.039779361337423325,2.145404815673828,5.335495638638296,-0.0008200749871321023,0.1816365122795105,-1.6590235869037073,7.508897397201508e-05,0.04713176563382149,0.5180371403694153,0.0,0.0007653235225006938,1.0966975688934326,-0.008057156577706337,-0.31522732973098755
225.0,473.0,-2.1039,0.6479,9.5426,-0.0363,0.029,-0.1243,-2.0912667713561,-1.133839155897931e-08,3.9631147384643555,-1.5504683256149292,0.04715036600828171,2.1482534408569336,5.335492241173544,-0.0010463237995281816,0.18141117691993713,-1.6589911619769495,7.249676127685234e-05,0.0464065819978714,0.5180248022079468,0.0,-0.0012289087753742933,1.096665620803833,-0.008170771412551403,-0.32004475593566895
225.0,473.0,-2.1039,0.6479,9.5426,-0.0363,0.029,-0.1243,-2.0913106403746546,-2.0408702939428425e-12,3.923905372619629,-1.55026113986969,0.05087292939424515,2.158360481262207,5.33546398857192,-0.0012203864753246307,0.1895812302827835,-1.6590154806720179,7.086585537763312e-05,0.03779035806655884,0.5180248022079468,0.0,0.0021914427634328604,1.0965889692306519,-0.008275778032839298,-0.29847395420074463
225.0,473.0,-2.1039,0.6479,9.5426,-0.0363,0.029,-0.1243,-2.0913268528380335,-3.673494541969215e-16,3.961124897003174,-1.5500859022140503,0.05595134198665619,2.1801209449768066,5.33546810129241,-0.001714200945571065,0.17525005340576172,-1.6589954535113733,1.780750426405575e-05,0.04770203307271004,0.5180612206459045,0.0,0.009519747458398342,1.0965772867202759,-0.008577744476497173,-0.29018697142601013
225.0,473.0,-2.1039,0.6479,9.5426,-0.0363,0.029,-0.1243,-2.091318746606344,-8.871055666265897e-22,3.9085776805877686,-1.5496975183486938,0.06277057528495789,2.1963717937469482,5.335439729481497,-0.0019319913117215037,0.17613664269447327,-1.6589873472796839,4.956784316334506e-09,0.04666180908679962,0.5180652737617493,0.0,0.006191373337060213,1.0965819358825684,-0.008085391484200954,-0.27263200283050537
225.0,473.0,-2.1039,0.6479,9.5426,-0.0363,0.029,-0.1243,-2.0913430653014125,-1.596758503199204e-25,3.9561564922332764,-1.5494301319122314,0.06724467873573303,2.2003800868988037,5.335419404297628,-0.0018949377117678523,0.17071396112442017,-1.6590078512774866,2.1131546165675807e-11,0.03732990473508835,0.5180411338806152,0.0,0.002381007419899106,1.0965375900268555,-0.007722826674580574,-0.30129343271255493
225.0,473.0,-2.1039,0.6479,9.5426,-0.0363,0.029,-0.1243,-2.0913268528380335,-2.874108589432821e-29,3.9367153644561768,-1.549159049987793,0.07163914293050766,2.206038236618042,5.335407960205831,-0.0022185654379427433,0.17057982087135315,-1.6590154806720179,9.008708357202341e-14,0.04117133468389511,0.5180490612983704,0.0,-0.0015632982831448317,1.0965179204940796,-0.007355534005910158,-0.3082789480686188
225.0,473.0,-2.1039,0.6479,9.5426,-0.0363,0.029,-0.1243,-2.0913554630675257,-5.1732936999612694e-33,3.9117679595947266,-1.548846960067749,0.07598745822906494,2.2100722789764404,5.335411953717031,-0.0026169465854763985,0.16716870665550232,-1.6589792410479944,3.8405532619694045e-16,0.034439317882061005,0.5180490016937256,0.0,-0.002120216842740774,1.096445083618164,-0.0069223325699567795,-0.29434970021247864
209.0,450.0,-2.208,0.734,10.0522,-0.0444,0.0599,-0.1348,-2.0913430653014125,-1.249289530550561e-38,3.9714012145996094,-1.5483555793762207,0.08092502504587173,2.252802610397339,5.335460352688589,-0.0029338893946260214,0.170287624001503,-1.6589835325824183,1.0690321970391648e-19,0.038898929953575134,0.5180652737617493,0.0,0.002490108832716942,1.0963447093963623,-0.006785426288843155,-0.25594562292099
209.0,450.0,-2.208,0.734,10.0522,-0.0444,0.0599,-0.1348,-2.091323038140768,-2.2490840352413314e-42,3.957571506500244,-1.548048734664917,0.08610653877258301,2.2267794609069824,5.33540045002059,-0.002894176635891199,0.17078617215156555,-1.6590197722064417,4.557451650289011e-22,0.052373044192790985,0.5180972218513489,0.0,0.008708792738616467,1.0964338779449463,-0.006270554848015308,-0.333951860666275
209.0,450.0,-2.208,0.734,10.0522,-0.0444,0.0599,-0.1348,-2.0913592777647914,-0.0,3.8711490631103516,-1.547673225402832,0.09053376317024231,2.2609920501708984,5.335356461792745,-0.002677949843928218,0.16842889785766602,-1.6590078512774866,1.9429129363852864e-24,0.055531203746795654,0.5180411338806152,0.0,-0.012880736961960793,1.0964096784591675,-0.0068983044475317,-0.29735952615737915
209.0,450.0,-2.208,0.734,10.0522,-0.0444,0.0599,-0.1348,-2.091367383996481,0.0,3.9541287422180176,-1.5470739603042603,0.09784656763076782,2.2412338256835938,5.33537249544219,-0.0023399037308990955,0.16587966680526733,-1.6590197722064417,5.40817017305977e-28,0.051190800964832306,0.5180289149284363,0.0,0.008330517448484898,1.0963133573532104,-0.0066860090009868145,-0.30123353004455566
209.0,450.0,-2.208,0.734,10.0522,-0.0444,0.0599,-0.1348,-2.0912825069823207,0.0,3.9661850929260254,-1.546670913696289,0.1010330468416214,2.2325973510742188,5.335352349072256,-0.0017385217361152172,0.17722544074058533,-1.6590035597430628,2.3055871601547995e-30,0.031923193484544754,0.518069326877594,0.0,0.01286659762263298,1.0962936878204346,-0.007158818654716015,-0.2877466380596161
209.0,450.0,-2.208,0.734,10.0522,-0.0444,0.0599,-0.1348,-2.0913106403746546,0.0,3.9442665576934814,-1.5462305545806885,0.10323640704154968,2.2616333961486816,5.335348295956411,-0.0011542054126039147,0.17483453452587128,-1.6590116659747522,9.829080420076842e-33,0.04693774878978729,0.5180935263633728,0.0,-0.0031788840424269438,1.096253514289856,-0.006818882189691067,-0.3011476397514343
209.0,450.0,-2.208,0.734,10.0522,-0.0444,0.0599,-0.1348,-2.0912825069823207,0.0,3.9319090843200684,-1.5456243753433228,0.10955025255680084,2.2538154125213623,5.3353683827217,-0.0007440090994350612,0.1831148862838745,-1.6589959303485315,2.735960590412026e-36,0.04170394688844681,0.5181012749671936,0.0,-0.003947120159864426,1.0962048768997192,-0.008155664429068565,-0.32938385009765625
209.0,450.0,-2.208,0.734,10.0522,-0.0444,0.0599,-0.1348,-2.0913268528380335,0.0,3.924466609954834,-1.545229434967041,0.11554807424545288,2.2661702632904053,5.335416722088613,-0.0006016569095663726,0.17789947986602783,-1.6589835325824183,1.1663829680774011e-38,0.046978432685136795,0.5180530548095703,0.0,-0.0017907668370753527,1.0962016582489014,-0.008287398144602776,-0.35656583309173584
209.0,450.0,-2.208,0.734,10.0522,-0.0444,0.0599,-0.1348,-2.0912987194456996,0.0,3.9075751304626465,-1.5447466373443604,0.12262867391109467,2.28670597076416,5.335352349072256,-0.0005673134000971913,0.174125075340271,-1.6589673201190394,7.686084427405149e-05,0.041486356407403946,0.5180007815361023,0.0,-0.004130384884774685,1.0961817502975464,-0.008348536677658558,-0.3784783184528351
209.0,450.0,-2.208,0.734,10.0522,-0.0444,0.0599,-0.1348,-2.0913106403746546,0.0,3.9331459999084473,-1.544275164604187,0.12993167340755463,2.306506872177124,5.335360216885366,-0.0004973725299350917,0.175338014960289,-1.6589186827289026,7.748173084110022e-05,0.04447761923074722,0.517996609210968,0.0,0.006544101983308792,1.0961054563522339,-0.00869884341955185,-0.3196704387664795
209.0,450.0,-2.208,0.734,10.0522,-0.0444,0.0599,-0.1348,-2.091318746606344,0.0,3.974196434020996,-1.543444275856018,0.1397150754928589,2.291895866394043,5.335331904679098,-0.000411982589866966,0.18238836526870728,-1.6589272657977503,7.368907972704619e-05,0.05875235050916672,0.5180292725563049,0.0,0.0023231343366205692,1.0960575342178345,-0.00891797337681055,-0.30426862835884094
209.0,450.0,-2.208,0.734,10.0522,-0.0444,0.0599,-0.1348,-2.091318746606344,0.0,3.9241933822631836,-1.54280424118042,0.1461363285779953,2.3539721965789795,5.335356461792745,-0.0002718694449868053,0.18052658438682556,-1.6589873472796839,7.135223859222606e-05,0.042194709181785583,0.5180448889732361,0.0,-0.0029587976168841124,1.0960371494293213,-0.008556382730603218,-0.3302808403968811
209.0,450.0,-2.208,0.734,10.0522,-0.0444,0.0599,-0.1348,-2.0913506946959437,-9.268478606827557e-05,3.958040952682495,-1.542233943939209,0.14917835593223572,2.3363447189331055,5.335300195008077,-0.00023036134371068329,0.181415855884552,-1.6589840094195765,6.915901030879468e-05,0.0556173175573349,0.5180490016937256,0.0,0.020356740802526474,1.0959811210632324,-0.008874045684933662,-0.3354123830795288
209.0,450.0,-2.208,0.734,10.0522,-0.0444,0.0599,-0.1348,-2.091375013391012,-0.0001129956726799719,3.952089786529541,-1.5413440465927124,0.1500244438648224,2.343384265899658,5.3353285668189905,-0.00023951631737872958,0.1835085153579712,-1.658931080495016,7.262481813086197e-05,0.044283799827098846,0.5180530548095703,0.0,-0.008806983008980751,1.095953345298767,-0.008433249779045582,-0.32845377922058105
209.0,450.0,-2.208,0.734,10.0522,-0.0444,0.0599,-0.1348,-2.0913711986937464,-0.0001265076716663316,3.9673004150390625,-1.5407004356384277,0.15070661902427673,2.328134298324585,5.335380661278524,-0.00022003724006935954,0.18709924817085266,-1.658947769795553,7.703999290242791e-05,0.050848640501499176,0.5180652737617493,0.0,-0.006462405435740948,1.0958693027496338,-0.007935703732073307,-0.3902893662452698
209.0,450.0,-2.208,0.734,10.0522,-0.0444,0.0599,-0.1348,-2.0913430653014125,-0.00023743008205201477,3.9418716430664062,-1.5400575399398804,0.15577614307403564,2.2809736728668213,5.335344242840566,-0.00020345370285212994,0.19324897229671478,-1.6589840094195765,7.492971781175584e-05,0.053777240216732025,0.5180812478065491,0.0,0.015367293730378151,1.0958894491195679,-0.007846983149647713,-0.37218958139419556
209.0,450.0,-2.208,0.734,10.0522,-0.0444,0.0599,-0.1348,-2.091363092462057,-0.00017045688582584262,3.9572269916534424,-1.5392156839370728,0.16467371582984924,2.3288376331329346,5.33537249544219,-0.00018278999777976424,0.17744681239128113,-1.6590197722064417,7.193538476713002e-05,0.05913674086332321,0.5180408358573914,0.0,0.005528594832867384,1.0958415269851685,-0.0077741192653775215,-0.40487173199653625
209.0,450.0,-2.208,0.734,10.0522,-0.0444,0.0599,-0.1348,-2.0913549862303675,-7.465657108696178e-05,3.9605016708374023,-1.538528561592102,0.17148420214653015,2.328807830810547,5.3353203413780115,-0.00017119842232204974,0.1805211454629898,-1.6589716116534632,7.006851228652522e-05,0.059482641518116,0.5180530548095703,0.0,-0.0013262666761875153,1.095841646194458,-0.006984911393374205,-0.4235156774520874
209.0,450.0,-2.208,0.734,10.0522,-0.0444,0.0599,-0.1348,-2.091323038140768,-6.18091071373783e-05,3.9549691677093506,-1.537841796875,0.18264508247375488,2.3169326782226562,5.3353885290916345,-0.0001609900500625372,0.18548746407032013,-1.6589754263507288,7.819450547685847e-05,0.04450647905468941,0.518137514591217,0.0,0.007083425763994455,1.0958459377288818,-0.006277476903051138,-0.4092447757720947
209.0,450.0,-2.208,0.734,10.0522,-0.0444,0.0599,-0.1348,-2.091375013391012,-0.00010218668467132375,3.931760549545288,-1.537146806716919,0.1887732744216919,2.3620572090148926,5.335331964283743,-0.00015193010040093213,0.1908281445503235,-1.658999268208639,7.770680531393737e-05,0.061477772891521454,0.5180408358573914,0.0,-0.01240723580121994,1.095757246017456,-0.004719523712992668,-0.37159693241119385
205.0,334.0,-1.9382,0.3284,9.6048,-0.0646,0.1454,-0.1342,-2.0913425884642542,-9.201585635310039e-05,3.986699104309082,-1.5360335111618042,0.19298557937145233,2.428089141845703,5.335340130120077,-0.00016265785961877555,0.18803192675113678,-1.6589186827289026,7.493991870433092e-05,0.06729336082935333,0.5180248618125916,0.0,-0.0009054618421941996,1.0957815647125244,-0.0031076790764927864,-0.3525540828704834
205.0,334.0,-1.9382,0.3284,9.6048,-0.0646,0.1454,-0.1342,-2.0913788280882777,-0.00012463214807212353,3.971297025680542,-1.5351735353469849,0.1928829699754715,2.3656952381134033,5.335352408676901,-0.0001768300571711734,0.18523046374320984,-1.658987824116842,7.319849828490987e-05,0.05506669729948044,0.5180931091308594,0.0,0.0057905432768166065,1.0957856178283691,-0.0021129304077476263,-0.35303059220314026
205.0,334.0,-1.9382,0.3284,9.6048,-0.0646,0.1454,-0.1342,-2.0913788280882777,-0.00015225086826831102,3.991396427154541,-1.5344016551971436,0.196388378739357,2.3266754150390625,5.33532481172637,-0.00022485516092274338,0.1888115406036377,-1.6589835325824183,5.903716373723e-05,0.05918433517217636,0.5181090235710144,0.0,0.0038565557915717363,1.0957536697387695,-0.0013283139560371637,-0.37437278032302856
205.0,334.0,-1.9382,0.3284,9.6048,-0.0646,0.1454,-0.1342,-2.091395517388815,-0.00012849907216150314,3.990396022796631,-1.533226728439331,0.20089411735534668,2.3981080055236816,5.335292446404257,-0.002241100650280714,0.17286303639411926,-1.6589835325824183,5.0269445637241006e-05,0.0494711771607399,0.5180289149284363,0.0,0.00681102043017745,1.0958019495010376,-0.000767163117416203,-0.3542608618736267
205.0,334.0,-1.9382,0.3284,9.6048,-0.0646,0.1454,-0.1342,-2.091391225854391,-0.0001887195248855278,3.943237781524658,-1.5324071645736694,0.2053849697113037,2.3858654499053955,5.335284697800436,-0.004757524002343416,0.17556974291801453,-1.6589754263507288,4.7608878958271816e-05,0.0631830245256424,0.518017053604126,0.0,0.01314551942050457,1.0957573652267456,-0.0005325802485458553,-0.3200468420982361
205.0,334.0,-1.9382,0.3284,9.6048,-0.0646,0.1454,-0.1342,-2.0913950405516566,-0.0009064634796231985,3.9543633460998535,-1.531563639640808,0.20975521206855774,2.4140331745147705,5.3352370140846155,-0.007300381548702717,0.1670226901769638,-1.6589797178851526,4.521688970271498e-05,0.04709208756685257,0.5180893540382385,0.0,0.00477553391829133,1.0957615375518799,-0.00040755377267487347,-0.3665371537208557
205.0,334.0,-1.9382,0.3284,9.6048,-0.0646,0.1454,-0.1342,-2.091426988641256,-0.0016334536485373974,3.947653293609619,-1.530283808708191,0.20719915628433228,2.4262523651123047,5.335193145066061,-0.010431048460304737,0.16224512457847595,-1.6589959303485315,4.2047875467687845e-05,0.0510295107960701,0.5180448889732361,0.0,0.010266734287142754,1.0957738161087036,-0.0001925940450746566,-0.32246971130371094
205.0,334.0,-1.9382,0.3284,9.6048,-0.0646,0.1454,-0.1342,-2.0914226971068324,-0.0017830171855166554,3.9238548278808594,-1.5294607877731323,0.21151025593280792,2.43171763420105,5.335137355118551,-0.011354265734553337,0.15686941146850586,-1.6589677969561976,4.017101673525758e-05,0.059678561985492706,0.5180730819702148,0.0,-0.002237671287730336,1.0957692861557007,0.00019503626390360296,-0.33313918113708496
205.0,334.0,-1.9382,0.3284,9.6048,-0.0646,0.1454,-0.1342,-2.0914675197997035,-0.0015642482321709394,3.9497575759887695,-1.5285812616348267,0.21155168116092682,2.372652530670166,5.335085975914755,-0.011876866221427917,0.171479269862175,-1.6589840094195765,5.639904338750057e-05,0.057545341551303864,0.5180448293685913,0.0,0.0021364728454500437,1.0958298444747925,0.00028307613683864474,-0.3211798071861267
205.0,334.0,-1.9382,0.3284,9.6048,-0.0646,0.1454,-0.1342,-2.091458936730856,-0.001160869956947863,3.927957773208618,-1.5277174711227417,0.2151317000389099,2.4452285766601562,5.335054027825155,-0.012823352590203285,0.155226469039917,-1.6589873472796839,5.5312677432084456e-05,0.050623901188373566,0.5180890560150146,0.0,0.007623741403222084,1.0957938432693481,0.0009152127895504236,-0.31131690740585327
205.0,334.0,-1.9382,0.3284,9.6048,-0.0646,0.1454,-0.1342,-2.091430803338522,-0.0008540703565813601,3.9874625205993652,-1.5264220237731934,0.22037842869758606,2.4284908771514893,5.334926354676046,-0.015691915526986122,0.16805501282215118,-1.6590197722064417,5.211485768086277e-05,0.05482929199934006,0.518057107925415,0.0,0.005280845332890749,1.0957896709442139,0.000821910158265382,-0.2953113317489624
205.0,334.0,-1.9382,0.3284,9.6048,-0.0646,0.1454,-0.1342,-2.0914389095702113,-0.0006567632663063705,3.9489359855651855,-1.525527000427246,0.21972209215164185,2.439910411834717,5.334854590683737,-0.01832112856209278,0.14628349244594574,-1.6590359846698206,5.017778676119633e-05,0.04654128849506378,0.5180370807647705,0.0,0.0010903241345658898,1.0957891941070557,0.0009581436170265079,-0.31835678219795227
205.0,334.0,-1.9382,0.3284,9.6048,-0.0646,0.1454,-0.1342,-2.0914064846434535,-0.0013330483343452215,3.95304536819458,-1.5246474742889404,0.22252582013607025,2.4489431381225586,5.334767150669851,-0.021133234724402428,0.1547142118215561,-1.6589840094195765,4.837956294068135e-05,0.04599684476852417,0.5180730819702148,0.0,0.009187450632452965,1.095805287361145,0.0012865031603723764,-0.2811444103717804
205.0,334.0,-1.9382,0.3284,9.6048,-0.0646,0.1454,-0.1342,-2.091482778588766,-0.003565077669918537,3.8815741539001465,-1.523323655128479,0.22330395877361298,2.467625617980957,5.334583329945364,-0.027493488043546677,0.13628795742988586,-1.6589873472796839,4.591152901411988e-05,0.03998987376689911,0.5180490016937256,0.0,-0.0015578268794342875,1.0958499908447266,0.001065111136995256,-0.30447500944137573
205.0,334.0,-1.9382,0.3284,9.6048,-0.0646,0.1454,-0.1342,-2.09148707012319,-0.005918385460972786,3.8791890144348145,-1.5224289894104004,0.2270629107952118,2.490755081176758,5.334471750050344,-0.036550525575876236,0.14628510177135468,-1.6589635054217737,4.440147677087225e-05,0.046805206686258316,0.5180448889732361,0.0,-0.0020128884352743626,1.0958902835845947,0.0009343333658762276,-0.3177688419818878
205.0,334.0,-1.9382,0.3284,9.6048,-0.0646,0.1454,-0.1342,-2.0915433369078578,-0.007748590782284737,3.9228339195251465,-1.5214849710464478,0.22791144251823425,2.4461135864257812,5.334276783257284,-0.04767657816410065,0.11798478662967682,-1.6589840094195765,4.298761996324174e-05,0.05454223230481148,0.5180008411407471,0.0,0.00019267527386546135,1.095813512802124,0.000695320195518434,-0.35467857122421265
205.0,334.0,-1.9382,0.3284,9.6048,-0.0646,0.1454,-0.1342,-2.0916034183897914,-0.00968308188021183,3.908895492553711,-1.5200492143630981,0.2280418425798416,2.402116060256958,5.333917724877157,-0.07848040759563446,0.1128290593624115,-1.6589916388141077,5.424382470664568e-05,0.05170314759016037,0.5180893540382385,0.0,0.0002639896993059665,1.0958698987960815,0.0005014827474951744,-0.30329567193984985
205.0,334.0,-1.9382,0.3284,9.6048,-0.0646,0.1454,-0.1342,-2.091591020623678,-0.008576570078730583,3.8814992904663086,-1.5191737413406372,0.2341119796037674,2.439760684967041,5.333550917893209,-0.10708349943161011,0.1034633070230484,-1.6589635054217737,5.308849358698353e-05,0.06323081254959106,0.5180088877677917,0.0,-0.0018427894683554769,1.0958458185195923,0.00042290642159059644,-0.2781985402107239
205.0,334.0,-1.9382,0.3284,9.6048,-0.0646,0.1454,-0.1342,-2.091619154016012,-0.007267385255545378,3.892350673675537,-1.5182795524597168,0.23888340592384338,2.460257053375244,5.333029258042135,-0.1347617655992508,0.07348449528217316,-1.6589797178851526,5.156939005246386e-05,0.058300748467445374,0.5180690288543701,0.0,0.012822296470403671,1.095805287361145,0.00036562373861670494,-0.33294662833213806
205.0,334.0,-1.9382,0.3284,9.6048,-0.0646,0.1454,-0.1342,-2.091674943963522,-0.005495740566402674,3.914811611175537,-1.5173113346099854,0.24357980489730835,2.487820863723755,5.332419860153951,-0.15336862206459045,0.06274138391017914,-1.6589916388141077,5.0133159675169736e-05,0.06549885123968124,0.5181335210800171,0.0,0.022749504074454308,1.0958375930786133,0.00032200966961681843,-0.28967490792274475
181.0,233.0,-2.7906,0.3996,9.2178,-0.0846,0.2082,-0.1352,-2.0917068920531214,-0.004875406622886658,3.889782428741455,-1.515920639038086,0.24614541232585907,2.441555976867676,5.331436085491934,-0.16586071252822876,0.06227673590183258,-1.6589997450457972,4.307920244173147e-05,0.052692003548145294,0.5180452466011047,0.0,0.0037832893431186676,1.095849871635437,0.00022762615117244422,-0.3009345829486847
181.0,233.0,-2.7906,0.3996,9.2178,-0.0846,0.2082,-0.1352,-2.0918036899962367,-0.005413551349192858,3.929743766784668,-1.514901041984558,0.24231061339378357,2.463076114654541,5.330666410713949,-0.17186039686203003,0.06592277437448502,-1.6589282194720667,4.046939648105763e-05,0.07111596316099167,0.5180611610412598,0.0,0.0060047670267522335,1.0958375930786133,0.00020670430967584252,-0.3411964178085327
181.0,233.0,-2.7906,0.3996,9.2178,-0.0846,0.2082,-0.1352,-2.091795106927389,-0.006595931481570005,3.925361156463623,-1.5139455795288086,0.24496997892856598,2.5275039672851562,5.329937863140859,-0.18925030529499054,0.05880824476480484,-1.658947769795553,3.872506567859091e-05,0.08042928576469421,0.5180286169052124,0.0,0.008943555876612663,1.095805287361145,0.0001893116714200005,-0.30986300110816956
181.0,233.0,-2.7906,0.3996,9.2178,-0.0846,0.2082,-0.1352,-2.0918637714781703,-0.0068173338659107685,3.9214892387390137,-1.5124616622924805,0.25071069598197937,2.5221667289733887,5.328663217812338,-0.23028446733951569,0.04231124743819237,-1.6589720884906214,5.4484971769852564e-05,0.06705167889595032,0.5180448889732361,0.0,0.009089378640055656,1.0957891941070557,0.00010158263467019424,-0.33389005064964294
181.0,233.0,-2.7906,0.3996,9.2178,-0.0846,0.2082,-0.1352,-2.0918108425536097,-0.007201943546533585,3.918303966522217,-1.511454463005066,0.2530272603034973,2.5127463340759277,5.327615129738607,-0.2471158802509308,0.025738200172781944,-1.6589797178851526,5.244558633421548e-05,0.06782896816730499,0.5180652737617493,0.0,0.01439342275261879,1.0958458185195923,-0.00014197929704096168,-0.3132917582988739
181.0,233.0,-2.7906,0.3996,9.2178,-0.0846,0.2082,-0.1352,-2.0918833218016566,-0.006426102947443724,3.9188590049743652,-1.5104666948318481,0.2501378059387207,2.550840377807617,5.326539921551504,-0.27074187994003296,0.009446627460420132,-1.6589801947223108,6.723825208609924e-05,0.07467663288116455,0.5180448889732361,0.0,0.010218536481261253,1.0957733392715454,-0.0012936667772009969,-0.39776554703712463
181.0,233.0,-2.7906,0.3996,9.2178,-0.0846,0.2082,-0.1352,-2.091947694818014,-0.005303401965647936,3.923166275024414,-1.508939504623413,0.24654904007911682,2.4777584075927734,5.324747073441305,-0.31371504068374634,0.009902063757181168,-1.6589601675616663,0.00030216577579267323,0.07934488356113434,0.5180248618125916,0.0,0.015966475009918213,1.0957896709442139,-0.001333383610472083,-0.32534193992614746
181.0,233.0,-2.7906,0.3996,9.2178,-0.0846,0.2082,-0.1352,-2.0919233761229457,-0.0036440964322537184,3.8595170974731445,-1.5079847574234009,0.251259982585907,2.470489978790283,5.3234325526054285,-0.3258346617221832,-0.02181367576122284,-1.6589239279376429,0.00032727871439419687,0.07430404424667358,0.5180289149284363,0.0,0.002713438356295228,1.0957896709442139,-0.0011851765448227525,-0.3984869122505188
181.0,233.0,-2.7906,0.3996,9.2178,-0.0846,0.2082,-0.1352,-2.0919677219786585,-0.0018540420569479465,3.9214859008789062,-1.5069772005081177,0.2562919557094574,2.4958267211914062,5.322050380497732,-0.35008057951927185,-0.025577053427696228,-1.6589558760272425,0.00034035524004139006,0.08241139352321625,0.5180611610412598,0.0,0.00024209392722696066,1.0957573652267456,-0.0009671978768892586,-0.411634624004364
181.0,233.0,-2.7906,0.3996,9.2178,-0.0846,0.2082,-0.1352,-2.0919109783568324,-0.0009130361722782254,3.976470947265625,-1.5055301189422607,0.25962984561920166,2.5696380138397217,5.319815563946523,-0.3737986385822296,-0.03202097490429878,-1.6589391867267054,0.0003294897614978254,0.08428269624710083,0.518057107925415,0.0,0.005807465873658657,1.0957978963851929,-0.0016638139495626092,-0.3823936879634857
181.0,233.0,-2.7906,0.3996,9.2178,-0.0846,0.2082,-0.1352,-2.09194340328359,-0.0009044817415997386,3.937392234802246,-1.5044983625411987,0.2523084878921509,2.543501138687134,5.31835417726592,-0.41465333104133606,-0.05199489742517471,-1.658992115651266,0.00042431263136677444,0.08478960394859314,0.5180733799934387,0.0,0.0026062321849167347,1.0957655906677246,-0.001991681754589081,-0.4518935978412628
181.0,233.0,-2.7906,0.3996,9.2178,-0.0846,0.2082,-0.1352,-2.0919634304442347,-0.0008293734863400459,3.909236192703247,-1.5034431219100952,0.2502792775630951,2.522167921066284,5.316669094353475,-0.43170732259750366,-0.06263449788093567,-1.6589401404010218,0.0005093726795166731,0.08714337646961212,0.5180730819702148,0.0,0.0060234395787119865,1.0957496166229248,-0.0018315418856218457,-0.41588515043258667
181.0,233.0,-2.7906,0.3996,9.2178,-0.0846,0.2082,-0.1352,-2.091926713983053,-0.0018351709004491568,3.9089159965515137,-1.502387285232544,0.25125887989997864,2.4846057891845703,5.3148125288780115,-0.46007227897644043,-0.07412520051002502,-1.6589039007769983,0.0005116411484777927,0.09243127703666687,0.5180530548095703,0.0,0.0010453646536916494,1.0957335233688354,-0.0015265003312379122,-0.496919184923172
181.0,233.0,-2.7906,0.3996,9.2178,-0.0846,0.2082,-0.1352,-2.0919352970519007,-0.0012899322900921106,3.9585306644439697,-1.500892162322998,0.2575260400772095,2.540485382080078,5.311988758831777,-0.4981827437877655,-0.06977656483650208,-1.6589282194720667,0.0006967515801079571,0.10246053338050842,0.5180408358573914,0.0,-0.0060346005484461784,1.0957295894622803,-0.0017035980708897114,-0.46119701862335205
