ramyac6/ROB537/final_project/csv/good/good_175.csv
tof_0,tof_1,accelx,accely,accelz,gyrox,gyroy,gyroz,shoulder_lift_joint_position,shoulder_lift_joint_velocity,shoulder_lift_joint_effort,elbow_joint_position,elbow_joint_velocity,elbow_joint_effort,wrist_1_joint_position,wrist_1_joint_velocity,wrist_1_joint_effort,wrist_2_joint_position,wrist_2_joint_velocity,wrist_2_joint_effort,wrist_3_joint_position,wrist_3_joint_velocity,wrist_3_joint_effort,shoulder_pan_joint_position,shoulder_pan_joint_velocity,shoulder_pan_joint_effort
912.0,1002.0,0.8237,0.7382,9.4606,-0.0374,0.0237,-0.1177,-1.624052187005514,0.0,2.185807704925537,-2.026787519454956,-0.0,1.9836905002593994,5.05482770779685,-0.0,0.2887553572654724,-1.6526125113116663,0.0,-0.004461387638002634,0.8185390830039978,-0.0,0.0046333433128893375,0.7539639472961426,0.0,0.007246144115924835
912.0,1002.0,0.8237,0.7382,9.4606,-0.0374,0.0237,-0.1177,-1.624075552026266,0.0,2.169588565826416,-2.0268352031707764,-0.0,1.9136054515838623,5.054831909924307,-0.0,0.28784677386283875,-1.6527093092547815,0.0,-0.011312207207083702,0.8185591697692871,-0.0,-0.004017374012619257,0.7540002465248108,0.0,0.00602323841303587
912.0,1002.0,0.8237,0.7382,9.4606,-0.0374,0.0237,-0.1177,-1.6240960560240687,0.0,2.174508571624756,-2.026811361312866,-0.0,1.9687159061431885,5.0548318205173395,-0.0,0.279899537563324,-1.6527050177203577,0.0,-0.0022528336849063635,0.8185394406318665,-0.0,0.0016390460077673197,0.7540203928947449,0.0,-0.042158342897892
912.0,1002.0,0.8237,0.7382,9.4606,-0.0374,0.0237,-0.1177,-1.6240717373290003,0.0,2.1670796871185303,-2.026787519454956,-0.0,1.9460433721542358,5.054787564068594,-0.0,0.2899138331413269,-1.6526525656329554,0.0,-0.004063660278916359,0.8185510039329529,-0.0,0.016581211239099503,0.7540405988693237,0.0,-0.0021911105141043663
912.0,1002.0,0.8237,0.7382,9.4606,-0.0374,0.0237,-0.1177,-1.6240717373290003,0.0,2.2413017749786377,-2.0267629623413086,-0.0,1.9424164295196533,5.054771202593603,-0.0,0.29113051295280457,-1.6526368300067347,0.0,0.002587057650089264,0.8185952305793762,-0.0,-0.003283330937847495,0.7539758682250977,0.0,0.01928570866584778
912.0,1002.0,0.8237,0.7382,9.4606,-0.0374,0.0237,-0.1177,-1.624063631097311,0.0,2.2051045894622803,-2.0267629623413086,-0.0,1.927527666091919,5.05479575970725,-0.0,0.2940886616706848,-1.652673069630758,0.0,0.007324945647269487,0.818599283695221,-0.0,-1.879467163234949e-05,0.7540084719657898,0.0,0.0009149201214313507
912.0,1002.0,0.8237,0.7382,9.4606,-0.0374,0.0237,-0.1177,-1.6240998707213343,0.0,2.194911241531372,-2.026775360107422,-0.0,1.978196620941162,5.0548196015651605,-0.0,0.28887856006622314,-1.652673069630758,0.0,0.007693600840866566,0.8185911178588867,-0.0,-0.005860789678990841,0.7539922595024109,0.0,0.02546815387904644
912.0,1002.0,0.8237,0.7382,9.4606,-0.0374,0.0237,-0.1177,-1.6241160831847132,0.0,2.162045955657959,-2.026771068572998,-0.0,1.9879388809204102,5.054827648192205,-0.0,0.2808034420013428,-1.6526368300067347,0.0,0.003309182822704315,0.8185030817985535,-0.0,-0.010022633709013462,0.7539441585540771,0.0,0.015573017299175262
916.0,968.0,0.7436,0.6975,9.5246,-0.0362,0.0224,-0.1187,-1.6240679226317347,0.0,2.2230148315429688,-2.026787519454956,-0.0,1.993051290512085,5.054787593870916,-0.0,0.2937384843826294,-1.652701203023092,0.0,0.0041569070890545845,0.8185672760009766,-0.0,-0.007804642431437969,0.7539840936660767,0.0,0.03150772303342819
916.0,968.0,0.7436,0.6975,9.5246,-0.0362,0.0224,-0.1187,-1.6240674457945765,0.0,2.2369115352630615,-2.0268306732177734,-0.0,1.9512412548065186,5.05481173375205,-0.0,0.2977297008037567,-1.6526125113116663,0.0,-0.005936304572969675,0.8185628652572632,-0.0,-0.008823413401842117,0.7539639472961426,0.0,0.01902075484395027
916.0,968.0,0.7436,0.6975,9.5246,-0.0362,0.0224,-0.1187,-1.6240884266295375,0.0,2.156594753265381,-2.026775598526001,-0.0,1.9591138362884521,5.0548196015651605,-0.0,0.2949492037296295,-1.6526449362384241,0.0,-0.0032129627652466297,0.818535327911377,-0.0,0.000818973348941654,0.7539358735084534,0.0,0.0017382805235683918
916.0,968.0,0.7436,0.6975,9.5246,-0.0362,0.0224,-0.1187,-1.6240602932372035,0.0,2.178241491317749,-2.0267629623413086,-0.0,1.9777805805206299,5.054799544602194,-0.0,0.29598212242126465,-1.6527136007892054,0.0,-0.013737224042415619,0.8186071515083313,-0.0,-0.0017822962254285812,0.7540043592453003,0.0,0.04541368782520294
916.0,968.0,0.7436,0.6975,9.5246,-0.0362,0.0224,-0.1187,-1.6240884266295375,0.0,2.150614023208618,-2.026798963546753,-0.0,1.943657398223877,5.05481173375205,-0.0,0.2720547318458557,-1.652656380330221,0.0,0.005994429811835289,0.8184989094734192,-0.0,-0.012532517313957214,0.7539680600166321,0.0,-0.04597606882452965
916.0,968.0,0.7436,0.6975,9.5246,-0.0362,0.0224,-0.1187,-1.624092241326803,0.0,2.174156665802002,-2.0267629623413086,-0.0,1.9501264095306396,5.054851907282629,-0.0,0.29156726598739624,-1.6526930967914026,0.0,0.00601816875860095,0.818547248840332,-0.0,0.005579100921750069,0.7539923191070557,0.0,-0.024847226217389107
916.0,968.0,0.7436,0.6975,9.5246,-0.0362,0.0224,-0.1187,-1.6241122684874476,0.0,2.172893762588501,-2.0268266201019287,-0.0,1.8943111896514893,5.05483557560996,-0.0,0.28062593936920166,-1.652656380330221,0.0,0.004065883811563253,0.8186153173446655,-0.0,-0.004676033742725849,0.7540203332901001,0.0,-0.017920399084687233
916.0,968.0,0.7436,0.6975,9.5246,-0.0362,0.0224,-0.1187,-1.6241079769530238,0.0,2.1777334213256836,-2.0267794132232666,-0.0,1.909342646598816,5.054795342474737,-0.0,0.2889997363090515,-1.6526854673968714,0.0,-1.0656898666638881e-05,0.8185672760009766,-0.0,0.005421265959739685,0.7540327310562134,0.0,-0.05757711082696915
916.0,968.0,0.7436,0.6975,9.5246,-0.0362,0.0224,-0.1187,-1.6240602932372035,0.0,2.17812442779541,-2.0267233848571777,-0.0,1.9215703010559082,5.05482770779685,-0.0,0.28648069500923157,-1.6526687780963343,0.0,-0.016005894169211388,0.8185669779777527,-0.0,-0.0012136644218116999,0.7540043592453003,0.0,-0.03250822424888611
916.0,968.0,0.7436,0.6975,9.5246,-0.0362,0.0224,-0.1187,-1.624052187005514,0.0,2.1468048095703125,-2.0268306732177734,-0.0,1.9450275897979736,5.054799484997549,-0.0,0.2860424518585205,-1.6526368300067347,0.0,0.0030109379440546036,0.8185353875160217,-0.0,-0.0006386421155184507,0.7539758682250977,0.0,0.005077646113932133
916.0,968.0,0.7436,0.6975,9.5246,-0.0362,0.0224,-0.1187,-1.6240564785399378,0.0,2.191518783569336,-2.026815176010132,-0.0,1.9552102088928223,5.054823624878683,-0.0,0.3025703430175781,-1.652633015309469,0.0,0.007311624474823475,0.8185554146766663,-0.0,-0.006836565211415291,0.7540245056152344,0.0,0.004098380915820599
916.0,968.0,0.7436,0.6975,9.5246,-0.0362,0.0224,-0.1187,-1.624075552026266,0.0,2.1858153343200684,-2.026775598526001,-0.0,1.9761333465576172,5.054819959193029,-0.0,0.28972548246383667,-1.6526206175433558,0.0,0.008663812652230263,0.818587064743042,-0.0,-0.005342835560441017,0.7540283203125,0.0,0.02514154091477394
916.0,968.0,0.7436,0.6975,9.5246,-0.0362,0.0224,-0.1187,-1.6240674457945765,0.0,2.1632587909698486,-2.0268073081970215,-0.0,1.968632698059082,5.054795729904928,-0.0,0.2902984023094177,-1.6527131239520472,0.0,0.004186632111668587,0.8186030387878418,-0.0,-0.009703954681754112,0.7540245056152344,0.0,0.006008680444210768
916.0,968.0,0.7436,0.6975,9.5246,-0.0362,0.0224,-0.1187,-1.6240602932372035,0.0,2.1564035415649414,-2.0267751216888428,-0.0,1.9247022867202759,5.054807650833883,-0.0,0.28139880299568176,-1.652673069630758,0.0,0.0021433657966554165,0.8185713887214661,-0.0,0.0037523391656577587,0.7539799809455872,0.0,0.011155539192259312
916.0,968.0,0.7436,0.6975,9.5246,-0.0362,0.0224,-0.1187,-1.6240602932372035,0.0,2.156052589416504,-2.0267794132232666,-0.0,1.9868394136428833,5.054807650833883,-0.0,0.299141526222229,-1.6526606718646448,0.0,0.0058258106000721455,0.8185792565345764,-0.0,-0.004801546223461628,0.7540005445480347,0.0,-0.006124832667410374
897.0,1007.0,0.8489,0.7358,9.2698,-0.0414,0.0255,-0.1214,-1.6241041622557582,0.0,2.180467128753662,-2.0267908573150635,-0.0,1.9211456775665283,5.054735201388159,-0.0,0.29436737298965454,-1.652673069630758,0.0,-0.00413533765822649,0.8185713887214661,-0.0,-0.0016167934518307447,0.7539721727371216,0.0,-0.01654333993792534
897.0,1007.0,0.8489,0.7358,9.2698,-0.0414,0.0255,-0.1214,-1.6240602932372035,0.0,2.167750835418701,-2.0267751216888428,-0.0,1.968057632446289,5.054807650833883,-0.0,0.28936949372291565,-1.6526606718646448,0.0,0.0008246616926044226,0.8185431957244873,-0.0,0.009065491147339344,0.7540162801742554,0.0,0.04665007442235947
897.0,1007.0,0.8489,0.7358,9.2698,-0.0414,0.0255,-0.1214,-1.6240884266295375,0.0,2.193657875061035,-2.026815414428711,-0.0,1.9433720111846924,5.054827737599172,-0.0,0.2884668707847595,-1.6526930967914026,0.0,-0.0036633785348385572,0.8185393810272217,-0.0,-0.00812581554055214,0.7540245056152344,0.0,0.006720250006765127
897.0,1007.0,0.8489,0.7358,9.2698,-0.0414,0.0255,-0.1214,-1.6240674457945765,0.0,2.1760973930358887,-2.0267510414123535,-0.0,1.9467918872833252,5.054843711643972,-0.0,0.29756873846054077,-1.652649227772848,0.0,0.010729672387242317,0.8185595273971558,-0.0,-0.002871675882488489,0.7540203928947449,0.0,-0.0076939985156059265
897.0,1007.0,0.8489,0.7358,9.2698,-0.0414,0.0255,-0.1214,-1.6240674457945765,0.0,2.1534955501556396,-2.0267550945281982,-0.0,1.9628958702087402,5.054799902230062,-0.0,0.2902520000934601,-1.6526368300067347,0.0,0.005158742889761925,0.8185510039329529,-0.0,0.0028100092895329,0.7540245056152344,0.0,0.004591953009366989
897.0,1007.0,0.8489,0.7358,9.2698,-0.0414,0.0255,-0.1214,-1.6240483723082484,0.0,2.1937224864959717,-2.0268073081970215,-0.0,1.9210726022720337,5.054791646986761,-0.0,0.28477802872657776,-1.6526287237750452,0.0,-0.0005846041021868587,0.8186109066009521,-0.0,-0.001104404334910214,0.7540043592453003,0.0,-0.016982773318886757
897.0,1007.0,0.8489,0.7358,9.2698,-0.0414,0.0255,-0.1214,-1.6240602932372035,0.0,2.1833443641662598,-2.0268030166625977,-0.0,2.0081827640533447,5.054771262198248,-0.0,0.2852688133716583,-1.6526411215411585,0.0,0.0034083211794495583,0.8185632228851318,-0.0,-0.017891963943839073,0.7540044188499451,0.0,-0.019376715645194054
897.0,1007.0,0.8489,0.7358,9.2698,-0.0414,0.0255,-0.1214,-1.624080320397848,0.0,2.2069270610809326,-2.0268430709838867,-0.0,1.9432003498077393,5.054779338627615,-0.0,0.28263241052627563,-1.6526606718646448,0.0,0.011287879198789597,0.8185349702835083,-0.0,-0.017000272870063782,0.7540005445480347,0.0,-0.0016664434224367142
897.0,1007.0,0.8489,0.7358,9.2698,-0.0414,0.0255,-0.1214,-1.6241041622557582,0.0,2.2078657150268555,-2.0267794132232666,-0.0,1.9647804498672485,5.054795342474737,-0.0,0.28571391105651855,-1.6526449362384241,0.0,-0.00685144541785121,0.8185833096504211,-0.0,0.014281048439443111,0.7539882063865662,0.0,-0.027220778167247772
897.0,1007.0,0.8489,0.7358,9.2698,-0.0414,0.0255,-0.1214,-1.624052187005514,0.0,2.1697750091552734,-2.0267908573150635,-0.0,1.97721266746521,5.0548559603984735,-0.0,0.28895485401153564,-1.652649227772848,0.0,-0.0018466283800080419,0.8185550570487976,-0.0,-0.00980002898722887,0.7540003061294556,0.0,0.020588349550962448
897.0,1007.0,0.8489,0.7358,9.2698,-0.0414,0.0255,-0.1214,-1.6240841350951136,0.0,2.175095319747925,-2.0268030166625977,-0.0,1.923996925354004,5.054823654681005,-0.0,0.2927151620388031,-1.652677361165182,0.0,-0.0026709623634815216,0.8185952305793762,-0.0,-0.0006437706761062145,0.7539722323417664,0.0,-0.004081627354025841
897.0,1007.0,0.8489,0.7358,9.2698,-0.0414,0.0255,-0.1214,-1.6241079769530238,0.0,2.1258485317230225,-2.0268306732177734,-0.0,1.9867422580718994,5.054779338627615,-0.0,0.2839805483818054,-1.6526411215411585,0.0,-0.0005717236781492829,0.8185632228851318,-0.0,-0.0034101740457117558,0.7540043592453003,0.0,-0.01786380633711815
897.0,1007.0,0.8489,0.7358,9.2698,-0.0414,0.0255,-0.1214,-1.624092241326803,0.0,2.140625238418579,-2.026771068572998,-0.0,1.9459456205368042,5.054803567915716,-0.0,0.28614917397499084,-1.6526973883258265,0.0,0.010181653313338757,0.8186033964157104,-0.0,0.0024136852007359266,0.7540244460105896,0.0,0.01669781282544136
897.0,1007.0,0.8489,0.7358,9.2698,-0.0414,0.0255,-0.1214,-1.624063631097311,0.0,2.1947450637817383,-2.0268030166625977,-0.0,1.9469208717346191,5.054823654681005,-0.0,0.28505656123161316,-1.652604881917135,0.0,-0.0005127005861140788,0.8185513019561768,-0.0,-0.007934970781207085,0.754036545753479,0.0,-0.007088379934430122
929.0,981.0,0.7555,0.6969,9.5013,-0.0316,0.0221,-0.1219,-1.6240440807738246,0.0,2.179241180419922,-2.026794910430908,-0.0,1.9271609783172607,5.054851877480306,-0.0,0.2915381193161011,-1.6526449362384241,0.0,0.0038496488705277443,0.8185591697692871,-0.0,-0.015217378735542297,0.7540484070777893,0.0,-0.015473694540560246
929.0,981.0,0.7555,0.6969,9.5013,-0.0316,0.0221,-0.1219,-1.6240841350951136,0.0,2.183070659637451,-2.026775598526001,-0.0,1.8920694589614868,5.054860043316641,-0.0,0.2832358479499817,-1.6526606718646448,0.0,0.006182193290442228,0.8185150027275085,-0.0,0.00418409239500761,0.7539642453193665,0.0,0.03445684537291527
929.0,981.0,0.7555,0.6969,9.5013,-0.0316,0.0221,-0.1219,-1.6240960560240687,0.0,2.14864444732666,-2.0268030166625977,-0.0,1.9307923316955566,5.054775345116415,-0.0,0.27850863337516785,-1.6526449362384241,0.0,1.2068776413798332e-05,0.8186353445053101,-0.0,-0.005985823459923267,0.7540002465248108,0.0,-0.006904044188559055
929.0,981.0,0.7555,0.6969,9.5013,-0.0316,0.0221,-0.1219,-1.6241160831847132,0.0,2.210373878479004,-2.0267670154571533,-0.0,1.9468610286712646,5.054791736393728,-0.0,0.2795138359069824,-1.652673069630758,0.0,0.002000142354518175,0.818535327911377,-0.0,-0.005475868936628103,0.7540203928947449,0.0,0.0026656538248062134
929.0,981.0,0.7555,0.6969,9.5013,-0.0316,0.0221,-0.1219,-1.6240879497923792,0.0,2.153778314590454,-2.026787519454956,-0.0,1.9355924129486084,5.054791646986761,-0.0,0.2796775698661804,-1.652677361165182,0.0,-0.005220412742346525,0.8185189962387085,-0.0,0.005573363043367863,0.7540084719657898,0.0,0.012693163007497787
929.0,981.0,0.7555,0.6969,9.5013,-0.0316,0.0221,-0.1219,-1.6240159473814906,0.0,2.170287609100342,-2.0267629623413086,-0.0,1.9664760828018188,5.054867881327429,-0.0,0.28663861751556396,-1.6526606718646448,0.0,0.007840282283723354,0.8185952305793762,-0.0,-0.0044326698407530785,0.7539923191070557,0.0,-0.009010647423565388
929.0,981.0,0.7555,0.6969,9.5013,-0.0316,0.0221,-0.1219,-1.6240674457945765,0.0,2.2076542377471924,-2.026787519454956,-0.0,1.9879817962646484,5.054823654681005,-0.0,0.27645689249038696,-1.6526449362384241,0.0,0.007997283712029457,0.818554699420929,-0.0,-0.005902951583266258,0.7540245056152344,0.0,0.013742589391767979
929.0,981.0,0.7555,0.6969,9.5013,-0.0316,0.0221,-0.1219,-1.624064107934469,0.0,2.217069625854492,-2.02675461769104,-0.0,1.892791748046875,5.05481173375205,-0.0,0.2961679697036743,-1.6526606718646448,0.0,-0.0028688639868050814,0.8185669779777527,-0.0,-0.010358000174164772,0.7539763450622559,0.0,-0.014219258911907673
929.0,981.0,0.7555,0.6969,9.5013,-0.0316,0.0221,-0.1219,-1.6241079769530238,0.0,2.2025082111358643,-2.0267834663391113,-0.0,1.9387257099151611,5.05485965588645,-0.0,0.2784034013748169,-1.652649227772848,0.0,-0.005473310127854347,0.8186472654342651,-0.0,0.004297683015465736,0.7540207505226135,0.0,0.01936417818069458
929.0,981.0,0.7555,0.6969,9.5013,-0.0316,0.0221,-0.1219,-1.6240483723082484,0.0,2.1309523582458496,-2.0267834663391113,-0.0,1.932664394378662,5.054827737599172,-0.0,0.2880099415779114,-1.6526449362384241,0.0,0.0028312471695244312,0.8186153173446655,-0.0,0.0070380824618041515,0.7539477944374084,0.0,-0.014591751620173454
929.0,981.0,0.7555,0.6969,9.5013,-0.0316,0.0221,-0.1219,-1.6240884266295375,0.0,2.1577510833740234,-2.026798963546753,-0.0,1.89903724193573,5.054803567915716,-0.0,0.2911011874675751,-1.652656380330221,0.0,-0.001888182247057557,0.8185513019561768,-0.0,-0.006701984442770481,0.7539841532707214,0.0,-0.024214163422584534
929.0,981.0,0.7555,0.6969,9.5013,-0.0316,0.0221,-0.1219,-1.6240197620787562,0.0,2.1805129051208496,-2.0267629623413086,-0.0,1.927688717842102,5.054815488844671,-0.0,0.289510041475296,-1.6526525656329554,0.0,-0.0015877564437687397,0.8185632228851318,-0.0,-0.003490404924377799,0.7540045976638794,0.0,-0.011251519434154034
929.0,981.0,0.7555,0.6969,9.5013,-0.0316,0.0221,-0.1219,-1.6240564785399378,0.0,2.180764675140381,-2.026731252670288,-0.0,1.9316800832748413,5.054807650833883,-0.0,0.2899506092071533,-1.652633015309469,0.0,-0.0026565627194941044,0.8185672760009766,-0.0,-0.008403192274272442,0.7539799809455872,0.0,-0.020421404391527176
929.0,981.0,0.7555,0.6969,9.5013,-0.0316,0.0221,-0.1219,-1.624052187005514,0.0,2.201606035232544,-2.0268073081970215,-0.0,1.9670028686523438,5.054783481150427,-0.0,0.29847055673599243,-1.6526325384723108,0.0,0.0023506723809987307,0.8186149597167969,-0.0,-0.007849284447729588,0.7540003061294556,0.0,-0.0021826764568686485
929.0,981.0,0.7555,0.6969,9.5013,-0.0316,0.0221,-0.1219,-1.6240440807738246,0.0,2.2127761840820312,-2.0268192291259766,-0.0,1.9263544082641602,5.054847824364462,-0.0,0.28026282787323,-1.6526244322406214,0.0,0.002410564571619034,0.8185830116271973,-0.0,0.003501464147120714,0.7540285587310791,0.0,-0.018915139138698578
907.0,1021.0,0.932,1.1803,9.5707,-0.0434,0.0186,-0.1245,-1.6240564785399378,0.0,2.1750481128692627,-2.0267834663391113,-0.0,1.9247543811798096,5.054807650833883,-0.0,0.2866199016571045,-1.6526125113116663,0.0,0.004040036350488663,0.818599283695221,-0.0,-0.003021661192178726,0.7540688514709473,0.0,-0.003974175080657005
907.0,1021.0,0.932,1.1803,9.5707,-0.0434,0.0186,-0.1245,-1.624075552026266,0.0,2.125263214111328,-2.026815176010132,-0.0,1.9657313823699951,5.0548076806362054,-0.0,0.2887641191482544,-1.6526325384723108,0.0,-0.006804004777222872,0.8185553550720215,-0.0,0.00790500920265913,0.7539841532707214,0.0,0.005586094688624144
907.0,1021.0,0.932,1.1803,9.5707,-0.0434,0.0186,-0.1245,-1.6240841350951136,0.0,2.162219524383545,-2.0267908573150635,-0.0,1.945371389389038,5.054819571762838,-0.0,0.2852972149848938,-1.652677361165182,0.0,0.012435310520231724,0.8185468912124634,-0.0,-0.0028837397694587708,0.7539923191070557,0.0,-0.015825187787413597
907.0,1021.0,0.932,1.1803,9.5707,-0.0434,0.0186,-0.1245,-1.6240960560240687,0.0,2.1400985717773438,-2.026815176010132,-0.0,1.9599683284759521,5.05483557560996,-0.0,0.2878749370574951,-1.652689282094137,0.0,-0.010376528836786747,0.8186071515083313,-0.0,-0.004092155955731869,0.7540203928947449,0.0,0.035001255571842194
907.0,1021.0,0.932,1.1803,9.5707,-0.0434,0.0186,-0.1245,-1.6240674457945765,0.0,2.115586519241333,-2.026810884475708,-0.0,1.9331517219543457,5.054823654681005,-0.0,0.2856287360191345,-1.6526449362384241,0.0,0.007745986804366112,0.8185873627662659,-0.0,-0.005116852466017008,0.7539923191070557,0.0,-0.02303951606154442
907.0,1021.0,0.932,1.1803,9.5707,-0.0434,0.0186,-0.1245,-1.62402405361318,0.0,2.165104866027832,-2.026775598526001,-0.0,2.010530710220337,5.054815488844671,-0.0,0.30513542890548706,-1.6526168028460901,0.0,-0.00968816876411438,0.8185949325561523,-0.0,0.00558900274336338,0.7540002465248108,0.0,-0.022363662719726562
907.0,1021.0,0.932,1.1803,9.5707,-0.0434,0.0186,-0.1245,-1.624035974542135,0.0,2.1808860301971436,-2.0267629623413086,-0.0,1.9201836585998535,5.054791646986761,-0.0,0.292621910572052,-1.6526325384723108,0.0,-0.005086528602987528,0.818587064743042,-0.0,0.0024006878957152367,0.7540283203125,0.0,-0.012693775817751884
907.0,1021.0,0.932,1.1803,9.5707,-0.0434,0.0186,-0.1245,-1.62402405361318,0.0,2.192070245742798,-2.0267670154571533,-0.0,1.9564454555511475,5.054827767401495,-0.0,0.2922680377960205,-1.6527093092547815,0.0,-0.001826158375479281,0.8185911178588867,-0.0,-0.004647222813218832,0.754036545753479,0.0,0.0038610687479376793
907.0,1021.0,0.932,1.1803,9.5707,-0.0434,0.0186,-0.1245,-1.6240841350951136,0.0,2.14369535446167,-2.0268070697784424,-0.0,1.9957165718078613,5.054787564068594,-0.0,0.2900125980377197,-1.6526535193072718,0.0,0.007265814114362001,0.8186030387878418,-0.0,0.002970303175970912,0.7540285587310791,0.0,-0.022601725533604622
907.0,1021.0,0.932,1.1803,9.5707,-0.0434,0.0186,-0.1245,-1.62402405361318,0.0,2.1470789909362793,-2.026771068572998,-0.0,1.9056220054626465,5.054843652039327,-0.0,0.28977155685424805,-1.652677361165182,0.0,-0.00131841073743999,0.8186153173446655,-0.0,0.007445963565260172,0.7539882063865662,0.0,0.041069045662879944
907.0,1021.0,0.932,1.1803,9.5707,-0.0434,0.0186,-0.1245,-1.6240836582579554,0.0,2.157059669494629,-2.026771068572998,-0.0,1.9640543460845947,5.05483557560996,-0.0,0.28820565342903137,-1.652649227772848,0.0,-0.009055998176336288,0.818587064743042,-0.0,0.002289108233526349,0.7540002465248108,0.0,-0.036772701889276505
907.0,1021.0,0.932,1.1803,9.5707,-0.0434,0.0186,-0.1245,-1.6240841350951136,0.0,2.207045555114746,-2.026798963546753,-0.0,1.9015350341796875,5.054843711643972,-0.0,0.28576648235321045,-1.652656380330221,0.0,-0.00659713800996542,0.8185911178588867,-0.0,-0.008757300674915314,0.7540406584739685,0.0,0.016592834144830704
907.0,1021.0,0.932,1.1803,9.5707,-0.0434,0.0186,-0.1245,-1.6240564785399378,0.0,2.182321310043335,-2.026771068572998,-0.0,1.9703359603881836,5.054819571762838,-0.0,0.2981407642364502,-1.6526449362384241,0.0,-0.004540047142654657,0.8185915350914001,-0.0,-0.00027203449280932546,0.7540043592453003,0.0,0.022703172639012337
907.0,1021.0,0.932,1.1803,9.5707,-0.0434,0.0186,-0.1245,-1.6241280041136683,0.0,2.1565489768981934,-2.0268194675445557,-0.0,1.934319257736206,5.054839658528127,-0.0,0.29125332832336426,-1.652689282094137,0.0,0.005781330168247223,0.8185873627662659,-0.0,0.0022672126069664955,0.7539762854576111,0.0,-0.012398716062307358
907.0,1021.0,0.932,1.1803,9.5707,-0.0434,0.0186,-0.1245,-1.6240717373290003,0.0,2.220127582550049,-2.0268032550811768,-0.0,1.9519795179367065,5.054823654681005,-0.0,0.2829025387763977,-1.6526649633990687,0.0,-0.0033840034157037735,0.8185393810272217,-0.0,-0.0002823506947606802,0.7539923191070557,0.0,0.04305987060070038
894.0,1015.0,0.7549,0.6969,9.5707,-0.049,0.0298,-0.1229,-1.6240717373290003,0.0,2.170154571533203,-2.026798963546753,-0.0,1.9314221143722534,5.054803538113394,-0.0,0.2798253893852234,-1.652673069630758,0.0,-0.001654687337577343,0.8185989856719971,-0.0,-0.006205106619745493,0.7540285587310791,0.0,0.00624130992218852
894.0,1015.0,0.7549,0.6969,9.5707,-0.049,0.0298,-0.1229,-1.6240841350951136,0.0,2.201531171798706,-2.026791572570801,-0.0,1.957453966140747,5.054807621031561,-0.0,0.2880200445652008,-1.6526044050799769,0.0,-0.01468961127102375,0.8185632228851318,-0.0,-0.009449153207242489,0.753960132598877,0.0,-0.025488726794719696
894.0,1015.0,0.7549,0.6969,9.5707,-0.049,0.0298,-0.1229,-1.6240278683104457,0.0,2.198791027069092,-2.0267794132232666,-0.0,1.9628715515136719,5.054823654681005,-0.0,0.28600648045539856,-1.6526811758624476,0.0,-0.0011132813524454832,0.818599283695221,-0.0,0.006175059825181961,0.7540125846862793,0.0,0.02642136812210083
894.0,1015.0,0.7549,0.6969,9.5707,-0.049,0.0298,-0.1229,-1.6240798435606898,0.0,2.183187961578369,-2.0267794132232666,-0.0,1.9537837505340576,5.054799484997549,-0.0,0.28925997018814087,-1.6526535193072718,0.0,0.009233265183866024,0.8185510039329529,-0.0,-0.005221391096711159,0.7540084719657898,0.0,0.021155299618840218
894.0,1015.0,0.7549,0.6969,9.5707,-0.049,0.0298,-0.1229,-1.6241079769530238,0.0,2.1700222492218018,-2.0267670154571533,-0.0,1.9579803943634033,5.05482770779685,-0.0,0.28570055961608887,-1.6526325384723108,0.0,0.001401423243805766,0.8185830116271973,-0.0,-0.007088496349751949,0.7540203928947449,0.0,0.014950806275010109
894.0,1015.0,0.7549,0.6969,9.5707,-0.049,0.0298,-0.1229,-1.624092241326803,0.0,2.209261417388916,-2.026815414428711,1.0521283150266569e-10,1.972318172454834,5.054791587382116,-0.0,0.28061896562576294,-1.652649227772848,0.0,-0.005520668812096119,0.8185751438140869,-0.0,-0.00487709091976285,0.7540043592453003,0.0,0.05301589146256447
894.0,1015.0,0.7549,0.6969,9.5707,-0.049,0.0298,-0.1229,-1.6240397892394007,0.0,2.164541006088257,-2.026815414428711,2.5407661166333077e-16,2.007382392883301,5.054803567915716,-0.0,0.2900350093841553,-1.6526206175433558,0.0,-0.011020513251423836,0.8185550570487976,-0.0,-0.005364627577364445,0.7539961338043213,0.0,-0.02455580234527588
894.0,1015.0,0.7549,0.6969,9.5707,-0.049,0.0298,-0.1229,-1.6241041622557582,0.0,2.1940603256225586,-2.0267670154571533,6.13565258329043e-22,1.8980426788330078,5.05479575970725,-0.0,0.280984103679657,-1.6526573340045374,0.0,0.0016636259388178587,0.8185830116271973,-0.0,-0.018973754718899727,0.7540324330329895,0.0,0.00021829502657055855
894.0,1015.0,0.7549,0.6969,9.5707,-0.049,0.0298,-0.1229,-1.6240884266295375,0.0,2.1805098056793213,-2.0268073081970215,1.4816880100670762e-27,1.9710640907287598,5.05483968833045,-0.0,0.29166358709335327,-1.652633015309469,0.0,-0.0033395993523299694,0.8185312151908875,-0.0,-0.0044357916340231895,0.754036545753479,0.0,0.040844179689884186
894.0,1015.0,0.7549,0.6969,9.5707,-0.049,0.0298,-0.1229,-1.624063631097311,0.0,2.197300910949707,-2.0267670154571533,3.578102315489331e-33,1.9879837036132812,5.054831462889471,-0.0,0.3054945766925812,-1.6527131239520472,0.0,0.0012486400082707405,0.8185833096504211,-0.0,0.0095676826313138,0.7540484666824341,0.0,-0.006408060900866985
894.0,1015.0,0.7549,0.6969,9.5707,-0.049,0.0298,-0.1229,-1.6241241894164027,0.0,2.1959218978881836,-2.0268073081970215,8.640696399808937e-39,1.990600824356079,5.05475931146697,-0.0,0.2941935956478119,-1.6526811758624476,0.0,0.005433754064142704,0.818587064743042,-0.0,0.0014678819570690393,0.7540283203125,0.0,-0.023621927946805954
894.0,1015.0,0.7549,0.6969,9.5707,-0.049,0.0298,-0.1229,-1.6240717373290003,0.0,2.1742138862609863,-2.0267794132232666,2.1019476964872256e-44,1.9343738555908203,5.05481173375205,-0.0,0.3051093816757202,-1.652649227772848,0.0,-0.001713692443445325,0.8185513019561768,-0.0,0.004577637650072575,0.7540364861488342,0.0,-0.009486576542258263
894.0,1015.0,0.7549,0.6969,9.5707,-0.049,0.0298,-0.1229,-1.6240798435606898,0.0,2.188455820083618,-2.026827335357666,-0.0,1.9234213829040527,5.054836022644796,-0.0,0.29441457986831665,-1.6526525656329554,0.0,-0.011169949546456337,0.8185108304023743,-0.0,0.000645610794890672,0.754036545753479,0.0,-0.0242406465113163
894.0,1015.0,0.7549,0.6969,9.5707,-0.049,0.0298,-0.1229,-1.6241280041136683,0.0,2.1883699893951416,-2.026798963546753,-0.0,1.9495420455932617,5.054855990200796,-0.0,0.2879520058631897,-1.652745548878805,0.0,-0.002889766823500395,0.8185431957244873,-0.0,0.0034829694777727127,0.7540121674537659,0.0,-0.03476710990071297
936.0,985.0,0.8016,0.4134,9.5007,-0.0476,0.0267,-0.1199,-1.6240717373290003,0.0,2.186905860900879,-2.026794910430908,-0.0,1.9510835409164429,5.054791646986761,-0.0,0.28517380356788635,-1.652677361165182,0.0,-0.007992158643901348,0.8185672760009766,-0.0,0.0006932306569069624,0.7540121078491211,0.0,-0.017191486433148384
936.0,985.0,0.8016,0.4134,9.5007,-0.0476,0.0267,-0.1199,-1.624063631097311,-2.1971329644543403e-08,2.1419601440429688,-2.026787042617798,-0.0,1.9471262693405151,5.054795372277059,-0.0,0.28647470474243164,-1.652689282094137,0.0,-0.003687736578285694,0.8185591697692871,-0.0,-0.01964396797120571,0.7540324926376343,0.0,3.162934444844723e-05
936.0,985.0,0.8016,0.4134,9.5007,-0.0476,0.0267,-0.1199,-1.624080320397848,-5.3058177697327263e-14,2.1388630867004395,-2.0267751216888428,-0.0,1.8710072040557861,5.05483968833045,-0.0,0.28696662187576294,-1.6527093092547815,0.0,-0.007075223606079817,0.8185553550720215,-0.0,-0.008432725444436073,0.7540403008460999,0.0,0.010045668110251427
936.0,985.0,0.8016,0.4134,9.5007,-0.0476,0.0267,-0.1199,-1.6240884266295375,-1.2812925583339537e-19,2.200962543487549,-2.0267629623413086,-0.0,1.964221715927124,5.054803567915716,-0.0,0.2820042669773102,-1.652689282094137,0.0,-0.004332795739173889,0.8185591101646423,-0.0,-0.004896336235105991,0.7539799213409424,0.0,-0.014129182323813438
936.0,985.0,0.8016,0.4134,9.5007,-0.0476,0.0267,-0.1199,-1.624080320397848,-3.094171068742301e-25,2.1830801963806152,-2.026834726333618,-0.0,1.9270119667053223,5.054831462889471,-0.0,0.29634079337120056,-1.652677361165182,0.0,-0.0069891586899757385,0.8185672760009766,-0.0,0.0006010641809552908,0.7539881467819214,0.0,0.03897562623023987
936.0,985.0,0.8016,0.4134,9.5007,-0.0476,0.0267,-0.1199,-1.6240564785399378,-7.472058993261771e-31,2.1983325481414795,-2.0267467498779297,-0.0,1.9550814628601074,5.054791646986761,-0.0,0.288120299577713,-1.652677361165182,0.0,0.010666421614587307,0.8185271620750427,-0.0,0.00016011693514883518,0.754044771194458,0.0,0.05557478591799736
936.0,985.0,0.8016,0.4134,9.5007,-0.0476,0.0267,-0.1199,-1.6240483723082484,-2.420852118141646e-38,2.196080207824707,-2.02675461769104,-0.0,1.9205440282821655,5.054803567915716,-0.0,0.2869158685207367,-1.652656380330221,0.0,-0.002858763560652733,0.8185669779777527,-0.0,-0.007396035362035036,0.7540003061294556,0.0,-0.0021567917428910732
936.0,985.0,0.8016,0.4134,9.5007,-0.0476,0.0267,-0.1199,-1.6240884266295375,-5.885453550164232e-44,2.188051223754883,-2.026758909225464,-0.0,1.924421787261963,5.05482770779685,-0.0,0.2887698709964752,-1.6526811758624476,0.0,0.020138196647167206,0.8184949159622192,-0.0,-0.00017474405467510223,0.7540043592453003,0.0,-0.005751046352088451
936.0,985.0,0.8016,0.4134,9.5007,-0.0476,0.0267,-0.1199,-1.6240998707213343,0.0,2.1809840202331543,-2.0267834663391113,-0.0,1.9727039337158203,5.05481173375205,-0.0,0.2916805148124695,-1.6526525656329554,0.0,0.0014513629721477628,0.8186193704605103,-0.0,-0.004826520569622517,0.7539799809455872,0.0,0.012032857164740562
936.0,985.0,0.8016,0.4134,9.5007,-0.0476,0.0267,-0.1199,-1.624035974542135,0.0,2.1311519145965576,-2.026803493499756,-0.0,1.9259004592895508,5.05483557560996,-0.0,0.29815417528152466,-1.6526606718646448,0.0,0.0007158177904784679,0.8185669779777527,-0.0,0.008120080456137657,0.7539358735084534,0.0,0.032070424407720566
936.0,985.0,0.8016,0.4134,9.5007,-0.0476,0.0267,-0.1199,-1.6240760288634242,0.0,2.223663330078125,-2.026834726333618,-0.0,1.9622440338134766,5.05482770779685,-0.0,0.2969571650028229,-1.6526687780963343,0.0,0.004796108230948448,0.8185952305793762,-0.0,0.00550473015755415,0.7539721727371216,0.0,0.01812770403921604
936.0,985.0,0.8016,0.4134,9.5007,-0.0476,0.0267,-0.1199,-1.624035974542135,0.0,2.16879940032959,-2.0267834663391113,-0.0,1.9586100578308105,5.054787534266271,-0.0,0.296263188123703,-1.6526411215411585,0.0,-0.005311066284775734,0.8185312151908875,-0.0,0.00014153099618852139,0.7539639472961426,0.0,-0.01149444654583931
936.0,985.0,0.8016,0.4134,9.5007,-0.0476,0.0267,-0.1199,-1.6240436039366664,0.0,2.186171054840088,-2.026794910430908,-0.0,1.9171637296676636,5.054815488844671,-0.0,0.29130202531814575,-1.6526573340045374,0.0,-0.01220549177378416,0.8185632228851318,-0.0,-0.012892162427306175,0.7539923191070557,0.0,-0.03371727466583252
936.0,985.0,0.8016,0.4134,9.5007,-0.0476,0.0267,-0.1199,-1.6241322956480921,0.0,2.1660521030426025,-2.026811361312866,-0.0,1.9714124202728271,5.054803567915716,-0.0,0.28612053394317627,-1.6526849905597132,0.0,0.008449241518974304,0.8185591697692871,-0.0,-0.009975896216928959,0.7540608644485474,0.0,-0.0035273022949695587
936.0,985.0,0.8016,0.4134,9.5007,-0.0476,0.0267,-0.1199,-1.6240483723082484,0.0,2.1831979751586914,-2.0267629623413086,-0.0,1.9408788681030273,5.054787534266271,-0.0,0.29182207584381104,-1.652616326008932,0.0,0.004864085465669632,0.8185349702835083,-0.0,0.0014880620874464512,0.7540364861488342,0.0,0.03639083728194237
913.0,968.0,0.8608,0.7029,9.5282,-0.0449,0.0104,-0.1148,-1.6240440807738246,0.0,2.211304187774658,-2.0268032550811768,-0.0,1.989518404006958,5.054779308825292,-0.0,0.2888287603855133,-1.6526687780963343,0.0,-0.00942494161427021,0.818611204624176,-0.0,-0.009974636137485504,0.7539923191070557,0.0,0.007464248221367598
913.0,968.0,0.8608,0.7029,9.5282,-0.0449,0.0104,-0.1148,-1.624075552026266,0.0,2.149381637573242,-2.0268306732177734,-0.0,1.935645341873169,5.054839658528127,-0.0,0.29300886392593384,-1.652677361165182,0.0,-0.0019518182380124927,0.8185751438140869,-0.0,-2.7251197025179863e-05,0.754016637802124,0.0,-0.01566222496330738
913.0,968.0,0.8608,0.7029,9.5282,-0.0449,0.0104,-0.1148,-1.6241241894164027,0.0,2.166774272918701,-2.0268073081970215,-0.0,1.9242111444473267,5.054803567915716,-0.0,0.2921280264854431,-1.6527093092547815,0.0,0.0098076481372118,0.8185431361198425,-0.0,-0.006767526268959045,0.7540525794029236,0.0,-0.04465445131063461
913.0,968.0,0.8608,0.7029,9.5282,-0.0449,0.0104,-0.1148,-1.62402405361318,0.0,2.2150795459747314,-2.026787042617798,-0.0,2.0037875175476074,5.054851907282629,-0.0,0.28330421447753906,-1.6526449362384241,0.0,0.0032055703923106194,0.8185829520225525,-0.0,0.0005518982652574778,0.7539840936660767,0.0,0.038648806512355804
913.0,968.0,0.8608,0.7029,9.5282,-0.0449,0.0104,-0.1148,-1.6240316830077113,0.0,2.1624226570129395,-2.026822805404663,-0.0,1.8959280252456665,5.054799484997549,-0.0,0.2777295708656311,-1.6526244322406214,0.0,0.0017377157928422093,0.8186033368110657,-0.0,-0.003214532509446144,0.7540125846862793,0.0,-0.0012818211689591408
913.0,968.0,0.8608,0.7029,9.5282,-0.0449,0.0104,-0.1148,-1.6240717373290003,0.0,2.163280725479126,-2.0268266201019287,-0.0,1.9581797122955322,5.054851817875662,-0.0,0.290435254573822,-1.6526649633990687,0.0,0.0014214960392564535,0.8185829520225525,-0.0,-0.009553649462759495,0.7539680600166321,0.0,-0.007200440391898155
913.0,968.0,0.8608,0.7029,9.5282,-0.0449,0.0104,-0.1148,-1.624063631097311,0.0,2.1943538188934326,-2.0267629623413086,-0.0,1.9264618158340454,5.054819571762838,-0.0,0.2936220169067383,-1.6526044050799769,0.0,-0.0056923916563391685,0.8186152577400208,-0.0,-0.012522482313215733,0.7540324330329895,0.0,-0.03368512913584709
913.0,968.0,0.8608,0.7029,9.5282,-0.0449,0.0104,-0.1148,-1.6240798435606898,0.0,2.1808807849884033,-2.0267629623413086,-0.0,1.977602243423462,5.054823654681005,-0.0,0.29673686623573303,-1.652689282094137,0.0,-0.016183383762836456,0.8185631632804871,-0.0,0.005490059033036232,0.7539721727371216,0.0,0.04623950645327568
913.0,968.0,0.8608,0.7029,9.5282,-0.0449,0.0104,-0.1148,-1.624080320397848,0.0,2.1631391048431396,-2.0267550945281982,-0.0,1.9083311557769775,5.054783451348104,-0.0,0.2896135151386261,-1.6526244322406214,0.0,0.007159124128520489,0.8185911178588867,-0.0,-0.0004350726376287639,0.7540080547332764,0.0,0.005615252070128918
913.0,968.0,0.8608,0.7029,9.5282,-0.0449,0.0104,-0.1148,-1.624063631097311,0.0,2.194051504135132,-2.026794910430908,-0.0,1.9388352632522583,5.054783510952749,-0.0,0.28575509786605835,-1.6526973883258265,0.0,0.012954123318195343,0.818535327911377,-0.0,-0.020990880206227303,0.7539878487586975,0.0,-0.0044199759140610695
913.0,968.0,0.8608,0.7029,9.5282,-0.0449,0.0104,-0.1148,-1.6240884266295375,0.0,2.1734390258789062,-2.026787519454956,-0.0,1.9531147480010986,5.054823654681005,-0.0,0.28344497084617615,-1.652644459401266,0.0,-0.0023288021329790354,0.818599283695221,-0.0,-0.007991284132003784,0.7540283203125,0.0,-0.0069478414952754974
913.0,968.0,0.8608,0.7029,9.5282,-0.0449,0.0104,-0.1148,-1.6240960560240687,0.0,2.172398567199707,-2.026798963546753,-0.0,1.9415632486343384,5.054799484997549,-0.0,0.2761078178882599,-1.6526849905597132,0.0,-0.001799162244424224,0.818562924861908,-0.0,0.0052922978065907955,0.7540081143379211,0.0,-0.009353959001600742
913.0,968.0,0.8608,0.7029,9.5282,-0.0449,0.0104,-0.1148,-1.624075552026266,0.0,2.163790464401245,-2.026787042617798,1.019380420075322e-06,1.957679033279419,5.05484368184165,-0.0,0.2819509506225586,-1.652673069630758,0.0,0.0076652998104691505,0.818535327911377,-0.0,-0.008421679958701134,0.7540524005889893,0.0,-0.03175503388047218
913.0,968.0,0.8608,0.7029,9.5282,-0.0449,0.0104,-0.1148,-1.6241041622557582,0.0,2.2042016983032227,-2.0267670154571533,2.4616834178731173e-12,1.9662737846374512,5.054823624878683,-0.0,0.2938931882381439,-1.652701203023092,0.0,0.001060993643477559,0.8185873627662659,-0.0,0.0033917706459760666,0.7540725469589233,0.0,0.002379398327320814
913.0,968.0,0.8608,0.7029,9.5282,-0.0449,0.0104,-0.1148,-1.6240998707213343,0.0,2.2223668098449707,-2.026791572570801,5.944676574358305e-18,1.9395909309387207,5.0548272905643366,-0.0,0.2799638509750366,-1.6526768843280237,0.0,0.004008207470178604,0.8185952305793762,-0.0,0.00352116534486413,0.7540319561958313,0.0,0.02550986409187317
906.0,996.0,0.5725,0.7328,9.3392,-0.048,0.024,-0.1193,-1.624092241326803,0.0,2.157891035079956,-2.026747226715088,1.925999339494992e-25,1.9639108180999756,5.054811703949728,-0.0,0.2853204607963562,-1.6526806990252894,0.0,-0.015821591019630432,0.8185669779777527,-0.0,-0.0026233762037009,0.7540483474731445,0.0,-0.020751886069774628
906.0,996.0,0.5725,0.7328,9.3392,-0.048,0.024,-0.1193,-1.6240841350951136,0.0,2.1879372596740723,-2.0267715454101562,4.6510620409776335e-31,1.8939943313598633,5.054803567915716,-0.0,0.29676467180252075,-1.6527169386493128,0.0,0.0007788967341184616,0.8185550570487976,-0.0,-0.003155479207634926,0.7540845274925232,0.0,-0.030161140486598015
906.0,996.0,0.5725,0.7328,9.3392,-0.048,0.024,-0.1193,-1.6240960560240687,0.0,2.1815924644470215,-2.0268030166625977,1.1231767269216802e-36,1.9756519794464111,5.054823654681005,-0.0,0.285300612449646,-1.6526806990252894,0.0,-0.0049902452155947685,0.818535327911377,-0.0,-0.005005915183573961,0.7540560960769653,0.000305061781546101,-0.020448999479413033
906.0,996.0,0.5725,0.7328,9.3392,-0.048,0.024,-0.1193,-1.6240998707213343,0.0,2.158689022064209,-2.026794910430908,2.712913826932846e-42,1.8887834548950195,5.054803567915716,-0.0,0.2882770299911499,-1.6527088324176233,0.0,-0.003402628004550934,0.8185751438140869,-0.0,-0.006848445627838373,0.7541245818138123,0.00027785819838754833,0.0332367941737175
906.0,996.0,0.5725,0.7328,9.3392,-0.048,0.024,-0.1193,-1.624092241326803,0.0,2.16853928565979,-2.0266993045806885,-0.0,1.9541457891464233,5.054795729904928,-0.0,0.2920296788215637,-1.6526969114886683,0.0,-0.009051108732819557,0.8185431361198425,-0.0,0.008882015943527222,0.754059910774231,0.00028128435951657593,-0.009320918470621109
906.0,996.0,0.5725,0.7328,9.3392,-0.048,0.024,-0.1193,-1.6241280041136683,0.0,2.183887243270874,-2.026794910430908,-0.0,1.9961721897125244,5.05481173375205,-0.0,0.28367480635643005,-1.6526926199542444,0.0,0.0032072768080979586,0.8185632228851318,-0.0,-0.0037352261133491993,0.7540560960769653,0.0002837667125277221,-0.05374450236558914
906.0,996.0,0.5725,0.7328,9.3392,-0.048,0.024,-0.1193,-1.6240879497923792,0.0,2.201493263244629,-2.026743173599243,-0.0,1.895096778869629,5.054807650833883,-0.0,0.28713053464889526,-1.6526888052569788,0.0,0.005973632447421551,0.8186153173446655,-0.0,0.0020806780084967613,0.7541204690933228,0.00033345035626553,-0.019549500197172165
906.0,996.0,0.5725,0.7328,9.3392,-0.048,0.024,-0.1193,-1.6241079769530238,-0.0002788380079437047,2.1740407943725586,-2.0267715454101562,-0.0,1.9664978981018066,5.054795729904928,-0.0,0.2846064865589142,-1.6527331511126917,0.0,0.0048881578259170055,0.8185751438140869,-0.0,7.859279867261648e-05,0.7541242837905884,0.00034782086731866,-0.014950479380786419
906.0,996.0,0.5725,0.7328,9.3392,-0.048,0.024,-0.1193,-1.6241198978819789,-0.0003154503065161407,2.1831698417663574,-2.026771068572998,-0.0,1.9441447257995605,5.0547552583511255,-0.0,0.292428195476532,-1.6526969114886683,0.0,-0.0017430461011826992,0.818543553352356,-0.0,-0.013165181502699852,0.7541284561157227,0.00036874483339488506,-0.028849022462964058
906.0,996.0,0.5725,0.7328,9.3392,-0.048,0.024,-0.1193,-1.6241160831847132,-0.0005356098408810794,2.182698965072632,-2.0267231464385986,-0.0,1.9788278341293335,5.054787564068594,-0.0,0.2851775288581848,-1.6527045408831995,0.0,0.0029511526226997375,0.8185591697692871,-0.0,0.005496622528880835,0.7541242837905884,0.0005209638620726764,0.034097373485565186
906.0,996.0,0.5725,0.7328,9.3392,-0.048,0.024,-0.1193,-1.6241642437376917,-0.0004944894462823868,2.190675735473633,-2.026815414428711,-0.0,1.9760537147521973,5.054811346321859,-0.0,0.2865937054157257,-1.652701203023092,0.0,-0.000821345834992826,0.8186030387878418,-0.0,0.008248562924563885,0.7541362047195435,0.0005378119531087577,-0.04430420324206352
906.0,996.0,0.5725,0.7328,9.3392,-0.048,0.024,-0.1193,-1.62412752727651,-0.0004948925925418735,2.209653854370117,-2.0268232822418213,-0.0,1.9197378158569336,5.054779338627615,-0.0,0.2823757231235504,-1.6526806990252894,0.0,0.0011457157088443637,0.8185469508171082,-0.0,-0.011845060624182224,0.754080057144165,0.0005084472359158099,0.008846897631883621
906.0,996.0,0.5725,0.7328,9.3392,-0.048,0.024,-0.1193,-1.6241079769530238,-0.00045239264727570117,2.1613621711730957,-2.026798963546753,0.00011471386096673086,1.9815282821655273,5.054795729904928,-0.0,0.28749915957450867,-1.6526849905597132,0.0,0.0018890923820436,0.8185751438140869,-0.0,0.005744252819567919,0.7541204690933228,0.00037979503395035863,-0.004507177509367466
906.0,996.0,0.5725,0.7328,9.3392,-0.048,0.024,-0.1193,-1.624159952203268,-0.0003573363646864891,2.152291774749756,-2.0267393589019775,0.0010670027695596218,1.9662619829177856,5.0547953126724146,-0.0,0.2917109429836273,-1.6526888052569788,0.0,0.00032030558213591576,0.8185710906982422,-0.0,-0.017325062304735184,0.7541122436523438,0.0003030430234503001,-0.016855135560035706
930.0,997.0,0.7854,0.6287,9.6413,-0.035,0.0254,-0.1112,-1.6241075001158656,-0.00038403758662752807,2.1683170795440674,-2.026719331741333,0.0009223832166753709,1.941545009613037,5.054819571762838,-0.0,0.28977030515670776,-1.6527045408831995,0.0,-0.008809240534901619,0.8185751438140869,-0.0,-0.0011134223314002156,0.754080057144165,0.0003025227633770555,0.007678519003093243
930.0,997.0,0.7854,0.6287,9.6413,-0.035,0.0254,-0.1112,-1.6241280041136683,-0.000439737515989691,2.1715612411499023,-2.0267152786254883,0.0006738856318406761,1.933877944946289,5.05483557560996,-0.0,0.29058778285980225,-1.6526725927936,0.0,-0.0009538219310343266,0.8185830116271973,-0.0,-0.0033862392883747816,0.7541201710700989,0.00024713671882636845,0.007086466066539288
930.0,997.0,0.7854,0.6287,9.6413,-0.035,0.0254,-0.1112,-1.6241442165770472,-0.0009724083938635886,2.171995162963867,-2.026702880859375,0.00049024005420506,1.9547309875488281,5.0548559603984735,-0.0,0.291239857673645,-1.6527207533465784,0.0,-0.008549632504582405,0.8185791969299316,-0.0,-0.007080554962158203,0.7540962100028992,0.0001853636058513075,-0.018911954015493393
930.0,997.0,0.7854,0.6287,9.6413,-0.035,0.0254,-0.1112,-1.6241799793639125,-0.0016306816833093762,2.165069580078125,-2.0267465114593506,0.0003852748195640743,2.004589319229126,5.05483557560996,-0.0,0.27185988426208496,-1.6526926199542444,0.0,0.0005730459233745933,0.8185908794403076,-0.0,-0.00025173649191856384,0.754080057144165,0.0001615766086615622,0.003032837063074112
930.0,997.0,0.7854,0.6287,9.6413,-0.035,0.0254,-0.1112,-1.6242081127562464,-0.002898351987823844,2.187908172607422,-2.0268070697784424,0.0003173378645442426,1.9309606552124023,5.05481173375205,-0.0,0.2771274745464325,-1.6526849905597132,0.0,-0.0014473319752141833,0.8186070919036865,-0.0,0.0028170174919068813,0.7541163563728333,0.00014586359611712396,-0.012241583317518234
930.0,997.0,0.7854,0.6287,9.6413,-0.035,0.0254,-0.1112,-1.624240060845846,-0.004588093608617783,2.155372142791748,-2.026743173599243,0.00026977184461429715,1.964591383934021,5.054803567915716,-0.0,0.2874954640865326,-1.6526926199542444,0.0,0.011198630556464195,0.8185989856719971,-0.0,0.00671782810240984,0.7541163563728333,0.0001329364167759195,-0.0014530429616570473
930.0,997.0,0.7854,0.6287,9.6413,-0.035,0.0254,-0.1112,-1.6242476902403773,-0.005495424848049879,2.203056812286377,-2.02673077583313,0.0002737061877269298,1.9211061000823975,5.054787564068594,-0.0,0.3007047772407532,-1.6526368300067347,0.0,0.00959289725869894,0.8185989856719971,-0.0,6.1516184359788895e-06,0.7541242837905884,0.00012211409921292216,-0.05684471130371094
930.0,997.0,0.7854,0.6287,9.6413,-0.035,0.0254,-0.1112,-1.6243201694884242,-0.006110374815762043,2.1490249633789062,-2.0267512798309326,0.00024214634322561324,1.94596266746521,5.054815488844671,-0.0,0.2905195951461792,-1.6526525656329554,0.0,-0.003038584254682064,0.8186350464820862,-0.0,0.0029283761978149414,0.754140317440033,0.00013550509174820036,-0.014039959758520126
930.0,997.0,0.7854,0.6287,9.6413,-0.035,0.0254,-0.1112,-1.6243721447386683,-0.005204443354159594,2.217113971710205,-2.0267388820648193,0.00021711089357268065,1.9708839654922485,5.054831880121984,-0.0,0.30342042446136475,-1.6526687780963343,0.0,0.005607496947050095,0.8186271786689758,-0.0,0.000615948811173439,0.7541283965110779,0.00012601840717252344,0.010660465806722641
930.0,997.0,0.7854,0.6287,9.6413,-0.035,0.0254,-0.1112,-1.624387880364889,-0.0046742758713662624,2.1721737384796143,-2.026766777038574,0.00019080773927271366,1.979264259338379,5.0548196015651605,-0.0,0.29155439138412476,-1.6526687780963343,0.0,-0.0011769626289606094,0.818562924861908,-0.0,0.0058191209100186825,0.7541081309318542,0.00014710583491250873,-0.02970036491751671
930.0,997.0,0.7854,0.6287,9.6413,-0.035,0.0254,-0.1112,-1.6244799099364222,-0.005409490782767534,2.171840190887451,-2.0267627239227295,0.0001999006635742262,1.9812417030334473,5.054803955345907,-0.0,0.28890126943588257,-1.652677361165182,0.0,0.009811384603381157,0.8185350298881531,-0.0,-0.004132959526032209,0.7540838718414307,0.00012497561692725867,-0.03591771423816681
930.0,997.0,0.7854,0.6287,9.6413,-0.035,0.0254,-0.1112,-1.624484201470846,-0.0056168255396187305,2.1858749389648438,-2.0267069339752197,0.00018453202210366726,1.8877780437469482,5.054808038264074,-0.0,0.27677300572395325,-1.6527331511126917,0.0,-0.001826074323616922,0.8186513185501099,-0.0,-0.0033721826039254665,0.7541806101799011,0.0011508709285408258,0.006918182596564293
930.0,997.0,0.7854,0.6287,9.6413,-0.035,0.0254,-0.1112,-1.6245280704894007,-0.005429263226687908,2.1594254970550537,-2.026719331741333,0.0001713567180559039,2.0068657398223877,5.054799902230062,-0.0,0.28374043107032776,-1.6526806990252894,0.0,-0.01071242243051529,0.818599283695221,-0.0,-0.014520435594022274,0.754123866558075,0.001773077412508428,-0.04812159389257431
930.0,997.0,0.7854,0.6287,9.6413,-0.035,0.0254,-0.1112,-1.6245643101134242,-0.004070109687745571,2.13997483253479,-2.0267348289489746,0.00015101410099305212,1.9167802333831787,5.054787653475561,-0.0,0.2834996283054352,-1.6526449362384241,0.0,0.008074774406850338,0.8185826539993286,-0.0,-0.004176409915089607,0.7542003393173218,0.0023705956991761923,0.012772735208272934
930.0,997.0,0.7854,0.6287,9.6413,-0.035,0.0254,-0.1112,-1.624568601647848,-0.0027830591425299644,2.154770612716675,-2.0267274379730225,0.001095006475225091,1.9958386421203613,5.054783570557394,-0.0,0.2868840992450714,-1.6526930967914026,0.0,0.002257969230413437,0.8185951113700867,-0.0,-0.007677600719034672,0.7542367577552795,0.0029623655136674643,0.019797012209892273
906.0,985.0,0.8225,0.8112,9.344,-0.0374,0.0269,-0.1168,-1.6245876751341761,-0.0021267568226903677,2.1331357955932617,-2.0267069339752197,0.0013375368434935808,1.9623024463653564,5.054812180786886,-0.0,0.2862464487552643,-1.6526525656329554,0.0,-0.009593436494469643,0.8186027407646179,-0.0,-0.001855131471529603,0.754204511642456,0.0039451150223612785,0.02154400758445263
906.0,985.0,0.8225,0.8112,9.344,-0.0374,0.0269,-0.1168,-1.6245833835997523,-0.0019548360724002123,2.12825870513916,-2.0267109870910645,0.0015573580749332905,1.9502205848693848,5.054779428034582,-0.0,0.27683547139167786,-1.6526687780963343,0.0,-0.002508349483832717,0.8186391592025757,-0.0,0.0006447660271078348,0.754240095615387,0.004629818256944418,0.018347257748246193
906.0,985.0,0.8225,0.8112,9.344,-0.0374,0.0269,-0.1168,-1.6246196232237757,-0.002040731953456998,2.124211549758911,-2.026691436767578,0.003147013019770384,1.9652156829833984,5.05479575970725,-0.0,0.2855304479598999,-1.652656380330221,0.0,-0.0054323794320225716,0.8185830116271973,-0.0,0.004880920052528381,0.7543166875839233,0.004998062737286091,0.03493816778063774
906.0,985.0,0.8225,0.8112,9.344,-0.0374,0.0269,-0.1168,-1.6246239147581996,-0.0019111623987555504,2.1478137969970703,-2.026667356491089,0.004949147813022137,1.9687302112579346,5.054751562863149,-0.0,0.2803894877433777,-1.652673069630758,0.0,-0.005936203524470329,0.8186631798744202,-0.0,-0.0032926066778600216,0.7543120980262756,0.004624663386493921,0.05160992965102196
906.0,985.0,0.8225,0.8112,9.344,-0.0374,0.0269,-0.1168,-1.62461580852651,-0.001852903631515801,2.1114563941955566,-2.0266034603118896,0.005699630826711655,1.9245386123657227,5.054795729904928,-0.0,0.27552664279937744,-1.6526449362384241,0.0,-0.013034597039222717,0.818666934967041,-0.0,-0.0034431314561516047,0.7543158531188965,0.004845153074711561,0.10446377098560333
906.0,985.0,0.8225,0.8112,9.344,-0.0374,0.0269,-0.1168,-1.624643465081686,-0.0017460061935707927,2.1220242977142334,-2.0264995098114014,0.0054943435825407505,1.9521262645721436,5.054828274040975,-0.0,0.2728656530380249,-1.6527131239520472,0.0,-0.015228635631501675,0.8186068534851074,-0.0,0.005324994213879108,0.7543759942054749,0.005694428458809853,0.06641596555709839
906.0,985.0,0.8225,0.8112,9.344,-0.0374,0.0269,-0.1168,-1.6246634922423304,-0.0017614986281841993,2.142815589904785,-2.0265512466430664,0.006540482398122549,1.9871187210083008,5.0547556457813165,-0.00010246556485071778,0.27632683515548706,-1.652656380330221,0.0,-0.008181000128388405,0.8186472058296204,-0.0,0.0033793533220887184,0.7544364929199219,0.006532551720738411,0.06304621696472168
906.0,985.0,0.8225,0.8112,9.344,-0.0374,0.0269,-0.1168,-1.6246358356871546,-0.0018489508656784892,2.143618583679199,-2.0264995098114014,0.00700517138466239,1.9491881132125854,5.054812270193853,-9.596592281013727e-05,0.27702444791793823,-1.6526411215411585,0.0,-0.018475018441677094,0.8186430931091309,-0.0,0.006901637185364962,0.7545127868652344,0.006928168702870607,0.0846821665763855
906.0,985.0,0.8225,0.8112,9.344,-0.0374,0.0269,-0.1168,-1.6246715984740199,-0.002450416563078761,2.0997071266174316,-2.0264711380004883,0.006551402620971203,1.9216054677963257,5.054772156267919,-9.019521530717611e-05,0.26647883653640747,-1.6526849905597132,0.0,-0.006254085339605808,0.8186027407646179,-0.0,0.01200034562498331,0.7545045018196106,0.007732744794338942,0.12747228145599365
906.0,985.0,0.8225,0.8112,9.344,-0.0374,0.0269,-0.1168,-1.6246997318663539,-0.0029087020084261894,2.0875771045684814,-2.026423692703247,0.006707835476845503,1.9552395343780518,5.054803985148229,-0.00010209016181761399,0.2628093659877777,-1.6526687780963343,3.262704273421235e-10,-0.005533202551305294,0.818626880645752,-0.0,0.008753296919167042,0.7545924782752991,0.008277610875666142,0.09540428221225739
906.0,985.0,0.8225,0.8112,9.344,-0.0374,0.0269,-0.1168,-1.62469544033193,-0.0037617760244756937,2.106539726257324,-2.026371717453003,0.006716790609061718,1.9796991348266602,5.054714816599645,-0.00012550337123684585,0.2618847191333771,-1.6526535193072718,5.929802801535973e-15,-0.010440315119922161,0.8185586333274841,-0.0,0.017701780423521996,0.7546083331108093,0.007678608875721693,0.11611296981573105
906.0,985.0,0.8225,0.8112,9.344,-0.0374,0.0269,-0.1168,-1.6247836552061976,-0.004772590007632971,2.0933985710144043,-2.0263314247131348,0.006361234933137894,1.9626719951629639,5.054767596512594,-0.00023313003475777805,0.26628920435905457,-1.6526535193072718,1.6505823538751834e-18,-0.006944725289940834,0.8186472058296204,-0.0,0.009726231917738914,0.7546719312667847,0.007768834009766579,0.06354989111423492
906.0,985.0,0.8225,0.8112,9.344,-0.0374,0.0269,-0.1168,-1.624819894830221,-0.005125782918184996,2.108062744140625,-2.0262715816497803,0.005530286580324173,1.9614185094833374,5.0547393439109705,-0.0002886287111323327,0.24526110291481018,-1.6526644865619105,4.594456673590822e-22,-0.01590508036315441,0.8186628818511963,-0.0,0.013728643767535686,0.7546922564506531,0.006775925867259502,0.0833759531378746
906.0,985.0,0.8225,0.8112,9.344,-0.0374,0.0269,-0.1168,-1.6248237095274867,-0.004961875267326832,2.048628807067871,-2.0262436866760254,0.005202272906899452,1.9667551517486572,5.0547188995178125,-0.0005932688363827765,0.2542135715484619,-1.652649227772848,1.2788839199524862e-25,-2.905272413045168e-05,0.8186628818511963,-0.0,0.016567517071962357,0.7547361850738525,0.0057134078815579414,0.04834842309355736
906.0,985.0,0.8225,0.8112,9.344,-0.0374,0.0269,-0.1168,-1.6248799763121546,-0.005098829045891762,2.050532341003418,-2.0261754989624023,0.004641203675419092,1.940446138381958,5.054694998055258,-0.0005860720993950963,0.2478635609149933,-1.6526411215411585,3.559820598877652e-29,-0.0157377440482378,0.8186472058296204,-0.0,0.0178813673555851,0.7547601461410522,0.005542779341340065,0.10610940307378769
929.0,1014.0,0.5749,0.5228,9.4762,-0.0362,0.0232,-0.1011,-1.6249076328673304,-0.007018325384706259,2.014312267303467,-2.026183605194092,0.0037712804041802883,1.9720515012741089,5.054751741677084,-0.0005545697640627623,0.24213442206382751,-1.652649227772848,9.90889207839386e-33,0.0011589925270527601,0.8186109066009521,-0.0,0.02274901419878006,0.754775881767273,0.0044401418417692184,0.07619133591651917
929.0,1014.0,0.5749,0.5228,9.4762,-0.0362,0.0232,-0.1011,-1.6249152622618617,-0.009388539008796215,2.0418591499328613,-2.0262155532836914,0.0032588685862720013,1.9804176092147827,5.054776179581442,-0.0005610594525933266,0.23802874982357025,-1.6526573340045374,0.00013524932728614658,-0.010263959877192974,0.8186349868774414,-0.0,0.0286228246986866,0.7548161149024963,0.003920682705938816,0.05070322006940842
929.0,1014.0,0.5749,0.5228,9.4762,-0.0362,0.0232,-0.1011,-1.6249715290465296,-0.009500418789684772,2.021125555038452,-2.0261871814727783,0.0032515372149646282,1.9508728981018066,5.054731237679281,-0.0004844695795327425,0.24347969889640808,-1.6526206175433558,0.0001910963619593531,-0.01833748072385788,0.8186550736427307,8.66841510287486e-05,0.013011734932661057,0.7548519968986511,0.0037015818525105715,0.09299077838659286
929.0,1014.0,0.5749,0.5228,9.4762,-0.0362,0.0232,-0.1011,-1.6250673733153285,-0.008862204849720001,2.006408452987671,-2.026087522506714,0.004404745995998383,1.9707227945327759,5.054687428265371,-0.00043504551285877824,0.2265019416809082,-1.6526768843280237,0.0001991035242099315,-0.006519277114421129,0.8186628818511963,8.056707156356424e-05,0.02291996404528618,0.7548759579658508,0.0036713527515530586,0.029858317226171494
929.0,1014.0,0.5749,0.5228,9.4762,-0.0362,0.0232,-0.1011,-1.6251679859557093,-0.009455752559006214,1.9919934272766113,-2.02605938911438,0.0044906409457325935,1.9458937644958496,5.05472348907546,-0.0003649696009233594,0.21663177013397217,-1.6526292006122034,0.0002078427205560729,0.009207827039062977,0.8186631798744202,9.073656110558659e-05,0.03092379868030548,0.75490403175354,0.0041878423653542995,0.06906887888908386
929.0,1014.0,0.5749,0.5228,9.4762,-0.0362,0.0232,-0.1011,-1.625195642510885,-0.010009372606873512,2.0075948238372803,-2.026095390319824,0.004408078733831644,1.970487117767334,5.054719406157293,-0.00040687405271455646,0.22033314406871796,-1.6525967756854456,0.0003327680751681328,0.017274774610996246,0.8186309337615967,8.730187255423516e-05,0.022767148911952972,0.7549158930778503,0.005082304589450359,0.04994463548064232
929.0,1014.0,0.5749,0.5228,9.4762,-0.0362,0.0232,-0.1011,-1.6252590618529261,-0.010891805402934551,1.9498710632324219,-2.026043653488159,0.003963416907936335,1.9376194477081299,5.054723518877783,-0.00048708365648053586,0.21674996614456177,-1.652649227772848,0.00032865320099517703,-0.006035822443664074,0.8186870217323303,8.326375973410904e-05,0.021896954625844955,0.7549962997436523,0.0059716240502893925,0.022311847656965256
929.0,1014.0,0.5749,0.5228,9.4762,-0.0362,0.0232,-0.1011,-1.6253029308714808,-0.011037489399313927,1.9192075729370117,-2.025991201400757,0.003883093362674117,1.9383175373077393,5.054707485228338,-0.0004268232441972941,0.2058376669883728,-1.6526053587542933,0.0003245834377594292,0.0018654767191037536,0.8186228275299072,7.958248897921294e-05,0.043063268065452576,0.755012035369873,0.0071619972586631775,0.05297073721885681
929.0,1014.0,0.5749,0.5228,9.4762,-0.0362,0.0232,-0.1011,-1.6253835163512171,-0.010524263605475426,1.9629545211791992,-2.0260074138641357,0.0046516102738678455,1.9591801166534424,5.054711568146505,-0.000398639211198315,0.22277548909187317,-1.652576748524801,0.0003209613205399364,0.01414051279425621,0.8186588287353516,8.725678344490007e-05,0.03987451270222664,0.7550803422927856,0.007347483653575182,0.0980536937713623
929.0,1014.0,0.5749,0.5228,9.4762,-0.0362,0.0232,-0.1011,-1.6254474125304164,-0.009705104865133762,1.9604523181915283,-2.0260000228881836,0.004667582456022501,1.9724701642990112,5.054703432112493,-0.00038059469079598784,0.21306860446929932,-1.6526010672198694,0.00033616923610679805,0.0040105548687279224,0.818626880645752,8.53028250276111e-05,0.03353990986943245,0.7551079988479614,0.00852002203464508,0.1090078055858612
929.0,1014.0,0.5749,0.5228,9.4762,-0.0362,0.0232,-0.1011,-1.62553133587026,-0.00981032382696867,1.928064227104187,-2.025923490524292,0.00560249388217926,1.9771486520767212,5.054695564299383,-0.0003562438359949738,0.2145664393901825,-1.6525524298297327,0.0003022691234946251,0.008970747701823711,0.8186469078063965,8.197349961847067e-05,0.019143303856253624,0.755168080329895,0.010273808613419533,0.12690331041812897
929.0,1014.0,0.5749,0.5228,9.4762,-0.0362,0.0232,-0.1011,-1.6256357632079066,-0.011663821525871754,1.9155079126358032,-2.025843858718872,0.006392423529177904,1.9427192211151123,5.054735797434606,-0.0002794890897348523,0.1979553997516632,-1.6526530424701136,0.0002655118878465146,0.01553138718008995,0.8186951279640198,7.791815005475655e-05,0.031641434878110886,0.7552561163902283,0.01287226751446724,0.09349820762872696
929.0,1014.0,0.5749,0.5228,9.4762,-0.0362,0.0232,-0.1011,-1.625674387017721,-0.01431831531226635,1.8854331970214844,-2.0257954597473145,0.007466007024049759,1.9932360649108887,5.054687428265371,-0.00028041168116033077,0.2143400013446808,-1.652633015309469,0.00026991229970008135,0.02343476377427578,0.8185984492301941,7.513055606978014e-05,0.027465948835015297,0.7553641200065613,0.014072773046791553,0.11175954341888428
929.0,1014.0,0.5749,0.5228,9.4762,-0.0362,0.0232,-0.1011,-1.6257630787291468,-0.014259563758969307,1.9172561168670654,-2.0257480144500732,0.008341399021446705,1.9904379844665527,5.0547557947929285,-0.0002438475494273007,0.1939672827720642,-1.652649227772848,0.00027327367570251226,0.013812695629894733,0.818638801574707,8.285249350592494e-05,0.020633840933442116,0.7554641962051392,0.015790807083249092,0.06459567695856094
929.0,1014.0,0.5749,0.5228,9.4762,-0.0362,0.0232,-0.1011,-1.6258756122984828,-0.015391075983643532,1.9078607559204102,-2.0257277488708496,0.010100709274411201,2.0152454376220703,5.054715204029836,-0.0002457754744682461,0.19973483681678772,-1.6526253859149378,0.00025733798975124955,-0.00032931799069046974,0.8186588287353516,8.012996113393456e-05,0.023512115702033043,0.755552351474762,0.016676537692546844,0.04443192109465599
944.0,990.0,0.009,0.5462,8.9862,-0.0208,-0.018,-0.0764,-1.6259309254088343,-0.016207512468099594,1.89649498462677,-2.025655508041382,0.012221776880323887,1.944108247756958,5.054695564299383,-0.00022383082250598818,0.19960561394691467,-1.6526172796832483,0.00026378274196758866,0.0009675642941147089,0.8186708092689514,1.7125024953656975e-07,0.04550962895154953,0.755664050579071,0.01957087777554989,0.12056909501552582
944.0,990.0,0.009,0.5462,8.9862,-0.0208,-0.018,-0.0764,-1.6260386906065882,-0.017404938116669655,1.9004403352737427,-2.025575637817383,0.013748906552791595,2.0363874435424805,5.054703402310171,-0.00023103431158233434,0.1897573173046112,-1.6526168028460901,0.0002674245333764702,0.014931218698620796,0.8186349868774414,4.7668136798906247e-11,0.040836263447999954,0.7557319402694702,0.02150687202811241,0.07423631846904755
944.0,990.0,0.009,0.5462,8.9862,-0.0208,-0.018,-0.0764,-1.6261750660338343,-0.020368380472064018,1.8445980548858643,-2.025515556335449,0.014254098758101463,1.9601075649261475,5.054695594101705,-0.00022804677428212017,0.2021632194519043,-1.6525610128985804,0.0002711219131015241,0.002507708501070738,0.818666934967041,1.3268602559182111e-14,0.04835301637649536,0.7559040188789368,0.024234376847743988,0.09092559665441513
944.0,990.0,0.009,0.5462,8.9862,-0.0208,-0.018,-0.0764,-1.6262828312315882,-0.025451377034187317,1.8397729396820068,-2.02541184425354,0.015729764476418495,2.016977310180664,5.054719406157293,-0.00023298918677028269,0.2050025314092636,-1.652581516896383,0.00034423574106767774,0.014963164925575256,0.8186788558959961,3.693363916591106e-18,0.03262094408273697,0.7560722827911377,0.026386259123682976,0.04938632249832153
944.0,990.0,0.009,0.5462,8.9862,-0.0208,-0.018,-0.0764,-1.6265021763243617,-0.028184235095977783,1.8927173614501953,-2.0252761840820312,0.01759961247444153,2.0350229740142822,5.054679262429037,-0.00023618052364327013,0.1974542886018753,-1.6525691191302698,0.00036800504312850535,0.021808285266160965,0.8186910152435303,6.712506426035698e-23,0.032593097537755966,0.7562962174415588,0.02883009798824787,0.06555601209402084
944.0,990.0,0.009,0.5462,8.9862,-0.0208,-0.018,-0.0764,-1.6266628704466761,-0.03173457458615303,1.8592653274536133,-2.025195837020874,0.019842013716697693,1.9981160163879395,5.054719793587484,-0.00021598723833449185,0.19134318828582764,-1.652581516896383,0.00035784614738076925,0.016585731878876686,0.818666934967041,1.8684506422341966e-26,0.04087803512811661,0.7564479112625122,0.030449900776147842,0.1106695681810379
944.0,990.0,0.009,0.5462,8.9862,-0.0208,-0.018,-0.0764,-1.6268707714476527,-0.035991210490465164,1.8367993831634521,-2.0250284671783447,0.02119104191660881,1.9700446128845215,5.054671096592703,-0.00022381234157364815,0.17540152370929718,-1.652581516896383,0.00034921025508083403,0.02752140909433365,0.818682849407196,5.2009008401284314e-30,0.03792374208569527,0.7566680312156677,0.0317271389067173,0.05971446633338928
944.0,990.0,0.009,0.5462,8.9862,-0.0208,-0.018,-0.0764,-1.627122541467184,-0.040469009429216385,1.8397161960601807,-2.024836301803589,0.02208736352622509,2.012504816055298,5.054691481381216,-0.00027187311206944287,0.18646612763404846,-1.6526091734515589,0.0003100338508374989,0.020748892799019814,0.818682849407196,1.447689802317781e-33,0.040107935667037964,0.7568959593772888,0.0332195907831192,0.07974803447723389
944.0,990.0,0.009,0.5462,8.9862,-0.0208,-0.018,-0.0764,-1.6273657284178675,-0.045632731169462204,1.8307874202728271,-2.024751901626587,0.023890798911452293,2.0291402339935303,5.054719793587484,-0.0002311781281605363,0.19219136238098145,-1.6525729338275355,0.0003013626264873892,0.03156321868300438,0.8186269402503967,4.029698075108322e-37,0.0428464338183403,0.7571039795875549,0.03566490858793259,0.08823457360267639
944.0,990.0,0.009,0.5462,8.9862,-0.0208,-0.018,-0.0764,-1.627674242059225,-0.05245053768157959,1.8160368204116821,-2.0246481895446777,0.024243056774139404,2.016481399536133,5.054707485228338,-0.0002396435011178255,0.17633101344108582,-1.6525972525226038,0.0002631982206366956,0.02836700528860092,0.8186869025230408,5.8626890677260235e-05,0.03696007281541824,0.7573035955429077,0.03706817328929901,0.100879967212677
944.0,990.0,0.009,0.5462,8.9862,-0.0208,-0.018,-0.0764,-1.6279860935606898,-0.06133079528808594,1.7861502170562744,-2.0243921279907227,0.02548162266612053,1.9929890632629395,5.054691451578893,-0.00021203946380410343,0.17048519849777222,-1.6525772253619593,0.00022961666400078684,0.013979902490973473,0.818614661693573,6.0489619500003755e-05,0.03410502150654793,0.7575516104698181,0.03900603950023651,0.12029865384101868
944.0,990.0,0.009,0.5462,8.9862,-0.0208,-0.018,-0.0764,-1.6283894977965296,-0.06799422204494476,1.7906804084777832,-2.0242764949798584,0.02570190839469433,1.9925137758255005,5.054723518877783,-0.00021916578407399356,0.18557573854923248,-1.6526091734515589,0.00020363464136607945,0.01524773333221674,0.8186749815940857,5.814598989672959e-05,0.0475175604224205,0.7577957510948181,0.04189857468008995,0.07718213647603989
944.0,990.0,0.009,0.5462,8.9862,-0.0208,-0.018,-0.0764,-1.6289855442442835,-0.07770261913537979,1.7272734642028809,-2.0240087509155273,0.026502156630158424,2.0238873958587646,5.054780262499609,-0.0001940376532729715,0.1741800606250763,-1.65259296098818,0.00020643013704102486,0.00625214958563447,0.8186707496643066,5.528840847546235e-05,0.04959983378648758,0.7581396698951721,0.04704263061285019,0.12271544337272644
944.0,990.0,0.009,0.5462,8.9862,-0.0208,-0.018,-0.0764,-1.629449029962057,-0.08159331232309341,1.7224876880645752,-2.023897171020508,0.027703838422894478,2.027681827545166,5.05472760179595,-0.00017762409697752446,0.1764097511768341,-1.652552906666891,0.00018795329378917813,0.014486154541373253,0.818662703037262,5.33230158907827e-05,0.035463638603687286,0.75848788022995,0.051890745759010315,0.14308130741119385
948.0,8190.0,0.4792,0.7962,9.3404,-0.0402,-0.1097,-0.0345,-1.6299649677672328,-0.07926785200834274,1.7679778337478638,-2.023757219314575,0.027069473639130592,2.025564193725586,5.054659116059103,-0.00016377080464735627,0.17275194823741913,-1.6525610128985804,0.00017251192184630781,0.023677296936511993,0.8185986876487732,5.149253775016405e-05,0.03212563693523407,0.7588117122650146,0.05695236846804619,0.14171376824378967
948.0,8190.0,0.4792,0.7962,9.3404,-0.0402,-0.1097,-0.0345,-1.6304322681822718,-0.0760391429066658,1.734354019165039,-2.0235769748687744,0.025208570063114166,2.0212316513061523,5.0546874580676935,-0.00018785838619805872,0.1793142855167389,-1.6526172796832483,0.00015941538731567562,0.021984003484249115,0.8186668753623962,4.978356810170226e-05,0.04581572860479355,0.7591473460197449,0.06127222627401352,0.17956799268722534
948.0,8190.0,0.4792,0.7962,9.3404,-0.0402,-0.1097,-0.0345,-1.630888124505514,-0.07361302524805069,1.7648181915283203,-2.0234692096710205,0.02035089023411274,1.9864978790283203,5.054651307850637,-0.0016195883508771658,0.1781427562236786,-1.652633015309469,0.0001481669896747917,0.016493096947669983,0.818726658821106,2.733790616105125e-08,0.0403573140501976,0.7595511078834534,0.06746877729892731,0.21930493414402008
948.0,8190.0,0.4792,0.7962,9.3404,-0.0402,-0.1097,-0.0345,-1.6313635311522425,-0.07901308685541153,1.7599990367889404,-2.0234057903289795,0.015685318037867546,1.982255220413208,5.054671901255407,-0.005559655837714672,0.18204088509082794,-1.6525610128985804,0.000138401665026322,0.00829391460865736,0.8186469078063965,7.609607388658901e-12,0.043535102158784866,0.7600679397583008,0.07155589014291763,0.1953405886888504
948.0,8190.0,0.4792,0.7962,9.3404,-0.0402,-0.1097,-0.0345,-1.6318112812437953,-0.08776605874300003,1.702486276626587,-2.023277521133423,0.011969704180955887,2.045200824737549,5.054611640959539,-0.014023150317370892,0.1645740121603012,-1.6525972525226038,0.00014835101319476962,0.026074886322021484,0.8186750411987305,2.1181621621881464e-15,0.03341008350253105,0.7604594230651855,0.07534417510032654,0.2028811275959015
948.0,8190.0,0.4792,0.7962,9.3404,-0.0402,-0.1097,-0.0345,-1.632463117639059,-0.09128803759813309,1.7466049194335938,-2.0232090950012207,0.011848347261548042,2.0064711570739746,5.054507899075308,-0.02028609812259674,0.15502312779426575,-1.6525653044330042,0.00011119854025309905,0.005855911877006292,0.8186869621276855,3.8496552730866025e-20,0.03127412497997284,0.7610917091369629,0.07947660982608795,0.14685724675655365
948.0,8190.0,0.4792,0.7962,9.3404,-0.0402,-0.1097,-0.0345,-1.6329904995360316,-0.09276983141899109,1.718754768371582,-2.0230889320373535,0.014286300167441368,2.0134377479553223,5.054407316237249,-0.01763846166431904,0.1523313969373703,-1.6525772253619593,0.00012216625327710062,0.02463725209236145,0.8186428546905518,1.0715656977998805e-23,0.03450640290975571,0.7615550756454468,0.08176612854003906,0.1954817771911621
948.0,8190.0,0.4792,0.7962,9.3404,-0.0402,-0.1097,-0.0345,-1.6335216961302699,-0.09542271494865417,1.7023462057113647,-2.0230133533477783,0.016928499564528465,2.0357444286346436,5.054303216725149,-0.014823365956544876,0.1429567188024521,-1.6525333563434046,0.00012394721852615476,0.02818554826080799,0.818610668182373,2.9827422086899383e-27,0.039872247725725174,0.7621437311172485,0.08186675608158112,0.1530020534992218
948.0,8190.0,0.4792,0.7962,9.3404,-0.0402,-0.1097,-0.0345,-1.6341945133604945,-0.09973891079425812,1.7649643421173096,-2.022897243499756,0.020119111984968185,2.011915683746338,5.054227727442541,-0.013773118145763874,0.1445031762123108,-1.6525772253619593,0.00012565110228024423,0.038602229207754135,0.8186628818511963,8.302573023586656e-31,0.02871362864971161,0.7625508308410645,0.07970971614122391,0.12751883268356323
948.0,8190.0,0.4792,0.7962,9.3404,-0.0402,-0.1097,-0.0345,-1.6348096332945765,-0.10956782847642899,1.715494155883789,-2.0228049755096436,0.02222270518541336,2.023846387863159,5.054103302746572,-0.016359826549887657,0.1598651111125946,-1.6525653044330042,0.00011855964839924127,0.026064075529575348,0.8186428546905518,2.311051510664128e-34,0.025543799623847008,0.7630952596664429,0.07757116109132767,0.17739790678024292
948.0,8190.0,0.4792,0.7962,9.3404,-0.0402,-0.1097,-0.0345,-1.6355248890318812,-0.11730082333087921,1.6806457042694092,-2.022617816925049,0.023790325969457626,2.0396533012390137,5.05397920587615,-0.021536774933338165,0.14684540033340454,-1.6525772253619593,0.00011222373723285273,0.029619120061397552,0.8186390995979309,6.432896579144465e-38,0.0304504856467247,0.7635639309883118,0.0779365673661232,0.14939071238040924
948.0,8190.0,0.4792,0.7962,9.3404,-0.0402,-0.1097,-0.0345,-1.6361886463561,-0.12053550034761429,1.7140947580337524,-2.022489309310913,0.025804927572607994,2.059560775756836,5.053847121983328,-0.027359571307897568,0.1537705659866333,-1.6525252501117151,0.00012161707854829729,0.021441448479890823,0.8186588287353516,1.7905791777142513e-41,0.03902899846434593,0.7640359401702881,0.0777335986495018,0.12417827546596527
948.0,8190.0,0.4792,0.7962,9.3404,-0.0402,-0.1097,-0.0345,-1.6369077167906703,-0.12368959188461304,1.6716372966766357,-2.022273302078247,0.02793874405324459,2.0177907943725586,5.053626256972112,-0.035358112305402756,0.1284950226545334,-1.6525772253619593,0.00011587109474930912,0.02352612093091011,0.8185868263244629,5.605193857299268e-45,0.040363676846027374,0.7644964456558228,0.07777558267116547,0.17971912026405334
948.0,8190.0,0.4792,0.7962,9.3404,-0.0402,-0.1097,-0.0345,-1.6378752193846644,-0.12248335033655167,1.661900281906128,-2.0220417976379395,0.03332028537988663,2.035841941833496,5.0533222434814355,-0.04542696475982666,0.1456083059310913,-1.6525533835040491,0.00010886342352023348,0.023313969373703003,0.818695068359375,0.0,0.021004386246204376,0.7650846242904663,0.0761084333062172,0.1383056640625
948.0,8190.0,0.4792,0.7962,9.3404,-0.0402,-0.1097,-0.0345,-1.6386448345580042,-0.12452509254217148,1.6828312873840332,-2.02189040184021,0.03757122904062271,2.0604310035705566,5.053086745529928,-0.04859961196780205,0.1304548978805542,-1.6525691191302698,0.00015621665806975216,0.038938239216804504,0.8186787962913513,0.0,0.011686226353049278,0.7655049562454224,0.07605326175689697,0.1719292402267456
975.0,1009.0,0.5868,0.8746,9.9326,0.0011,-0.0356,-0.1126,-1.6393901310362757,-0.13130567967891693,1.7165223360061646,-2.021617889404297,0.04075239971280098,2.009669065475464,5.052770513087072,-0.04775301739573479,0.12128569185733795,-1.6525452772723597,0.000166098921908997,0.018310142681002617,0.8186469078063965,0.0,0.03881420940160751,0.7659533023834229,0.07605406641960144,0.1511799395084381
975.0,1009.0,0.5868,0.8746,9.9326,0.0011,-0.0356,-0.1126,-1.6401778660216273,-0.1331787258386612,1.6591644287109375,-2.021338701248169,0.04268250614404678,2.017768621444702,5.052506345301428,-0.040855154395103455,0.1395687311887741,-1.6525571982013147,0.00017764880612958223,0.041376713663339615,0.8186309933662415,0.0,0.030652876943349838,0.7663492560386658,0.07875219732522964,0.11452368646860123
975.0,1009.0,0.5868,0.8746,9.9326,0.0011,-0.0356,-0.1126,-1.6409203014769496,-0.13191159069538116,1.7068419456481934,-2.021094799041748,0.04636735841631889,2.039390802383423,5.052314835577764,-0.030643276870250702,0.14968086779117584,-1.6525777021991175,0.00034067349042743444,0.03662169352173805,0.8186550736427307,0.0,0.020954536274075508,0.7669587731361389,0.07994277030229568,0.13129079341888428
975.0,1009.0,0.5868,0.8746,9.9326,0.0011,-0.0356,-0.1126,-1.6417204342284144,-0.13396936655044556,1.693787932395935,-2.020834445953369,0.05275104567408562,2.0448999404907227,5.052178668766775,-0.016824284568428993,0.1435939520597458,-1.652529541646139,0.001201252220198512,0.03136526420712471,0.8186628222465515,0.0,0.009720336645841599,0.767374575138092,0.07753896713256836,0.12797784805297852
975.0,1009.0,0.5868,0.8746,9.9326,0.0011,-0.0356,-0.1126,-1.6425076923766078,-0.1362241506576538,1.668664574623108,-2.0204663276672363,0.05585835129022598,2.06093692779541,5.05212681272582,-0.004319160245358944,0.15321312844753265,-1.6525495688067835,0.0037464050110429525,0.024877145886421204,0.8185867667198181,0.0,0.011538419872522354,0.7678070664405823,0.07151533663272858,0.12192447483539581
975.0,1009.0,0.5868,0.8746,9.9326,0.0011,-0.0356,-0.1126,-1.6433550320067347,-0.13889721035957336,1.6608667373657227,-2.020151376724243,0.06064797565340996,2.1046388149261475,5.0521428165729425,0.002308811992406845,0.1521347016096115,-1.6524575392352503,0.020317351445555687,0.050752732902765274,0.8186025619506836,0.0,0.01882215589284897,0.7681829929351807,0.06187785416841507,0.09295109659433365
975.0,1009.0,0.5868,0.8746,9.9326,0.0011,-0.0356,-0.1126,-1.6444465122618617,-0.14242351055145264,1.6509350538253784,-2.0195910930633545,0.06790879368782043,2.063075065612793,5.052187311440267,0.0008705842774361372,0.15788795053958893,-1.6522977987872522,0.0272739939391613,0.0429261177778244,0.8186069130897522,0.0,0.019671564921736717,0.768683671951294,0.05011463537812233,0.0027998965233564377
975.0,1009.0,0.5868,0.8746,9.9326,0.0011,-0.0356,-0.1126,-1.6452681026854457,-0.14307235181331635,1.678290843963623,-2.019131898880005,0.07414880394935608,2.0921623706817627,5.052191483765402,0.000448880746262148,0.15563876926898956,-1.6521700064288538,0.011052235960960388,0.04158956557512283,0.8186028003692627,0.0,0.014068890362977982,0.7689074277877808,0.04429110884666443,0.004396604374051094
975.0,1009.0,0.5868,0.8746,9.9326,0.0011,-0.0356,-0.1126,-1.6461454830565394,-0.14229096472263336,1.6663200855255127,-2.018671989440918,0.07965659350156784,2.0888543128967285,5.052163231163778,0.0003044805198442191,0.16340121626853943,-1.652198616658346,-0.001390976132825017,0.035404104739427567,0.8186430931091309,0.0,0.029521342366933823,0.7691473960876465,0.0394863598048687,-0.04457441717386246
975.0,1009.0,0.5868,0.8746,9.9326,0.0011,-0.0356,-0.1126,-1.6470209560790003,-0.14596761763095856,1.688418984413147,-2.0181641578674316,0.08364029973745346,2.085129737854004,5.052191006928243,0.00030285262619145215,0.15213455259799957,-1.6521862188922327,-0.0034952517598867416,0.035168204456567764,0.8186429142951965,0.0,0.022081542760133743,0.7693879008293152,0.03455672040581703,0.0002771550789475441
975.0,1009.0,0.5868,0.8746,9.9326,0.0011,-0.0356,-0.1126,-1.647898336450094,-0.15305276215076447,1.6868419647216797,-2.0176444053649902,0.08986036479473114,2.1202759742736816,5.052179085999288,0.00021781054965686053,0.15604349970817566,-1.6522224585162562,-0.0006684434483759105,0.06789270788431168,0.8186628222465515,0.0,0.015411976724863052,0.7695878148078918,0.02921188436448574,-0.02182925119996071
975.0,1009.0,0.5868,0.8746,9.9326,0.0011,-0.0356,-0.1126,-1.6488505802550257,-0.15843993425369263,1.7061080932617188,-2.017024278640747,0.10185167193412781,2.1207034587860107,5.052191483765402,0.0006746071157976985,0.16023662686347961,-1.6522262732135218,-0.0002499113616067916,0.04555504769086838,0.8186749815940857,0.0,0.015610145404934883,0.7697481513023376,0.024101726710796356,-0.028361067175865173
975.0,1009.0,0.5868,0.8746,9.9326,0.0011,-0.0356,-0.1126,-1.649834772149557,-0.16202546656131744,1.721617341041565,-2.0164573192596436,0.110495425760746,2.1563093662261963,5.052154946118154,0.0006402743747457862,0.1620960235595703,-1.6521781126605433,-0.00017628273053560406,0.04353390634059906,0.8186269402503967,0.0,0.01572059467434883,0.7698237299919128,0.01792301796376705,-0.033819280564785004
975.0,1009.0,0.5868,0.8746,9.9326,0.0011,-0.0356,-0.1126,-1.6509019337096156,-0.15882590413093567,1.7663836479187012,-2.0157783031463623,0.12118064612150192,2.142463207244873,5.052150833397665,0.0004724327300209552,0.15907374024391174,-1.6522424856769007,-0.00013621829566545784,0.06213480979204178,0.8186349868774414,0.0,0.032511673867702484,0.7699804306030273,0.014710979536175728,-0.031164925545454025
975.0,1009.0,0.5868,0.8746,9.9326,0.0011,-0.0356,-0.1126,-1.652231832543844,-0.1637728065252304,1.7541229724884033,-2.0147786140441895,0.13207325339317322,2.1168344020843506,5.052187311440267,0.0003498915466479957,0.16364189982414246,-1.6521661917315882,-0.00015675919712521136,0.038680799305438995,0.8185827136039734,0.0,0.019031625241041183,0.7700721025466919,0.01197598036378622,-0.025733891874551773
991.0,988.0,0.9242,0.3589,9.4349,-0.0406,0.0296,-0.1075,-1.6532827816405238,-0.17992205917835236,1.7285635471343994,-2.0138750076293945,0.1367514282464981,2.1732122898101807,5.0521185276801965,0.0002442239783704281,0.16082540154457092,-1.6521943251239222,-0.0001335435372311622,0.03053678385913372,0.8186548352241516,0.0,0.01534945610910654,0.7701646089553833,0.010814853012561798,-0.05268383026123047
991.0,988.0,0.9242,0.3589,9.4349,-0.0406,0.0296,-0.1075,-1.6544143162169398,-0.19577230513095856,1.618661880493164,-2.013051748275757,0.13689526915550232,2.1211788654327393,5.0521831689174554,0.00024629614199511707,0.17890718579292297,-1.6521905104266565,4.659819387597963e-05,0.0624803826212883,0.8186309933662415,0.0,0.01188134029507637,0.770172119140625,0.008751481771469116,-0.015552772209048271
991.0,988.0,0.9242,0.3589,9.4349,-0.0406,0.0296,-0.1075,-1.6556054554381312,-0.19467481970787048,1.6814889907836914,-2.012227773666382,0.142720028758049,2.124455213546753,5.052182781487264,0.0002698930911719799,0.16584059596061707,-1.6521580854998987,4.040868952870369e-05,0.045116644352674484,0.8186349868774414,0.0,0.01901744306087494,0.7702204585075378,0.00616960134357214,-0.007150689139962196
991.0,988.0,0.9242,0.3589,9.4349,-0.0406,0.0296,-0.1075,-1.6567117176451625,-0.17856402695178986,1.769165277481079,-2.011288642883301,0.16030962765216827,2.179208993911743,5.052243041783132,0.0027203166391700506,0.18527653813362122,-1.6521905104266565,3.5610202758107334e-05,0.04218393564224243,0.8186709880828857,0.0,0.010583036579191685,0.7702442407608032,0.003491113195195794,-0.09237295389175415
991.0,988.0,0.9242,0.3589,9.4349,-0.0406,0.0296,-0.1075,-1.6579061947264613,-0.17610685527324677,1.7909010648727417,-2.0103726387023926,0.17296425998210907,2.217031717300415,5.052146720677175,0.0011487125884741545,0.183088481426239,-1.652198616658346,3.1831379601499066e-05,0.03372844308614731,0.8186707496643066,0.0,0.032848138362169266,0.7702640891075134,0.002089478773996234,-0.013477751985192299
991.0,988.0,0.9242,0.3589,9.4349,-0.0406,0.0296,-0.1075,-1.659060617486471,-0.18924060463905334,1.7528902292251587,-2.0093696117401123,0.17701034247875214,2.2034144401550293,5.052175479918279,-0.0018563787452876568,0.15873196721076965,-1.6521666685687464,1.9410676941333804e-06,0.03795146197080612,0.8186509013175964,0.0,0.006443217396736145,0.770267903804779,0.0032838855404406786,-0.04453906789422035
991.0,988.0,0.9242,0.3589,9.4349,-0.0406,0.0296,-0.1075,-1.660328050652975,-0.21014215052127838,1.7466660737991333,-2.0082180500030518,0.17671917378902435,2.2297778129577637,5.052130448609152,-0.0013905934756621718,0.18725082278251648,-1.6522024313556116,5.403033020989767e-10,0.04175155237317085,0.8186507225036621,0.0,0.0021011284552514553,0.7703282833099365,0.006035524420440197,-0.05917058140039444
991.0,988.0,0.9242,0.3589,9.4349,-0.0406,0.0296,-0.1075,-1.6619416675963343,-0.214994877576828,1.7492810487747192,-2.006763458251953,0.1819813847541809,2.2343151569366455,5.052134531527319,-0.00027961141313426197,0.1836996078491211,-1.6521499792682093,9.819746131143302e-15,0.04156523197889328,0.8186269402503967,0.0,0.029485125094652176,0.7703560590744019,0.007955340668559074,-0.015588195994496346
991.0,988.0,0.9242,0.3589,9.4349,-0.0406,0.0296,-0.1075,-1.663128515283102,-0.2055666446685791,1.7248570919036865,-2.0056753158569336,0.19262181222438812,2.208815574645996,5.052150833397665,-0.00012977140431758016,0.180607408285141,-1.6521781126605433,2.7333622926949795e-18,0.05014505237340927,0.8185747861862183,0.0,0.029406696557998657,0.7703841924667358,0.006717704702168703,-0.0437205508351326
991.0,988.0,0.9242,0.3589,9.4349,-0.0406,0.0296,-0.1075,-1.6643597088255824,-0.20335350930690765,1.7812716960906982,-2.0044925212860107,0.20297233760356903,2.236257791519165,5.0521713373954675,-0.00016833159315865487,0.15442073345184326,-1.6521943251239222,7.608414746353243e-22,0.039491504430770874,0.8186188340187073,0.0,0.02968606911599636,0.770428478717804,0.004889599047601223,-0.06718368828296661
991.0,988.0,0.9242,0.3589,9.4349,-0.0406,0.0296,-0.1075,-1.6655813656248988,-0.20696648955345154,1.7568697929382324,-2.003180503845215,0.20523189008235931,2.227415084838867,5.052146929293432,-0.00022076435561757535,0.1743186116218567,-1.6521742979632776,2.117830466862595e-25,0.04780825972557068,0.818686842918396,0.0,0.0254984013736248,0.7704764604568481,0.004287395626306534,-0.044482167810201645
991.0,988.0,0.9242,0.3589,9.4349,-0.0406,0.0296,-0.1075,-1.6668645344176234,-0.21247242391109467,1.7775654792785645,-2.001958131790161,0.20675696432590485,2.216705799102783,5.052215713053503,-0.0001402075868099928,0.15841080248355865,-1.652186695729391,5.895058503769231e-29,0.05213470757007599,0.8186229467391968,0.0,0.026290331035852432,0.7704803943634033,0.005484454799443483,-0.049990929663181305
991.0,988.0,0.9242,0.3589,9.4349,-0.0406,0.0296,-0.1075,-1.668114801446432,-0.21506798267364502,1.7495911121368408,-2.000607490539551,0.21827583014965057,2.2587127685546875,5.05212231257514,5.319495903677307e-05,0.17617744207382202,-1.652198616658346,1.6409112086896144e-32,0.05368080735206604,0.818598747253418,0.0,0.02347218617796898,0.770532488822937,0.008357367478311062,-0.08630490303039551
991.0,988.0,0.9242,0.3589,9.4349,-0.0406,0.0296,-0.1075,-1.669417520562643,-0.21627219021320343,1.7933930158615112,-1.9992831945419312,0.22869716584682465,2.2368521690368652,5.052163082152166,2.253861310919092e-07,0.17289948463439941,-1.652182404194967,4.5675366940971745e-36,0.03618501126766205,0.8185948133468628,0.0,0.02413341775536537,0.7706246376037598,0.009376661852002144,-0.07924297451972961
1003.0,988.0,0.7352,0.6473,9.9021,-0.0261,0.0832,-0.0907,-1.6707216701903285,-0.22103358805179596,1.7232474088668823,-1.9979004859924316,0.2328364998102188,2.278381109237671,5.052082615881719,6.273705860371237e-11,0.1701885461807251,-1.6522186438189905,1.2713910901895849e-39,0.04736790060997009,0.8186388611793518,0.0,0.01630871184170246,0.7706810832023621,0.009730053134262562,-0.009010909125208855
1003.0,988.0,0.7352,0.6473,9.9021,-0.0261,0.0832,-0.0907,-1.672410627404684,-0.22097857296466827,1.7804292440414429,-1.9959744215011597,0.23476791381835938,2.2575228214263916,5.052191543370046,1.140215084858892e-15,0.18154656887054443,-1.652186695729391,2.2420775429197073e-44,0.036937542259693146,0.8186348676681519,0.0,0.016460614278912544,0.7707527279853821,0.00958547368645668,-0.027959579601883888
1003.0,988.0,0.7352,0.6473,9.9021,-0.0261,0.0832,-0.0907,-1.6737009487547816,-0.22268705070018768,1.6929692029953003,-1.994466781616211,0.2457285076379776,2.3210084438323975,5.05214678028182,3.17383074730185e-19,0.17239755392074585,-1.6521499792682093,0.0,0.054769471287727356,0.8185908198356628,0.0,0.019231511279940605,0.7707882523536682,0.012249346822500229,0.015351679176092148
1003.0,988.0,0.7352,0.6473,9.9021,-0.0261,0.0832,-0.0907,-1.674999853173727,-0.22370004653930664,1.7638893127441406,-1.9930009841918945,0.2559950053691864,2.2939510345458984,5.052142846375265,8.834475365675457e-23,0.1608084887266159,-1.6521943251239222,0.0,0.04639360308647156,0.8186228275299072,0.0,0.02540932595729828,0.7709133625030518,0.015664586797356606,-0.006144389044493437
1003.0,988.0,0.7352,0.6473,9.9021,-0.0261,0.0832,-0.0907,-1.6763259373106898,-0.2222975790500641,1.8297090530395508,-1.9914535284042358,0.25548887252807617,2.2508716583251953,5.052126842528143,2.4591087042744737e-26,0.16150769591331482,-1.652198616658346,0.0,0.043734483420848846,0.8186509609222412,0.0,0.019192568957805634,0.7710012197494507,0.01836513727903366,-0.03648648411035538
1003.0,988.0,0.7352,0.6473,9.9021,-0.0261,0.0832,-0.0907,-1.6776610813536585,-0.2219599038362503,1.7997854948043823,-1.989854097366333,0.26305097341537476,2.285003900527954,5.052167165070333,6.845019085403205e-30,0.16856375336647034,-1.6522062460528772,0.0,0.02811344340443611,0.8186349868774414,0.0,0.015498332679271698,0.7710928320884705,0.02175372838973999,0.0052414205856621265
1003.0,988.0,0.7352,0.6473,9.9021,-0.0261,0.0832,-0.0907,-1.6790114841856898,-0.23024003207683563,1.7967231273651123,-1.9881945848464966,0.27391478419303894,2.3045051097869873,5.0521877882774255,1.9053360180447986e-33,0.1671741008758545,-1.6521905104266565,0.0,0.050275079905986786,0.8186067342758179,0.0,0.020163394510746002,0.7712290287017822,0.02573150210082531,-0.03881656751036644
1003.0,988.0,0.7352,0.6473,9.9021,-0.0261,0.0832,-0.0907,-1.68040194133901,-0.23369836807250977,1.7918835878372192,-1.986588716506958,0.27854499220848083,2.3191065788269043,5.052171426802435,5.303573891682909e-37,0.17206959426403046,-1.6522224585162562,0.0,0.05922257900238037,0.8186390995979309,0.0,0.015454253181815147,0.7714177370071411,0.029189271852374077,0.04254365339875221
1003.0,988.0,0.7352,0.6473,9.9021,-0.0261,0.0832,-0.0907,-1.6817766628661097,-0.2302556186914444,1.7759487628936768,-1.9849129915237427,0.28690117597579956,2.2907190322875977,5.052142846375265,1.4762679321661948e-40,0.16216574609279633,-1.6521781126605433,0.0,0.06312394887208939,0.818690836429596,0.0,0.009423243813216686,0.7715656757354736,0.031631842255592346,-0.04833056777715683
1003.0,988.0,0.7352,0.6473,9.9021,-0.0261,0.0832,-0.0907,-1.6836663685240687,-0.22603106498718262,1.8244614601135254,-1.9825538396835327,0.2981328070163727,2.34211802482605,5.052134501724996,2.802596928649634e-45,0.16649186611175537,-1.6522024313556116,0.0,0.04147297516465187,0.8186147212982178,0.0,0.011233300901949406,0.7718781232833862,0.03642944619059563,-0.058089520782232285
1003.0,988.0,0.7352,0.6473,9.9021,-0.0261,0.0832,-0.0907,-1.6851173839964808,-0.23851852118968964,1.7870649099349976,-1.9807710647583008,0.3036147952079773,2.3593685626983643,5.052142727165975,0.0,0.16927604377269745,-1.6521385351764124,0.0,0.05202274024486542,0.8185949325561523,0.0,0.01334388181567192,0.7720621824264526,0.03915160894393921,-0.032975807785987854
1003.0,988.0,0.7352,0.6473,9.9021,-0.0261,0.0832,-0.0907,-1.6866036854186,-0.24879972636699677,1.754356861114502,-1.978956937789917,0.3183901309967041,2.3248705863952637,5.052114623575964,0.0,0.16009396314620972,-1.652182404194967,0.0,0.04695723205804825,0.8186069130897522,0.0,0.015334982424974442,0.7723184823989868,0.04303669184446335,-0.04229743778705597
1003.0,988.0,0.7352,0.6473,9.9021,-0.0261,0.0832,-0.0907,-1.6881500683226527,-0.24276937544345856,1.8230173587799072,-1.9770734310150146,0.3265267312526703,2.397719383239746,5.052122700005331,0.0,0.16442705690860748,-1.6521785894977015,0.0,0.04226970672607422,0.8186550140380859,0.0,0.012890750542283058,0.7725260257720947,0.04318677634000778,-0.07023856043815613
1003.0,988.0,0.7352,0.6473,9.9021,-0.0261,0.0832,-0.0907,-1.6896006069579066,-0.24105289578437805,1.8106963634490967,-1.9750984907150269,0.32817021012306213,2.3433890342712402,5.052102792053976,0.0,0.16433480381965637,-1.6521661917315882,0.0,0.05382024124264717,0.8186349868774414,0.0,0.013020958751440048,0.7728066444396973,0.041456688195466995,-0.0298205204308033
1003.0,988.0,0.7352,0.6473,9.9021,-0.0261,0.0832,-0.0907,-1.691110750237936,-0.25092893838882446,1.8561421632766724,-1.9731487035751343,0.3409743309020996,2.399491310119629,5.0521269021327875,0.0,0.16121137142181396,-1.6521742979632776,0.0,0.04041818529367447,0.8185909986495972,0.0,0.015016154386103153,0.7730183601379395,0.039939213544130325,-0.09267475455999374
989.0,948.0,1.0373,0.9392,9.5222,-0.0257,0.1952,-0.1168,-1.6926571331419886,-0.2573452293872833,1.838818907737732,-1.9710501432418823,0.3444218337535858,2.3658218383789062,5.05214689949111,0.0,0.17761394381523132,-1.6521905104266565,0.0,0.06101302430033684,0.8186590075492859,0.0,0.0037968752440065145,0.7732948660850525,0.038280099630355835,-0.04143683239817619
989.0,948.0,1.0373,0.9392,9.5222,-0.0257,0.1952,-0.1168,-1.6941920719542445,-0.2485273778438568,1.8835113048553467,-1.968996286392212,0.3471909761428833,2.3926303386688232,5.052086818009176,0.0,0.15928500890731812,-1.6521499792682093,0.0,0.06208875775337219,0.8186228275299072,0.0,0.015175573527812958,0.7735111117362976,0.03709321469068527,-0.07175286114215851
989.0,948.0,1.0373,0.9392,9.5222,-0.0257,0.1952,-0.1168,-1.696148534814352,-0.25652453303337097,1.8340427875518799,-1.9661228656768799,0.3567298650741577,2.362611770629883,5.0521269021327875,0.0,0.17349514365196228,-1.6522143522845667,0.0,0.04809035360813141,0.8186149001121521,0.0,-0.006787646561861038,0.7738112807273865,0.03633744269609451,-0.09411472082138062
989.0,948.0,1.0373,0.9392,9.5222,-0.0257,0.1952,-0.1168,-1.69773592571401,-0.25911152362823486,1.8515273332595825,-1.963921070098877,0.3587307035923004,2.4163284301757812,5.052155095129766,0.0,0.1743599772453308,-1.652198616658346,0.0,0.05523259937763214,0.8186469674110413,0.0,0.007718678563833237,0.7739749550819397,0.03304656594991684,-0.07845690846443176
989.0,948.0,1.0373,0.9392,9.5222,-0.0257,0.1952,-0.1168,-1.6992060146727503,-0.251406192779541,1.8540300130844116,-1.9616872072219849,0.36657291650772095,2.409480571746826,5.052130895643987,0.0,0.17071977257728577,-1.652182404194967,0.0,0.05985201895236969,0.8186948895454407,0.0,0.00545800756663084,0.7741956114768982,0.031019479036331177,-0.07234737277030945
989.0,948.0,1.0373,0.9392,9.5222,-0.0257,0.1952,-0.1168,-1.7007485828795375,-0.24636289477348328,1.8881434202194214,-1.9595104455947876,0.3712148368358612,2.3708698749542236,5.052207785635748,0.0,0.16263432800769806,-1.652130428944723,0.0,0.04263291507959366,0.8186388611793518,0.0,0.011917850002646446,0.7743597030639648,0.028084125369787216,-0.11226591467857361
989.0,948.0,1.0373,0.9392,9.5222,-0.0257,0.1952,-0.1168,-1.7021600208678187,-0.24529625475406647,1.8901962041854858,-1.957268238067627,0.380453497171402,2.4565117359161377,5.05213092544631,0.0,0.16929298639297485,-1.6522262732135218,0.0,0.053597308695316315,0.8186147212982178,0.0,-0.005348178558051586,0.7745075225830078,0.025600461289286613,-0.09886091947555542
989.0,948.0,1.0373,0.9392,9.5222,-0.0257,0.1952,-0.1168,-1.7036892376341761,-0.24442829191684723,1.928250789642334,-1.9549981355667114,0.3831489384174347,2.4254422187805176,5.052139150887289,-6.37619523331523e-05,0.17435821890830994,-1.6521943251239222,0.0,0.061952732503414154,0.8186147809028625,0.0,0.002108684740960598,0.7747364640235901,0.02252674661576748,-0.06505049020051956
989.0,948.0,1.0373,0.9392,9.5222,-0.0257,0.1952,-0.1168,-1.705151220361227,-0.2490849494934082,1.8692536354064941,-1.9527254104614258,0.38965433835983276,2.481933832168579,5.052106845169821,-7.364361226791516e-05,0.1692967414855957,-1.652170483266012,0.0,0.05655086040496826,0.8186550140380859,0.0,0.006464831065386534,0.77481609582901,0.019229581579566002,-0.07659456133842468
989.0,948.0,1.0373,0.9392,9.5222,-0.0257,0.1952,-0.1168,-1.7070890865721644,-0.25294992327690125,1.891945481300354,-1.9496541023254395,0.3865593671798706,2.3938956260681152,5.052074837475576,-0.0008429678273387253,0.1684177964925766,-1.6522143522845667,0.0,0.04376494139432907,0.8185869455337524,0.0,0.004712418653070927,0.7749724388122559,0.013540003448724747,-0.08154870569705963
989.0,948.0,1.0373,0.9392,9.5222,-0.0257,0.1952,-0.1168,-1.708571573297018,-0.25125259160995483,1.9427995681762695,-1.947203516960144,0.39961764216423035,2.49220609664917,5.052106874972143,-0.000559056643396616,0.16933348774909973,-1.6521905104266565,0.0,0.05795865133404732,0.8186549544334412,0.0,0.016054289415478706,0.7750322222709656,0.011044266633689404,-0.08421064168214798
989.0,948.0,1.0373,0.9392,9.5222,-0.0257,0.1952,-0.1168,-1.7100783787169398,-0.25078582763671875,1.9434690475463867,-1.9448133707046509,0.40607312321662903,2.4516868591308594,5.052074837475576,-0.0004263662558514625,0.1763802468776703,-1.6522186438189905,0.0,0.05398118495941162,0.8186469078063965,0.0,0.010233048349618912,0.7750599384307861,0.008154470473527908,-0.029423454776406288
989.0,948.0,1.0373,0.9392,9.5222,-0.0257,0.1952,-0.1168,-1.711576601068014,-0.25184452533721924,1.8943448066711426,-1.9423844814300537,0.41079047322273254,2.4500203132629395,5.052054840117254,-0.0003167157410643995,0.16579967737197876,-1.6522143522845667,0.0,0.0507122203707695,0.8185909986495972,0.0,0.0034369833301752806,0.7750923037528992,0.006413168739527464,-0.0877557247877121
989.0,948.0,1.0373,0.9392,9.5222,-0.0257,0.1952,-0.1168,-1.7130934200682582,-0.24655000865459442,1.9811103343963623,-1.9398581981658936,0.4111247956752777,2.4122838973999023,5.05211095789031,-7.65677759773098e-05,0.18065381050109863,-1.6522424856769007,0.0,0.04448042809963226,0.8186469078063965,0.0,0.0008400969090871513,0.7752046585083008,0.0038876598700881004,-0.06495966017246246
989.0,948.0,1.0373,0.9392,9.5222,-0.0257,0.1952,-0.1168,-1.7146312199034632,-0.2482272982597351,1.9782159328460693,-1.9373126029968262,0.4127660393714905,2.424072742462158,5.052110928087988,-8.258560228568967e-06,0.18978667259216309,-1.6521943251239222,0.0,0.040363118052482605,0.8186349868774414,0.0,0.012357188388705254,0.775180459022522,0.002895135898143053,-0.06694796681404114
880.0,943.0,0.3063,0.597,9.4146,-0.0281,0.21,-0.1312,-1.7162052593626917,-0.2592049837112427,1.9777708053588867,-1.9348489046096802,0.41838452219963074,2.4391984939575195,5.052082615881719,-2.2988004833024434e-09,0.19019383192062378,-1.6521700064288538,0.0,0.057250186800956726,0.8186469078063965,0.0,0.014156405813992023,0.7752202153205872,0.003476122859865427,-0.02465057373046875
880.0,943.0,0.3063,0.597,9.4146,-0.0281,0.21,-0.1312,-1.7178112469115199,-0.2694665789604187,1.9387307167053223,-1.9322094917297363,0.41806069016456604,2.4954540729522705,5.05209897735671,-6.398796423279229e-13,0.17826205492019653,-1.6521580854998987,0.0,0.040305785834789276,0.8186228275299072,0.0,0.02876909263432026,0.775155782699585,0.003713947720825672,-0.055358581244945526
880.0,943.0,0.3063,0.597,9.4146,-0.0281,0.21,-0.1312,-1.7199746570982875,-0.2573055028915405,2.0331969261169434,-1.928915023803711,0.41779187321662903,2.4796454906463623,5.052062618523397,-1.1629495186463689e-17,0.1919596791267395,-1.6522100607501429,0.0,0.05797048658132553,0.8186429142951965,0.0,-0.010303594172000885,0.7751755714416504,0.001633243402466178,0.0008342554792761803
880.0,943.0,0.3063,0.597,9.4146,-0.0281,0.21,-0.1312,-1.7215157947936,-0.2586260437965393,2.0346083641052246,-1.9264497756958008,0.42146432399749756,2.4462175369262695,5.0521027622516534,-3.2371125602442785e-21,0.18963971734046936,-1.6522100607501429,0.0,0.023511532694101334,0.8186187744140625,0.0,0.006250270642340183,0.7751958966255188,0.0010483950609341264,-0.009466653689742088
880.0,943.0,0.3063,0.597,9.4146,-0.0281,0.21,-0.1312,-1.7231017551817835,-0.26154980063438416,2.0546767711639404,-1.9239325523376465,0.4243086576461792,2.4565858840942383,5.052099007159033,-9.010621694924068e-25,0.18614421784877777,-1.6521623770343226,0.0,0.03434064984321594,0.8186668157577515,0.0,0.014915307983756065,0.7751796841621399,0.0007351873209699988,-0.051459066569805145
880.0,943.0,0.3063,0.597,9.4146,-0.0281,0.21,-0.1312,-1.7247163257994593,-0.2560126781463623,2.0245981216430664,-1.9214156866073608,0.42444276809692383,2.4814982414245605,5.0521031496818445,-2.5081397702817125e-28,0.19386719167232513,-1.6522100607501429,0.0,0.02267584763467312,0.8186949491500854,0.0,0.012942012399435043,0.7752197980880737,0.0008218573639169335,-0.07265283912420273
880.0,943.0,0.3063,0.597,9.4146,-0.0281,0.21,-0.1312,-1.7262498341002406,-0.2560218274593353,2.0501883029937744,-1.918959140777588,0.4143255949020386,2.455388069152832,5.052035110979833,-6.981498987139607e-32,0.20020487904548645,-1.6522343794452112,0.0,0.016972163692116737,0.8187029361724854,0.0,0.007434879429638386,0.7752243280410767,0.0007607555016875267,-0.05790778249502182
880.0,943.0,0.3063,0.597,9.4146,-0.0281,0.21,-0.1312,-1.727750917474264,-0.26642045378685,2.0897433757781982,-1.9164777994155884,0.4144280254840851,2.4334189891815186,5.052050697594442,-1.943325911945556e-35,0.19243398308753967,-1.6522100607501429,0.0,0.026802491396665573,0.8186308145523071,0.0,0.0180305615067482,0.7752400636672974,0.0008132199291139841,-0.03086206689476967
880.0,943.0,0.3063,0.597,9.4146,-0.0281,0.21,-0.1312,-1.7293058834471644,-0.2697587013244629,2.078773021697998,-1.9139723777770996,0.41595458984375,2.440927028656006,5.05203469374732,-5.409318956657481e-39,0.18648961186408997,-1.6521905104266565,0.0,0.024660814553499222,0.8186149001121521,0.0,0.014195762574672699,0.7752482295036316,0.0012962098699063063,-0.06327144056558609
880.0,943.0,0.3063,0.597,9.4146,-0.0281,0.21,-0.1312,-1.7308784923949183,-0.25960806012153625,2.075355052947998,-1.9115155935287476,0.41712743043899536,2.470229387283325,5.052066671639242,-1.5063958491491784e-42,0.19004011154174805,-1.6521742979632776,0.0,0.04028487950563431,0.8186228275299072,0.0,0.012350998818874359,0.7752524018287659,0.0010064732050523162,0.016731955111026764
880.0,943.0,0.3063,0.597,9.4146,-0.0281,0.21,-0.1312,-1.7329374752440394,-0.2550172805786133,2.0698351860046387,-1.908221960067749,0.41031333804130554,2.455142021179199,5.052066671639242,-0.0,0.1911962628364563,-1.6522305647479456,0.0,0.03095017373561859,0.8186628222465515,0.0,0.017409060150384903,0.7752562165260315,0.0006039256695657969,-0.011624056845903397
880.0,943.0,0.3063,0.597,9.4146,-0.0281,0.21,-0.1312,-1.7345077000060023,-0.2558276951313019,2.1299026012420654,-1.9056347608566284,0.40702584385871887,2.480314016342163,5.052070873766699,-0.0,0.19758564233779907,-1.6521943251239222,0.0,0.026752948760986328,0.8186429142951965,0.0,0.0129441162571311,0.7752802968025208,0.0006207605474628508,-0.04569235444068909
880.0,943.0,0.3063,0.597,9.4146,-0.0281,0.21,-0.1312,-1.7359525165953578,-0.2567632794380188,2.1109166145324707,-1.9032199382781982,0.40927043557167053,2.4393692016601562,5.052050608187475,-0.0,0.18688742816448212,-1.6521418730365198,0.0,0.016582438722252846,0.8185868859291077,0.0,0.006006090901792049,0.7752802968025208,0.0024891006760299206,-0.04331844300031662
880.0,943.0,0.3063,0.597,9.4146,-0.0281,0.21,-0.1312,-1.7375594578185023,-0.2628774344921112,2.134964942932129,-1.9007314443588257,0.4054487347602844,2.4298129081726074,5.052067059069433,-4.757795613841154e-05,0.19367097318172455,-1.6521456877337855,0.0,0.02759837917983532,0.8186107873916626,0.0,0.027143336832523346,0.7752922177314758,0.004216198809444904,-0.022997133433818817
880.0,943.0,0.3063,0.597,9.4146,-0.0281,0.21,-0.1312,-1.739105840722555,-0.26413494348526,2.1742115020751953,-1.89832603931427,0.39765825867652893,2.4502711296081543,5.052026915341177,-0.00025079306215047836,0.19787023961544037,-1.6521943251239222,0.0,0.024983825162053108,0.8186786770820618,0.0,0.003449112642556429,0.7753204703330994,0.004245210438966751,-0.03149734437465668
