ramyac6/ROB537/final_project/csv/good/good_82.csv
tof_0,tof_1,accelx,accely,accelz,gyrox,gyroy,gyroz,shoulder_lift_joint_position,shoulder_lift_joint_velocity,shoulder_lift_joint_effort,elbow_joint_position,elbow_joint_velocity,elbow_joint_effort,wrist_1_joint_position,wrist_1_joint_velocity,wrist_1_joint_effort,wrist_2_joint_position,wrist_2_joint_velocity,wrist_2_joint_effort,wrist_3_joint_position,wrist_3_joint_velocity,wrist_3_joint_effort,shoulder_pan_joint_position,shoulder_pan_joint_velocity,shoulder_pan_joint_effort
136.0,194.0,5.8008,-1.3597,7.0911,-0.0373,0.0243,-0.1135,-1.8979531727232875,0.0,3.563575267791748,-1.131687045097351,-0.0,2.1628947257995605,3.912991686458252,-0.0,0.26978230476379395,-1.2790692488299769,0.0,-0.030980918556451797,0.6108237504959106,0.0,-0.01852676272392273,1.5161247253417969,0.0,0.006594258360564709
136.0,194.0,5.8008,-1.3597,7.0911,-0.0373,0.0243,-0.1135,-1.8979774914183558,0.0,3.5574097633361816,-1.1316909790039062,-0.0,2.237804412841797,3.9130121904560546,-0.0,0.28171098232269287,-1.2790969053851526,0.0,-0.02744685672223568,0.6108713150024414,0.0,-0.0033248686231672764,1.5161044597625732,0.0,0.0078095486387610435
136.0,194.0,5.8008,-1.3597,7.0911,-0.0373,0.0243,-0.1135,-1.897956987420553,0.0,3.561412811279297,-1.1317028999328613,-0.0,2.1281135082244873,3.912947340602539,-0.0,0.26972973346710205,-1.2790892759906214,0.0,-0.032423924654722214,0.6108237504959106,0.0,0.0020060883834958076,1.5160926580429077,0.0,-0.043615639209747314
136.0,194.0,5.8008,-1.3597,7.0911,-0.0373,0.0243,-0.1135,-1.8979650936522425,0.0,3.5420408248901367,-1.131666660308838,-0.0,2.2141170501708984,3.9129316049763183,-0.0,0.26763176918029785,-1.2790969053851526,0.0,-0.02632000669836998,0.6108475923538208,0.0,-0.012647923082113266,1.516096591949463,0.0,0.02297511138021946
136.0,194.0,5.8008,-1.3597,7.0911,-0.0373,0.0243,-0.1135,-1.8979531727232875,0.0,3.565129518508911,-1.1316871643066406,-0.0,2.207029342651367,3.912959261531494,-0.0,0.279032826423645,-1.2791011969195765,0.0,-0.02211769111454487,0.6108237504959106,0.0,-0.016845455393195152,1.5161124467849731,0.0,0.04376767575740814
136.0,194.0,5.8008,-1.3597,7.0911,-0.0373,0.0243,-0.1135,-1.8979412517943324,0.0,3.544829845428467,-1.1317228078842163,-0.0,2.1350905895233154,3.912979765529297,-0.0,0.27998360991477966,-1.279064957295553,0.0,-0.040520913898944855,0.6108356714248657,0.0,0.0009251721203327179,1.5161243677139282,0.0,-0.030636649578809738
136.0,194.0,5.8008,-1.3597,7.0911,-0.0373,0.0243,-0.1135,-1.8980137310423792,0.0,3.5540151596069336,-1.1317148208618164,-0.0,2.14339542388916,3.912964029903076,-0.0,0.2713651657104492,-1.279133145009176,0.0,-0.026764387264847755,0.6108593940734863,0.0,-0.007968397811055183,1.5160768032073975,0.0,-0.011646900326013565
143.0,196.0,5.7978,-1.4369,7.0253,-0.0347,0.0215,-0.1138,-1.897973199883932,0.0,3.5787596702575684,-1.131666660308838,-0.0,2.169125556945801,3.9130160051533203,-0.0,0.27884048223495483,-1.279076878224508,0.0,-0.03352779895067215,0.6108914613723755,0.0,-0.007276454940438271,1.516128659248352,0.0,-0.029188774526119232
143.0,196.0,5.7978,-1.4369,7.0253,-0.0347,0.0215,-0.1138,-1.8979488811888636,0.0,3.573319911956787,-1.1316949129104614,-0.0,2.232374906539917,3.9129554468342285,-0.0,0.2784607410430908,-1.2790849844561976,0.0,-0.026004280894994736,0.6108356714248657,0.0,-0.007187754847109318,1.516128659248352,0.0,-0.026889052242040634
143.0,196.0,5.7978,-1.4369,7.0253,-0.0347,0.0215,-0.1138,-1.897973199883932,0.0,3.5259552001953125,-1.1317267417907715,-0.0,2.1328532695770264,3.913004084224365,-0.0,0.277062326669693,-1.2790730635272425,0.0,-0.03888019919395447,0.6108673810958862,0.0,-0.0015912888338789344,1.516116738319397,0.0,0.028612220659852028
143.0,196.0,5.7978,-1.4369,7.0253,-0.0347,0.0215,-0.1138,-1.8979493580260218,0.0,3.6096034049987793,-1.131706953048706,-0.0,2.205141067504883,3.9129511552998046,-0.0,0.2675791382789612,-1.2790854612933558,0.0,-0.030064040794968605,0.6108435392379761,0.0,-0.0016662559937685728,1.5161044597625732,0.0,0.00893307477235794
143.0,196.0,5.7978,-1.4369,7.0253,-0.0347,0.0215,-0.1138,-1.897945066491598,0.0,3.5590386390686035,-1.1316790580749512,-0.0,2.143026351928711,3.912971182460449,-0.0,0.27211374044418335,-1.2790892759906214,0.0,-0.036877743899822235,0.6109070181846619,0.0,-0.008399609476327896,1.516088604927063,0.0,-0.0384577251970768
143.0,196.0,5.7978,-1.4369,7.0253,-0.0347,0.0215,-0.1138,-1.8979531727232875,0.0,3.543208599090576,-1.1316107511520386,-0.0,2.1888480186462402,3.9129511552998046,-0.0,0.2769661545753479,-1.279105011616842,0.0,-0.029469028115272522,0.6107958555221558,0.0,-0.01518222689628601,1.5160926580429077,0.0,0.013708023354411125
143.0,196.0,5.7978,-1.4369,7.0253,-0.0347,0.0215,-0.1138,-1.8979650936522425,0.0,3.5106778144836426,-1.1316909790039062,-0.0,2.1688435077667236,3.912959261531494,-0.0,0.2788524329662323,-1.2790969053851526,0.0,-0.03167075291275978,0.6108118295669556,0.0,-0.004931986331939697,1.5160648822784424,0.0,0.015602360479533672
143.0,196.0,5.7978,-1.4369,7.0253,-0.0347,0.0215,-0.1138,-1.8979774914183558,0.0,3.579023599624634,-1.1316990852355957,-0.0,2.1730222702026367,3.9129435259052734,-0.0,0.27618589997291565,-1.2790854612933558,0.0,-0.03554193675518036,0.6108474135398865,0.0,-0.0037092496640980244,1.516128659248352,0.0,-0.040785469114780426
143.0,196.0,5.7978,-1.4369,7.0253,-0.0347,0.0215,-0.1138,-1.8980099163451136,0.0,3.5655412673950195,-1.1316626071929932,-0.0,2.181838035583496,3.912979765529297,-0.0,0.2755895256996155,-1.279121224080221,0.0,-0.027591384947299957,0.6108435988426208,0.0,-0.008325005881488323,1.5160807371139526,0.0,-0.013528851792216301
143.0,196.0,5.7978,-1.4369,7.0253,-0.0347,0.0215,-0.1138,-1.8979574642577113,0.0,3.576263904571533,-1.1317028999328613,-0.0,2.184584617614746,3.912959261531494,-0.0,0.26800280809402466,-1.2790334860431116,0.0,-0.04362975060939789,0.61080002784729,0.0,-0.013553420081734657,1.5161044597625732,0.0,-0.004966087639331818
143.0,196.0,5.7978,-1.4369,7.0253,-0.0347,0.0215,-0.1138,-1.8979855976500453,0.0,3.546806812286377,-1.1316829919815063,-0.0,2.2108423709869385,3.912975950832031,-0.0,0.28579995036125183,-1.279076878224508,0.0,-0.01503018382936716,0.6108116507530212,0.0,-0.024527519941329956,1.5161124467849731,0.0,0.02413344569504261
143.0,196.0,5.7978,-1.4369,7.0253,-0.0347,0.0215,-0.1138,-1.8980094395079554,0.0,3.541794776916504,-1.1316351890563965,-0.0,2.1642487049102783,3.9128915506550292,-0.0,0.2625955045223236,-1.279121224080221,0.0,-0.027817996218800545,0.6108796000480652,0.0,-0.0063483878038823605,1.516128659248352,0.0,-0.01587691158056259
136.0,201.0,5.8905,-1.4273,6.9858,-0.0356,0.0197,-0.1165,-1.8979650936522425,0.0,3.5544004440307617,-1.131675124168396,-0.0,2.2370057106018066,3.912959261531494,-0.0,0.26499029994010925,-1.279076878224508,0.0,-0.0396161787211895,0.6108475923538208,0.0,0.002296353690326214,1.5161247253417969,0.0,0.01098671741783619
136.0,201.0,5.8905,-1.4273,6.9858,-0.0356,0.0197,-0.1165,-1.8979369602599085,0.0,3.555253028869629,-1.1317148208618164,-0.0,2.1912789344787598,3.912975473994873,-0.0,0.2695751488208771,-1.2790854612933558,0.0,-0.0344938263297081,0.610851526260376,0.0,-0.0006190438289195299,1.5161365270614624,0.0,-0.013384257443249226
136.0,201.0,5.8905,-1.4273,6.9858,-0.0356,0.0197,-0.1165,-1.8979407749571742,0.0,3.579817771911621,-1.131670594215393,-0.0,2.194429874420166,3.9129511552998046,-0.0,0.2727782726287842,-1.2790969053851526,0.0,-0.03540770709514618,0.6108396053314209,0.0,-0.001228157663717866,1.5161203145980835,0.0,-0.028742341324687004
136.0,201.0,5.8905,-1.4273,6.9858,-0.0356,0.0197,-0.1165,-1.8979212246336878,0.0,3.542490005493164,-1.1317228078842163,-0.0,2.1418137550354004,3.912951632136963,-0.0,0.2667672634124756,-1.2791131178485315,0.0,-0.023225087672472,0.6108673810958862,0.0,-0.00025681592524051666,1.5161124467849731,0.0,0.02922792360186577
136.0,201.0,5.8905,-1.4273,6.9858,-0.0356,0.0197,-0.1165,-1.8979855976500453,0.0,3.5330557823181152,-1.1316909790039062,-0.0,2.194105386734009,3.9129678446003417,-0.0,0.2608558237552643,-1.279053036366598,0.0,-0.03657921403646469,0.6108673810958862,0.0,-0.007069406099617481,1.5161124467849731,0.0,-0.016909759491682053
136.0,201.0,5.8905,-1.4273,6.9858,-0.0356,0.0197,-0.1165,-1.8979369602599085,0.0,3.5776870250701904,-1.1316710710525513,-0.0,2.1504011154174805,3.9129678446003417,-0.0,0.2802133858203888,-1.2790854612933558,0.0,-0.024364063516259193,0.610863447189331,0.0,0.00041795289143919945,1.5160609483718872,0.0,0.05999169871211052
136.0,201.0,5.8905,-1.4273,6.9858,-0.0356,0.0197,-0.1165,-1.8979855976500453,0.0,3.528961658477783,-1.131666660308838,-0.0,2.1861891746520996,3.9129716592976074,-0.0,0.27309441566467285,-1.2791250387774866,0.0,-0.03162812814116478,0.6108753085136414,0.0,-0.00613454170525074,1.516100525856018,0.0,0.04052780941128731
136.0,201.0,5.8905,-1.4273,6.9858,-0.0356,0.0197,-0.1165,-1.897989889184469,0.0,3.617940902709961,-1.1317108869552612,-0.0,2.2201056480407715,3.9129673677631835,-0.0,0.2710609436035156,-1.2791374365436,0.0,-0.03785864636301994,0.6108673810958862,0.0,-0.015001282095909119,1.5160926580429077,0.0,0.008890397846698761
136.0,201.0,5.8905,-1.4273,6.9858,-0.0356,0.0197,-0.1165,-1.897973199883932,0.0,3.5831894874572754,-1.131666660308838,-0.0,2.1789627075195312,3.912963553065918,-0.0,0.2845666706562042,-1.2790969053851526,0.0,-0.03152773529291153,0.6108515858650208,0.0,0.004649105481803417,1.5161044597625732,0.0,0.00015845801681280136
136.0,201.0,5.8905,-1.4273,6.9858,-0.0356,0.0197,-0.1165,-1.8979574642577113,0.0,3.564103126525879,-1.1317108869552612,-0.0,2.1870436668395996,3.913031740779541,-0.0,0.2814514636993408,-1.2790854612933558,0.0,-0.03393018990755081,0.6108832359313965,0.0,0.0003964576171711087,1.516108512878418,0.0,0.01718972437083721
136.0,201.0,5.8905,-1.4273,6.9858,-0.0356,0.0197,-0.1165,-1.8979608021178187,0.0,3.5473835468292236,-1.1317307949066162,-0.0,2.197179079055786,3.912975473994873,-0.0,0.2725980877876282,-1.279121224080221,0.0,-0.035509686917066574,0.6108516454696655,0.0,-0.007041097152978182,1.5160926580429077,0.0,-0.0318034365773201
136.0,201.0,5.8905,-1.4273,6.9858,-0.0356,0.0197,-0.1165,-1.897973199883932,0.0,3.5605082511901855,-1.131670594215393,-0.0,2.200108289718628,3.9129835802265625,-0.0,0.2708987891674042,-1.2791288534747522,0.0,-0.031820546835660934,0.6108195185661316,0.0,-0.023167455568909645,1.5160728693008423,0.0,-0.02957002818584442
140.0,196.0,5.8313,-1.3831,7.0098,-0.0396,0.0226,-0.1182,-1.8979369602599085,0.0,3.52154278755188,-1.1316512823104858,-0.0,2.1670732498168945,3.9129835802265625,-0.0,0.2814333736896515,-1.279109303151266,0.0,-0.030336879193782806,0.6108276844024658,0.0,-0.007320576347410679,1.516088604927063,0.0,0.03408404067158699
140.0,196.0,5.8313,-1.3831,7.0098,-0.0396,0.0226,-0.1182,-1.897928854028219,0.0,3.5397024154663086,-1.1317428350448608,-0.0,2.148993492126465,3.912975950832031,-0.0,0.27030274271965027,-1.2790969053851526,0.0,-0.04155125841498375,0.6108594536781311,0.0,-0.00485922209918499,1.516088604927063,0.0,-0.016654185950756073
140.0,196.0,5.8313,-1.3831,7.0098,-0.0396,0.0226,-0.1182,-1.8979855976500453,0.0,3.5454373359680176,-1.1316072940826416,-0.0,2.1979336738586426,3.9129440027424316,-0.0,0.26801320910453796,-1.2791374365436,0.0,-0.03184902295470238,0.6108391880989075,0.0,-0.01215386763215065,1.5160768032073975,0.0,-0.0020106835290789604
140.0,196.0,5.8313,-1.3831,7.0098,-0.0396,0.0226,-0.1182,-1.8979817829527796,0.0,3.565488576889038,-1.1317187547683716,-0.0,2.1404237747192383,3.912947340602539,-0.0,0.26453086733818054,-1.2791011969195765,0.0,-0.03984566405415535,0.6108675003051758,0.0,-0.007927574217319489,1.516128659248352,0.0,-0.029849771410226822
140.0,196.0,5.8313,-1.3831,7.0098,-0.0396,0.0226,-0.1182,-1.8979774914183558,0.0,3.5653185844421387,-1.1316585540771484,-0.0,2.1475350856781006,3.9129435259052734,-0.0,0.27416783571243286,-1.279081169758932,0.0,-0.03348584473133087,0.610811710357666,0.0,-0.009701937437057495,1.5160768032073975,0.0,-0.0023942366242408752
140.0,196.0,5.8313,-1.3831,7.0098,-0.0396,0.0226,-0.1182,-1.8979855976500453,0.0,3.5655605792999268,-1.131714940071106,-0.0,2.142906427383423,3.912979765529297,-0.0,0.2762033939361572,-1.2791131178485315,0.0,-0.036128100007772446,0.610863447189331,0.0,0.005420404952019453,1.516108512878418,0.0,-0.007301952224224806
140.0,196.0,5.8313,-1.3831,7.0098,-0.0396,0.0226,-0.1182,-1.8979693851866664,0.0,3.526406764984131,-1.1316909790039062,-0.0,2.2068660259246826,3.912947340602539,-0.0,0.2741805911064148,-1.2790849844561976,0.0,-0.042787812650203705,0.6107994318008423,0.0,-0.012289328500628471,1.516108512878418,0.0,0.02817973494529724
140.0,196.0,5.8313,-1.3831,7.0098,-0.0396,0.0226,-0.1182,-1.897945066491598,0.0,3.537156343460083,-1.1317309141159058,-0.0,2.2068326473236084,3.9129678446003417,-0.0,0.27284735441207886,-1.2791250387774866,0.0,-0.04703085869550705,0.6108436584472656,0.0,-0.005958409048616886,1.516096591949463,0.0,-0.020611707121133804
140.0,196.0,5.8313,-1.3831,7.0098,-0.0396,0.0226,-0.1182,-1.8979212246336878,0.0,3.5734810829162598,-1.1316227912902832,-0.0,2.174335479736328,3.9129435259052734,-0.0,0.2717578709125519,-1.2790935675250452,0.0,-0.0298992320895195,0.6108432412147522,0.0,-0.002152351662516594,1.5161124467849731,0.0,-0.016207559034228325
140.0,196.0,5.8313,-1.3831,7.0098,-0.0396,0.0226,-0.1182,-1.8979488811888636,0.0,3.566483497619629,-1.131687045097351,-0.0,2.1621315479278564,3.9129316049763183,-0.0,0.2792026400566101,-1.2790730635272425,0.0,-0.028699778020381927,0.6108477711677551,0.0,0.009598834440112114,1.516108512878418,0.0,0.04292486608028412
140.0,196.0,5.8313,-1.3831,7.0098,-0.0396,0.0226,-0.1182,-1.8979650936522425,0.0,3.5821168422698975,-1.131675124168396,-0.0,2.1816039085388184,3.912959261531494,-0.0,0.2709454298019409,-1.2790692488299769,0.0,-0.03374753147363663,0.6108756065368652,0.0,0.005086943972855806,1.5161044597625732,0.0,-0.013320382684469223
140.0,196.0,5.8313,-1.3831,7.0098,-0.0396,0.0226,-0.1182,-1.897928854028219,0.0,3.537318229675293,-1.1317307949066162,-0.0,2.156137704849243,3.912951632136963,-0.0,0.27588412165641785,-1.2790969053851526,0.0,-0.031049396842718124,0.6108675003051758,0.0,-0.014918706379830837,1.5161044597625732,0.0,0.049274884164333344
134.0,198.0,5.881,-1.3681,7.0146,-0.0374,0.0238,-0.1541,-1.8979369602599085,0.0,3.593290328979492,-1.1316626071929932,-0.0,2.139655113220215,3.9129230219074707,-0.0,0.2708127200603485,-1.2790969053851526,0.0,-0.035367149859666824,0.6108757257461548,0.0,-0.0023848700802773237,1.5161287784576416,0.0,-0.00808043498545885
134.0,198.0,5.881,-1.3681,7.0146,-0.0374,0.0238,-0.1541,-1.8979531727232875,0.0,3.5876595973968506,-1.1316990852355957,-0.0,2.2011044025421143,3.9129678446003417,-0.0,0.27137354016304016,-1.2790935675250452,0.0,-0.04229865223169327,0.6108716726303101,0.0,-0.00768664013594389,1.5160688161849976,0.0,-0.05578303709626198
134.0,198.0,5.881,-1.3681,7.0146,-0.0374,0.0238,-0.1541,-1.897956987420553,0.0,3.542428493499756,-1.1317108869552612,-0.0,2.1892688274383545,3.9129835802265625,-0.0,0.2798534035682678,-1.2790892759906214,0.0,-0.039321523159742355,0.6109039187431335,0.0,-0.0007851130794733763,1.5161044597625732,0.0,-0.026747461408376694
134.0,198.0,5.881,-1.3681,7.0146,-0.0374,0.0238,-0.1541,-1.897956987420553,0.0,3.5841927528381348,-1.131667137145996,-0.0,2.1932148933410645,3.913007898921631,-0.0,0.27322861552238464,-1.2791374365436,0.0,-0.04724361002445221,0.6107674837112427,0.0,-0.008897124789655209,1.5160926580429077,0.0,0.027575887739658356
134.0,198.0,5.881,-1.3681,7.0146,-0.0374,0.0238,-0.1541,-1.897933145562643,0.0,3.569336414337158,-1.131714940071106,-0.0,2.223060131072998,3.912975950832031,-0.0,0.2744303047657013,-1.2790969053851526,0.0,-0.02358235791325569,0.6108314394950867,0.0,-0.005234775133430958,1.516100525856018,0.0,-0.02346177026629448
134.0,198.0,5.881,-1.3681,7.0146,-0.0374,0.0238,-0.1541,-1.8979650936522425,0.0,3.571472644805908,-1.1317108869552612,-0.0,2.16931414604187,3.9129397112080078,-0.0,0.27328333258628845,-1.2790849844561976,0.0,-0.033244531601667404,0.6108592748641968,0.0,-0.018814977258443832,1.5160727500915527,0.0,-0.021672358736395836
134.0,198.0,5.881,-1.3681,7.0146,-0.0374,0.0238,-0.1541,-1.8979369602599085,0.0,3.550145149230957,-1.1317228078842163,-0.0,2.1971657276153564,3.912947340602539,-0.0,0.27805477380752563,-1.2790854612933558,0.0,-0.025648176670074463,0.6108592748641968,0.0,-0.008896414190530777,1.5161163806915283,0.0,-0.014047837816178799
134.0,198.0,5.881,-1.3681,7.0146,-0.0374,0.0238,-0.1541,-1.897933145562643,0.0,3.570924758911133,-1.131638765335083,-0.0,2.1894545555114746,3.9129273134418945,-0.0,0.2736138701438904,-1.2790730635272425,0.0,-0.037155840545892715,0.6108396053314209,0.0,-0.012785650789737701,1.516116738319397,0.0,-0.012198245152831078
134.0,198.0,5.881,-1.3681,7.0146,-0.0374,0.0238,-0.1541,-1.8979488811888636,0.0,3.5890681743621826,-1.1316909790039062,-0.0,2.1901795864105225,3.9129316049763183,-0.0,0.27473920583724976,-1.279109303151266,0.0,-0.023491568863391876,0.6108958125114441,0.0,-0.01577899605035782,1.516108512878418,0.0,0.02856898494064808
134.0,198.0,5.881,-1.3681,7.0146,-0.0374,0.0238,-0.1541,-1.8979817829527796,0.0,3.570098876953125,-1.131666660308838,-0.0,2.160900115966797,3.9129397112080078,-0.0,0.2692559063434601,-1.2791250387774866,0.0,-0.022275380790233612,0.610851526260376,0.0,-0.0024837851524353027,1.516108512878418,0.0,-0.01407564990222454
134.0,198.0,5.881,-1.3681,7.0146,-0.0374,0.0238,-0.1541,-1.8979131184019984,0.0,3.576169729232788,-1.131630778312683,-0.0,2.1939620971679688,3.9129835802265625,-0.0,0.2608826160430908,-1.279081169758932,0.0,-0.017774295061826706,0.6108879446983337,0.0,-0.01172797754406929,1.5161325931549072,0.0,0.029904372990131378
134.0,198.0,5.881,-1.3681,7.0146,-0.0374,0.0238,-0.1541,-1.897973199883932,0.0,3.532273292541504,-1.1316989660263062,-0.0,2.1530520915985107,3.9130355554768066,-0.0,0.28335607051849365,-1.2791288534747522,0.0,-0.03450150042772293,0.6109161376953125,0.0,-0.010207204148173332,1.5160768032073975,0.0,0.01664714887738228
139.0,202.0,5.8642,-1.334,7.0199,-0.0269,0.0221,-0.1136,-1.897956987420553,0.0,3.5795645713806152,-1.1316710710525513,-0.0,2.1848995685577393,3.912963553065918,-0.0,0.27680227160453796,-1.2790449301349085,0.0,-0.045467644929885864,0.6108592748641968,0.0,-0.021207861602306366,1.5161445140838623,0.0,-0.03155545890331268
139.0,202.0,5.8642,-1.334,7.0199,-0.0269,0.0221,-0.1136,-1.8979650936522425,0.0,3.537130355834961,-1.131675124168396,-0.0,2.177727222442627,3.9129273134418945,-0.0,0.2743302583694458,-1.279105011616842,0.0,-0.02815397083759308,0.6108555793762207,0.0,-0.009983737021684647,1.516096591949463,0.0,0.0065132612362504005
139.0,202.0,5.8642,-1.334,7.0199,-0.0269,0.0221,-0.1136,-1.8979369602599085,0.0,3.6051416397094727,-1.1316871643066406,-0.0,2.200960397720337,3.9129273134418945,-0.0,0.28491050004959106,-1.2791374365436,0.0,-0.0233987495303154,0.6108474731445312,0.0,-0.005090249236673117,1.5161206722259521,0.0,0.014739437960088253
139.0,202.0,5.8642,-1.334,7.0199,-0.0269,0.0221,-0.1136,-1.8979817829527796,0.0,3.5565924644470215,-1.1316546201705933,-0.0,2.1871931552886963,3.912971182460449,-0.0,0.266854852437973,-1.2791131178485315,0.0,-0.036108002066612244,0.6108596324920654,0.0,-0.003427827963605523,1.516108512878418,0.0,0.02639121189713478
139.0,202.0,5.8642,-1.334,7.0199,-0.0269,0.0221,-0.1136,-1.8979488811888636,0.0,3.5235629081726074,-1.1317387819290161,-0.0,2.1993677616119385,3.913003607387207,-0.0,0.2598796486854553,-1.279109303151266,0.0,-0.03679957985877991,0.6108236312866211,0.0,-0.01705039292573929,1.5160926580429077,0.0,-0.062137626111507416
139.0,202.0,5.8642,-1.334,7.0199,-0.0269,0.0221,-0.1136,-1.8979650936522425,0.0,3.562389373779297,-1.131666660308838,-0.0,2.1943719387054443,3.912975473994873,-0.0,0.2807874083518982,-1.2791011969195765,0.0,-0.0226760171353817,0.6109237670898438,0.0,-0.0023583611473441124,1.5161325931549072,0.0,-0.007831374183297157
139.0,202.0,5.8642,-1.334,7.0199,-0.0269,0.0221,-0.1136,-1.897973199883932,0.0,3.5911459922790527,-1.1316546201705933,-0.0,2.1267433166503906,3.9129273134418945,-0.0,0.2702586352825165,-1.279109303151266,0.0,-0.028461333364248276,0.6108556389808655,0.0,-0.0006587163079530001,1.516096591949463,0.0,0.00047134864144027233
139.0,202.0,5.8642,-1.334,7.0199,-0.0269,0.0221,-0.1136,-1.8979531727232875,0.0,3.542376756668091,-1.131674885749817,-0.0,2.167954921722412,3.9129835802265625,-0.0,0.27084699273109436,-1.279105011616842,0.0,-0.02674887701869011,0.6108354926109314,0.0,-0.01983058825135231,1.5161246061325073,0.0,-0.03547529876232147
139.0,202.0,5.8642,-1.334,7.0199,-0.0269,0.0221,-0.1136,-1.8979817829527796,0.0,3.591887950897217,-1.1316909790039062,-0.0,2.1751394271850586,3.9129678446003417,-0.0,0.2734300196170807,-1.2791011969195765,0.0,-0.04084710031747818,0.6108675003051758,0.0,-0.0006277859210968018,1.516108512878418,0.0,0.027096783742308617
139.0,202.0,5.8642,-1.334,7.0199,-0.0269,0.0221,-0.1136,-1.8979817829527796,0.0,3.5750539302825928,-1.1316990852355957,-0.0,2.2371578216552734,3.912951632136963,-0.0,0.2661650478839874,-1.2791531721698206,0.0,-0.022866155952215195,0.610775351524353,0.0,0.006669959053397179,1.5160846710205078,0.0,0.00528984609991312
139.0,202.0,5.8642,-1.334,7.0199,-0.0269,0.0221,-0.1136,-1.8979608021178187,0.0,3.5879530906677246,-1.1316710710525513,-0.0,2.1791133880615234,3.912923498744629,-0.0,0.26958727836608887,-1.279109303151266,0.0,-0.0238143652677536,0.610827624797821,0.0,-0.00629395991563797,1.516072392463684,0.0,-0.0018839966505765915
139.0,202.0,5.8642,-1.334,7.0199,-0.0269,0.0221,-0.1136,-1.8979531727232875,0.0,3.5598855018615723,-1.1316871643066406,-0.0,2.1889548301696777,3.912935419673584,-0.0,0.26982688903808594,-1.2791255156146448,0.0,-0.03941374272108078,0.6108276844024658,0.0,-0.01259938720613718,1.5161166191101074,0.0,0.006663389503955841
139.0,202.0,5.8642,-1.334,7.0199,-0.0269,0.0221,-0.1136,-1.897933145562643,0.0,3.560549736022949,-1.131666660308838,-0.0,2.143075704574585,3.912975473994873,-0.0,0.278907835483551,-1.279105011616842,0.0,-0.029906118288636208,0.61087566614151,0.0,-0.011381085962057114,1.516128659248352,0.0,0.0332556888461113
131.0,206.0,5.8672,-1.3603,6.9852,-0.0363,0.0261,-0.1222,-1.8979250393309535,0.0,3.5432538986206055,-1.131670594215393,-0.0,2.200913906097412,3.9129392343708496,-0.0,0.27168577909469604,-1.2790773550616663,0.0,-0.03181266039609909,0.610851526260376,0.0,0.007248088251799345,1.5161207914352417,0.0,-0.009388553909957409
131.0,206.0,5.8672,-1.3603,6.9852,-0.0363,0.0261,-0.1222,-1.8979855976500453,0.0,3.5682907104492188,-1.1316629648208618,-0.0,2.180941343307495,3.9129835802265625,-0.0,0.2724556028842926,-1.279093090687887,0.0,-0.029811717569828033,0.6108396053314209,0.0,-0.005094515159726143,1.5161044597625732,0.0,-0.020392676815390587
131.0,206.0,5.8672,-1.3603,6.9852,-0.0363,0.0261,-0.1222,-1.8979774914183558,0.0,3.5675859451293945,-1.131726861000061,-0.0,2.1805028915405273,3.912975473994873,-0.0,0.2797553241252899,-1.2790849844561976,0.0,-0.024340679869055748,0.6107953786849976,0.0,-0.0122060626745224,1.516108512878418,0.0,-0.038336969912052155
131.0,206.0,5.8672,-1.3603,6.9852,-0.0363,0.0261,-0.1222,-1.8979774914183558,0.0,3.5972297191619873,-1.1316152811050415,-0.0,2.1645240783691406,3.912947340602539,-0.0,0.28437966108322144,-1.2790773550616663,0.0,-0.03319726884365082,0.6108797788619995,0.0,-0.009790516458451748,1.5161288976669312,0.0,0.002937070094048977
131.0,206.0,5.8672,-1.3603,6.9852,-0.0363,0.0261,-0.1222,-1.8979488811888636,0.0,3.573945999145508,-1.1316306591033936,-0.0,2.174168586730957,3.912963553065918,-0.0,0.25940796732902527,-1.279081169758932,0.0,-0.021067719906568527,0.6108276844024658,0.0,-0.0009414362721145153,1.516080617904663,0.0,-0.016225537285208702
131.0,206.0,5.8672,-1.3603,6.9852,-0.0363,0.0261,-0.1222,-1.8979855976500453,0.0,3.5902533531188965,-1.1316990852355957,-0.0,2.15441632270813,3.912975473994873,-0.0,0.27058035135269165,-1.2791293303119105,0.0,-0.040381960570812225,0.6108919978141785,0.0,-0.005952347535640001,1.516080617904663,0.0,0.01986648142337799
131.0,206.0,5.8672,-1.3603,6.9852,-0.0363,0.0261,-0.1222,-1.8979608021178187,0.0,3.551192283630371,-1.1316546201705933,-0.0,2.192483901977539,3.912979765529297,-0.0,0.27487337589263916,-1.2791374365436,0.0,-0.03375249356031418,0.6108396053314209,0.0,-0.003270806511864066,1.5161288976669312,0.0,-0.03233066201210022
131.0,206.0,5.8672,-1.3603,6.9852,-0.0363,0.0261,-0.1222,-1.897945066491598,0.0,3.573726177215576,-1.1316909790039062,-0.0,2.1647932529449463,3.9129673677631835,-0.0,0.2697080671787262,-1.2791374365436,0.0,-0.034816477447748184,0.6108075976371765,0.0,-0.012999802827835083,1.516124963760376,0.0,0.014170164242386818
131.0,206.0,5.8672,-1.3603,6.9852,-0.0363,0.0261,-0.1222,-1.8979455433287562,0.0,3.5527238845825195,-1.1316990852355957,-0.0,2.1250388622283936,3.912979765529297,-0.0,0.2750970721244812,-1.279109303151266,0.0,-0.03194112330675125,0.6108075976371765,0.0,-0.016471903771162033,1.5160925388336182,0.0,-0.01367522869259119
131.0,206.0,5.8672,-1.3603,6.9852,-0.0363,0.0261,-0.1222,-1.8979531727232875,0.0,3.5628557205200195,-1.131683111190796,-0.0,2.1936841011047363,3.913007898921631,-0.0,0.27413231134414673,-1.2790892759906214,0.0,-0.03704920783638954,0.6108555793762207,0.0,0.003967979457229376,1.516108512878418,0.0,-0.035929422825574875
131.0,206.0,5.8672,-1.3603,6.9852,-0.0363,0.0261,-0.1222,-1.8979131184019984,0.0,3.571190357208252,-1.131706953048706,-0.0,2.179718255996704,3.9129559236713867,-0.0,0.2626076936721802,-1.2791011969195765,0.0,-0.03971760720014572,0.6108596920967102,0.0,-0.0034959791228175163,1.5161125659942627,0.0,0.024348290637135506
131.0,206.0,5.8672,-1.3603,6.9852,-0.0363,0.0261,-0.1222,-1.8980137310423792,0.0,3.5760793685913086,-1.131666660308838,-0.0,2.218865156173706,3.912963553065918,-0.0,0.2689307928085327,-1.279053036366598,0.0,-0.024680353701114655,0.6108916401863098,0.0,-0.008150852285325527,1.5160765647888184,0.0,0.03966140374541283
136.0,195.0,5.8816,-1.3525,7.0164,-0.0299,0.0243,-0.1182,-1.8979574642577113,0.0,3.5700020790100098,-1.131695032119751,-0.0,2.2096590995788574,3.9129316049763183,-0.0,0.27598220109939575,-1.2791174093829554,0.0,-0.03754686936736107,0.6108837723731995,0.0,-0.011235682293772697,1.5160564184188843,0.0,-0.0058567337691783905
136.0,195.0,5.8816,-1.3525,7.0164,-0.0299,0.0243,-0.1182,-1.897928854028219,0.0,3.5742852687835693,-1.1316710710525513,-0.0,2.2058348655700684,3.912951632136963,-0.0,0.2664562463760376,-1.2790935675250452,0.0,-0.034954819828271866,0.6108396053314209,0.0,-0.008326252922415733,1.5160846710205078,0.0,0.02057863399386406
136.0,195.0,5.8816,-1.3525,7.0164,-0.0299,0.0243,-0.1182,-1.8980018101134242,0.0,3.576822280883789,-1.131683111190796,-0.0,2.148341655731201,3.912891073817871,-0.0,0.2842799425125122,-1.2790969053851526,0.0,-0.026748662814497948,0.610863447189331,0.0,0.0032510708551853895,1.516096591949463,0.0,0.027338311076164246
136.0,195.0,5.8816,-1.3525,7.0164,-0.0299,0.0243,-0.1182,-1.8979693851866664,0.0,3.5696115493774414,-1.131687045097351,-0.0,2.1623268127441406,3.9128996568867187,-0.0,0.27415183186531067,-1.2791374365436,0.0,-0.034123703837394714,0.6108878254890442,0.0,-0.006530699785798788,1.516096591949463,0.0,-0.01922108419239521
136.0,195.0,5.8816,-1.3525,7.0164,-0.0299,0.0243,-0.1182,-1.8979531727232875,0.0,3.5876944065093994,-1.131714940071106,-0.0,2.17215895652771,3.9129435259052734,-0.0,0.2737688720226288,-1.2790730635272425,0.0,-0.019387610256671906,0.6108355522155762,0.0,0.0005146041512489319,1.5161206722259521,0.0,0.02570425532758236
136.0,195.0,5.8816,-1.3525,7.0164,-0.0299,0.0243,-0.1182,-1.897973199883932,0.0,3.5608890056610107,-1.131666660308838,-0.0,2.138857364654541,3.9129678446003417,-0.0,0.2831122875213623,-1.2791250387774866,0.0,-0.03296681120991707,0.6108314394950867,0.0,-0.004338540136814117,1.516136646270752,0.0,0.02685641311109066
136.0,195.0,5.8816,-1.3525,7.0164,-0.0299,0.0243,-0.1182,-1.8979412517943324,0.0,3.5554087162017822,-1.1317591667175293,-0.0,2.2027883529663086,3.9129392343708496,-0.0,0.27516990900039673,-1.2791174093829554,0.0,-0.027794355526566505,0.6108236312866211,0.0,-0.012361684814095497,1.516108512878418,0.0,-0.00646305363625288
136.0,195.0,5.8816,-1.3525,7.0164,-0.0299,0.0243,-0.1182,-1.8979855976500453,0.0,3.527515411376953,-1.131666660308838,-0.0,2.1751034259796143,3.912963553065918,-0.0,0.2676137089729309,-1.2791250387774866,0.0,-0.028719067573547363,0.6108596920967102,0.0,-0.012282107025384903,1.5160846710205078,0.0,0.022821864113211632
136.0,195.0,5.8816,-1.3525,7.0164,-0.0299,0.0243,-0.1182,-1.8979650936522425,0.0,3.558310031890869,-1.1316626071929932,-0.0,2.1523385047912598,3.9129716592976074,-0.0,0.26549389958381653,-1.2790935675250452,0.0,-0.03866705670952797,0.6108396053314209,0.0,-0.0016728481277823448,1.5161043405532837,0.0,-0.027605928480625153
136.0,195.0,5.8816,-1.3525,7.0164,-0.0299,0.0243,-0.1182,-1.897973199883932,0.0,3.5123777389526367,-1.131695032119751,-0.0,2.144207715988159,3.9129716592976074,-0.0,0.2677188515663147,-1.2790892759906214,0.0,-0.027222763746976852,0.6108474731445312,0.0,-0.008671838790178299,1.5160722732543945,0.0,-0.06803065538406372
136.0,195.0,5.8816,-1.3525,7.0164,-0.0299,0.0243,-0.1182,-1.8979979954161585,0.0,3.5311927795410156,-1.1316471099853516,-0.0,2.165896415710449,3.912951632136963,-0.0,0.2666870057582855,-1.2791255156146448,0.0,-0.031010057777166367,0.6107834577560425,0.0,-0.0014829870779067278,1.5161248445510864,0.0,-0.00781281478703022
136.0,195.0,5.8816,-1.3525,7.0164,-0.0299,0.0243,-0.1182,-1.8980175457396449,0.0,3.560147762298584,-1.1316546201705933,-0.0,2.165804624557495,3.9129316049763183,-0.0,0.26470446586608887,-1.2791007200824183,0.0,-0.0300275981426239,0.6108596920967102,0.0,-0.005674542859196663,1.5161288976669312,0.0,-0.021095188334584236
139.0,195.0,5.8307,-1.3729,7.0433,-0.0342,0.0249,-0.1242,-1.8979693851866664,0.0,3.5734550952911377,-1.1316909790039062,-0.0,2.175625801086426,3.912959261531494,-0.0,0.26820844411849976,-1.2791088263141077,0.0,-0.03884856030344963,0.610863447189331,0.0,-0.004757555201649666,1.5160925388336182,0.0,-0.04881397262215614
139.0,195.0,5.8307,-1.3729,7.0433,-0.0342,0.0249,-0.1242,-1.8979813061156214,0.0,3.550400733947754,-1.1317189931869507,-0.0,2.187653064727783,3.9129955011555175,-0.0,0.26842284202575684,-1.2791255156146448,0.0,-0.018585946410894394,0.6108396053314209,0.0,-0.0006981657352298498,1.5161166191101074,0.0,-0.04841826856136322
139.0,195.0,5.8307,-1.3729,7.0433,-0.0342,0.0249,-0.1242,-1.897989889184469,0.0,3.5494656562805176,-1.131675124168396,-0.0,2.1816458702087402,3.912895365352295,-0.0,0.27586737275123596,-1.279133145009176,0.0,-0.02690914273262024,0.6108195185661316,0.0,-0.0011723435018211603,1.5160925388336182,0.0,0.015408225357532501
139.0,195.0,5.8307,-1.3729,7.0433,-0.0342,0.0249,-0.1242,-1.8979817829527796,0.0,3.5498435497283936,-1.1317229270935059,-0.0,2.1712586879730225,3.912919207210205,-0.0,0.27746614813804626,-1.279121224080221,0.0,-0.04351688548922539,0.6108838319778442,0.0,-0.011918875388801098,1.5161248445510864,0.0,0.010700663551688194
139.0,195.0,5.8307,-1.3729,7.0433,-0.0342,0.0249,-0.1242,-1.898001333276266,0.0,3.5793747901916504,-1.1317188739776611,-0.0,2.1905694007873535,3.9129435259052734,-0.0,0.27940958738327026,-1.2791011969195765,0.0,-0.03296789526939392,0.6108675599098206,0.0,-0.0013995160115882754,1.5161166191101074,0.0,0.008643761277198792
139.0,195.0,5.8307,-1.3729,7.0433,-0.0342,0.0249,-0.1242,-1.897973199883932,0.0,3.5812153816223145,-1.1317309141159058,-0.0,2.2227365970611572,3.912919207210205,-0.0,0.2916538715362549,-1.2791250387774866,0.0,-0.037066780030727386,0.610803484916687,0.0,-0.007428601384162903,1.5160801410675049,0.0,-0.026013322174549103
139.0,195.0,5.8307,-1.3729,7.0433,-0.0342,0.0249,-0.1242,-1.8979975185790003,0.0,3.570319414138794,-1.1317108869552612,-0.0,2.128530979156494,3.9130121904560546,-0.0,0.2723814845085144,-1.2790854612933558,0.0,-0.03497018292546272,0.6108276844024658,0.0,-0.010197972878813744,1.5161408185958862,0.0,0.029030954465270042
139.0,195.0,5.8307,-1.3729,7.0433,-0.0342,0.0249,-0.1242,-1.8979608021178187,0.0,3.581198215484619,-1.1317028999328613,-0.0,2.1822938919067383,3.912959261531494,-0.0,0.28061172366142273,-1.2791255156146448,0.0,-0.03558865934610367,0.6108555793762207,0.0,-0.00605552364140749,1.516100287437439,0.0,-0.016840487718582153
139.0,195.0,5.8307,-1.3729,7.0433,-0.0342,0.0249,-0.1242,-1.8979693851866664,0.0,3.571657180786133,-1.131714940071106,-0.0,2.1846272945404053,3.912979765529297,-0.0,0.2670261263847351,-1.279149357472555,0.0,-0.028616130352020264,0.6107911467552185,0.0,-0.0063122352585196495,1.5161526203155518,0.0,-0.000998457777313888
139.0,195.0,5.8307,-1.3729,7.0433,-0.0342,0.0249,-0.1242,-1.8979693851866664,0.0,3.5818657875061035,-1.1316990852355957,-0.0,2.177868366241455,3.9129435259052734,-2.3686483885398957e-09,0.27888524532318115,-1.2791889349566858,0.0,-0.024899879470467567,0.610855221748352,0.0,-0.0007069185376167297,1.5161043405532837,0.0,-0.0024016317911446095
139.0,195.0,5.8307,-1.3729,7.0433,-0.0342,0.0249,-0.1242,-1.897933145562643,0.0,3.5897459983825684,-1.1316512823104858,-2.7503572752607397e-09,2.174619197845459,3.912987394923828,-4.304900958818948e-14,0.28025758266448975,-1.2791608015643519,0.0,-0.03454044833779335,0.6108035445213318,0.0,-0.02015732042491436,1.5161043405532837,0.0,0.02244107984006405
139.0,195.0,5.8307,-1.3729,7.0433,-0.0342,0.0249,-0.1242,-1.8979369602599085,0.0,3.6025774478912354,-1.131587028503418,-6.641789050844784e-15,2.1362040042877197,3.913031740779541,0.0004922397201880813,0.271162211894989,-1.2790687719928187,0.0,-0.027760669589042664,0.6108276844024658,0.0,-0.004922850988805294,1.5161408185958862,0.0,-0.00048313429579138756
139.0,191.0,5.8756,-1.2891,7.2114,-0.0218,0.0223,-0.1211,-1.8979212246336878,0.0,3.5403757095336914,-1.1316592693328857,-2.1518552821328553e-22,2.1752724647521973,3.9129997926899414,0.0007024926017038524,0.27531400322914124,-1.2791569868670862,-0.00035918320645578206,-0.04269634932279587,0.6108474731445312,0.0,-0.011952683329582214,1.5161042213439941,1.807803641895589e-06,-0.023113984614610672
139.0,191.0,5.8756,-1.2891,7.2114,-0.0218,0.0223,-0.1211,-1.897973199883932,1.8614458585641813e-10,3.5888559818267822,-1.131670594215393,-6.971736247947271e-30,2.166221857070923,3.9130355554768066,0.001081555732525885,0.2913857698440552,-1.2791765371905726,-0.0003272356989327818,-0.03303997963666916,0.6108154654502869,0.0,-0.01781429722905159,1.516132116317749,0.0004715679679065943,0.005498269107192755
139.0,191.0,5.8756,-1.2891,7.2114,-0.0218,0.0223,-0.1211,-1.8979574642577113,4.495173146134234e-16,3.569822311401367,-1.131663203239441,-1.6835921699367172e-35,2.2036426067352295,3.9130756097980957,0.0007679258706048131,0.2672571539878845,-1.2791650930987757,-0.0002769292041193694,-0.031044024974107742,0.6108035445213318,0.0,-0.0070146555081009865,1.5161564350128174,0.00040133364382199943,0.021711813285946846
139.0,191.0,5.8756,-1.2891,7.2114,-0.0218,0.0223,-0.1211,-1.8979250393309535,1.4563787526843844e-23,3.535675048828125,-1.1316509246826172,-5.4510510262235384e-43,2.166684627532959,3.913015528316162,0.000489177880808711,0.2734401524066925,-1.2791526953326624,-0.0002654656709637493,-0.03016144037246704,0.6108436584472656,0.0,-0.006170701701194048,1.5161244869232178,0.0003198262711521238,0.014466430060565472
139.0,191.0,5.8756,-1.2891,7.2114,-0.0218,0.0223,-0.1211,-1.8979412517943324,4.718481814172435e-31,3.538837432861328,-1.1316152811050415,0.00013082876102998853,2.1790642738342285,3.9129668909260253,0.0002991957007907331,0.2835477590560913,-1.2791646162616175,-0.0002290795382577926,-0.0346687026321888,0.6108675599098206,0.0,-0.00597027875483036,1.5161362886428833,0.0003038157301489264,-0.04465336352586746
139.0,191.0,5.8756,-1.2891,7.2114,-0.0218,0.0223,-0.1211,-1.8979817829527796,1.1394578868904476e-36,3.5651450157165527,-1.1316585540771484,0.00010740465950220823,2.2204363346099854,3.913036032313965,0.00024939284776337445,0.283164918422699,-1.2791569868670862,-0.00020654484978877008,-0.045934706926345825,0.6108396053314209,0.0,-0.0009804422734305263,1.516176462173462,0.0002514965017326176,0.024071937426924706
139.0,191.0,5.8756,-1.2891,7.2114,-0.0218,0.0223,-0.1211,-1.897928854028219,9.008593769976869e-05,3.537778377532959,-1.1316274404525757,4.396473377710208e-05,2.1854827404022217,3.9130284029194335,0.0001433504221495241,0.275144100189209,-1.2791650930987757,-0.00018259676289744675,-0.029331471771001816,0.6108596920967102,0.0,-0.006343758665025234,1.5161727666854858,0.0002466268197167665,0.0008661206811666489
139.0,191.0,5.8756,-1.2891,7.2114,-0.0218,0.0223,-0.1211,-1.897945066491598,7.516168989241123e-05,3.5494298934936523,-1.1316672563552856,3.6349258152768016e-05,2.19081711769104,3.912971182460449,0.00010366319474996999,0.27517765760421753,-1.279172722493307,-0.00016362553287763149,-0.0233533326536417,0.6108195781707764,0.0,0.007244521751999855,1.5161244869232178,0.0002085460291709751,-0.015178961679339409
139.0,191.0,5.8756,-1.2891,7.2114,-0.0218,0.0223,-0.1211,-1.897973199883932,6.67940839775838e-05,3.5848875045776367,-1.131575107574463,3.242080856580287e-05,2.1990740299224854,3.913007898921631,-6.903555185999721e-05,0.27259373664855957,-1.279172722493307,-7.000449113547802e-05,-0.028476819396018982,0.6109038591384888,0.0,-0.004422678146511316,1.516152262687683,0.0001868914405349642,-0.021247701719403267
139.0,191.0,5.8756,-1.2891,7.2114,-0.0218,0.0223,-0.1211,-1.8979693851866664,5.816088378196582e-05,3.6003775596618652,-1.131683111190796,2.8337486583041027e-05,2.1762607097625732,3.913043661708496,-8.276994776679203e-05,0.2725975811481476,-1.2791369597064417,-5.110220445203595e-05,-0.034087687730789185,0.6108515858650208,0.0,-0.005650582257658243,1.5161564350128174,0.00013680387928616256,0.018862280994653702
139.0,191.0,5.8756,-1.2891,7.2114,-0.0218,0.0223,-0.1211,-1.897994180718893,5.1504048315109685e-05,3.556324005126953,-1.1316871643066406,2.5167708372464404e-05,2.1813230514526367,3.9129554468342285,-7.989320147316903e-05,0.2685927748680115,-1.2791369597064417,-4.5890330511610955e-05,-0.030277807265520096,0.6107951402664185,0.0,-0.006187629885971546,1.5161441564559937,0.00012197129399282858,0.03438391909003258
139.0,191.0,5.8756,-1.2891,7.2114,-0.0218,0.0223,-0.1211,-1.8979937038817347,4.7432378778466955e-05,3.543952465057373,-1.1316468715667725,2.3219727154355496e-05,2.182638168334961,3.9130193430134277,-7.337898568948731e-05,0.2803465723991394,-1.2791045347796839,-4.2629657400539145e-05,-0.02372487261891365,0.6108432412147522,0.0,0.0035257276613265276,1.5161043405532837,0.00011279901809757575,0.02877107821404934
139.0,201.0,5.8265,-1.6433,7.1946,-0.038,0.015,-0.1173,-1.8979412517943324,4.2909432522719726e-05,3.574498176574707,-1.1316471099853516,2.1047608242952265e-05,2.133805751800537,3.9129831033894042,-6.618379848077893e-05,0.2742663025856018,-1.2791250387774866,-1.980603155971039e-05,-0.050807103514671326,0.6108797788619995,0.0,-0.0031703724525868893,1.5162047147750854,0.00010251971980324015,0.03409978002309799
139.0,201.0,5.8265,-1.6433,7.1946,-0.038,0.015,-0.1173,-1.8979774914183558,6.70259078106028e-06,3.569230318069458,-1.131695032119751,1.9247176169301383e-05,2.2187185287475586,3.913004084224365,-6.027368362993002e-05,0.27274325489997864,-1.2791526953326624,-1.7998780094785616e-05,-0.031167946755886078,0.6108075976371765,0.0,-0.0037149449344724417,1.5161482095718384,9.395762754138559e-05,-0.0057109808549284935
139.0,201.0,5.8265,-1.6433,7.1946,-0.038,0.015,-0.1173,-1.8980056248106898,1.6185967496862297e-11,3.5726318359375,-1.131623387336731,1.8086773707182147e-05,2.1682236194610596,3.9130121904560546,-7.284938328666613e-05,0.27926144003868103,-1.27916127840151,-1.6909532860154286e-05,-0.028791915625333786,0.6107797026634216,0.0,-0.00638845469802618,1.5161685943603516,8.841913950163871e-05,0.024161072447896004
139.0,201.0,5.8265,-1.6433,7.1946,-0.038,0.015,-0.1173,-1.8979693851866664,5.244048495068873e-19,3.5535526275634766,-1.1316750049591064,2.6762114302414375e-08,2.217369318008423,3.912963553065918,-8.629180956631899e-05,0.2681671380996704,-1.2791369597064417,-1.5727517165942118e-05,-0.0399593822658062,0.6108195185661316,0.0,-0.009472895413637161,1.516160488128662,9.837049583438784e-05,0.02718609943985939
139.0,201.0,5.8265,-1.6433,7.1946,-0.038,0.015,-0.1173,-1.8980051479735316,1.6990050146110743e-26,3.549478530883789,-1.1316626071929932,8.670585001932865e-16,2.1758761405944824,3.9129831033894042,-0.00015564041677862406,0.27320596575737,-1.279109303151266,-1.4699916391691659e-05,-0.029081638902425766,0.6108637452125549,0.0,-0.01564541645348072,1.5162122249603271,0.00012204518861835822,-0.034392353147268295
139.0,201.0,5.8265,-1.6433,7.1946,-0.038,0.015,-0.1173,-1.8980175457396449,4.1028975807153163e-32,3.5911483764648438,-1.131658673286438,2.093844142480683e-21,2.1809616088867188,3.912979765529297,-0.00015542999608442187,0.27429908514022827,-1.2791126410113733,-1.4013253348821308e-05,-0.029327765107154846,0.6108075976371765,0.0,0.007324430625885725,1.516180157661438,0.00013503790250979364,-0.013930745422840118
139.0,201.0,5.8265,-1.6433,7.1946,-0.038,0.015,-0.1173,-1.8979693851866664,1.329287137541629e-39,3.582667350769043,-1.1315829753875732,6.783789108109551e-29,2.1954636573791504,3.9129630762287597,-0.00013938471965957433,0.2674992084503174,-1.2791369597064417,-1.3191663128964137e-05,-0.035692617297172546,0.6108314394950867,0.0,-0.0020870778243988752,1.516248345375061,0.0023095428477972746,-0.012435084208846092
139.0,201.0,5.8265,-1.6433,7.1946,-0.038,0.015,-0.1173,-1.8980294666686,0.0,3.5082006454467773,-1.1316072940826416,2.1978612626464826e-36,2.122800827026367,3.912991686458252,-0.0001263398298760876,0.27976977825164795,-1.2791526953326624,-2.4921913791331463e-05,-0.034078776836395264,0.6108355522155762,0.0,0.0007093821186572313,1.5162522792816162,0.0053968289867043495,-0.018751846626400948
139.0,201.0,5.8265,-1.6433,7.1946,-0.038,0.015,-0.1173,-1.8980018101134242,-8.635265112388879e-05,3.501351833343506,-1.131643533706665,5.308118582862407e-42,2.201030969619751,3.913015528316162,-0.00011805343820014969,0.26608386635780334,-1.2791569868670862,-2.3928247173898853e-05,-0.02537991665303707,0.6108592748641968,0.0,-0.002281194319948554,1.5163002014160156,0.006635931320488453,0.037497665733098984
139.0,201.0,5.8265,-1.6433,7.1946,-0.038,0.015,-0.1173,-1.8979488811888636,-3.623179145506583e-05,3.525796890258789,-1.1315871477127075,-0.0,2.1993660926818848,3.912998839015625,-9.046723425853997e-05,0.26898255944252014,-1.2791922728167933,-2.2720141714671627e-05,-0.020979197695851326,0.610839307308197,0.0,-0.0037769945338368416,1.516271948814392,0.0037108801770955324,-0.01122012734413147
139.0,201.0,5.8265,-1.6433,7.1946,-0.038,0.015,-0.1173,-1.8980137310423792,-3.120572728221305e-05,3.563339948654175,-1.1316313743591309,0.000602001731749624,2.2003560066223145,3.912987394923828,-6.713245966238901e-05,0.27405643463134766,-1.2791765371905726,-3.24390857713297e-05,-0.029264356940984726,0.6108797788619995,0.0,-0.00735259335488081,1.5162757635116577,0.0004381827311590314,0.030033575370907784
139.0,201.0,5.8265,-1.6433,7.1946,-0.038,0.015,-0.1173,-1.8979970417418421,-5.6139524531317875e-05,3.5872111320495605,-1.1316230297088623,0.0004295242833904922,2.184461832046509,3.9129955011555175,-6.344480789266527e-05,0.2783510684967041,-1.279168430958883,-3.1313458748627454e-05,-0.025134867057204247,0.6108154654502869,0.0,-0.003551890142261982,1.5163204669952393,0.00012038635031785816,-0.00934302993118763
139.0,201.0,5.8265,-1.6433,7.1946,-0.038,0.015,-0.1173,-1.8980294666686,-9.942675387719646e-05,3.569817543029785,-1.1316070556640625,0.0002486657758709043,2.1579954624176025,3.9129792886921386,-3.2510495657334104e-05,0.27337801456451416,-1.2791765371905726,-2.9925211492809467e-05,-0.02218012511730194,0.6108838319778442,0.0,-0.017300963401794434,1.51630437374115,3.900364840131454e-12,0.009760373272001743
142.0,195.0,6.6479,-1.7121,6.7902,-0.0176,0.0115,-0.1171,-1.8979932270445765,-0.00017398230556864291,3.550260066986084,-1.1316354274749756,-0.00013271058560349047,2.146801710128784,3.9130112367817382,-4.728572821477428e-05,0.26571062207221985,-1.279144589100973,-1.072929523004973e-09,-0.018735969439148903,0.6108635067939758,0.0,-0.004775735549628735,1.5162880420684814,1.2636685706547164e-19,-0.014444872736930847
142.0,195.0,6.6479,-1.7121,6.7902,-0.0176,0.0115,-0.1171,-1.8981253109373988,-0.0012053854297846556,3.5610404014587402,-1.1316108703613281,-0.00021610579278785735,2.1661689281463623,3.913007898921631,-6.695335468975827e-05,0.26946836709976196,-1.2792003790484827,-2.9865386964693375e-13,-0.01778145134449005,0.6108675599098206,0.0,-0.009867815300822258,1.5163280963897705,3.051610790310463e-25,-0.0013175373896956444
142.0,195.0,6.6479,-1.7121,6.7902,-0.0176,0.0115,-0.1171,-1.8980852566161097,-0.003028967883437872,3.5153439044952393,-1.1315990686416626,-0.00022320327116176486,2.147148609161377,3.9129435259052734,-8.450085442746058e-05,0.2776116728782654,-1.2792328039752405,-5.427886387679063e-18,-0.024994060397148132,0.610803484916687,0.0,-0.015658356249332428,1.5163161754608154,9.886830988164803e-33,0.04009387269616127
142.0,195.0,6.6479,-1.7121,6.7902,-0.0176,0.0115,-0.1171,-1.8981415234007777,-0.004356309771537781,3.580658197402954,-1.1316951513290405,-0.00037436792626976967,2.1557745933532715,3.9129554468342285,-0.00032956383074633777,0.26547372341156006,-1.2791851202594202,-9.864914510156455e-23,-0.01448291540145874,0.6107633113861084,0.0,-0.00720198405906558,1.5163158178329468,3.203200133630813e-40,0.01230416726320982
142.0,195.0,6.6479,-1.7121,6.7902,-0.0176,0.0115,-0.1171,-1.8981691799559535,-0.005409774370491505,3.545614719390869,-1.1316626071929932,-0.00029957975493744016,2.1430907249450684,3.912975473994873,-0.0002893020573537797,0.2609698176383972,-1.279168430958883,-2.7459351397761314e-26,-0.048291660845279694,0.6108716130256653,0.0,-0.011640973389148712,1.5163203477859497,1.401298464324817e-45,0.020441219210624695
142.0,195.0,6.6479,-1.7121,6.7902,-0.0176,0.0115,-0.1171,-1.898217340508932,-0.0054229735396802425,3.5199084281921387,-1.1316468715667725,-0.00019119892385788262,2.139335870742798,3.912991686458252,-0.00019889329269062728,0.27848923206329346,-1.279116455708639,-4.99060123322395e-31,-0.005703031551092863,0.6108797788619995,0.0,8.728029206395149e-05,1.5162838697433472,0.0,0.008241266012191772
142.0,195.0,6.6479,-1.7121,6.7902,-0.0176,0.0115,-0.1171,-1.8982211552061976,-0.004570062272250652,3.549450159072876,-1.1316355466842651,-0.00015637194155715406,2.1495015621185303,3.9129630762287597,-0.00016874587163329124,0.2775838375091553,-1.2791650930987757,-9.070171521143944e-36,-0.02275201678276062,0.6108797192573547,0.0,-0.012964757159352303,1.516296148300171,0.0,-0.020879486575722694
142.0,195.0,6.6479,-1.7121,6.7902,-0.0176,0.0115,-0.1171,-1.89829744915151,-0.0040169465355575085,3.6024389266967773,-1.1316348314285278,-0.00013834341370966285,2.2081093788146973,3.9130112367817382,-0.00012135336874052882,0.2654884457588196,-1.279172722493307,-2.52471523927863e-39,-0.03221597149968147,0.6108835339546204,0.0,-0.00851445458829403,1.5163203477859497,0.0,-0.006585886236280203
142.0,195.0,6.6479,-1.7121,6.7902,-0.0176,0.0115,-0.1171,-1.898296972314352,-0.004215633030980825,3.538701057434082,-1.1316912174224854,-0.00011991065548500046,2.154191017150879,3.9130193430134277,-8.019500819500536e-05,0.275840163230896,-1.2791927496539515,-4.624284932271896e-44,-0.019238881766796112,0.6107912063598633,7.284203888957563e-07,-0.01508459635078907,1.5162560939788818,-0.00098764942958951,-0.025121167302131653
142.0,195.0,6.6479,-1.7121,6.7902,-0.0176,0.0115,-0.1171,-1.8984176121153773,-0.0057929209433496,3.571972608566284,-1.1316471099853516,-0.00010581257083686069,2.1724908351898193,3.9129831033894042,-7.167796138674021e-05,0.26163578033447266,-1.2791765371905726,-0.0,-0.021531913429498672,0.6108835935592651,1.3238678382709868e-11,-0.002073040697723627,1.516268253326416,-0.0007597065414302051,0.005164009518921375
142.0,195.0,6.6479,-1.7121,6.7902,-0.0176,0.0115,-0.1171,-1.898405214349264,-0.007760282140225172,3.5421741008758545,-1.1316468715667725,-9.723822586238384e-05,2.2046456336975098,3.9130069452473144,-6.639014463871717e-05,0.2763271629810333,-1.2791927496539515,-0.0,-0.027272360399365425,0.6108715534210205,3.685035471754673e-15,-0.0014654459664598107,1.5162560939788818,-0.0006235134205780923,0.004785874858498573
142.0,195.0,6.6479,-1.7121,6.7902,-0.0176,0.0115,-0.1171,-1.8985134563841761,-0.009023845195770264,3.537961959838867,-1.1316707134246826,-8.775669994065538e-05,2.184026002883911,3.9130069452473144,5.500304541783407e-05,0.2585532069206238,-1.279200855885641,-0.0,-0.019415080547332764,0.6108998656272888,6.69736993464245e-20,-0.010913082398474216,1.516228199005127,-0.00046075103455223143,0.007410085294395685
139.0,189.0,5.921,-0.786,7.0367,-0.0229,0.0234,-0.1226,-1.8985005817809046,-0.008353406563401222,3.5361924171447754,-1.1316313743591309,-7.996007479960099e-05,2.1785225868225098,3.913055582637451,6.71792367938906e-05,0.26831188797950745,-1.2791526953326624,-0.0,-0.04219899699091911,0.6109161376953125,1.2172136586549922e-24,-0.002785750199109316,1.5162441730499268,-0.0003883778990712017,0.024315090849995613
139.0,189.0,5.921,-0.786,7.0367,-0.0229,0.0234,-0.1226,-1.8985849819579066,-0.00702157337218523,3.579774856567383,-1.1316313743591309,-5.622382741421461e-05,2.171625852584839,3.9130355554768066,8.764828089624643e-05,0.27202433347702026,-1.2791484037982386,-0.0,-0.026060353964567184,0.610883891582489,3.388159032371704e-28,-0.011985576711595058,1.51626455783844,-0.0003726010618265718,-0.012486157938838005
139.0,189.0,5.921,-0.786,7.0367,-0.0229,0.0234,-0.1226,-1.898637434045309,-0.005231332499533892,3.5240840911865234,-1.131606936454773,4.112100214115344e-05,2.1386990547180176,3.9130474764057617,0.00010274493251927197,0.28058886528015137,-1.2791650930987757,-0.0,-0.023396961390972137,0.6108998656272888,6.157810626393245e-33,-0.010612931102514267,1.5161999464035034,-0.0003443503810558468,0.015240995213389397
139.0,189.0,5.921,-0.786,7.0367,-0.0229,0.0234,-0.1226,-1.8986288509764613,-0.0040440126322209835,3.56826114654541,-1.131646752357483,5.625974154099822e-05,2.2118794918060303,3.913003130550049,0.0002419282973278314,0.2709829807281494,-1.279172722493307,-0.0,-0.025247422978281975,0.6108396053314209,1.1191517268958553e-37,-0.015762370079755783,1.5162441730499268,-0.0002891000476665795,0.016491182148456573
139.0,189.0,5.921,-0.786,7.0367,-0.0229,0.0234,-0.1226,-1.8986808262267054,-0.0030478385742753744,3.549297571182251,-1.1316394805908203,5.3178468078840524e-05,2.1464571952819824,3.9130593973347167,0.0002523849834688008,0.2879334092140198,-1.2791526953326624,-0.0,-0.02488785795867443,0.6108875274658203,3.115226616040501e-41,-0.010694586671888828,1.5162522792816162,-0.00022591996821574867,0.031664665788412094
139.0,189.0,5.921,-0.786,7.0367,-0.0229,0.0234,-0.1226,-1.8987451992430628,-0.0033496879041194916,3.565727472305298,-1.1316230297088623,6.571750418515876e-05,2.2025599479675293,3.9130593973347167,0.00024813690106384456,0.2752758860588074,-1.279156510029928,-0.0,-0.026129242032766342,0.6108113527297974,0.0,-0.009856194257736206,1.5162039995193481,-0.0001974603219423443,-0.014125756919384003
139.0,189.0,5.921,-0.786,7.0367,-0.0229,0.0234,-0.1226,-1.8987208805479945,-0.003910397179424763,3.5344271659851074,-1.1316070556640625,7.654215733055025e-05,2.1353683471679688,3.9130636888691406,0.0003014168469235301,0.2768324017524719,-1.2792089621173304,-0.0,-0.03870594874024391,0.6108997464179993,0.0,-0.002582562854513526,1.516240119934082,-0.0001754620752763003,0.01998845301568508
139.0,189.0,5.921,-0.786,7.0367,-0.0229,0.0234,-0.1226,-1.898712774316305,-0.004292624536901712,3.561082363128662,-1.131598949432373,7.284810999408364e-05,2.1916260719299316,3.913015051479004,0.00032156953238882124,0.2600833773612976,-1.2791650930987757,-0.0,-0.04641255736351013,0.6108436584472656,0.0,-0.0020111354533582926,1.516231894493103,-0.00016193199553526938,-0.002182861790060997
139.0,189.0,5.921,-0.786,7.0367,-0.0229,0.0234,-0.1226,-1.8987928829588832,-0.0048299324698746204,3.537198543548584,-1.1316629648208618,0.00018255936447530985,2.1829981803894043,3.9130469995686035,0.0003238499630242586,0.26347270607948303,-1.279184643422262,-0.0,-0.05352886766195297,0.6107954382896423,0.0,0.004255804233253002,1.5162441730499268,-0.00014683519839309156,-0.036200348287820816
139.0,189.0,5.921,-0.786,7.0367,-0.0229,0.0234,-0.1226,-1.8988286457457484,-0.005436189007014036,3.536240339279175,-1.1316111087799072,0.00015707052079960704,2.1790878772735596,3.913067026729248,0.0003547713567968458,0.26791587471961975,-1.2791689077960413,-0.0,-0.0444348007440567,0.610891580581665,0.0,-0.009742045775055885,1.516240119934082,-0.00013431346451397985,0.05632776767015457
139.0,189.0,5.921,-0.786,7.0367,-0.0229,0.0234,-0.1226,-1.898876806298727,-0.006324185989797115,3.5055105686187744,-1.1316351890563965,0.00016086260438896716,2.1061882972717285,3.9130589204975585,0.00038378441240638494,0.2689749598503113,-1.2791526953326624,-1.3254290252007195e-06,-0.062386706471443176,0.6108956933021545,0.0,-0.006985753774642944,1.516276478767395,-7.241999264806509e-05,0.05871261656284332
139.0,189.0,5.921,-0.786,7.0367,-0.0229,0.0234,-0.1226,-1.8989201984801234,-0.007562760263681412,3.49464750289917,-1.131658911705017,0.00015147407248150557,2.1773035526275635,3.913083716029785,0.00039689624099992216,0.26876235008239746,-1.279184643422262,-2.4089017239270483e-11,-0.04641979932785034,0.6108715534210205,0.0,-0.0022832490503787994,1.51628839969635,-4.0433198591927066e-05,0.07057597488164902
135.0,202.0,5.851,-1.477,7.1067,-0.036,0.0191,-0.1248,-1.8989726505675257,-0.008047840557992458,3.4766886234283447,-1.1316394805908203,0.00013971641601528972,2.128805637359619,3.9130756097980957,0.00043546987581066787,0.28178098797798157,-1.279212776814596,-6.705266546944968e-15,-0.04793277382850647,0.6108675003051758,0.0,0.00346401147544384,1.516284704208374,-1.8941469534183852e-05,0.0453445240855217
135.0,202.0,5.851,-1.477,7.1067,-0.036,0.0191,-0.1248,-1.8990770779051722,-0.009507892653346062,3.4519805908203125,-1.1316111087799072,0.000126612838357687,2.1252732276916504,3.913083716029785,0.0003161864588037133,0.26887983083724976,-1.2791808287249964,-0.0003326946753077209,-0.06382797658443451,0.6108675599098206,0.0,-0.004289622418582439,1.5162724256515503,-9.56410772801064e-09,0.09737524390220642
135.0,202.0,5.851,-1.477,7.1067,-0.036,0.0191,-0.1248,-1.8991528950133265,-0.01060381717979908,3.3997020721435547,-1.1316394805908203,0.00011575631651794538,2.0966060161590576,3.913111849422119,0.0002831781457643956,0.2720203399658203,-1.279168430958883,-0.00039277918403968215,-0.08168376982212067,0.6108715534210205,0.0,0.003270162735134363,1.5163002014160156,-3.0986490148701836e-16,0.1866493970155716
135.0,202.0,5.851,-1.477,7.1067,-0.036,0.0191,-0.1248,-1.89915194133901,-0.011272036470472813,3.3150365352630615,-1.1316111087799072,0.00010876202577492222,2.1360254287719727,3.9130794244953613,0.0002542917209211737,0.2710250914096832,-1.2791603247271937,-0.00038396287709474564,-0.0807054415345192,0.6108675003051758,0.0,-0.011165929026901722,1.5162482261657715,-7.482873023759219e-22,0.1825648695230484
135.0,202.0,5.851,-1.477,7.1067,-0.036,0.0191,-0.1248,-1.8992802105345667,-0.013451864942908287,3.333834171295166,-1.1316434144973755,0.00010065310198115185,2.08107590675354,3.9130827623554687,0.00021397913224063814,0.26714950799942017,-1.279196564351217,-0.00045353645691648126,-0.09872560203075409,0.6109272837638855,0.0,0.004862474277615547,1.5162078142166138,-2.4243557991697915e-29,0.1321258693933487
135.0,202.0,5.851,-1.477,7.1067,-0.036,0.0191,-0.1248,-1.89943327526235,-0.014716094359755516,3.316959857940674,-1.1315830945968628,9.36693322728388e-05,2.0428619384765625,3.913099451656006,0.00018469915085006505,0.2636285424232483,-1.2791808287249964,-0.000402745179599151,-0.09654857218265533,0.6108715534210205,0.0,0.0073838504031300545,1.5162642002105713,-7.854604787446357e-37,0.23509752750396729
135.0,202.0,5.851,-1.477,7.1067,-0.036,0.0191,-0.1248,-1.8994599781432093,-0.01504009310156107,3.279890298843384,-1.1315950155258179,8.903611887944862e-05,2.129277229309082,3.9131156641193847,0.00016750911890994757,0.27595698833465576,-1.279228989277975,-0.0003830759960692376,-0.09773290157318115,0.6109674572944641,9.513664167570823e-07,-0.002947093453258276,1.5162081718444824,-1.8973581206958023e-42,0.18818148970603943
135.0,202.0,5.851,-1.477,7.1067,-0.036,0.0191,-0.1248,-1.8996163807311,-0.015208175405859947,3.3131210803985596,-1.131598949432373,8.352738950634375e-05,2.0910792350769043,3.9131313997456054,0.0001490170689066872,0.2657807171344757,-1.2791722456561487,-0.00033713673474267125,-0.10476192831993103,0.6108112931251526,5.370388680603355e-05,0.010438716039061546,1.5162724256515503,0.0,0.2592935562133789
135.0,202.0,5.851,-1.477,7.1067,-0.036,0.0191,-0.1248,-1.8997403583922328,-0.015712998807430267,3.27744197845459,-1.1315630674362183,7.866055238991976e-05,2.078772783279419,3.9131271082111816,0.00013420270988717675,0.2652899920940399,-1.2791722456561487,-0.0003113628481514752,-0.11668067425489426,0.6108593940734863,6.13355659879744e-05,0.004037325736135244,1.5162522792816162,0.0,0.28741058707237244
135.0,202.0,5.851,-1.477,7.1067,-0.036,0.0191,-0.1248,-1.899804254571432,-0.01604098081588745,3.2472238540649414,-1.1316070556640625,7.53670756239444e-05,2.0626165866851807,3.913067503566406,0.0001248906773980707,0.26757553219795227,-1.2791803518878382,-0.00034796498948708177,-0.12455981224775314,0.6109032034873962,3.0147670258884318e-05,0.0033557270653545856,1.5162564516067505,0.0,0.2714923918247223
135.0,202.0,5.851,-1.477,7.1067,-0.036,0.0191,-0.1248,-1.8999515972533167,-0.018638692796230316,3.237689971923828,-1.1316354274749756,7.138207001844421e-05,2.0847840309143066,3.913090868587158,0.00011431475286372006,0.27324655652046204,-1.2792280356036585,-0.0004196645750198513,-0.12113057076931,0.6108756065368652,5.479190434698467e-10,-0.0012392521603032947,1.516280174255371,0.00022314545640256256,0.34409070014953613
135.0,202.0,5.851,-1.477,7.1067,-0.036,0.0191,-0.1248,-1.9001437626280726,-0.023063939064741135,3.205951690673828,-1.1315871477127075,6.77972930134274e-05,2.086231231689453,3.913095160121582,0.00010539046343183145,0.262922078371048,-1.2792251745807093,-0.0006617220351472497,-0.12007062882184982,0.6109032034873962,9.95815554988939e-15,0.009569928050041199,1.5162482261657715,0.0017418882343918085,0.3204036355018616
133.0,194.0,5.9031,-1.3555,6.7926,-0.035,0.0037,-0.1353,-1.9002515278258265,-0.025538120418787003,3.134139060974121,-1.1316111087799072,6.533645500894636e-05,2.020831346511841,3.9131313997456054,9.956106077879667e-05,0.25445520877838135,-1.2792041937457483,-0.0006587071693502367,-0.13904796540737152,0.6108471155166626,2.7718890569052493e-18,-0.002690742490813136,1.516348123550415,0.0025610714219510555,0.3391382694244385
133.0,194.0,5.9031,-1.3555,6.7926,-0.035,0.0037,-0.1353,-1.9005724392332972,-0.03083394281566143,3.10495662689209,-1.131567120552063,6.232037412701175e-05,2.064417839050293,3.9131156641193847,9.272271563531831e-05,0.26623305678367615,-1.2791884581195276,-0.0006518796435557306,-0.13464656472206116,0.6108951568603516,5.037771448102681e-23,-0.0022113285958766937,1.516336441040039,0.003437724430114031,0.35803133249282837
133.0,194.0,5.9031,-1.3555,6.7926,-0.035,0.0037,-0.1353,-1.9008318386473597,-0.03845739737153053,3.089848756790161,-1.1316150426864624,5.957045505056158e-05,2.0498762130737305,3.9130827623554687,8.676343713887036e-05,0.2511947751045227,-1.2792170683490198,-0.0006181342178024352,-0.12052960693836212,0.6109314560890198,0.00015061827434692532,0.01953856833279133,1.5163642168045044,0.004073875490576029,0.3785538673400879
133.0,194.0,5.9031,-1.3555,6.7926,-0.035,0.0037,-0.1353,-1.901071687737936,-0.043838292360305786,3.07552433013916,-1.1315586566925049,1.438556357369336e-10,2.04945969581604,3.9130827623554687,8.277364395326003e-05,0.26758670806884766,-1.2792251745807093,-0.0006344251451082528,-0.13689808547496796,0.6108991503715515,0.00016412824334111065,0.003556270385161042,1.5163400173187256,0.004315253812819719,0.38532713055610657
133.0,194.0,5.9031,-1.3555,6.7926,-0.035,0.0037,-0.1353,-1.9013992748656214,-0.05194918066263199,3.1229782104492188,-1.131558895111084,4.660739235262684e-18,2.0288171768188477,3.9131509500690917,7.799161539878696e-05,0.2582233250141144,-1.2792323271380823,-0.0007143275579437613,-0.14424356818199158,0.6109111309051514,0.00014643427857663482,0.010311512276530266,1.5164039134979248,0.0044773719273507595,0.3957844078540802
133.0,194.0,5.9031,-1.3555,6.7926,-0.035,0.0037,-0.1353,-1.9019032917418421,-0.06115292012691498,3.0909156799316406,-1.131531000137329,7.772759272484109e-05,2.022698163986206,3.9131356912800292,8.599340071668848e-05,0.27072620391845703,-1.279212776814596,-0.0012905494077131152,-0.1362292766571045,0.6108672022819519,0.00015409564366564155,0.010368822142481804,1.5164358615875244,0.0043596429750323296,0.389829158782959
133.0,194.0,5.9031,-1.3555,6.7926,-0.035,0.0037,-0.1353,-1.9022346935667933,-0.06795384734869003,3.0626087188720703,-1.1315951347351074,8.691143739270046e-05,2.0171937942504883,3.9130756097980957,8.263579366030172e-05,0.2617722749710083,-1.2792723814593714,-0.002294986043125391,-0.14768388867378235,0.6109029650688171,0.0001435830199625343,0.00664870161563158,1.5164518356323242,0.004006087779998779,0.40055954456329346
133.0,194.0,5.9031,-1.3555,6.7926,-0.035,0.0037,-0.1353,-1.9028469524779261,-0.08025038987398148,3.0836338996887207,-1.131531000137329,0.0005078105605207384,2.0180301666259766,3.913191958064697,7.85163210821338e-05,0.26262423396110535,-1.2792323271380823,-0.004904326982796192,-0.15853649377822876,0.6109635233879089,0.0001503629464423284,0.010032384656369686,1.51644766330719,0.003564920276403427,0.37517884373664856
133.0,194.0,5.9031,-1.3555,6.7926,-0.035,0.0037,-0.1353,-1.9035664997496546,-0.08876453340053558,3.0370383262634277,-1.131578803062439,0.0008558491244912148,2.0496015548706055,3.9131356912800292,8.544836600776762e-05,0.2645435035228729,-1.279339615498678,-0.007944256067276001,-0.15819403529167175,0.6109232902526855,0.0001387886150041595,0.021363716572523117,1.5164555311203003,0.0027172518894076347,0.35987022519111633
133.0,194.0,5.9031,-1.3555,6.7926,-0.035,0.0037,-0.1353,-1.9041220150389613,-0.09102240949869156,3.009835720062256,-1.1315187215805054,0.00116803462151438,2.0286166667938232,3.913163347835205,6.080336606828496e-05,0.2715632915496826,-1.2793954054461878,-0.0055075897835195065,-0.14346641302108765,0.6109352111816406,0.00013120140647515655,0.020832601934671402,1.5164918899536133,0.0018147231312468648,0.40066397190093994
133.0,194.0,5.9031,-1.3555,6.7926,-0.035,0.0037,-0.1353,-1.9048692188658656,-0.09165284037590027,3.081383228302002,-1.131538987159729,0.0008536753593944013,2.0519299507141113,3.9131108957478027,5.4755339078838006e-05,0.28020647168159485,-1.2793553511248987,-0.001291746972128749,-0.1492024064064026,0.6108869314193726,0.00013813594705425203,0.019364189356565475,1.5164594650268555,0.0010595916537567973,0.37352266907691956
133.0,194.0,5.9031,-1.3555,6.7926,-0.035,0.0037,-0.1353,-1.905656477014059,-0.09042279422283173,3.032625198364258,-1.1315065622329712,0.00038862417568452656,2.017699956893921,3.9131509500690917,5.221395622356795e-05,0.2649020254611969,-1.2793996969806116,-0.0005987652693875134,-0.13297641277313232,0.6109555959701538,0.00012303089897613972,0.029434282332658768,1.5164837837219238,0.0006667988491244614,0.34499678015708923
133.0,190.0,4.9161,-1.5093,6.7615,-0.0308,-0.0249,-0.1452,-1.9062406025328578,-0.09281398355960846,3.075258493423462,-1.131538987159729,-0.00018001251737587154,2.0539426803588867,3.913119001979492,5.045762736699544e-05,0.26122573018074036,-1.2793191115008753,-0.00042770180152729154,-0.14313718676567078,0.6109475493431091,0.00011370424908818677,0.025191418826580048,1.516507863998413,0.0005217837751843035,0.35752367973327637
133.0,190.0,4.9161,-1.5093,6.7615,-0.0308,-0.0249,-0.1452,-1.9070521793761195,-0.10784845054149628,3.078784465789795,-1.1315429210662842,-0.0003433894307818264,2.049095392227173,3.913123293513916,2.7400618662909437e-08,0.25427478551864624,-1.2794035116778772,-0.0003098063461948186,-0.14342001080513,0.6109315156936646,0.00011341943172737956,0.009932126849889755,1.516523838043213,0.0004045033419970423,0.36562708020210266
133.0,190.0,4.9161,-1.5093,6.7615,-0.0308,-0.0249,-0.1452,-1.9079271755614222,-0.12224815040826797,3.1092095375061035,-1.1315348148345947,-0.0002074936346616596,2.073751926422119,3.9130870538898925,4.979927060999589e-13,0.2663532793521881,-1.2793434301959437,-0.0002428865700494498,-0.14768879115581512,0.6109594106674194,0.00011350044951541349,0.023107100278139114,1.5165001153945923,0.00011471928155515343,0.3104473948478699
133.0,190.0,4.9161,-1.5093,6.7615,-0.0308,-0.0249,-0.1452,-1.9086910686888636,-0.1280362904071808,3.087313175201416,-1.1315909624099731,-6.106604555355943e-09,2.0060837268829346,3.913123293513916,0.0001764536864357069,0.2777223289012909,-1.2793591658221644,-0.00020902878895867616,-0.14198897778987885,0.6109514236450195,0.00010676803503884003,0.022520534694194794,1.5164759159088135,5.554258564188785e-07,0.3102784752845764
133.0,190.0,4.9161,-1.5093,6.7615,-0.0308,-0.0249,-0.1452,-1.9097067318358363,-0.12148375809192657,3.0780162811279297,-1.1314828395843506,0.00637186411768198,2.068633794784546,3.913242979640625,0.0039239441975951195,0.2871871590614319,-1.2793753782855433,-0.0001762696192599833,-0.16036543250083923,0.6109355092048645,0.00010705893510021269,0.010906518436968327,1.5164395570755005,1.7995092991673206e-14,0.33718743920326233
133.0,190.0,4.9161,-1.5093,6.7615,-0.0308,-0.0249,-0.1452,-1.9106618366637171,-0.10561036318540573,3.1639113426208496,-1.1314467191696167,0.008460248820483685,2.0900380611419678,3.913226767177246,0.010303749702870846,0.27663111686706543,-1.279391113911764,-0.00018283046665601432,-0.13971006870269775,0.6109151840209961,0.00010755029506981373,0.021466221660375595,1.5164881944656372,5.830181911852825e-22,0.24720808863639832
133.0,190.0,4.9161,-1.5093,6.7615,-0.0308,-0.0249,-0.1452,-1.911332746545309,-0.10181893408298492,3.1518750190734863,-1.1313954591751099,0.0043638828210532665,2.061985492706299,3.913323088283203,0.014925772324204445,0.2902771532535553,-1.279403034840719,-0.0001936031912919134,-0.1533127725124359,0.6109675168991089,0.00010231072519673035,0.01589326374232769,1.5164918899536133,1.4079203672616758e-27,0.31185975670814514
133.0,190.0,4.9161,-1.5093,6.7615,-0.0308,-0.0249,-0.1452,-1.9122444591917933,-0.11103353649377823,3.2014951705932617,-1.13145112991333,-0.003741938853636384,2.085952043533325,3.9134389597126464,0.01143884751945734,0.2871311902999878,-1.2793830076800745,-0.0001938469213200733,-0.15228323638439178,0.6109798550605774,9.606988169252872e-05,0.023124337196350098,1.5165038108825684,4.561482869491847e-35,0.30254924297332764
133.0,190.0,4.9161,-1.5093,6.7615,-0.0308,-0.0249,-0.1452,-1.9131394825377406,-0.12455642223358154,3.179469585418701,-1.1314431428909302,-0.0035169131588190794,2.0706491470336914,3.913398428554199,0.0034333548974245787,0.2791256010532379,-1.2793954054461878,-0.0001776433491613716,-0.1548365205526352,0.6109393239021301,9.054679685505107e-05,0.023610476404428482,1.516507863998413,1.478369879862682e-42,0.32562991976737976
133.0,190.0,4.9161,-1.5093,6.7615,-0.0308,-0.0249,-0.1452,-1.9138714275755824,-0.131245419383049,3.140836000442505,-1.1314551830291748,-0.0007754762191325426,2.083914279937744,3.913386507625244,0.0006136435549706221,0.27157899737358093,-1.2793872992144983,-0.00016539990610908717,-0.15152901411056519,0.6109151840209961,8.680402243044227e-05,0.029946595430374146,1.5164194107055664,-0.00021831125195603818,0.2225233018398285
133.0,190.0,4.9161,-1.5093,6.7615,-0.0308,-0.0249,-0.1452,-1.9148866138853968,-0.13001878559589386,3.172396659851074,-1.1314548254013062,0.003109311917796731,2.0472865104675293,3.913466139430664,0.00023610085190739483,0.2860545814037323,-1.2793872992144983,-0.00013262942957226187,-0.13789689540863037,0.610919177532196,8.226979116443545e-05,0.026734961196780205,1.5164399147033691,-0.0021062681917101145,0.2224123477935791
133.0,190.0,4.9161,-1.5093,6.7615,-0.0308,-0.0249,-0.1452,-1.915807386437887,-0.1167982891201973,3.1608834266662598,-1.1313872337341309,0.005558587145060301,2.031071186065674,3.9135023790546875,0.00595603883266449,0.2804073989391327,-1.2794035116778772,-0.00012225641694385558,-0.13589079678058624,0.6109553575515747,7.818577432772145e-05,0.01788438856601715,1.5164518356323242,-0.0015727865975350142,0.17048481106758118
133.0,190.0,4.9161,-1.5093,6.7615,-0.0308,-0.0249,-0.1452,-1.9164620838561,-0.10093893110752106,3.259190559387207,-1.1313235759735107,0.006466087885200977,2.1003503799438477,3.9135419565388183,0.011011569760739803,0.2880887985229492,-1.2794116179095667,-0.0001318908907705918,-0.1285194754600525,0.610846996307373,7.537931378465146e-05,0.016850870102643967,1.5164035558700562,-0.0007989968871697783,0.2244802713394165
129.0,196.0,4.7617,-1.2323,7.855,-0.0241,-0.068,-0.1678,-1.9173246822752894,-0.09205107390880585,3.271514892578125,-1.131330966949463,0.0034556712489575148,2.0619659423828125,3.9136339861103515,0.015074470080435276,0.2934991419315338,-1.2793710867511194,-0.00012301116657909006,-0.14791813492774963,0.6108629703521729,7.193644705694169e-05,0.01940033957362175,1.5164235830307007,-0.00028036601725034416,0.182644784450531
129.0,196.0,4.7617,-1.2323,7.855,-0.0241,-0.068,-0.1678,-1.9181047878661097,-0.09827658534049988,3.202666759490967,-1.1313269138336182,1.0574177395028528e-05,2.080463171005249,3.913773699397705,0.01817956008017063,0.2859431803226471,-1.2794073263751429,-0.00011514242214616388,-0.1470929980278015,0.6108828186988831,4.541366706689587e-06,0.04277641326189041,1.5164518356323242,0.0003373475046828389,0.21534180641174316
129.0,196.0,4.7617,-1.2323,7.855,-0.0241,-0.068,-0.1678,-1.9186560116209925,-0.10548701137304306,3.2073347568511963,-1.131407618522644,-0.001865392317995429,2.1000847816467285,3.913921995753906,0.021479692310094833,0.2949499487876892,-1.2793710867511194,-0.00010987116547767073,-0.14079925417900085,0.6109392642974854,1.264106375131746e-09,0.012219635769724846,1.5164799690246582,0.000329465459799394,0.19320917129516602
129.0,196.0,4.7617,-1.2323,7.855,-0.0241,-0.068,-0.1678,-1.9194790325560511,-0.11200332641601562,3.224186420440674,-1.1312791109085083,-0.0004547711869236082,2.075307846069336,3.9141780573078613,0.02889043465256691,0.2952830195426941,-1.279367748891012,-0.00010355047561461106,-0.1525055468082428,0.6108906865119934,2.2974510003313277e-14,0.015999631956219673,1.5164318084716797,0.00017645407933741808,0.1422393023967743
129.0,196.0,4.7617,-1.2323,7.855,-0.0241,-0.068,-0.1678,-1.9203359089293421,-0.10544645041227341,3.2461535930633545,-1.131251335144043,0.0035032187588512897,2.053335189819336,3.9144484239765625,0.0508098229765892,0.300227552652359,-1.2793753782855433,-9.791750926524401e-05,-0.14997518062591553,0.6109192371368408,4.1755035591092903e-19,0.026834942400455475,1.516455888748169,3.160114943057124e-07,0.15511971712112427
129.0,196.0,4.7617,-1.2323,7.855,-0.0241,-0.068,-0.1678,-1.9209238491454066,-0.09120164811611176,3.224186420440674,-1.1312389373779297,0.0069321985356509686,2.115485429763794,3.914868040675781,0.0709095448255539,0.30268508195877075,-1.2793791929828089,-9.407916513737291e-05,-0.14675641059875488,0.6108992099761963,1.1622667632033121e-22,0.025067884474992752,1.5164841413497925,7.631304984635767e-13,0.18501129746437073
129.0,196.0,4.7617,-1.2323,7.855,-0.0241,-0.068,-0.1678,-1.9215980968871058,-0.0788651555776596,3.2726712226867676,-1.1312074661254883,0.006654797587543726,2.0596542358398438,3.915465994472168,0.08746516704559326,0.3203089237213135,-1.279431168233053,-5.9206682635704055e-05,-0.14397305250167847,0.6109474897384644,2.112362851898837e-27,0.013986816629767418,1.5164318084716797,2.4724457589778407e-20,0.19385530054569244
129.0,196.0,4.7617,-1.2323,7.855,-0.0241,-0.068,-0.1678,-1.9223062000670375,-0.08277254551649094,3.2613911628723145,-1.131211519241333,0.0025874916464090347,2.0512959957122803,3.9162046152302246,0.09178678691387177,0.3238523602485657,-1.2793872992144983,-5.4306266974890605e-05,-0.15870624780654907,0.6109552979469299,3.839114885149269e-32,0.02488597296178341,1.5164799690246582,8.010409195235542e-28,0.20788854360580444
129.0,196.0,4.7617,-1.2323,7.855,-0.0241,-0.068,-0.1678,-1.9228211841978968,-0.09088671207427979,3.265685558319092,-1.1312273740768433,0.00024404912255704403,2.0494890213012695,3.916719599361084,0.0734015703201294,0.3070822060108185,-1.2793830076800745,-6.28845882602036e-05,-0.16160692274570465,0.6109311580657959,1.0686316258871126e-35,0.011696518398821354,1.516419529914856,0.00015946125495247543,0.18595895171165466
129.0,196.0,4.7617,-1.2323,7.855,-0.0241,-0.068,-0.1678,-1.923533102075094,-0.09327824413776398,3.2272748947143555,-1.1311476230621338,1.4891800292904378e-10,2.0866260528564453,3.9171902376362304,0.04504016786813736,0.3083496391773224,-1.2794035116778772,-6.993650458753109e-05,-0.1492769718170166,0.6109434366226196,1.9421856585695532e-40,0.019317978993058205,1.516455888748169,6.595662125619128e-05,0.2176201045513153
129.0,196.0,4.7617,-1.2323,7.855,-0.0241,-0.068,-0.1678,-1.924081941644186,-0.08781266212463379,3.2344048023223877,-1.1311795711517334,3.5961945799005835e-16,2.0974020957946777,3.9173809724995117,0.03573357313871384,0.29858601093292236,-1.2794273535357874,-0.00026486165006645024,-0.15671564638614655,0.6109594106674194,5.465064010866787e-44,0.011906387284398079,1.5164480209350586,4.92380240757484e-05,0.22726640105247498
129.0,196.0,4.7617,-1.2323,7.855,-0.0241,-0.068,-0.1678,-1.924729963342184,-0.07495913654565811,3.2866196632385254,-1.1311192512512207,0.0027328545693308115,2.070693016052246,3.9177209573933105,0.04023551940917969,0.3001778721809387,-1.279443089162008,-0.0011711273109540343,-0.16159150004386902,0.6109151244163513,0.0,0.010279946029186249,1.5164881944656372,7.020927296252921e-05,0.26245948672294617
125.0,194.0,5.7685,-0.6903,7.0421,-0.0632,0.0776,-0.1649,-1.9252516231932582,-0.06779699772596359,3.2843902111053467,-1.1311631202697754,0.0026608926709741354,2.099508762359619,3.9180876451679687,0.06072036176919937,0.2992132306098938,-1.2794626394854944,-0.0024284739047288895,-0.17656908929347992,0.6109429597854614,0.0,0.0349966362118721,1.5164841413497925,0.00068781798472628,0.2139347791671753
125.0,194.0,5.7685,-0.6903,7.0421,-0.0632,0.0776,-0.1649,-1.9256798229613246,-0.0684056505560875,3.277200698852539,-1.13114333152771,0.0013189457822591066,2.025905132293701,3.9185024934956054,0.07832889258861542,0.31226080656051636,-1.2794750372516077,-0.0030535163823515177,-0.1791621446609497,0.6109315156936646,0.0,0.01667790487408638,1.5165042877197266,0.0018520260928198695,0.3076591491699219
125.0,194.0,5.7685,-0.6903,7.0421,-0.0632,0.0776,-0.1649,-1.9261933765807093,-0.07125880569219589,3.238286256790161,-1.1311516761779785,0.0003643475647550076,2.0473036766052246,3.9191934305378417,0.08438123762607574,0.32070428133010864,-1.2794869581805628,-0.003308789571747184,-0.18826496601104736,0.6109311580657959,0.0,0.024528417736291885,1.5165197849273682,0.0012323107803240418,0.3365270793437958
125.0,194.0,5.7685,-0.6903,7.0421,-0.0632,0.0776,-0.1649,-1.9267903767027796,-0.07713405042886734,3.2036044597625732,-1.131075382232666,0.0003055127162951976,2.0337493419647217,3.9198033052631835,0.07710485905408859,0.31908750534057617,-1.279534641896383,-0.0052671595476567745,-0.1903858184814453,0.6109552979469299,0.0,0.017173951491713524,1.5165361166000366,0.0008181320736184716,0.353273868560791
125.0,194.0,5.7685,-0.6903,7.0421,-0.0632,0.0776,-0.1649,-1.9272343120970667,-0.0793270617723465,3.1996121406555176,-1.1311835050582886,7.686377648497e-05,2.0638318061828613,3.920262022609375,0.07205279171466827,0.3166205883026123,-1.2795379797564905,-0.005507369991391897,-0.18185612559318542,0.6108711957931519,0.0,0.021616872400045395,1.5164918899536133,0.0006727644358761609,0.36181947588920593
125.0,194.0,5.7685,-0.6903,7.0421,-0.0632,0.0776,-0.1649,-1.9278375111021937,-0.07848401367664337,3.167450428009033,-1.131098985671997,0.0024794419296085835,2.053633213043213,3.920928640956543,0.08193027973175049,0.30998820066452026,-1.2796300093280237,-0.004349130671471357,-0.18027730286121368,0.6109232902526855,0.0,0.017852451652288437,1.5165119171142578,0.0004896887694485486,0.38012921810150146
125.0,194.0,5.7685,-0.6903,7.0421,-0.0632,0.0776,-0.1649,-1.9284821949400843,-0.07513417303562164,3.2674951553344727,-1.1310473680496216,0.00573347695171833,1.9839403629302979,3.921671076411865,0.1162671223282814,0.32433000206947327,-1.2795780340777796,-0.0025700200349092484,-0.18875758349895477,0.6109232902526855,3.3290958878495758e-09,0.026105791330337524,1.5165361166000366,0.0003849476343020797,0.3715374171733856
125.0,194.0,5.7685,-0.6903,7.0421,-0.0632,0.0776,-0.1649,-1.928946157495016,-0.07539479434490204,3.2035746574401855,-1.1310515403747559,0.005565515719354153,2.058483600616455,3.9224893289753417,0.14195577800273895,0.3517472743988037,-1.2795818487750452,-0.0014087188756093383,-0.18495213985443115,0.6109831929206848,9.266660789403192e-13,0.01916429027915001,1.516507863998413,0.0003317100345157087,0.41603583097457886
125.0,194.0,5.7685,-0.6903,7.0421,-0.0632,0.0776,-0.1649,-1.9295202694334925,-0.07742045819759369,3.1554224491119385,-1.1310393810272217,0.0040506902150809765,2.048732280731201,3.9236623483845214,0.14688652753829956,0.34785395860671997,-1.2795618216144007,-0.0008587454212829471,-0.19665950536727905,0.6109798550605774,1.6841700019683838e-17,0.029067665338516235,1.516507863998413,0.00024042486620601267,0.44866472482681274
125.0,194.0,5.7685,-0.6903,7.0421,-0.0632,0.0776,-0.1649,-1.9302250347533167,-0.08622673898935318,3.141112804412842,-1.1309714317321777,0.0027226940728724003,2.0146384239196777,3.924816294307373,0.15226677060127258,0.33963117003440857,-1.279609505330221,-0.0005149841890670359,-0.2017396092414856,0.6109269857406616,3.0608954228408157e-22,0.027607230469584465,1.5165157318115234,0.0002736408496275544,0.3953319787979126
125.0,194.0,5.7685,-0.6903,7.0421,-0.0632,0.0776,-0.1649,-1.9307037792601527,-0.08543860912322998,3.1455869674682617,-1.1309874057769775,0.0017610557842999697,2.0618815422058105,3.9258782106586914,0.1758483350276947,0.35400107502937317,-1.2796257177936,-0.0005295437294989824,-0.19796998798847198,0.6109429597854614,8.520116242445244e-26,0.030934695154428482,1.516560435295105,0.0005352749722078443,0.42802780866622925
125.0,194.0,5.7685,-0.6903,7.0421,-0.0632,0.0776,-0.1649,-1.9313870869078578,-0.08233927935361862,3.1498429775238037,-1.130955457687378,0.0008915211074054241,1.9670675992965698,3.9272257524677734,0.1715581864118576,0.3485657572746277,-1.2796056906329554,-0.0005141968140378594,-0.20414814352989197,0.6109192371368408,1.5484888646093904e-30,0.01906767673790455,1.5164955854415894,0.0004890298005193472,0.42009374499320984
120.0,205.0,5.4766,-1.1515,7.2736,-0.0632,0.1006,-0.1367,-1.932070871392721,-0.08366924524307251,3.1305506229400635,-1.1310237646102905,0.0005691413534805179,2.0091121196746826,3.9286748605915527,0.1797799915075302,0.3614330291748047,-1.2796137968646448,-0.00043533483403734863,-0.19483065605163574,0.6109311580657959,2.814301936606821e-35,0.024299772456288338,1.5165278911590576,0.0003980706387665123,0.3855719566345215
120.0,205.0,5.4766,-1.1515,7.2736,-0.0632,0.1006,-0.1367,-1.9325796566405238,-0.0882168561220169,3.076042652130127,-1.1309270858764648,0.0004477527108974755,2.023526668548584,3.9297844606586914,0.1845172494649887,0.3703497052192688,-1.279569451008932,-0.00043308056774549186,-0.20121672749519348,0.6109749674797058,7.833713837576633e-39,0.02793797291815281,1.5164874792099,0.00032664521131664515,0.3997541666030884
120.0,205.0,5.4766,-1.1515,7.2736,-0.0632,0.1006,-0.1367,-1.9333187542357386,-0.09500200301408768,3.112525463104248,-1.130955696105957,0.0003998168103862554,1.9854557514190674,3.9312125879475097,0.16005712747573853,0.34601378440856934,-1.2796137968646448,-0.00038241385482251644,-0.18952567875385284,0.6109832525253296,1.4293244336113134e-43,0.018822185695171356,1.5165199041366577,0.00025313382502645254,0.38342711329460144
120.0,205.0,5.4766,-1.1515,7.2736,-0.0632,0.1006,-0.1367,-1.934033056298727,-0.10117583721876144,3.118856430053711,-1.1309194564819336,0.004928262904286385,1.987819790840149,3.9326369005390625,0.18449191749095917,0.34381893277168274,-1.2796338240252894,-0.00030334226903505623,-0.1939758062362671,0.6109634637832642,0.0,0.025517333298921585,1.5165075063705444,0.00020663281611632556,0.4155538082122803
120.0,205.0,5.4766,-1.1515,7.2736,-0.0632,0.1006,-0.1367,-1.9346653423705042,-0.10248082876205444,3.0776267051696777,-1.1308876276016235,0.006864620838314295,2.014012098312378,3.9337946611591796,0.19532883167266846,0.3564402461051941,-1.2796452681170862,-0.0003027406637556851,-0.19214332103729248,0.6108987927436829,0.0,0.03573538735508919,1.516459584236145,0.00014529043983202428,0.3307850956916809
120.0,205.0,5.4766,-1.1515,7.2736,-0.0632,0.1006,-0.1367,-1.9354893169798792,-0.09857191145420074,3.132901906967163,-1.1307592391967773,0.010155108757317066,2.045711040496826,3.935422583217285,0.2099926620721817,0.3591771721839905,-1.279637638722555,-0.0002899502869695425,-0.19046063721179962,0.6109675168991089,0.0,0.03027959167957306,1.5165278911590576,9.382108692079782e-05,0.38233861327171326
120.0,205.0,5.4766,-1.1515,7.2736,-0.0632,0.1006,-0.1367,-1.936336179772848,-0.09399166703224182,3.078371524810791,-1.130699634552002,0.010954014956951141,1.9956700801849365,3.937246008510254,0.23382697999477386,0.3899397850036621,-1.2796257177936,-0.00027645452064462006,-0.19652709364891052,0.6109791398048401,0.0,0.029982926324009895,1.5164918899536133,8.237177826231346e-05,0.35922640562057495
120.0,205.0,5.4766,-1.1515,7.2736,-0.0632,0.1006,-0.1367,-1.9369203052916468,-0.09483519941568375,3.14707612991333,-1.1306514739990234,0.008789089508354664,1.9866502285003662,3.938642664546631,0.2240220308303833,0.36803799867630005,-1.2796176115619105,-0.00032020502840168774,-0.19506652653217316,0.6109791398048401,0.0,0.029415862634778023,1.5165520906448364,0.00010057880717795342,0.33762603998184204
120.0,205.0,5.4766,-1.1515,7.2736,-0.0632,0.1006,-0.1367,-1.9377480945982875,-0.10571373999118805,3.043950080871582,-1.1306636333465576,0.004555344115942717,1.967296838760376,3.9404665666767578,0.2429414838552475,0.38727903366088867,-1.2796333471881312,-0.00065164192346856,-0.19959363341331482,0.6109429597854614,3.223300154786557e-05,0.036399953067302704,1.5165197849273682,9.050148219102994e-05,0.3732713460922241
120.0,205.0,5.4766,-1.1515,7.2736,-0.0632,0.1006,-0.1367,-1.9385949573912562,-0.11639569699764252,3.052885055541992,-1.1306078433990479,0.0012392435455694795,2.0085370540618896,3.9424092012592773,0.2453751116991043,0.3720545172691345,-1.2796576658831995,-0.0007578013464808464,-0.20192652940750122,0.6109229922294617,4.644475120585412e-05,0.024224787950515747,1.516516089439392,6.167566607473418e-05,0.3915867209434509
120.0,205.0,5.4766,-1.1515,7.2736,-0.0632,0.1006,-0.1367,-1.9392458401122035,-0.1212569922208786,3.0530734062194824,-1.1306118965148926,0.0013714467640966177,1.9017953872680664,3.9439498621174316,0.2606682777404785,0.38973116874694824,-1.2796576658831995,-0.0006863458547741175,-0.19927430152893066,0.6109429597854614,-7.096757326507941e-05,0.025973927229642868,1.5164841413497925,-4.605630965670571e-05,0.3709140419960022
120.0,205.0,5.4766,-1.1515,7.2736,-0.0632,0.1006,-0.1367,-1.9401823482909144,-0.11961771547794342,3.0388331413269043,-1.1305034160614014,0.006084369961172342,2.008843421936035,3.945849581355713,0.24822364747524261,0.37950634956359863,-1.2796252409564417,-0.0006280529778450727,-0.2125120908021927,0.6109592914581299,-7.52986961742863e-05,0.027264505624771118,1.516504168510437,-9.053810208570212e-05,0.3822609484195709
115.0,200.0,5.8331,-1.1683,7.3813,-0.0536,0.1274,-0.0948,-1.941108842889303,-0.10872689634561539,3.062542200088501,-1.13047194480896,0.013597757555544376,1.9757816791534424,3.9478351312824707,0.24641934037208557,0.3591410219669342,-1.2796734015094202,-0.0008127716137096286,-0.20484131574630737,0.6108670830726624,-5.6407643569400534e-05,0.022077463567256927,1.5165119171142578,-8.235082350438461e-05,0.41647857427597046
115.0,200.0,5.8331,-1.1683,7.3813,-0.0536,0.1274,-0.0948,-1.9418250523009242,-0.09895627200603485,3.058424949645996,-1.130415916442871,0.01624334044754505,1.9989176988601685,3.9492055612751464,0.23253700137138367,0.3686832785606384,-1.2796457449542444,-0.0007582877296954393,-0.21026775240898132,0.6109471321105957,-4.7476823965553194e-05,0.004281242378056049,1.516495943069458,-7.706247561145574e-05,0.41187137365341187
115.0,200.0,5.8331,-1.1683,7.3813,-0.0536,0.1274,-0.0948,-1.942655702630514,-0.09948152303695679,3.0880112648010254,-1.1302516460418701,0.012933625839650631,2.009864568710327,3.9509188371845703,0.20530104637145996,0.34874969720840454,-1.2797096411334437,-0.0007273981464095414,-0.21243813633918762,0.6109433770179749,-3.920228482456878e-05,0.01879023388028145,1.5165119171142578,-0.0001150275202235207,0.43089839816093445
115.0,200.0,5.8331,-1.1683,7.3813,-0.0536,0.1274,-0.0948,-1.9435235462584437,-0.11167574673891068,3.0651021003723145,-1.1302399635314941,0.005852175876498222,1.9510364532470703,3.952197237605713,0.14910149574279785,0.3076876401901245,-1.2796571890460413,-0.0005010337918065488,-0.20906513929367065,0.6109880208969116,-3.338446549605578e-05,0.028707783669233322,1.5164918899536133,-0.0001374139537801966,0.3933298587799072
115.0,200.0,5.8331,-1.1683,7.3813,-0.0536,0.1274,-0.0948,-1.9441873035826625,-0.12019716203212738,2.978402614593506,-1.1301922798156738,0.0032688684295862913,1.9443702697753906,3.9530536371418457,0.1409936100244522,0.3069969415664673,-1.2796734015094202,-0.0004044649831485003,-0.21452970802783966,0.6108671426773071,-3.00410101772286e-05,0.004536875523626804,1.5164718627929688,-0.00011926925071747974,0.42143678665161133
115.0,200.0,5.8331,-1.1683,7.3813,-0.0536,0.1274,-0.0948,-1.9450136623778285,-0.11733024567365646,3.0108590126037598,-1.1301360130310059,0.0028757648542523384,1.9353728294372559,3.9540063577839355,0.10572981089353561,0.28825798630714417,-1.2796734015094202,-0.00032179176923818886,-0.21027499437332153,0.6108388304710388,-2.650211172294803e-05,-0.00016660612891428173,1.5164358615875244,-0.0002860735112335533,0.38195574283599854
115.0,200.0,5.8331,-1.1683,7.3813,-0.0536,0.1274,-0.0948,-1.9459129772581996,-0.10322227329015732,3.0907297134399414,-1.1300721168518066,0.00981845986098051,1.9763957262039185,3.954608603114746,0.058852002024650574,0.26801422238349915,-1.2796414534198206,-0.0002671870170161128,-0.19628416001796722,0.6109516024589539,-4.7364181227749214e-05,0.013069418258965015,1.5164153575897217,-0.0007115341140888631,0.3878956735134125
115.0,200.0,5.8331,-1.1683,7.3813,-0.0536,0.1274,-0.0948,-1.9464694462218226,-0.09341990947723389,3.0876500606536865,-1.1299681663513184,0.014913184568285942,1.9804718494415283,3.954836054439209,0.02665047161281109,0.24282631278038025,-1.2796734015094202,-0.00023702399630565196,-0.19775013625621796,0.6108909845352173,-4.3945190554950386e-05,0.004340645857155323,1.516475796699524,-0.0004824839998036623,0.3543229103088379
115.0,200.0,5.8331,-1.1683,7.3813,-0.0536,0.1274,-0.0948,-1.9472605190672816,-0.08385919034481049,3.1345412731170654,-1.1299083232879639,0.01841658167541027,1.9695682525634766,3.9548918443867187,-0.005960924085229635,0.2218143492937088,-1.2796734015094202,-0.00020601596042979509,-0.18121570348739624,0.6109675168991089,-4.003524372819811e-05,0.008379037491977215,1.5164878368377686,-0.00020291561668273062,0.35698071122169495
115.0,200.0,5.8331,-1.1683,7.3813,-0.0536,0.1274,-0.0948,-1.9479433498778285,-0.08358362317085266,3.153952121734619,-1.1297883987426758,0.015611506998538971,2.0218589305877686,3.9547640520283203,-0.017074547708034515,0.20585212111473083,-1.2796695868121546,-0.00018218350305687636,-0.1904008984565735,0.6109634637832642,-3.676435153465718e-05,-0.005082856863737106,1.516516089439392,-0.00015580687613692135,0.41124609112739563
115.0,200.0,5.8331,-1.1683,7.3813,-0.0536,0.1274,-0.0948,-1.9485002956786097,-0.08990650624036789,3.1503210067749023,-1.1297242641448975,0.010987648740410805,1.985378384590149,3.9546562868305664,-0.01791236735880375,0.21011491119861603,-1.2796695868121546,-0.00016763895109761506,-0.18139499425888062,0.610855221748352,-3.464151450316422e-05,-0.002543769311159849,1.5165001153945923,-0.00013281185238156468,0.3539721369743347
115.0,200.0,5.8331,-1.1683,7.3813,-0.0536,0.1274,-0.0948,-1.9491750202574671,-0.09062203019857407,3.1971306800842285,-1.1295802593231201,0.008081728592514992,2.0207810401916504,3.954564257259033,-0.010757341980934143,0.22358328104019165,-1.2796815077411097,-0.00015172660641837865,-0.1718454360961914,0.610907256603241,-3.216529876226559e-05,-0.00022012926638126373,1.5164599418640137,-7.385366916423663e-05,0.3532946705818176
106.0,175.0,4.8538,-1.4859,6.1591,-0.0298,0.0935,-0.1478,-1.9498754940428675,-0.0869658812880516,3.1430587768554688,-1.1295807361602783,0.009872907772660255,2.045381546020508,3.954624815578125,-0.0005126017495058477,0.23018765449523926,-1.2796857992755335,-4.439985423232429e-05,-0.178397536277771,0.6109232902526855,-3.0019484256627038e-05,0.008366123773157597,1.51644766330719,-0.00014857160567771643,0.3415369987487793
106.0,175.0,4.8538,-1.4859,6.1591,-0.0298,0.0935,-0.1478,-1.9503261051573695,-0.08023489266633987,3.2034220695495605,-1.12947678565979,0.01379120722413063,1.9950593709945679,3.9546567636677246,0.0038067486602813005,0.2406013309955597,-1.2796176115619105,-4.133886250201613e-05,-0.1895694136619568,0.6108951568603516,-2.85890946543077e-05,-0.0030898507684469223,1.516455888748169,-0.00046564923832193017,0.3271660804748535
106.0,175.0,4.8538,-1.4859,6.1591,-0.0298,0.0935,-0.1478,-1.950954099694723,-0.07405450940132141,3.277566909790039,-1.1293046474456787,0.022363025695085526,2.0368552207946777,3.9546639162250976,0.0022347504273056984,0.24459466338157654,-1.2796734015094202,-3.786075103562325e-05,-0.19427171349525452,0.6108910441398621,-2.688127824512776e-05,0.007476808503270149,1.516495943069458,-0.0002176315028918907,0.36555272340774536
106.0,175.0,4.8538,-1.4859,6.1591,-0.0298,0.0935,-0.1478,-1.9515167675414027,-0.06732393801212311,3.254999876022339,-1.1291170120239258,0.032102085649967194,2.015979766845703,3.9546920496174316,0.0034339851699769497,0.24811425805091858,-1.2796896139727991,-4.787816942553036e-05,-0.1930953711271286,0.6108787059783936,-2.536599276936613e-05,-0.012803103774785995,1.516504168510437,0.00026788993272930384,0.3164922595024109
106.0,175.0,4.8538,-1.4859,6.1591,-0.0298,0.0935,-0.1478,-1.9519244633116664,-0.06602510064840317,3.270596742630005,-1.1289048194885254,0.03560544550418854,2.0971527099609375,3.9548041063496093,0.0050384607166051865,0.25271955132484436,-1.2796734015094202,-4.950108996126801e-05,-0.17890727519989014,0.6109233498573303,-2.4337081413250417e-05,0.0023793161381036043,1.5165804624557495,0.0003438538988120854,0.27485257387161255
106.0,175.0,4.8538,-1.4859,6.1591,-0.0298,0.0935,-0.1478,-1.9524885616698207,-0.06607796996831894,3.3098816871643066,-1.1286535263061523,0.039693113416433334,2.1268434524536133,3.954885168666504,0.00831631664186716,0.25291693210601807,-1.2796734015094202,-4.611998883774504e-05,-0.18019257485866547,0.6109311580657959,-2.3088416128302924e-05,-0.0020931854378432035,1.5164918899536133,0.00044657327816821635,0.3401887118816376
106.0,175.0,4.8538,-1.4859,6.1591,-0.0298,0.0935,-0.1478,-1.95300354580068,-0.07242093235254288,3.257908821105957,-1.1283056735992432,0.04448510333895683,2.088361978530884,3.9549199777790527,0.011841844767332077,0.2589074671268463,-1.2796734015094202,-4.317029015510343e-05,-0.18810774385929108,0.6109434366226196,-2.1961614038445987e-05,0.0012662499211728573,1.5165280103683472,0.0003835737006738782,0.30879920721054077
106.0,175.0,4.8538,-1.4859,6.1591,-0.0298,0.0935,-0.1478,-1.953390737573141,-0.07333766669034958,3.307213306427002,-1.128017783164978,0.04719197377562523,2.1177334785461426,3.9550201135822753,0.014264973811805248,0.2546089291572571,-1.2796853224383753,-5.401526141213253e-05,-0.1886342465877533,0.6109029054641724,-2.1186131561989896e-05,-0.0004713792586699128,1.5165157318115234,0.00031618375214748085,0.38658201694488525
106.0,175.0,4.8538,-1.4859,6.1591,-0.0298,0.0935,-0.1478,-1.9539514980711878,-0.07159917056560516,3.292764663696289,-1.127562165260315,0.05391757935285568,2.083549737930298,3.955159826869629,0.019815022125840187,0.2688439190387726,-1.2796691099749964,-5.451899778563529e-05,-0.20866525173187256,0.610910952091217,-2.023353590629995e-05,0.011367673985660076,1.5164676904678345,0.0002938076213467866,0.40789854526519775
106.0,175.0,4.8538,-1.4859,6.1591,-0.0298,0.0935,-0.1478,-1.9544831715025843,-0.06479382514953613,3.247664451599121,-1.127110481262207,0.057878654450178146,2.120850086212158,3.955375834102295,0.030160261318087578,0.272621214389801,-1.2796652952777308,-7.318861753446981e-05,-0.20412126183509827,0.6109434366226196,-2.1675754524608237e-08,-0.004816026426851749,1.516532063484192,0.0002883859269786626,0.3704289197921753
106.0,175.0,4.8538,-1.4859,6.1591,-0.0298,0.0935,-0.1478,-1.9548994503416957,-0.06054473668336868,3.262421131134033,-1.126722812652588,0.0593358650803566,2.1011128425598145,3.9555675226398925,0.04447174072265625,0.28546997904777527,-1.2796734015094202,-0.00011210406955797225,-0.19529733061790466,0.6109709739685059,-6.033526109283649e-12,-0.005411606747657061,1.5164878368377686,0.0003452121454756707,0.44255906343460083
106.0,175.0,4.8538,-1.4859,6.1591,-0.0298,0.0935,-0.1478,-1.9553305111327113,-0.05466261878609657,3.268716335296631,-1.1262750625610352,0.06054402515292168,2.131362199783325,3.956047697658203,0.0684899166226387,0.2971491515636444,-1.2797134558307093,-0.0005256399163044989,-0.21483244001865387,0.6109552979469299,-1.0965635595594969e-16,0.004174747038632631,1.5165717601776123,0.0026321071200072765,0.45346617698669434
106.0,175.0,4.8538,-1.4859,6.1591,-0.0298,0.0935,-0.1478,-1.9556652508177699,-0.054937444627285004,3.2660765647888184,-1.1258955001831055,0.05932261794805527,2.108901023864746,3.9565188127705078,0.08429671078920364,0.2915262281894684,-1.279741112385885,-0.0008018943481147289,-0.21148681640625,0.6109315156936646,-3.0523252177716554e-20,-0.0014262227341532707,1.5165677070617676,0.0031612589955329895,0.4301912784576416
105.0,192.0,7.8048,-1.7019,6.5037,-0.0495,-0.0612,-0.1035,-1.956149240533346,-0.059079598635435104,3.22567081451416,-1.1254076957702637,0.05653033033013344,2.0878822803497314,3.957225962276123,0.09455344080924988,0.30294081568717957,-1.2796896139727991,-0.0006235126638785005,-0.20236793160438538,0.6109151840209961,-5.547451323522356e-25,0.007685365155339241,1.5166077613830566,0.004305298440158367,0.46550875902175903
105.0,192.0,7.8048,-1.7019,6.5037,-0.0495,-0.0612,-0.1035,-1.9565888843932093,-0.05769556015729904,3.214824676513672,-1.124874472618103,0.05782691389322281,2.0998663902282715,3.9579688745686035,0.08178043365478516,0.30510690808296204,-1.2797535101519983,-0.0005571801448240876,-0.20734819769859314,0.6109111309051514,-1.008221843242649e-29,-0.003037918359041214,1.516623854637146,0.004530828911811113,0.4680516719818115
105.0,192.0,7.8048,-1.7019,6.5037,-0.0495,-0.0612,-0.1035,-1.9568921528258265,-0.0533701553940773,3.2169485092163086,-1.124620795249939,0.06099584698677063,2.090606212615967,3.958481474513672,0.062261082231998444,0.29035449028015137,-1.2797048727618616,-0.0007837706943973899,-0.19512423872947693,0.6109233498573303,-2.8064229676111314e-33,-0.0017862769309431314,1.5166231393814087,0.004400383215397596,0.4819526970386505
105.0,192.0,7.8048,-1.7019,6.5037,-0.0495,-0.0612,-0.1035,-1.9572884045042933,-0.04610481485724449,3.240610361099243,-1.124028205871582,0.06985749304294586,2.134248733520508,3.9588515001484375,0.04880377650260925,0.2761250138282776,-1.2797253767596644,-0.0012106976937502623,-0.22036859393119812,0.6108952164649963,-5.100534712512415e-38,0.007107941433787346,1.5166833400726318,0.005054955370724201,0.48787549138069153
105.0,192.0,7.8048,-1.7019,6.5037,-0.0495,-0.0612,-0.1035,-1.957656045953268,-0.045357365161180496,3.279572010040283,-1.1234235763549805,0.07431285083293915,2.149732828140259,3.9592668253132324,0.055149029940366745,0.27856019139289856,-1.2797048727618616,-0.0011030662572011352,-0.2120875120162964,0.6109032034873962,-9.276595833830289e-43,0.0013922451762482524,1.5167193412780762,0.007201723754405975,0.45313596725463867
105.0,192.0,7.8048,-1.7019,6.5037,-0.0495,-0.0612,-0.1035,-1.9579602680602015,-0.04919150844216347,3.2516093254089355,-1.1229878664016724,0.0767744854092598,2.1251072883605957,3.9595743852802734,0.07374686002731323,0.2911258041858673,-1.2797253767596644,-0.0008040197426453233,-0.2112777680158615,0.6108592748641968,-0.0,0.00927701499313116,1.5167832374572754,0.008924107067286968,0.5059290528297424
105.0,192.0,7.8048,-1.7019,6.5037,-0.0495,-0.0612,-0.1035,-1.9583798847594203,-0.05535627529025078,3.237199306488037,-1.1223164796829224,0.07840690016746521,2.137624979019165,3.9602901178547363,0.09075087308883667,0.2959270775318146,-1.279684845601217,-0.0006082700565457344,-0.20950666069984436,0.6109151840209961,-0.0,0.019405469298362732,1.5168229341506958,0.009688835591077805,0.44126057624816895
105.0,192.0,7.8048,-1.7019,6.5037,-0.0495,-0.0612,-0.1035,-1.9588519535460414,-0.06221189722418785,3.2560572624206543,-1.1217344999313354,0.08032294362783432,2.122648239135742,3.9610459047504882,0.08603495359420776,0.30815646052360535,-1.2797487417804163,-0.0003593647270463407,-0.19633817672729492,0.6109434366226196,-0.0,0.013622457161545753,1.5169434547424316,0.010324856266379356,0.4864913821220398
105.0,192.0,7.8048,-1.7019,6.5037,-0.0495,-0.0612,-0.1035,-1.9592086277403773,-0.0636642575263977,3.2243714332580566,-1.1212143898010254,0.0843120813369751,2.1303839683532715,3.9614717203327636,0.0766364112496376,0.29673805832862854,-1.279741112385885,-0.0003740981628652662,-0.2131544053554535,0.6108950972557068,-0.0,-0.007210031151771545,1.5169589519500732,0.009541555307805538,0.577117919921875
105.0,192.0,7.8048,-1.7019,6.5037,-0.0495,-0.0612,-0.1035,-1.9595900974669398,-0.06223336234688759,3.2113919258117676,-1.1204543113708496,0.09142261743545532,2.0988807678222656,3.962023897761963,0.05952438339591026,0.2756277918815613,-1.2797492186175745,-0.0006076924037188292,-0.21208611130714417,0.6109634637832642,-0.0,-0.0025424871128052473,1.517026662826538,0.00879607442766428,0.5149593353271484
105.0,192.0,7.8048,-1.7019,6.5037,-0.0495,-0.0612,-0.1035,-1.9601875744261683,-0.06258174777030945,3.21909236907959,-1.1197274923324585,0.09965156018733978,2.1337203979492188,3.962503595943115,0.053348835557699203,0.2867196798324585,-1.2797287146197718,-0.0008189996588043869,-0.21305260062217712,0.6108828186988831,-0.0,0.006762203294783831,1.5171667337417603,0.009852050803601742,0.49672430753707886
105.0,192.0,7.8048,-1.7019,6.5037,-0.0495,-0.0612,-0.1035,-1.9605823955931605,-0.06508604437112808,3.1805858612060547,-1.1191436052322388,0.0996258482336998,2.155306816101074,3.9627224641987304,0.05608171969652176,0.2687842547893524,-1.2797730604754847,-0.0008213274995796382,-0.2122219055891037,0.6109393239021301,-0.0,0.006185456179082394,1.517210602760315,0.011863200925290585,0.5503446459770203
