ramyac6/ROB537/final_project/csv/good/good_93.csv
tof_0,tof_1,accelx,accely,accelz,gyrox,gyroy,gyroz,shoulder_lift_joint_position,shoulder_lift_joint_velocity,shoulder_lift_joint_effort,elbow_joint_position,elbow_joint_velocity,elbow_joint_effort,wrist_1_joint_position,wrist_1_joint_velocity,wrist_1_joint_effort,wrist_2_joint_position,wrist_2_joint_velocity,wrist_2_joint_effort,wrist_3_joint_position,wrist_3_joint_velocity,wrist_3_joint_effort,shoulder_pan_joint_position,shoulder_pan_joint_velocity,shoulder_pan_joint_effort
144.0,118.0,-0.1663,0.7262,9.478,-0.029,0.031,-0.1144,-2.2139069042601527,0.0,4.75031852722168,-1.136423110961914,-0.0,2.1281962394714355,4.810278157680788,-0.0,0.26788702607154846,-1.507136646901266,-0.0,-0.002210544189438224,-0.3791444937335413,0.0,0.0013996483758091927,1.3329765796661377,0.0,-0.006394251249730587
144.0,118.0,-0.1663,0.7262,9.478,-0.029,0.031,-0.1144,-2.213874956170553,0.0,4.717225074768066,-1.136423110961914,-0.0,2.155961513519287,4.810306283622541,-0.0,0.2601744532585144,-1.5070765654193323,-0.0,-0.008677041158080101,-0.379160229359762,0.0,-0.006918232887983322,1.3329644203186035,0.0,-0.03652840852737427
144.0,118.0,-0.1663,0.7262,9.478,-0.029,0.031,-0.1144,-2.2139188251891078,0.0,4.7136335372924805,-1.136447548866272,-0.0,2.115060567855835,4.81030626872138,-0.0,0.2766786813735962,-1.507148567830221,-0.0,0.00022694235667586327,-0.3792169729815882,0.0,0.005890091881155968,1.3329282999038696,0.0,0.01833062246441841
144.0,118.0,-0.1663,0.7262,9.478,-0.029,0.031,-0.1144,-2.213963647881979,0.0,4.749982833862305,-1.1363990306854248,-0.0,2.136939525604248,4.8102818233664415,-0.0,0.2595956325531006,-1.5071328322040003,-0.0,-0.007343994919210672,-0.37916452089418584,0.0,-0.004224078729748726,1.3329561948776245,0.0,-0.01977045089006424
144.0,118.0,-0.1663,0.7262,9.478,-0.029,0.031,-0.1144,-2.2139069042601527,0.0,4.698085784912109,-1.1364150047302246,-0.0,2.134758949279785,4.810298169940271,-0.0,0.2679741680622101,-1.5071285406695765,-0.0,-0.009589331224560738,-0.3791850248919886,0.0,-0.0005751701537519693,1.3330167531967163,0.0,-0.05035737529397011
144.0,118.0,-0.1663,0.7262,9.478,-0.029,0.031,-0.1144,-2.2138787708678187,0.0,4.745973110198975,-1.1363509893417358,-0.0,2.135328769683838,4.810314143985071,-0.0,0.26973408460617065,-1.5071285406695765,-0.0,-0.019324535503983498,-0.3791406790362757,0.0,0.006339077837765217,1.3329484462738037,0.0,0.010936949402093887
144.0,118.0,-0.1663,0.7262,9.478,-0.029,0.031,-0.1144,-2.213863035241598,0.0,4.6948418617248535,-1.13636314868927,-0.0,2.167302131652832,4.810298214643755,-0.0,0.2676887512207031,-1.507132355366842,-0.0,-0.015530258417129517,-0.3792002836810511,0.0,0.013668269850313663,1.3329644203186035,0.0,0.037741199135780334
148.0,115.0,-0.3314,0.6299,9.8231,-0.0399,0.0286,-0.1118,-2.2138949833311976,0.0,4.741399765014648,-1.1364030838012695,-0.0,2.1550769805908203,4.81029416152791,-4.262446040570467e-08,0.26675254106521606,-1.5070765654193323,-0.0,-0.013104564510285854,-0.3791406790362757,0.0,0.00665918318554759,1.332972526550293,0.0,0.003411923535168171
148.0,115.0,-0.3314,0.6299,9.8231,-0.0399,0.0286,-0.1118,-2.213886877099508,0.0,4.742133140563965,-1.1364314556121826,-0.0,2.1244025230407715,4.8102461127336404,-1.1864675041051154e-11,0.26689326763153076,-1.507148567830221,-0.0,-0.009260542690753937,-0.37916452089418584,0.0,0.004901028238236904,1.3329163789749146,0.0,0.0028243823908269405
148.0,115.0,-0.3314,0.6299,9.8231,-0.0399,0.0286,-0.1118,-2.2138987980284632,0.0,4.737048149108887,-1.136427402496338,-0.0,2.1592352390289307,4.810298214643755,-3.3025761673885967e-15,0.27060413360595703,-1.5071166197406214,-0.0,-0.008306094445288181,-0.3791449705706995,0.0,0.011015640571713448,1.3329644203186035,0.0,0.008326180279254913
148.0,115.0,-0.3314,0.6299,9.8231,-0.0399,0.0286,-0.1118,-2.2138787708678187,0.0,4.748743534088135,-1.1364110708236694,-0.0,2.149466037750244,4.810314531415262,-6.002268740163974e-20,0.2739696502685547,-1.5070965925799769,-0.0,-0.00407350342720747,-0.37916833559145147,0.0,0.010682175867259502,1.3329484462738037,0.0,-0.006262508220970631
148.0,115.0,-0.3314,0.6299,9.8231,-0.0399,0.0286,-0.1118,-2.2139512501158656,0.0,4.70991849899292,-1.1364150047302246,-0.0,2.1751933097839355,4.810306298523702,-1.670753754716548e-23,0.27188003063201904,-1.507108513508932,-0.0,-0.021028250455856323,-0.3791282812701624,0.0,0.010424094274640083,1.3329644203186035,0.0,-0.023603465408086777
148.0,115.0,-0.3314,0.6299,9.8231,-0.0399,0.0286,-0.1118,-2.213926931420797,0.0,4.767360210418701,-1.1364070177078247,-0.0,2.1193618774414062,4.810302223056116,-4.650605051656068e-27,0.27843353152275085,-1.5071209112750452,-0.0,-0.0023463903926312923,-0.3791406790362757,0.0,0.008090799674391747,1.3329967260360718,0.0,-0.015312418341636658
148.0,115.0,-0.3314,0.6299,9.8231,-0.0399,0.0286,-0.1118,-2.213890691796774,0.0,4.741649627685547,-1.1364270448684692,-0.0,2.1192238330841064,4.810302223056116,-8.45224460504663e-32,0.2770211696624756,-1.5071247259723108,-0.0,-0.012599046342074871,-0.3791282812701624,0.0,0.004432958085089922,1.3329967260360718,0.0,0.010573730804026127
148.0,115.0,-0.3314,0.6299,9.8231,-0.0399,0.0286,-0.1118,-2.2139069042601527,0.0,4.664502143859863,-1.1364110708236694,-0.0,2.1223390102386475,4.810306298523702,-2.352713630549755e-35,0.2663062810897827,-1.5071285406695765,-0.0,-0.012264288030564785,-0.37915307680238897,0.0,-0.0010653897188603878,1.3329484462738037,0.0,-0.004751770757138729
148.0,115.0,-0.3314,0.6299,9.8231,-0.0399,0.0286,-0.1118,-2.213886877099508,0.0,4.701607704162598,-1.1363751888275146,-0.0,2.1203975677490234,4.810285906284609,-6.548864676935673e-39,0.2714545726776123,-1.5070846716510218,-0.0,-0.011527830734848976,-0.3792007605182093,0.0,0.016425829380750656,1.3329644203186035,0.0,0.025752462446689606
148.0,115.0,-0.3314,0.6299,9.8231,-0.0399,0.0286,-0.1118,-2.2138992748656214,0.0,4.753514289855957,-1.1363990306854248,-0.0,2.12685227394104,4.810289981752195,-1.1911036946760945e-43,0.27406561374664307,-1.5070927778827112,-0.0,-0.015418761409819126,-0.379160229359762,0.0,0.00034156860783696175,1.3329602479934692,0.0,-0.034638676792383194
148.0,115.0,-0.3314,0.6299,9.8231,-0.0399,0.0286,-0.1118,-2.213915010491842,0.0,4.6885600090026855,-1.1364355087280273,-0.0,2.1443116664886475,4.810314531415262,-0.0,0.27395233511924744,-1.507136646901266,-0.0,-0.004279619082808495,-0.3791769186602991,0.0,-0.00041057891212403774,1.3329561948776245,0.0,0.025224000215530396
148.0,115.0,-0.3314,0.6299,9.8231,-0.0399,0.0286,-0.1118,-2.2139111957945765,0.0,4.702023506164551,-1.1364270448684692,-0.0,2.157945156097412,4.810289981752195,-0.0,0.26406237483024597,-1.5071242491351526,-0.0,-0.01799614168703556,-0.37914878526796514,0.0,-0.0009120537433773279,1.333008885383606,0.0,0.04463754594326019
148.0,115.0,-0.3314,0.6299,9.8231,-0.0399,0.0286,-0.1118,-2.2139069042601527,0.0,4.716984748840332,-1.136383056640625,-0.0,2.168175220489502,4.8102739853556535,-0.0,0.2690899670124054,-1.5071004072772425,-0.0,-0.007085101678967476,-0.379160229359762,0.0,0.007697383873164654,1.3329484462738037,0.0,0.0033384542912244797
148.0,115.0,-0.3314,0.6299,9.8231,-0.0399,0.0286,-0.1118,-2.2139350376524867,0.0,4.739412307739258,-1.1364190578460693,-0.0,2.18650221824646,4.810346531658926,-0.0,0.26306483149528503,-1.5071285406695765,-0.0,-0.015501141548156738,-0.3791444937335413,0.0,0.004659455269575119,1.3329365253448486,0.0,0.015961380675435066
148.0,119.0,-0.3619,0.6024,9.9811,-0.0299,0.0115,-0.1011,-2.2139111957945765,0.0,4.747549533843994,-1.1364270448684692,-0.0,2.152329921722412,4.810306298523702,-0.0,0.28305113315582275,-1.5071004072772425,-0.0,-0.016491355374455452,-0.37916452089418584,0.0,-0.0029924996197223663,1.3329565525054932,0.0,-0.04590720683336258
148.0,119.0,-0.3619,0.6024,9.9811,-0.0299,0.0115,-0.1011,-2.213915010491842,0.0,4.723725318908691,-1.136371374130249,-0.0,2.122443675994873,4.810306298523702,-0.0,0.2713592052459717,-1.5071247259723108,-0.0,-0.011520467698574066,-0.37912017503847295,0.0,-0.005812584422528744,1.332972526550293,0.0,0.019697438925504684
148.0,119.0,-0.3619,0.6024,9.9811,-0.0299,0.0115,-0.1011,-2.2139111957945765,0.0,4.722448825836182,-1.136411190032959,-0.0,2.1317756175994873,4.810269902437486,-0.0,0.2586895823478699,-1.5071209112750452,-0.0,-0.013684876263141632,-0.379160229359762,0.0,-0.0027688806876540184,1.332980751991272,0.0,-0.041852790862321854
148.0,119.0,-0.3619,0.6024,9.9811,-0.0299,0.0115,-0.1011,-2.213890691796774,0.0,4.714120864868164,-1.1364514827728271,-0.0,2.1346435546875,4.810262146383085,-0.0,0.2672552764415741,-1.5071209112750452,-0.0,-0.017648089677095413,-0.3791726271258753,0.0,0.007727669086307287,1.332980751991272,0.0,0.025813784450292587
148.0,119.0,-0.3619,0.6024,9.9811,-0.0299,0.0115,-0.1011,-2.213863035241598,0.0,4.733128547668457,-1.1364270448684692,-0.0,2.1456127166748047,4.810294139176168,-0.0,0.2755097448825836,-1.5071166197406214,-0.0,-0.022515052929520607,-0.3791726271258753,0.0,0.007525147870182991,1.3329565525054932,0.0,-0.03290107101202011
148.0,119.0,-0.3619,0.6024,9.9811,-0.0299,0.0115,-0.1011,-2.213914533654684,0.0,4.773046493530273,-1.1364150047302246,-0.0,2.1419622898101807,4.810374769359388,-0.0,0.26848289370536804,-1.5071123282061976,-0.0,-0.01489128079265356,-0.3791282812701624,0.0,-0.003131487872451544,1.332960605621338,0.0,0.0193829033523798
148.0,119.0,-0.3619,0.6024,9.9811,-0.0299,0.0115,-0.1011,-2.2139388523497523,0.0,4.7250165939331055,-1.1364030838012695,-0.0,2.128587245941162,4.810326452344217,-0.0,0.27313870191574097,-1.5071209112750452,-0.0,-0.020268157124519348,-0.3791406790362757,0.0,0.011068588122725487,1.3329524993896484,0.0,-0.019751794636249542
148.0,119.0,-0.3619,0.6024,9.9811,-0.0299,0.0115,-0.1011,-2.213874956170553,0.0,4.6986799240112305,-1.1364150047302246,-0.0,2.140718698501587,4.810338686197557,-0.0,0.2619744837284088,-1.5071004072772425,-0.0,-0.017108285799622536,-0.37916833559145147,0.0,-0.000799479428678751,1.3329282999038696,0.0,0.023748645558953285
148.0,119.0,-0.3619,0.6024,9.9811,-0.0299,0.0115,-0.1011,-2.2139231167235316,0.0,4.742531776428223,-1.136451005935669,-0.0,2.200336217880249,4.810326452344217,-0.0,0.26546037197113037,-1.507080380116598,-0.0,-0.0014840795192867517,-0.3792045752154749,0.0,0.003377326298505068,1.3329365253448486,0.0,-0.01267431490123272
148.0,119.0,-0.3619,0.6024,9.9811,-0.0299,0.0115,-0.1011,-2.2139188251891078,0.0,4.6784539222717285,-1.1363751888275146,-0.0,2.1478147506713867,4.810294139176168,-0.0,0.2718772292137146,-1.507136646901266,-0.0,-0.01200079545378685,-0.37913638750185186,0.0,0.008193084970116615,1.3329521417617798,0.0,0.009911349043250084
148.0,119.0,-0.3619,0.6024,9.9811,-0.0299,0.0115,-0.1011,-2.2138787708678187,0.0,4.7171950340271,-1.1363911628723145,-0.0,2.124582290649414,4.810298214643755,-0.0,0.2664295732975006,-1.5071166197406214,-0.0,-0.017295582219958305,-0.37913638750185186,0.0,0.009371411055326462,1.3329684734344482,0.0,-0.01703600212931633
148.0,119.0,-0.3619,0.6024,9.9811,-0.0299,0.0115,-0.1011,-2.213902612725729,0.0,4.752599239349365,-1.1364150047302246,-0.0,2.159640312194824,4.810314531415262,-0.0,0.25950026512145996,-1.5071166197406214,-0.0,-0.017896465957164764,-0.37912017503847295,0.0,-0.0014232813846319914,1.3329282999038696,0.0,-0.02110605686903
148.0,119.0,-0.3619,0.6024,9.9811,-0.0299,0.0115,-0.1011,-2.2138992748656214,0.0,4.75502872467041,-1.136419415473938,-0.0,2.1345388889312744,4.810289981752195,-0.0,0.2759242653846741,-1.5071361700641077,-0.0,-0.006420953664928675,-0.37916833559145147,0.0,-0.0012082400498911738,1.3329484462738037,0.0,-0.0309260506182909
149.0,118.0,-0.2459,0.6843,9.6299,-0.0423,0.0191,-0.1156,-2.2139350376524867,0.0,4.6937360763549805,-1.1364355087280273,-0.0,2.104123592376709,4.810285906284609,-0.0,0.2670951187610626,-1.5070965925799769,-0.0,-0.014936704188585281,-0.37911683717836553,0.0,-0.003456337144598365,1.3329644203186035,0.0,-0.002628757618367672
149.0,118.0,-0.2459,0.6843,9.6299,-0.0423,0.0191,-0.1156,-2.2138992748656214,0.0,4.725809097290039,-1.1364110708236694,-0.0,2.1423799991607666,4.8102739853556535,-0.0,0.2657349705696106,-1.507132355366842,-0.0,-0.02186978980898857,-0.37911683717836553,0.0,0.00687498040497303,1.3329205513000488,0.0,-0.02975287288427353
149.0,118.0,-0.2459,0.6843,9.6299,-0.0423,0.0191,-0.1156,-2.213903089562887,0.0,4.706332206726074,-1.1364071369171143,-0.0,2.108001232147217,4.8102739853556535,-0.0,0.2628360390663147,-1.507132355366842,-0.0,-0.017745958641171455,-0.37914878526796514,0.0,-0.0016757696866989136,1.333000659942627,0.0,0.014639835804700851
149.0,118.0,-0.2459,0.6843,9.6299,-0.0423,0.0191,-0.1156,-2.2138787708678187,0.0,4.715817451477051,-1.136391043663025,-0.0,2.1480369567871094,4.810278142779627,-0.0,0.2739916145801544,-1.507148567830221,-0.0,-0.011154974810779095,-0.37916404405702764,0.0,0.0021751162130385637,1.3329565525054932,0.0,0.025193506851792336
149.0,118.0,-0.2459,0.6843,9.6299,-0.0423,0.0191,-0.1156,-2.2138830624022425,0.0,4.673456192016602,-1.136371374130249,-0.0,2.1840107440948486,4.810306298523702,-0.0,0.2806577980518341,-1.5071209112750452,-0.0,-0.014225130900740623,-0.37919694582094365,0.0,-0.00987576600164175,1.3329967260360718,0.0,0.013347378000617027
149.0,118.0,-0.2459,0.6843,9.6299,-0.0423,0.0191,-0.1156,-2.2138825855650843,0.0,4.699138641357422,-1.1363672018051147,-0.0,2.1698200702667236,4.810294139176168,-0.0,0.27346545457839966,-1.5071004072772425,-0.0,-0.024766355752944946,-0.37918073335756475,0.0,0.0003516925498843193,1.3329644203186035,0.0,-0.013422109186649323
149.0,118.0,-0.2459,0.6843,9.6299,-0.0423,0.0191,-0.1156,-2.213890691796774,0.0,4.7532453536987305,-1.1364150047302246,-0.0,2.119694948196411,4.8102818233664415,-0.0,0.2753341495990753,-1.5071361700641077,-0.0,-0.01924445666372776,-0.3791406790362757,0.0,-0.008121284656226635,1.3330007791519165,0.0,0.0009803958237171173
149.0,118.0,-0.2459,0.6843,9.6299,-0.0423,0.0191,-0.1156,-2.2139388523497523,0.0,4.719111442565918,-1.1364190578460693,-0.0,2.129887342453003,4.810346531658926,-0.0,0.2764585316181183,-1.5071609655963343,-0.0,-0.01715989038348198,-0.37914878526796514,0.0,0.003982565365731716,1.3329644203186035,0.0,0.02149207890033722
149.0,118.0,-0.2459,0.6843,9.6299,-0.0423,0.0191,-0.1156,-2.2138706646361292,0.0,4.705209732055664,-1.1363791227340698,-0.0,2.146061420440674,4.810294139176168,-0.0,0.2778595983982086,-1.507097069417135,-0.0,-0.010927380993962288,-0.37910443941225225,0.0,-0.002153631066903472,1.3329888582229614,0.0,0.004183487966656685
149.0,118.0,-0.2459,0.6843,9.6299,-0.0423,0.0191,-0.1156,-2.2139474354186,0.0,4.726177215576172,-1.136383056640625,-0.0,2.0476319789886475,4.810269902437486,-0.0,0.2607468068599701,-1.5071447531329554,-0.0,-0.017682144418358803,-0.37913638750185186,0.0,0.008575381711125374,1.3329447507858276,0.0,-0.01496137771755457
149.0,118.0,-0.2459,0.6843,9.6299,-0.0423,0.0191,-0.1156,-2.213890691796774,0.0,4.686366558074951,-1.1364434957504272,-0.0,2.1270592212677,4.810289981752195,-0.0,0.27934303879737854,-1.5071528593646448,-0.0,-0.016154944896697998,-0.3791611830340784,0.0,0.012403574772179127,1.3329565525054932,0.0,-0.02744995430111885
149.0,118.0,-0.2459,0.6843,9.6299,-0.0423,0.0191,-0.1156,-2.2139069042601527,0.0,4.728631973266602,-1.1364150047302246,-0.0,2.165421962738037,4.810285906284609,-0.0,0.27440500259399414,-1.5071242491351526,-0.0,-0.017920073121786118,-0.3791282812701624,0.0,0.015095160342752934,1.3329607248306274,0.0,0.013498665764927864
149.0,118.0,-0.2459,0.6843,9.6299,-0.0423,0.0191,-0.1156,-2.2139188251891078,0.0,4.701577663421631,-1.1364270448684692,-0.0,2.1593852043151855,4.810338261514463,-0.0,0.26552385091781616,-1.5071046988116663,-0.0,-0.023933153599500656,-0.37913209596742803,0.0,0.014248579740524292,1.3329644203186035,0.0,0.016075218096375465
145.0,116.0,-0.1998,0.6849,9.5635,-0.037,0.0203,-0.111,-2.2139069042601527,0.0,4.719501972198486,-1.1363751888275146,-0.0,2.1787188053131104,4.810282218247213,-0.0,0.256953626871109,-1.5071004072772425,-0.0,-0.01617576740682125,-0.379124943410055,0.0,0.006124041508883238,1.3329684734344482,0.0,-0.04116074740886688
145.0,116.0,-0.1998,0.6849,9.5635,-0.037,0.0203,-0.111,-2.2138949833311976,0.0,4.689304351806641,-1.1363672018051147,-0.0,2.1448235511779785,4.8103186813886545,-0.0,0.26360026001930237,-1.5071285406695765,-0.0,-0.016592837870121002,-0.3791850248919886,0.0,0.004013210069388151,1.332972526550293,0.0,-0.03070792928338051
145.0,116.0,-0.1998,0.6849,9.5635,-0.037,0.0203,-0.111,-2.2139388523497523,0.0,4.722036361694336,-1.1363990306854248,-0.0,2.141191005706787,4.810326437443056,-0.0,0.2759858965873718,-1.5071166197406214,-0.0,-0.01841180957853794,-0.3791282812701624,0.0,-0.0033263354562222958,1.3329966068267822,0.0,-0.03687882423400879
145.0,116.0,-0.1998,0.6849,9.5635,-0.037,0.0203,-0.111,-2.213886877099508,0.0,4.76564884185791,-1.1363712549209595,-0.0,2.098693609237671,4.8102739853556535,-0.0,0.2730048894882202,-1.507136646901266,-0.0,-0.01640978455543518,-0.37918073335756475,0.0,-0.012531996704638004,1.3329644203186035,0.0,0.0026671262457966805
145.0,116.0,-0.1998,0.6849,9.5635,-0.037,0.0203,-0.111,-2.2139111957945765,0.0,4.7554450035095215,-1.1363751888275146,-0.0,2.163072109222412,4.810306305974283,-0.0,0.2673167884349823,-1.5070765654193323,-0.0,-0.014681268483400345,-0.3791130224810999,0.0,-0.0017869523726403713,1.332980751991272,0.0,-0.0027583555784076452
145.0,116.0,-0.1998,0.6849,9.5635,-0.037,0.0203,-0.111,-2.2139069042601527,0.0,4.768223762512207,-1.1363672018051147,-0.0,2.128483772277832,4.8103022677595995,-0.0,0.2783834934234619,-1.5070965925799769,-0.0,-0.006353537552058697,-0.37913257280458623,0.0,0.005855371244251728,1.3329205513000488,0.0,0.008901700377464294
145.0,116.0,-0.1998,0.6849,9.5635,-0.037,0.0203,-0.111,-2.2138663731017054,0.0,4.728424072265625,-1.13636314868927,-0.0,2.137044668197632,4.810241940408506,-0.0,0.2706466615200043,-1.5071528593646448,-0.0,-0.0077146864496171474,-0.37910443941225225,0.0,0.010380220599472523,1.3329405784606934,0.0,-0.00969831831753254
145.0,116.0,-0.1998,0.6849,9.5635,-0.037,0.0203,-0.111,-2.2138873539366664,0.0,4.704921722412109,-1.1364549398422241,-0.0,2.129235029220581,4.810289959400453,-0.0,0.2644326388835907,-1.5071046988116663,-0.0,-0.012595226056873798,-0.37914830843080694,0.0,0.0005556171527132392,1.332972526550293,0.0,-0.02238473854959011
145.0,116.0,-0.1998,0.6849,9.5635,-0.037,0.0203,-0.111,-2.213874956170553,0.0,4.761102676391602,-1.1364071369171143,-0.0,2.171401023864746,4.810282218247213,-0.0,0.2566378712654114,-1.507136646901266,-0.0,-0.00942594651132822,-0.3791087309466761,0.0,0.004675618372857571,1.3329726457595825,0.0,0.0042093838565051556
145.0,116.0,-0.1998,0.6849,9.5635,-0.037,0.0203,-0.111,-2.213915010491842,0.0,4.726970672607422,-1.1363673210144043,-0.0,2.168651580810547,4.810294139176168,-0.0,0.26213979721069336,-1.5070646444903772,-0.0,-0.021049167960882187,-0.3791449705706995,0.0,0.014080652967095375,1.3329967260360718,0.0,0.007443987764418125
145.0,116.0,-0.1998,0.6849,9.5635,-0.037,0.0203,-0.111,-2.213890691796774,0.0,4.732059955596924,-1.1363990306854248,-0.0,2.157223701477051,4.810289981752195,-0.0,0.2797321677207947,-1.5071004072772425,-0.0,-0.023373275995254517,-0.3791721502887171,0.0,0.012274038977921009,1.3329644203186035,0.0,0.04035930708050728
145.0,116.0,-0.1998,0.6849,9.5635,-0.037,0.0203,-0.111,-2.213886877099508,0.0,4.697056293487549,-1.1364476680755615,-0.0,2.165311574935913,4.810262146383085,-0.0,0.26839709281921387,-1.507092301045553,-0.0,-0.017908118665218353,-0.3791559378253382,0.0,-0.0002897323574870825,1.3329484462738037,0.0,-0.010554873384535313
145.0,116.0,-0.1998,0.6849,9.5635,-0.037,0.0203,-0.111,-2.2138787708678187,0.0,4.696013450622559,-1.1363751888275146,-0.0,2.142470598220825,4.810282233148374,-0.0,0.2807196378707886,-1.5071447531329554,-0.0,-0.015246530994772911,-0.37912112871278936,0.0,-0.007322416640818119,1.3329602479934692,0.0,0.023491395637392998
146.0,121.0,-0.1974,0.673,9.6574,-0.037,0.0263,-0.1112,-2.2138825855650843,0.0,4.752505302429199,-1.1363990306854248,-0.0,2.1551413536071777,4.810306298523702,-0.0,0.2684337794780731,-1.5071166197406214,-0.0,-0.021372176706790924,-0.379160229359762,0.0,0.0011442465474829078,1.3329442739486694,0.0,0.0031263050623238087
146.0,121.0,-0.1974,0.673,9.6574,-0.037,0.0263,-0.1112,-2.213903089562887,0.0,4.753629684448242,-1.1363911628723145,-0.0,2.1477582454681396,4.810298214643755,-0.0,0.26825299859046936,-1.5071242491351526,-0.0,-0.017654068768024445,-0.3791282812701624,0.0,0.0008819028735160828,1.332980751991272,0.0,0.006615004502236843
146.0,121.0,-0.1974,0.673,9.6574,-0.037,0.0263,-0.1112,-2.213926931420797,0.0,4.74639892578125,-1.1364150047302246,-0.0,2.0996859073638916,4.810289981752195,-0.0,0.27087414264678955,-1.507136646901266,-0.0,-0.02517155185341835,-0.3791444937335413,0.0,0.011454876512289047,1.3330127000808716,0.0,0.004555893130600452
146.0,121.0,-0.1974,0.673,9.6574,-0.037,0.0263,-0.1112,-2.213902612725729,0.0,4.757213592529297,-1.1363672018051147,-0.0,2.1193580627441406,4.810298147588529,-0.0,0.2770228385925293,-1.5071328322040003,-0.0,-0.014125699177384377,-0.3791282812701624,0.0,0.0017920577665790915,1.3329848051071167,0.0,-0.022522417828440666
146.0,121.0,-0.1974,0.673,9.6574,-0.037,0.0263,-0.1112,-2.2139069042601527,0.0,4.7110209465026855,-1.1364070177078247,-0.0,2.1776533126831055,4.810262146383085,-0.0,0.2692755460739136,-1.5070965925799769,-0.0,-0.008316397666931152,-0.37915259996523076,0.0,0.005928964354097843,1.332980751991272,0.0,0.029230521991848946
146.0,121.0,-0.1974,0.673,9.6574,-0.037,0.0263,-0.1112,-2.213890691796774,0.0,4.698859214782715,-1.1364109516143799,-0.0,2.143153190612793,4.810298214643755,-0.0,0.2717089056968689,-1.507092301045553,-0.0,-0.027255486696958542,-0.3791244665728968,0.0,0.01948894001543522,1.3329205513000488,0.0,0.021322252228856087
146.0,121.0,-0.1974,0.673,9.6574,-0.037,0.0263,-0.1112,-2.2139069042601527,0.0,4.721447467803955,-1.1363911628723145,-0.0,2.1472716331481934,4.810330535262384,-0.0,0.27315759658813477,-1.5071004072772425,-0.0,-0.023174365982413292,-0.3791282812701624,0.0,0.00835392065346241,1.332900047302246,0.0,0.031010854989290237
146.0,121.0,-0.1974,0.673,9.6574,-0.037,0.0263,-0.1112,-2.213915010491842,0.0,4.771228790283203,-1.1364468336105347,-0.0,2.11445951461792,4.810294139176168,-0.0,0.27231305837631226,-1.5071166197406214,-0.0,-0.012132789008319378,-0.3791282812701624,0.0,0.004052288830280304,1.3329602479934692,0.0,0.005420614965260029
146.0,121.0,-0.1974,0.673,9.6574,-0.037,0.0263,-0.1112,-2.2139069042601527,0.0,4.688232421875,-1.1363590955734253,-0.0,2.1159214973449707,4.810346531658926,-0.0,0.25339388847351074,-1.5071328322040003,-0.0,-0.007053566165268421,-0.37914878526796514,0.0,0.011364695616066456,1.3329484462738037,0.0,-0.024066049605607986
146.0,121.0,-0.1974,0.673,9.6574,-0.037,0.0263,-0.1112,-2.2138830624022425,0.0,4.750924110412598,-1.1363990306854248,-0.0,2.116201877593994,4.810302223056116,-0.0,0.27501094341278076,-1.507080380116598,-0.0,-0.0023102625273168087,-0.37913257280458623,0.0,0.0008944228757172823,1.332932472229004,0.0,-0.07265670597553253
146.0,121.0,-0.1974,0.673,9.6574,-0.037,0.0263,-0.1112,-2.213931222955221,0.0,4.727725982666016,-1.1363511085510254,-0.0,2.1508712768554688,4.8102739853556535,-0.0,0.2697811722755432,-1.5071328322040003,-0.0,-0.030846482142806053,-0.37914878526796514,0.0,-0.006439525634050369,1.332980751991272,0.0,-0.008535361848771572
146.0,121.0,-0.1974,0.673,9.6574,-0.037,0.0263,-0.1112,-2.213931222955221,0.0,4.7383551597595215,-1.1363346576690674,-0.0,2.1666417121887207,4.810278142779627,-0.0,0.26619666814804077,-1.5070727507220667,-0.0,-0.023032981902360916,-0.37915259996523076,0.0,0.007904847152531147,1.3329848051071167,0.0,-0.019349191337823868
146.0,121.0,-0.1974,0.673,9.6574,-0.037,0.0263,-0.1112,-2.213915010491842,0.0,4.675148010253906,-1.1363592147827148,-0.0,2.1898694038391113,4.8102818233664415,-0.0,0.26221781969070435,-1.507136646901266,-0.0,-0.005439068656414747,-0.37915212312807256,0.0,0.0031038247980177402,1.3329888582229614,0.0,-0.004026199225336313
146.0,121.0,-0.1974,0.673,9.6574,-0.037,0.0263,-0.1112,-2.213874956170553,0.0,4.719045639038086,-1.136375069618225,-0.0,2.1076951026916504,4.810294139176168,-0.0,0.2813180088996887,-1.5071123282061976,-0.0,-0.02275213971734047,-0.379160229359762,0.0,0.0032130819745361805,1.3329684734344482,0.0,-0.03916944935917854
145.0,117.0,-0.3326,0.6036,9.877,-0.0373,0.0316,-0.1231,-2.2138706646361292,0.0,4.69187593460083,-1.136423110961914,-0.0,2.1778359413146973,4.810278142779627,-0.0,0.27347928285598755,-1.5071733633624476,-0.0,-0.0168509129434824,-0.3791568914996546,0.0,0.00490336399525404,1.3329447507858276,0.0,0.02045135386288166
145.0,117.0,-0.3326,0.6036,9.877,-0.0373,0.0316,-0.1231,-2.213935514489645,0.0,4.725236892700195,-1.1364434957504272,-0.0,2.1433935165405273,4.8102662218506715,-0.0,0.27042800188064575,-1.507136646901266,-0.0,-0.01149902492761612,-0.37916404405702764,0.0,0.012873443774878979,1.3329484462738037,0.0,0.01882357895374298
145.0,117.0,-0.3326,0.6036,9.877,-0.0373,0.0316,-0.1231,-2.2138787708678187,0.0,4.747159957885742,-1.1363511085510254,-0.0,2.1572558879852295,4.810342456191339,-0.0,0.2687295079231262,-1.5071247259723108,-0.0,-0.01771051622927189,-0.3791449705706995,0.0,0.005493472795933485,1.332972526550293,0.0,0.00886274129152298
145.0,117.0,-0.3326,0.6036,9.877,-0.0373,0.0316,-0.1231,-2.213903089562887,0.0,4.778402328491211,-1.1363590955734253,-0.0,2.142880439758301,4.810306298523702,-0.0,0.2772839665412903,-1.5071128050433558,-0.0,-0.019949013367295265,-0.3791130224810999,0.0,-0.006190441083163023,1.3329644203186035,0.0,-0.03009919449687004
145.0,117.0,-0.3326,0.6036,9.877,-0.0373,0.0316,-0.1231,-2.2139069042601527,0.0,4.735809326171875,-1.1363990306854248,-0.0,2.1201086044311523,4.810302290111341,-0.0,0.2780371606349945,-1.5070927778827112,-0.0,-0.00955903995782137,-0.37912112871278936,0.0,0.0006061163730919361,1.3329442739486694,0.0,-0.007803961634635925
145.0,117.0,-0.3326,0.6036,9.877,-0.0373,0.0316,-0.1231,-2.2138949833311976,0.0,4.7166314125061035,-1.1364150047302246,-0.0,2.14847731590271,4.810306298523702,-0.0,0.2722807228565216,-1.5071004072772425,-0.0,-0.019374515861272812,-0.3791130224810999,0.0,0.0025272336788475513,1.3329929113388062,0.0,0.043562937527894974
145.0,117.0,-0.3326,0.6036,9.877,-0.0373,0.0316,-0.1231,-2.213943143884176,0.0,4.657474517822266,-1.1364476680755615,-0.0,2.1064705848693848,4.810294139176168,-0.0,0.27545011043548584,-1.5071285406695765,-0.0,-0.014147084206342697,-0.3791769186602991,0.0,-0.005228082183748484,1.3329602479934692,0.0,-0.006357644218951464
145.0,117.0,-0.3326,0.6036,9.877,-0.0373,0.0316,-0.1231,-2.2138830624022425,0.0,4.700781345367432,-1.1363990306854248,-0.0,2.1234850883483887,4.810294139176168,-0.0,0.2659914195537567,-1.5071447531329554,-0.0,-0.011147623881697655,-0.37916833559145147,0.0,0.012260905466973782,1.3329602479934692,0.0,0.0286924559623003
145.0,117.0,-0.3326,0.6036,9.877,-0.0373,0.0316,-0.1231,-2.2139388523497523,0.0,4.748730182647705,-1.1364150047302246,-0.0,2.1428825855255127,4.810306298523702,-0.0,0.2617698609828949,-1.5070889631854456,-0.0,-0.014935584738850594,-0.3791087309466761,0.0,0.001666465774178505,1.332944631576538,0.0,-0.014952365309000015
145.0,117.0,-0.3326,0.6036,9.877,-0.0373,0.0316,-0.1231,-2.2138987980284632,0.0,4.72745943069458,-1.1364589929580688,-0.0,2.179286003112793,4.81025022545413,-0.0,0.27103835344314575,-1.5071004072772425,-0.0,-0.013047076761722565,-0.37913257280458623,0.0,-0.004681096877902746,1.3329405784606934,0.0,0.030612697824835777
145.0,117.0,-0.3326,0.6036,9.877,-0.0373,0.0316,-0.1231,-2.213915010491842,0.0,4.714419841766357,-1.1363871097564697,-0.0,2.1676864624023438,4.810269902437486,-0.0,0.2704295516014099,-1.5071123282061976,-0.0,-0.010659128427505493,-0.37921268144716436,0.0,0.011612546630203724,1.3329524993896484,0.0,0.0036579412408173084
145.0,117.0,-0.3326,0.6036,9.877,-0.0373,0.0316,-0.1231,-2.2138873539366664,0.0,4.6751837730407715,-1.1363751888275146,-0.0,2.1231589317321777,4.810306298523702,-0.0,0.2693852186203003,-1.5071004072772425,-0.0,-0.01795521192252636,-0.3791292349444788,0.0,0.007507908158004284,1.3329848051071167,0.0,-0.026454001665115356
145.0,117.0,-0.3326,0.6036,9.877,-0.0373,0.0316,-0.1231,-2.2139111957945765,0.0,4.716915607452393,-1.1364312171936035,-0.0,2.1255927085876465,4.810290369182386,-0.0,0.2756293714046478,-1.507108513508932,-0.0,-0.022403016686439514,-0.37915259996523076,0.0,-0.006034207995980978,1.3329405784606934,0.0,-0.018131276592612267
146.0,119.0,-0.1053,0.7005,9.4445,-0.0238,0.0238,-0.1129,-2.2139188251891078,0.0,4.710865497589111,-1.1364355087280273,-0.0,2.153902053833008,4.810302290111341,-0.0,0.2803155183792114,-1.5070965925799769,-0.0,-0.027960587292909622,-0.37910491624941045,0.0,0.006665212567895651,1.3329684734344482,0.0,0.011889980174601078
146.0,119.0,-0.1053,0.7005,9.4445,-0.0238,0.0238,-0.1129,-2.2139111957945765,0.0,4.759127140045166,-1.1364549398422241,-0.0,2.128415584564209,4.810289989202776,-0.0,0.27962517738342285,-1.507136646901266,-0.0,-0.022297214716672897,-0.379188362752096,0.0,0.007159163244068623,1.3329447507858276,0.0,-0.04039046913385391
146.0,119.0,-0.1053,0.7005,9.4445,-0.0238,0.0238,-0.1129,-2.213926931420797,0.0,4.746835708618164,-1.1364110708236694,-0.0,2.1577353477478027,4.8103104559476755,-0.0,0.26543545722961426,-1.5070965925799769,-0.0,-0.012354080565273762,-0.37918073335756475,0.0,-2.7053989470005035e-05,1.3329287767410278,0.0,0.026765506714582443
146.0,119.0,-0.1053,0.7005,9.4445,-0.0238,0.0238,-0.1129,-2.213931222955221,0.0,4.7579545974731445,-1.136399269104004,-0.0,2.1702003479003906,4.810298214643755,-0.0,0.27296698093414307,-1.5071046988116663,-0.0,-0.01273830235004425,-0.37913257280458623,0.0,0.008996465243399143,1.3329241275787354,0.0,-0.011339129880070686
146.0,119.0,-0.1053,0.7005,9.4445,-0.0238,0.0238,-0.1129,-2.213915010491842,0.0,4.722224712371826,-1.1364468336105347,-0.0,2.176154136657715,4.810326452344217,-0.0,0.2744719386100769,-1.5071328322040003,-0.0,-0.0235208161175251,-0.37916833559145147,0.0,0.006561977323144674,1.3329766988754272,0.0,0.029613181948661804
146.0,119.0,-0.1053,0.7005,9.4445,-0.0238,0.0238,-0.1129,-2.213915010491842,0.0,4.69397497177124,-1.1364314556121826,-0.0,2.18603515625,4.81033460327939,-0.0,0.28911635279655457,-1.5070965925799769,-0.0,-0.01029383484274149,-0.3791282812701624,0.0,-0.004355039447546005,1.3329163789749146,0.0,0.01194392703473568
146.0,119.0,-0.1053,0.7005,9.4445,-0.0238,0.0238,-0.1129,-2.2138706646361292,0.0,4.6882643699646,-1.1363712549209595,-0.0,2.1146647930145264,4.810262131481924,-0.0,0.2684006989002228,-1.5071247259723108,-0.0,-0.02316109463572502,-0.3791402021991175,0.0,0.0004999334923923016,1.3329442739486694,0.0,0.020070889964699745
146.0,119.0,-0.1053,0.7005,9.4445,-0.0238,0.0238,-0.1129,-2.213902612725729,0.0,4.729854583740234,-1.1364152431488037,-0.0,2.089940071105957,4.8103104559476755,-0.0,0.26074275374412537,-1.5071209112750452,-0.0,-0.024327930063009262,-0.379160229359762,0.0,0.0068687088787555695,1.3330007791519165,0.0,0.005850078538060188
146.0,119.0,-0.1053,0.7005,9.4445,-0.0238,0.0238,-0.1129,-2.2138711414732875,0.0,4.7414093017578125,-1.1363952159881592,-0.0,2.1454901695251465,4.8103186441357515,-0.0,0.263793408870697,-1.5071046988116663,-0.0,-0.02941625565290451,-0.3791568914996546,0.0,0.00847538746893406,1.3329607248306274,0.0,-0.028642846271395683
146.0,119.0,-0.1053,0.7005,9.4445,-0.0238,0.0238,-0.1129,-2.213874956170553,0.0,4.7291579246521,-1.136383295059204,-0.0,2.1836140155792236,4.810294131725588,-0.0,0.2641168236732483,-1.5071209112750452,-0.0,-0.020489264279603958,-0.37916404405702764,0.0,0.003264377359300852,1.332932472229004,0.0,0.02848057635128498
146.0,119.0,-0.1053,0.7005,9.4445,-0.0238,0.0238,-0.1129,-2.2138663731017054,0.0,4.728545188903809,-1.136423110961914,-0.0,2.1666932106018066,4.810290019005098,-0.0,0.2790321707725525,-1.5071290175067347,-0.0,-0.01300012692809105,-0.3791568914996546,0.0,0.022520817816257477,1.3329484462738037,0.0,0.03262277692556381
146.0,119.0,-0.1053,0.7005,9.4445,-0.0238,0.0238,-0.1129,-2.2139111957945765,0.0,4.727087020874023,-1.136423110961914,-0.0,2.1189398765563965,4.810334215849199,-0.0,0.2658544182777405,-1.5070965925799769,-0.0,-0.0039030606858432293,-0.37912112871278936,0.0,0.005487129557877779,1.3329365253448486,0.0,0.011784732341766357
146.0,119.0,-0.1053,0.7005,9.4445,-0.0238,0.0238,-0.1129,-2.213926931420797,0.0,4.7305474281311035,-1.1364434957504272,-0.0,2.1056811809539795,4.8102940050657175,-0.0,0.2721205949783325,-1.5071409384356897,-0.0,-0.024486389011144638,-0.3791449705706995,0.0,0.0025267736054956913,1.3329565525054932,0.0,-0.020928282290697098
142.0,118.0,-0.2602,0.6544,9.7274,-0.0434,0.0209,-0.1187,-2.213874956170553,0.0,4.723298072814941,-1.1364030838012695,-0.0,2.1703789234161377,4.810318673938074,-0.0,0.2736348509788513,-1.5071285406695765,-0.0,-0.005852875299751759,-0.37910491624941045,0.0,-0.0018585455836728215,1.3329766988754272,0.0,0.041226886212825775
142.0,118.0,-0.2602,0.6544,9.7274,-0.0434,0.0209,-0.1187,-2.213890691796774,0.0,4.743103981018066,-1.1364434957504272,-0.0,2.198223114013672,4.810306298523702,-0.0,0.2642323076725006,-1.5070684591876429,-0.0,-0.01724102348089218,-0.3791449705706995,0.0,0.02112865447998047,1.3329484462738037,0.0,-0.05404440313577652
142.0,118.0,-0.2602,0.6544,9.7274,-0.0434,0.0209,-0.1187,-2.213926931420797,0.0,4.764109134674072,-1.1363551616668701,-0.0,2.1135354042053223,4.810285906284609,-0.0,0.26607632637023926,-1.5071166197406214,-0.0,-0.009095698595046997,-0.3791282812701624,0.0,0.004831549245864153,1.3329524993896484,0.0,-0.021632403135299683
142.0,118.0,-0.2602,0.6544,9.7274,-0.0434,0.0209,-0.1187,-2.2138830624022425,0.0,4.712006568908691,-1.136451005935669,-0.0,2.1068811416625977,4.8102862937148,-0.0,0.26962798833847046,-1.5070965925799769,-0.0,-0.01204188633710146,-0.3792045752154749,0.0,0.005276200827211142,1.3329205513000488,0.0,-0.0071395281702280045
142.0,118.0,-0.2602,0.6544,9.7274,-0.0434,0.0209,-0.1187,-2.2138668499388636,0.0,4.719357967376709,-1.1364312171936035,-0.0,2.133910655975342,4.810282218247213,-0.0,0.2789948582649231,-1.5071771780597132,-0.0,-0.02287900075316429,-0.37912112871278936,0.0,-3.314879722893238e-05,1.3329365253448486,0.0,0.01843954250216484
142.0,118.0,-0.2602,0.6544,9.7274,-0.0434,0.0209,-0.1187,-2.213926931420797,0.0,4.733790397644043,-1.13637113571167,-0.0,2.105661153793335,4.810302215605535,-0.0,0.26857179403305054,-1.5071046988116663,-0.0,-0.004541821777820587,-0.3792007605182093,0.0,0.0059648966416716576,1.3329930305480957,0.0,0.03729424253106117
142.0,118.0,-0.2602,0.6544,9.7274,-0.0434,0.0209,-0.1187,-2.2139069042601527,0.0,4.723352432250977,-1.1364312171936035,-0.0,2.1721038818359375,4.8102739853556535,-0.0,0.2748590111732483,-1.5071004072772425,-0.0,-0.012485950253903866,-0.3791568914996546,0.0,-0.014613157138228416,1.333020806312561,0.0,-0.01551622524857521
142.0,118.0,-0.2602,0.6544,9.7274,-0.0434,0.0209,-0.1187,-2.2138987980284632,0.0,4.729772567749023,-1.136439561843872,-0.0,2.157010555267334,4.810294139176168,-0.0,0.2613641023635864,-1.507148567830221,-0.0,-0.01535462960600853,-0.379160229359762,0.0,-0.019032366573810577,1.3329644203186035,0.0,0.002775825560092926
142.0,118.0,-0.2602,0.6544,9.7274,-0.0434,0.0209,-0.1187,-2.2139388523497523,0.0,4.727479457855225,-1.1364192962646484,-0.0,2.167544364929199,4.810318614333429,-0.0,0.25949251651763916,-1.5071123282061976,-0.0,-0.02614772692322731,-0.37916881242860967,0.0,-0.005669262260198593,1.3329442739486694,0.0,0.027458971366286278
142.0,118.0,-0.2602,0.6544,9.7274,-0.0434,0.0209,-0.1187,-2.2138830624022425,0.0,4.749973297119141,-1.1364271640777588,-0.0,2.151167154312134,4.810306283622541,-0.0,0.27132314443588257,-1.5070727507220667,-0.0,-0.01254204474389553,-0.379160229359762,0.0,-0.0028438461013138294,1.3329163789749146,0.0,-0.00231474288739264
142.0,118.0,-0.2602,0.6544,9.7274,-0.0434,0.0209,-0.1187,-2.2139231167235316,0.0,4.715633392333984,-1.1363871097564697,-0.0,2.1475443840026855,4.810250255256452,-0.0,0.26556330919265747,-1.5071166197406214,-0.0,-0.011957453563809395,-0.3791568914996546,0.0,0.008908433839678764,1.332908272743225,0.0,0.02100975066423416
142.0,118.0,-0.2602,0.6544,9.7274,-0.0434,0.0209,-0.1187,-2.2139111957945765,0.0,4.723499298095703,-1.13637113571167,-0.0,2.1451988220214844,4.810285906284609,-0.0,0.27292346954345703,-1.5070684591876429,-0.0,-0.024159787222743034,-0.37913638750185186,0.0,-0.006296911276876926,1.3329644203186035,0.0,-0.015890007838606834
142.0,118.0,-0.2602,0.6544,9.7274,-0.0434,0.0209,-0.1187,-2.2139069042601527,0.0,4.724917411804199,-1.1363952159881592,-0.0,2.1508588790893555,4.810285906284609,-0.0,0.26829010248184204,-1.5071123282061976,-0.0,-0.01636301353573799,-0.37913257280458623,0.0,0.0022595804184675217,1.332964539527893,0.0,0.028656529262661934
142.0,118.0,-0.2602,0.6544,9.7274,-0.0434,0.0209,-0.1187,-2.213858743707174,0.0,4.721124172210693,-1.1364476680755615,-0.0,2.14115834236145,4.810278157680788,-0.0,0.2661120891571045,-1.5071242491351526,-0.0,-0.022523511201143265,-0.3791559378253382,0.0,0.014635337516665459,1.3329888582229614,0.0,-0.00851121824234724
149.0,118.0,-0.1184,0.6413,9.8082,-0.0425,0.0254,-0.1176,-2.213890691796774,0.0,4.755431652069092,-1.136423110961914,-0.0,2.1193301677703857,4.810314143985071,-0.0,0.27342599630355835,-1.507132355366842,-0.0,-0.01533094234764576,-0.3792045752154749,0.0,0.00011063541751354933,1.3329442739486694,0.0,-0.02434735931456089
149.0,118.0,-0.1184,0.6413,9.8082,-0.0425,0.0254,-0.1176,-2.2138992748656214,0.0,4.733931541442871,-1.136411190032959,-0.0,2.1287739276885986,4.810298214643755,-0.0,0.28607988357543945,-1.5071123282061976,-0.0,-0.006364847533404827,-0.3791559378253382,0.0,0.0053675235249102116,1.3329484462738037,0.0,-0.034265145659446716
149.0,118.0,-0.1184,0.6413,9.8082,-0.0425,0.0254,-0.1176,-2.2139111957945765,0.0,4.740076541900635,-1.1363911628723145,-0.0,2.1524338722229004,4.810298214643755,-0.0,0.27554214000701904,-1.5071285406695765,-0.0,-0.0054107531905174255,-0.379188362752096,0.0,0.004542296752333641,1.3329765796661377,0.0,0.03472350537776947
149.0,118.0,-0.1184,0.6413,9.8082,-0.0425,0.0254,-0.1176,-2.2138711414732875,0.0,4.726590156555176,-1.1363551616668701,-0.0,2.133643865585327,4.810330535262384,-0.0,0.2602306604385376,-1.5071123282061976,-0.0,-0.021279161795973778,-0.3791444937335413,0.0,-0.002308966126292944,1.3329644203186035,0.0,0.012398945167660713
149.0,118.0,-0.1184,0.6413,9.8082,-0.0425,0.0254,-0.1176,-2.213915010491842,0.0,4.740339756011963,-1.1364355087280273,-0.0,2.157789707183838,4.810298214643755,-0.0,0.2726595401763916,-1.5071209112750452,-0.0,-0.017849888652563095,-0.37920838991274053,0.0,0.00669615063816309,1.3329442739486694,0.0,0.02439957484602928
149.0,118.0,-0.1184,0.6413,9.8082,-0.0425,0.0254,-0.1176,-2.2139188251891078,0.0,4.735730171203613,-1.1363990306854248,-0.0,2.1664328575134277,4.810314531415262,-0.0,0.2764814794063568,-1.507080380116598,-0.0,-0.030121196061372757,-0.3791402021991175,0.0,0.0016869858372956514,1.3329365253448486,0.0,0.04134117066860199
149.0,118.0,-0.1184,0.6413,9.8082,-0.0425,0.0254,-0.1176,-2.213874956170553,0.0,4.747531414031982,-1.1363630294799805,-0.0,2.1384341716766357,4.8102739853556535,-0.0,0.2870117425918579,-1.507108513508932,-0.0,-0.005403479095548391,-0.37916404405702764,0.0,0.0023384438827633858,1.3329246044158936,0.0,0.016292372718453407
149.0,118.0,-0.1184,0.6413,9.8082,-0.0425,0.0254,-0.1176,-2.2139231167235316,0.0,4.696242332458496,-1.1364030838012695,-0.0,2.1380136013031006,4.810277747898855,-0.0,0.26326775550842285,-1.5071404615985315,-0.0,-0.010956786572933197,-0.3791926542865198,0.0,-0.011141177266836166,1.3329484462738037,0.0,0.0029530664905905724
149.0,118.0,-0.1184,0.6413,9.8082,-0.0425,0.0254,-0.1176,-2.2139188251891078,0.0,4.7249650955200195,-1.1363909244537354,-0.0,2.099081516265869,4.810314531415262,-0.0,0.26868465542793274,-1.5070846716510218,-0.0,-0.01390045415610075,-0.37915212312807256,0.0,2.5505898520350456e-05,1.332972526550293,0.0,0.015805479139089584
149.0,118.0,-0.1184,0.6413,9.8082,-0.0425,0.0254,-0.1176,-2.213874956170553,0.0,4.729744911193848,-1.1363632678985596,-0.0,2.19099760055542,4.810278142779627,-0.0,0.27373942732810974,-1.5071242491351526,-0.0,-0.015623083338141441,-0.37916833559145147,0.0,0.0013087011175230145,1.332972526550293,0.0,0.010034235194325447
149.0,118.0,-0.1184,0.6413,9.8082,-0.0425,0.0254,-0.1176,-2.213943143884176,0.0,4.710522651672363,-1.136411190032959,-0.0,2.147618293762207,4.810358452587881,-0.0,0.2740103304386139,-1.5071209112750452,-0.0,-0.020935451611876488,-0.3791559378253382,0.0,0.0126299187541008,1.3329765796661377,0.0,-0.05553736537694931
149.0,118.0,-0.1184,0.6413,9.8082,-0.0425,0.0254,-0.1176,-2.2139231167235316,0.0,4.733571529388428,-1.1363911628723145,-0.0,2.165281295776367,4.810278142779627,-0.0,0.2691364586353302,-1.5071209112750452,-0.0,-0.016315031796693802,-0.37918073335756475,0.0,-0.007169624324887991,1.3329365253448486,0.0,-0.013603436760604382
149.0,118.0,-0.1184,0.6413,9.8082,-0.0425,0.0254,-0.1176,-2.2139069042601527,0.0,4.6845245361328125,-1.1364152431488037,-0.0,2.0956733226776123,4.810269902437486,-0.0,0.28298014402389526,-1.5070846716510218,-0.0,-0.02194274216890335,-0.37914878526796514,0.0,0.0038362683262676,1.3329885005950928,0.0,0.00930234044790268
147.0,120.0,-0.1908,0.6981,9.5934,-0.0435,0.0238,-0.1162,-2.213890691796774,0.0,4.756080627441406,-1.1364033222198486,-0.0,2.114231824874878,4.810294064670362,-0.0,0.2757733166217804,-1.507108513508932,-0.0,-0.007502147927880287,-0.3790805975543421,0.0,-0.0048362179659307,1.3329204320907593,0.0,0.08054620027542114
147.0,120.0,-0.1908,0.6981,9.5934,-0.0435,0.0238,-0.1162,-2.213902612725729,0.0,4.733098030090332,-1.1363551616668701,-0.0,2.1105778217315674,4.810318636685171,-0.0,0.27446651458740234,-1.5071046988116663,-0.0,-0.017115328460931778,-0.379160229359762,0.0,0.0015019861748442054,1.3329684734344482,0.0,-0.002014891244471073
147.0,120.0,-0.1908,0.6981,9.5934,-0.0435,0.0238,-0.1162,-2.2139474354186,0.0,4.764243125915527,-1.1363632678985596,-0.0,2.104245185852051,4.810302290111341,-0.0,0.26632294058799744,-1.5070965925799769,-0.0,-0.0128045454621315,-0.37916404405702764,0.0,-0.0010081656510010362,1.3329402208328247,0.0,0.0495024211704731
147.0,120.0,-0.1908,0.6981,9.5934,-0.0435,0.0238,-0.1162,-2.2139069042601527,0.0,4.725852012634277,-1.1363792419433594,-0.0,2.0944888591766357,4.810338686197557,-0.0,0.27535757422447205,-1.5071690718280237,-0.0,-0.016680896282196045,-0.3791449705706995,0.0,-0.0015750625170767307,1.3329484462738037,0.0,-0.03990550339221954
147.0,120.0,-0.1908,0.6981,9.5934,-0.0435,0.0238,-0.1162,-2.2138949833311976,0.0,4.749985694885254,-1.136399269104004,-0.0,2.106095790863037,4.81033835092143,-0.0,0.2791220545768738,-1.5071046988116663,-0.0,-0.010270779952406883,-0.3791130224810999,0.0,0.0045015811920166016,1.332932472229004,0.0,0.010727046057581902
147.0,120.0,-0.1908,0.6981,9.5934,-0.0435,0.0238,-0.1162,-2.2139111957945765,0.0,4.691573619842529,-1.1363589763641357,-0.0,2.1264119148254395,4.810322317271986,-0.0,0.2722492218017578,-1.5071209112750452,-0.0,-0.021298348903656006,-0.37916833559145147,0.0,0.003128534182906151,1.332924723625183,0.0,-0.015628622844815254
147.0,120.0,-0.1908,0.6981,9.5934,-0.0435,0.0238,-0.1162,-2.2139111957945765,0.0,4.744710445404053,-1.1363147497177124,-0.0,2.168792247772217,4.8103104559476755,-0.0,0.2853173017501831,-1.5070889631854456,-0.0,-0.02196558564901352,-0.3792007605182093,0.0,0.005635113455355167,1.3329246044158936,0.0,-0.01700434461236
147.0,120.0,-0.1908,0.6981,9.5934,-0.0435,0.0238,-0.1162,-2.213886877099508,0.0,4.747209548950195,-1.1363792419433594,-0.0,2.1234118938446045,4.810290361731806,-0.0,0.26772111654281616,-1.5070880095111292,-0.0,-0.00900526624172926,-0.37912017503847295,0.0,0.005513193551450968,1.3329607248306274,0.0,-0.026806678622961044
147.0,120.0,-0.1908,0.6981,9.5934,-0.0435,0.0238,-0.1162,-2.2138706646361292,0.0,4.723763942718506,-1.1363630294799805,-0.0,2.1729140281677246,4.8103104559476755,-0.0,0.26604151725769043,-1.5070846716510218,-0.0,-0.0036194785498082638,-0.3791406790362757,0.0,-0.002733392408117652,1.3329848051071167,0.0,0.02474725991487503
147.0,120.0,-0.1908,0.6981,9.5934,-0.0435,0.0238,-0.1162,-2.2139512501158656,0.0,4.731176376342773,-1.1364030838012695,-0.0,2.1989450454711914,4.810310463398256,-0.0,0.2698921263217926,-1.5071046988116663,-0.0,-0.008229340426623821,-0.3792045752154749,0.0,0.011476783081889153,1.3329163789749146,0.0,-0.0020684199407696724
147.0,120.0,-0.1908,0.6981,9.5934,-0.0435,0.0238,-0.1162,-2.213846345941061,0.0,4.7226481437683105,-1.1364558935165405,-0.0,2.152341842651367,4.810290004103937,-0.0,0.26611387729644775,-1.507108513508932,-0.0,-0.01577337086200714,-0.3791845480548304,0.0,0.003160480409860611,1.3329644203186035,0.0,0.0018034307286143303
147.0,120.0,-0.1908,0.6981,9.5934,-0.0435,0.0238,-0.1162,-2.2139069042601527,0.0,4.7255539894104,-1.1364271640777588,-0.0,2.2082245349884033,4.8102698279316805,-0.0,0.27681511640548706,-1.5071209112750452,-0.0,-0.017337869852781296,-0.37913257280458623,0.0,0.00868203304708004,1.333000898361206,0.0,-0.03549077361822128
147.0,120.0,-0.1908,0.6981,9.5934,-0.0435,0.0238,-0.1162,-2.2138787708678187,0.0,4.724674224853516,-1.1364436149597168,-0.0,2.1590893268585205,4.810302215605535,-0.0,0.26787304878234863,-1.5071209112750452,-0.0,-0.012439724057912827,-0.37913257280458623,0.0,0.00781695730984211,1.3329684734344482,0.0,0.0012645768001675606
147.0,120.0,-0.1908,0.6981,9.5934,-0.0435,0.0238,-0.1162,-2.2139231167235316,0.0,4.764209270477295,-1.1363911628723145,-0.0,2.1329152584075928,4.810350271850385,-0.0,0.2693638503551483,-1.5071285406695765,-0.0,-0.011667300947010517,-0.3791406790362757,0.0,-0.004739287309348583,1.3329442739486694,0.0,0.010336488485336304
144.0,114.0,-0.1442,0.6706,9.5581,-0.0451,0.0238,-0.111,-2.213931222955221,0.0,4.735137462615967,-1.136383056640625,-0.0,2.1257991790771484,4.810285876482286,-0.0,0.27894407510757446,-1.507108513508932,-0.0,-0.02024953067302704,-0.3791449705706995,0.0,0.0038912645541131496,1.3329241275787354,0.0,0.04272690787911415
144.0,114.0,-0.1442,0.6706,9.5581,-0.0451,0.0238,-0.111,-2.213919302026266,0.0,4.712206840515137,-1.1364033222198486,-0.0,2.1321005821228027,4.81027394065217,-0.0,0.26439034938812256,-1.5071004072772425,-0.0,-0.017990950495004654,-0.3791721502887171,0.0,0.0007434247527271509,1.3329644203186035,0.0,-0.020594295114278793
144.0,114.0,-0.1442,0.6706,9.5581,-0.0451,0.0238,-0.111,-2.2139231167235316,0.0,4.725586891174316,-1.1363989114761353,-0.0,2.1000537872314453,4.810281815915861,-0.0,0.25260764360427856,-1.5071328322040003,-0.0,-0.02644483558833599,-0.3791769186602991,0.0,-0.00862229522317648,1.332972526550293,0.0,-0.0005068294703960419
144.0,114.0,-0.1442,0.6706,9.5581,-0.0451,0.0238,-0.111,-2.213926931420797,0.0,4.765039920806885,-1.136383056640625,-0.0,2.1377980709075928,4.810326459794798,-0.0,0.26629289984703064,-1.5071166197406214,-0.0,-0.014798475429415703,-0.3791845480548304,0.0,-0.0015083553735166788,1.332900047302246,0.0,0.01997101865708828
144.0,114.0,-0.1442,0.6706,9.5581,-0.0451,0.0238,-0.111,-2.2139069042601527,0.0,4.747060298919678,-1.1363989114761353,-0.0,2.1860339641571045,4.810289959400453,-0.0,0.2783207893371582,-1.5071409384356897,-0.0,-0.02384592778980732,-0.3791888395892542,0.0,-0.00387100363150239,1.3329565525054932,0.0,-0.015849674120545387
144.0,114.0,-0.1442,0.6706,9.5581,-0.0451,0.0238,-0.111,-2.2139069042601527,0.0,4.753354072570801,-1.1364518404006958,-0.0,2.1694130897521973,4.810330579965868,-0.0,0.26965534687042236,-1.5070965925799769,-0.0,-0.01941431500017643,-0.37916404405702764,0.0,0.011277173645794392,1.3329205513000488,0.0,-0.0023377537727355957
144.0,114.0,-0.1442,0.6706,9.5581,-0.0451,0.0238,-0.111,-2.213902612725729,0.0,4.721685409545898,-1.1363911628723145,-0.0,2.16336727142334,4.810269857734003,-0.0,0.2695685029029846,-1.5071209112750452,-0.0,-0.01635138690471649,-0.3791449705706995,0.0,-0.007739884778857231,1.3329200744628906,0.0,0.022316139191389084
144.0,114.0,-0.1442,0.6706,9.5581,-0.0451,0.0238,-0.111,-2.213926931420797,0.0,4.725956916809082,-1.13636314868927,-0.0,2.134777545928955,4.810302237957277,-0.0,0.27088379859924316,-1.5070965925799769,-0.0,-0.014712465927004814,-0.3792002836810511,0.0,-0.006891507189720869,1.3329684734344482,0.0,-0.013697762042284012
144.0,114.0,-0.1442,0.6706,9.5581,-0.0451,0.0238,-0.111,-2.213903089562887,0.0,4.722278594970703,-1.1364190578460693,-0.0,2.126485586166382,4.810285913735189,-0.0,0.2697561979293823,-1.5071247259723108,-0.0,-0.006458860822021961,-0.3791406790362757,0.0,0.001915821572765708,1.3329726457595825,0.0,0.016495976597070694
144.0,114.0,-0.1442,0.6706,9.5581,-0.0451,0.0238,-0.111,-2.2139069042601527,0.0,4.690853118896484,-1.1363952159881592,-0.0,2.0975325107574463,4.810302252858438,-0.0,0.26128119230270386,-1.5070889631854456,-0.0,-0.017887987196445465,-0.37915259996523076,0.0,0.008093787357211113,1.332972526550293,0.0,-0.04602058604359627
144.0,114.0,-0.1442,0.6706,9.5581,-0.0451,0.0238,-0.111,-2.213926931420797,0.0,4.737143039703369,-1.1363788843154907,-0.0,2.1387271881103516,4.810285898834028,-0.0,0.27425771951675415,-1.5071004072772425,-0.0,-0.017101192846894264,-0.3791130224810999,0.0,-0.004111494403332472,1.3329644203186035,0.0,0.02839067578315735
144.0,114.0,-0.1442,0.6706,9.5581,-0.0451,0.0238,-0.111,-2.213886877099508,0.0,4.750158309936523,-1.1364233493804932,-0.0,2.1385514736175537,4.81030626872138,-0.0,0.27267777919769287,-1.5071004072772425,-0.0,-0.011881094425916672,-0.379188362752096,0.0,0.0010280562564730644,1.3329565525054932,0.0,0.0005151182413101196
144.0,114.0,-0.1442,0.6706,9.5581,-0.0451,0.0238,-0.111,-2.213926931420797,0.0,4.750205993652344,-1.1363911628723145,-0.0,2.1781845092773438,4.810342515795984,-0.0,0.27165335416793823,-1.5070965925799769,-0.0,-0.013119179755449295,-0.379160229359762,0.0,0.01550719328224659,1.3329766988754272,0.0,-0.006580693647265434
145.0,118.0,-0.131,0.6855,9.521,-0.029,0.0221,-0.111,-2.2138992748656214,0.0,4.7709641456604,-1.136427402496338,-0.0,2.168330669403076,4.8103264821465395,-0.0,0.2828505039215088,-1.5071247259723108,-0.0,-0.008094711229205132,-0.37913686433901006,0.0,0.0028835278935730457,1.3329163789749146,0.0,-0.007900917902588844
145.0,118.0,-0.131,0.6855,9.521,-0.029,0.0221,-0.111,-2.213931222955221,0.0,4.695647239685059,-1.1363911628723145,-0.0,2.145021915435791,4.810314561217584,-0.0,0.2748531699180603,-1.5071285406695765,-0.0,-0.02109886333346367,-0.3791769186602991,0.0,0.0008582473965361714,1.3329405784606934,0.0,-0.04441135376691818
145.0,118.0,-0.131,0.6855,9.521,-0.029,0.0221,-0.111,-2.2138873539366664,0.0,4.746967315673828,-1.1364593505859375,-0.0,2.137140989303589,4.810298117786207,-0.0,0.26973265409469604,-1.5071123282061976,-0.0,-0.00364371994510293,-0.37916404405702764,0.0,-0.006623862776905298,1.3329602479934692,0.0,0.020311791449785233
145.0,118.0,-0.131,0.6855,9.521,-0.029,0.0221,-0.111,-2.213902612725729,0.0,4.715438365936279,-1.1363670825958252,-0.0,2.1100337505340576,4.810342485993662,-0.0,0.27225741744041443,-1.5070927778827112,-0.0,-0.01856665126979351,-0.3792002836810511,0.0,0.001876202179118991,1.332972526550293,0.0,-0.03195391222834587
145.0,118.0,-0.131,0.6855,9.521,-0.029,0.0221,-0.111,-2.2138949833311976,0.0,4.757159233093262,-1.1364030838012695,-0.0,2.1407642364501953,4.810314561217584,-0.0,0.27729958295822144,-1.5071004072772425,-0.0,-0.019222494214773178,-0.37918073335756475,0.0,-0.000508215045556426,1.332932472229004,0.0,0.056111812591552734
145.0,118.0,-0.131,0.6855,9.521,-0.029,0.0221,-0.111,-2.213915010491842,0.0,4.741336345672607,-1.1363790035247803,-0.0,2.104564666748047,4.810314561217584,-0.0,0.28365033864974976,-1.5071004072772425,-0.0,-0.0144510418176651,-0.37916833559145147,0.0,-0.009609141387045383,1.3329644203186035,0.0,4.784297198057175e-05
145.0,118.0,-0.131,0.6855,9.521,-0.029,0.0221,-0.111,-2.213926931420797,0.0,4.726408004760742,-1.1364150047302246,-0.0,2.1540603637695312,4.810322309821405,-0.0,0.27129051089286804,-1.507092301045553,-0.0,-0.014676693826913834,-0.379160229359762,0.0,0.001686587929725647,1.3329644203186035,0.0,-0.0005161287263035774
145.0,118.0,-0.131,0.6855,9.521,-0.029,0.0221,-0.111,-2.213890691796774,0.0,4.717191219329834,-1.136423110961914,-0.0,2.1064085960388184,4.810278120427885,-0.0,0.26955050230026245,-1.5071328322040003,-0.0,-0.012234346009790897,-0.3791926542865198,0.0,-0.00012261932715773582,1.33292818069458,0.0,0.03944072127342224
145.0,118.0,-0.131,0.6855,9.521,-0.029,0.0221,-0.111,-2.213874956170553,0.0,4.7314910888671875,-1.1363630294799805,-0.0,2.1301980018615723,4.810270245164194,-0.0,0.26930901408195496,-1.5071247259723108,-0.0,-0.005923796910792589,-0.37909251848329717,0.0,-0.0072829644195735455,1.3330128192901611,0.0,0.029109835624694824
145.0,118.0,-0.131,0.6855,9.521,-0.029,0.0221,-0.111,-2.2138544521727503,0.0,4.735476493835449,-1.1363871097564697,-0.0,2.1269001960754395,4.810290331929483,-0.0,0.2768867611885071,-1.507120434437887,-0.0,-0.02115562930703163,-0.37913257280458623,0.0,0.004201572388410568,1.3329684734344482,0.0,0.009937709197402
145.0,118.0,-0.131,0.6855,9.521,-0.029,0.0221,-0.111,-2.2139231167235316,0.0,4.707769393920898,-1.1364152431488037,-0.0,2.1658506393432617,4.810298117786207,-0.0,0.27570536732673645,-1.5071123282061976,-0.0,-0.00943228043615818,-0.3791845480548304,0.0,-0.014890652149915695,1.3329726457595825,0.0,0.008592219091951847
145.0,118.0,-0.131,0.6855,9.521,-0.029,0.0221,-0.111,-2.213926931420797,0.0,4.771157741546631,-1.13633131980896,-0.0,2.1242897510528564,4.810302223056116,-0.0,0.279945433139801,-1.5071209112750452,-0.0,-0.011796655133366585,-0.37914878526796514,0.0,0.014798568561673164,1.3329930305480957,0.0,-0.0005709324032068253
145.0,118.0,-0.131,0.6855,9.521,-0.029,0.0221,-0.111,-2.213890691796774,0.0,4.702164649963379,-1.13637113571167,-0.0,2.1109371185302734,4.81035432496623,-0.0,0.2693723142147064,-1.507136646901266,-0.0,-0.013923143036663532,-0.3791406790362757,0.0,-0.01171495858579874,1.3329929113388062,0.0,-0.022792208939790726
147.0,118.0,-0.1609,0.6634,9.5001,-0.035,0.018,-0.1098,-2.2138992748656214,0.0,4.710408687591553,-1.1363792419433594,-0.0,2.1547083854675293,4.810298229544916,-0.0,0.2922138273715973,-1.5071166197406214,-0.0,-0.014655668288469315,-0.37914878526796514,0.0,-0.0006960201426409185,1.3329442739486694,0.0,0.03446502238512039
147.0,118.0,-0.1609,0.6634,9.5001,-0.035,0.018,-0.1098,-2.2139512501158656,0.0,4.733783721923828,-1.1363952159881592,-0.0,2.1033735275268555,4.810318614333429,-0.0,0.28604692220687866,-1.5071247259723108,-0.0,-0.016221698373556137,-0.3791282812701624,0.0,0.00017869408475235105,1.3329644203186035,0.0,0.017532987520098686
147.0,118.0,-0.1609,0.6634,9.5001,-0.035,0.018,-0.1098,-2.2139231167235316,0.0,4.773358345031738,-1.1363911628723145,-0.0,2.155043601989746,4.810346576362409,-0.0,0.26047080755233765,-1.5070646444903772,-0.0,-0.0074440184980630875,-0.37916833559145147,0.0,0.0038629143964499235,1.3329204320907593,0.0,-0.008022947236895561
147.0,118.0,-0.1609,0.6634,9.5001,-0.035,0.018,-0.1098,-2.2138873539366664,0.0,4.7029948234558105,-1.1363592147827148,-0.0,2.1503615379333496,4.8103104559476755,-0.0,0.2675727903842926,-1.5071123282061976,-0.0,-0.020153827965259552,-0.37914878526796514,0.0,-0.0013937593903392553,1.332916498184204,0.0,-0.015519071370363235
147.0,118.0,-0.1609,0.6634,9.5001,-0.035,0.018,-0.1098,-2.213935514489645,0.0,4.727354049682617,-1.1364033222198486,-0.0,2.178145408630371,4.810362528055467,-0.0,0.2746921181678772,-1.5071285406695765,-0.0,-0.010338797233998775,-0.3791568914996546,0.0,0.005863199941813946,1.332960605621338,0.0,-0.02422173321247101
147.0,118.0,-0.1609,0.6634,9.5001,-0.035,0.018,-0.1098,-2.213915010491842,0.0,4.730545997619629,-1.1364715099334717,-0.0,2.1449084281921387,4.810306298523702,-0.0,0.27125173807144165,-1.5070646444903772,-0.0,-0.016860300675034523,-0.37910491624941045,0.0,2.952408976852894e-06,1.3329405784606934,0.0,0.008473542518913746
147.0,118.0,-0.1609,0.6634,9.5001,-0.035,0.018,-0.1098,-2.2138506374754847,0.0,4.76168966293335,-1.1364271640777588,-0.0,2.1668553352355957,4.810294139176168,-0.0,0.2749560475349426,-1.5070846716510218,-0.0,-0.013661324046552181,-0.3791449705706995,0.0,-0.001197924604639411,1.332932472229004,0.0,0.02672717347741127
147.0,118.0,-0.1609,0.6634,9.5001,-0.035,0.018,-0.1098,-2.2138830624022425,0.0,4.769922256469727,-1.136435627937317,-0.0,2.0858590602874756,4.810266169696607,-0.0,0.27575722336769104,-1.5071046988116663,-0.0,-0.024988390505313873,-0.37918073335756475,0.0,0.005975539330393076,1.332980751991272,0.0,-0.051464032381772995
147.0,118.0,-0.1609,0.6634,9.5001,-0.035,0.018,-0.1098,-2.2139231167235316,0.0,4.802048206329346,-1.1363909244537354,-0.0,2.0869855880737305,4.8102662218506715,-0.0,0.2751700282096863,-1.5071046988116663,-0.0,-0.011601251550018787,-0.3792002836810511,0.0,0.009236720390617847,1.3329484462738037,0.0,-0.005808696150779724
147.0,118.0,-0.1609,0.6634,9.5001,-0.035,0.018,-0.1098,-2.213902612725729,0.0,4.641785144805908,-1.1364030838012695,-0.0,2.085160732269287,4.810285869031706,-0.0,0.2620916962623596,-1.507108513508932,-0.0,-0.012490855529904366,-0.3792045752154749,0.0,-0.0024830568581819534,1.3329484462738037,0.0,-0.011051500216126442
147.0,118.0,-0.1609,0.6634,9.5001,-0.035,0.018,-0.1098,-2.2139111957945765,0.0,4.743410110473633,-1.136439561843872,-0.0,2.1258316040039062,4.810306298523702,-0.0,0.27302277088165283,-1.5070927778827112,-0.0,-0.026881787925958633,-0.379160229359762,0.0,-5.762942600995302e-05,1.3329848051071167,0.0,0.022705847397446632
147.0,118.0,-0.1609,0.6634,9.5001,-0.035,0.018,-0.1098,-2.2138706646361292,0.0,4.727107524871826,-1.1363788843154907,-0.0,2.110517978668213,4.810302223056116,-0.0,0.2834639847278595,-1.5070765654193323,-0.0,-0.020218346267938614,-0.3792007605182093,0.0,0.005049839150160551,1.3329442739486694,0.0,-0.008066916838288307
147.0,118.0,-0.1609,0.6634,9.5001,-0.035,0.018,-0.1098,-2.2138825855650843,0.0,4.698215007781982,-1.1363751888275146,-0.0,2.1185972690582275,4.810298229544916,-0.0,0.26353734731674194,-1.5071609655963343,-0.0,-0.023824024945497513,-0.37916833559145147,0.0,0.0032806580420583487,1.332980751991272,0.0,0.009227987378835678
144.0,117.0,-0.2459,0.6736,9.7615,-0.0359,0.0246,-0.1118,-2.213890691796774,0.0,4.739647388458252,-1.1363751888275146,-0.0,2.138782024383545,4.8102658269699,-0.0,0.2692513167858124,-1.507092301045553,-0.0,-0.016124404966831207,-0.37913638750185186,0.0,-0.0173808466643095,1.3329967260360718,0.0,-0.029757916927337646
144.0,117.0,-0.2459,0.6736,9.7615,-0.0359,0.0246,-0.1118,-2.2138825855650843,0.0,4.722883224487305,-1.1364550590515137,-0.0,2.1399362087249756,4.8103666109736345,-0.0,0.2696216404438019,-1.5071123282061976,-0.0,-0.01991395466029644,-0.379160229359762,0.0,0.015320506878197193,1.3329888582229614,0.0,-0.013717548921704292
144.0,117.0,-0.2459,0.6736,9.7615,-0.0359,0.0246,-0.1118,-2.2139111957945765,0.0,4.7460503578186035,-1.13636314868927,-0.0,2.11286997795105,4.8103104559476755,-0.0,0.27331697940826416,-1.5071609655963343,-0.0,-0.015930037945508957,-0.3791564146624964,0.0,0.004209498409181833,1.3329602479934692,0.0,0.02364322729408741
144.0,117.0,-0.2459,0.6736,9.7615,-0.0359,0.0246,-0.1118,-2.213915010491842,0.0,4.720242023468018,-1.1363911628723145,-0.0,2.154226303100586,4.810338336020269,-0.0,0.2632518708705902,-1.5071166197406214,-0.0,-0.005794829688966274,-0.379160229359762,0.0,0.005570448003709316,1.3329323530197144,0.0,0.053800322115421295
144.0,117.0,-0.2459,0.6736,9.7615,-0.0359,0.0246,-0.1118,-2.2139188251891078,0.0,4.691571235656738,-1.1364191770553589,-0.0,2.1695287227630615,4.810314620822229,-0.0,0.27495530247688293,-1.5070927778827112,-0.0,-0.01131383702158928,-0.3791282812701624,0.0,0.0070167118683457375,1.3329885005950928,0.0,0.004453543573617935
144.0,117.0,-0.2459,0.6736,9.7615,-0.0359,0.0246,-0.1118,-2.2139069042601527,0.0,4.7204718589782715,-1.136451005935669,-0.0,2.172579765319824,4.810354384570875,-0.0,0.2840847969055176,-1.5071004072772425,-0.0,-0.01854318380355835,-0.3791406790362757,0.0,-0.005565082188695669,1.3329644203186035,0.0,0.008577750064432621
144.0,117.0,-0.2459,0.6736,9.7615,-0.0359,0.0246,-0.1118,-2.213931222955221,0.0,4.701459884643555,-1.136431336402893,-0.0,2.172410488128662,4.8102981624896906,-0.0,0.2724253833293915,-1.507108513508932,-0.0,-0.01173671055585146,-0.37912112871278936,0.0,-0.001925086136907339,1.3329246044158936,0.0,0.026559757068753242
144.0,117.0,-0.2459,0.6736,9.7615,-0.0359,0.0246,-0.1118,-2.213890691796774,0.0,4.721684455871582,-1.1363751888275146,-0.0,2.1268370151519775,4.810306328326025,-0.0,0.2763403058052063,-1.5070965925799769,-0.0,-0.014225965365767479,-0.379160229359762,0.0,0.009667539037764072,1.3329684734344482,0.0,0.009330110624432564
144.0,117.0,-0.2459,0.6736,9.7615,-0.0359,0.0246,-0.1118,-2.2138830624022425,0.0,4.735013961791992,-1.1363989114761353,-0.0,2.14459228515625,4.810285861581125,-0.0,0.2692044675350189,-1.5071447531329554,-0.0,-0.01459469273686409,-0.379068676625387,0.0,-0.008770465850830078,1.3329205513000488,0.0,0.008323656395077705
144.0,117.0,-0.2459,0.6736,9.7615,-0.0359,0.0246,-0.1118,-2.2139512501158656,0.0,4.747182369232178,-1.1364754438400269,-0.0,2.110217809677124,4.8102818233664415,-0.0,0.27414751052856445,-1.5071046988116663,-0.0,-0.014576923102140427,-0.37919646898378545,0.0,-0.009904701262712479,1.3329521417617798,0.0,-0.020105421543121338
144.0,117.0,-0.2459,0.6736,9.7615,-0.0359,0.0246,-0.1118,-2.213902612725729,0.0,4.686768531799316,-1.1364191770553589,-0.0,2.1363778114318848,4.810281778662958,-0.0,0.27381250262260437,-1.5071290175067347,-0.0,-0.014085475355386734,-0.37916404405702764,0.0,0.006412149406969547,1.3329967260360718,0.0,0.005820383317768574
144.0,117.0,-0.2459,0.6736,9.7615,-0.0359,0.0246,-0.1118,-2.2139555416502894,0.0,4.734527587890625,-1.136423110961914,-0.0,2.0862457752227783,4.810310463398256,-0.0,0.2719340920448303,-1.5070965925799769,-0.0,-0.010083140805363655,-0.37913638750185186,0.0,-0.011483697220683098,1.3329765796661377,0.0,-0.007698557339608669
144.0,117.0,-0.2459,0.6736,9.7615,-0.0359,0.0246,-0.1118,-2.213902612725729,0.0,4.674300193786621,-1.1364232301712036,-0.0,2.1637747287750244,4.810273955553331,-0.0,0.26350846886634827,-1.5070965925799769,-0.0,-0.02059842273592949,-0.3791721502887171,0.0,0.010860254988074303,1.3329607248306274,0.0,-0.054128438234329224
144.0,117.0,-0.2459,0.6736,9.7615,-0.0359,0.0246,-0.1118,-2.2139388523497523,0.0,4.753060340881348,-1.1363834142684937,-0.0,2.1646382808685303,4.810273955553331,-0.0,0.2699591815471649,-1.5071166197406214,-0.0,-0.023083511739969254,-0.3791244665728968,0.0,0.0026904926635324955,1.3329323530197144,0.0,0.013913889415562153
149.0,117.0,-0.1208,0.6969,9.5139,-0.0286,0.0275,-0.1177,-2.2138668499388636,0.0,4.711295127868652,-1.1363911628723145,-0.0,2.169857978820801,4.810302319913664,-0.0,0.28335922956466675,-1.507136646901266,-0.0,-0.016606606543064117,-0.3791568914996546,0.0,0.006793084088712931,1.332980751991272,0.0,-0.03031201660633087
149.0,117.0,-0.1208,0.6969,9.5139,-0.0286,0.0275,-0.1177,-2.2138830624022425,0.0,4.748102188110352,-1.1364191770553589,-0.0,2.1773393154144287,4.810338380723753,-0.0,0.269537091255188,-1.5071123282061976,-0.0,-0.02324558049440384,-0.37916404405702764,0.0,-0.006021636538207531,1.3330007791519165,0.0,-0.03302523493766785
149.0,117.0,-0.1208,0.6969,9.5139,-0.0286,0.0275,-0.1177,-2.2139069042601527,0.0,4.744596481323242,-1.1363829374313354,-0.0,2.1540462970733643,4.810334253102102,-0.0,0.2639243006706238,-1.5070927778827112,-0.0,-0.02883223444223404,-0.37916881242860967,0.0,-0.008337752893567085,1.3329524993896484,0.0,-0.0482843816280365
149.0,117.0,-0.1208,0.6969,9.5139,-0.0286,0.0275,-0.1177,-2.213926931420797,0.0,4.739084720611572,-1.1363791227340698,-0.0,2.1498303413391113,4.810346591263571,-0.0,0.280360609292984,-1.507136646901266,-0.0,-0.01384151540696621,-0.379096810017721,0.0,-0.001645820215344429,1.3329405784606934,0.0,0.007164796348661184
149.0,117.0,-0.1208,0.6969,9.5139,-0.0286,0.0275,-0.1177,-2.2139188251891078,0.0,4.706454277038574,-1.1363911628723145,-0.0,2.1471571922302246,4.8102818606193445,-0.0,0.28071314096450806,-1.5071285406695765,-0.0,-0.0223768949508667,-0.3791130224810999,0.0,0.0014413088792935014,1.3329683542251587,0.0,-0.029240380972623825
149.0,117.0,-0.1208,0.6969,9.5139,-0.0286,0.0275,-0.1177,-2.213890691796774,0.0,4.7543745040893555,-1.1363788843154907,-0.0,2.136537551879883,4.810338291316786,-0.0,0.2656327188014984,-1.507132355366842,-0.0,-0.00545946229249239,-0.37914878526796514,0.0,-0.0025903419591486454,1.3329365253448486,0.0,-0.026520393788814545
149.0,117.0,-0.1208,0.6969,9.5139,-0.0286,0.0275,-0.1177,-2.2139388523497523,0.0,4.7143659591674805,-1.1363952159881592,-0.0,2.1638855934143066,4.810318651586332,-0.0,0.26385045051574707,-1.5070646444903772,-0.0,-0.014423944056034088,-0.37913257280458623,0.0,-0.004884404130280018,1.3329484462738037,0.0,0.03630753606557846
149.0,117.0,-0.1208,0.6969,9.5139,-0.0286,0.0275,-0.1177,-2.2138787708678187,0.0,4.76181697845459,-1.1363989114761353,-0.0,2.1695661544799805,4.810294139176168,-0.0,0.27950990200042725,-1.5071528593646448,-0.0,-0.0199650339782238,-0.37918073335756475,0.0,0.013319895602762699,1.3329566717147827,0.0,0.025034554302692413
149.0,117.0,-0.1208,0.6969,9.5139,-0.0286,0.0275,-0.1177,-2.213902612725729,0.0,4.724547863006592,-1.136374831199646,-0.0,2.15885591506958,4.810294168978491,-0.0,0.25684478878974915,-1.507136646901266,-0.0,-0.0048419516533613205,-0.37913638750185186,0.0,-0.0009835462551563978,1.3329848051071167,0.0,0.036157526075839996
149.0,117.0,-0.1208,0.6969,9.5139,-0.0286,0.0275,-0.1177,-2.2139111957945765,0.0,4.737627029418945,-1.1363989114761353,-0.0,2.14640474319458,4.810318271606722,-0.0,0.27378374338150024,-1.5070889631854456,-0.0,-0.012891791760921478,-0.3791244665728968,0.0,-0.003580169752240181,1.3329726457595825,0.0,-0.01152554340660572
149.0,117.0,-0.1208,0.6969,9.5139,-0.0286,0.0275,-0.1177,-2.2139069042601527,0.0,4.776735305786133,-1.136431336402893,-0.0,2.136187791824341,4.810374866216936,-0.0,0.28075072169303894,-1.5071447531329554,-0.0,-0.021714352071285248,-0.37913638750185186,0.0,0.006911214906722307,1.3329042196273804,0.0,0.007340630982071161
149.0,117.0,-0.1208,0.6969,9.5139,-0.0286,0.0275,-0.1177,-2.213914533654684,0.0,4.760982990264893,-1.136435627937317,-0.0,2.1304831504821777,4.810346576362409,-0.0,0.26584261655807495,-1.5071490446673792,-0.0,-0.016154706478118896,-0.37920838991274053,0.0,0.011662590317428112,1.3329484462738037,0.0,-0.012072572484612465
149.0,117.0,-0.1208,0.6969,9.5139,-0.0286,0.0275,-0.1177,-2.2139598331847132,0.0,4.707178592681885,-1.136371374130249,-0.0,2.1583938598632812,4.810310463398256,-0.0,0.282050222158432,-1.5071290175067347,-0.0,-0.006940983235836029,-0.37914878526796514,0.0,0.007539329119026661,1.3330049514770508,0.0,-0.002831345424056053
146.0,121.0,-0.1244,0.7214,9.4367,-0.0273,0.0284,-0.1139,-2.2139350376524867,0.0,4.691765785217285,-1.136411190032959,-0.0,2.1311750411987305,4.81031050810174,-0.0,0.2809444069862366,-1.507132355366842,-0.0,-0.006638186983764172,-0.3791726271258753,0.0,-0.0035920413210988045,1.3329602479934692,0.0,-0.05151515081524849
146.0,121.0,-0.1244,0.7214,9.4367,-0.0273,0.0284,-0.1139,-2.2138782940306605,0.0,4.743086814880371,-1.136411190032959,-0.0,2.1058874130249023,4.810306298523702,-0.0,0.2619144022464752,-1.5071209112750452,-0.0,-0.02302210032939911,-0.3791926542865198,0.0,-0.004707976244390011,1.3329848051071167,0.0,0.0554104708135128
146.0,121.0,-0.1244,0.7214,9.4367,-0.0273,0.0284,-0.1139,-2.213975568810934,0.0,4.730454921722412,-1.1363871097564697,-0.0,2.1651482582092285,4.8102497709687135,-0.0,0.2669379711151123,-1.5071409384356897,-0.0,-0.02909407764673233,-0.37912065187563115,0.0,0.004569581709802151,1.3329163789749146,0.0,0.00465818028897047
146.0,121.0,-0.1244,0.7214,9.4367,-0.0273,0.0284,-0.1139,-2.213902612725729,0.0,4.74104118347168,-1.1364150047302246,-0.0,2.068406581878662,4.810326050012865,-0.0,0.28148195147514343,-1.5071166197406214,-0.0,-0.014380061998963356,-0.37913257280458623,0.0,0.002209810074418783,1.3330007791519165,0.0,0.019691983237862587
146.0,121.0,-0.1244,0.7214,9.4367,-0.0273,0.0284,-0.1139,-2.213902612725729,0.0,4.72457218170166,-1.1363911628723145,-0.0,2.167043924331665,4.810269492655554,-0.0,0.2729974389076233,-1.5071285406695765,-0.0,-0.026341529563069344,-0.37916404405702764,0.0,0.010548640042543411,1.3329323530197144,0.0,-0.020102055743336678
146.0,121.0,-0.1244,0.7214,9.4367,-0.0273,0.0284,-0.1139,-2.2138706646361292,0.0,4.732888698577881,-1.1364272832870483,-0.0,2.193493604660034,4.810281793564119,-0.0,0.26249825954437256,-1.5071690718280237,-0.0,-0.012576058506965637,-0.37912065187563115,0.0,0.004807174205780029,1.3329602479934692,0.0,0.03131106495857239
146.0,121.0,-0.1244,0.7214,9.4367,-0.0273,0.0284,-0.1139,-2.213902612725729,0.0,4.71614408493042,-1.1364428997039795,-0.0,2.147679090499878,4.810294139176168,-0.0,0.26623815298080444,-1.5071089903460901,-0.0,-0.01887182891368866,-0.37916833559145147,0.0,-0.013292530551552773,1.3329442739486694,0.0,-0.024586854502558708
146.0,121.0,-0.1244,0.7214,9.4367,-0.0273,0.0284,-0.1139,-2.2138663731017054,0.0,4.700333595275879,-1.1363989114761353,-0.0,2.123356342315674,4.8103182194526575,-0.0,0.2772447168827057,-1.5071166197406214,-0.0,-0.019090138375759125,-0.37913638750185186,0.0,0.005032478366047144,1.3329123258590698,0.0,0.05830903723835945
146.0,121.0,-0.1244,0.7214,9.4367,-0.0273,0.0284,-0.1139,-2.2139231167235316,0.0,4.719092845916748,-1.1364071369171143,-0.0,2.133540153503418,4.810289966851034,-0.0,0.2756732404232025,-1.5071089903460901,-0.0,-0.024022351950407028,-0.3791449705706995,0.0,0.0066625759936869144,1.3329724073410034,0.0,0.03077741153538227
146.0,121.0,-0.1244,0.7214,9.4367,-0.0273,0.0284,-0.1139,-2.213926931420797,0.0,4.797211170196533,-1.1364232301712036,-0.0,2.1829605102539062,4.810269917338648,-0.0,0.27273231744766235,-1.507136646901266,-0.0,-0.03232983499765396,-0.379188362752096,0.0,-0.0066318935714662075,1.3329685926437378,0.0,-0.01874258555471897
146.0,121.0,-0.1244,0.7214,9.4367,-0.0273,0.0284,-0.1139,-2.213902612725729,0.0,4.726241111755371,-1.1363788843154907,-0.0,2.1259617805480957,4.810298229544916,-0.0,0.2722115218639374,-1.5071166197406214,-0.0,-0.025624161586165428,-0.379160229359762,0.0,0.005337443668395281,1.3329524993896484,0.0,-0.008125090040266514
146.0,121.0,-0.1244,0.7214,9.4367,-0.0273,0.0284,-0.1139,-2.213926931420797,0.0,4.701542854309082,-1.1364150047302246,-0.0,2.165220022201538,4.8103104559476755,-0.0,0.26973655819892883,-1.5070965925799769,-0.0,-0.010315416380763054,-0.37913638750185186,0.0,0.008808320388197899,1.3329447507858276,0.0,-0.0023790837731212378
146.0,121.0,-0.1244,0.7214,9.4367,-0.0273,0.0284,-0.1139,-2.213874956170553,0.0,4.680574417114258,-1.1363590955734253,-0.0,2.1907660961151123,4.810294139176168,-0.0,0.2829444408416748,-1.5070965925799769,-0.0,-0.02153257094323635,-0.3791449705706995,0.0,0.005289058201014996,1.3329484462738037,7.657612608250042e-13,-0.0321168452501297
144.0,116.0,-0.0939,0.7143,9.4068,-0.0321,0.0235,-0.1135,-2.213886877099508,0.0,4.740733623504639,-1.1364272832870483,-0.0,2.1674063205718994,4.810314531415262,-0.0,0.2815360128879547,-1.5071046988116663,-0.0,-0.01233179122209549,-0.379188362752096,0.0,0.0033321550581604242,1.332980751991272,1.849223263932469e-18,0.053413622081279755
144.0,116.0,-0.0939,0.7143,9.4068,-0.0321,0.0235,-0.1135,-2.213919302026266,0.0,4.726621150970459,-1.13637113571167,-0.0,2.1606767177581787,4.810298214643755,-0.0,0.2781134247779846,-1.5071447531329554,-0.0,-0.011800658889114857,-0.3791721502887171,0.0,0.0011934703215956688,1.3330246210098267,4.4656567819088366e-24,0.09988689422607422
144.0,116.0,-0.0939,0.7143,9.4068,-0.0321,0.0235,-0.1135,-2.2139069042601527,0.0,4.701485633850098,-1.1363834142684937,-0.0,2.17444109916687,4.81033835092143,-0.0,0.2713172435760498,-1.5071690718280237,-0.0,-0.012997031211853027,-0.379160229359762,0.0,-0.011339370161294937,1.3329967260360718,1.4468158443084636e-31,0.03998392075300217
144.0,116.0,-0.0939,0.7143,9.4068,-0.0321,0.0235,-0.1135,-2.2138668499388636,0.0,4.716960430145264,-1.1363911628723145,-0.0,2.1188316345214844,4.81035469749526,-0.0,0.2737261652946472,-1.5071447531329554,-0.0,-0.0037585385143756866,-0.3791406790362757,0.0,-0.007515010889619589,1.3329602479934692,3.4938897470176844e-37,0.01241650152951479
144.0,116.0,-0.0939,0.7143,9.4068,-0.0321,0.0235,-0.1135,-2.213935514489645,0.0,4.727147102355957,-1.1363550424575806,-0.0,2.1338446140289307,4.810265856772222,-0.0,0.2803576588630676,-1.5071123282061976,-0.0,-0.021363573148846626,-0.37916404405702764,0.0,0.006115864962339401,1.332972526550293,8.435816755235399e-43,0.006048908457159996
144.0,116.0,-0.0939,0.7143,9.4068,-0.0321,0.0235,-0.1135,-2.213915010491842,0.0,4.70399284362793,-1.1364030838012695,-0.0,2.150847911834717,4.810338291316786,-0.0,0.27831292152404785,-1.507104221974508,-0.0,-0.02881353348493576,-0.37916404405702764,0.0,-0.007890374399721622,1.3329925537109375,0.0001933251623995602,0.011389680206775665
144.0,116.0,-0.0939,0.7143,9.4068,-0.0321,0.0235,-0.1135,-2.213863035241598,0.0,4.771394729614258,-1.1364479064941406,1.8308994945148704e-11,2.1264119148254395,4.810310463398256,-0.0,0.26852017641067505,-1.5071046988116663,-0.0,-0.015183375217020512,-0.37915212312807256,0.0,0.009784253314137459,1.3329803943634033,0.00020550416957121342,-0.00038358988240361214
144.0,116.0,-0.0939,0.7143,9.4068,-0.0321,0.0235,-0.1135,-2.213874956170553,0.0,4.701709270477295,-1.136323094367981,4.421406767293531e-17,2.171868085861206,4.81027394065217,-0.0,0.26722002029418945,-1.5070765654193323,-0.0,-0.007069798186421394,-0.37915259996523076,0.0,-0.002983642276376486,1.332984447479248,0.0001844454964157194,-0.019149653613567352
144.0,116.0,-0.0939,0.7143,9.4068,-0.0321,0.0235,-0.1135,-2.213915010491842,0.0,4.74206018447876,-1.1364191770553589,1.432479402978286e-24,2.1457133293151855,4.81033422329978,-0.0,0.2679446339607239,-1.5071247259723108,-0.0,-0.02531070075929165,-0.37913257280458623,0.0,0.003210962051525712,1.332980751991272,0.00016227403830271214,-0.029916049912571907
144.0,116.0,-0.0939,0.7143,9.4068,-0.0321,0.0235,-0.1135,-2.2139231167235316,0.0,4.714865207672119,-1.1364437341690063,3.459269225882325e-30,2.1834683418273926,4.810302290111341,-0.0,0.27085214853286743,-1.5071247259723108,-0.0,-0.0232333242893219,-0.3791845480548304,0.0,0.00469821784645319,1.3329401016235352,0.00014885446580592543,-0.025410108268260956
144.0,116.0,-0.0939,0.7143,9.4068,-0.0321,0.0235,-0.1135,-2.21386255840444,0.0,4.697331428527832,-1.1363871097564697,8.353726942374768e-36,2.1561055183410645,4.810326452344217,-0.0,0.26586100459098816,-1.5071123282061976,-0.0,-0.013330366462469101,-0.3790848890887659,0.0,-0.010778004303574562,1.3329644203186035,0.00013748444325756282,-0.021837294101715088
144.0,116.0,-0.0939,0.7143,9.4068,-0.0321,0.0235,-0.1135,-2.213886877099508,0.0,4.7626872062683105,-1.1363952159881592,2.704506036146897e-43,2.1844899654388428,4.810253920942106,-0.0,0.26791617274284363,-1.5071123282061976,-0.0,-0.018625475466251373,-0.37912112871278936,0.0,-0.006794210523366928,1.3330086469650269,0.00010398095037089661,0.05544213950634003
144.0,116.0,-0.0939,0.7143,9.4068,-0.0321,0.0235,-0.1135,-2.2139388523497523,0.0,4.734436511993408,-1.1363952159881592,-0.0,2.1610543727874756,4.810310441046514,-0.0,0.2682490646839142,-1.5071209112750452,-0.0,-0.023798733949661255,-0.3791845480548304,0.0,-0.0020945181604474783,1.3329484462738037,9.724034316604957e-05,-0.04204510524868965
144.0,116.0,-0.0939,0.7143,9.4068,-0.0321,0.0235,-0.1135,-2.213943143884176,0.0,4.744151592254639,-1.1364232301712036,-0.0,2.150695562362671,4.810262071877279,-0.0,0.2701013386249542,-1.5071046988116663,-0.0,-0.02064511738717556,-0.3791564146624964,0.0,-0.0007569815497845411,1.3329442739486694,3.62750724889338e-05,-0.03498014435172081
146.0,118.0,-0.2919,0.7525,9.807,-0.0368,0.0295,-0.1197,-2.2138830624022425,0.0,4.766101837158203,-1.1363508701324463,-0.0,2.1108334064483643,4.810289929598131,-0.0,0.28229206800460815,-1.5071528593646448,-0.0,-0.012786125764250755,-0.3791006247149866,0.0,0.0036642069462686777,1.3329602479934692,5.287177362589546e-09,-0.03783319517970085
146.0,118.0,-0.2919,0.7525,9.807,-0.0368,0.0295,-0.1197,-2.213931222955221,0.0,4.730212688446045,-1.1364109516143799,-0.0,2.1093802452087402,4.810326459794798,-0.0,0.2692435383796692,-1.5071447531329554,-0.0,-0.008636653423309326,-0.3791406790362757,0.0,-0.0019460422918200493,1.3329644203186035,1.2767911219664727e-14,0.05350661277770996
146.0,118.0,-0.2919,0.7525,9.807,-0.0368,0.0295,-0.1197,-2.2139069042601527,0.0,4.704562187194824,-1.1363911628723145,-0.0,2.1282856464385986,4.810278142779627,-0.0,0.2708459496498108,-1.5071004072772425,-0.0,-0.009117847308516502,-0.3792002836810511,0.0,0.005715183913707733,1.3329848051071167,3.083300546772352e-20,-0.00839770957827568
146.0,118.0,-0.2919,0.7525,9.807,-0.0368,0.0295,-0.1197,-2.213963647881979,0.0,4.730319499969482,-1.1364150047302246,-0.0,2.1172540187835693,4.810322324722566,-0.0,0.2807995676994324,-1.5071209112750452,-0.0,-0.025884505361318588,-0.3791287581073206,0.0,0.002673554699867964,1.3329765796661377,9.989502028325157e-28,0.023129139095544815
146.0,118.0,-0.2919,0.7525,9.807,-0.0368,0.0295,-0.1197,-2.2138830624022425,0.0,4.758977890014648,-1.1363790035247803,-0.0,2.159526824951172,4.810294139176168,-0.0,0.27779218554496765,-1.5071128050433558,-0.0,-0.01682441309094429,-0.37915259996523076,0.0,-0.010574211366474628,1.3330049514770508,2.4123467516926137e-33,-0.00013382919132709503
146.0,118.0,-0.2919,0.7525,9.807,-0.0368,0.0295,-0.1197,-2.213890691796774,0.0,4.737037658691406,-1.1363829374313354,-0.0,2.135128974914551,4.810278120427885,-0.0,0.2774162292480469,-1.507136646901266,-0.0,-0.008004259318113327,-0.37914830843080694,0.0,-0.00898115336894989,1.332980751991272,5.825532626531238e-39,-0.0008236132562160492
146.0,118.0,-0.2919,0.7525,9.807,-0.0368,0.0295,-0.1197,-2.2139388523497523,0.0,4.712762832641602,-1.1363952159881592,-0.0,2.1386466026306152,4.8103301403816126,-0.0,0.26444879174232483,-1.5071166197406214,-0.0,-0.01448538526892662,-0.37913257280458623,0.0,0.0046032750979065895,1.3329323530197144,0.0,0.012144455686211586
146.0,118.0,-0.2919,0.7525,9.807,-0.0368,0.0295,-0.1197,-2.2139388523497523,0.0,4.710396766662598,-1.1364071369171143,-0.0,2.1442039012908936,4.810278105526724,-0.0,0.2717429995536804,-1.5071166197406214,-0.0,-0.006195256486535072,-0.37915212312807256,0.0,0.0008385577239096165,1.3329365253448486,0.0,0.03255032002925873
146.0,118.0,-0.2919,0.7525,9.807,-0.0368,0.0295,-0.1197,-2.2139111957945765,0.0,4.751755237579346,-1.1364437341690063,-0.0,2.1423165798187256,4.810289944499292,-0.0,0.26648521423339844,-1.5070846716510218,-0.0,-0.016996212303638458,-0.37919313112367803,0.0,-0.0016525269020348787,1.3329401016235352,0.0,0.03360915184020996
146.0,118.0,-0.2919,0.7525,9.807,-0.0368,0.0295,-0.1197,-2.2138992748656214,0.0,4.75057315826416,-1.13636314868927,-0.0,2.1714675426483154,4.81032610961751,-0.0,0.2712218463420868,-1.5070889631854456,-0.0,-0.02108544483780861,-0.3791721502887171,0.0,0.003898023162037134,1.3329644203186035,0.0,-0.00413702055811882
146.0,118.0,-0.2919,0.7525,9.807,-0.0368,0.0295,-0.1197,-2.2138706646361292,0.0,4.75946044921875,-1.1364232301712036,-0.0,2.1639604568481445,4.810318241804399,-0.0,0.26385900378227234,-1.5070765654193323,-0.0,-0.015002873726189137,-0.3791406790362757,0.0,-0.011237631551921368,1.3329684734344482,0.0,-0.02813473902642727
146.0,118.0,-0.2919,0.7525,9.807,-0.0368,0.0295,-0.1197,-2.213886877099508,0.0,4.7208991050720215,-1.1363751888275146,-0.0,2.1351699829101562,4.8102378500397585,-0.0,0.2710980772972107,-1.5071447531329554,-0.0,-0.017923731356859207,-0.3791721502887171,0.0,-0.006348655559122562,1.3329524993896484,0.0,-0.020753417164087296
146.0,118.0,-0.2919,0.7525,9.807,-0.0368,0.0295,-0.1197,-2.2138992748656214,0.0,4.7215166091918945,-1.1364109516143799,-0.0,2.177299976348877,4.810314561217584,-0.0,0.28328341245651245,-1.507108513508932,-5.806520562146034e-07,-0.011073357425630093,-0.3791568914996546,0.0,-0.006468151230365038,1.332984447479248,0.0,0.0009391102939844131
145.0,119.0,-0.0568,0.6867,9.4361,-0.0348,0.0231,-0.1161,-2.2138992748656214,0.0,4.700517177581787,-1.1363792419433594,-0.0,2.1293060779571533,4.810278120427885,-0.0,0.2729109227657318,-1.5071528593646448,-1.6162661486962548e-10,-0.017842821776866913,-0.379160229359762,0.0,-0.0010103760287165642,1.3329644203186035,9.857652912614867e-05,-0.024337999522686005
145.0,119.0,-0.0568,0.6867,9.4361,-0.0348,0.0231,-0.1161,-2.213926931420797,0.0,4.715394020080566,-1.1363385915756226,-0.0,2.1360607147216797,4.810362647264757,-0.0,0.2729356288909912,-1.5071528593646448,-4.498936555870532e-14,-0.015373330563306808,-0.37913638750185186,0.0,0.00041054049506783485,1.3330684900283813,0.003327864222228527,0.044308003038167953
145.0,119.0,-0.0568,0.6867,9.4361,-0.0348,0.0231,-0.1161,-2.2138782940306605,0.0,4.704431533813477,-1.1363426446914673,-0.0,2.1296744346618652,4.8103104932005785,-0.0,0.2722107768058777,-1.5071404615985315,-8.176596086061775e-19,-0.01353306882083416,-0.3791769186602991,0.0,-0.007298212964087725,1.3330881595611572,0.00735778734087944,0.0007895417511463165
145.0,119.0,-0.0568,0.6867,9.4361,-0.0348,0.0231,-0.1161,-2.213902612725729,0.0,4.703564167022705,-1.1363993883132935,-0.0,2.1546454429626465,4.810306313424864,-0.0,0.26580625772476196,-1.5071242491351526,-2.27598563790413e-22,-0.020651351660490036,-0.37918073335756475,0.0,-0.011109059676527977,1.333152174949646,0.008775250986218452,-0.037115685641765594
145.0,119.0,-0.0568,0.6867,9.4361,-0.0348,0.0231,-0.1161,-2.213914533654684,0.0,4.711248874664307,-1.1363952159881592,-0.0,2.1384358406066895,4.810298222094335,-0.0,0.28475844860076904,-1.5071242491351526,-6.335290160833041e-26,-0.006719003431499004,-0.3791444937335413,0.0,-0.0034728143364191055,1.3331639766693115,0.008706173859536648,0.09863769263029099
145.0,119.0,-0.0568,0.6867,9.4361,-0.0348,0.0231,-0.1161,-2.2139069042601527,0.0,4.7090349197387695,-1.1363754272460938,-0.0,2.136317729949951,4.810322309821405,-0.0,0.27509960532188416,-1.5071809927569788,-0.0001674088416621089,-0.0032520343083888292,-0.37912017503847295,0.0,0.004124735947698355,1.3332033157348633,0.007847052998840809,0.035256464034318924
145.0,119.0,-0.0568,0.6867,9.4361,-0.0348,0.0231,-0.1161,-2.213914533654684,-1.566834023636332e-10,4.669466972351074,-1.1363673210144043,9.820058039622381e-05,2.1220908164978027,4.810285898834028,-0.0,0.26988476514816284,-1.5071404615985315,-0.00019685077131725848,-0.0050334264524281025,-0.3791282812701624,0.0,-0.0037207237910479307,1.3332996368408203,0.008342435583472252,-0.0014609871432185173
145.0,119.0,-0.0568,0.6867,9.4361,-0.0348,0.0231,-0.1161,-2.2139598331847132,-3.783719204093213e-16,4.698115825653076,-1.1363623142242432,0.00011385732068447396,2.1545467376708984,4.8103264821465395,-0.0,0.27742713689804077,-1.5071809927569788,-0.00017402274534106255,-0.008630437776446342,-0.3792007605182093,0.0,-0.007142008747905493,1.3333711624145508,0.010378646664321423,0.04078011214733124
145.0,119.0,-0.0568,0.6867,9.4361,-0.0348,0.0231,-0.1161,-2.2138949833311976,-1.2258769882806972e-23,4.731645107269287,-1.1362980604171753,0.0001470333809265867,2.182016372680664,4.8103666109736345,-0.0,0.266743540763855,-1.5071690718280237,-0.00015070689551066607,-0.02440682426095009,-0.37913209596742803,0.0,-0.012364458292722702,1.3335275650024414,0.011968523263931274,0.042321063578128815
145.0,119.0,-0.0568,0.6867,9.4361,-0.0348,0.0231,-0.1161,-2.213902612725729,-2.9603493249300507e-29,4.702254772186279,-1.1363310813903809,0.0005917896050959826,2.1407604217529297,4.8103182194526575,-0.0,0.26891711354255676,-1.5072010199176233,-0.0001369462552247569,-0.029270179569721222,-0.3791239897357386,0.0,0.010338261723518372,1.333554744720459,0.013540651649236679,-0.06314220279455185
145.0,119.0,-0.0568,0.6867,9.4361,-0.0348,0.0231,-0.1161,-2.213930746118063,-7.14889574230481e-35,4.736563682556152,-1.136379599571228,0.0008109951158985496,2.1372458934783936,4.810273977905073,-0.0,0.27507707476615906,-1.507160488759176,-0.00012548858649097383,-0.013635154813528061,-0.379160229359762,0.0,0.0017568222247064114,1.3336267471313477,0.013037108816206455,0.031619153916835785
145.0,119.0,-0.0568,0.6867,9.4361,-0.0348,0.0231,-0.1161,-2.213914533654684,-2.3163463615289226e-42,4.770951271057129,-1.136346697807312,0.0004856564337387681,2.1304736137390137,4.810269872635164,-0.0,0.2678282856941223,-1.507132355366842,-0.00011289479152765125,-0.018831858411431313,-0.37909204164613897,0.0,-0.002094837138429284,1.3337342739105225,0.012193173170089722,0.030940266326069832
145.0,119.0,-0.0568,0.6867,9.4361,-0.0348,0.0231,-0.1161,-2.2139750919737757,0.0,4.699667930603027,-1.1363353729248047,0.0003189517592545599,2.1474609375,4.810354757099905,-0.0,0.2692503333091736,-1.5071771780597132,-0.0001049922575475648,-0.008182443678379059,-0.3792050520526331,0.0,-0.007042572367936373,1.3338146209716797,0.009281357750296593,0.03310428187251091
144.0,118.0,-0.0431,0.5121,9.5803,-0.033,0.0489,-0.1093,-2.2139631710448207,-0.00023986739688552916,4.737700462341309,-1.1363145112991333,0.00019723494187928736,2.1438064575195312,4.810306298523702,-0.0,0.27969634532928467,-1.507165257130758,-9.812386269913986e-05,-0.014827712439000607,-0.37916452089418584,0.0,0.0015504456823691726,1.3338464498519897,0.0065743145532906055,-0.005444111302495003
144.0,118.0,-0.0431,0.5121,9.5803,-0.033,0.0489,-0.1093,-2.2139388523497523,-0.001300780801102519,4.699047088623047,-1.1363673210144043,-0.00012185010564280674,2.124105215072632,4.810350607126512,-0.0,0.2916969656944275,-1.507148567830221,-9.025173494592309e-05,-0.00851697102189064,-0.3791568914996546,0.0,0.002497958717867732,1.3338781595230103,0.009099654853343964,0.02288556843996048
144.0,118.0,-0.0431,0.5121,9.5803,-0.033,0.0489,-0.1093,-2.2139951191344203,-0.0016906417440623045,4.750661373138428,-1.136323094367981,-0.00015253530000336468,2.150481700897217,4.8103182194526575,-0.0,0.27782273292541504,-1.5071771780597132,-8.512956264894456e-05,-0.02031957544386387,-0.37916833559145147,0.0,-0.0020790405105799437,1.3338781595230103,0.005224744789302349,0.03367264196276665
144.0,118.0,-0.0431,0.5121,9.5803,-0.033,0.0489,-0.1093,-2.21402706722402,-0.0026002381928265095,4.76283073425293,-1.1363874673843384,-0.00013095849135424942,2.177480459213257,4.810346576362409,-0.0,0.26732343435287476,-1.5071728865252894,-8.055756916292012e-05,-0.01067955233156681,-0.3791282812701624,0.0,0.005879492964595556,1.3339179754257202,0.002000801730901003,0.04398874193429947
144.0,118.0,-0.0431,0.5121,9.5803,-0.033,0.0489,-0.1093,-2.214079519311422,-0.004034343175590038,4.770290374755859,-1.13636314868927,-0.00010967805428663269,2.1580212116241455,4.81026620694951,-0.0,0.2721136212348938,-1.5071528593646448,-7.517453195760027e-05,-0.003836187534034252,-0.3791926542865198,0.0,-0.0071333847008645535,1.3339341878890991,4.1564305774954846e-08,0.06548531353473663
144.0,118.0,-0.0431,0.5121,9.5803,-0.033,0.0489,-0.1093,-2.2140428028502406,-0.005111356265842915,4.700220584869385,-1.136371374130249,-9.776356455404311e-05,2.1966474056243896,4.810257974057951,-0.0,0.2621672451496124,-1.5071361700641077,-7.158681546570733e-05,-0.017720796167850494,-0.3791282812701624,0.0,0.00035547191509976983,1.3338576555252075,1.0037289602986624e-13,-0.021447565406560898
144.0,118.0,-0.0431,0.5121,9.5803,-0.033,0.0489,-0.1093,-2.2140871487059535,-0.004934394266456366,4.72738790512085,-1.1363792419433594,-8.81840824149549e-05,2.198625087738037,4.810298222094335,-0.0,0.2753896415233612,-1.5071447531329554,-6.832600047346205e-05,-0.021733423694968224,-0.3791239897357386,0.0,0.0065714349038898945,1.333846092224121,-0.002590141026303172,-0.02062358148396015
144.0,118.0,-0.0431,0.5121,9.5803,-0.033,0.0489,-0.1093,-2.214102884332174,-0.0038080690428614616,4.744101047515869,-1.136354923248291,-9.50797475525178e-05,2.128251552581787,4.8102662218506715,-0.0,0.27618035674095154,-1.5070965925799769,-6.441384903155267e-05,-0.013323807157576084,-0.37916452089418584,0.0,-0.004707896150648594,1.3338265419006348,-0.003253671806305647,-0.015846505761146545
144.0,118.0,-0.0431,0.5121,9.5803,-0.033,0.0489,-0.1093,-2.214142461816305,-0.003038655035197735,4.733303546905518,-1.136407494544983,-9.569925896357745e-05,2.1212522983551025,4.810289966851034,-0.0,0.2728278338909149,-1.5070965925799769,-6.176166789373383e-05,-0.023728538304567337,-0.3791282812701624,0.0,0.013478628359735012,1.3337821960449219,-0.003658754052594304,-0.03412817418575287
144.0,118.0,-0.0431,0.5121,9.5803,-0.033,0.0489,-0.1093,-2.2141462765135707,-0.003213893622159958,4.709278106689453,-1.1363353729248047,-0.00010989871225319803,2.1524124145507812,4.8102624518568895,-0.0,0.271908700466156,-1.5071409384356897,-5.931919804424979e-05,-0.01283188071101904,-0.37908822694887334,0.0,-0.002336513716727495,1.3336981534957886,-0.006371790077537298,-0.007085459306836128
144.0,118.0,-0.0431,0.5121,9.5803,-0.033,0.0489,-0.1093,-2.214243551293844,-0.004378696903586388,4.722925186157227,-1.1364153623580933,-0.00014448532601818442,2.112139940261841,4.810290369182386,-0.0,0.26377812027931213,-1.507136646901266,-4.6547880629077554e-05,-0.01969769410789013,-0.3791125456439417,0.0,0.004410662688314915,1.3336025476455688,-0.0148993581533432,-0.030071087181568146
144.0,118.0,-0.0431,0.5121,9.5803,-0.033,0.0489,-0.1093,-2.2142144642271937,-0.005552788730710745,4.702088356018066,-1.1363956928253174,-0.0001318115828325972,2.1620407104492188,4.81026245930747,-0.0,0.2701467275619507,-1.5071046988116663,-4.344678745837882e-05,-0.02618410810828209,-0.3791888395892542,0.0,0.002563038608059287,1.3335227966308594,-0.01583537459373474,-0.008943061344325542
144.0,118.0,-0.0431,0.5121,9.5803,-0.033,0.0489,-0.1093,-2.214266916314596,-0.006542967166751623,4.715970516204834,-1.1363911628723145,-0.00014539538824465126,2.1388258934020996,4.8102464256580255,-0.0,0.27240946888923645,-1.5071290175067347,-4.192838605376892e-05,-0.006343142595142126,-0.3791125456439417,0.0,-0.00408422714099288,1.3334025144577026,-0.015039687976241112,-0.03685322031378746
144.0,118.0,-0.0431,0.5121,9.5803,-0.033,0.0489,-0.1093,-2.2143389187254847,-0.006194818299263716,4.698599338531494,-1.1363188028335571,-0.00010941868822555989,2.1628379821777344,4.8102382747228525,-0.0,0.279280424118042,-1.5071128050433558,-4.006204108009115e-05,-0.013120279647409916,-0.379188362752096,0.0,-0.0028006709180772305,1.3332914113998413,-0.015210007317364216,-0.011075383052229881
142.0,117.0,-0.7478,1.2413,9.8058,-0.0305,0.0319,-0.1359,-2.21435083965444,-0.004423585254698992,4.7067461013793945,-1.136391520500183,-8.394792530452833e-05,2.1096229553222656,4.810278485506334,-0.0,0.26952680945396423,-1.5071128050433558,-8.561700326481514e-08,-0.016201172024011612,-0.37913209596742803,0.0,-0.005001534707844257,1.3331676721572876,-0.017215874046087265,0.013659517280757427
142.0,117.0,-0.7478,1.2413,9.8058,-0.0305,0.0319,-0.1359,-2.214370389977926,-0.002671525115147233,4.690507888793945,-1.1364158391952515,-5.804132160847075e-05,2.141796112060547,4.81031050810174,-0.0,0.27596932649612427,-1.5070765654193323,-2.383180632004045e-11,-0.010843601077795029,-0.37909204164613897,0.0,-0.0077124726958572865,1.333120584487915,-0.018172355368733406,-0.027086686342954636
142.0,117.0,-0.7478,1.2413,9.8058,-0.0305,0.0319,-0.1359,-2.214370389977926,-0.0008884880808182061,4.756838798522949,-1.1364272832870483,-5.2796593081438914e-05,2.1623001098632812,4.810250523477354,-0.0,0.28123000264167786,-1.5070765654193323,-4.3313135636967055e-16,-0.01978383958339691,-0.379160229359762,0.0,0.003224837128072977,1.3328721523284912,-0.018258146941661835,-0.02496834471821785
142.0,117.0,-0.7478,1.2413,9.8058,-0.0305,0.0319,-0.1359,-2.214358469048971,-0.0005576906260102987,4.716061592102051,-1.1363911628723145,-4.9871046940097585e-05,2.1551783084869385,4.810270312219419,-0.0,0.2774801552295685,-1.5071004072772425,-1.2056370685462052e-19,-0.02882622554898262,-0.37913209596742803,0.0,0.0029222851153463125,1.3328533172607422,-0.015713999047875404,0.0016192812472581863
142.0,117.0,-0.7478,1.2413,9.8058,-0.0305,0.0319,-0.1359,-2.2143384418883265,-0.0004064781533088535,4.714963436126709,-1.1363590955734253,8.597507985541597e-05,2.1507763862609863,4.810274387687006,-0.0,0.27550336718559265,-1.5070646444903772,-3.355934828756502e-23,-0.02038753405213356,-0.3791406790362757,0.0,0.0018074044492095709,1.3327528238296509,-0.012848636135458946,0.011098146438598633
142.0,117.0,-0.7478,1.2413,9.8058,-0.0305,0.0319,-0.1359,-2.2143146000304164,-0.0002985700557474047,4.7076334953308105,-1.1363754272460938,0.00011316956079099327,2.1306705474853516,4.810326750367441,-0.0,0.28055670857429504,-1.507108513508932,-6.099245837214409e-28,-0.008415477350354195,-0.37913209596742803,0.0,-0.0011753318831324577,1.3326412439346313,-0.008752575144171715,0.047251760959625244
142.0,117.0,-0.7478,1.2413,9.8058,-0.0305,0.0319,-0.1359,-2.214378973046774,-0.00019919956685043871,4.749781608581543,-1.1363476514816284,0.00012927604257129133,2.121809959411621,4.810250218003549,-0.0,0.2690994143486023,-1.5070565382586878,-1.6977478005324518e-31,-0.012430346570909023,-0.3791406790362757,0.0,0.008450591005384922,1.3325815200805664,-0.0071326447650790215,-0.018746057525277138
142.0,117.0,-0.7478,1.2413,9.8058,-0.0305,0.0319,-0.1359,-2.21435083965444,-0.00017083733109757304,4.72174072265625,-1.1363434791564941,0.0004153501067776233,2.1428768634796143,4.810278448253431,-0.0,0.2693217396736145,-1.5071046988116663,-4.7257435687370617e-35,-0.023041632026433945,-0.37909204164613897,0.0,0.0057897199876606464,1.332537293434143,-0.0063955821096897125,0.007934034802019596
142.0,117.0,-0.7478,1.2413,9.8058,-0.0305,0.0319,-0.1359,-2.2143427334227503,-0.0001435811718693003,4.772283554077148,-1.1363353729248047,0.00032257274142466486,2.153562068939209,4.810270297318258,-0.0,0.27911829948425293,-1.5070608297931116,-8.588810521570382e-40,-0.01295584999024868,-0.37916452089418584,0.0,0.003500785678625107,1.3324894905090332,-0.005382307805120945,0.04480724781751633
142.0,117.0,-0.7478,1.2413,9.8058,-0.0305,0.0319,-0.1359,-2.2143827877440394,-0.00012823665747419,4.708380699157715,-1.1363394260406494,0.0002735456801019609,2.1590704917907715,4.810250165849485,-0.0,0.277554452419281,-1.507097069417135,-2.396220373995437e-43,-0.026467960327863693,-0.37913209596742803,0.0,0.007545411121100187,1.3324899673461914,-0.0046129911206662655,0.06465958058834076
142.0,117.0,-0.7478,1.2413,9.8058,-0.0305,0.0319,-0.1359,-2.2143222294249476,-3.140333865303546e-05,4.786364555358887,-1.136346697807312,0.00023745607177261263,2.1496012210845947,4.810230429261484,-0.0,0.26837366819381714,-1.5071051756488245,-0.0,-0.014093035832047462,-0.3791006247149866,0.0,-0.0016402511391788721,1.332425594329834,-0.003572639776393771,-0.028452789410948753
142.0,117.0,-0.7478,1.2413,9.8058,-0.0305,0.0319,-0.1359,-2.21437468151235,-2.7544521799427457e-05,4.724844932556152,-1.136354923248291,0.0002019348175963387,2.143795967102051,4.810282538622179,-0.0,0.26894888281822205,-1.5070727507220667,-0.0,-0.018253810703754425,-0.3791444937335413,0.0,0.011064879596233368,1.3323895931243896,-0.002961092861369252,-0.013714384287595749
142.0,117.0,-0.7478,1.2413,9.8058,-0.0305,0.0319,-0.1359,-2.214358469048971,-4.9440575821790844e-05,4.736258029937744,-1.1363754272460938,0.00018156504665967077,2.127617835998535,4.81024198511199,-0.0,0.27772989869117737,-1.5070889631854456,-0.0,-0.01515534333884716,-0.3791082541095179,0.0,0.018000904470682144,1.332393765449524,-0.002984781749546528,0.0021590981632471085
142.0,117.0,0.2435,0.5892,9.7472,-0.04,-0.0041,-0.1391,-2.214362760583395,-4.654238364310004e-05,4.685696601867676,-1.1363352537155151,0.00016492862778250128,2.1759262084960938,4.810294511705198,-0.0,0.27829819917678833,-1.507108513508932,-0.0,-0.014422144740819931,-0.3791082541095179,0.0,-0.005884298123419285,1.332393765449524,-0.0030362713150680065,0.034354161471128464
142.0,117.0,0.2435,0.5892,9.7472,-0.04,-0.0041,-0.1391,-2.2144113979735316,-4.217980313114822e-05,4.732489585876465,-1.1363145112991333,0.00019308629271108657,2.150798797607422,4.810298587172785,-0.0,0.2939698398113251,-1.5070765654193323,-0.0,-0.01889478787779808,-0.37912065187563115,0.0,0.030756749212741852,1.3323462009429932,-0.0034535026643425226,-0.022425435483455658
142.0,117.0,0.2435,0.5892,9.7472,-0.04,-0.0041,-0.1391,-2.214378973046774,-3.940934766433202e-05,4.695348739624023,-1.1363754272460938,0.00018142652697861195,2.160646915435791,4.81023824492053,-0.0,0.2841282784938812,-1.5070889631854456,-0.0,-0.01756829023361206,-0.3790519873248499,0.0,0.012809624895453453,1.332305908203125,-0.0041457489132881165,-0.03327479213476181
142.0,117.0,0.2435,0.5892,9.7472,-0.04,-0.0041,-0.1391,-2.2143870792784632,-1.8490338334231637e-05,4.635185241699219,-1.1363481283187866,0.0012786025181412697,2.156116247177124,4.810270349472322,-0.0,0.2822510004043579,-1.5071008841144007,-0.0,-0.02611679583787918,-0.3791292349444788,0.0,0.033217210322618484,1.3322699069976807,-0.0047523099929094315,0.034319955855607986
142.0,117.0,0.2435,0.5892,9.7472,-0.04,-0.0041,-0.1391,-2.214358469048971,-1.7086102161556482e-05,4.708474159240723,-1.1363235712051392,0.0038844437804073095,2.156651496887207,4.81024235764102,-0.0,0.27830541133880615,-1.50708514848818,-0.0,-0.02482922002673149,-0.37913304964174444,0.0,0.03734758123755455,1.3322703838348389,-0.005579835269600153,0.0002522169379517436
142.0,117.0,0.2435,0.5892,9.7472,-0.04,-0.0041,-0.1391,-2.2143708668150843,-1.6165429769898765e-05,4.740754127502441,-1.1362512111663818,0.007347600068897009,2.1692757606506348,4.810274380236425,-0.0,0.2770029604434967,-1.5071051756488245,-0.0,-0.020341744646430016,-0.3790481726275843,0.0,0.01882147789001465,1.3322503566741943,-0.006397019140422344,-0.018711278215050697
142.0,117.0,0.2435,0.5892,9.7472,-0.04,-0.0041,-0.1391,-2.214334627191061,-1.5338911907747388e-05,4.703462600708008,-1.136231541633606,0.00890518631786108,2.191709280014038,4.810294511705198,-0.0,0.28072622418403625,-1.5071247259723108,-0.0,-0.02955533191561699,-0.3791292349444788,0.00019465571676846594,0.015814322978258133,1.332202672958374,-0.00681982422247529,0.05626074969768524
142.0,117.0,0.2435,0.5892,9.7472,-0.04,-0.0041,-0.1391,-2.2143389187254847,-1.4359956367115956e-05,4.688491344451904,-1.1361351013183594,0.008213633671402931,2.158330202102661,4.810278507858076,-0.0,0.27398040890693665,-1.5070727507220667,-0.0,-0.01630277745425701,-0.37907678285707647,0.00019923047511838377,0.03461642190814018,1.3321589231491089,-0.007695840205997229,-0.025725193321704865
142.0,117.0,0.2435,0.5892,9.7472,-0.04,-0.0041,-0.1391,-2.2143708668150843,-1.370400786981918e-05,4.657531261444092,-1.1360793113708496,0.006532236468046904,2.1397571563720703,4.810270364373483,-0.0,0.2755756974220276,-1.5070684591876429,-0.0,-0.0305650494992733,-0.3791130224810999,0.00020926121214870363,0.02995065227150917,1.3320868015289307,-0.008638331666588783,0.011443120427429676
142.0,117.0,0.2435,0.5892,9.7472,-0.04,-0.0041,-0.1391,-2.2143389187254847,-1.310536390519701e-05,4.6524152755737305,-1.1360111236572266,0.005297243129462004,2.1472086906433105,4.8102945415075204,-0.0,0.2701182961463928,-1.5070927778827112,-0.0,-0.022508185356855392,-0.37907296815981084,0.000217473556404002,0.023741284385323524,1.3320350646972656,-0.00932109635323286,-0.009373027831315994
