ramyac6/ROB537/final_project/csv/good/good_48.csv
tof_0,tof_1,accelx,accely,accelz,gyrox,gyroy,gyroz,shoulder_lift_joint_position,shoulder_lift_joint_velocity,shoulder_lift_joint_effort,elbow_joint_position,elbow_joint_velocity,elbow_joint_effort,wrist_1_joint_position,wrist_1_joint_velocity,wrist_1_joint_effort,wrist_2_joint_position,wrist_2_joint_velocity,wrist_2_joint_effort,wrist_3_joint_position,wrist_3_joint_velocity,wrist_3_joint_effort,shoulder_pan_joint_position,shoulder_pan_joint_velocity,shoulder_pan_joint_effort
259.0,360.0,-0.6048,0.0574,9.6544,-0.0367,0.0286,-0.1206,-1.9637891254820765,0.0,3.6112232208251953,-1.630477786064148,-0.0,1.974290132522583,5.111807364016332,-0.0,0.26019322872161865,-1.5416939894305628,0.0,-0.004567826632410288,0.40844181180000305,0.0,-0.012343537993729115,1.3081690073013306,0.0,0.009123796597123146
259.0,360.0,-0.6048,0.0574,9.6544,-0.0367,0.0286,-0.1206,-1.9638086758055628,0.0,3.6162238121032715,-1.6305102109909058,-0.0,1.9776008129119873,5.111771273403921,-0.0,0.2664669454097748,-1.5416658560382288,0.0,-0.01622909866273403,0.40833765268325806,0.0,-0.0034024326596409082,1.3081367015838623,0.0,0.01589784398674965
259.0,360.0,-0.6048,0.0574,9.6544,-0.0367,0.0286,-0.1206,-1.9638134441771449,0.0,3.6373825073242188,-1.6305345296859741,-0.0,1.961091160774231,5.11179136016921,-0.0,0.27171558141708374,-1.5416820685016077,0.0,-0.01651463843882084,0.4083978831768036,0.0,-0.0017151138745248318,1.3080966472625732,0.0,-0.04938104376196861
259.0,360.0,-0.6048,0.0574,9.6544,-0.0367,0.0286,-0.1206,-1.9638287029662074,0.0,3.6598196029663086,-1.6304819583892822,-0.0,2.018533706665039,5.111795443087377,-0.0,0.2733052670955658,-1.5417020956622522,0.0,-0.012009111233055592,0.4083938002586365,0.0,0.00758187985047698,1.3081244230270386,0.0,-0.004531643353402615
259.0,360.0,-0.6048,0.0574,9.6544,-0.0367,0.0286,-0.1206,-1.963837286035055,0.0,3.595034599304199,-1.6304937601089478,-0.0,1.9806110858917236,5.111771273403921,-0.0,0.28368425369262695,-1.541666332875387,0.0,-0.016218766570091248,0.40833771228790283,0.0,-0.00914794486016035,1.3081367015838623,0.0,-0.027668163180351257
259.0,360.0,-0.6048,0.0574,9.6544,-0.0367,0.0286,-0.1206,-1.963809152642721,0.0,3.655656576156616,-1.630486011505127,-0.0,2.012394666671753,5.111807364016332,-0.0,0.26645779609680176,-1.5417059103595179,0.0,-0.016421373933553696,0.4084138870239258,0.0,0.003653372172266245,1.308092474937439,0.0,0.020546358078718185
259.0,360.0,-0.6048,0.0574,9.6544,-0.0367,0.0286,-0.1206,-1.9638134441771449,0.0,3.638644218444824,-1.6304540634155273,-0.0,2.0332119464874268,5.111807304411688,-0.0,0.2815611958503723,-1.5416739622699183,0.0,-0.013098413124680519,0.4083978831768036,0.0,-0.004346190020442009,1.3081609010696411,0.0,-0.0172429196536541
259.0,360.0,-0.6048,0.0574,9.6544,-0.0367,0.0286,-0.1206,-1.963837286035055,0.0,3.567979335784912,-1.630486011505127,-0.0,1.9956367015838623,5.1118154404456995,-0.0,0.2673097848892212,-1.541689697896139,0.0,-0.01434034388512373,0.4083777964115143,0.0,-0.012342816218733788,1.3081285953521729,0.0,0.0036184540949761868
256.0,369.0,-0.5563,0.0179,9.6748,-0.0312,0.0261,-0.1176,-1.9638329945006312,0.0,3.6496329307556152,-1.6304700374603271,-0.0,1.9501526355743408,5.111771213799276,-0.0,0.2755669951438904,-1.5416982809649866,0.0,-0.015188639052212238,0.4083978831768036,0.0,0.006087400019168854,1.3081166744232178,0.0,-0.007284993305802345
256.0,369.0,-0.5563,0.0179,9.6748,-0.0312,0.0261,-0.1176,-1.9638134441771449,0.0,3.6416091918945312,-1.630509853363037,-0.0,2.028134822845459,5.111791389971533,-0.0,0.2661712169647217,-1.541650120412008,0.0,-0.021792937070131302,0.40837404131889343,0.0,-0.013120892457664013,1.3081928491592407,0.0,0.04362642392516136
256.0,369.0,-0.5563,0.0179,9.6748,-0.0312,0.0261,-0.1176,-1.963809152642721,0.0,3.6255807876586914,-1.6304374933242798,-0.0,1.9847064018249512,5.111779439240255,-0.0,0.28198787569999695,-1.5416939894305628,0.0,-0.020583651959896088,0.4084097743034363,0.0,0.0031226067803800106,1.3080966472625732,0.0,0.016383228823542595
256.0,369.0,-0.5563,0.0179,9.6748,-0.0312,0.0261,-0.1176,-1.9638248882689417,0.0,3.601229190826416,-1.630477786064148,-0.0,1.9870870113372803,5.111819612770834,-0.0,0.26617351174354553,-1.5416939894305628,0.0,-0.020030029118061066,0.4084261655807495,0.0,-0.0007256728131324053,1.3081166744232178,0.0,0.009161119349300861
256.0,369.0,-0.5563,0.0179,9.6748,-0.0312,0.0261,-0.1176,-1.9637929401793421,0.0,3.6502695083618164,-1.6305180788040161,-0.0,1.992251992225647,5.111795502692022,-0.0,0.280073344707489,-1.5416863600360315,0.0,-0.01838402822613716,0.40841013193130493,0.0,-0.005438429769128561,1.3081326484680176,0.0,0.010661562904715538
256.0,369.0,-0.5563,0.0179,9.6748,-0.0312,0.0261,-0.1176,-1.9638329945006312,0.0,3.680624485015869,-1.630477786064148,-0.0,1.987129807472229,5.111783134728231,-0.0,0.26001715660095215,-1.5416982809649866,0.0,-0.01714264415204525,0.4083535969257355,0.0,-0.006264740601181984,1.3081207275390625,0.0,0.059178173542022705
256.0,369.0,-0.5563,0.0179,9.6748,-0.0312,0.0261,-0.1176,-1.9638253651061,0.0,3.594733238220215,-1.630441665649414,-0.0,1.988411545753479,5.111799108773031,-0.0,0.26611706614494324,-1.5416420141803187,0.0,-0.006894229911267757,0.40842205286026,0.0,-0.006305223796516657,1.3081285953521729,0.0,-0.012530436739325523
256.0,369.0,-0.5563,0.0179,9.6748,-0.0312,0.0261,-0.1176,-1.963809152642721,0.0,3.6642045974731445,-1.6305665969848633,-0.0,2.002357244491577,5.111795443087377,-0.0,0.2822533845901489,-1.5416858831988733,0.0,-0.012189793400466442,0.4084184169769287,0.0,0.00020333635620772839,1.3081530332565308,0.0,-0.059882402420043945
256.0,369.0,-0.5563,0.0179,9.6748,-0.0312,0.0261,-0.1176,-1.9638611278929652,0.0,3.6420738697052,-1.6305181980133057,-0.0,2.0188498497009277,5.111767130881109,-0.0,0.27575770020484924,-1.5416701475726526,0.0,-0.015098600648343563,0.4083859324455261,0.0,0.0001877042232081294,1.3081449270248413,0.0,-0.020472217351198196
256.0,369.0,-0.5563,0.0179,9.6748,-0.0312,0.0261,-0.1176,-1.9638453922667445,0.0,3.64792537689209,-1.630509853363037,-0.0,2.0218193531036377,5.1118236658866785,-0.0,0.2816646099090576,-1.5416820685016077,0.0,-0.012750079855322838,0.40832164883613586,0.0,-0.0030871820636093616,1.3081047534942627,0.0,0.010421600192785263
256.0,369.0,-0.5563,0.0179,9.6748,-0.0312,0.0261,-0.1176,-1.9638129673399867,0.0,3.6334047317504883,-1.6304455995559692,-0.0,2.027334451675415,5.111807364016332,-0.0,0.27051278948783875,-1.5416777769671839,0.0,-0.017421208322048187,0.4083535373210907,0.0,-0.008743478916585445,1.3081084489822388,0.0,-0.04082993417978287
256.0,369.0,-0.5563,0.0179,9.6748,-0.0312,0.0261,-0.1176,-1.9638048611082972,0.0,3.651521921157837,-1.6305263042449951,-0.0,2.0014216899871826,5.111803281098165,-0.0,0.26489877700805664,-1.5416939894305628,0.0,-0.009800993837416172,0.40838223695755005,0.0,-0.007360153831541538,1.308108925819397,0.0,-0.02426462434232235
256.0,369.0,-0.5563,0.0179,9.6748,-0.0312,0.0261,-0.1176,-1.9638210735716761,0.0,3.602994441986084,-1.6305469274520874,-0.0,1.9712190628051758,5.111783104925909,-0.0,0.28252243995666504,-1.5416420141803187,0.0,-0.024295907467603683,0.40837374329566956,0.0,0.005595214199274778,1.308088779449463,0.0,-0.01915168948471546
256.0,369.0,-0.5563,0.0179,9.6748,-0.0312,0.0261,-0.1176,-1.9638253651061,0.0,3.6361522674560547,-1.6304937601089478,-0.0,2.008188247680664,5.111807393818655,-0.0,0.2709803879261017,-1.5417102018939417,0.0,-0.012620652094483376,0.40841421484947205,0.0,0.0018988230731338263,1.3081166744232178,0.0,-0.013422789983451366
256.0,369.0,-0.5563,0.0179,9.6748,-0.0312,0.0261,-0.1176,-1.9638210735716761,0.0,3.694685935974121,-1.630458116531372,-0.0,2.003133773803711,5.111771273403921,-0.0,0.2803207337856293,-1.5416420141803187,0.0,-0.01964685320854187,0.4083859622478485,0.0,-0.00037253042683005333,1.308088779449463,0.0,-0.04011547565460205
256.0,369.0,-0.5563,0.0179,9.6748,-0.0312,0.0261,-0.1176,-1.9638730488219203,0.0,3.6550331115722656,-1.6305140256881714,-0.0,2.008176326751709,5.111835616617956,-0.0,0.28068089485168457,-1.5416739622699183,0.0,-0.00989730004221201,0.4083659052848816,0.0,-0.0015100159216672182,1.308148980140686,0.0,0.0030747181735932827
248.0,353.0,-0.6036,-0.0706,9.6658,-0.0359,0.0231,-0.1093,-1.9638411007323207,0.0,3.637596607208252,-1.630497932434082,-0.0,1.98551344871521,5.1118478057678125,-0.0,0.27789443731307983,-1.5417183081256312,0.0,-0.013898872770369053,0.40842205286026,0.0,0.0005748213152401149,1.3081047534942627,0.0,-0.02786138281226158
248.0,353.0,-0.6036,-0.0706,9.6658,-0.0359,0.0231,-0.1093,-1.963797231713766,0.0,3.6110620498657227,-1.6304740905761719,-0.0,2.0035207271575928,5.111835616617956,-0.0,0.28811970353126526,-1.5417183081256312,0.0,-0.014769954606890678,0.4084261655807495,0.0,-0.0071220677345991135,1.3082009553909302,0.0,-0.016083911061286926
248.0,353.0,-0.6036,-0.0706,9.6658,-0.0359,0.0231,-0.1093,-1.96384920696401,0.0,3.649564743041992,-1.6304540634155273,-0.0,1.9580316543579102,5.111795413285055,-0.0,0.27598893642425537,-1.5416982809649866,0.0,-0.01354969758540392,0.4084179699420929,0.0,-0.00519615737721324,1.3081084489822388,0.0,0.03325125202536583
248.0,353.0,-0.6036,-0.0706,9.6658,-0.0359,0.0231,-0.1093,-1.9638134441771449,0.0,3.6451616287231445,-1.6304497718811035,-0.0,2.0468873977661133,5.111811476736822,-0.0,0.2712724208831787,-1.5416620413409632,0.0,-0.011307540349662304,0.40840601921081543,0.0,0.00470086419954896,1.3081285953521729,0.0,0.034974999725818634
248.0,353.0,-0.6036,-0.0706,9.6658,-0.0359,0.0231,-0.1093,-1.9638291798033656,0.0,3.6014175415039062,-1.630458116531372,-0.0,1.995391845703125,5.111859786301412,-0.0,0.2607380747795105,-1.541689697896139,0.0,-0.015098169445991516,0.4084339141845703,0.0,-0.0052018072456121445,1.3081166744232178,0.0,0.02305198647081852
248.0,353.0,-0.6036,-0.0706,9.6658,-0.0359,0.0231,-0.1093,-1.9638253651061,0.0,3.615328073501587,-1.6305180788040161,-0.0,1.9815356731414795,5.111819612770834,-0.0,0.3000537157058716,-1.541689697896139,0.0,-0.017356403172016144,0.4083974361419678,0.0,-0.004866605158895254,1.3081609010696411,0.0,-0.03589307516813278
248.0,353.0,-0.6036,-0.0706,9.6658,-0.0359,0.0231,-0.1093,-1.9637443027892054,0.0,3.6468100547790527,-1.630433440208435,-0.0,1.981555461883545,5.1118114469344995,-0.0,0.2898505926132202,-1.5417183081256312,0.0,-0.01188848540186882,0.4083658456802368,0.0,-0.0022693569771945477,1.308148980140686,0.0,0.0018091805977746844
248.0,353.0,-0.6036,-0.0706,9.6658,-0.0359,0.0231,-0.1093,-1.9638611278929652,0.0,3.5940091609954834,-1.630506157875061,-0.0,2.011328935623169,5.111799108773031,-0.0,0.27060219645500183,-1.541689697896139,0.0,-0.0040857731364667416,0.4084220826625824,0.0,-0.013117789290845394,1.3081245422363281,0.0,0.024243632331490517
248.0,353.0,-0.6036,-0.0706,9.6658,-0.0359,0.0231,-0.1093,-1.9638048611082972,0.0,3.6477479934692383,-1.6304700374603271,-0.0,1.9559818506240845,5.1118355868156335,-0.0,0.287404865026474,-1.541689697896139,0.0,-0.012787707149982452,0.40835392475128174,0.0,-0.009772413410246372,1.3080925941467285,0.0,-0.011466353200376034
248.0,353.0,-0.6036,-0.0706,9.6658,-0.0359,0.0231,-0.1093,-1.9638129673399867,0.0,3.6137642860412598,-1.630458116531372,-0.0,1.9719704389572144,5.1118114469344995,-0.0,0.2749069929122925,-1.5416777769671839,0.0,-0.010403711348772049,0.4084179699420929,0.0,-0.003578424220904708,1.3081084489822388,0.0,0.0489005483686924
248.0,353.0,-0.6036,-0.0706,9.6658,-0.0359,0.0231,-0.1093,-1.9638172588744105,0.0,3.6362624168395996,-1.6305102109909058,-0.0,1.9980961084365845,5.111803281098165,-0.0,0.2829338312149048,-1.541650120412008,0.0,-0.012069420889019966,0.4083699882030487,0.0,0.00028047774685546756,1.3081285953521729,0.0,0.006810203194618225
248.0,353.0,-0.6036,-0.0706,9.6658,-0.0359,0.0231,-0.1093,-1.9638611278929652,0.0,3.634108066558838,-1.6304901838302612,-0.0,2.0043997764587402,5.111827748804846,-0.0,0.27431273460388184,-1.5416539351092737,0.0,-0.006095868535339832,0.4084220826625824,0.0,-0.004387896042317152,1.3081047534942627,0.0,0.020556695759296417
248.0,353.0,-0.6036,-0.0706,9.6658,-0.0359,0.0231,-0.1093,-1.9638329945006312,0.0,3.6215567588806152,-1.6305102109909058,-0.0,1.9723689556121826,5.111831831723013,-0.0,0.2638976573944092,-1.5416863600360315,0.0,-0.015008216723799706,0.4084138870239258,0.0,-0.011685444973409176,1.3081448078155518,0.0,-0.00498092919588089
248.0,353.0,-0.6036,-0.0706,9.6658,-0.0359,0.0231,-0.1093,-1.9637767277159632,0.0,3.628775119781494,-1.6305222511291504,-0.0,2.005605697631836,5.111775356322088,-0.0,0.27853503823280334,-1.5416777769671839,0.0,-0.007727065123617649,0.4084340035915375,0.0,-0.012048494070768356,1.3081530332565308,0.0,-0.0005445878487080336
248.0,353.0,-0.6036,-0.0706,9.6658,-0.0359,0.0231,-0.1093,-1.9637929401793421,0.0,3.6419167518615723,-1.630497932434082,-0.0,1.99076247215271,5.11183591464118,-0.0,0.28197380900382996,-1.5416858831988733,0.0,-0.012274373322725296,0.40842205286026,0.0,-0.008523724973201752,1.3081570863723755,0.0,0.03029431402683258
261.0,367.0,-0.5916,-0.0652,9.7023,-0.0363,0.0249,-0.1126,-1.9638048611082972,0.0,3.6578054428100586,-1.6304618120193481,-0.0,1.9623429775238037,5.111763047962942,-0.0,0.27955198287963867,-1.5416777769671839,0.0,-0.013971608132123947,0.4083539843559265,0.0,0.014385896734893322,1.308112621307373,0.0,-0.010979631915688515
261.0,367.0,-0.5916,-0.0652,9.7023,-0.0363,0.0249,-0.1126,-1.9638210735716761,0.0,3.6703739166259766,-1.6305140256881714,-0.0,1.9658597707748413,5.111795443087377,-0.0,0.28106001019477844,-1.5417140165912073,0.0,-0.008225741796195507,0.4084060788154602,0.0,-0.0017366214888170362,1.3081367015838623,0.0,0.06172968074679375
261.0,367.0,-0.5916,-0.0652,9.7023,-0.0363,0.0249,-0.1126,-1.9637934170165003,0.0,3.6699490547180176,-1.630458116531372,-0.0,2.0073697566986084,5.111795055657186,-0.0,0.2656693160533905,-1.5417059103595179,0.0,-0.010102871805429459,0.40837374329566956,0.0,-0.00548185920342803,1.3081326484680176,0.0,0.04197338595986366
261.0,367.0,-0.5916,-0.0652,9.7023,-0.0363,0.0249,-0.1126,-1.9638210735716761,0.0,3.634521961212158,-1.6305303573608398,-0.0,1.9847123622894287,5.111787277251043,-0.0,0.2819419503211975,-1.5416777769671839,0.0,-0.01746710203588009,0.40842205286026,0.0,0.0014862441457808018,1.3081365823745728,0.0,0.021051812916994095
261.0,367.0,-0.5916,-0.0652,9.7023,-0.0363,0.0249,-0.1126,-1.963837286035055,0.0,3.664200782775879,-1.6304937601089478,-0.0,2.0121519565582275,5.111803281098165,-0.0,0.2665850818157196,-1.5416982809649866,0.0,-0.0246182382106781,0.4083777964115143,0.0,0.008927537128329277,1.308112621307373,0.0,-0.014010514132678509
261.0,367.0,-0.5916,-0.0652,9.7023,-0.0363,0.0249,-0.1126,-1.9638134441771449,0.0,3.6295042037963867,-1.6304900646209717,-0.0,2.000992774963379,5.111807364016332,-0.0,0.26872554421424866,-1.5416820685016077,0.0,-0.012756768614053726,0.40831756591796875,0.0,-0.0010264929151162505,1.308140754699707,0.0,0.0009823818691074848
261.0,367.0,-0.5916,-0.0652,9.7023,-0.0363,0.0249,-0.1126,-1.9638010464110316,0.0,3.6688811779022217,-1.6304219961166382,-0.0,1.975896954536438,5.111803281098165,-0.0,0.2740074396133423,-1.5416577498065394,0.0,-0.02435823529958725,0.4084138870239258,0.0,-0.004424873739480972,1.3081326484680176,0.0,0.00047548022121191025
261.0,367.0,-0.5916,-0.0652,9.7023,-0.0363,0.0249,-0.1126,-1.9638048611082972,0.0,3.6449575424194336,-1.6304291486740112,-0.0,2.009106397628784,5.111843752651968,-0.0,0.26803135871887207,-1.5416901747332972,0.0,-0.020104994997382164,0.4084179401397705,0.0,-0.010783800855278969,1.3081368207931519,0.0,-0.02714221179485321
261.0,367.0,-0.5916,-0.0652,9.7023,-0.0363,0.0249,-0.1126,-1.9638530216612757,0.0,3.6307311058044434,-1.6304658651351929,-0.0,2.009964942932129,5.111803579121389,-0.0,0.27010324597358704,-1.5417102018939417,0.0,-0.008630095981061459,0.4084261357784271,0.0,-0.011480341665446758,1.3081645965576172,0.0,-0.04927464574575424
261.0,367.0,-0.5916,-0.0652,9.7023,-0.0363,0.0249,-0.1126,-1.963837286035055,0.0,3.6431331634521484,-1.6305102109909058,-0.0,1.9843878746032715,5.111835616617956,-0.0,0.2754368782043457,-1.5416982809649866,0.0,-0.008879662491381168,0.4083978831768036,0.0,-0.0021373399067670107,1.3081649541854858,0.0,-0.030874883756041527
261.0,367.0,-0.5916,-0.0652,9.7023,-0.0363,0.0249,-0.1126,-1.963797231713766,0.0,3.661710023880005,-1.6304982900619507,-0.0,1.954188585281372,5.111839639931478,-0.0,0.27204060554504395,-1.5416458288775843,0.0,-0.01796538569033146,0.40839412808418274,0.0,-0.00313252629712224,1.3081730604171753,0.0,0.014880058355629444
261.0,367.0,-0.5916,-0.0652,9.7023,-0.0363,0.0249,-0.1126,-1.9638010464110316,0.0,3.661329507827759,-1.6304823160171509,-0.0,1.9625189304351807,5.1118236658866785,-0.0,0.2755788266658783,-1.5417140165912073,0.0,-0.005859880708158016,0.40843841433525085,0.0,0.0007661894778721035,1.3081207275390625,0.0,-0.029024638235569
261.0,367.0,-0.5916,-0.0652,9.7023,-0.0363,0.0249,-0.1126,-1.9638291798033656,0.0,3.6519644260406494,-1.6304540634155273,-0.0,2.0306551456451416,5.111799108773031,-0.0,0.28034770488739014,-1.5417221228228968,0.0,-0.0055424864403903484,0.4084019660949707,0.0,-0.001161200925707817,1.3081449270248413,0.0,0.02784653753042221
261.0,367.0,-0.5916,-0.0652,9.7023,-0.0363,0.0249,-0.1126,-1.963797231713766,0.0,3.6631898880004883,-1.6305304765701294,-0.0,1.976306676864624,5.111783522158422,-0.0,0.27772703766822815,-1.5416939894305628,0.0,-0.010647524148225784,0.4084421992301941,0.0,0.005847277119755745,1.3081449270248413,0.0,-0.009842371568083763
261.0,367.0,-0.5916,-0.0652,9.7023,-0.0363,0.0249,-0.1126,-1.9637729130186976,0.0,3.663597583770752,-1.6305221319198608,-0.0,2.0064711570739746,5.111783134728231,-0.0,0.2889227569103241,-1.5416420141803187,0.0,-0.0132822934538126,0.4084179699420929,0.0,-0.0008087186142802238,1.3081367015838623,0.0,0.007638361304998398
261.0,357.0,-0.6239,0.006,9.664,-0.0318,0.0292,-0.1121,-1.9638329945006312,0.0,3.627762794494629,-1.6304618120193481,-0.0,1.998633861541748,5.111811506539144,-0.0,0.2709435820579529,-1.5416458288775843,0.0,0.0050041563808918,0.4083700478076935,0.0,-0.004955568816512823,1.308152675628662,0.0,-0.018889475613832474
261.0,357.0,-0.6239,0.006,9.664,-0.0318,0.0292,-0.1121,-1.96384920696401,0.0,3.631653070449829,-1.630486011505127,-0.0,1.975375771522522,5.1117794988449,-0.0,0.2701214551925659,-1.5417302290545862,0.0,-0.021819395944476128,0.4083617329597473,0.0,-0.0023929679300636053,1.308100700378418,0.0,0.002401248551905155
261.0,357.0,-0.6239,0.006,9.664,-0.0318,0.0292,-0.1121,-1.9638129673399867,0.0,3.70391845703125,-1.6305180788040161,-0.0,1.9782155752182007,5.11182780840949,-0.0,0.276700496673584,-1.5416820685016077,0.0,-0.004245624877512455,0.4083699882030487,0.0,0.00208629434928298,1.3081326484680176,0.0,-0.003300315700471401
261.0,357.0,-0.6239,0.006,9.664,-0.0318,0.0292,-0.1121,-1.9637929401793421,0.0,3.669671058654785,-1.630506157875061,-0.0,1.968021035194397,5.111839997559347,-0.0,0.2810044288635254,-1.5417140165912073,0.0,-0.016173239797353745,0.40840601921081543,0.0,0.0002427195431664586,1.308100700378418,0.0,-0.04710144177079201
261.0,357.0,-0.6239,0.006,9.664,-0.0318,0.0292,-0.1121,-1.9638210735716761,0.0,3.6513078212738037,-1.6305140256881714,-0.0,1.9846851825714111,5.111795443087377,-0.0,0.28274187445640564,-1.5416577498065394,0.0,-0.011464131996035576,0.4084019958972931,0.0,0.00019060936756432056,1.308112621307373,0.0,-0.032173041254282
261.0,357.0,-0.6239,0.006,9.664,-0.0318,0.0292,-0.1121,-1.9637767277159632,0.0,3.6042301654815674,-1.6304900646209717,-0.0,1.9687105417251587,5.111811506539144,-0.0,0.2825600504875183,-1.5416696707354944,0.0,-0.024373624473810196,0.40838977694511414,0.0,0.0010752319358289242,1.3081367015838623,0.0,-0.03711067512631416
261.0,357.0,-0.6239,0.006,9.664,-0.0318,0.0292,-0.1121,-1.9638530216612757,0.0,3.646002769470215,-1.6305303573608398,-0.0,2.006608486175537,5.111819612770834,-0.0,0.2662949860095978,-1.5416982809649866,0.0,-0.018692582845687866,0.4083618223667145,0.0,-0.005137087777256966,1.3081207275390625,0.0,0.008991505950689316
261.0,357.0,-0.6239,0.006,9.664,-0.0318,0.0292,-0.1121,-1.9638167820372523,0.0,3.644601821899414,-1.6304937601089478,-0.0,1.9752285480499268,5.1118318913276575,-0.0,0.27205297350883484,-1.5417059103595179,0.0,-0.01987725868821144,0.4083938002586365,0.0,0.0006279045483097434,1.3080923557281494,0.0,0.005514164455235004
261.0,357.0,-0.6239,0.006,9.664,-0.0318,0.0292,-0.1121,-1.963781019250387,0.0,3.6008410453796387,-1.6304900646209717,-0.0,1.9771933555603027,5.11182780840949,-0.0,0.2810141146183014,-1.5417020956622522,0.0,-0.013205242343246937,0.40842607617378235,0.0,0.005966761149466038,1.3081367015838623,0.0,-0.008213033899664879
261.0,357.0,-0.6239,0.006,9.664,-0.0318,0.0292,-0.1121,-1.9638291798033656,0.0,3.6726813316345215,-1.6305140256881714,-0.0,1.977837324142456,5.111767130881109,-0.0,0.2846415638923645,-1.541650120412008,0.0,-0.01980006881058216,0.4083900451660156,0.0,-0.0014614631654694676,1.3081285953521729,0.0,0.022882536053657532
261.0,357.0,-0.6239,0.006,9.664,-0.0318,0.0292,-0.1121,-1.9637967548766078,0.0,3.620248794555664,-1.630466341972351,-0.0,1.9836452007293701,5.111815410643377,-0.0,0.2789725661277771,-1.5416777769671839,0.0,-0.006139934994280338,0.40837812423706055,0.0,0.006056588608771563,1.3081326484680176,0.0,-0.006558994762599468
261.0,357.0,-0.6239,0.006,9.664,-0.0318,0.0292,-0.1121,-1.9638411007323207,0.0,3.577700138092041,-1.630449891090393,-0.0,1.9770177602767944,5.111811476736822,-0.0,0.2869425415992737,-1.5416858831988733,0.0,-0.00704769603908062,0.4083818793296814,0.0,-0.0073777842335402966,1.3081449270248413,0.0,0.010085429064929485
261.0,357.0,-0.6239,0.006,9.664,-0.0318,0.0292,-0.1121,-1.9638329945006312,0.0,3.643683910369873,-1.6304292678833008,-0.0,1.9767229557037354,5.111823725491323,-0.0,0.2887991666793823,-1.5417102018939417,0.0,-0.01707657240331173,0.4084179401397705,0.0,0.0022697283420711756,1.3081367015838623,0.0,-0.03476886451244354
261.0,357.0,-0.6239,0.006,9.664,-0.0318,0.0292,-0.1121,-1.9638411007323207,0.0,3.642716407775879,-1.6304781436920166,-0.0,1.958139419555664,5.111767160683431,-0.0,0.270632266998291,-1.5417221228228968,0.0,-0.01100392546504736,0.40845033526420593,0.0,0.0009253042517229915,1.3081285953521729,0.0,0.011191651225090027
261.0,357.0,-0.6239,0.006,9.664,-0.0318,0.0292,-0.1121,-1.9638411007323207,0.0,3.64410138130188,-1.6304937601089478,-0.0,2.0105273723602295,5.111819612770834,-0.0,0.25886350870132446,-1.541701618825094,0.0,-0.01169742550700903,0.4083699882030487,0.0,-0.007360282354056835,1.3081285953521729,0.0,0.01538534089922905
261.0,357.0,-0.6239,0.006,9.664,-0.0318,0.0292,-0.1121,-1.9638210735716761,0.0,3.5793399810791016,-1.6304700374603271,-0.0,1.9624123573303223,5.111783075123586,-0.0,0.27011120319366455,-1.5416696707354944,0.0,-0.027156250551342964,0.4084179699420929,0.0,0.0031252773478627205,1.308112621307373,0.0,-0.003423169255256653
264.0,347.0,-0.6269,-0.0802,9.6694,-0.0409,0.0223,-0.1147,-1.9638167820372523,0.0,3.634247303009033,-1.630486011505127,-0.0,1.983567476272583,5.1118154404456995,-0.0,0.27625682950019836,-1.5417221228228968,0.0,-0.015417526476085186,0.4084179401397705,0.0,-0.00686257379129529,1.3081530332565308,0.0,-0.04024044796824455
264.0,347.0,-0.6269,-0.0802,9.6694,-0.0409,0.0223,-0.1147,-1.9638010464110316,0.0,3.6671431064605713,-1.630486011505127,-0.0,1.961403489112854,5.1118318913276575,-0.0,0.2766050398349762,-1.5417020956622522,0.0,-0.01820382848381996,0.40847429633140564,0.0,-0.005478356033563614,1.3081285953521729,0.0,0.01461845450103283
264.0,347.0,-0.6269,-0.0802,9.6694,-0.0409,0.0223,-0.1147,-1.963797231713766,0.0,3.6405234336853027,-1.6305180788040161,-0.0,2.01702618598938,5.111767101078787,-0.0,0.2620847225189209,-1.5416858831988733,0.0,-0.01935567893087864,0.408365935087204,0.0,-0.003236126620322466,1.3081530332565308,0.0,0.009608613327145576
264.0,347.0,-0.6269,-0.0802,9.6694,-0.0409,0.0223,-0.1147,-1.963785310784811,0.0,3.645115375518799,-1.6305019855499268,-0.0,1.9766819477081299,5.111811417132177,-0.0,0.2669082283973694,-1.5416858831988733,0.0,-0.02238970622420311,0.4084179699420929,0.0,-0.009386299178004265,1.3081326484680176,0.0,-0.004211005754768848
264.0,347.0,-0.6269,-0.0802,9.6694,-0.0409,0.0223,-0.1147,-1.9638048611082972,0.0,3.6635992527008057,-1.6304659843444824,-0.0,1.959904432296753,5.111771273403921,-0.0,0.28307002782821655,-1.5417102018939417,0.0,-0.012117475271224976,0.4084138870239258,0.0,-0.00507144583389163,1.3081649541854858,0.0,0.01809994876384735
264.0,347.0,-0.6269,-0.0802,9.6694,-0.0409,0.0223,-0.1147,-1.9638167820372523,0.0,3.6546642780303955,-1.6305140256881714,-0.0,2.0076189041137695,5.1118114469344995,-0.0,0.2747900187969208,-1.5416777769671839,0.0,-0.0026484038680791855,0.40842607617378235,0.0,0.002364281564950943,1.3080966472625732,0.0,0.02227099984884262
264.0,347.0,-0.6269,-0.0802,9.6694,-0.0409,0.0223,-0.1147,-1.9638210735716761,0.0,3.637230157852173,-1.630489706993103,-0.0,2.0119144916534424,5.11179136016921,-0.0,0.26617294549942017,-1.5417020956622522,0.0,-0.015006906352937222,0.40840980410575867,0.0,0.010504389181733131,1.3081609010696411,0.0,-0.009003332816064358
264.0,347.0,-0.6269,-0.0802,9.6694,-0.0409,0.0223,-0.1147,-1.9638368091978968,0.0,3.6676149368286133,-1.6304900646209717,-0.0,2.008049726486206,5.111803281098165,-0.0,0.28153976798057556,-1.5417059103595179,0.0,-0.014212984591722488,0.40839385986328125,0.0,-0.0018135008867830038,1.3081084489822388,0.0,-0.051667533814907074
264.0,347.0,-0.6269,-0.0802,9.6694,-0.0409,0.0223,-0.1147,-1.9638210735716761,0.0,3.652845859527588,-1.6304819583892822,-0.0,1.964558482170105,5.111775356322088,-0.0,0.2635711133480072,-1.54164964357485,0.0,-0.017265012487769127,0.40840601921081543,0.0,-0.0013873153366148472,1.3080966472625732,0.0,0.03489188104867935
264.0,347.0,-0.6269,-0.0802,9.6694,-0.0409,0.0223,-0.1147,-1.9637891254820765,0.0,3.6417407989501953,-1.6305181980133057,-0.0,1.982546329498291,5.111819582968511,-0.0,0.27767205238342285,-1.5416577498065394,0.0,-0.014243795536458492,0.408445805311203,0.0,0.0009381499257870018,1.308140754699707,0.0,0.018517687916755676
264.0,347.0,-0.6269,-0.0802,9.6694,-0.0409,0.0223,-0.1147,-1.9638449154295863,0.0,3.648465633392334,-1.6305019855499268,-0.0,1.9922573566436768,5.111783134728231,-0.0,0.2681884765625,-1.5416620413409632,0.0,-0.002370287664234638,0.4084138870239258,0.0,0.002831754507496953,1.3081244230270386,0.0,-0.001819499535486102
264.0,347.0,-0.6269,-0.0802,9.6694,-0.0409,0.0223,-0.1147,-1.963809152642721,0.0,3.6670985221862793,-1.630486011505127,-0.0,2.001091480255127,5.111819612770834,-0.0,0.2713874280452728,-1.5416820685016077,0.0,-0.01424802653491497,0.40837812423706055,0.0,0.005001720041036606,1.308100700378418,0.0,-0.014422358013689518
264.0,347.0,-0.6269,-0.0802,9.6694,-0.0409,0.0223,-0.1147,-1.9637805424132289,0.0,3.6257717609405518,-1.6304900646209717,-0.0,1.9453532695770264,5.111775356322088,-0.0,0.2773362100124359,-1.5416982809649866,0.0,-0.008856174536049366,0.40842607617378235,0.0,-0.003260086290538311,1.308112621307373,0.0,-0.03501789644360542
264.0,347.0,-0.6269,-0.0802,9.6694,-0.0409,0.0223,-0.1147,-1.963809152642721,0.0,3.6675195693969727,-1.6304740905761719,-0.0,2.0266451835632324,5.1118236658866785,-0.0,0.27649784088134766,-1.5416939894305628,0.0,-0.011045398190617561,0.4084138870239258,0.0,-0.0123226223513484,1.3080966472625732,0.0,0.025725187733769417
264.0,347.0,-0.6269,-0.0802,9.6694,-0.0409,0.0223,-0.1147,-1.963809152642721,0.0,3.634833812713623,-1.630497932434082,-0.0,2.000192642211914,5.111767130881109,-0.0,0.27054256200790405,-1.5416982809649866,0.0,-0.00890024658292532,0.40839409828186035,0.0,-0.003321064868941903,1.308104395866394,0.0,0.017434488981962204
257.0,350.0,-0.5456,-0.0054,9.4672,-0.0379,0.0243,-0.1113,-1.9637686214842738,0.0,3.628892421722412,-1.6305019855499268,-0.0,1.9997689723968506,5.111847507744589,-0.0,0.27233099937438965,-1.5417102018939417,0.0,-0.02253010869026184,0.4083540141582489,0.0,0.014025780372321606,1.308100700378418,0.0,0.020654359832406044
257.0,350.0,-0.5456,-0.0054,9.4672,-0.0379,0.0243,-0.1113,-1.9638611278929652,0.0,3.5813040733337402,-1.6304457187652588,-0.0,1.9791456460952759,5.111831444292822,-0.0,0.2785796523094177,-1.541689697896139,0.0,-0.028897371143102646,0.40837812423706055,0.0,-0.006360372994095087,1.308100700378418,0.0,0.01515894290059805
257.0,350.0,-0.5456,-0.0054,9.4672,-0.0379,0.0243,-0.1113,-1.9638053379454554,0.0,3.6218104362487793,-1.6304982900619507,-0.0,1.9944512844085693,5.111771273403921,-0.0,0.28041067719459534,-1.5417140165912073,0.0,-0.017247524112462997,0.4084179699420929,0.0,0.00013153348118066788,1.3081285953521729,0.0,-0.017640525475144386
257.0,350.0,-0.5456,-0.0054,9.4672,-0.0379,0.0243,-0.1113,-1.963809152642721,0.0,3.660585403442383,-1.6305180788040161,-0.0,1.98947012424469,5.111787277251043,-0.0,0.283890962600708,-1.5416620413409632,0.0,-0.0033516790717840195,0.40844205021858215,0.0,0.004507295787334442,1.3081163167953491,0.0,0.020346228033304214
257.0,350.0,-0.5456,-0.0054,9.4672,-0.0379,0.0243,-0.1113,-1.9638453922667445,0.0,3.659334182739258,-1.630477786064148,-0.0,1.9665539264678955,5.111771273403921,-0.0,0.27899688482284546,-1.5416458288775843,0.0,-0.015428056940436363,0.40840601921081543,0.0,0.002388850087299943,1.3081166744232178,0.0,0.018941834568977356
257.0,350.0,-0.5456,-0.0054,9.4672,-0.0379,0.0243,-0.1113,-1.9638568363585414,0.0,3.612281322479248,-1.6305060386657715,-0.0,1.9826116561889648,5.1118114469344995,-0.0,0.2634097933769226,-1.5416982809649866,0.0,-0.010625633411109447,0.4084339439868927,0.0,-0.009173930622637272,1.308112621307373,0.0,-0.002867559203878045
257.0,350.0,-0.5456,-0.0054,9.4672,-0.0379,0.0243,-0.1113,-1.9638811550536097,0.0,3.599419593811035,-1.630477786064148,-0.0,2.0336337089538574,5.111771273403921,-0.0,0.26563870906829834,-1.5416739622699183,0.0,-0.0068456800654530525,0.408397912979126,0.0,-0.006184817757457495,1.3081084489822388,0.0,-0.009893783368170261
257.0,350.0,-0.5456,-0.0054,9.4672,-0.0379,0.0243,-0.1113,-1.96384920696401,0.0,3.632941246032715,-1.6305263042449951,-0.0,1.9962310791015625,5.111799108773031,-0.0,0.27746671438217163,-1.5416982809649866,0.0,-0.012544083409011364,0.40840601921081543,0.0,-0.013544612564146519,1.3081244230270386,0.0,-0.014707930386066437
257.0,350.0,-0.5456,-0.0054,9.4672,-0.0379,0.0243,-0.1113,-1.9637934170165003,0.0,3.626194477081299,-1.6305060386657715,-0.0,1.987318754196167,5.111795443087377,-0.0,0.27343106269836426,-1.5416658560382288,0.0,-0.00741064827889204,0.4083859622478485,0.0,0.00022003310732543468,1.3080884218215942,0.0,0.007675411179661751
257.0,350.0,-0.5456,-0.0054,9.4672,-0.0379,0.0243,-0.1113,-1.9638573131956996,0.0,3.583547592163086,-1.630449891090393,-0.0,1.9982969760894775,5.111827748804846,-0.0,0.27579444646835327,-1.5416820685016077,0.0,-0.012257575988769531,0.408397912979126,0.0,-0.007430095691233873,1.3081326484680176,0.0,0.025551432743668556
257.0,350.0,-0.5456,-0.0054,9.4672,-0.0379,0.0243,-0.1113,-1.9637767277159632,0.0,3.6497323513031006,-1.6305387020111084,-0.0,1.987983226776123,5.111831444292822,-0.0,0.27894195914268494,-1.5417020956622522,0.0,-0.007867684587836266,0.4084179699420929,0.0,0.0015710131265223026,1.308148980140686,0.0,0.031819138675928116
257.0,350.0,-0.5456,-0.0054,9.4672,-0.0379,0.0243,-0.1113,-1.9638248882689417,0.0,3.633380889892578,-1.630449891090393,-0.0,2.007150173187256,5.111767160683431,-0.0,0.26840469241142273,-1.5416820685016077,0.0,-0.008089696988463402,0.40837788581848145,0.0,-0.0021783001720905304,1.308092474937439,0.0,0.005826256237924099
257.0,350.0,-0.5456,-0.0054,9.4672,-0.0379,0.0243,-0.1113,-1.9638210735716761,0.0,3.5936741828918457,-1.6305303573608398,-0.0,1.9648627042770386,5.111803281098165,-0.0,0.2734977602958679,-1.5416939894305628,0.0,-0.02319367602467537,0.4083900451660156,0.0,-0.01654091104865074,1.3081326484680176,0.0,-0.021743454039096832
257.0,350.0,-0.5456,-0.0054,9.4672,-0.0379,0.0243,-0.1113,-1.9637686214842738,0.0,3.653348922729492,-1.630497932434082,-0.0,1.9960896968841553,5.111839669733801,-0.0,0.2803409695625305,-1.5417221228228968,0.0,-0.028440028429031372,0.4084060490131378,0.0,0.0013679463881999254,1.3081166744232178,0.0,0.0017536906525492668
257.0,350.0,-0.5456,-0.0054,9.4672,-0.0379,0.0243,-0.1113,-1.9638530216612757,0.0,3.6664958000183105,-1.6304576396942139,-0.0,1.968299388885498,5.1118236658866785,-0.0,0.2845364511013031,-1.5416820685016077,0.0,-0.010624108836054802,0.40834173560142517,0.0,0.012135392986238003,1.3081649541854858,0.0,0.0032750864047557116
259.0,357.0,-0.5611,0.0144,9.603,-0.0385,0.0228,-0.1191,-1.9638453922667445,0.0,3.6172590255737305,-1.6304819583892822,-0.0,1.9864940643310547,5.1118154404456995,-0.0,0.2694041132926941,-1.5417221228228968,0.0,-0.019051702693104744,0.4083699584007263,0.0,0.0022093532606959343,1.308100700378418,0.0,-0.023885993286967278
259.0,357.0,-0.5611,0.0144,9.603,-0.0385,0.0228,-0.1191,-1.9638010464110316,0.0,3.686300754547119,-1.6304292678833008,-0.0,2.0138344764709473,5.111823636084356,-0.0,0.2732360064983368,-1.541666332875387,0.0,-0.010744709521532059,0.4083978831768036,0.0,-0.008138397708535194,1.308112621307373,0.0,-0.030889689922332764
259.0,357.0,-0.5611,0.0144,9.603,-0.0385,0.0228,-0.1191,-1.9637891254820765,0.0,3.610586166381836,-1.630486011505127,-0.0,1.9737235307693481,5.111803281098165,-0.0,0.2771836519241333,-1.5416739622699183,0.0,-0.011306118220090866,0.4084019660949707,0.0,-8.298549801111221e-06,1.308112621307373,0.0,-0.016919421032071114
259.0,357.0,-0.5611,0.0144,9.603,-0.0385,0.0228,-0.1191,-1.9638010464110316,0.0,3.6013998985290527,-1.6305221319198608,-0.0,1.9845287799835205,5.1118114469344995,-0.0,0.28774726390838623,-1.5416820685016077,0.0,-0.021688401699066162,0.40841832756996155,0.0,-0.007085345685482025,1.3081247806549072,0.0,0.020699236541986465
259.0,357.0,-0.5611,0.0144,9.603,-0.0385,0.0228,-0.1191,-1.963809152642721,0.0,3.678037643432617,-1.6305385828018188,-0.0,1.984020709991455,5.111799138575353,-0.0,0.27645179629325867,-1.5416777769671839,0.0,-0.005215081851929426,0.4083699584007263,0.0,0.0013855760917067528,1.3081166744232178,0.0,-0.002273262944072485
259.0,357.0,-0.5611,0.0144,9.603,-0.0385,0.0228,-0.1191,-1.9638048611082972,0.0,3.6011571884155273,-1.630502462387085,-0.0,1.9382033348083496,5.1117790816123865,-0.0,0.28318533301353455,-1.5416820685016077,0.0,-0.011383474804461002,0.4083978831768036,0.0,0.005245956126600504,1.3081084489822388,0.0,0.022418102249503136
259.0,357.0,-0.5611,0.0144,9.603,-0.0385,0.0228,-0.1191,-1.9638010464110316,0.0,3.6363329887390137,-1.630486011505127,-0.0,1.9927095174789429,5.111771333008566,-0.0,0.2647978663444519,-1.5416820685016077,0.0,-0.013106582686305046,0.4083659052848816,0.0,0.011702559888362885,1.3081244230270386,0.0,0.0043077790178358555
259.0,357.0,-0.5611,0.0144,9.603,-0.0385,0.0228,-0.1191,-1.9637891254820765,0.0,3.6845643520355225,-1.6305097341537476,-0.0,2.000594139099121,5.111795443087377,-0.0,0.2735927999019623,-1.5416701475726526,0.0,-0.016287047415971756,0.4084421396255493,0.0,0.009541511535644531,1.3081047534942627,0.0,-0.012633231468498707
259.0,357.0,-0.5611,0.0144,9.603,-0.0385,0.0228,-0.1191,-1.9638329945006312,0.0,3.647951126098633,-1.6304535865783691,-0.0,1.9758455753326416,5.111839669733801,-0.0,0.2822831869125366,-1.5416982809649866,0.0,-0.008883677423000336,0.4083539545536041,0.0,-0.0018749802839010954,1.3081449270248413,0.0,-0.01471484825015068
259.0,357.0,-0.5611,0.0144,9.603,-0.0385,0.0228,-0.1191,-1.963809152642721,0.0,3.603360652923584,-1.6304659843444824,-0.0,1.9561073780059814,5.111795025854864,-0.0,0.28409695625305176,-1.5416982809649866,0.0,-0.017225543037056923,0.40838631987571716,0.0,-0.018123231828212738,1.3081285953521729,0.0,0.020111791789531708
259.0,357.0,-0.5611,0.0144,9.603,-0.0385,0.0228,-0.1191,-1.963877340356344,0.0,3.6987595558166504,-1.630486011505127,-0.0,2.015360116958618,5.111803310900488,-0.0,0.2688058018684387,-1.541666332875387,0.0,-0.018554702401161194,0.4083620607852936,-1.8793190292853978e-07,0.00553645845502615,1.30818510055542,0.0,-0.022157708182930946
259.0,357.0,-0.5611,0.0144,9.603,-0.0385,0.0228,-0.1191,-1.9638172588744105,0.0,3.636324644088745,-1.630481481552124,-0.0,1.9981213808059692,5.111779051810064,-0.0,0.28530624508857727,-1.5416620413409632,0.0,-0.010456948541104794,0.40837398171424866,-5.231154398543936e-11,0.00036570336669683456,1.3081326484680176,0.0,0.0025148128625005484
259.0,357.0,-0.5611,0.0144,9.603,-0.0385,0.0228,-0.1191,-1.963809152642721,0.0,3.612748146057129,-1.6304658651351929,-0.0,1.957249641418457,5.111762988358297,-0.0,0.27305108308792114,-1.5416858831988733,0.0,-0.015233075246214867,0.4084545373916626,-1.4561109615155235e-14,0.0026708152145147324,1.3081570863723755,0.0,0.029529890045523643
259.0,357.0,-0.5611,0.0144,9.603,-0.0385,0.0228,-0.1191,-1.9638210735716761,0.0,3.6896307468414307,-1.6304616928100586,-0.0,1.9955511093139648,5.111795443087377,-0.0,0.27706167101860046,-1.5417102018939417,0.0,-0.007075970992445946,0.4084340035915375,-4.053138265805226e-18,-0.002566887764260173,1.3080966472625732,0.0,0.01564662903547287
259.0,357.0,-0.5611,0.0144,9.603,-0.0385,0.0228,-0.1191,-1.9638329945006312,0.0,3.6865458488464355,-1.6304900646209717,-0.0,2.0234103202819824,5.111803310900488,-0.0,0.27707916498184204,-1.5416982809649866,0.0,-0.01856069266796112,0.40841013193130493,-1.128205895017531e-21,-0.004870994947850704,1.3080765008926392,0.0,-0.01698390394449234
259.0,357.0,-0.5611,0.0144,9.603,-0.0385,0.0228,-0.1191,-1.963848730126852,0.0,3.6796884536743164,-1.6304292678833008,-0.0,2.0128211975097656,5.111843752651968,-0.0,0.2806644141674042,-1.5416820685016077,0.0,-0.01789500191807747,0.4084340035915375,-4.8097188601514335e-24,-0.009988343343138695,1.3080966472625732,0.0,-0.0012915930710732937
260.0,368.0,-0.603,-0.052,9.6347,-0.0399,0.0249,-0.1132,-1.9638411007323207,0.0,3.6281704902648926,-1.6304937601089478,-0.0,1.9707295894622803,5.111767160683431,-0.0,0.27330806851387024,-1.5416701475726526,0.0,-0.009754545986652374,0.4084179699420929,-1.3388026897140039e-27,-0.005147680174559355,1.3081166744232178,0.0,-0.012666476890444756
260.0,368.0,-0.603,-0.052,9.6347,-0.0399,0.0249,-0.1132,-1.9638449154295863,0.0,3.6237025260925293,-1.6304819583892822,-0.0,2.0772218704223633,5.111799138575353,-0.0,0.2818366587162018,-1.5416982809649866,0.0,-0.01743478700518608,0.4084499478340149,-3.726606733914694e-31,-0.0018795356154441833,1.308092474937439,0.0,-0.02844354510307312
260.0,368.0,-0.603,-0.052,9.6347,-0.0399,0.0249,-0.1132,-1.9638210735716761,0.0,3.71250581741333,-1.6304458379745483,-0.0,1.9241156578063965,5.111787277251043,-0.0,0.2805008292198181,-1.5417102018939417,0.0,-0.0263375137001276,0.4084499478340149,-1.037314645500017e-34,-0.010273040272295475,1.3080440759658813,0.0,0.021870136260986328
260.0,368.0,-0.603,-0.052,9.6347,-0.0399,0.0249,-0.1132,-1.9638411007323207,0.0,3.6722052097320557,-1.6304900646209717,-0.0,1.9873781204223633,5.111819612770834,-0.0,0.27157309651374817,-1.5416982809649866,0.0,-0.021932194009423256,0.40841013193130493,-2.887403791970265e-38,0.0014331145212054253,1.3081285953521729,0.0,-0.022696668282151222
260.0,368.0,-0.603,-0.052,9.6347,-0.0399,0.0249,-0.1132,-1.9638210735716761,0.0,3.632422924041748,-1.6305102109909058,-0.0,1.9638175964355469,5.1118236658866785,-0.0,0.2679756283760071,-1.5417302290545862,0.0,-0.011171890422701836,0.408381849527359,-8.037847991367151e-42,-0.008431719616055489,1.3081367015838623,0.0,0.044230226427316666
260.0,368.0,-0.603,-0.052,9.6347,-0.0399,0.0249,-0.1132,-1.9638253651061,0.0,3.611280918121338,-1.6304900646209717,-0.0,1.986034870147705,5.1118114469344995,-0.0,0.27509284019470215,-1.5417183081256312,0.0,-0.015068404376506805,0.4083333909511566,-2.802596928649634e-45,-0.005221438128501177,1.3081367015838623,0.0,0.02261393517255783
260.0,368.0,-0.603,-0.052,9.6347,-0.0399,0.0249,-0.1132,-1.9637929401793421,0.0,3.5966649055480957,-1.6304823160171509,-0.0,1.9311641454696655,5.111787277251043,-0.0,0.27253004908561707,-1.5417259375201624,0.0,-0.021687820553779602,0.4084581136703491,-0.0,-0.009001071564853191,1.3081367015838623,0.0,0.052927251905202866
260.0,368.0,-0.603,-0.052,9.6347,-0.0399,0.0249,-0.1132,-1.9638248882689417,0.0,3.650745391845703,-1.630466341972351,-0.0,2.0010828971862793,5.111754822521963,-0.0,0.2733076810836792,-1.5417059103595179,0.0,-0.025127407163381577,0.4084019660949707,-0.0,-0.003561304183676839,1.308092474937439,0.0,-0.005769733339548111
260.0,368.0,-0.603,-0.052,9.6347,-0.0399,0.0249,-0.1132,-1.9638530216612757,0.0,3.6323599815368652,-1.6304250955581665,-0.0,1.9792112112045288,5.111819612770834,-0.0,0.2602027654647827,-1.5416539351092737,0.0,-0.024867994710803032,0.40842172503471375,-0.0,0.0025655499193817377,1.3081207275390625,0.0,0.03596944734454155
260.0,368.0,-0.603,-0.052,9.6347,-0.0399,0.0249,-0.1132,-1.9638048611082972,0.0,3.704089641571045,-1.630477786064148,-0.0,1.9999332427978516,5.1117954728897,-0.0,0.28134647011756897,-1.5416982809649866,0.0,-0.006110091228038073,0.4083818793296814,-0.0,-0.009536217898130417,1.308140754699707,0.0,0.024556294083595276
260.0,368.0,-0.603,-0.052,9.6347,-0.0399,0.0249,-0.1132,-1.9638010464110316,0.0,3.629939556121826,-1.6304540634155273,-0.0,1.9579646587371826,5.111763077765264,-0.0,0.2784331142902374,-1.5417020956622522,0.0,-0.01376709621399641,0.40841391682624817,-0.0,0.005049289204180241,1.3081612586975098,0.0,0.05118778347969055
260.0,368.0,-0.603,-0.052,9.6347,-0.0399,0.0249,-0.1132,-1.9638329945006312,0.0,3.665801763534546,-1.6305345296859741,-0.0,1.9776875972747803,5.111790942936697,-0.0,0.27248427271842957,-1.5416744391070765,0.0,-0.008314189501106739,0.40841010212898254,-0.0,-0.007725188042968512,1.3081809282302856,0.0,-0.05086621269583702
260.0,368.0,-0.603,-0.052,9.6347,-0.0399,0.0249,-0.1132,-1.9637891254820765,0.0,3.659423828125,-1.630497932434082,-0.0,2.004148244857788,5.111778992205419,-0.0,0.28419792652130127,-1.5417259375201624,0.0,-0.01263620425015688,0.4084060490131378,-0.0,0.011298960074782372,1.308148980140686,0.0,0.05862367898225784
260.0,368.0,-0.603,-0.052,9.6347,-0.0399,0.0249,-0.1132,-1.963809152642721,0.0,3.6626687049865723,-1.6304900646209717,-0.0,2.0047812461853027,5.111787277251043,-0.0,0.2751883268356323,-1.541689697896139,0.0,-0.020217303186655045,0.40839412808418274,-0.0,-0.014041993767023087,1.3081285953521729,0.0,-0.020087681710720062
260.0,368.0,-0.603,-0.052,9.6347,-0.0399,0.0249,-0.1132,-1.963781019250387,0.0,3.6489691734313965,-1.6304659843444824,-0.0,2.013094663619995,5.11182780840949,-0.0,0.27638083696365356,-1.5417102018939417,0.0,-0.016939207911491394,0.4084499776363373,-0.0,-0.001602959935553372,1.3081084489822388,0.0,-0.006172950379550457
259.0,350.0,-0.603,-0.0209,9.5366,-0.0495,0.0206,-0.0793,-1.9638210735716761,0.0,3.658562421798706,-1.6305140256881714,-0.0,1.9591703414916992,5.111823695689001,-0.0,0.27000391483306885,-1.5417340437518519,0.0,-0.028180159628391266,0.40842583775520325,-0.0,-0.00034905486973002553,1.3081084489822388,0.0,0.020939575508236885
259.0,350.0,-0.603,-0.0209,9.5366,-0.0495,0.0206,-0.0793,-1.9637934170165003,0.0,3.662616729736328,-1.6305140256881714,-0.0,1.9832158088684082,5.111807393818655,-0.0,0.27125635743141174,-1.541706387196676,0.0,-0.004795541055500507,0.4083821475505829,-0.0,-0.0003718758234754205,1.3081244230270386,0.0,-0.004288394935429096
259.0,350.0,-0.603,-0.0209,9.5366,-0.0495,0.0206,-0.0793,-1.9638129673399867,0.0,3.62388277053833,-1.6304900646209717,-0.0,1.9867606163024902,5.111835616617956,-0.0,0.26141828298568726,-1.5416820685016077,0.0,-0.01165115274488926,0.4084019660949707,-0.0,0.007256357930600643,1.3081166744232178,0.0,0.006811448372900486
259.0,350.0,-0.603,-0.0209,9.5366,-0.0495,0.0206,-0.0793,-1.9638129673399867,0.0,3.6587157249450684,-1.6304540634155273,-0.0,2.0249621868133545,5.1118114469344995,-0.0,0.2797216475009918,-1.5416620413409632,0.0,-0.008304601535201073,0.4084339737892151,-0.0,0.00010728929191827774,1.3081326484680176,0.0,0.018126146867871284
259.0,350.0,-0.603,-0.0209,9.5366,-0.0495,0.0206,-0.0793,-1.9638053379454554,0.0,3.6546318531036377,-1.6305346488952637,-0.0,1.9741088151931763,5.111811357527532,-0.0,0.27771979570388794,-1.5416982809649866,0.0,-0.016503330320119858,0.408381849527359,-0.0,0.002489391015842557,1.3081530332565308,0.0,-0.014307168312370777
259.0,350.0,-0.603,-0.0209,9.5366,-0.0495,0.0206,-0.0793,-1.9638010464110316,0.0,3.604088306427002,-1.6305221319198608,-0.0,1.9646589756011963,5.111811417132177,-0.0,0.27011045813560486,-1.5416658560382288,0.0,-0.01118879858404398,0.4084261357784271,-0.0,-0.003828940447419882,1.3081207275390625,0.0,0.0030652000568807125
259.0,350.0,-0.603,-0.0209,9.5366,-0.0495,0.0206,-0.0793,-1.9637891254820765,0.0,3.6311867237091064,-1.6304819583892822,-0.0,1.9682602882385254,5.11179136016921,-0.0,0.2706603705883026,-1.5416777769671839,0.0,-0.007782361935824156,0.40833765268325806,-0.0,0.007975433021783829,1.3081084489822388,0.0,0.013750242069363594
259.0,350.0,-0.603,-0.0209,9.5366,-0.0495,0.0206,-0.0793,-1.963781019250387,0.0,3.6533360481262207,-1.6305385828018188,-0.0,1.9671251773834229,5.1118154404456995,-0.0,0.26592564582824707,-1.5417059103595179,0.0,-0.014698251150548458,0.4084138870239258,-0.0,0.004246363881975412,1.308104395866394,0.0,0.014936879277229309
259.0,350.0,-0.603,-0.0209,9.5366,-0.0495,0.0206,-0.0793,-1.9638172588744105,0.0,3.6389198303222656,-1.630449891090393,-0.0,1.998569369316101,5.111851918488302,-0.0,0.28283894062042236,-1.5416939894305628,0.0,-0.0022747486364096403,0.4084179699420929,-0.0,-0.007470287848263979,1.308092474937439,0.0,0.008054153993725777
259.0,350.0,-0.603,-0.0209,9.5366,-0.0495,0.0206,-0.0793,-1.9638172588744105,0.0,3.6291229724884033,-1.6305261850357056,-0.0,1.9871822595596313,5.111795025854864,-0.0,0.2774236798286438,-1.54173452058901,0.0,-0.01902683451771736,0.40832948684692383,-0.0,-0.0030769838485866785,1.3081244230270386,0.0,-0.015630356967449188
259.0,350.0,-0.603,-0.0209,9.5366,-0.0495,0.0206,-0.0793,-1.9638530216612757,0.0,3.642575979232788,-1.6304819583892822,-0.0,2.0352401733398438,5.111839669733801,-0.0,0.28031644225120544,-1.5416258017169397,0.0,-0.01607302762567997,0.40842205286026,-0.0,0.00362923345528543,1.3081285953521729,0.0,0.010576345026493073
259.0,350.0,-0.603,-0.0209,9.5366,-0.0495,0.0206,-0.0793,-1.9638172588744105,0.0,3.665231704711914,-1.6304700374603271,-0.0,1.9579541683197021,5.111827778607168,-0.0,0.2868141233921051,-1.5416858831988733,0.0,-0.017730724066495895,0.4084179699420929,-0.0,0.00400165980681777,1.3081326484680176,0.0,-0.0017432880122214556
259.0,350.0,-0.603,-0.0209,9.5366,-0.0495,0.0206,-0.0793,-1.9638329945006312,0.0,3.6532516479492188,-1.6305140256881714,-0.0,2.035649299621582,5.111803281098165,-0.0,0.27709293365478516,-1.5416701475726526,0.0,-0.008812681771814823,0.40844181180000305,-0.0,0.00036781863309442997,1.3081367015838623,0.0,0.015227521769702435
259.0,350.0,-0.603,-0.0209,9.5366,-0.0495,0.0206,-0.0793,-1.9638172588744105,0.0,3.629847526550293,-1.6304618120193481,-0.0,1.9862767457962036,5.111779439240255,-0.0,0.2844351828098297,-1.5417140165912073,0.0,-0.010599029250442982,0.40837782621383667,-0.0,-0.008004812523722649,1.308092474937439,0.0,-0.0024731988087296486
259.0,350.0,-0.603,-0.0209,9.5366,-0.0495,0.0206,-0.0793,-1.9638053379454554,0.0,3.6198861598968506,-1.6305060386657715,-0.0,1.9975988864898682,5.111831444292822,-0.0,0.2791248857975006,-1.5416982809649866,0.0,-0.01630217395722866,0.40837374329566956,-0.0,-0.006239933893084526,1.3081244230270386,0.0,0.02521105483174324
259.0,350.0,-0.603,-0.0209,9.5366,-0.0495,0.0206,-0.0793,-1.9638692341246546,0.0,3.640646457672119,-1.6304740905761719,-0.0,2.004080295562744,5.111799108773031,-0.0,0.272377073764801,-1.5416982809649866,0.0,-0.013200519606471062,0.40836989879608154,-0.0,0.006274176295846701,1.3081612586975098,0.0,0.030042244121432304
261.0,368.0,-0.8961,-0.3817,9.9535,-0.0528,0.0458,-0.1278,-1.9638210735716761,0.0,3.6464240550994873,-1.6304579973220825,-0.0,2.0344159603118896,5.111839699536123,-0.0,0.2671167552471161,-1.5416696707354944,0.0,-0.009769752621650696,0.4083699882030487,-0.0,-0.004587007686495781,1.3081326484680176,0.0,-0.03271803259849548
261.0,368.0,-0.8961,-0.3817,9.9535,-0.0528,0.0458,-0.1278,-1.9638411007323207,0.0,3.593423843383789,-1.6304941177368164,-0.0,1.9878276586532593,5.111763047962942,-0.0,0.26801979541778564,-1.5416577498065394,0.0,-0.010296773165464401,0.40840983390808105,-0.0,0.009793100878596306,1.3081570863723755,0.0,-0.00877198576927185
261.0,368.0,-0.8961,-0.3817,9.9535,-0.0528,0.0458,-0.1278,-1.963877340356344,0.0,3.6578025817871094,-1.6304700374603271,-0.0,1.956275224685669,5.111787277251043,-0.0,0.27644631266593933,-1.541689697896139,0.0,-0.014945680275559425,0.40840980410575867,-0.0,0.006539953872561455,1.308100700378418,0.0,-0.03243068978190422
261.0,368.0,-0.8961,-0.3817,9.9535,-0.0528,0.0458,-0.1278,-1.963785310784811,0.0,3.6503546237945557,-1.6304740905761719,-0.0,2.001039743423462,5.1118236658866785,-0.0,0.2763461470603943,-1.5417102018939417,0.0,-0.0036344293039292097,0.4084019362926483,-0.0,0.0039261383935809135,1.3081326484680176,0.0,0.04480694979429245
261.0,368.0,-0.8961,-0.3817,9.9535,-0.0528,0.0458,-0.1278,-1.9638248882689417,0.0,3.6298041343688965,-1.6304658651351929,-0.0,2.000164747238159,5.111791330366888,-0.0,0.28019624948501587,-1.5416939894305628,0.0,0.0007729474455118179,0.40839412808418274,-0.0,0.0033209489192813635,1.3081248998641968,0.0,-0.008878620341420174
261.0,368.0,-0.8961,-0.3817,9.9535,-0.0528,0.0458,-0.1278,-1.9638053379454554,0.0,3.6015801429748535,-1.6304819583892822,-0.0,1.9930353164672852,5.111819612770834,-0.0,0.2770438492298126,-1.5416863600360315,0.0,-0.012492594309151173,0.4084220230579376,-0.0,-0.01298975944519043,1.3081084489822388,0.0,0.04698754474520683
261.0,368.0,-0.8961,-0.3817,9.9535,-0.0528,0.0458,-0.1278,-1.9638368091978968,0.0,3.693972587585449,-1.6304616928100586,-0.0,1.9981491565704346,5.111815470248022,-0.0,0.2759263813495636,-1.5416939894305628,0.0,-0.014031890779733658,0.40844210982322693,-0.0,0.006004513241350651,1.3081244230270386,0.0,0.0034098043106496334
261.0,368.0,-0.8961,-0.3817,9.9535,-0.0528,0.0458,-0.1278,-1.9638530216612757,0.0,3.6601908206939697,-1.6304616928100586,-0.0,1.9944679737091064,5.111803281098165,-0.0,0.284778892993927,-1.5416620413409632,0.0,-0.013686323538422585,0.4083699584007263,-0.0,-0.0012750423047691584,1.3081849813461304,0.0,-0.004880079068243504
261.0,368.0,-0.8961,-0.3817,9.9535,-0.0528,0.0458,-0.1278,-1.9638248882689417,0.0,3.584261417388916,-1.6304819583892822,-0.0,1.9574679136276245,5.111799108773031,-0.0,0.262869268655777,-1.541689697896139,0.0,-0.012438638135790825,0.4083938002586365,-0.0,-0.009168443270027637,1.3081368207931519,0.0,0.02714627981185913
261.0,368.0,-0.8961,-0.3817,9.9535,-0.0528,0.0458,-0.1278,-1.9638248882689417,0.0,3.6466288566589355,-1.6305261850357056,-0.0,2.004441261291504,5.111775356322088,-0.0,0.28964874148368835,-1.5416858831988733,0.0,-0.007542910985648632,0.40844181180000305,-0.0,-0.0037591855507344007,1.3081530332565308,0.0,0.030159592628479004
261.0,368.0,-0.8961,-0.3817,9.9535,-0.0528,0.0458,-0.1278,-1.9638010464110316,0.0,3.6278862953186035,-1.6305019855499268,-0.0,2.020778179168701,5.111799108773031,-0.0,0.2790885269641876,-1.541666332875387,0.0,-0.019303247332572937,0.4083978831768036,-0.0,0.008657010272145271,1.3081047534942627,0.0,0.006609831005334854
261.0,368.0,-0.8961,-0.3817,9.9535,-0.0528,0.0458,-0.1278,-1.9638210735716761,0.0,3.6611900329589844,-1.6305060386657715,-0.0,1.9967560768127441,5.111839669733801,-0.0,0.2642374038696289,-1.5416939894305628,0.0,-0.007122769020497799,0.40839821100234985,-0.0,0.010126306675374508,1.3081285953521729,0.0,0.03830461576581001
261.0,368.0,-0.8961,-0.3817,9.9535,-0.0528,0.0458,-0.1278,-1.9638210735716761,0.0,3.706221103668213,-1.6304618120193481,-0.0,1.999959945678711,5.1118236658866785,-0.0,0.2703084945678711,-1.5417020956622522,0.0,-0.016064852476119995,0.40841013193130493,-0.0,0.00558563182130456,1.3081809282302856,0.0,-0.028647787868976593
261.0,368.0,-0.8961,-0.3817,9.9535,-0.0528,0.0458,-0.1278,-1.9638010464110316,0.0,3.6187691688537598,-1.630486011505127,-0.0,1.9727050065994263,5.11185975649909,-0.0,0.27601608633995056,-1.5417140165912073,0.0,-0.016757627949118614,0.4083900451660156,-0.0,-0.018572436645627022,1.308092474937439,0.0,0.011716067790985107
261.0,368.0,-0.8961,-0.3817,9.9535,-0.0528,0.0458,-0.1278,-1.9638291798033656,0.0,3.6554083824157715,-1.630449891090393,-0.0,1.9823259115219116,5.111787277251043,-0.0,0.27055221796035767,-1.541689697896139,0.0,-0.013276142999529839,0.4083659052848816,-0.0,0.00024792994372546673,1.308112621307373,0.0,0.0039030045736581087
266.0,360.0,-0.3924,0.0191,9.4822,-0.0397,0.0136,-0.1151,-1.9638649425902308,0.0,3.6334052085876465,-1.630509853363037,-0.0,2.017526149749756,5.111795443087377,-0.0,0.26547151803970337,-1.5416982809649866,0.0,-0.01925100013613701,0.40838974714279175,-0.0,-0.015302980318665504,1.3081690073013306,0.0,-0.012926565483212471
266.0,360.0,-0.3924,0.0191,9.4822,-0.0397,0.0136,-0.1151,-1.9638449154295863,0.0,3.5856857299804688,-1.630458116531372,-0.0,1.9859099388122559,5.111791330366888,-0.0,0.2788972556591034,-1.541666332875387,0.0,-0.01007563155144453,0.4084179699420929,-0.0,0.001270262524485588,1.3081367015838623,0.0,-0.010268347337841988
266.0,360.0,-0.3924,0.0191,9.4822,-0.0397,0.0136,-0.1151,-1.9638449154295863,0.0,3.64143705368042,-1.6305345296859741,-0.0,1.998542308807373,5.1118114469344995,-0.0,0.2755599021911621,-1.5416858831988733,0.0,-0.013575928285717964,0.40832164883613586,-0.0,-0.0044988663867115974,1.308152675628662,0.0,-0.017314434051513672
266.0,360.0,-0.3924,0.0191,9.4822,-0.0397,0.0136,-0.1151,-1.963809152642721,0.0,3.667038679122925,-1.6304539442062378,-0.0,1.9887425899505615,5.111807364016332,-0.0,0.28647077083587646,-1.5417259375201624,0.0,-0.023501500487327576,0.40835803747177124,-0.0,0.0008206894854083657,1.3080928325653076,0.0,-0.013569945469498634
266.0,360.0,-0.3924,0.0191,9.4822,-0.0397,0.0136,-0.1151,-1.9638248882689417,0.0,3.6639437675476074,-1.6304658651351929,-0.0,1.9884033203125,5.111819612770834,-0.0,0.28553444147109985,-1.5416982809649866,0.0,-0.028739705681800842,0.40837037563323975,-0.0,0.006608735304325819,1.3081084489822388,0.0,0.0003325480502098799
266.0,360.0,-0.3924,0.0191,9.4822,-0.0397,0.0136,-0.1151,-1.9638291798033656,0.0,3.655811309814453,-1.6304539442062378,-0.0,1.9863078594207764,5.111779439240255,-0.0,0.26988738775253296,-1.5417340437518519,0.0,-0.003059270093217492,0.40839412808418274,-0.0,0.009457500651478767,1.3081326484680176,0.0,0.04309520125389099
266.0,360.0,-0.3924,0.0191,9.4822,-0.0397,0.0136,-0.1151,-1.9638053379454554,0.0,3.6130452156066895,-1.6305102109909058,-3.0693649932800326e-07,1.9702556133270264,5.111851590662756,-0.0,0.28920555114746094,-1.541689697896139,0.0,-0.012059162370860577,0.40838557481765747,-0.0,-0.006995011121034622,1.3081244230270386,0.0,-0.006672821938991547
266.0,360.0,-0.3924,0.0191,9.4822,-0.0397,0.0136,-0.1151,-1.963809152642721,0.0,3.6342265605926514,-1.6304781436920166,-7.412155199511272e-13,1.98027765750885,5.111803281098165,-0.0,0.27217257022857666,-1.5416939894305628,0.0,-0.014774803072214127,0.40842998027801514,-0.0,-0.005463256035000086,1.3081530332565308,0.0,-0.006346444599330425
266.0,360.0,-0.3924,0.0191,9.4822,-0.0397,0.0136,-0.1151,-1.9638368091978968,0.0,3.6353442668914795,-1.630449891090393,-1.7899481216223786e-18,1.981031894683838,5.1118114469344995,-0.0,0.2721395194530487,-1.5416858831988733,0.0,-0.012996715493500233,0.40838220715522766,-0.0,-0.007067134603857994,1.3080966472625732,0.0,0.036436278373003006
266.0,360.0,-0.3924,0.0191,9.4822,-0.0397,0.0136,-0.1151,-1.9638568363585414,0.0,3.6266894340515137,-1.6305387020111084,-4.3225144207824105e-24,1.993105173110962,5.111815500050344,-0.0,0.2898241877555847,-1.541706387196676,0.0,-0.013356932438910007,0.4083699584007263,-0.0,-0.009644733741879463,1.3081727027893066,0.0,0.04257741943001747
266.0,360.0,-0.3924,0.0191,9.4822,-0.0397,0.0136,-0.1151,-1.9638368091978968,0.0,3.621946334838867,-1.6304618120193481,-7.780373233783014e-28,1.9471039772033691,5.111799108773031,-0.0,0.2752193212509155,-1.5416939894305628,0.0,-0.021563231945037842,0.4083859622478485,-0.0,-0.005519654601812363,1.3081531524658203,0.0,-0.007402713410556316
266.0,360.0,-0.3924,0.0191,9.4822,-0.0397,0.0136,-0.1151,-1.9638611278929652,0.0,3.6479291915893555,-1.6304618120193481,-1.8788684770390886e-33,1.993908166885376,5.111795443087377,-0.0,0.28605031967163086,-1.5416739622699183,0.0,-0.0115953478962183,0.4084060490131378,-0.0,0.0030868137255311012,1.3080966472625732,0.0,0.017143500968813896
266.0,360.0,-0.3924,0.0191,9.4822,-0.0397,0.0136,-0.1151,-1.9638248882689417,0.0,3.6368353366851807,-1.6304659843444824,-4.537246080757289e-39,1.9850702285766602,5.111839669733801,-0.0,0.2885351777076721,-1.541701618825094,0.0,-0.032176047563552856,0.40840986371040344,-0.0,-0.0019642275292426348,1.3081047534942627,0.0,-0.027523018419742584
266.0,360.0,-0.3924,0.0191,9.4822,-0.0397,0.0136,-0.1151,-1.9637934170165003,0.0,3.6315314769744873,-1.6305180788040161,-1.1210387714598537e-44,2.023699998855591,5.111807364016332,-0.0,0.27011334896087646,-1.5417221228228968,0.0,-0.003598812036216259,0.40844184160232544,-0.0,-1.7357757315039635e-05,1.3081567287445068,0.0,-0.015168171375989914
266.0,360.0,-0.3924,0.0191,9.4822,-0.0397,0.0136,-0.1151,-1.9638368091978968,0.0,3.6292057037353516,-1.630506157875061,-0.0,2.034173011779785,5.111831444292822,-0.0,0.2723071575164795,-1.5416939894305628,0.0,-0.014326684176921844,0.4084179997444153,-0.0,-0.0062565188854932785,1.3081367015838623,0.0,0.01933732070028782
260.0,356.0,-0.6287,-0.14,9.5839,-0.0322,0.0356,-0.1142,-1.963769098321432,0.0,3.6343436241149902,-1.6304259300231934,-0.0,1.9762587547302246,5.11179136016921,-0.0,0.27935266494750977,-1.54173452058901,0.0,-0.020186230540275574,0.40839794278144836,-0.0,-0.007714139763265848,1.3081567287445068,0.0,0.005429086275398731
260.0,356.0,-0.6287,-0.14,9.5839,-0.0322,0.0356,-0.1142,-1.9638129673399867,0.0,3.6602602005004883,-1.6305102109909058,-0.0,1.9625047445297241,5.111839669733801,-0.0,0.26338404417037964,-1.5416815916644495,0.0,-0.02378149703145027,0.4084019958972931,-0.0,0.007439346984028816,1.3081367015838623,0.0,0.02968577668070793
260.0,356.0,-0.6287,-0.14,9.5839,-0.0322,0.0356,-0.1142,-1.9638010464110316,0.0,3.60988187789917,-1.630458116531372,-0.0,1.9740768671035767,5.111871588021078,-0.0,0.2906498312950134,-1.5416739622699183,0.0,-0.010980574414134026,0.40843772888183594,-0.0,0.0037575578317046165,1.308140754699707,0.0,0.003063720650970936
260.0,356.0,-0.6287,-0.14,9.5839,-0.0322,0.0356,-0.1142,-1.963785310784811,0.0,3.643014430999756,-1.6304455995559692,-0.0,1.9966237545013428,5.111831444292822,-0.0,0.2747964560985565,-1.541717831288473,0.0,0.0017418460920453072,0.4083818793296814,-0.0,-0.002490284387022257,1.308132529258728,0.0,-0.03819496929645538
260.0,356.0,-0.6287,-0.14,9.5839,-0.0322,0.0356,-0.1142,-1.9638291798033656,0.0,3.6263375282287598,-1.6304497718811035,-0.0,2.0111470222473145,5.1118114469344995,-0.0,0.27023541927337646,-1.541717831288473,0.0,-0.018447399139404297,0.4083818793296814,-0.0,0.007414735853672028,1.3081163167953491,0.0,-0.0336589589715004
260.0,356.0,-0.6287,-0.14,9.5839,-0.0322,0.0356,-0.1142,-1.963797231713766,0.0,3.7107760906219482,-1.630466341972351,0.00010779233707580715,1.9828593730926514,5.111847477942266,-1.3751200178546696e-09,0.28898143768310547,-1.5417383352862757,0.0,-0.010343275964260101,0.4084581136703491,-0.0,-0.0001141928369179368,1.3081244230270386,0.000346481945598498,-0.024401051923632622
260.0,356.0,-0.6287,-0.14,9.5839,-0.0322,0.0356,-0.1142,-1.963797231713766,0.0,3.6555826663970947,-1.6304136514663696,0.00010185474093304947,2.013514518737793,5.111807393818655,-3.827696894252025e-13,0.28828614950180054,-1.541701618825094,0.0,-0.007871429435908794,0.40836212038993835,-0.0,0.004843714646995068,1.308205008506775,0.0008270773687399924,-0.00855597946792841
260.0,356.0,-0.6287,-0.14,9.5839,-0.0322,0.0356,-0.1142,-1.9638248882689417,0.0,3.615180730819702,-1.6304219961166382,9.537840378470719e-05,1.9408231973648071,5.111807274609365,-1.0654533628958265e-16,0.27577903866767883,-1.5417302290545862,0.0,-0.02193567156791687,0.4083539843559265,-0.0,-0.013551713898777962,1.308172345161438,0.0008543580188415945,0.01212611049413681
260.0,356.0,-0.6287,-0.14,9.5839,-0.0322,0.0356,-0.1142,-1.9638129673399867,0.0,3.602426528930664,-1.630506157875061,7.383926276816055e-05,2.019436836242676,5.111779439240255,-2.96572877804273e-20,0.2664507031440735,-1.5417621771441858,0.0,-0.0163445882499218,0.40837782621383667,-0.0,-0.00024401478003710508,1.3082005977630615,0.0008145574247464538,0.07016540318727493
260.0,356.0,-0.6287,-0.14,9.5839,-0.0322,0.0356,-0.1142,-1.963781019250387,0.0,3.6613731384277344,-1.6304740905761719,6.89917360432446e-05,1.9812095165252686,5.111799108773031,-1.2643367815322623e-22,0.2768029570579529,-1.5417302290545862,0.0,-0.018117140978574753,0.4083938002586365,-0.0,0.01815912500023842,1.3081765174865723,0.0008302756468765438,0.034675877541303635
260.0,356.0,-0.6287,-0.14,9.5839,-0.0322,0.0356,-0.1142,-1.9638248882689417,0.0,3.6602439880371094,-1.6304373741149902,6.524047785205767e-05,1.9654241800308228,5.1118114469344995,-3.5193285164277805e-26,0.27882248163223267,-1.5417383352862757,0.0,-0.0196264386177063,0.4083978831768036,-0.0,0.0073664383962750435,1.3082088232040405,0.000619285274296999,0.02976244129240513
260.0,356.0,-0.6287,-0.14,9.5839,-0.0322,0.0356,-0.1142,-1.963809152642721,0.0,3.655294895172119,-1.6304301023483276,4.6432069211732596e-05,1.9789183139801025,5.11179136016921,-9.79617871523299e-30,0.28047966957092285,-1.5417059103595179,0.0,-0.01821933500468731,0.4084581732749939,-0.0,-0.002972317161038518,1.308172345161438,0.0004307432100176811,-0.03165322169661522
260.0,356.0,-0.6287,-0.14,9.5839,-0.0322,0.0356,-0.1142,-1.9638210735716761,0.0,3.6238293647766113,-1.6305181980133057,-8.366833935724571e-05,1.9798219203948975,5.1118114469344995,-2.726802694468107e-33,0.2845974862575531,-1.5417183081256312,0.0,-0.013454986736178398,0.408454030752182,-0.0,-0.0005806954577565193,1.3082088232040405,0.0003573927970137447,0.01609867997467518
260.0,356.0,-0.6287,-0.14,9.5839,-0.0322,0.0356,-0.1142,-1.9638611278929652,-3.63464014441206e-09,3.66278076171875,-1.630486011505127,-7.48154561733827e-05,1.980118989944458,5.111783551960745,-7.590156225414064e-37,0.2766854166984558,-1.541689697896139,0.0,-0.011923611164093018,0.4084019362926483,-0.0,-0.003961005713790655,1.308180570602417,0.00011203985923202708,0.00024013564689084888
260.0,356.0,-0.6287,-0.14,9.5839,-0.0322,0.0356,-0.1142,-1.9638329945006312,-8.777228991091023e-15,3.647231101989746,-1.6305102109909058,-9.978065645555034e-05,1.9872705936431885,5.111815559654989,-2.11275170764717e-40,0.2626786231994629,-1.5417302290545862,0.0,-0.011993372812867165,0.40844592452049255,-0.0,-0.00032829539850354195,1.308152675628662,9.43300110520795e-05,0.05996936559677124
260.0,356.0,-0.6287,-0.14,9.5839,-0.0322,0.0356,-0.1142,-1.9638406238951625,-2.1195979746439953e-20,3.644796848297119,-1.6305222511291504,-8.982222061604261e-05,1.9666523933410645,5.11179136016921,-5.885453550164232e-44,0.2742469906806946,-1.5417259375201624,0.0,-0.029006149619817734,0.4083819091320038,-0.0,0.007402270101010799,1.3082247972488403,8.151359361363575e-05,-2.2405758500099182e-05
250.0,359.0,-0.5994,0.0281,9.6185,-0.035,0.0247,-0.1067,-1.9638086758055628,-5.1185797584577246e-26,3.648904323577881,-1.630509853363037,-8.167116902768612e-05,2.0133304595947266,5.111771273403921,-0.0,0.26710212230682373,-1.5417221228228968,0.0,-0.01498989388346672,0.4084138870239258,-0.0,-0.004622460342943668,1.3081765174865723,3.7339621485443786e-05,0.025336656719446182
250.0,359.0,-0.5994,0.0281,9.6185,-0.035,0.0247,-0.1067,-1.9638129673399867,-1.2360768611255315e-31,3.6165170669555664,-1.6304458379745483,-7.487630500691012e-05,1.9605735540390015,5.11179136016921,-0.0,0.28572186827659607,-1.5417426268206995,0.0,-0.0073509300127625465,0.4084340035915375,-0.0,0.0026524211280047894,1.3081969022750854,3.204832682968117e-05,0.021910831332206726
250.0,359.0,-0.5994,0.0281,9.6185,-0.035,0.0247,-0.1067,-1.963860651055807,-2.9849800716249635e-37,3.667555809020996,-1.6304900646209717,-4.6084045607130975e-05,1.97896409034729,5.111771273403921,-0.0,0.28057363629341125,-1.541717831288473,0.0,-0.018022699281573296,0.40843772888183594,-0.0,0.01094292476773262,1.3081605434417725,2.8955053494428284e-05,0.04004271328449249
250.0,359.0,-0.5994,0.0281,9.6185,-0.035,0.0247,-0.1067,-1.9638248882689417,-7.20267410662956e-43,3.654153823852539,-1.6304621696472168,-4.279649510863237e-05,1.9823338985443115,5.111751514464178,-0.0,0.2814306616783142,-1.5417135397540491,0.0,-0.012091048993170261,0.4084019660949707,-0.0,5.2925548516213894e-05,1.3081445693969727,2.640637831063941e-05,-0.005220707505941391
250.0,359.0,-0.5994,0.0281,9.6185,-0.035,0.0247,-0.1067,-1.9638449154295863,0.0,3.643587589263916,-1.630458116531372,-3.994722283096053e-05,2.0210800170898438,5.111771273403921,-0.0,0.2646561861038208,-1.5417102018939417,0.0,-0.017467699944972992,0.4083978831768036,-0.0,-0.004060836508870125,1.308152675628662,1.5826520094464058e-09,-0.01745045930147171
250.0,359.0,-0.5994,0.0281,9.6185,-0.035,0.0247,-0.1067,-1.9638248882689417,0.0,3.6533284187316895,-1.6304700374603271,-3.745362482732162e-05,1.9742709398269653,5.111779439240255,-0.0,0.2688601016998291,-1.5417059103595179,0.0,-0.02205105498433113,0.40832579135894775,-0.0,-0.0009132170816883445,1.308172345161438,3.821918113613336e-15,0.0041411202400922775
250.0,359.0,-0.5994,0.0281,9.6185,-0.035,0.0247,-0.1067,-1.9638010464110316,0.0,3.6941473484039307,-1.630506157875061,-3.525302963680588e-05,1.9712660312652588,5.111783551960745,-0.0,0.2748989760875702,-1.5417302290545862,0.0,-0.01704053208231926,0.4083859622478485,-0.0,-2.3990636691451073e-05,1.3081886768341064,9.229482557649214e-21,-0.03904637321829796
250.0,359.0,-0.5994,0.0281,9.6185,-0.035,0.0247,-0.1067,-1.9638129673399867,0.0,3.645183801651001,-1.630458116531372,-3.392422149772756e-05,1.9847908020019531,5.1117314276988886,-0.0,0.2814605236053467,-1.5417259375201624,0.0,-0.004621950443834066,0.4084138870239258,-0.0,0.012742642313241959,1.3081928491592407,1.6612744076489597e-24,-0.013469272293150425
250.0,359.0,-0.5994,0.0281,9.6185,-0.035,0.0247,-0.1067,-1.9638291798033656,-0.00016009988030418754,3.6540160179138184,-1.630497932434082,-3.2108819141285494e-05,1.9918725490570068,5.111747401743688,-0.0,0.2751055359840393,-1.541701618825094,0.0,-0.022790610790252686,0.4083535671234131,-0.0,0.0019554898608475924,1.3081727027893066,4.011782039582373e-30,0.015697825700044632
250.0,359.0,-0.5994,0.0281,9.6185,-0.035,0.0247,-0.1067,-1.963876863519186,-0.0012295632623136044,3.6249327659606934,-1.6304982900619507,-3.0477853215415962e-05,1.9935047626495361,5.111763435393133,-0.0,0.2778595983982086,-1.5416739622699183,0.0,0.007748895790427923,0.4083618223667145,-0.0,-0.00022677471861243248,1.3081567287445068,9.687981189715369e-36,0.03422931954264641
250.0,359.0,-0.5994,0.0281,9.6185,-0.035,0.0247,-0.1067,-1.9638730488219203,-0.001223353436216712,3.6492533683776855,-1.6304781436920166,-1.4503196325676981e-05,2.002340078353882,5.11177937963561,-0.0,0.28389617800712585,-1.5416701475726526,0.0,-0.010749599896371365,0.4083859622478485,-0.0,-0.0016680234111845493,1.3081567287445068,2.339467786190282e-41,0.008895931765437126
250.0,359.0,-0.5994,0.0281,9.6185,-0.035,0.0247,-0.1067,-1.9638568363585414,-0.0011235347483307123,3.6398868560791016,-1.630434274673462,-1.3833559933118522e-05,1.9792442321777344,5.111759352474966,-0.00013185023271944374,0.27879300713539124,-1.5416820685016077,0.0,-0.011458474211394787,0.40844589471817017,-0.0,0.006328648421913385,1.3081084489822388,-0.000815998821053654,0.007722808048129082
250.0,359.0,-0.5994,0.0281,9.6185,-0.035,0.0247,-0.1067,-1.963888784448141,-0.0014158620033413172,3.692815065383911,-1.6304540634155273,-2.1012747097870488e-08,1.9640746116638184,5.111771303206243,-0.00012157774472143501,0.2847675383090973,-1.5416939894305628,0.0,-0.01470685750246048,0.40840572118759155,-0.0,0.007719736546278,1.3081047534942627,-0.0008674563723616302,0.05559311807155609
250.0,359.0,-0.5994,0.0281,9.6185,-0.035,0.0247,-0.1067,-1.963916917840475,-0.001939961570315063,3.6561784744262695,-1.6304455995559692,-5.074330780324883e-14,1.983912467956543,5.1117834923561,-0.00013418817252386361,0.2730375826358795,-1.5417020956622522,0.0,-0.015640929341316223,0.40842610597610474,-0.0,-0.017349358648061752,1.3081285953521729,-0.0008033201447688043,0.0006542401388287544
250.0,359.0,-0.5994,0.0281,9.6185,-0.035,0.0247,-0.1067,-1.9639331303038539,-0.0034539324697107077,3.6367063522338867,-1.6304054260253906,-1.2253910463027665e-19,1.9833483695983887,5.111751514464178,-0.00014506613661069423,0.2718657851219177,-1.5417221228228968,0.0,-0.01278566662222147,0.40838974714279175,-0.0,-0.0034712564665824175,1.30808424949646,-0.0005556538817472756,-0.012687028385698795
262.0,357.0,-0.6688,-0.1627,9.5833,-0.0449,0.029,-0.1106,-1.9639483890929164,-0.003958982415497303,3.6071267127990723,-1.6304621696472168,-2.959175767222158e-25,1.9327404499053955,5.111759680300512,-0.00015581083425786346,0.28320884704589844,-1.5416701475726526,0.0,-0.009029044769704342,0.40844589471817017,-0.0,0.0027268521953374147,1.308140754699707,-0.00042454528738744557,0.018489714711904526
262.0,357.0,-0.6688,-0.1627,9.5833,-0.0449,0.029,-0.1106,-1.9639975033202113,-0.003283208468928933,3.634864330291748,-1.630466341972351,-7.146060555541447e-31,1.9937593936920166,5.111751514464178,-0.0002576013212092221,0.27951955795288086,-1.5416982809649866,0.0,-0.00869850441813469,0.408429890871048,-0.0,0.014073812402784824,1.3081084489822388,-0.0002886239090003073,-0.046046577394008636
262.0,357.0,-0.6688,-0.1627,9.5833,-0.0449,0.029,-0.1106,-1.9640208683409632,-0.0028464102651923895,3.6631176471710205,-1.630433440208435,-1.7256894178825777e-36,2.008204460144043,5.1117518720920465,-0.0002697438176255673,0.27731868624687195,-1.5416739622699183,0.0,-0.00805727206170559,0.4084380567073822,-0.0,-0.004373593721538782,1.3081244230270386,-0.00024037623370531946,-0.023933060467243195
262.0,357.0,-0.6688,-0.1627,9.5833,-0.0449,0.029,-0.1106,-1.9640447101988734,-0.002426551189273596,3.614569664001465,-1.6304374933242798,-4.167461632902006e-42,2.0143823623657227,5.11173169591979,-0.00030908428016118705,0.28609079122543335,-1.541666332875387,0.0,-0.01551477238535881,0.40841352939605713,-0.0,-0.0026444378308951855,1.3081727027893066,-0.00016580802912358195,0.02975996397435665
262.0,357.0,-0.6688,-0.1627,9.5833,-0.0449,0.029,-0.1106,-1.9639927349486292,-0.0021127343643456697,3.691861152648926,-1.6304621696472168,-0.0,1.9983885288238525,5.111751842289724,-0.0005829384899698198,0.2610390782356262,-1.5416858831988733,0.0,-0.018649138510227203,0.4084499478340149,-0.0,0.0007529403083026409,1.3081367015838623,-0.00014562424621544778,0.02890375256538391
262.0,357.0,-0.6688,-0.1627,9.5833,-0.0449,0.029,-0.1106,-1.9640528164305628,-0.0022568292915821075,3.6748695373535156,-1.6304094791412354,-0.0,2.0063962936401367,5.111748116999426,-0.0010237855603918433,0.2635350227355957,-1.541650120412008,0.0,-0.021679047495126724,0.40843018889427185,-0.0,0.0014173013623803854,1.3081449270248413,-0.000129864172777161,0.02465328946709633
262.0,357.0,-0.6688,-0.1627,9.5833,-0.0449,0.029,-0.1106,-1.964104791680807,-0.002486351178959012,3.585315704345703,-1.6304455995559692,-0.0,2.014556407928467,5.111667471915045,-0.0012542236363515258,0.2823881506919861,-1.541689697896139,0.0,-0.019811661913990974,0.4083617627620697,-0.0,-0.0020677463617175817,1.3080923557281494,-6.243251118576154e-05,-0.008217524737119675
262.0,357.0,-0.6688,-0.1627,9.5833,-0.0449,0.029,-0.1106,-1.9640728435912074,-0.002626467263326049,3.6920673847198486,-1.630406379699707,0.0007498970371671021,1.9998795986175537,5.111655521183767,-0.0015523206675425172,0.2676869332790375,-1.5416777769671839,0.0,-0.01423892192542553,0.40838631987571716,-0.0,0.009528727270662785,1.3081326484680176,-3.1284187571145594e-05,0.032328635454177856
262.0,357.0,-0.6688,-0.1627,9.5833,-0.0449,0.029,-0.1106,-1.964092870751852,-0.0021494815591722727,3.615593671798706,-1.6303980350494385,0.00075481494423002,1.9791826009750366,5.111711758166113,-0.0017906613647937775,0.27485647797584534,-1.5417259375201624,0.0,-0.00086672801990062,0.40840598940849304,-0.0,-0.0057260203175246716,1.308140754699707,-2.8325537641649134e-05,-0.00510902376845479
262.0,357.0,-0.6688,-0.1627,9.5833,-0.0449,0.029,-0.1106,-1.9641128979124964,-0.0016583759570494294,3.6619389057159424,-1.630442500114441,0.0007811998948454857,2.004021406173706,5.1116879163082025,-0.002141842618584633,0.2687164545059204,-1.5416858831988733,0.0,-0.015802426263689995,0.4084499776363373,-0.0,-0.0013079637428745627,1.3080884218215942,-2.5881790861603804e-05,-0.022697441279888153
262.0,357.0,-0.6688,-0.1627,9.5833,-0.0449,0.029,-0.1106,-1.964104791680807,-0.00156947853974998,3.6494126319885254,-1.6304786205291748,0.0005446493742056191,2.0044987201690674,5.111623215466299,-0.004751901142299175,0.2722669243812561,-1.5416701475726526,0.0,-0.010418955236673355,0.40844589471817017,-0.0,-0.0016366541385650635,1.3081609010696411,-2.382624188612681e-05,-0.01779351569712162
262.0,357.0,-0.6688,-0.1627,9.5833,-0.0449,0.029,-0.1106,-1.9641367397704066,-0.0018488666974008083,3.6848995685577393,-1.6304259300231934,0.00041809416143223643,1.9699327945709229,5.111655968218603,-0.011732956394553185,0.27461445331573486,-1.5417426268206995,0.0,-0.021539732813835144,0.4084179699420929,-0.0,-0.007892156019806862,1.308152675628662,-1.6793443025076016e-10,-0.02864108607172966
262.0,357.0,-0.6688,-0.1627,9.5833,-0.0449,0.029,-0.1106,-1.9641357860960902,-0.0022220448590815067,3.6442110538482666,-1.6304259300231934,0.00033927170443348587,1.9749616384506226,5.11150752285079,-0.011889772489666939,0.27577611804008484,-1.5416939894305628,0.0,0.0007014968432486057,0.4084138870239258,-0.0,0.008508131839334965,1.3081326484680176,-4.055419050908219e-16,0.01502614188939333
262.0,357.0,-0.6688,-0.1627,9.5833,-0.0449,0.029,-0.1106,-1.964151998559469,-0.00214623985812068,3.633368730545044,-1.6304136514663696,0.0003330353065393865,1.969919204711914,5.111504542618551,-0.005394847132265568,0.2665039300918579,-1.5416739622699183,0.0,-0.009605751372873783,0.40844589471817017,-0.0,0.0120087293908,1.308168649673462,-9.793360029778606e-22,-0.02199576050043106
262.0,357.0,-0.6688,-0.1627,9.5833,-0.0449,0.029,-0.1106,-1.9641601047911585,-0.0019178198417648673,3.6685919761657715,-1.630429983139038,0.00028744630981236696,1.986473560333252,5.111509132176199,-0.0020423715468496084,0.2651917040348053,-1.5417183081256312,0.0,-0.011941516771912575,0.4084581136703491,-0.0,0.011885915882885456,1.3081367015838623,-2.3649809197282886e-27,-0.042714741080999374
262.0,357.0,-0.6688,-0.1627,9.5833,-0.0449,0.029,-0.1106,-1.964184900323385,-0.0018010609783232212,3.6701250076293945,-1.630406379699707,0.0002528363256715238,1.9604196548461914,5.111520993500509,-0.001099904882721603,0.2717154026031494,-1.5416978041278284,0.0,-0.01734018325805664,0.40840575098991394,-0.0,0.008620070293545723,1.3081084489822388,-5.7111506910716074e-33,-0.026671497151255608
256.0,374.0,-0.5737,0.0144,9.6844,-0.0334,0.0215,-0.1158,-1.9641596279540003,-0.0016536068869754672,3.615143299102783,-1.6303938627243042,0.00022566568804904819,2.0064773559570312,5.111492621689596,-0.0007536316988989711,0.27127698063850403,-1.5417426268206995,0.0,-0.012073559686541557,0.40843772888183594,-0.0,0.004960966296494007,1.3081326484680176,-1.379175464819289e-38,0.015764517709612846
256.0,374.0,-0.5737,0.0144,9.6844,-0.0334,0.0215,-0.1158,-1.9641882381834925,-0.001637076959013939,3.616466999053955,-1.630406379699707,0.0002037679951172322,1.9815783500671387,5.111468541413107,-0.0005733618163503706,0.2748472988605499,-1.5416820685016077,0.0,-0.013064496219158173,0.4084138870239258,-0.0,0.010462355799973011,1.3081285953521729,-3.363116314379561e-44,-0.02035306766629219
256.0,374.0,-0.5737,0.0144,9.6844,-0.0334,0.0215,-0.1158,-1.9641925297179164,-0.0015133735723793507,3.6414246559143066,-1.6304301023483276,0.00018574451678432524,1.9382619857788086,5.11149679401473,-0.00046273565385490656,0.2733646333217621,-1.5416577498065394,0.0,-0.011418212205171585,0.4084618091583252,-0.0,0.018274763599038124,1.308148980140686,0.0,0.030281271785497665
256.0,374.0,-0.5737,0.0144,9.6844,-0.0334,0.0215,-0.1158,-1.9641839466490687,-0.001957015600055456,3.5897631645202637,-1.6304218769073486,0.00017065049905795604,1.9870773553848267,5.111492621689596,-0.0003879101714119315,0.277026504278183,-1.5416978041278284,0.0,-0.011727011762559414,0.40842580795288086,-0.0,0.008647827431559563,1.308092474937439,0.0,-0.012431508861482143
256.0,374.0,-0.5737,0.0144,9.6844,-0.0334,0.0215,-0.1158,-1.9642564258971156,-0.001725263544358313,3.633791446685791,-1.6303857564926147,0.0001578253140905872,1.9796593189239502,5.111480462342062,-0.0003339220420457423,0.27134573459625244,-1.5416939894305628,0.0,-0.022602565586566925,0.4084019958972931,-0.0,0.022146262228488922,1.3081047534942627,0.0,0.03385905921459198
256.0,374.0,-0.5737,0.0144,9.6844,-0.0334,0.0215,-0.1158,-1.964212556878561,-0.001604342251084745,3.634288787841797,-1.6304423809051514,0.00017176152323372662,1.9893481731414795,5.1114521501357935,-0.0003055716515518725,0.2756827175617218,-1.5417059103595179,0.0,-0.020971721038222313,0.40842175483703613,-0.0,0.017368614673614502,1.3081047534942627,-0.000247920019319281,0.05381324887275696
256.0,374.0,-0.5737,0.0144,9.6844,-0.0334,0.0215,-0.1158,-1.96427645305776,-0.0011969479965046048,3.6108012199401855,-1.6304465532302856,0.00010948375711450353,2.026055335998535,5.111460792809286,-0.00017512161866761744,0.26332196593284607,-1.5417140165912073,0.0,-0.0140736885368824,0.4083695113658905,-0.0,0.01875423453748226,1.308088779449463,-0.0007825948414392769,0.06974407285451889
256.0,374.0,-0.5737,0.0144,9.6844,-0.0334,0.0215,-0.1158,-1.964280744592184,-0.0009606678504496813,3.6093595027923584,-1.630406379699707,0.00014253614062909037,2.009375810623169,5.111488538771429,-0.0001566286664456129,0.27452826499938965,-1.5417502562152308,0.0,-0.023717455565929413,0.40836960077285767,-0.0,0.016964677721261978,1.3081094026565552,-0.0012164724757894874,0.08758877962827682
256.0,374.0,-0.5737,0.0144,9.6844,-0.0334,0.0215,-0.1158,-1.9642282925047816,-0.0007201399421319366,3.6246352195739746,-1.6304259300231934,0.0008078336250036955,1.979083776473999,5.111500847130575,-0.00017014850163832307,0.2636106610298157,-1.5416658560382288,0.0,-0.013378183357417583,0.40840598940849304,-0.0,0.029689792543649673,1.3080687522888184,-0.0015617434401065111,0.08057741820812225
256.0,374.0,-0.5737,0.0144,9.6844,-0.0334,0.0215,-0.1158,-1.9642440281310023,-0.0006010200013406575,3.6235032081604004,-1.6303534507751465,0.0014613366220146418,1.992737054824829,5.1115168807800195,-0.00015548052033409476,0.253991961479187,-1.541689697896139,0.0,-0.03998879715800285,0.40839383006095886,-0.0,0.030403057113289833,1.3081094026565552,-0.001576953916810453,0.05641844496130943
256.0,374.0,-0.5737,0.0144,9.6844,-0.0334,0.0215,-0.1158,-1.964264532128805,-0.0005340345087461174,3.6218786239624023,-1.6303492784500122,0.002145102946087718,2.002424716949463,5.111423927336492,-0.0001431174314348027,0.258777916431427,-1.541689697896139,0.0,-0.01627628691494465,0.4084540903568268,-0.0,0.024409987032413483,1.3080083131790161,-0.0014571907231584191,0.0607464425265789
256.0,374.0,-0.5737,0.0144,9.6844,-0.0334,0.0215,-0.1158,-1.964264532128805,-0.000454421533504501,3.5943732261657715,-1.6303379535675049,0.002508003730326891,1.9835067987442017,5.111468541413107,-0.00015462140436284244,0.25892022252082825,-1.5416777769671839,0.0,-0.022642815485596657,0.4084179699420929,-0.0,0.021967755630612373,1.308032512664795,-0.0014858439099043608,0.08075403422117233
256.0,374.0,-0.5737,0.0144,9.6844,-0.0334,0.0215,-0.1158,-1.9643203220763148,-0.0005045572761446238,3.6176578998565674,-1.6303740739822388,0.0032617044635117054,1.9984500408172607,5.111420261650839,-0.00016193630290217698,0.26469123363494873,-1.541689697896139,0.0,-0.026958541944622993,0.40848228335380554,-0.0,0.02296599932014942,1.30804443359375,-0.0017659527948126197,0.03879828006029129
256.0,374.0,-0.5737,0.0144,9.6844,-0.0334,0.0215,-0.1158,-1.964231630364889,-0.0007381303003057837,3.6081910133361816,-1.6303781270980835,0.0038929516449570656,2.0126588344573975,5.111468541413107,-0.00018315183115191758,0.26813557744026184,-1.5417020956622522,0.0,-0.017466802150011063,0.4084663391113281,-0.0,0.02353222295641899,1.3080205917358398,-0.002023260109126568,0.04713572934269905
256.0,374.0,-0.5737,0.0144,9.6844,-0.0334,0.0215,-0.1158,-1.9642683468260707,-0.0010145476553589106,3.617893934249878,-1.6303383111953735,0.004303025547415018,1.9849847555160522,5.11149280050353,-0.00017175097309518605,0.2713436484336853,-1.5417102018939417,0.0,-0.012892961502075195,0.4084618091583252,-0.0,0.03112400695681572,1.3079723119735718,-0.0024825732689350843,0.04729083180427551
260.0,374.0,-0.6556,0.3673,9.7466,-0.0151,0.0333,-0.1225,-1.9642964802184046,-0.0011957620736211538,3.626760482788086,-1.6302658319473267,0.004113511182367802,2.0329065322875977,5.111428457289495,-0.0001849084219429642,0.2630932927131653,-1.5416620413409632,0.0,-0.023702066391706467,0.4084339737892151,-0.0,0.012045001611113548,1.3079886436462402,-0.0025885216891765594,0.06326903402805328
260.0,374.0,-0.6556,0.3673,9.7466,-0.0151,0.0333,-0.1225,-1.9642602405943812,-0.0012397307436913252,3.6004533767700195,-1.6302822828292847,0.004248033743351698,1.9994909763336182,5.1114525375659845,-0.0001676962710916996,0.2656165361404419,-1.5416620413409632,0.0,0.0008323122747242451,0.4084581136703491,-0.0,0.020942294970154762,1.3080170154571533,-0.0023260745219886303,0.0062305205501616
260.0,374.0,-0.6556,0.3673,9.7466,-0.0151,0.0333,-0.1225,-1.9642802677550257,-0.0009896578267216682,3.6239256858825684,-1.6302063465118408,0.00450916588306427,2.017577648162842,5.111456620484152,-0.00015340321988333017,0.27805614471435547,-1.5416901747332972,0.0,-0.01647215150296688,0.4084857404232025,-0.0,0.02291262336075306,1.3079242706298828,-0.0017649587243795395,-0.026326563209295273
260.0,374.0,-0.6556,0.3673,9.7466,-0.0151,0.0333,-0.1225,-1.9642802677550257,-0.0007475159363821149,3.612049102783203,-1.6301825046539307,0.0057051824405789375,2.0158302783966064,5.111480849772253,-0.00014135567471385002,0.2667838931083679,-1.5416620413409632,0.0,-0.024695616215467453,0.40837785601615906,-0.0,0.020428745076060295,1.3079087734222412,-0.0012244940735399723,0.04946549981832504
260.0,374.0,-0.6556,0.3673,9.7466,-0.0151,0.0333,-0.1225,-1.9642883739867152,-0.0006723044207319617,3.6222803592681885,-1.630174160003662,0.006480459589511156,2.007441997528076,5.111420202046194,-0.00013432280684355646,0.2738574147224426,-1.5416901747332972,0.0,-0.022929970175027847,0.40845373272895813,-0.0,0.02436690591275692,1.3079042434692383,-0.0007842683116905391,0.046842388808727264
260.0,374.0,-0.6556,0.3673,9.7466,-0.0151,0.0333,-0.1225,-1.9642969570555628,-0.0005962286959402263,3.6207618713378906,-1.6300939321517944,0.006865556351840496,1.9988517761230469,5.111448454647817,-0.0001458032347727567,0.2627566456794739,-1.5416539351092737,0.0,-0.010920794680714607,0.40842580795288086,-0.0,0.018585484474897385,1.3079767227172852,-0.000617682293523103,0.03549248352646828
260.0,374.0,-0.6556,0.3673,9.7466,-0.0151,0.0333,-0.1225,-1.9643570385374964,-0.0006600180640816689,3.6101913452148438,-1.6300984621047974,0.0071218255907297134,2.002387523651123,5.11143251040534,-0.00015328018344007432,0.2695661187171936,-1.5416696707354944,0.0,-0.025702953338623047,0.40838557481765747,-0.0,0.022045902907848358,1.3079001903533936,-0.00045982757001183927,0.04382510483264923
260.0,374.0,-0.6556,0.3673,9.7466,-0.0151,0.0333,-0.1225,-1.9643002949156703,-0.0015785059658810496,3.643756866455078,-1.6300543546676636,0.006661700550466776,2.031022310256958,5.111436235695638,-0.00014633491809945554,0.25215351581573486,-1.5416777769671839,0.0,-0.021798957139253616,0.4084581136703491,-0.0,0.025680098682641983,1.3079689741134644,-0.0003662414092104882,0.08340369164943695
260.0,374.0,-0.6556,0.3673,9.7466,-0.0151,0.0333,-0.1225,-1.9643565617003382,-0.0021682570222765207,3.6038804054260254,-1.630018711090088,0.006807329133152962,1.9990230798721313,5.111488657980718,-0.0001532917085569352,0.2657938003540039,-1.5417140165912073,0.0,-0.02647443115711212,0.40844181180000305,-0.0,0.02558639645576477,1.3079689741134644,-0.00030431346385739744,0.07641053944826126
260.0,374.0,-0.6556,0.3673,9.7466,-0.0151,0.0333,-0.1225,-1.9643846950926722,-0.003229744965210557,3.588747978210449,-1.6299099922180176,0.006527249235659838,1.9766027927398682,5.111404168396749,-0.00016692205099388957,0.25920096039772034,-1.5416582266436976,0.0,-0.03035704232752323,0.40836596488952637,-0.0,0.023521998897194862,1.3079607486724854,-0.00026030122535303235,0.07039938867092133
260.0,374.0,-0.6556,0.3673,9.7466,-0.0151,0.0333,-0.1225,-1.9643885097899378,-0.003866958199068904,3.5567758083343506,-1.629962682723999,0.005573172587901354,2.057450294494629,5.111428457289495,-0.0001782227191142738,0.2737085521221161,-1.5416777769671839,0.0,-0.03351496532559395,0.40843358635902405,-0.0,0.02144790254533291,1.307956337928772,-0.0002274121216032654,0.08632513880729675
260.0,374.0,-0.6556,0.3673,9.7466,-0.0151,0.0333,-0.1225,-1.964384218255514,-0.00423588277772069,3.605436325073242,-1.6298458576202393,0.005268448032438755,1.998081922531128,5.111420142441549,-0.00018802229897119105,0.27445322275161743,-1.5416701475726526,0.0,-0.024472061544656754,0.40842580795288086,-0.0,0.023122183978557587,1.3079767227172852,-0.00020190274517517537,0.0773453563451767
260.0,374.0,-0.6556,0.3673,9.7466,-0.0151,0.0333,-0.1225,-1.9644361935057582,-0.004451910965144634,3.6191153526306152,-1.6298701763153076,0.005029739812016487,2.0333404541015625,5.1114485440547845,-0.0003481855383142829,0.2655341327190399,-1.541650120412008,0.0,-0.03163731098175049,0.4084499180316925,-0.0,0.03318287432193756,1.307973027229309,-0.00018153894052375108,0.1273588091135025
260.0,374.0,-0.6556,0.3673,9.7466,-0.0151,0.0333,-0.1225,-1.964480539361471,-0.004899351391941309,3.5566654205322266,-1.6297898292541504,0.004938004072755575,1.9929741621017456,5.111440646439352,-0.0003398600092623383,0.26838648319244385,-1.5416901747332972,0.0,-0.027484672144055367,0.4083499014377594,-0.0,0.020917579531669617,1.3079689741134644,-0.00016490687266923487,0.07201546430587769
260.0,374.0,-0.6556,0.3673,9.7466,-0.0151,0.0333,-0.1225,-1.9644924602904261,-0.005021857563406229,3.5939650535583496,-1.6297701597213745,0.004703851416707039,1.9611973762512207,5.111493247538366,-0.00035762469633482397,0.2652922570705414,-1.5416539351092737,0.0,-0.035008564591407776,0.4083975553512573,-0.0,0.02472520060837269,1.307964563369751,-0.00015106680803000927,0.10338759422302246
264.0,364.0,-0.5904,-0.207,9.4582,-0.0412,0.0319,-0.1235,-1.964515825311178,-0.006184519734233618,3.5877928733825684,-1.6297504901885986,0.004149416461586952,2.004014492034912,5.111432540207662,-0.0005109610501676798,0.2665446102619171,-1.541638199483053,0.0,-0.04219868406653404,0.408429890871048,-0.0,0.027452923357486725,1.3079770803451538,-0.0001393698767060414,0.11613497138023376
264.0,364.0,-0.5904,-0.207,9.4582,-0.0412,0.0319,-0.1235,-1.9645806751646937,-0.007262231316417456,3.605276584625244,-1.629725456237793,0.00416242191568017,2.0053837299346924,5.111424612789907,-0.0007196222431957722,0.2704741358757019,-1.541633431111471,0.0,-0.03640181943774223,0.4084138572216034,-0.0,0.016077004373073578,1.3079726696014404,-0.00012935423001181334,0.05674721300601959
264.0,364.0,-0.5904,-0.207,9.4582,-0.0412,0.0319,-0.1235,-1.9645759067931117,-0.00809385720640421,3.5875864028930664,-1.629690408706665,0.0034712364431470633,2.0258629322052,5.111413079291143,-0.0006955254357308149,0.2692241072654724,-1.5416982809649866,0.0,-0.04972601309418678,0.4084458649158478,-0.0,0.029962070286273956,1.308000922203064,-0.00012068149953847751,0.11860430240631104
264.0,364.0,-0.5904,-0.207,9.4582,-0.0412,0.0319,-0.1235,-1.964668413201803,-0.008897203020751476,3.531919479370117,-1.6296738386154175,0.003506369423121214,2.010812997817993,5.111428814917364,-0.0005957370158284903,0.2752125859260559,-1.541666332875387,0.0,-0.040375202894210815,0.4084339737892151,-0.0,0.02314220927655697,1.3079689741134644,-0.00011309888941468671,0.09780450165271759
264.0,364.0,-0.5904,-0.207,9.4582,-0.0412,0.0319,-0.1235,-1.9646474323668421,-0.009386606514453888,3.5943939685821533,-1.6296820640563965,0.003636076347902417,2.0055899620056152,5.111400860338964,-0.0005187191418372095,0.2655900716781616,-1.5416620413409632,0.0,-0.05301386117935181,0.40838974714279175,-0.0,0.04618288204073906,1.3079243898391724,-0.00010855180880753323,0.12116455286741257
264.0,364.0,-0.5904,-0.207,9.4582,-0.0412,0.0319,-0.1235,-1.9647962055602015,-0.010075513273477554,3.546387195587158,-1.6296541690826416,0.0036746375262737274,1.9914101362228394,5.111428814917364,-0.00039383681723847985,0.26996931433677673,-1.5416777769671839,0.0,-0.04133787006139755,0.40850988030433655,-0.0,0.027387909591197968,1.3079243898391724,-0.00010237786773359403,0.06829041242599487
264.0,364.0,-0.5904,-0.207,9.4582,-0.0412,0.0319,-0.1235,-1.9648195705809535,-0.010972885414958,3.569784164428711,-1.629630208015442,0.003270350396633148,2.056154727935791,5.111392605095663,-0.0003093972336500883,0.2725036144256592,-1.5416701475726526,0.0,-0.035341374576091766,0.40840575098991394,-0.0,0.025820134207606316,1.307928442955017,-9.68683889368549e-05,0.057351239025592804
264.0,364.0,-0.5904,-0.207,9.4582,-0.0412,0.0319,-0.1235,-1.9648996792235316,-0.011887784115970135,3.569674015045166,-1.6296422481536865,0.00306671648286283,2.0120363235473633,5.11142464259223,-0.0003072812396567315,0.26341307163238525,-1.5417102018939417,0.0,-0.05813879519701004,0.4084581434726715,-0.0,0.035200003534555435,1.3079566955566406,-9.192161087412387e-05,0.09525984525680542
264.0,364.0,-0.5904,-0.207,9.4582,-0.0412,0.0319,-0.1235,-1.9649559460081996,-0.012759614735841751,3.5599052906036377,-1.629594087600708,0.0027802346739917994,1.983897089958191,5.111408936768331,-0.00026281041209585965,0.2665785551071167,-1.5416982809649866,0.0,-0.05247434601187706,0.40840572118759155,-0.0,0.017331840470433235,1.3079890012741089,-8.745549712330103e-05,0.11577293276786804
264.0,364.0,-0.5904,-0.207,9.4582,-0.0412,0.0319,-0.1235,-1.9650594196715296,-0.013687566854059696,3.602686882019043,-1.6295939683914185,0.0025935231242328882,1.991650104522705,5.111396777420797,-0.00026752767735160887,0.2693318724632263,-1.5417020956622522,0.0,-0.049401089549064636,0.40837743878364563,-0.0,0.018034804612398148,1.3078923225402832,-8.340323984157294e-05,0.10875798761844635
264.0,364.0,-0.5904,-0.207,9.4582,-0.0412,0.0319,-0.1235,-1.965123792687887,-0.014038083143532276,3.591966152191162,-1.6295902729034424,0.0026411046274006367,2.0059096813201904,5.111408936768331,-0.0002708955726120621,0.2654229998588562,-1.5417020956622522,0.0,-0.045313142240047455,0.40840157866477966,-0.0,0.025285135954618454,1.307936668395996,-7.971000741235912e-05,0.0516631156206131
264.0,364.0,-0.5904,-0.207,9.4582,-0.0412,0.0319,-0.1235,-1.9652110538878382,-0.014715723693370819,3.574730634689331,-1.6295504570007324,0.0024734744802117348,1.9754602909088135,5.111376601248541,-0.00024207786191254854,0.27969011664390564,-1.5416458288775843,0.0,-0.05007830262184143,0.40844589471817017,-0.0,0.01774902082979679,1.3079206943511963,-7.632989581907168e-05,0.05216795578598976
264.0,364.0,-0.5904,-0.207,9.4582,-0.0412,0.0319,-0.1235,-1.965323110620016,-0.014787220396101475,3.557044744491577,-1.6295504570007324,0.0021636539604514837,1.9988162517547607,5.111340600043096,-0.00024874674272723496,0.280939519405365,-1.5416777769671839,0.0,-0.04802267998456955,0.4084618091583252,-0.0,0.024665359407663345,1.3079087734222412,-7.322478631976992e-05,0.047177813947200775
264.0,364.0,-0.5904,-0.207,9.4582,-0.0412,0.0319,-0.1235,-1.9654232464232386,-0.0146187087520957,3.5374794006347656,-1.6295545101165771,0.0019749554339796305,2.0361788272857666,5.111388939410009,-0.00025378476129844785,0.26619628071784973,-1.5416820685016077,0.0,-0.04209756478667259,0.40842947363853455,-0.0,0.01374879851937294,1.3079845905303955,-7.036251918179914e-05,0.015238437801599503
264.0,364.0,-0.5904,-0.207,9.4582,-0.0412,0.0319,-0.1235,-1.9654623470702113,-0.013395926915109158,3.581206798553467,-1.629522442817688,0.0019067005487158895,1.9939396381378174,5.111364769726553,-0.0002443818375468254,0.27718138694763184,-1.541666332875387,0.0,-0.061066463589668274,0.4084499776363373,-0.0,0.019737325608730316,1.3079886436462402,-7.51483894418925e-05,0.07450306415557861
264.0,364.0,-0.5904,-0.207,9.4582,-0.0412,0.0319,-0.1235,-1.9655538998045863,-0.012831026688218117,3.5423169136047363,-1.6295101642608643,0.0018247108673676848,2.0640106201171875,5.111356931715765,-0.00023627100745216012,0.25504904985427856,-1.5416539351092737,0.0,-0.05034041404724121,0.40840980410575867,-0.0,0.03448651358485222,1.3079686164855957,-7.613719935761765e-05,0.06833203136920929
257.0,366.0,-0.6012,0.012,9.3165,-0.0394,0.0229,-0.1272,-1.9656783543028773,-0.012074421159923077,3.526373863220215,-1.629514217376709,0.0015311946626752615,1.9995702505111694,5.111408996372976,-0.00032261479645967484,0.26070159673690796,-1.5416820685016077,0.0,-0.0500703901052475,0.4084741473197937,-0.0,0.026178132742643356,1.3079973459243774,-7.347344217123464e-05,0.006548624485731125
257.0,366.0,-0.6012,0.012,9.3165,-0.0394,0.0229,-0.1272,-1.9657184086241664,-0.010947510600090027,3.5439836978912354,-1.6295183897018433,0.0014843989629298449,2.0579419136047363,5.111388939410009,-0.00034786140895448625,0.26893121004104614,-1.5416539351092737,0.0,-0.04574905335903168,0.40840572118759155,-0.0,0.02654855325818062,1.3079770803451538,-7.09897794877179e-05,0.11092251539230347
257.0,366.0,-0.6012,0.012,9.3165,-0.0394,0.0229,-0.1272,-1.96574129680776,-0.010088030248880386,3.569406032562256,-1.629542589187622,0.0014076628722250462,2.032097101211548,5.1113971946533105,-0.0003369598416611552,0.2707836627960205,-1.541706387196676,0.0,-0.03576813265681267,0.4084741175174713,-0.0,0.02399612031877041,1.3079726696014404,-6.942517939023674e-05,0.07790574431419373
257.0,366.0,-0.6012,0.012,9.3165,-0.0394,0.0229,-0.1272,-1.965818544427389,-0.008770545944571495,3.5337162017822266,-1.6294583082199097,0.0013806443894281983,2.022451639175415,5.111356931715765,-0.00040986292879097164,0.2706243395805359,-1.5417102018939417,0.0,-0.05570286512374878,0.4084581434726715,-0.0,0.03835611790418625,1.3079206943511963,-1.6765362709225684e-10,0.03985556215047836
257.0,366.0,-0.6012,0.012,9.3165,-0.0394,0.0229,-0.1272,-1.9658986530699671,-0.007087870500981808,3.529938220977783,-1.6294665336608887,0.0015530126402154565,2.029010534286499,5.1113605974014185,-0.00038224170566536486,0.27542248368263245,-1.5416658560382288,0.0,-0.05078267678618431,0.40843769907951355,-0.0,0.02915692701935768,1.307924747467041,-4.04863775807206e-16,0.09363605827093124
257.0,366.0,-0.6012,0.012,9.3165,-0.0394,0.0229,-0.1272,-1.9659182033934535,-0.005478262435644865,3.5459513664245605,-1.6294333934783936,0.0016699788393452764,2.019944906234741,5.111380773573675,-0.00031833307002671063,0.25521206855773926,-1.541689697896139,0.0,-0.05715346336364746,0.40842583775520325,-0.0,0.030306359753012657,1.307924747467041,-9.776984034692686e-22,0.048009827733039856
257.0,366.0,-0.6012,0.012,9.3165,-0.0394,0.0229,-0.1272,-1.9659015140929164,-0.004200502764433622,3.5896494388580322,-1.6294221878051758,0.0021195292938500643,2.0089399814605713,5.111352848797598,-0.00031514422153122723,0.2698538303375244,-1.5416777769671839,0.0,-0.04986661672592163,0.40844589471817017,-0.0,0.03767372667789459,1.3079288005828857,-2.897408313273786e-09,0.09966324269771576
257.0,366.0,-0.6012,0.012,9.3165,-0.0394,0.0229,-0.1272,-1.9659868679442347,-0.0033976733684539795,3.5815863609313965,-1.6294385194778442,0.002041693776845932,2.0414581298828125,5.111372935562887,-0.0002743273216765374,0.26838284730911255,-1.5416820685016077,0.0,-0.0571625791490078,0.4084095060825348,2.695944623098967e-08,0.05112454295158386,1.3078923225402832,-6.996900837717571e-15,0.06445160508155823
257.0,366.0,-0.6012,0.012,9.3165,-0.0394,0.0229,-0.1272,-1.965921541253561,-0.0020480435341596603,3.575571060180664,-1.6294426918029785,0.002323390915989876,2.0069003105163574,5.111413228302755,-0.0002772052539512515,0.26754143834114075,-1.5416620413409632,0.0,-0.056738972663879395,0.4083978831768036,7.504261101409782e-12,0.04633165895938873,1.3079770803451538,-0.0007436597370542586,0.05203138291835785
257.0,366.0,-0.6012,0.012,9.3165,-0.0394,0.0229,-0.1272,-1.9659577808775843,-0.0013405326753854752,3.554513692855835,-1.6294385194778442,0.002522698836401105,2.0221314430236816,5.111388939410009,-0.00024856519303284585,0.2693568170070648,-1.541678253804342,0.0,-0.05008738487958908,0.40840980410575867,2.088838516828913e-15,0.030365686863660812,1.30793297290802,-0.0011270347749814391,0.06877518445253372
257.0,366.0,-0.6012,0.012,9.3165,-0.0394,0.0229,-0.1272,-1.9659134350218714,-0.0011261305771768093,3.565216541290283,-1.629390001296997,0.00255288346670568,2.0181050300598145,5.111369269877233,-0.00022523476218339056,0.2748825252056122,-1.5416701475726526,0.0,-0.06712499260902405,0.40840157866477966,5.814359025139098e-19,0.03173866122961044,1.307912826538086,-0.001602194388397038,-0.01214477140456438
257.0,366.0,-0.6012,0.012,9.3165,-0.0394,0.0229,-0.1272,-1.966001649896139,-0.0006662344676442444,3.597586154937744,-1.629414677619934,0.003043324686586857,2.0418701171875,5.11133240440444,-0.00020590874191839248,0.2693176567554474,-1.5416982809649866,0.0,-0.06471995264291763,0.40843355655670166,1.6184481115148153e-22,0.030456261709332466,1.3078765869140625,-0.0027547802310436964,0.011719594709575176
257.0,366.0,-0.6012,0.012,9.3165,-0.0394,0.0229,-0.1272,-1.965945383111471,-0.000553387391846627,3.5775411128997803,-1.629338264465332,0.0030890307389199734,1.9591867923736572,5.111361014633932,-0.0001896379835670814,0.2567668855190277,-1.5416620413409632,0.0,-0.045392051339149475,0.40846219658851624,4.5050102175014347e-26,0.02204515039920807,1.3078323602676392,-0.0035242668818682432,-0.01214458979666233
257.0,366.0,-0.6012,0.012,9.3165,-0.0394,0.0229,-0.1272,-1.9659177265562953,-0.0004908046103082597,3.559854030609131,-1.6293339729309082,0.0038728760555386543,2.0411767959594727,5.111377018481054,-0.000175750014022924,0.27033036947250366,-1.5416582266436976,0.0,-0.04834848642349243,0.40842580795288086,1.2539861523272585e-29,0.022496074438095093,1.3078283071517944,-0.003988102078437805,-0.024984071031212807
257.0,366.0,-0.6012,0.012,9.3165,-0.0394,0.0229,-0.1272,-1.9659739933409632,-0.0003997492021881044,3.585582733154297,-1.629310131072998,0.004360056482255459,2.0021309852600098,5.111388939410009,-0.00016375775157939643,0.27809643745422363,-1.5416939894305628,0.0,-0.05099349468946457,0.40846219658851624,3.4905169660935315e-33,0.017970606684684753,1.3078328371047974,-0.0037740522529929876,-0.018573854118585587
267.0,400.0,-0.5145,0.149,9.9667,-0.0376,0.0179,-0.12,-1.965945383111471,-0.00037807837361469865,3.5928895473480225,-1.6293022632598877,0.005241382867097855,2.032378911972046,5.111404883652487,-0.00011937113595195115,0.2670838236808777,-1.5416863600360315,0.0,-0.04594797268509865,0.4084581136703491,9.71598025407135e-37,0.0326925627887249,1.3078045845031738,-0.003964643459767103,-0.05704308673739433
