ramyac6/ROB537/final_project/csv/good/good_74.csv
tof_0,tof_1,accelx,accely,accelz,gyrox,gyroy,gyroz,shoulder_lift_joint_position,shoulder_lift_joint_velocity,shoulder_lift_joint_effort,elbow_joint_position,elbow_joint_velocity,elbow_joint_effort,wrist_1_joint_position,wrist_1_joint_velocity,wrist_1_joint_effort,wrist_2_joint_position,wrist_2_joint_velocity,wrist_2_joint_effort,wrist_3_joint_position,wrist_3_joint_velocity,wrist_3_joint_effort,shoulder_pan_joint_position,shoulder_pan_joint_velocity,shoulder_pan_joint_effort
159.0,218.0,2.2798,-0.7741,9.1472,-0.0299,0.0218,-0.1187,-1.8099523983397425,0.0,3.208223819732666,-1.6002120971679688,-0.0,2.101243257522583,4.661266966457031,0.0,0.2917137145996094,-1.6524017492877405,-0.0,-0.00029843824449926615,1.2541723251342773,0.0,0.004516721703112125,0.8401577472686768,0.0,-0.03912731260061264
159.0,218.0,2.2798,-0.7741,9.1472,-0.0299,0.0218,-0.1187,-1.809916158715719,0.0,3.182990074157715,-1.6002039909362793,-0.0,2.1492137908935547,4.661218805904053,0.0,0.29260990023612976,-1.6524341742144983,-0.0,-0.007889088243246078,1.2541682720184326,0.0,0.0009126213262788951,0.8401618003845215,0.0,-0.04566226899623871
159.0,218.0,2.2798,-0.7741,9.1472,-0.0299,0.0218,-0.1187,-1.8098918400206507,0.0,3.131471872329712,-1.6002442836761475,-0.0,2.100654363632202,4.661278887385986,0.0,0.29099854826927185,-1.6524017492877405,-0.0,0.00931533332914114,1.2541804313659668,0.0,-0.009445786476135254,0.8401538133621216,0.0,-0.034635767340660095
159.0,218.0,2.2798,-0.7741,9.1472,-0.0299,0.0218,-0.1187,-1.8099404774107875,0.0,3.103632926940918,-1.600204348564148,-0.0,2.1135621070861816,4.661239309901855,0.0,0.30532145500183105,-1.652421776448385,-0.0,0.004167892970144749,1.2541682720184326,0.0,-0.013995730318129063,0.8401577472686768,0.0,0.010006513446569443
159.0,218.0,2.2798,-0.7741,9.1472,-0.0299,0.0218,-0.1187,-1.809904237786764,0.0,3.162595748901367,-1.6001839637756348,-0.0,2.133894443511963,4.661286993617676,0.0,0.2978367209434509,-1.6524055639850062,-0.0,0.0006020809523761272,1.2541804313659668,0.0,-0.007167039904743433,0.8401537537574768,0.0,-0.003661644645035267
159.0,218.0,2.2798,-0.7741,9.1472,-0.0299,0.0218,-0.1187,-1.8099285564818324,0.0,3.1392934322357178,-1.6001635789871216,-0.0,2.1388399600982666,4.661278887385986,0.0,0.29390835762023926,-1.6523731390582483,-0.0,-0.0029880141373723745,1.2541530132293701,0.0,-0.008535794913768768,0.8401538133621216,0.0,0.02619524486362934
159.0,218.0,2.2798,-0.7741,9.1472,-0.0299,0.0218,-0.1187,-1.809888025323385,0.0,3.178502082824707,-1.6001880168914795,-0.0,2.1343469619750977,4.661278887385986,0.0,0.300981342792511,-1.6523974577533167,-0.0,0.0065317219123244286,1.2541961669921875,0.0,-0.004771473351866007,0.8401377201080322,0.0,-0.004681407008320093
159.0,218.0,2.2798,-0.7741,9.1472,-0.0299,0.0218,-0.1187,-1.809916158715719,0.0,3.106727123260498,-1.6002241373062134,-0.0,2.112706184387207,4.661262674922607,0.0,0.29978910088539124,-1.6524141470538538,-0.0,0.012271726503968239,1.2541481256484985,0.0,-0.012348790653049946,0.840185821056366,0.0,-0.010538107715547085
164.0,214.0,2.345,-0.7747,9.1436,-0.0325,0.0269,-0.1206,-1.8098918400206507,0.0,3.1736903190612793,-1.6002039909362793,-0.0,2.1286916732788086,4.661206884975098,0.0,0.29353153705596924,-1.6523736158954065,-0.0,0.005086850840598345,1.2542004585266113,0.0,-0.00047010602429509163,0.8401778340339661,0.0,0.022938905283808708
164.0,214.0,2.345,-0.7747,9.1436,-0.0325,0.0269,-0.1206,-1.8099247417845667,0.0,3.1673691272735596,-1.6002241373062134,-0.0,2.146843910217285,4.6612464624592285,0.0,0.29389631748199463,-1.65240985551943,-0.0,-0.0017194144893437624,1.254212498664856,0.0,-0.006414582021534443,0.8401296734809875,0.0,-0.014581631869077682
164.0,214.0,2.345,-0.7747,9.1436,-0.0325,0.0269,-0.1206,-1.8098350963988246,0.0,3.1317639350891113,-1.6002120971679688,-0.0,2.1252281665802,4.661250753993652,0.0,0.3125935196876526,-1.6523974577533167,-0.0,0.0020458963699638844,1.2541409730911255,0.0,-0.00931963138282299,0.8401657938957214,0.0,-0.03442882373929024
164.0,214.0,2.345,-0.7747,9.1436,-0.0325,0.0269,-0.1206,-1.8099123440184535,0.0,3.1672067642211914,-1.6001760959625244,-0.0,2.1456592082977295,4.661243124599121,0.0,0.30084434151649475,-1.6523779074298304,-0.0,0.007577074225991964,1.2541964054107666,0.0,-0.01181541197001934,0.8401137590408325,0.0,0.033661630004644394
164.0,214.0,2.345,-0.7747,9.1436,-0.0325,0.0269,-0.1206,-1.8099037609496058,0.0,3.1915388107299805,-1.6001957654953003,-0.0,2.136167526245117,4.6612583833881835,0.0,0.29283368587493896,-1.6523898283587855,-0.0,0.004397104028612375,1.2541964054107666,0.0,-0.0015595180448144674,0.8401738405227661,0.0,-0.04668424651026726
164.0,214.0,2.345,-0.7747,9.1436,-0.0325,0.0269,-0.1206,-1.8098918400206507,0.0,3.157733678817749,-1.6002120971679688,-0.0,2.132362127304077,4.661214514369629,0.0,0.30423882603645325,-1.6524260679828089,-0.0,0.004594055935740471,1.2541683912277222,0.0,0.0004466264508664608,0.8401738405227661,0.0,0.04286153241991997
164.0,214.0,2.345,-0.7747,9.1436,-0.0325,0.0269,-0.1206,-1.8098679981627406,0.0,3.172720432281494,-1.6001920700073242,-0.0,2.1757194995880127,4.661294623012207,0.0,0.30730968713760376,-1.6524017492877405,-0.0,0.002560187131166458,1.254164457321167,0.0,-0.0012017299886792898,0.8401337265968323,0.0,-0.016447599977254868
164.0,214.0,2.345,-0.7747,9.1436,-0.0325,0.0269,-0.1206,-1.8099366627135218,0.0,3.1656274795532227,-1.6001513004302979,-0.0,2.148775100708008,4.661210699672363,0.0,0.29249072074890137,-1.6523974577533167,-0.0,-0.0015507437055930495,1.2541494369506836,0.0,0.001661658170633018,0.8401618003845215,0.0,0.0329604372382164
164.0,214.0,2.345,-0.7747,9.1436,-0.0325,0.0269,-0.1206,-1.809932371179098,0.0,3.1437392234802246,-1.6002120971679688,-0.0,2.138305187225342,4.661235018367432,0.0,0.2955661714076996,-1.6523492972003382,-0.0,0.009868720546364784,1.254212498664856,0.0,-0.007494143210351467,0.8401939272880554,0.0,0.029961463063955307
164.0,214.0,2.345,-0.7747,9.1436,-0.0325,0.0269,-0.1206,-1.8098918400206507,0.0,3.1187186241149902,-1.6002039909362793,-0.0,2.1603450775146484,4.661278887385986,0.0,0.2988659739494324,-1.652353588734762,-0.0,-0.00838728342205286,1.2541964054107666,0.0,0.00471469247713685,0.8401256799697876,0.0,-0.02606818452477455
164.0,214.0,2.345,-0.7747,9.1436,-0.0325,0.0269,-0.1206,-1.809888025323385,0.0,3.111649990081787,-1.600196123123169,-0.0,2.110933303833008,4.661254568690918,0.0,0.30666810274124146,-1.6523812452899378,-0.0,0.01113656722009182,1.2541522979736328,0.0,0.010231266729533672,0.8401137590408325,0.0,0.009677017107605934
164.0,214.0,2.345,-0.7747,9.1436,-0.0325,0.0269,-0.1206,-1.8099123440184535,0.0,3.172463893890381,-1.6001760959625244,-0.0,2.151362180709839,4.661266966457031,0.0,0.30405375361442566,-1.65240985551943,-0.0,-0.0031001288443803787,1.2542444467544556,0.0,0.001927448669448495,0.8401898145675659,0.0,-0.0031429233495146036
164.0,214.0,2.345,-0.7747,9.1436,-0.0325,0.0269,-0.1206,-1.809916158715719,0.0,3.175506591796875,-1.6001760959625244,-0.0,2.166348934173584,4.661243124599121,0.0,0.2988470196723938,-1.6524017492877405,-0.0,0.01585383526980877,1.2541723251342773,0.0,-0.001382057904265821,0.8401497602462769,0.0,-0.01708555966615677
164.0,214.0,2.345,-0.7747,9.1436,-0.0325,0.0269,-0.1206,-1.809904237786764,0.0,3.1825976371765137,-1.6001999378204346,-0.0,2.141225576400757,4.661250753993652,0.0,0.30280107259750366,-1.6523774305926722,-0.0,-0.0015277399215847254,1.2541522979736328,0.0,-0.0023020622320473194,0.8401416540145874,0.0,0.02605229988694191
164.0,214.0,2.345,-0.7747,9.1436,-0.0325,0.0269,-0.1206,-1.8099328480162562,0.0,3.154911518096924,-1.600219964981079,-0.0,2.1590914726257324,4.661294623012207,0.0,0.299858421087265,-1.6523855368243616,-0.0,-0.004248321987688541,1.25424063205719,0.0,-0.013140003196895123,0.8401337265968323,0.0,-0.021224940195679665
163.0,220.0,2.3366,-0.8231,9.0814,-0.0322,0.0273,-0.1174,-1.8099647961058558,0.0,3.1219639778137207,-1.6001677513122559,-0.0,2.1046295166015625,4.661286993617676,0.0,0.3047420382499695,-1.6523893515216272,-0.0,0.0016273987712338567,1.254164457321167,0.0,0.008851674385368824,0.840181827545166,0.0,-0.005627527832984924
163.0,220.0,2.3366,-0.8231,9.0814,-0.0322,0.0273,-0.1174,-1.8099285564818324,0.0,3.145864963531494,-1.6002360582351685,-0.0,2.1264216899871826,4.661270781154297,0.0,0.29870539903640747,-1.6523492972003382,-0.0,-0.005158348474651575,1.2541884183883667,0.0,0.0019027921371161938,0.8401417136192322,0.0,-0.009812116622924805
163.0,220.0,2.3366,-0.8231,9.0814,-0.0322,0.0273,-0.1174,-1.8099247417845667,0.0,3.1975631713867188,-1.6001920700073242,-0.0,2.145249605178833,4.6612464624592285,0.0,0.3040241301059723,-1.6523974577533167,-0.0,-0.005733063444495201,1.2541563510894775,0.0,-0.0014689613599330187,0.8401216864585876,0.0,-0.03934758901596069
163.0,220.0,2.3366,-0.8231,9.0814,-0.0322,0.0273,-0.1174,-1.8098918400206507,0.0,3.1539502143859863,-1.600208044052124,-0.0,2.162937879562378,4.661254568690918,0.0,0.30155396461486816,-1.6524179617511194,-0.0,0.01910797692835331,1.2541842460632324,0.0,-0.010275710374116898,0.8401537537574768,0.0,0.002940494567155838
163.0,220.0,2.3366,-0.8231,9.0814,-0.0322,0.0273,-0.1174,-1.8098956547179164,0.0,3.1612818241119385,-1.600208044052124,-0.0,2.1303937435150146,4.661298914546631,0.0,0.3031054437160492,-1.6523974577533167,-0.0,0.0038421452045440674,1.254184365272522,0.0,-0.008108936250209808,0.8401697874069214,0.0,-0.03600436821579933
163.0,220.0,2.3366,-0.8231,9.0814,-0.0322,0.0273,-0.1174,-1.8098799190916957,0.0,3.192922592163086,-1.6002320051193237,-0.0,2.110854387283325,4.661310835475586,0.0,0.30495595932006836,-1.6523931662188929,-0.0,0.0005999675486236811,1.2541884183883667,0.0,0.013729224912822247,0.8401578068733215,0.0,-0.009389580227434635
163.0,220.0,2.3366,-0.8231,9.0814,-0.0322,0.0273,-0.1174,-1.8098837337889613,0.0,3.1612396240234375,-1.6001999378204346,-0.0,2.142477035522461,4.661263151759766,0.0,0.29782208800315857,-1.6523779074298304,-0.0,0.008147800341248512,1.2541522979736328,0.0,-0.009635988622903824,0.8401858806610107,0.0,0.005411447025835514
163.0,220.0,2.3366,-0.8231,9.0814,-0.0322,0.0273,-0.1174,-1.809944292108053,0.0,3.1487479209899902,-1.6001595258712769,-0.0,2.1183102130889893,4.661235018367432,0.0,0.28864219784736633,-1.6524260679828089,-0.0,0.009324274957180023,1.2542202472686768,0.0,-0.004983074031770229,0.8401136994361877,0.0,0.0227233674377203
163.0,220.0,2.3366,-0.8231,9.0814,-0.0322,0.0273,-0.1174,-1.8098918400206507,0.0,3.166815996170044,-1.6001635789871216,-0.0,2.1328461170196533,4.661250753993652,0.0,0.29168209433555603,-1.652365509663717,-0.0,0.0016128725837916136,1.2541767358779907,0.0,-0.0011422419920563698,0.8401537537574768,0.0,-0.021059412509202957
163.0,220.0,2.3366,-0.8231,9.0814,-0.0322,0.0273,-0.1174,-1.8098961315550746,0.0,3.1910159587860107,-1.6001920700073242,-0.0,2.1373417377471924,4.661266966457031,0.0,0.3060287535190582,-1.6524017492877405,-0.0,0.005877111107110977,1.254212498664856,0.0,-0.005424695089459419,0.8401377201080322,0.0,-0.04784085601568222
163.0,220.0,2.3366,-0.8231,9.0814,-0.0322,0.0273,-0.1174,-1.8099447689452113,0.0,3.170177459716797,-1.6001797914505005,-0.0,2.1151318550109863,4.661322756404541,0.0,0.30424633622169495,-1.6523574034320276,-0.0,0.008398240432143211,1.2542204856872559,0.0,0.0007101986557245255,0.8401538133621216,0.0,-0.05552477389574051
163.0,220.0,2.3366,-0.8231,9.0814,-0.0322,0.0273,-0.1174,-1.8099328480162562,0.0,3.1560440063476562,-1.60014808177948,-0.0,2.167346954345703,4.661275072688721,0.0,0.28856563568115234,-1.6524141470538538,-0.0,0.004006360657513142,1.254232406616211,0.0,-0.004015984944999218,0.8401698470115662,0.0,-0.020818514749407768
163.0,220.0,2.3366,-0.8231,9.0814,-0.0322,0.0273,-0.1174,-1.8098918400206507,0.0,3.147965669631958,-1.6001720428466797,-0.0,2.1276912689208984,4.6612464624592285,0.0,0.3014894425868988,-1.6523812452899378,-0.0,0.014322547242045403,1.2541530132293701,0.0,0.00195741793140769,0.8401337265968323,0.0,-0.03584299236536026
163.0,220.0,2.3366,-0.8231,9.0814,-0.0322,0.0273,-0.1174,-1.809920450250143,0.0,3.1658248901367188,-1.6001880168914795,-0.0,2.13423490524292,4.66128317892041,0.0,0.2875942289829254,-1.6523492972003382,-0.0,0.004565433133393526,1.2541604042053223,0.0,-0.005828636232763529,0.8401497602462769,0.0,-0.015346216969192028
164.0,217.0,2.2929,-0.7214,9.14,-0.0354,0.0266,-0.1162,-1.809916158715719,0.0,3.1478819847106934,-1.6001760959625244,-0.0,2.1259090900421143,4.661266966457031,0.0,0.3013572096824646,-1.6523612181292933,-0.0,0.00732671283185482,1.2541682720184326,0.0,-0.017709780484437943,0.8401218056678772,0.0,-0.013957689516246319
164.0,217.0,2.2929,-0.7214,9.14,-0.0354,0.0266,-0.1162,-1.8099080524840296,0.0,3.16005802154541,-1.6001760959625244,-0.0,2.1584854125976562,4.661302729243896,0.0,0.29699790477752686,-1.6523850599872034,-0.0,-0.009379214607179165,1.2541409730911255,0.0,0.009507154114544392,0.8401657938957214,0.0,0.014580982737243176
164.0,217.0,2.2929,-0.7214,9.14,-0.0354,0.0266,-0.1162,-1.8099404774107875,0.0,3.15708065032959,-1.6002120971679688,-0.0,2.1036221981048584,4.661263151759766,0.0,0.29536762833595276,-1.6524017492877405,-0.0,0.0010825246572494507,1.2541683912277222,0.0,-0.0014001830713823438,0.8400776982307434,0.0,0.03170151263475418
164.0,217.0,2.2929,-0.7214,9.14,-0.0354,0.0266,-0.1162,-1.8099328480162562,0.0,3.1970291137695312,-1.6001760959625244,-0.0,2.1238646507263184,4.661243124599121,0.0,0.2983664274215698,-1.6523898283587855,-0.0,-0.007219905499368906,1.2541522979736328,0.0,-0.006583079230040312,0.8401377201080322,0.0,0.014435862191021442
164.0,217.0,2.2929,-0.7214,9.14,-0.0354,0.0266,-0.1162,-1.8098598919310511,0.0,3.1487960815429688,-1.6001554727554321,-0.0,2.127659559249878,4.661295099849365,0.0,0.29096975922584534,-1.6524017492877405,-0.0,0.016607072204351425,1.254212498664856,0.0,-0.020467665046453476,0.8401058316230774,0.0,0.009990351274609566
164.0,217.0,2.2929,-0.7214,9.14,-0.0354,0.0266,-0.1162,-1.8098956547179164,0.0,3.1787972450256348,-1.6001801490783691,-0.0,2.118136405944824,4.661263151759766,0.0,0.28016144037246704,-1.6523931662188929,-0.0,-0.0007890269625931978,1.2541123628616333,0.0,-0.008448068052530289,0.8401858806610107,0.0,-0.010379018262028694
164.0,217.0,2.2929,-0.7214,9.14,-0.0354,0.0266,-0.1162,-1.8098918400206507,0.0,3.196845531463623,-1.6002322435379028,-0.0,2.1202073097229004,4.661263151759766,0.0,0.30530211329460144,-1.6524179617511194,-0.0,0.0028954707086086273,1.254176378250122,0.0,0.002083088271319866,0.8401138782501221,0.0,-0.026458531618118286
164.0,217.0,2.2929,-0.7214,9.14,-0.0354,0.0266,-0.1162,-1.8098799190916957,0.0,3.161102771759033,-1.6001917123794556,-0.0,2.1801958084106445,4.661258860225342,0.0,0.30263686180114746,-1.6524141470538538,-0.0,0.0095538180321455,1.254164457321167,0.0,-7.278248085640371e-05,0.8401457667350769,0.0,-0.028756508603692055
164.0,217.0,2.2929,-0.7214,9.14,-0.0354,0.0266,-0.1162,-1.8099528751769007,0.0,3.126154899597168,-1.6001513004302979,-0.0,2.156493902206421,4.661250753993652,0.0,0.29935917258262634,-1.6523774305926722,-0.0,0.0010022434871643782,1.254204273223877,0.0,0.009282644838094711,0.8401377201080322,0.0,-0.014822399243712425
164.0,217.0,2.2929,-0.7214,9.14,-0.0354,0.0266,-0.1162,-1.8098961315550746,0.0,3.1181344985961914,-1.6002120971679688,-0.0,2.147827386856079,4.661242647761963,0.0,0.29836103320121765,-1.6523812452899378,-0.0,0.017766036093235016,1.2541842460632324,0.0,0.0035435401368886232,0.8401218056678772,0.0,-0.003006860613822937
164.0,217.0,2.2929,-0.7214,9.14,-0.0354,0.0266,-0.1162,-1.809888025323385,0.0,3.1800310611724854,-1.6001760959625244,-0.0,2.161945343017578,4.66128317892041,0.0,0.29279160499572754,-1.6523731390582483,-0.0,-0.005224776454269886,1.2542163133621216,0.0,0.006424892693758011,0.8401657938957214,0.0,-0.033041857182979584
164.0,217.0,2.2929,-0.7214,9.14,-0.0354,0.0266,-0.1162,-1.8099328480162562,0.0,3.1852617263793945,-1.6001843214035034,-0.0,2.1296534538269043,4.661282702083252,0.0,0.30284398794174194,-1.6523931662188929,-0.0,0.00048531743232160807,1.2541842460632324,0.0,-0.017458125948905945,0.8401137590408325,0.0,0.012856816872954369
164.0,217.0,2.2929,-0.7214,9.14,-0.0354,0.0266,-0.1162,-1.8098918400206507,0.0,3.168214797973633,-1.600196123123169,-0.0,2.131833076477051,4.661254568690918,0.0,0.30054980516433716,-1.6523736158954065,-0.0,0.010043784976005554,1.2541370391845703,0.0,-0.017254870384931564,0.8401337265968323,0.0,0.015688549727201462
164.0,217.0,2.2929,-0.7214,9.14,-0.0354,0.0266,-0.1162,-1.8099037609496058,0.0,3.1516952514648438,-1.6001797914505005,-0.0,2.1798782348632812,4.661266966457031,0.0,0.29772433638572693,-1.6524055639850062,-0.0,0.011099970899522305,1.254124402999878,0.0,-0.00852641835808754,0.8401296734809875,0.0,0.0073955780826509
164.0,217.0,2.2929,-0.7214,9.14,-0.0354,0.0266,-0.1162,-1.8099080524840296,0.0,3.1413028240203857,-1.6002322435379028,-0.0,2.1232025623321533,4.661266966457031,0.0,0.2913020849227905,-1.6524222532855433,-0.0,0.002571508754044771,1.254212498664856,0.0,0.0033626705408096313,0.8401337265968323,0.0,-0.005234455689787865
159.0,211.0,2.2487,-0.7573,9.0682,-0.0405,0.0226,-0.1274,-1.8098799190916957,0.0,3.158660888671875,-1.600196123123169,-0.0,2.1425814628601074,4.661263151759766,0.0,0.30068689584732056,-1.6523812452899378,-0.0,0.0006999634206295013,1.2541923522949219,0.0,0.00026662927120923996,0.8401497602462769,0.0,0.03094318136572838
159.0,211.0,2.2487,-0.7573,9.0682,-0.0405,0.0226,-0.1274,-1.8099123440184535,0.0,3.151200294494629,-1.6001843214035034,-0.0,2.1586060523986816,4.661243124599121,0.0,0.2978300452232361,-1.6524341742144983,-0.0,-0.00801550317555666,1.2541563510894775,0.0,-0.006855832412838936,0.8401218056678772,0.0,-0.04362975060939789
159.0,211.0,2.2487,-0.7573,9.0682,-0.0405,0.0226,-0.1274,-1.8098918400206507,0.0,3.155734062194824,-1.6002360582351685,-0.0,2.1247360706329346,4.661286993617676,0.0,0.29618939757347107,-1.6523574034320276,-0.0,0.00609462009742856,1.2541604042053223,0.0,-0.005474885925650597,0.840137779712677,0.0,-0.023201201111078262
159.0,211.0,2.2487,-0.7573,9.0682,-0.0405,0.0226,-0.1274,-1.8099004230894984,0.0,3.1230034828186035,-1.600156307220459,-0.0,2.1183247566223145,4.661250753993652,0.0,0.2963863015174866,-1.6523898283587855,-0.0,0.0052926428616046906,1.254149079322815,0.0,-0.004191632382571697,0.8401218056678772,0.0,-0.03681297227740288
159.0,211.0,2.2487,-0.7573,9.0682,-0.0405,0.0226,-0.1274,-1.8099528751769007,0.0,3.123974323272705,-1.6001880168914795,-0.0,2.1245100498199463,4.661270781154297,0.0,0.3008635938167572,-1.6524179617511194,-0.0,-0.009980008006095886,1.2541290521621704,0.0,-0.00019743711163755506,0.8401537537574768,0.0,0.01965085044503212
159.0,211.0,2.2487,-0.7573,9.0682,-0.0405,0.0226,-0.1274,-1.809920450250143,0.0,3.1839396953582764,-1.6002039909362793,-0.0,2.10526704788208,4.661270781154297,0.0,0.2999206781387329,-1.6523974577533167,-0.0,0.007603389676660299,1.254164457321167,0.0,-0.005421933252364397,0.8401377201080322,0.0,0.05430952459573746
159.0,211.0,2.2487,-0.7573,9.0682,-0.0405,0.0226,-0.1274,-1.8099328480162562,0.0,3.1670985221862793,-1.600216269493103,-0.0,2.1695504188537598,4.661238833064697,0.0,0.2862050235271454,-1.652393643056051,-0.0,0.0033070682547986507,1.2541683912277222,0.0,-0.0055970498360693455,0.8401337265968323,0.0,-0.03581137955188751
159.0,211.0,2.2487,-0.7573,9.0682,-0.0405,0.0226,-0.1274,-1.8098679981627406,0.0,3.1567254066467285,-1.600179672241211,-0.0,2.133535861968994,4.661214514369629,0.0,0.296730637550354,-1.6523574034320276,-0.0,0.00016926939133554697,1.254132866859436,0.0,-0.01477782428264618,0.8401859402656555,0.0,-0.023502804338932037
159.0,211.0,2.2487,-0.7573,9.0682,-0.0405,0.0226,-0.1274,-1.8099004230894984,0.0,3.1706137657165527,-1.6002002954483032,-0.0,2.1472811698913574,4.661282702083252,0.0,0.30010637640953064,-1.6523974577533167,-0.0,0.0013926926767453551,1.2542243003845215,0.0,0.000994416419416666,0.8401537537574768,0.0,0.035580240190029144
159.0,211.0,2.2487,-0.7573,9.0682,-0.0405,0.0226,-0.1274,-1.8099037609496058,0.0,3.1470861434936523,-1.6001440286636353,-0.0,2.164574146270752,4.661286993617676,0.0,0.30912092328071594,-1.6523974577533167,-0.0,0.00512717105448246,1.2541882991790771,0.0,-0.011975965462625027,0.8401297330856323,0.0,-0.05171708017587662
159.0,211.0,2.2487,-0.7573,9.0682,-0.0405,0.0226,-0.1274,-1.8099037609496058,0.0,3.146965503692627,-1.6002240180969238,-0.0,2.1263391971588135,4.661239309901855,0.0,0.29388076066970825,-1.6523974577533167,-0.0,-0.011432953178882599,1.254164457321167,0.0,0.004583900328725576,0.8401538133621216,0.0,-0.00802992470562458
159.0,211.0,2.2487,-0.7573,9.0682,-0.0405,0.0226,-0.1274,-1.8099037609496058,0.0,3.1824398040771484,-1.6001358032226562,-0.0,2.1373672485351562,4.661282702083252,0.0,0.29626357555389404,-1.6524055639850062,-0.0,0.0028209458105266094,1.2541927099227905,0.0,-0.010327666997909546,0.8401257991790771,0.0,-0.05352677404880524
159.0,211.0,2.2487,-0.7573,9.0682,-0.0405,0.0226,-0.1274,-1.809920450250143,0.0,3.1722044944763184,-1.6001522541046143,-0.0,2.1088860034942627,4.661263151759766,0.0,0.29306432604789734,-1.6523774305926722,-0.0,0.00771699845790863,1.254204273223877,0.0,0.01044425182044506,0.8402017951011658,0.0,-0.04556870833039284
159.0,211.0,2.2487,-0.7573,9.0682,-0.0405,0.0226,-0.1274,-1.8098918400206507,0.0,3.1886816024780273,-1.600228190422058,-0.0,2.150373697280884,4.661282702083252,0.0,0.31603437662124634,-1.6523411909686487,-0.0,-0.004583404399454594,1.2541923522949219,0.0,-0.0054835001938045025,0.8401457667350769,0.0,-0.00753720523789525
159.0,211.0,2.2487,-0.7573,9.0682,-0.0405,0.0226,-0.1274,-1.809916158715719,0.0,3.1059041023254395,-1.6001839637756348,-0.0,2.1467366218566895,4.661235018367432,0.0,0.3033026158809662,-1.6524141470538538,-0.0,-0.00046313880011439323,1.2541964054107666,0.0,-0.00950210727751255,0.8401337265968323,0.0,-0.013877700082957745
159.0,209.0,2.3204,-0.7896,8.9719,-0.0359,0.0252,-0.1213,-1.809920450250143,0.0,3.187770366668701,-1.6001880168914795,-0.0,2.1571414470672607,4.661243124599121,0.0,0.29565638303756714,-1.6523736158954065,-0.0,0.004127608146518469,1.254204273223877,0.0,0.006115277763456106,0.8401936888694763,0.0,0.029583187773823738
159.0,209.0,2.3204,-0.7896,8.9719,-0.0359,0.0252,-0.1213,-1.8098961315550746,0.0,3.1732192039489746,-1.6001880168914795,-0.0,2.133361339569092,4.661250753993652,0.0,0.3077690303325653,-1.6523774305926722,-0.0,-0.005958493798971176,1.2541964054107666,0.0,0.0038634571246802807,0.8401336669921875,0.0,0.023998498916625977
159.0,209.0,2.3204,-0.7896,8.9719,-0.0359,0.0252,-0.1213,-1.809888025323385,0.0,3.107466220855713,-1.6001595258712769,-0.0,2.1266119480133057,4.661270781154297,0.0,0.3117865324020386,-1.6523292700396937,-0.0,0.004455565940588713,1.2542202472686768,0.0,0.0007913794834166765,0.8401417136192322,0.0,-0.005879112984985113
159.0,209.0,2.3204,-0.7896,8.9719,-0.0359,0.0252,-0.1213,-1.809888025323385,0.0,3.1665749549865723,-1.6001760959625244,-0.0,2.150564670562744,4.6612583833881835,0.0,0.2885887026786804,-1.6523893515216272,-0.0,-0.00785010028630495,1.254164457321167,0.0,0.0036094910465180874,0.8401178121566772,0.0,0.009974224492907524
159.0,209.0,2.3204,-0.7896,8.9719,-0.0359,0.0252,-0.1213,-1.8098918400206507,0.0,3.125241756439209,-1.6001275777816772,-0.0,2.154973030090332,4.661250753993652,0.0,0.2992558479309082,-1.6524222532855433,-0.0,-0.0009511089301668108,1.2541842460632324,0.0,0.0071495333686470985,0.8401417136192322,0.0,0.00988322589546442
159.0,209.0,2.3204,-0.7896,8.9719,-0.0359,0.0252,-0.1213,-1.8098837337889613,0.0,3.1758344173431396,-1.600252628326416,-0.0,2.161104440689087,4.661231203670166,0.0,0.2873707711696625,-1.6523812452899378,-0.0,0.009790417738258839,1.254212498664856,0.0,0.0063296169973909855,0.8401296734809875,0.0,-0.01160755567252636
159.0,209.0,2.3204,-0.7896,8.9719,-0.0359,0.0252,-0.1213,-1.8099123440184535,0.0,3.165031909942627,-1.6001999378204346,-0.0,2.125344753265381,4.661266966457031,0.0,0.28713396191596985,-1.6524422804461878,-0.0,-0.007101793773472309,1.2541165351867676,0.0,0.003968232776969671,0.8401457667350769,0.0,0.02425316721200943
159.0,209.0,2.3204,-0.7896,8.9719,-0.0359,0.0252,-0.1213,-1.8099080524840296,0.0,3.1459248065948486,-1.6001677513122559,-0.0,2.1509509086608887,4.661286993617676,0.0,0.2952573001384735,-1.6524179617511194,-0.0,0.008472293615341187,1.2541522979736328,0.0,-0.007790307514369488,0.8401097655296326,0.0,-0.021067118272185326
159.0,209.0,2.3204,-0.7896,8.9719,-0.0359,0.0252,-0.1213,-1.8099285564818324,0.0,3.1524977684020996,-1.6001880168914795,-0.0,2.177783966064453,4.661295099849365,0.0,0.3026171326637268,-1.6523974577533167,-0.0,-0.00677780294790864,1.254148244857788,0.0,-0.02275722101330757,0.8401818871498108,0.0,-0.0075475238263607025
159.0,209.0,2.3204,-0.7896,8.9719,-0.0359,0.0252,-0.1213,-1.809916158715719,0.0,3.10874080657959,-1.6002360582351685,-0.0,2.135504722595215,4.661302729243896,0.0,0.30543193221092224,-1.6524017492877405,-0.0,0.001020749332383275,1.2541804313659668,0.0,-0.005108013283461332,0.8401697874069214,0.0,-0.014081219211220741
159.0,209.0,2.3204,-0.7896,8.9719,-0.0359,0.0252,-0.1213,-1.8098799190916957,0.0,3.1662302017211914,-1.6001801490783691,-0.0,2.165398120880127,4.6612273889729,0.0,0.2972913980484009,-1.6524055639850062,-0.0,-0.0013701613061130047,1.2542083263397217,0.0,-0.004878129344433546,0.8401618003845215,0.0,-0.009277749806642532
159.0,209.0,2.3204,-0.7896,8.9719,-0.0359,0.0252,-0.1213,-1.8099080524840296,0.0,3.100438117980957,-1.6001635789871216,-0.0,2.1437668800354004,4.661266966457031,0.0,0.30000805854797363,-1.6524222532855433,-0.0,0.005018659867346287,1.2541604042053223,0.0,-0.012795697897672653,0.8401097655296326,0.0,-0.012351302430033684
159.0,209.0,2.3204,-0.7896,8.9719,-0.0359,0.0252,-0.1213,-1.80987610439443,0.0,3.129998207092285,-1.6001759767532349,-0.0,2.165707588195801,4.6612230974384765,0.0,0.295698344707489,-1.6524260679828089,-0.0,-0.001787367626093328,1.2541450262069702,0.0,-0.0014370910357683897,0.8401657938957214,0.0,0.001772240735590458
159.0,209.0,2.3204,-0.7896,8.9719,-0.0359,0.0252,-0.1213,-1.8099123440184535,0.0,3.1966888904571533,-1.600219964981079,-0.0,2.1085991859436035,4.661263151759766,0.0,0.2969072461128235,-1.65240985551943,-0.0,0.017159827053546906,1.2541804313659668,0.0,0.002624870976433158,0.8401538133621216,0.0,0.01110045239329338
160.0,222.0,2.348,-0.7657,9.1011,-0.0301,0.0197,-0.1148,-1.8098842106261195,0.0,3.154181957244873,-1.6002320051193237,-0.0,2.147312641143799,4.661290808314941,0.0,0.30285006761550903,-1.6524298826800745,-0.0,0.0092677753418684,1.254187822341919,0.0,-0.005653637461364269,0.8401537537574768,0.0,0.03648526966571808
160.0,222.0,2.348,-0.7657,9.1011,-0.0301,0.0197,-0.1148,-1.8098799190916957,0.0,3.1609015464782715,-1.6001638174057007,-0.0,2.1772258281707764,4.661263151759766,0.0,0.29093241691589355,-1.6523774305926722,-0.0,0.0023669018410146236,1.254212498664856,0.0,0.0016951416619122028,0.8401859402656555,0.0,-0.038654252886772156
160.0,222.0,2.348,-0.7657,9.1011,-0.0301,0.0197,-0.1148,-1.8098956547179164,0.0,3.1201014518737793,-1.6002117395401,-0.0,2.1404242515563965,4.661275072688721,0.0,0.3010481595993042,-1.6523931662188929,-0.0,0.009799167513847351,1.2541640996932983,0.0,0.004426161292940378,0.8401337265968323,0.0,-0.06866159290075302
160.0,222.0,2.348,-0.7657,9.1011,-0.0301,0.0197,-0.1148,-1.8099123440184535,0.0,3.166548252105713,-1.6001760959625244,-0.0,2.1117019653320312,4.661278887385986,0.0,0.2956181764602661,-1.6523812452899378,-0.0,-0.0011488294694572687,1.2541450262069702,0.0,-0.015332518145442009,0.8401457667350769,0.0,-0.06628463417291641
160.0,222.0,2.348,-0.7657,9.1011,-0.0301,0.0197,-0.1148,-1.8098842106261195,0.0,3.1600770950317383,-1.6001843214035034,-0.0,2.124682903289795,4.661230726833008,0.0,0.290170818567276,-1.6523736158954065,-0.0,0.003511220682412386,1.2542083263397217,0.0,-0.00454241456463933,0.8401377201080322,0.0,-0.05225375294685364
160.0,222.0,2.348,-0.7657,9.1011,-0.0301,0.0197,-0.1148,-1.809916158715719,0.0,3.1196179389953613,-1.6002322435379028,-0.0,2.1384568214416504,4.661286993617676,0.0,0.30340486764907837,-1.6523931662188929,-0.0,0.016923077404499054,1.2541842460632324,0.0,0.002099056961014867,0.8401337265968323,0.0,-0.004053933080285788
160.0,222.0,2.348,-0.7657,9.1011,-0.0301,0.0197,-0.1148,-1.8099123440184535,0.0,3.1615772247314453,-1.600179672241211,-0.0,2.166095495223999,4.661286993617676,0.0,0.3050197958946228,-1.652393643056051,-0.0,0.007846232503652573,1.254176378250122,0.0,0.0008523054420948029,0.8401577472686768,0.0,0.01225206907838583
160.0,222.0,2.348,-0.7657,9.1011,-0.0301,0.0197,-0.1148,-1.8099404774107875,0.0,3.1817257404327393,-1.6001838445663452,-0.0,2.1124484539031982,4.6612273889729,0.0,0.2986692190170288,-1.6523974577533167,-0.0,0.004178037866950035,1.2542043924331665,0.0,-0.004968482069671154,0.8401538133621216,0.0,0.0030668536201119423
160.0,222.0,2.348,-0.7657,9.1011,-0.0301,0.0197,-0.1148,-1.8098556003966273,0.0,3.187934398651123,-1.600216031074524,-0.0,2.1247048377990723,4.661242647761963,0.0,0.3014928102493286,-1.6524542013751429,-0.0,-0.010222767479717731,1.254204273223877,0.0,0.006497235037386417,0.8401497602462769,0.0,-0.025557834655046463
160.0,222.0,2.348,-0.7657,9.1011,-0.0301,0.0197,-0.1148,-1.8099247417845667,0.0,3.1624021530151367,-1.6001595258712769,-0.0,2.1553986072540283,4.661302729243896,0.0,0.29853928089141846,-1.6523931662188929,-0.0,0.01588611677289009,1.2541923522949219,0.0,0.004649967886507511,0.8401497602462769,0.0,0.022335167974233627
160.0,222.0,2.348,-0.7657,9.1011,-0.0301,0.0197,-0.1148,-1.8099037609496058,0.0,3.189070224761963,-1.60014808177948,-0.0,2.13824200630188,4.6612583833881835,0.0,0.29734957218170166,-1.6523812452899378,-0.0,-0.0019998319912701845,1.2541882991790771,0.0,-0.005336688831448555,0.8401256799697876,0.0,0.0017071283655241132
160.0,222.0,2.348,-0.7657,9.1011,-0.0301,0.0197,-0.1148,-1.8099328480162562,0.0,3.170058488845825,-1.6001838445663452,-0.0,2.1300389766693115,4.661302729243896,0.0,0.2978073060512543,-1.6524141470538538,-0.0,-0.0031783701851963997,1.2542083263397217,0.0,-0.018502045422792435,0.8401417136192322,0.0,0.01542208343744278
160.0,222.0,2.348,-0.7657,9.1011,-0.0301,0.0197,-0.1148,-1.8099404774107875,0.0,3.123873233795166,-1.6002120971679688,-0.0,2.1354787349700928,4.661242647761963,0.0,0.30138203501701355,-1.6524055639850062,-0.0,0.01277623139321804,1.2541723251342773,0.0,0.005363308824598789,0.840121865272522,0.0,-0.006235768087208271
160.0,222.0,2.348,-0.7657,9.1011,-0.0301,0.0197,-0.1148,-1.8099247417845667,0.0,3.1370153427124023,-1.6001880168914795,-0.0,2.1478922367095947,4.661254568690918,0.0,0.29648852348327637,-1.6523974577533167,-0.0,-0.008497748523950577,1.254176378250122,0.0,-0.011407675221562386,0.8401337265968323,0.0,-0.014484044164419174
160.0,222.0,2.348,-0.7657,9.1011,-0.0301,0.0197,-0.1148,-1.8099080524840296,0.0,3.1320629119873047,-1.600219964981079,-0.0,2.13224720954895,4.6612464624592285,0.0,0.29013553261756897,-1.6524222532855433,-0.0,0.007258369121700525,1.254204273223877,0.0,-0.006306648254394531,0.8401457071304321,0.0,0.01110113225877285
158.0,216.0,2.3366,-0.6598,8.9916,-0.0328,0.0284,-0.1208,-1.809892316857809,0.0,3.1932406425476074,-1.6001760959625244,-0.0,2.118454933166504,4.661295099849365,0.0,0.3031266927719116,-1.6523893515216272,-0.0,-0.006770703010261059,1.2541481256484985,0.0,-0.012218841351568699,0.8401417136192322,0.0,0.03211747482419014
158.0,216.0,2.3366,-0.6598,8.9916,-0.0328,0.0284,-0.1208,-1.8099037609496058,0.0,3.1854610443115234,-1.600208044052124,-0.0,2.1232852935791016,4.661235018367432,0.0,0.2916940748691559,-1.6523974577533167,-0.0,0.0028560920618474483,1.2541249990463257,0.0,0.0032412998843938112,0.8401137590408325,0.0,-0.005985970143228769
158.0,216.0,2.3366,-0.6598,8.9916,-0.0328,0.0284,-0.1208,-1.8099247417845667,0.0,3.1030454635620117,-1.6001801490783691,-0.0,2.1492202281951904,4.661254568690918,0.0,0.30960893630981445,-1.6523855368243616,-0.0,-0.0098320497199893,1.2541530132293701,0.0,-0.00036268794792704284,0.8401618003845215,0.0,-0.030850812792778015
158.0,216.0,2.3366,-0.6598,8.9916,-0.0328,0.0284,-0.1208,-1.8099037609496058,0.0,3.1462674140930176,-1.600196123123169,-0.0,2.163120746612549,4.661222620601318,0.0,0.29609328508377075,-1.6523855368243616,-0.0,0.003548663342371583,1.254176378250122,0.0,0.0028178344946354628,0.8401457667350769,0.0,-0.049776751548051834
158.0,216.0,2.3366,-0.6598,8.9916,-0.0328,0.0284,-0.1208,-1.8099247417845667,0.0,3.140288829803467,-1.6002002954483032,-0.0,2.09340500831604,4.6612273889729,0.0,0.30413949489593506,-1.6524179617511194,-0.0,0.012156377546489239,1.2541760206222534,0.0,-0.0011978927068412304,0.840137779712677,0.0,0.02289808727800846
158.0,216.0,2.3366,-0.6598,8.9916,-0.0328,0.0284,-0.1208,-1.8099123440184535,0.0,3.081998825073242,-1.6002237796783447,-0.0,2.1250834465026855,4.661263151759766,0.0,0.2927837669849396,-1.6524179617511194,-0.0,0.002520404290407896,1.2541767358779907,0.0,0.005119790323078632,0.8401497602462769,0.0,-0.026058310642838478
158.0,216.0,2.3366,-0.6598,8.9916,-0.0328,0.0284,-0.1208,-1.8098918400206507,0.0,3.1929092407226562,-1.6002649068832397,-0.0,2.1214730739593506,4.661222620601318,0.0,0.3090050518512726,-1.6523774305926722,-0.0,-9.566778317093849e-05,1.25413978099823,0.0,0.0074198306538164616,0.8401818871498108,0.0,0.04412795230746269
158.0,216.0,2.3366,-0.6598,8.9916,-0.0328,0.0284,-0.1208,-1.8099123440184535,0.0,3.1737024784088135,-1.600219964981079,-0.0,2.137897253036499,4.661286993617676,0.0,0.30234968662261963,-1.6523736158954065,-0.0,-0.004402986261993647,1.2541682720184326,0.0,-0.002605389803647995,0.8401218056678772,0.0,0.002978747710585594
158.0,216.0,2.3366,-0.6598,8.9916,-0.0328,0.0284,-0.1208,-1.8098799190916957,0.0,3.1392030715942383,-1.6002240180969238,-0.0,2.1602442264556885,4.661218805904053,0.0,0.2990940809249878,-1.65240985551943,-0.0,0.01069362461566925,1.2541723251342773,0.0,-0.005075417459011078,0.8401337265968323,0.0,0.053165074437856674
158.0,216.0,2.3366,-0.6598,8.9916,-0.0328,0.0284,-0.1208,-1.8099004230894984,0.0,3.165660858154297,-1.600167989730835,-0.0,2.122154712677002,4.661255045528076,0.0,0.30427002906799316,-1.65240985551943,-0.0,0.011787816882133484,1.254164457321167,0.0,-0.0030716238543391228,0.8401657938957214,0.0,-0.008958918042480946
158.0,216.0,2.3366,-0.6598,8.9916,-0.0328,0.0284,-0.1208,-1.8098918400206507,0.0,3.1686716079711914,-1.600219964981079,-0.0,2.137338399887085,4.661239309901855,0.0,0.28802621364593506,-1.6523974577533167,-0.0,0.020124588161706924,1.254164457321167,0.0,-0.008877196349203587,0.8401577472686768,0.0,0.0208840761333704
158.0,216.0,2.3366,-0.6598,8.9916,-0.0328,0.0284,-0.1208,-1.809904237786764,0.0,3.157686710357666,-1.6001595258712769,-0.0,2.158694267272949,4.661250753993652,0.0,0.305475115776062,-1.6523974577533167,-0.0,-0.003914964385330677,1.2541521787643433,0.0,-0.0035675938706845045,0.8401738405227661,0.0,0.04156351834535599
158.0,216.0,2.3366,-0.6598,8.9916,-0.0328,0.0284,-0.1208,-1.8099247417845667,0.0,3.1902098655700684,-1.6001839637756348,-0.0,2.117124557495117,4.661290808314941,0.0,0.3011254668235779,-1.6523774305926722,-0.0,0.018289700150489807,1.2541842460632324,0.0,-0.0019070582929998636,0.8401738405227661,0.0,0.002326821908354759
158.0,216.0,2.3366,-0.6598,8.9916,-0.0328,0.0284,-0.1208,-1.8099123440184535,0.0,3.1648313999176025,-1.6001760959625244,-0.0,2.140719413757324,4.661246939296387,0.0,0.29203295707702637,-1.6524055639850062,-0.0,-0.007849449291825294,1.2541683912277222,0.0,-0.0018241318175569177,0.8401176929473877,0.0,0.016688209027051926
158.0,216.0,2.3366,-0.6598,8.9916,-0.0328,0.0284,-0.1208,-1.8099080524840296,0.0,3.0978238582611084,-1.6002240180969238,-0.0,2.1621763706207275,4.661242647761963,0.0,0.2982298731803894,-1.6523974577533167,-0.0,0.00495298532769084,1.2541923522949219,0.0,-0.010743282735347748,0.840121865272522,0.0,8.251075632870197e-05
162.0,217.0,2.3151,-0.7825,9.012,-0.04,0.0197,-0.129,-1.8099080524840296,0.0,3.1442151069641113,-1.6001880168914795,-0.0,2.104949474334717,4.661294623012207,0.0,0.3041861057281494,-1.6524303595172327,-0.0,0.0014725513756275177,1.2542083263397217,0.0,0.003758434671908617,0.840137779712677,0.0,0.004315938334912062
162.0,217.0,2.3151,-0.7825,9.012,-0.04,0.0197,-0.129,-1.809916158715719,0.0,3.1516151428222656,-1.6002607345581055,-0.0,2.170483350753784,4.661295099849365,0.0,0.2965773642063141,-1.6523855368243616,-0.0,0.004034015815705061,1.2542085647583008,0.0,-0.005126127507537603,0.8401377201080322,0.0,-0.006645845249295235
162.0,217.0,2.3151,-0.7825,9.012,-0.04,0.0197,-0.129,-1.8098718128600062,0.0,3.1516671180725098,-1.600219964981079,-0.0,2.0925259590148926,4.661286993617676,0.0,0.30043911933898926,-1.6524179617511194,-0.0,-0.003942867740988731,1.254212498664856,0.0,0.0053730313666164875,0.8401377201080322,0.0,0.01856875978410244
162.0,217.0,2.3151,-0.7825,9.012,-0.04,0.0197,-0.129,-1.8099409542479457,0.0,3.152308464050293,-1.6001880168914795,-0.0,2.125154733657837,4.661250753993652,0.0,0.29770344495773315,-1.6524055639850062,-0.0,0.01724124327301979,1.2541964054107666,0.0,-0.00010620884131640196,0.8401777744293213,0.0,0.0026418128982186317
162.0,217.0,2.3151,-0.7825,9.012,-0.04,0.0197,-0.129,-1.80987610439443,0.0,3.136138439178467,-1.6001920700073242,-0.0,2.1390223503112793,4.661254568690918,0.0,0.29231101274490356,-1.652365509663717,-0.0,-0.0016521195648238063,1.254187822341919,0.0,-0.00033066485775634646,0.8401218056678772,0.0,0.031283289194107056
162.0,217.0,2.3151,-0.7825,9.012,-0.04,0.0197,-0.129,-1.8098598919310511,0.0,3.1452226638793945,-1.6002039909362793,1.131671112375443e-08,2.0949084758758545,4.661266966457031,0.0,0.2958584129810333,-1.6524179617511194,-0.0,-0.004071618430316448,1.2541245222091675,0.0,-0.008408521302044392,0.8401618003845215,0.0,-0.01461249403655529
162.0,217.0,2.3151,-0.7825,9.012,-0.04,0.0197,-0.129,-1.80993713955068,0.0,3.1981399059295654,-1.60014808177948,2.732852193241403e-14,2.14048171043396,4.661218805904053,0.0,0.294759601354599,-1.6524341742144983,-0.0,0.003916843328624964,1.2542043924331665,0.0,0.00492654787376523,0.8401657938957214,0.0,0.006421239580959082
162.0,217.0,2.3151,-0.7825,9.012,-0.04,0.0197,-0.129,-1.8098679981627406,0.0,3.125493049621582,-1.6001880168914795,8.854094020843942e-22,2.124357223510742,4.661239309901855,0.0,0.3042648732662201,-1.6523779074298304,-0.0,-0.010470620356500149,1.254164457321167,0.0,-0.0047517456114292145,0.8401376605033875,0.0,-0.026167772710323334
162.0,217.0,2.3151,-0.7825,9.012,-0.04,0.0197,-0.129,-1.8098961315550746,0.0,3.133277654647827,-1.6002120971679688,2.138159913131926e-27,2.119904041290283,4.66130702077832,0.0,0.3016192615032196,-1.6523812452899378,-0.0,-0.01276169903576374,1.2541923522949219,0.0,-0.0032635359093546867,0.8401538729667664,0.0,-0.005307373590767384
162.0,217.0,2.3151,-0.7825,9.012,-0.04,0.0197,-0.129,-1.8098961315550746,0.0,3.1552205085754395,-1.600216269493103,5.163404486392992e-33,2.1139004230499268,4.6613146501728515,0.0,0.29662877321243286,-1.6523893515216272,-0.0,0.004817913752049208,1.2542163133621216,0.0,-0.009180033579468727,0.8401417136192322,0.0,-0.019120192155241966
162.0,217.0,2.3151,-0.7825,9.012,-0.04,0.0197,-0.129,-1.809904237786764,0.0,3.1791582107543945,-1.6002002954483032,1.2469014377076587e-38,2.1201729774475098,4.661254568690918,0.0,0.3056119978427887,-1.6523931662188929,-0.0,0.00347353657707572,1.254204273223877,0.0,-0.008627674542367458,0.8401657938957214,-2.225558404234107e-07,-0.004820439964532852
162.0,217.0,2.3151,-0.7825,9.012,-0.04,0.0197,-0.129,-1.8098961315550746,0.0,3.113217353820801,-1.6002002954483032,2.942726775082116e-44,2.117504596710205,4.661290808314941,0.0,0.28620100021362305,-1.652437988911764,-0.0,0.0009530389797873795,1.2541723251342773,0.0,-0.003111297730356455,0.8401778936386108,-5.37446172635403e-13,0.015974171459674835
162.0,217.0,2.3151,-0.7825,9.012,-0.04,0.0197,-0.129,-1.809916158715719,0.0,3.1774532794952393,-1.6002084016799927,-0.0,2.135127544403076,4.661235018367432,0.0,0.3075006306171417,-1.6523812452899378,-0.0,-0.0015423862496390939,1.2541842460632324,0.0,0.000769458245486021,0.8401738405227661,-1.2978692319601222e-18,-0.019002504646778107
162.0,217.0,2.3151,-0.7825,9.012,-0.04,0.0197,-0.129,-1.8099004230894984,0.0,3.1890134811401367,-1.6001920700073242,-0.0,2.13692045211792,4.661286993617676,0.0,0.30379411578178406,-1.6524017492877405,-0.0,0.0026723421178758144,1.2542002201080322,0.0,-0.007094177417457104,0.8401417136192322,-3.1342009772130295e-24,-0.021330837160348892
162.0,217.0,2.3151,-0.7825,9.012,-0.04,0.0197,-0.129,-1.8098598919310511,0.0,3.1426684856414795,-1.6002159118652344,-0.0,2.132317304611206,4.661263151759766,0.0,0.299621045589447,-1.65240985551943,-0.0,0.0016316990368068218,1.254164457321167,0.0,-0.004898493178188801,0.8401497602462769,-7.56872563014232e-30,-0.025760147720575333
160.0,217.0,2.391,-0.6491,9.1585,-0.0505,0.0211,-0.1243,-1.8099328480162562,0.0,3.182682514190674,-1.6001554727554321,-0.0,2.1161203384399414,4.661270781154297,0.0,0.3079119026660919,-1.6524017492877405,-0.0,0.014070743694901466,1.2541884183883667,0.0,-0.003450480755418539,0.8401137590408325,-1.827758258171824e-35,-0.03591981530189514
160.0,217.0,2.391,-0.6491,9.1585,-0.0505,0.0211,-0.1243,-1.8099328480162562,0.0,3.155418872833252,-1.6001920700073242,-0.0,2.149441719055176,4.661238356227539,0.0,0.29346662759780884,-1.6524055639850062,-0.0,0.006159846670925617,1.2541369199752808,0.0,-0.011081903241574764,0.840137779712677,-4.413809902930309e-41,0.0246295053511858
160.0,217.0,2.391,-0.6491,9.1585,-0.0505,0.0211,-0.1243,-1.8098842106261195,0.0,3.179438591003418,-1.6001801490783691,-0.0,2.0858895778656006,4.661239309901855,0.0,0.3114824593067169,-1.6523931662188929,-0.0,-0.0012092913966625929,1.2541804313659668,0.0,0.00032238694257102907,0.8401578068733215,-0.0,-0.0006280019879341125
160.0,217.0,2.391,-0.6491,9.1585,-0.0505,0.0211,-0.1243,-1.8098842106261195,0.0,3.149339199066162,-1.6002002954483032,-0.0,2.113295555114746,4.661290808314941,0.0,0.29306560754776,-1.652365509663717,-0.0,-0.00997923780232668,1.2542002201080322,0.0,-0.0069815609604120255,0.8401937484741211,0.0,0.035990938544273376
160.0,217.0,2.391,-0.6491,9.1585,-0.0505,0.0211,-0.1243,-1.809864183465475,0.0,3.1419198513031006,-1.600156307220459,-0.0,2.1508095264434814,4.661270781154297,0.0,0.29827389121055603,-1.6524699370013636,-0.0,0.0002520843409001827,1.254164457321167,0.0,-0.0029784985817968845,0.8401336669921875,0.0,0.01920812577009201
160.0,217.0,2.391,-0.6491,9.1585,-0.0505,0.0211,-0.1243,-1.8098679981627406,0.0,3.189570426940918,-1.6001275777816772,-0.0,2.176003932952881,4.661310835475586,0.0,0.2899708151817322,-1.6524141470538538,-0.0,-0.005559986457228661,1.2542283535003662,0.0,-0.005492619704455137,0.8401377201080322,0.0,-0.012581007555127144
160.0,217.0,2.391,-0.6491,9.1585,-0.0505,0.0211,-0.1243,-1.8098803959288539,0.0,3.1879727840423584,-1.600196123123169,8.626484486740083e-05,2.115300416946411,4.661282702083252,0.0,0.30326685309410095,-1.6523898283587855,-0.0,-0.004111726768314838,1.2542284727096558,0.0,0.0037988389376550913,0.8400896191596985,0.0,-0.005656961351633072
160.0,217.0,2.391,-0.6491,9.1585,-0.0505,0.0211,-0.1243,-1.8098799190916957,0.0,3.1486175060272217,-1.6001843214035034,8.4678154962603e-05,2.168509006500244,4.661231203670166,0.0,0.3058803379535675,-1.6524260679828089,-0.0,-0.005539337173104286,1.254184365272522,0.0,-0.008796238340437412,0.840141773223877,0.0,0.020014237612485886
160.0,217.0,2.391,-0.6491,9.1585,-0.0505,0.0211,-0.1243,-1.8098598919310511,0.0,3.127549171447754,-1.6001999378204346,8.015336788957939e-05,2.1453263759613037,4.661286993617676,0.0,0.2892211079597473,-1.6524179617511194,-0.0,0.005132327787578106,1.2542002201080322,0.0,-0.009238438680768013,0.8401658535003662,0.0,0.034900810569524765
160.0,217.0,2.391,-0.6491,9.1585,-0.0505,0.0211,-0.1243,-1.8098961315550746,0.0,3.1626741886138916,-1.6001924276351929,9.128089004661888e-05,2.1339528560638428,4.661298914546631,0.0,0.2944589853286743,-1.6524017492877405,-0.0,-0.005305285565555096,1.2542121410369873,0.0,-0.002528723329305649,0.8401698470115662,0.0,-0.041648149490356445
160.0,217.0,2.391,-0.6491,9.1585,-0.0505,0.0211,-0.1243,-1.8098961315550746,0.0,3.1851625442504883,-1.6001924276351929,8.689735841471702e-05,2.1542508602142334,4.6612583833881835,0.0,0.29666948318481445,-1.6523855368243616,-0.0,0.005890010390430689,1.254176378250122,0.0,-0.004877840634435415,0.8401818871498108,0.0,0.002251053461804986
160.0,217.0,2.391,-0.6491,9.1585,-0.0505,0.0211,-0.1243,-1.8099080524840296,0.0,3.1374223232269287,-1.6002120971679688,8.289550896733999e-05,2.138888120651245,4.66128317892041,0.0,0.2980949580669403,-1.6524298826800745,-0.0,0.00556965684518218,1.2541923522949219,0.0,0.008174164220690727,0.840137779712677,0.0,0.009451804682612419
160.0,217.0,2.391,-0.6491,9.1585,-0.0505,0.0211,-0.1243,-1.809904237786764,0.0,3.1512069702148438,-1.6001635789871216,6.509031663881615e-05,2.147414207458496,4.661231203670166,0.0,0.2930871248245239,-1.6523893515216272,-0.0,0.008917608298361301,1.2542083263397217,0.0,0.010350323282182217,0.840117871761322,0.0,-0.008776804432272911
160.0,217.0,2.391,-0.6491,9.1585,-0.0505,0.0211,-0.1243,-1.8099447689452113,0.0,3.134537935256958,-1.6001358032226562,6.237690831767395e-05,2.129335403442383,4.661278887385986,0.0,0.2969222664833069,-1.6524418036090296,-0.0,0.006323648616671562,1.2541801929473877,0.0,-0.006685916800051928,0.8402017951011658,0.0,-0.0007543992251157761
160.0,216.0,2.4407,-0.7783,8.9988,-0.0345,0.0202,-0.1161,-1.8098393879332484,0.0,3.158114194869995,-1.6002002954483032,5.988656266708858e-05,2.1122865676879883,4.6612464624592285,0.0,0.3006463348865509,-1.6524179617511194,-0.0,-0.010196135379374027,1.254204273223877,0.0,0.012557853013277054,0.8401618003845215,0.0,-0.03143872320652008
160.0,216.0,2.4407,-0.7783,8.9988,-0.0345,0.0202,-0.1161,-1.8098842106261195,0.0,3.148151159286499,-1.600156307220459,5.758748375228606e-05,2.1491074562072754,4.661263151759766,0.0,0.29875150322914124,-1.6524222532855433,-0.0,-0.004330251831561327,1.2541961669921875,0.0,-0.005914515350013971,0.8401618003845215,0.0,-0.006911251228302717
160.0,216.0,2.4407,-0.7783,8.9988,-0.0345,0.0202,-0.1161,-1.8099004230894984,0.0,3.1704280376434326,-1.6001720428466797,5.545838575926609e-05,2.1477866172790527,4.661235018367432,0.0,0.2966955602169037,-1.6523855368243616,-0.0,0.006337435450404882,1.2541723251342773,0.0,-0.007244132459163666,0.8401819467544556,0.0,0.04520140215754509
160.0,216.0,2.4407,-0.7783,8.9988,-0.0345,0.0202,-0.1161,-1.8098474941649378,0.0,3.1661605834960938,-1.6001677513122559,5.348108970792964e-05,2.1401796340942383,4.661286993617676,0.0,0.2950126528739929,-1.6523731390582483,-0.0,0.0035681193694472313,1.254204273223877,0.0,-0.0014368975535035133,0.8401658535003662,-2.5214914785465226e-05,-0.020406000316143036
160.0,216.0,2.4407,-0.7783,8.9988,-0.0345,0.0202,-0.1161,-1.8098799190916957,0.0,3.1740732192993164,-1.600228190422058,5.163997411727905e-05,2.157388210296631,4.661318941707275,0.0,0.3035505712032318,-1.65240985551943,-0.0,0.0140847098082304,1.2542002201080322,0.0,-0.002670263173058629,0.8401296734809875,-2.326819048903417e-05,0.01664695516228676
160.0,216.0,2.4407,-0.7783,8.9988,-0.0345,0.0202,-0.1161,-1.8098918400206507,0.0,3.180021286010742,-1.6001595258712769,4.9921407480724156e-05,2.140209436416626,4.661218805904053,0.0,0.29310670495033264,-1.652365509663717,-0.0,0.009273875504732132,1.254164457321167,0.0,-0.0012657754123210907,0.8401296734809875,-2.1593403289443813e-05,0.01786159537732601
160.0,216.0,2.4407,-0.7783,8.9988,-0.0345,0.0202,-0.1161,-1.8099247417845667,0.0,3.1793315410614014,-1.6001760959625244,1.0350573731443546e-09,2.1198129653930664,4.6612464624592285,0.0,0.29737618565559387,-1.6524260679828089,-0.0,0.00545927882194519,1.254176378250122,0.0,0.006824676878750324,0.8401538133621216,-2.0143497749813832e-05,-0.02932366356253624
160.0,216.0,2.4407,-0.7783,8.9988,-0.0345,0.0202,-0.1161,-1.8099004230894984,0.0,3.1573407649993896,-1.600208044052124,2.4995419230629473e-15,2.151165723800659,4.6612464624592285,0.0,0.29602891206741333,-1.6523974577533167,-0.0,-0.0021914911922067404,1.2542002201080322,0.0,-0.010857811197638512,0.8401457071304321,-1.887606231321115e-05,0.04349181801080704
160.0,216.0,2.4407,-0.7783,8.9988,-0.0345,0.0202,-0.1161,-1.809916158715719,0.0,3.1754202842712402,-1.6002002954483032,6.036099700203183e-21,2.1318509578704834,4.661258860225342,0.0,0.2982863187789917,-1.6524179617511194,-0.0,0.0058721741661429405,1.254176378250122,0.0,0.002209596335887909,0.8401898741722107,-1.7758711692295037e-05,0.014484075829386711
160.0,216.0,2.4407,-0.7783,8.9988,-0.0345,0.0202,-0.1161,-1.8098722896971644,0.0,3.136399269104004,-1.6002085208892822,1.4576471658316748e-26,2.156919002532959,4.661250753993652,0.0,0.30017006397247314,-1.652437988911764,-0.0,0.017440540716052055,1.2542163133621216,0.0,-0.006352821830660105,0.8401337265968323,-1.6766214685048908e-05,0.012407790869474411
160.0,216.0,2.4407,-0.7783,8.9988,-0.0345,0.0202,-0.1161,-1.809949060479635,0.0,3.187403678894043,-1.6002002954483032,3.5200460454017597e-32,2.1664931774139404,4.661250753993652,0.0,0.3029722273349762,-1.6524141470538538,-0.0,0.003113684244453907,1.2541882991790771,0.0,-0.00029411271680146456,0.8401859402656555,-1.587879887665622e-05,-0.07044043391942978
160.0,216.0,2.4407,-0.7783,8.9988,-0.0345,0.0202,-0.1161,-1.8099004230894984,0.0,3.135110855102539,-1.6001801490783691,8.500497329232318e-38,2.168818712234497,4.661318464870117,0.0,0.2980544865131378,-1.6524460951434534,-0.0,0.007670243736356497,1.2541842460632324,0.0,-0.0006765578873455524,0.8401538133621216,-1.5080618140927982e-05,0.0014042059192433953
160.0,216.0,2.4407,-0.7783,8.9988,-0.0345,0.0202,-0.1161,-1.8098675213255824,0.0,3.1462864875793457,-1.600208044052124,2.045895757914233e-43,2.089893341064453,4.661270781154297,0.0,0.3049757778644562,-1.6524017492877405,-0.0,-0.002106050495058298,1.2541290521621704,0.0,-0.003647209145128727,0.8401417136192322,-2.8717600798700005e-05,-0.005106866359710693
160.0,216.0,2.4407,-0.7783,8.9988,-0.0345,0.0202,-0.1161,-1.8098961315550746,0.0,3.202226161956787,-1.6001275777816772,-0.0,2.1165781021118164,4.661298914546631,0.0,0.3021567165851593,-1.6523812452899378,-0.0,0.0036440957337617874,1.254164457321167,0.0,-0.00305899977684021,0.8401698470115662,-2.7405945729697123e-05,-0.034049466252326965
160.0,216.0,2.4407,-0.7783,8.9988,-0.0345,0.0202,-0.1161,-1.8098679981627406,0.0,3.1217708587646484,-1.6002085208892822,-0.0,2.1444780826568604,4.661290808314941,0.0,0.29135939478874207,-1.6524017492877405,-0.0,-0.00017412519082427025,1.2541491985321045,0.0,-0.017802730202674866,0.8401337265968323,-2.6208832423435524e-05,0.04247264936566353
159.0,216.0,2.2295,-0.798,9.0574,-0.0363,0.0232,-0.1193,-1.809864183465475,0.0,3.170616626739502,-1.6001965999603271,-0.0,2.118699550628662,4.661318464870117,2.2293722423682993e-09,0.2956954836845398,-1.652437988911764,-0.0,-0.00297070131637156,1.254176378250122,0.0,0.0002168334904126823,0.8401296734809875,-3.766108420677483e-05,0.022223500534892082
159.0,216.0,2.2295,-0.798,9.0574,-0.0363,0.0232,-0.1193,-1.8098679981627406,0.0,3.132720470428467,-1.6002120971679688,6.10656788921915e-05,2.1105761528015137,4.6613146501728515,6.205539554438033e-13,0.2932509779930115,-1.6523974577533167,-0.0,0.004028651397675276,1.2541570663452148,0.0,0.0029354107100516558,0.8401417136192322,-3.615472814999521e-05,0.05248008295893669
159.0,216.0,2.2295,-0.798,9.0574,-0.0363,0.0232,-0.1193,-1.809916158715719,0.0,3.149928331375122,-1.6001924276351929,6.936199497431517e-05,2.155076503753662,4.661294623012207,1.1278261890664485e-17,0.2918252646923065,-1.6524298826800745,-0.0,0.007810025941580534,1.2541521787643433,0.0,-0.008532981388270855,0.8401417136192322,-3.4316683013457805e-05,-0.040944654494524
159.0,216.0,2.2295,-0.798,9.0574,-0.0363,0.0232,-0.1193,-1.8098956547179164,0.0,3.095827579498291,-1.6001522541046143,6.693440082017332e-05,2.15987491607666,4.6612464624592285,3.1393457087335493e-21,0.3011537492275238,-1.6524141470538538,-0.0,0.006563486531376839,1.2541964054107666,0.0,-0.021869385614991188,0.8401698470115662,-3.305629797978327e-05,0.024356797337532043
159.0,216.0,2.2295,-0.798,9.0574,-0.0363,0.0232,-0.1193,-1.8098842106261195,0.0,3.16986083984375,-1.600139856338501,6.453468085965142e-05,2.1849515438079834,4.661262674922607,8.738483418069317e-25,0.28733956813812256,-1.6523736158954065,-0.0,0.012450041249394417,1.2541683912277222,0.0,-0.0015356369549408555,0.8401097655296326,-3.188518530805595e-05,0.024980394169688225
159.0,216.0,2.2295,-0.798,9.0574,-0.0363,0.0232,-0.1193,-1.809888025323385,0.0,3.1553659439086914,-1.6001522541046143,6.230105645954609e-05,2.1304430961608887,4.661298914546631,2.4323888529678307e-28,0.2976437211036682,-1.6523931662188929,-0.0,0.001719536492601037,1.2541521787643433,0.0,0.007327361032366753,0.8401457071304321,-3.0794235499342903e-05,0.015255802311003208
159.0,216.0,2.2295,-0.798,9.0574,-0.0363,0.0232,-0.1193,-1.8098517856993617,0.0,3.135336399078369,-1.6001360416412354,7.020656630629674e-05,2.166764259338379,4.661298914546631,6.770644687960859e-32,0.28868523240089417,-1.65240985551943,-0.0,0.0176699198782444,1.2541563510894775,0.0,-0.004177240189164877,0.8401697874069214,-3.160734195262194e-05,-0.02189996838569641
159.0,216.0,2.2295,-0.798,9.0574,-0.0363,0.0232,-0.1193,-1.8099523983397425,0.0,3.1671862602233887,-1.6001358032226562,1.2505733337775382e-08,2.1895947456359863,4.661266966457031,1.8846338463509837e-35,0.2954332232475281,-1.6523774305926722,-0.0,0.004703243728727102,1.254164457321167,0.0,-0.0070878309197723866,0.8401578068733215,-1.5017106306913774e-05,0.04700436815619469
159.0,216.0,2.2295,-0.798,9.0574,-0.0363,0.0232,-0.1193,-1.8099366627135218,0.0,3.173616886138916,-1.6001677513122559,3.019987892031138e-14,2.1094255447387695,4.661239309901855,5.245947173895708e-39,0.2954106330871582,-1.65240985551943,-0.0,0.002727594692260027,1.2541882991790771,0.0,-0.015215725637972355,0.8401738405227661,-1.4298708265414461e-05,-0.018647093325853348
159.0,216.0,2.2295,-0.798,9.0574,-0.0363,0.0232,-0.1193,-1.8099328480162562,0.0,3.189323902130127,-1.600156307220459,7.292915418756195e-20,2.196200132369995,4.661243124599121,1.4601529998264594e-42,0.3082437813282013,-1.65240985551943,-0.0,-0.00933893397450447,1.2541882991790771,0.0,0.00661542359739542,0.8401377201080322,-1.3648214007844217e-05,0.04730610549449921
159.0,216.0,2.2295,-0.798,9.0574,-0.0363,0.0232,-0.1193,-1.8099004230894984,0.0,3.123744010925293,-1.6001358032226562,1.7611534180617696e-25,2.1494503021240234,4.661242647761963,0.0,0.2915806472301483,-1.652397934590475,-0.0,-0.0035522407852113247,1.254172444343567,0.0,0.002576232422143221,0.8401618003845215,-1.305433215748053e-05,-0.008223053067922592
159.0,216.0,2.2295,-0.798,9.0574,-0.0363,0.0232,-0.1193,-1.8099366627135218,0.0,3.1722984313964844,-1.6001718044281006,4.252978528082964e-31,2.146637439727783,4.661278887385986,0.0,0.306785523891449,-1.6524174849139612,-0.0,0.0033620090689510107,1.2541290521621704,0.0,0.018472202122211456,0.8401897549629211,-2.3161388362780144e-09,-0.03146716579794884
159.0,216.0,2.2295,-0.798,9.0574,-0.0363,0.0232,-0.1193,-1.8098679981627406,0.0,3.161102771759033,-1.60014808177948,1.0270443339942342e-36,2.1478488445281982,4.66128317892041,0.0,0.2894303798675537,-1.6524336973773401,-0.0,-0.00806207861751318,1.2541210651397705,0.0,0.0005403086543083191,0.8401978015899658,0.00024128181394189596,-0.032408785074949265
159.0,216.0,2.2295,-0.798,9.0574,-0.0363,0.0232,-0.1193,-1.8099285564818324,0.0,3.1405463218688965,-1.6001603603363037,9.10922753973864e-05,2.1287407875061035,4.661262674922607,0.0,0.2950422763824463,-1.6524699370013636,-0.0,0.007383365649729967,1.254164218902588,0.0,0.000341620558174327,0.8401537537574768,0.003121965564787388,-0.021942157298326492
159.0,216.0,2.2295,-0.798,9.0574,-0.0363,0.0232,-0.1193,-1.8098799190916957,0.0,3.1884756088256836,-1.6001200675964355,0.00014853820903226733,2.166444778442383,4.661226912135742,0.0,0.28900614380836487,-1.6524174849139612,-0.0,-0.007759119849652052,1.2541167736053467,0.0,7.554353214800358e-05,0.8402498364448547,0.0033163167536258698,0.020592164248228073
155.0,220.0,2.5274,0.2267,9.1041,-0.0034,0.0179,-0.1219,-1.8099247417845667,0.0,3.1922249794006348,-1.600139856338501,0.0008089313632808626,2.1583852767944336,4.661266966457031,0.0,0.3060629367828369,-1.652437988911764,-0.0,0.003936891444027424,1.2542083263397217,0.0,-0.0042138854041695595,0.8402138352394104,0.0033309448044747114,-0.03389355167746544
155.0,220.0,2.5274,0.2267,9.1041,-0.0034,0.0179,-0.1219,-1.809932371179098,0.0,3.1447644233703613,-1.600139856338501,0.0007657883106730878,2.1363685131073,4.661302729243896,0.0,0.2953391373157501,-1.652449909840719,-0.0,0.009416946209967136,1.2541923522949219,0.0,-0.0004110257141292095,0.8402819633483887,0.0029960826504975557,0.011484120972454548
155.0,220.0,2.5274,0.2267,9.1041,-0.0034,0.0179,-0.1219,-1.8098961315550746,0.0,3.1820526123046875,-1.600188136100769,0.0005873044719919562,2.1771559715270996,4.661294623012207,0.0,0.30145758390426636,-1.6524532477008265,-0.0,0.010042543523013592,1.2541640996932983,0.0,-0.0076279472559690475,0.8403099179267883,0.002667453372851014,0.02848374843597412
155.0,220.0,2.5274,0.2267,9.1041,-0.0034,0.0179,-0.1219,-1.8099285564818324,0.0,3.1862971782684326,-1.6001160144805908,0.0005280410405248404,2.1416594982147217,4.6612464624592285,0.0,0.2852451205253601,-1.6524456183062952,-0.0,-0.009465126320719719,1.2541804313659668,0.0,0.0037567883264273405,0.8402858972549438,0.0029319634195417166,-0.00027147296350449324
155.0,220.0,2.5274,0.2267,9.1041,-0.0034,0.0179,-0.1219,-1.8098837337889613,0.0,3.164247512817383,-1.6000999212265015,0.0009383732103742659,2.131402015686035,4.661286993617676,0.0,0.3043587803840637,-1.6524294058429163,-0.0,0.0049863550812006,1.2541682720184326,0.0,-0.01805722713470459,0.8403539657592773,0.003515818854793906,-0.04513820260763168
155.0,220.0,2.5274,0.2267,9.1041,-0.0034,0.0179,-0.1219,-1.8099037609496058,0.0,3.1435368061065674,-1.6001484394073486,0.002762091811746359,2.138129234313965,4.661258860225342,0.0,0.2978905737400055,-1.652461353932516,-0.0,-0.0008983637671917677,1.2542202472686768,0.0,-0.004797850735485554,0.8403738737106323,0.005391997750848532,-0.04690973833203316
155.0,220.0,2.5274,0.2267,9.1041,-0.0034,0.0179,-0.1219,-1.8099285564818324,0.0,3.127272605895996,-1.6000356674194336,0.008480225689709187,2.151214122772217,4.661258860225342,0.0,0.2821282148361206,-1.6524856726275843,-0.0,-0.002517968649044633,1.2541481256484985,0.0,0.007188675459474325,0.8404219746589661,0.007861994206905365,-0.00431584008038044
155.0,220.0,2.5274,0.2267,9.1041,-0.0034,0.0179,-0.1219,-1.8099123440184535,0.0,3.0886101722717285,-1.5999641418457031,0.012879456393420696,2.186464309692383,4.661294623012207,0.0,0.29407912492752075,-1.6524737516986292,-0.0,-0.012510741129517555,1.2542002201080322,0.0,-0.005676962900906801,0.8404940366744995,0.010077140294015408,0.06807419657707214
155.0,220.0,2.5274,0.2267,9.1041,-0.0034,0.0179,-0.1219,-1.8099080524840296,0.0,3.1666834354400635,-1.5998880863189697,0.01370133738964796,2.173537254333496,4.6612464624592285,0.0,0.3142252564430237,-1.6524413267718714,-0.0,0.010649779811501503,1.2541804313659668,0.0,-0.003791878931224346,0.8405539989471436,0.010989557020366192,-0.01641073450446129
155.0,220.0,2.5274,0.2267,9.1041,-0.0034,0.0179,-0.1219,-1.8098474941649378,0.0,3.12705135345459,-1.5998402833938599,0.013876372948288918,2.1530466079711914,4.661270781154297,0.0,0.306720495223999,-1.6524413267718714,-0.0,-0.004094638861715794,1.2541604042053223,0.0,-0.007004386279731989,0.8406023383140564,0.010677802376449108,0.00959633570164442
155.0,220.0,2.5274,0.2267,9.1041,-0.0034,0.0179,-0.1219,-1.80987610439443,0.0,3.1118078231811523,-1.5997403860092163,0.013224814087152481,2.167583703994751,4.661270781154297,0.0,0.29826977849006653,-1.6523850599872034,-0.0,0.004004249349236488,1.2541290521621704,0.0,-0.013091249391436577,0.8406701683998108,0.010547122918069363,0.07567739486694336
155.0,220.0,2.5274,0.2267,9.1041,-0.0034,0.0179,-0.1219,-1.809888025323385,0.0,3.1167550086975098,-1.5996719598770142,0.010715223848819733,2.184396982192993,4.661266966457031,0.0,0.2998813986778259,-1.6524055639850062,-0.0,0.005063496995717287,1.2541604042053223,0.0,0.0007101611699908972,0.8407462239265442,0.00917341373860836,0.03376390039920807
155.0,220.0,2.5274,0.2267,9.1041,-0.0034,0.0179,-0.1219,-1.8099247417845667,0.0,3.129504442214966,-1.5996242761611938,0.007853936403989792,2.1198782920837402,4.661302729243896,0.0,0.2821197509765625,-1.6524136702166956,-0.0,0.004942727740854025,1.2541563510894775,0.0,0.0025893072597682476,0.8407261371612549,0.00907022412866354,-0.024700969457626343
155.0,220.0,2.5274,0.2267,9.1041,-0.0034,0.0179,-0.1219,-1.8099037609496058,0.0,3.120166301727295,-1.5995922088623047,0.004805601667612791,2.1276021003723145,4.661258860225342,0.0,0.30334585905075073,-1.6524336973773401,-0.0,-0.0024654718581587076,1.2541604042053223,0.0,-0.0009106654906645417,0.8408383727073669,0.009297672659158707,-0.0052679190412163734
161.0,216.0,2.2325,0.1155,9.0395,-0.0118,0.0081,-0.1313,-1.8099643192686976,0.0,3.1118862628936768,-1.5995922088623047,0.0023094364441931248,2.1551859378814697,4.661290808314941,0.0,0.294510155916214,-1.6523893515216272,-0.0,0.011172742582857609,1.2542083263397217,0.0,-0.0020332899875938892,0.8408342599868774,0.009035048075020313,-0.024115096777677536
161.0,216.0,2.2325,0.1155,9.0395,-0.0118,0.0081,-0.1313,-1.809920450250143,0.0,3.1448583602905273,-1.5995678901672363,0.0005631796666420996,2.135021209716797,4.661254568690918,0.0,0.2964455783367157,-1.6524260679828089,-2.9809343686793e-05,0.008032647892832756,1.2541613578796387,0.0,-0.004707137122750282,0.8408941626548767,0.007774899713695049,0.005357030779123306
161.0,216.0,2.2325,0.1155,9.0395,-0.0118,0.0081,-0.1313,-1.8099400005736292,0.0,3.149526596069336,-1.599596381187439,-0.0005660509923473,2.147170066833496,4.661239309901855,0.0,0.30341440439224243,-1.652449909840719,-2.8413784093572758e-05,-0.0040619149804115295,1.254164457321167,0.0,-0.005379049107432365,0.8409423828125,0.006395550444722176,-0.003938368521630764
161.0,216.0,2.2325,0.1155,9.0395,-0.0118,0.0081,-0.1313,-1.8099519215025843,0.0,3.167606830596924,-1.599540114402771,-0.00048082173452712595,2.0873143672943115,4.661270781154297,0.0,0.3071698248386383,-1.6524298826800745,-2.7129044610774145e-05,-0.002039083745330572,1.2542002201080322,0.0,-0.007395056076347828,0.840986430644989,0.00472239637747407,0.006214549764990807
161.0,216.0,2.2325,0.1155,9.0395,-0.0118,0.0081,-0.1313,-1.8099762401976527,0.0,3.1868996620178223,-1.5996325016021729,-0.0003662105300463736,2.0977444648742676,4.661254568690918,0.0,0.2938866913318634,-1.6524298826800745,-2.5955461751436815e-05,0.003995977342128754,1.2541682720184326,0.0,-0.002138612326234579,0.8410388827323914,0.00335285859182477,0.02017301321029663
161.0,216.0,2.2325,0.1155,9.0395,-0.0118,0.0081,-0.1313,-1.8099881611266078,-0.0014967112801969051,3.1748738288879395,-1.5995841026306152,-0.00038876081816852093,2.1250991821289062,4.661270781154297,0.0,0.3104557394981384,-1.6523855368243616,-1.2443220839486457e-05,-0.007807443384081125,1.2541723251342773,0.0,-0.006312638055533171,0.841002345085144,0.002315149176865816,-0.011636286973953247
161.0,216.0,2.2325,0.1155,9.0395,-0.0118,0.0081,-0.1313,-1.8099428615965785,-0.00384585396386683,3.1567037105560303,-1.5996201038360596,-0.0004108335997443646,2.115622043609619,4.661218805904053,0.0,0.28815722465515137,-1.6524222532855433,-1.1944337529712357e-05,0.004765118472278118,1.254184365272522,0.0,0.00038257846608757973,0.8409983515739441,0.0016829483211040497,0.03661653771996498
161.0,216.0,2.2325,0.1155,9.0395,-0.0118,0.0081,-0.1313,-1.8100606403746546,-0.00517377769574523,3.146707534790039,-1.5996237993240356,-0.0003584324149414897,2.138575315475464,4.661238833064697,0.0,0.29674282670021057,-1.6523855368243616,-1.9538890683179488e-07,0.005730590783059597,1.254204273223877,0.0,0.003658005967736244,0.8410103917121887,0.0013289308408275247,0.032230816781520844
161.0,216.0,2.2325,0.1155,9.0395,-0.0118,0.0081,-0.1313,-1.8101088009276332,-0.0055074444971978664,3.1918296813964844,-1.5995680093765259,-0.0001524004474049434,2.153223752975464,4.661226435298584,0.0,0.30364489555358887,-1.6523693243609827,-5.4387223891172454e-11,-0.0007456659805029631,1.254149079322815,0.0,0.006044100970029831,0.8410424590110779,0.001046821940690279,0.004758392460644245
161.0,216.0,2.2325,0.1155,9.0395,-0.0118,0.0081,-0.1313,-1.8101164303221644,-0.0060022147372365,3.086575746536255,-1.5996484756469727,-0.00012015589891234413,2.111543893814087,4.6611949640461425,3.003084998454142e-07,0.2933289408683777,-1.6523736158954065,-1.5138882646938655e-14,0.0008191852830350399,1.254232406616211,0.0,0.0004299076972529292,0.8410424590110779,0.0008612467208877206,0.032636988908052444
161.0,216.0,2.2325,0.1155,9.0395,-0.0118,0.0081,-0.1313,-1.8101808033385218,-0.006720800418406725,3.1228890419006348,-1.5996123552322388,-0.0001001054624794051,2.1341166496276855,4.661230726833008,8.35919944375263e-11,0.2999964952468872,-1.652393643056051,-4.2139640971717676e-18,0.006621105130761862,1.254164457321167,0.0,-0.012294244021177292,0.8410744667053223,0.0007005400839261711,-0.017808735370635986
161.0,216.0,2.2325,0.1155,9.0395,-0.0118,0.0081,-0.1313,-1.8102084598936976,-0.00761824194341898,3.092923164367676,-1.5996888875961304,-8.579050336265936e-05,2.145538091659546,4.661218805904053,2.326813736261077e-14,0.296732097864151,-1.6523454825030726,-1.1729722998847579e-21,0.006831120699644089,1.2541450262069702,0.0,-0.012802038341760635,0.8410624265670776,0.00047131243627518415,0.012228589504957199
161.0,216.0,2.2325,0.1155,9.0395,-0.0118,0.0081,-0.1313,-1.8102933369078578,-0.008736505173146725,3.089080333709717,-1.5995720624923706,-7.505774556193501e-05,2.160098075866699,4.661238833064697,6.476770429550391e-18,0.28964245319366455,-1.6523659865008753,-3.265011470238588e-25,0.003028148552402854,1.2541522979736328,0.0,0.003551897592842579,0.841094434261322,0.0005009818123653531,0.009414875879883766
161.0,216.0,2.2325,0.1155,9.0395,-0.0118,0.0081,-0.1313,-1.8103486500182093,-0.009820809587836266,3.1453428268432617,-1.5995638370513916,-6.432776717701927e-05,2.151876449584961,4.661255045528076,1.1771210771574962e-22,0.3047155737876892,-1.6523616949664515,-5.933996669504626e-30,0.004525261465460062,1.254120945930481,0.0,0.0029832744039595127,0.8410624265670776,0.0005837219068780541,-0.009944934397935867
161.0,216.0,2.2325,0.1155,9.0395,-0.0118,0.0081,-0.1313,-1.81042542080068,-0.010710916481912136,3.1581296920776367,-1.5996201038360596,-5.809857975691557e-05,2.1037652492523193,4.66117446004834,3.276559962482716e-26,0.3016442656517029,-1.6523736158954065,-1.6517499278197682e-33,0.01539581548422575,1.2541440725326538,0.0,-0.015936529263854027,0.8410786390304565,0.0005984606104902923,-0.031142808496952057
160.0,223.0,2.4006,-0.5091,9.0909,-0.0084,0.0023,-0.1309,-1.8104974232115687,-0.01005528960376978,3.117669105529785,-1.5996241569519043,-2.6484887712285854e-05,2.1585707664489746,4.661286993617676,9.120425569159964e-30,0.301531583070755,-1.6523616949664515,-4.597706448247109e-37,0.009155841544270515,1.2541804313659668,0.0,0.00840627122670412,0.8410183787345886,0.0008047727751545608,-0.015101970173418522
160.0,223.0,2.4006,-0.5091,9.0909,-0.0084,0.0023,-0.1309,-1.8105455837645472,-0.009689713828265667,3.131011962890625,-1.5995761156082153,-4.630879235634211e-09,2.156157970428467,4.661191149348877,2.5387037618693707e-33,0.2987789511680603,-1.652353588734762,-1.2797918744832122e-40,0.001913982443511486,1.2541203498840332,0.0,0.007895531132817268,0.841078519821167,0.0007364361081272364,-0.051194608211517334
160.0,223.0,2.4006,-0.5091,9.0909,-0.0084,0.0023,-0.1309,-1.8105889759459437,-0.008509354665875435,3.124338150024414,-1.5996041297912598,-1.1183030413156048e-14,2.099487781524658,4.66117446004834,7.066575067203739e-37,0.29408183693885803,-1.6523454825030726,-3.5032461608120427e-44,-0.0014702373882755637,1.254141092300415,0.0,-0.0006370770279318094,0.841054379940033,0.0004941251827403903,0.0005601428565569222
160.0,223.0,2.4006,-0.5091,9.0909,-0.0084,0.0023,-0.1309,-1.8106495342650355,-0.008422798477113247,3.1368799209594727,-1.599596381187439,-2.700570216575175e-20,2.1686038970947266,4.66117446004834,1.9670026543727457e-40,0.3008533716201782,-1.6523497740374964,-0.0,-0.004004976712167263,1.2541450262069702,0.0,-0.002670109272003174,0.8410664200782776,0.0003716436622198671,-0.011570021510124207
160.0,223.0,2.4006,-0.5091,9.0909,-0.0084,0.0023,-0.1309,-1.8106852970519007,-0.00772777758538723,3.0696451663970947,-1.5996241569519043,-6.521558709483188e-26,2.122793436050415,4.661226912135742,-0.00017165957251563668,0.3025217354297638,-1.6523898283587855,-0.0,0.0010824865894392133,1.254164457321167,0.0,-0.004508642945438623,0.8410704135894775,0.0002978322154376656,-0.027642587199807167
160.0,223.0,2.4006,-0.5091,9.0909,-0.0084,0.0023,-0.1309,-1.8107577762999476,-0.008655761368572712,3.1349737644195557,-1.5995843410491943,-1.5748799588093627e-31,2.1189980506896973,4.661190672511719,-0.0002083620202029124,0.2909347414970398,-1.6523297468768519,-0.0,0.003235144540667534,1.2541882991790771,0.0,0.006782682612538338,0.8410624265670776,0.00024848594330251217,0.019817305728793144
160.0,223.0,2.4006,-0.5091,9.0909,-0.0084,0.0023,-0.1309,-1.8108216724791468,-0.008936763741075993,3.1561431884765625,-1.5996081829071045,-3.803149143446034e-37,2.1149439811706543,4.661178274745605,-0.0005152564262971282,0.29824087023735046,-1.652393643056051,-0.0,-0.014589479193091393,1.2542246580123901,0.0,-0.009054826572537422,0.8410864472389221,0.00017053612100426108,-0.037590205669403076
160.0,223.0,2.4006,-0.5091,9.0909,-0.0084,0.0023,-0.1309,-1.8108822307982386,-0.008428625762462616,3.1137332916259766,-1.5995880365371704,-9.178504941327552e-43,2.1133573055267334,4.661138697261475,-0.00046133995056152344,0.28292030096054077,-1.6523860136615198,-0.0,-0.013130835257470608,1.2541004419326782,0.0,0.00965125858783722,0.841030478477478,0.00014931443729437888,0.03504239022731781
160.0,223.0,2.4006,-0.5091,9.0909,-0.0084,0.0023,-0.1309,-1.8108817539610804,-0.007763873785734177,3.1080174446105957,-1.59958016872406,-0.0,2.1072893142700195,4.6611949640461425,-0.00036717759212478995,0.290189266204834,-1.6523616949664515,-0.0,-0.013872112147510052,1.2541807889938354,0.0,-0.00782278273254633,0.8410544395446777,0.00013279060658533126,0.03001064620912075
160.0,223.0,2.4006,-0.5091,9.0909,-0.0084,0.0023,-0.1309,-1.810981889764303,-0.006612091790884733,3.0955634117126465,-1.5995720624923706,-0.0,2.1019787788391113,4.6611949640461425,-0.0003049411461688578,0.29207971692085266,-1.6523616949664515,-0.0,-0.027368899434804916,1.2541683912277222,0.0,-0.009453767910599709,0.8410183787345886,9.992705599870533e-05,0.020017364993691444
160.0,223.0,2.4006,-0.5091,9.0909,-0.0084,0.0023,-0.1309,-1.8109899959959925,-0.0053077093325555325,3.122262477874756,-1.599604606628418,-0.0,2.113847255706787,4.661162539119385,-0.0003012276429217309,0.27463817596435547,-1.6523812452899378,-0.0,-0.023395441472530365,1.2541804313659668,0.0,-0.0003914793487638235,0.8410425186157227,8.154513488989323e-05,0.00022208597511053085
160.0,223.0,2.4006,-0.5091,9.0909,-0.0084,0.0023,-0.1309,-1.81105436901235,-0.004727375227957964,3.095710277557373,-1.5996241569519043,-0.0,2.117302894592285,4.661211176509521,-0.00026570778572931886,0.2918025255203247,-1.6523659865008753,-0.0,-0.017562568187713623,1.254164457321167,0.0,-0.006156040355563164,0.841030478477478,7.477035978808999e-05,-0.0034711819607764482
160.0,223.0,2.4006,-0.5091,9.0909,-0.0084,0.0023,-0.1309,-1.8110376797118128,-0.004266244824975729,3.0932130813598633,-1.5995839834213257,-0.0,2.1208302974700928,4.661199255580566,-0.0002358601923333481,0.2740171551704407,-1.652393643056051,-0.0,-0.005369431804865599,1.2541570663452148,0.0,0.0027890298515558243,0.8410665988922119,6.903507164679468e-05,0.0311944130808115
160.0,223.0,2.4006,-0.5091,9.0909,-0.0084,0.0023,-0.1309,-1.8110982380309046,-0.00476802047342062,3.076465129852295,-1.5996041297912598,-0.0,2.114229202270508,4.661170645351074,-0.0002412896283203736,0.29246288537979126,-1.6523616949664515,-0.0,-0.005152679979801178,1.2541767358779907,0.0,-0.008059831336140633,0.8410624265670776,-4.8210487875621766e-05,-0.03849790245294571
160.0,223.0,2.4006,-0.5091,9.0909,-0.0084,0.0023,-0.1309,-1.8111144504942835,-0.004664392210543156,3.1102066040039062,-1.5995638370513916,-0.0,2.1003687381744385,4.66115061819043,-0.00022010576503816992,0.27619633078575134,-1.652365509663717,-0.0,-0.026739750057458878,1.2541654109954834,0.0,-0.002914757002145052,0.8410744667053223,-6.454464892158285e-05,-0.02956528216600418
158.0,218.0,2.3091,-1.2311,9.149,-0.0542,0.0296,-0.1208,-1.8111020527281703,-0.0048907361924648285,3.0200953483581543,-1.5995922088623047,5.8566234656609595e-05,2.0957586765289307,4.661190672511719,-0.00017911042959894985,0.27060967683792114,-1.652341667805807,2.3788006728864275e-05,-0.022448694333434105,1.2542524337768555,0.0,-0.010007595643401146,0.841002345085144,-6.250571459531784e-05,0.0015013981610536575
158.0,218.0,2.3091,-1.2311,9.149,-0.0542,0.0296,-0.1208,-1.8111864529051722,-0.004578982945531607,3.063319206237793,-1.5995275974273682,5.345484896679409e-05,2.0998928546905518,4.6611668306538085,-0.00014114151417743415,0.2761213779449463,-1.6523297468768519,2.558397405039159e-08,-0.015356949530541897,1.2541807889938354,0.0,0.005162767134606838,0.8410143852233887,-7.766158523736522e-05,0.021725593134760857
158.0,218.0,2.3091,-1.2311,9.149,-0.0542,0.0296,-0.1208,-1.811197896996969,-0.004495019093155861,3.0490212440490723,-1.5995999574661255,4.7779154556337744e-05,2.1555566787719727,4.6611668306538085,-0.00015045252803247422,0.27780312299728394,-1.6523616949664515,4.649760936524527e-13,-0.024134699255228043,1.2541450262069702,0.0,-0.006505787372589111,0.8410424590110779,-7.171888137236238e-05,0.024784527719020844
158.0,218.0,2.3091,-1.2311,9.149,-0.0542,0.0296,-0.1208,-1.811270376245016,-0.004437997005879879,3.0462803840637207,-1.599616527557373,4.4255015382077545e-05,2.1184394359588623,4.661162539119385,-0.0001616147783352062,0.26639559864997864,-1.6523574034320276,1.2942781224564937e-16,-0.023323211818933487,1.2541654109954834,0.0,-0.004085011780261993,0.8410545587539673,-6.767422746634111e-05,0.0065649342723190784
158.0,218.0,2.3091,-1.2311,9.149,-0.0542,0.0296,-0.1208,-1.8112341366209925,-0.004644245374947786,3.0229640007019043,-1.5995925664901733,5.476911974255927e-05,2.0985379219055176,4.661158724422119,-0.00016634150233585387,0.2644138038158417,-1.6523574034320276,3.6026707744056324e-20,-0.02281583659350872,1.2541007995605469,0.0,-0.005809570662677288,0.8410384654998779,-8.792864537099376e-05,-0.00619154516607523
158.0,218.0,2.3091,-1.2311,9.149,-0.0542,0.0296,-0.1208,-1.8113066158690394,-0.004832236561924219,3.0306050777435303,-1.5996204614639282,5.784889799542725e-05,2.111900568008423,4.661162539119385,-0.00016040749324019998,0.26718321442604065,-1.6523335615741175,1.0028165487959598e-23,-0.03154875338077545,1.2541409730911255,0.0,-0.006558628287166357,0.8410505056381226,-7.696974353166297e-05,0.001138303428888321
158.0,218.0,2.3091,-1.2311,9.149,-0.0542,0.0296,-0.1208,-1.8113099537291468,-0.005287719424813986,3.0361084938049316,-1.5996044874191284,5.4355175961973146e-05,2.134868621826172,4.661186380977295,-0.00019165025150869042,0.2620389759540558,-1.6523736158954065,2.791376224218784e-27,-0.016503501683473587,1.2541604042053223,0.0,-0.0020207716152071953,0.8410183787345886,-0.00010230770567432046,0.015054753050208092
158.0,218.0,2.3091,-1.2311,9.149,-0.0542,0.0296,-0.1208,-1.8113910160460414,-0.00523011339828372,2.977597713470459,-1.59954833984375,6.831854989286512e-05,2.1080241203308105,4.661162539119385,-0.00020384792878758162,0.248382568359375,-1.652381722127096,7.7698991691047575e-31,-0.02446872554719448,1.2541570663452148,0.0,0.008960707113146782,0.8410465121269226,-9.188016701955348e-05,-0.014172063209116459
158.0,218.0,2.3091,-1.2311,9.149,-0.0542,0.0296,-0.1208,-1.8114386997618617,-0.005090523045510054,3.038972854614258,-1.599612832069397,7.893939618952572e-05,2.0967330932617188,4.661126299495361,-0.00017946433217730373,0.24948324263095856,-1.6523779074298304,2.162779887874686e-34,-0.03489100560545921,1.2541570663452148,0.0,-0.011174626648426056,0.841030478477478,-8.336888276971877e-05,-0.04079268500208855
158.0,218.0,2.3091,-1.2311,9.149,-0.0542,0.0296,-0.1208,-1.8114143810667933,-0.0043664537370204926,3.040908098220825,-1.5995678901672363,7.669608748983592e-05,2.0625689029693604,4.661146803493164,-0.0001602844859007746,0.262686163187027,-1.652369801198141,6.020177187121348e-38,-0.02667805925011635,1.2541286945343018,0.0,-0.011730899102985859,0.8410704135894775,-7.630090112797916e-05,-0.011804015375673771
158.0,218.0,2.3091,-1.2311,9.149,-0.0542,0.0296,-0.1208,-1.8114386997618617,-0.0045442949049174786,3.0271072387695312,-1.599539875984192,7.296533294720575e-05,2.1419780254364014,4.661130591029785,-0.00016624858835712075,0.24874639511108398,-1.652381722127096,1.6756727036396163e-41,-0.025496724992990494,1.2541683912277222,0.0,-0.005080804694443941,0.8410544991493225,-9.37792137847282e-05,0.004196214489638805
158.0,218.0,2.3091,-1.2311,9.149,-0.0542,0.0296,-0.1208,-1.8114220104613246,-0.0041973101906478405,3.0034520626068115,-1.5995564460754395,6.958073936402798e-05,2.0795509815216064,4.661146803493164,-0.00015846817404963076,0.255207896232605,-1.6523616949664515,4.203895392974451e-45,-0.022493474185466766,1.2541767358779907,0.0,-0.016935251653194427,0.8410384654998779,-8.698541932972148e-05,-0.02975434809923172
158.0,218.0,2.3091,-1.2311,9.149,-0.0542,0.0296,-0.1208,-1.8115230999388636,-0.004016795661300421,3.0447139739990234,-1.5995359420776367,6.649622082477435e-05,2.099968194961548,4.661190672511719,-0.0001456467725802213,0.2563907206058502,-1.6523574034320276,0.0,-0.030913934111595154,1.254188895225525,0.0,-0.007601527497172356,0.8410384654998779,-8.110622002277523e-05,-0.002804805524647236
158.0,218.0,2.3091,-1.2311,9.149,-0.0542,0.0296,-0.1208,-1.8115140400328578,-0.004193143919110298,2.987234354019165,-1.599555492401123,6.367357127601281e-05,2.0876429080963135,4.6611549097248535,-0.00014577677939087152,0.237520232796669,-1.6523616949664515,0.0,-0.031180523335933685,1.2540888786315918,0.0,-0.015021774917840958,0.8409903049468994,-6.465317710535601e-05,0.0274013951420784
162.0,220.0,2.2499,-0.8824,9.0461,-0.0339,0.0185,-0.1176,-1.8115431270995082,-0.004135897383093834,2.988314151763916,-1.5996123552322388,0.0001016235037241131,2.093405246734619,4.6611668306538085,-0.00014624879986513406,0.261033296585083,-1.6523621718036097,0.0,-0.027676135301589966,1.2541248798370361,0.0,-0.018997926265001297,0.8410143852233887,-5.800040526082739e-05,0.008664279244840145
162.0,220.0,2.2499,-0.8824,9.0461,-0.0339,0.0185,-0.1176,-1.8115588627257289,-0.0039176978170871735,2.9829328060150146,-1.5995038747787476,9.518238221062347e-05,2.1272835731506348,4.66115061819043,-0.0001367292134091258,0.25412070751190186,-1.6523335615741175,0.0,-0.03238232061266899,1.2541167736053467,0.0,-0.019771356135606766,0.8409862518310547,-5.288770989864133e-05,0.019104190170764923
162.0,220.0,2.2499,-0.8824,9.0461,-0.0339,0.0185,-0.1176,-1.8115703068175257,-0.003850514069199562,2.9780325889587402,-1.599523901939392,8.950306801125407e-05,2.0855026245117188,4.661138697261475,-0.0001283707533730194,0.2520485520362854,-1.6523540655719202,0.0,-0.021475989371538162,1.2541368007659912,0.0,-0.01866620033979416,0.8410264253616333,-4.8603484174236655e-05,-0.008821158669888973
162.0,220.0,2.2499,-0.8824,9.0461,-0.0339,0.0185,-0.1176,-1.811598917047018,-0.0035373305436223745,2.939096212387085,-1.5995564460754395,0.0001162731641670689,2.088214635848999,4.66115061819043,-0.00012947924551554024,0.23792491853237152,-1.6523335615741175,0.0,-0.025877634063363075,1.2541286945343018,0.0,-0.019506283104419708,0.8410144448280334,-4.496133988141082e-05,-0.04727790504693985
162.0,220.0,2.2499,-0.8824,9.0461,-0.0339,0.0185,-0.1176,-1.8115745983519496,-0.0033219100441783667,2.9427268505096436,-1.599571943283081,0.00031160932849161327,2.098278522491455,4.661146803493164,-0.00013072433648630977,0.2540493607521057,-1.6523740927325647,0.0,-0.03318103775382042,1.254084825515747,0.0,-0.020002344623208046,0.8410664200782776,-4.182702468824573e-05,-0.044493503868579865
162.0,220.0,2.2499,-0.8824,9.0461,-0.0339,0.0185,-0.1176,-1.8116184673705042,-0.0031362564768642187,2.9550702571868896,-1.5995280742645264,0.00041543427505530417,2.1106679439544678,4.6611949640461425,-0.00012397389218676835,0.2507549524307251,-1.6523574034320276,0.0,-0.026211710646748543,1.254024863243103,-0.00020053672778885812,-0.015416722744703293,0.8409983515739441,-5.196156052988954e-05,-0.03888639807701111
162.0,220.0,2.2499,-0.8824,9.0461,-0.0339,0.0185,-0.1176,-1.8116184673705042,-0.003003074089065194,2.9894986152648926,-1.5995361804962158,0.000809083110652864,2.09411883354187,4.661162539119385,-0.00011788445408456028,0.24721932411193848,-1.6523378531085413,0.0,-0.026884661987423897,1.2540769577026367,-0.0002160344592994079,-0.01745394989848137,0.8410384654998779,-5.5063388572307304e-05,-0.03663692623376846
162.0,220.0,2.2499,-0.8824,9.0461,-0.0339,0.0185,-0.1176,-1.8116547069945277,-0.0029803451616317034,2.935473918914795,-1.5995161533355713,0.000745255674701184,2.0949435234069824,4.661146803493164,-0.00011236521095270291,0.2590370178222656,-1.6523421446429651,0.0,-0.022711634635925293,1.2541368007659912,-0.0002006746071856469,-0.017318639904260635,0.8410224318504333,-5.188883005757816e-05,-0.04808887839317322
162.0,220.0,2.2499,-0.8824,9.0461,-0.0339,0.0185,-0.1176,-1.8116823635497035,-0.00284910318441689,2.9384937286376953,-1.599532127380371,0.0006764617282897234,2.1098883152008057,4.661158724422119,-9.17143770493567e-05,0.2523122727870941,-1.6522977987872522,0.0,-0.016000747680664062,1.2540967464447021,-0.00020380377827677876,-0.028992045670747757,0.8410304188728333,-6.424636376323178e-05,-0.10259150713682175
162.0,220.0,2.2499,-0.8824,9.0461,-0.0339,0.0185,-0.1176,-1.8117228947081507,-0.0031608319841325283,2.9662160873413086,-1.5995646715164185,0.0005894128698855639,2.0867416858673096,4.6611549097248535,-8.622495806775987e-05,0.25117048621177673,-1.6523178259478968,0.0,-0.021482910960912704,1.2541048526763916,-0.00018578756134957075,-0.021378446370363235,0.8410424590110779,-6.0981525166425854e-05,-0.14649514853954315
162.0,220.0,2.2499,-0.8824,9.0461,-0.0339,0.0185,-0.1176,-1.8117510281004847,-0.0033562439493834972,2.9283647537231445,-1.599532127380371,0.0004779313749168068,2.090315818786621,4.661194487208984,-8.153774979291484e-05,0.24487021565437317,-1.6523421446429651,0.0,-0.01330626755952835,1.2540966272354126,-0.00017068539455067366,-0.004441556055098772,0.8410424590110779,-5.8032488595927134e-05,-0.051496729254722595
162.0,220.0,2.2499,-0.8824,9.0461,-0.0339,0.0185,-0.1176,-1.811746736566061,-0.0032737485598772764,2.965348482131958,-1.5995361804962158,0.0004150749300606549,2.078681707382202,4.6611549097248535,-7.733394886599854e-05,0.24529209733009338,-1.6523454825030726,0.0,-0.01129119098186493,1.2541203498840332,-0.00015785453433636576,-0.026229949668049812,0.8410384654998779,-5.535550371860154e-05,-0.10811473429203033
162.0,220.0,2.2499,-0.8824,9.0461,-0.0339,0.0185,-0.1176,-1.8117543659605921,-0.0038905374240130186,2.942929267883301,-1.5994919538497925,0.00045479583786800504,2.12923264503479,4.661162539119385,-7.35423673177138e-05,0.24843434989452362,-1.6523779074298304,0.0,-0.016758529469370842,1.254064679145813,-0.00015712673484813422,-0.024576066061854362,0.8410384654998779,-5.2914627303835005e-05,-0.060087960213422775
162.0,220.0,2.2499,-0.8824,9.0461,-0.0339,0.0185,-0.1176,-1.8118068180479945,-0.00407630018889904,2.934150218963623,-1.599508285522461,0.0005984229501336813,2.0971438884735107,4.6611549097248535,-7.010522676864639e-05,0.25585296750068665,-1.652381722127096,0.0,-0.016674239188432693,1.2541048526763916,-0.00015682383673265576,-0.022164348512887955,0.8410424590110779,-5.06799369759392e-05,-0.08685865998268127
162.0,220.0,2.2499,-0.8824,9.0461,-0.0339,0.0185,-0.1176,-1.81181063274526,-0.004131474532186985,2.927272319793701,-1.5995001792907715,0.0005987901240587234,2.091381072998047,4.661138697261475,-6.697499338770285e-05,0.24174168705940247,-1.652397934590475,0.0,-0.020387303084135056,1.2541208267211914,-0.00014720711624249816,-0.042314380407333374,0.8409903049468994,-4.8626287025399506e-05,-0.11956791579723358
157.0,218.0,2.4179,-0.9344,9.0891,-0.0428,0.0255,-0.1294,-1.8118144474425257,-0.004839672241359949,2.920830726623535,-1.5995161533355713,0.0006611537537537515,2.1115341186523438,4.661146803493164,-6.41123770037666e-05,0.2471584677696228,-1.6523574034320276,0.0,-0.019106905907392502,1.2541725635528564,-0.00013869958638679236,-0.03655828535556793,0.8410465121269226,-4.6732660848647356e-05,-0.06150588020682335
157.0,218.0,2.4179,-0.9344,9.0891,-0.0428,0.0255,-0.1294,-1.811911245385641,-0.005096718668937683,2.8999695777893066,-1.5995124578475952,0.0005650545354001224,2.106081962585449,4.661111040706299,-7.377433212241158e-05,0.23798424005508423,-1.6523616949664515,0.0,-0.027628257870674133,1.2540969848632812,-0.00013112160377204418,-0.01379306335002184,0.8410103917121887,-4.498097041505389e-05,-0.04270220175385475
157.0,218.0,2.4179,-0.9344,9.0891,-0.0428,0.0255,-0.1294,-1.8119312725462855,-0.0059038507752120495,2.9579901695251465,-1.5994921922683716,0.0005250195390544832,2.0812575817108154,4.661162539119385,-8.258688467321917e-05,0.23409351706504822,-1.652369801198141,0.0,-0.028867080807685852,1.2540806531906128,-0.00012432882795110345,-0.020105842500925064,0.8410744667053223,-4.3355830712243915e-05,-0.05079510062932968
157.0,218.0,2.4179,-0.9344,9.0891,-0.0428,0.0255,-0.1294,-1.81195129970693,-0.005352485459297895,2.9215245246887207,-1.5994518995285034,0.0006225534016266465,2.1126465797424316,4.661151095027588,-9.087176294997334e-05,0.25686872005462646,-1.6523779074298304,0.0,-0.03267568349838257,1.2540764808654785,-0.00011820528015960008,-0.03535168990492821,0.8410784602165222,-4.184404679108411e-05,-0.07129791378974915
157.0,218.0,2.4179,-0.9344,9.0891,-0.0428,0.0255,-0.1294,-1.8119508228697718,-0.005409528501331806,2.899014949798584,-1.599468469619751,0.001181352068670094,2.131505012512207,4.661146803493164,-0.0001310503139393404,0.2357037365436554,-1.6523779074298304,0.0,-0.027445465326309204,1.2541208267211914,-0.00011265667126281187,-0.012592424638569355,0.8410384654998779,-4.0434126276522875e-05,-0.06096436828374863
157.0,218.0,2.4179,-0.9344,9.0891,-0.0428,0.0255,-0.1294,-1.8120395145811976,-0.0057075791992247105,2.887439727783203,-1.5995044708251953,0.0019701009150594473,2.072702169418335,4.661146803493164,-0.0001440136256860569,0.24109406769275665,-1.6523335615741175,0.0,-0.024767454713582993,1.2540969848632812,-0.00010760562145151198,-0.018901491537690163,0.8409983515739441,-6.179315192866852e-08,-0.09826374053955078
157.0,218.0,2.4179,-0.9344,9.0891,-0.0428,0.0255,-0.1294,-1.8120352230467738,-0.005849893670529127,2.9087095260620117,-1.5994199514389038,0.0023402965161949396,2.127619743347168,4.661158724422119,-0.00013405090430751443,0.23294103145599365,-1.6523659865008753,0.0,-0.02468106336891651,1.2541007995605469,-9.339328244095668e-05,-0.030474061146378517,0.8410824537277222,-1.4922320378061432e-13,-0.1158001720905304
157.0,218.0,2.4179,-0.9344,9.0891,-0.0428,0.0255,-0.1294,-1.8120833835997523,-0.005726736504584551,2.919860363006592,-1.599452257156372,0.0027914776001125574,2.1106152534484863,4.6611549097248535,-0.00012475941912271082,0.2348235696554184,-1.6523297468768519,0.0,-0.025147128850221634,1.2541450262069702,-8.502473792759702e-05,-0.0256151482462883,0.8410304188728333,-3.6035647757020433e-19,-0.07593490183353424
157.0,218.0,2.4179,-0.9344,9.0891,-0.0428,0.0255,-0.1294,-1.8121234379210414,-0.0060122208669781685,2.909414768218994,-1.5994000434875488,0.0028539509512484074,2.078594446182251,4.661182566280029,-0.00011667241051327437,0.22939300537109375,-1.652341667805807,0.0,-0.03505810722708702,1.2541167736053467,-8.046282164286822e-05,-0.033768948167562485,0.8410465121269226,-8.702185955667836e-25,-0.11667756736278534
157.0,218.0,2.4179,-0.9344,9.0891,-0.0428,0.0255,-0.1294,-1.8121916256346644,-0.007273666560649872,2.9085469245910645,-1.5993597507476807,0.0028211858589202166,2.1099331378936768,4.661142988795898,-0.0001095700790756382,0.24383610486984253,-1.6523740927325647,0.0,-0.009559396654367447,1.254072904586792,-9.1605368652381e-05,-0.030114512890577316,0.8410264253616333,-2.1014754495525943e-30,-0.12941211462020874
157.0,218.0,2.4179,-0.9344,9.0891,-0.0428,0.0255,-0.1294,-1.8122078380980433,-0.008163605816662312,2.914376735687256,-1.5993762016296387,0.003131638979539275,2.061213254928589,4.661114855403564,-0.00010328295320505276,0.2311570644378662,-1.6523540655719202,0.0,-0.02241203933954239,1.2541007995605469,-0.00010160735109820962,-0.02828183025121689,0.841034471988678,-5.07481624459154e-36,-0.09192158281803131
157.0,218.0,2.4179,-0.9344,9.0891,-0.0428,0.0255,-0.1294,-1.8122836552061976,-0.008648148737847805,2.9084386825561523,-1.599351406097412,0.003965431358665228,2.108860969543457,4.661094351405762,-9.767803567228839e-05,0.2312377691268921,-1.6523659865008753,0.0,-0.01615443080663681,1.25412118434906,-0.0001108636352000758,-0.03685103356838226,0.8410624265670776,-1.225575636898485e-41,-0.10789409279823303
157.0,218.0,2.4179,-0.9344,9.0891,-0.0428,0.0255,-0.1294,-1.8123356304564417,-0.010001753456890583,2.9011030197143555,-1.599292278289795,0.00399484159424901,2.1299562454223633,4.6611549097248535,-9.108748054131866e-05,0.2429817020893097,-1.6523574034320276,0.0,-0.028801187872886658,1.2541048526763916,-0.0003134366706945002,-0.0333716943860054,0.8410664200782776,0.0,-0.09580330550670624
157.0,218.0,2.4179,-0.9344,9.0891,-0.0428,0.0255,-0.1294,-1.812432428399557,-0.012016288004815578,2.8331003189086914,-1.5992602109909058,0.0038445405662059784,2.0878944396972656,4.661126299495361,-0.00010102469241246581,0.22243668138980865,-1.6523454825030726,0.0,-0.024355150759220123,1.2540810108184814,-0.0003219247155357152,-0.039363980293273926,0.841034471988678,0.0,-0.11630940437316895
157.0,218.0,2.4179,-0.9344,9.0891,-0.0428,0.0255,-0.1294,-1.8125163517394007,-0.012598426081240177,2.8956427574157715,-1.5992803573608398,0.003912891261279583,2.112196683883667,4.661146803493164,-9.650181891629472e-05,0.22035130858421326,-1.6523574034320276,0.0,-0.026632320135831833,1.254101037979126,-0.0005465371650643647,-0.03450881317257881,0.8410424590110779,0.0,-0.12043976038694382
161.0,220.0,2.0973,-0.7908,8.9222,-0.0466,0.0144,-0.119,-1.8126007519164027,-0.015088262036442757,2.8666305541992188,-1.5992199182510376,0.003429922042414546,2.0957465171813965,4.661151095027588,-9.226212569046766e-05,0.21915926039218903,-1.6523497740374964,0.0,-0.03550202399492264,1.2540205717086792,-0.0005040319520048797,-0.03252323344349861,0.8410224318504333,0.0,-0.0764731839299202
161.0,220.0,2.0973,-0.7908,8.9222,-0.0466,0.0144,-0.119,-1.8126527271666468,-0.019432956352829933,2.770077705383301,-1.599216103553772,0.0036224976647645235,2.038443088531494,4.661114855403564,-0.00010097670747200027,0.23072737455368042,-1.6524136702166956,0.0,-0.03725406154990196,1.2540408372879028,-0.00043648850987665355,-0.03428289294242859,0.8409823179244995,0.0,-0.1354527473449707
161.0,220.0,2.0973,-0.7908,8.9222,-0.0466,0.0144,-0.119,-1.812812944451803,-0.023949602618813515,2.8302440643310547,-1.5992326736450195,0.003909505438059568,2.0977296829223633,4.661130114192627,-0.00010716550605138764,0.22232374548912048,-1.6523497740374964,0.0,-0.02855743281543255,1.2540769577026367,-0.00039178619044832885,-0.038924627006053925,0.8410264253616333,0.0,-0.07340020686388016
161.0,220.0,2.0973,-0.7908,8.9222,-0.0466,0.0144,-0.119,-1.812976976434225,-0.02702861651778221,2.853179454803467,-1.5991358757019043,0.00406300276517868,2.10509991645813,4.661114855403564,-0.00012003540177829564,0.2073766589164734,-1.6523497740374964,0.0,-0.03409179300069809,1.2540850639343262,-0.00034264239366166294,-0.03477855026721954,0.8410103917121887,0.0,-0.08946868032217026
161.0,220.0,2.0973,-0.7908,8.9222,-0.0466,0.0144,-0.119,-1.8131333790221156,-0.03272968530654907,2.764608860015869,-1.5991442203521729,0.004260500892996788,2.0588440895080566,4.661134405727051,-0.00011257078585913405,0.23102721571922302,-1.6523855368243616,0.0,-0.03318449854850769,1.2540771961212158,-0.0003353356441948563,-0.026489000767469406,0.841034471988678,0.0,-0.09376925230026245
161.0,220.0,2.0973,-0.7908,8.9222,-0.0466,0.0144,-0.119,-1.8133417568602503,-0.0372009202837944,2.714946985244751,-1.5991358757019043,0.004957505967468023,2.0700390338897705,4.66114251195874,-0.00010594492050586268,0.21709339320659637,-1.6523659865008753,0.0,-0.03557351976633072,1.2540810108184814,-0.00030864638392813504,-0.029750756919384003,0.841030478477478,0.0,-0.10144136846065521
161.0,220.0,2.0973,-0.7908,8.9222,-0.0466,0.0144,-0.119,-1.8135863743224085,-0.04330297186970711,2.7890849113464355,-1.5991088151931763,0.006029232870787382,2.071866273880005,4.661134405727051,-0.00010005567310145125,0.21787913143634796,-1.652353588734762,0.0,-0.04262243211269379,1.2541050910949707,-0.00030752175371162593,-0.03591953217983246,0.8410544991493225,0.0,-0.07940808683633804
161.0,220.0,2.0973,-0.7908,8.9222,-0.0466,0.0144,-0.119,-1.8138500652708949,-0.04845454916357994,2.734344482421875,-1.5990363359451294,0.0060126143507659435,2.106997489929199,4.6611830431171875,-0.0001065117321559228,0.2145705223083496,-1.6523574034320276,0.0,-0.028069335967302322,1.2540531158447266,-0.00029439901118166745,-0.022404033690690994,0.8410384654998779,0.0,-0.06365000456571579
161.0,220.0,2.0973,-0.7908,8.9222,-0.0466,0.0144,-0.119,-1.8141266308226527,-0.054701559245586395,2.757636070251465,-1.5989794731140137,0.006482744589447975,2.0800788402557373,4.661094351405762,-0.00010505134559934959,0.223113015294075,-1.6523779074298304,0.0,-0.04041265696287155,1.254061222076416,-0.0002952574286609888,-0.02984531968832016,0.8410384654998779,0.0,-0.0753801017999649
161.0,220.0,2.0973,-0.7908,8.9222,-0.0466,0.0144,-0.119,-1.8145033321776332,-0.06190602481365204,2.705864191055298,-1.5989519357681274,0.00676565058529377,2.0709710121154785,4.661146803493164,-0.00010004757496062666,0.2142758071422577,-1.6523492972003382,0.0,-0.029468411579728127,1.2540571689605713,-0.000295913137961179,-0.020514529198408127,0.8410264253616333,0.0,-0.10637815296649933
161.0,220.0,2.0973,-0.7908,8.9222,-0.0466,0.0144,-0.119,-1.814888139764303,-0.07114491611719131,2.670835018157959,-1.5989199876785278,0.006071783602237701,2.087848663330078,4.661114855403564,-9.549788956064731e-05,0.2062096893787384,-1.6523616949664515,0.0,-0.02912227064371109,1.2540452480316162,-0.00029579558758996427,-0.03973032906651497,0.8410425186157227,0.0,-0.07045412063598633
161.0,220.0,2.0973,-0.7908,8.9222,-0.0466,0.0144,-0.119,-1.8153888187804164,-0.07780976593494415,2.7322030067443848,-1.598903775215149,0.00578653858974576,2.078145742416382,4.661111040706299,-9.134390711551532e-05,0.21042269468307495,-1.652337376271383,0.0,-0.04510876163840294,1.2541091442108154,-0.00026385625824332237,-0.04234384000301361,0.8410585522651672,0.0,-0.050548724830150604
161.0,220.0,2.0973,-0.7908,8.9222,-0.0466,0.0144,-0.119,-1.81585754970693,-0.08484785258769989,2.689187526702881,-1.5988520383834839,0.006219377741217613,2.0367133617401123,4.661146803493164,-8.753641304792836e-05,0.2138165533542633,-1.6524017492877405,0.0,-0.04343273490667343,1.2540576457977295,-0.0002544504823163152,-0.03714833781123161,0.841030478477478,0.0,-0.0537019819021225
161.0,220.0,2.0973,-0.7908,8.9222,-0.0466,0.0144,-0.119,-1.8163944683470667,-0.08971437066793442,2.6331231594085693,-1.5987919569015503,0.0061559961177408695,2.0876264572143555,4.661151095027588,-8.403354877373204e-05,0.21356776356697083,-1.652325455342428,0.0,-0.039556801319122314,1.2540494203567505,-0.00021816830849274993,-0.05836532264947891,0.8410585522651672,0.0,-0.04525405168533325
161.0,220.0,2.0973,-0.7908,8.9222,-0.0466,0.0144,-0.119,-1.816951414147848,-0.08735765516757965,2.686840057373047,-1.5987964868545532,0.005590536631643772,2.089899778366089,4.661134405727051,-8.080026600509882e-05,0.19031186401844025,-1.6523860136615198,0.0,-0.047442637383937836,1.2540571689605713,-0.00022852855909150094,-0.03783909231424332,0.8410465121269226,0.0,-0.022715894505381584
163.0,224.0,1.9525,-0.5139,9.3141,-0.1048,-0.0987,-0.1174,-1.8175326786436976,-0.08525370806455612,2.7001724243164062,-1.5987639427185059,0.00406881095841527,2.0577409267425537,4.6610986429401855,-8.606385381426662e-05,0.21697759628295898,-1.6523693243609827,0.0,-0.041853517293930054,1.25409734249115,-0.00020279749878682196,-0.04909484088420868,0.8410384654998779,0.0,-0.06526623666286469
163.0,224.0,1.9525,-0.5139,9.3141,-0.1048,-0.0987,-0.1174,-1.8181010685362757,-0.0896608829498291,2.703017473220825,-1.598736047744751,0.0015440692659467459,2.045558452606201,4.661095305080078,-0.00010191787441726774,0.21251045167446136,-1.652337376271383,0.0,-0.03459469974040985,1.2540452480316162,-0.00021260044013615698,-0.04353804141283035,0.841030478477478,0.0,-0.06168591231107712
163.0,224.0,1.9525,-0.5139,9.3141,-0.1048,-0.0987,-0.1174,-1.8188663921751917,-0.09851764142513275,2.6668701171875,-1.5987598896026611,-0.000576935475692153,2.0267417430877686,4.661122961635254,-0.0001478644262533635,0.2176966667175293,-1.6523616949664515,0.0,-0.04525815695524216,1.2540571689605713,-0.00018734131299424917,-0.03967699781060219,0.841034471988678,-6.23554186063302e-08,-0.13942348957061768
163.0,224.0,1.9525,-0.5139,9.3141,-0.1048,-0.0987,-0.1174,-1.8194309673705042,-0.10307636857032776,2.6921186447143555,-1.5988001823425293,-0.0004910207935608923,2.0871787071228027,4.661158724422119,-0.00014147840556688607,0.21503938734531403,-1.6523693243609827,0.0,-0.047387607395648956,1.2540531158447266,-0.00017199633293785155,-0.035935863852500916,0.8410424590110779,-1.505810179238537e-13,-0.09455376863479614
163.0,224.0,1.9525,-0.5139,9.3141,-0.1048,-0.0987,-0.1174,-1.820120473901266,-0.11177187412977219,2.662120819091797,-1.5987402200698853,-0.00023761173360981047,2.0563862323760986,4.6611267763325195,-0.00013360311277210712,0.20598706603050232,-1.6523454825030726,0.0,-0.031273167580366135,1.2540009021759033,-0.0001589751773281023,-0.04807346314191818,0.8410465121269226,-3.6363544736775867e-19,-0.03768935799598694
163.0,224.0,1.9525,-0.5139,9.3141,-0.1048,-0.0987,-0.1174,-1.8207255802550257,-0.12019898742437363,2.622101068496704,-1.59874427318573,-1.9150293795178186e-08,2.048337936401367,4.661178751582764,-0.0001265577448066324,0.1982092261314392,-1.6523297468768519,0.0,-0.04288354516029358,1.254089117050171,-0.00016888663230929524,-0.04518117755651474,0.8410465121269226,-8.781368855105526e-25,-0.03928579390048981
163.0,224.0,1.9525,-0.5139,9.3141,-0.1048,-0.0987,-0.1174,-1.821341177026266,-0.12467397749423981,2.6244797706604004,-1.5987322330474854,0.004983588121831417,2.049945831298828,4.661163015956543,-0.00010715655662352219,0.21108584105968475,-1.6523616949664515,0.0,-0.035122983157634735,1.2540494203567505,-0.00015809932665433735,-0.05056159943342209,0.8409903049468994,-2.1205974512562906e-30,-0.017675749957561493
163.0,224.0,1.9525,-0.5139,9.3141,-0.1048,-0.0987,-0.1174,-1.8221074543394984,-0.11899398267269135,2.6656599044799805,-1.5986768007278442,0.009016566909849644,2.0718822479248047,4.661151095027588,-0.00010017375461757183,0.2132253646850586,-1.6523616949664515,0.0,-0.03842691332101822,1.2540286779403687,-0.00014003156684339046,-0.04295102134346962,0.8410424590110779,-5.120993356200701e-36,-0.056625932455062866
