ramyac6/ROB537/final_project/csv/good/good_25.csv
tof_0,tof_1,accelx,accely,accelz,gyrox,gyroy,gyroz,shoulder_lift_joint_position,shoulder_lift_joint_velocity,shoulder_lift_joint_effort,elbow_joint_position,elbow_joint_velocity,elbow_joint_effort,wrist_1_joint_position,wrist_1_joint_velocity,wrist_1_joint_effort,wrist_2_joint_position,wrist_2_joint_velocity,wrist_2_joint_effort,wrist_3_joint_position,wrist_3_joint_velocity,wrist_3_joint_effort,shoulder_pan_joint_position,shoulder_pan_joint_velocity,shoulder_pan_joint_effort
203.0,301.0,-3.8327,0.1801,9.0664,-0.0426,0.0205,-0.1155,-2.216078897515768,0.0,4.492279529571533,-1.4401183128356934,-0.0,1.8634321689605713,5.533368694573202,0.0,0.2267039269208908,-1.6455920378314417,0.0,0.0034295939840376377,0.589506983757019,0.0,0.0044876644387841225,1.0963698625564575,0.0,-0.008039497770369053
203.0,301.0,-3.8327,0.1801,9.0664,-0.0426,0.0205,-0.1155,-2.216095109979147,0.0,4.479076862335205,-1.4401183128356934,-0.0,1.839022159576416,5.533364641457357,0.0,0.22686389088630676,-1.6456244627581995,0.0,0.0037470124661922455,0.5894947052001953,0.0,0.0020814172457903624,1.0963133573532104,0.0,0.010044869035482407
203.0,301.0,-3.8327,0.1801,9.0664,-0.0426,0.0205,-0.1155,-2.2160664997496546,0.0,4.482322692871094,-1.440073847770691,-0.0,1.884782314300537,5.533336388855734,0.0,0.21690750122070312,-1.6456564108477991,0.0,-0.00025198468938469887,0.5895147919654846,0.0,0.009267089888453484,1.096349835395813,0.0,-0.014664605259895325
203.0,301.0,-3.8327,0.1801,9.0664,-0.0426,0.0205,-0.1155,-2.216062685052389,0.0,4.4622979164123535,-1.440073847770691,-0.0,1.8989876508712769,5.533316361695089,0.0,0.22259125113487244,-1.6456244627581995,0.0,0.002833127975463867,0.5895230174064636,0.0,0.012388731352984905,1.096341609954834,0.0,0.008941269479691982
203.0,301.0,-3.8327,0.1801,9.0664,-0.0426,0.0205,-0.1155,-2.2160989246764125,0.0,4.495439529418945,-1.4400657415390015,-0.0,1.8617018461227417,5.533324587136068,0.0,0.23350653052330017,-1.6456564108477991,0.0,0.0034864754416048527,0.5894582867622375,0.0,0.005524991080164909,1.0963658094406128,0.0,-0.002306399866938591
203.0,301.0,-3.8327,0.1801,9.0664,-0.0426,0.0205,-0.1155,-2.216090818444723,0.0,4.5232648849487305,-1.4401379823684692,-0.0,1.9109208583831787,5.533340441971578,0.0,0.22216016054153442,-1.6456401983844202,0.0,0.002825191942974925,0.5894829034805298,0.0,0.007716705556958914,1.0963616371154785,0.0,0.054714590311050415
203.0,301.0,-3.8327,0.1801,9.0664,-0.0426,0.0205,-0.1155,-2.216102739373678,0.0,4.515823841094971,-1.440085768699646,-0.0,1.9067732095718384,5.533303963928976,0.0,0.23253151774406433,-1.6456401983844202,0.0,0.000678354175761342,0.5894705057144165,0.0,-0.00496771652251482,1.096293330192566,0.0,0.002777223475277424
203.0,301.0,-3.8327,0.1801,9.0664,-0.0426,0.0205,-0.1155,-2.2160989246764125,0.0,4.500794887542725,-1.4400578737258911,-0.0,1.93791663646698,5.533291804581442,0.0,0.24228569865226746,-1.6456440130816858,0.0,-0.004516263492405415,0.5895271301269531,0.0,-0.009815005585551262,1.0963133573532104,0.0,-0.03634530305862427
203.0,301.0,-3.8327,0.1801,9.0664,-0.0426,0.0205,-0.1155,-2.2161108456053675,0.0,4.4799089431762695,-1.4401378631591797,-0.0,1.9026546478271484,5.533344495087423,0.0,0.22575992345809937,-1.6456001440631312,0.0,-0.00579563993960619,0.5894869565963745,0.0,0.015423370525240898,1.096329689025879,0.0,0.02702328749001026
207.0,290.0,-3.8489,0.2189,9.0335,-0.0339,0.0206,-0.1124,-2.216086526910299,0.0,4.464412689208984,-1.4401544332504272,-0.0,1.9068644046783447,5.533320414810934,0.0,0.22068177163600922,-1.6456359068499964,0.0,0.0031673298217356205,0.5895147919654846,0.0,0.012061038985848427,1.0963175296783447,0.0,0.0041046952828764915
207.0,290.0,-3.8489,0.2189,9.0335,-0.0339,0.0206,-0.1124,-2.2160784206786097,0.0,4.493469715118408,-1.4401183128356934,-0.0,1.882309913635254,5.533348667412557,0.0,0.2218746542930603,-1.645604435597555,0.0,-0.0027649879921227694,0.5895070433616638,0.0,0.01152336411178112,1.0963338613510132,0.0,0.01956109330058098
207.0,290.0,-3.8489,0.2189,9.0335,-0.0339,0.0206,-0.1124,-2.2160707912840785,0.0,4.478204727172852,-1.4400980472564697,-0.0,1.915229320526123,5.533316361695089,0.0,0.22844372689723969,-1.6456401983844202,0.0,0.0009253571624867618,0.5895271301269531,0.0,0.019849279895424843,1.0963298082351685,0.0,-0.00350346602499485
207.0,290.0,-3.8489,0.2189,9.0335,-0.0339,0.0206,-0.1124,-2.216090818444723,0.0,4.532144069671631,-1.4400657415390015,-0.0,1.906935691833496,5.533328163414755,0.0,0.22075021266937256,-1.6456525961505335,0.0,-0.010097317397594452,0.5894263386726379,0.0,-0.001895055640488863,1.096293330192566,0.0,-0.036854181438684464
207.0,290.0,-3.8489,0.2189,9.0335,-0.0339,0.0206,-0.1124,-2.2160664997496546,0.0,4.509531021118164,-1.440090298652649,-0.0,1.9276258945465088,5.533376800804891,0.0,0.2264113575220108,-1.645599667225973,0.0,0.009176520630717278,0.5895550847053528,0.0,0.012238658964633942,1.096301555633545,0.0,-0.043308570981025696
207.0,290.0,-3.8489,0.2189,9.0335,-0.0339,0.0206,-0.1124,-2.216050764123434,0.0,4.495725154876709,-1.440093994140625,-0.0,1.8763525485992432,5.533291804581442,0.0,0.229254812002182,-1.6456244627581995,0.0,-0.0034265853464603424,0.5894747376441956,0.0,-0.001176255289465189,1.0963215827941895,0.0,0.025929704308509827
207.0,290.0,-3.8489,0.2189,9.0335,-0.0339,0.0206,-0.1124,-2.216102739373678,0.0,4.495269298553467,-1.440085768699646,-0.0,1.930424690246582,5.533352720528402,0.0,0.22859874367713928,-1.6456401983844202,0.0,-0.0022693031933158636,0.5895025730133057,0.0,-0.010593576356768608,1.0963011980056763,0.0,0.045250438153743744
207.0,290.0,-3.8489,0.2189,9.0335,-0.0339,0.0206,-0.1124,-2.2161313496031703,0.0,4.485525608062744,-1.440093994140625,-0.0,1.9123690128326416,5.533380913525381,0.0,0.22312915325164795,-1.6456244627581995,0.0,-0.0065265535376966,0.5894787311553955,0.0,0.005356446839869022,1.096337914466858,0.0,0.02606266736984253
207.0,290.0,-3.8489,0.2189,9.0335,-0.0339,0.0206,-0.1124,-2.2160784206786097,0.0,4.446438789367676,-1.440093994140625,-0.0,1.8945307731628418,5.533344495087423,0.0,0.22981476783752441,-1.6456201712237757,0.0,-0.002414902439340949,0.5894344449043274,0.0,-0.002259516157209873,1.0962855815887451,0.0,0.04121706262230873
207.0,290.0,-3.8489,0.2189,9.0335,-0.0339,0.0206,-0.1124,-2.2160502872862757,0.0,4.472391605377197,-1.4400734901428223,-0.0,1.9184526205062866,5.533348667412557,0.0,0.22491273283958435,-1.6456120649920862,0.0,-0.0074094198644161224,0.5895189046859741,0.0,0.010011810809373856,1.096301555633545,0.0,-0.0360914021730423
207.0,290.0,-3.8489,0.2189,9.0335,-0.0339,0.0206,-0.1124,-2.2161151371397914,0.0,4.51145076751709,-1.4400817155838013,-0.0,1.8662538528442383,5.533308076649465,0.0,0.22018347680568695,-1.6456645170794886,0.0,-0.01017539482563734,0.5894504189491272,0.0,0.003898920491337776,1.0963133573532104,0.0,-0.0032726461067795753
207.0,290.0,-3.8489,0.2189,9.0335,-0.0339,0.0206,-0.1124,-2.216107030908102,0.0,4.502830505371094,-1.4401297569274902,-0.0,1.898801565170288,5.533348667412557,0.0,0.21364039182662964,-1.6456201712237757,0.0,0.0026345928199589252,0.5894586443901062,0.0,0.0021995343267917633,1.0963579416275024,0.0,0.01629624329507351
207.0,290.0,-3.8489,0.2189,9.0335,-0.0339,0.0206,-0.1124,-2.216086526910299,0.0,4.429892063140869,-1.4401018619537354,-0.0,1.8558170795440674,5.53330813625411,0.0,0.22484591603279114,-1.6456077734576624,0.0,-0.0005894522182643414,0.5894463658332825,0.0,0.004235358908772469,1.0962855815887451,0.0,-0.043592505156993866
207.0,290.0,-3.8489,0.2189,9.0335,-0.0339,0.0206,-0.1124,-2.216102739373678,0.0,4.477506637573242,-1.4401297569274902,-0.0,1.8752293586730957,5.533340382366934,0.0,0.22632285952568054,-1.6456483046161097,0.0,-0.0035346574150025845,0.5895349383354187,0.0,-0.0028442135080695152,1.0963817834854126,0.0,0.017773868516087532
207.0,290.0,-3.8489,0.2189,9.0335,-0.0339,0.0206,-0.1124,-2.216102739373678,0.0,4.470617294311523,-1.4401142597198486,-0.0,1.8989737033843994,5.533340382366934,0.0,0.21338960528373718,-1.645660702382223,0.0,-0.013539712876081467,0.5894344449043274,0.0,0.0021537889260798693,1.096301555633545,0.0,0.01443067193031311
207.0,290.0,-3.8489,0.2189,9.0335,-0.0339,0.0206,-0.1124,-2.216086526910299,0.0,4.477705955505371,-1.4401463270187378,-0.0,1.9279062747955322,5.533308076649465,0.0,0.21842557191848755,-1.6456201712237757,0.0,0.003204907989129424,0.589474618434906,0.0,-0.00014563440345227718,1.0962731838226318,0.0,0.02655768394470215
207.0,290.0,-3.8489,0.2189,9.0335,-0.0339,0.0206,-0.1124,-2.216095109979147,0.0,4.459621429443359,-1.440142035484314,-0.0,1.8610711097717285,5.533336388855734,0.0,0.21753419935703278,-1.6455915609942835,0.0,0.006093260366469622,0.5894827842712402,0.0,-0.004439400043338537,1.0963056087493896,0.0,-0.026820307597517967
197.0,297.0,-3.7819,0.2333,8.9372,-0.035,0.0264,-0.1155,-2.216086526910299,0.0,4.4675068855285645,-1.4401100873947144,-0.0,1.8573758602142334,5.533344673901357,0.0,0.22512057423591614,-1.6456401983844202,0.0,-0.0071328324265778065,0.589389979839325,0.0,0.0139762032777071,1.0963056087493896,0.0,-0.016092468053102493
197.0,297.0,-3.7819,0.2333,8.9372,-0.035,0.0264,-0.1155,-2.2161227665343226,0.0,4.52665901184082,-1.440045952796936,-0.0,1.9552981853485107,5.533320474415579,0.0,0.21584993600845337,-1.64561635652651,0.0,-0.004703446291387081,0.5894664525985718,0.0,-0.007821636274456978,1.096293330192566,0.0,-0.025763915851712227
197.0,297.0,-3.7819,0.2333,8.9372,-0.035,0.0264,-0.1155,-2.216102739373678,0.0,4.480297565460205,-1.4400980472564697,-0.0,1.907344102859497,5.533319937973776,0.0,0.21510225534439087,-1.6456244627581995,0.0,-0.003578211646527052,0.589470624923706,0.0,0.0028307531028985977,1.0963056087493896,0.0,-0.00690784165635705
197.0,297.0,-3.7819,0.2333,8.9372,-0.035,0.0264,-0.1155,-2.216107030908102,0.0,4.510316848754883,-1.4400696754455566,-0.0,1.9379009008407593,5.533344495087423,0.0,0.2279655635356903,-1.6456401983844202,0.0,-0.0005041054682806134,0.5894583463668823,0.0,0.003999684471637011,1.0963538885116577,0.0,-0.03267986327409744
197.0,297.0,-3.7819,0.2333,8.9372,-0.035,0.0264,-0.1155,-2.2160827122130335,0.0,4.532564640045166,-1.440102219581604,-0.0,1.9030134677886963,5.533385085850515,0.0,0.2332514524459839,-1.6456120649920862,0.0,-0.004427914507687092,0.5895349979400635,0.0,0.007593173999339342,1.0963215827941895,0.0,0.01986541785299778
197.0,297.0,-3.7819,0.2333,8.9372,-0.035,0.0264,-0.1155,-2.216086526910299,0.0,4.511613845825195,-1.4400780200958252,-0.0,1.939821720123291,5.533328163414755,0.0,0.22289305925369263,-1.645672623311178,0.0,0.0010499595664441586,0.589506983757019,0.0,-0.0037139062769711018,1.0962855815887451,0.0,0.004134208895266056
197.0,297.0,-3.7819,0.2333,8.9372,-0.035,0.0264,-0.1155,-2.216102739373678,0.0,4.4776105880737305,-1.440150260925293,-0.0,1.8927433490753174,5.533344495087423,0.0,0.23412814736366272,-1.645627800618307,0.0,0.00039714574813842773,0.58949875831604,0.0,-0.0014481574762612581,1.0963338613510132,0.0,0.019468631595373154
197.0,297.0,-3.7819,0.2333,8.9372,-0.035,0.0264,-0.1155,-2.2160421810545863,0.0,4.478937149047852,-1.4400620460510254,-0.0,1.915905475616455,5.533364641457357,0.0,0.22401517629623413,-1.6456645170794886,0.0,-0.007096686866134405,0.5895106792449951,0.0,0.01318956259638071,1.0963338613510132,0.0,-0.013716966845095158
197.0,297.0,-3.7819,0.2333,8.9372,-0.035,0.0264,-0.1155,-2.216074605981344,0.0,4.500232696533203,-1.4401183128356934,-0.0,1.9005273580551147,5.533340501576223,0.0,0.21030902862548828,-1.6456564108477991,0.0,-0.0020517907105386257,0.5895349383354187,0.0,0.0033251107670366764,1.0962814092636108,0.0,0.020940711721777916
197.0,297.0,-3.7819,0.2333,8.9372,-0.035,0.0264,-0.1155,-2.2161270580687464,0.0,4.4755659103393555,-1.4401297569274902,-0.0,1.921250343322754,5.533279943257131,0.0,0.212520569562912,-1.6456564108477991,0.0,-0.018548743799328804,0.5895025730133057,0.0,0.0026721905451267958,1.0963093042373657,0.0,0.06914535164833069
197.0,297.0,-3.7819,0.2333,8.9372,-0.035,0.0264,-0.1155,-2.216086526910299,0.0,4.467411994934082,-1.4400696754455566,-0.0,1.8794668912887573,5.533348667412557,0.0,0.22459524869918823,-1.645672623311178,0.0,0.0068017360754311085,0.589474618434906,0.0,0.003079273970797658,1.0963056087493896,0.0,0.004844070412218571
197.0,297.0,-3.7819,0.2333,8.9372,-0.035,0.0264,-0.1155,-2.216118951837057,0.0,4.484665870666504,-1.4400577545166016,-0.0,1.9241752624511719,5.533328163414755,0.0,0.23351305723190308,-1.64561635652651,0.0,-0.0019834963604807854,0.5895066261291504,0.0,-0.0003925322089344263,1.0963215827941895,0.0,0.02642056718468666
197.0,297.0,-3.7819,0.2333,8.9372,-0.035,0.0264,-0.1155,-2.2160707912840785,0.0,4.494027137756348,-1.4400458335876465,-0.0,1.9347670078277588,5.5333082554634,0.0,0.22470304369926453,-1.6456120649920862,0.0,-0.0072479951195418835,0.5894546508789062,0.0,0.004167262464761734,1.0962973833084106,0.0,0.014658252708613873
197.0,297.0,-3.7819,0.2333,8.9372,-0.035,0.0264,-0.1155,-2.216102739373678,0.0,4.480846405029297,-1.4400898218154907,-0.0,1.8990918397903442,5.533303963928976,0.0,0.222724050283432,-1.6455920378314417,0.0,-0.011648210696876049,0.589474618434906,0.0,0.009580474346876144,1.096329689025879,0.0,0.011213955469429493
197.0,297.0,-3.7819,0.2333,8.9372,-0.035,0.0264,-0.1155,-2.216107030908102,0.0,4.48433780670166,-1.440093994140625,-0.0,1.909088134765625,5.533304083138265,0.0,0.234799325466156,-1.64561635652651,0.0,-0.00581343611702323,0.589559018611908,0.0,-0.0035036893095821142,1.0963257551193237,0.0,0.04972544312477112
197.0,297.0,-3.7819,0.2333,8.9372,-0.035,0.0264,-0.1155,-2.2161065540709437,0.0,4.509721755981445,-1.4400861263275146,-0.0,1.8738396167755127,5.533328163414755,0.0,0.23168422281742096,-1.6456401983844202,0.0,-0.004085189662873745,0.5894464254379272,0.0,0.0008992450311779976,1.0962612628936768,0.0,0.027999242767691612
197.0,297.0,-3.7819,0.2333,8.9372,-0.035,0.0264,-0.1155,-2.216107030908102,0.0,4.5301055908203125,-1.44010591506958,-0.0,1.8891273736953735,5.533336448460378,0.0,0.22870787978172302,-1.645660702382223,0.0,0.002010649535804987,0.589474618434906,0.0,0.003993126563727856,1.0962936878204346,0.0,-0.02367611974477768
202.0,289.0,-3.8094,0.198,9.0652,-0.0385,0.024,-0.1129,-2.216086526910299,0.0,4.465997695922852,-1.440085768699646,-0.0,1.9228582382202148,5.533312189369955,0.0,0.2238895744085312,-1.6456440130816858,0.0,-0.0050882576033473015,0.589462399482727,0.0,-0.008850302547216415,1.0963419675827026,0.0,0.04213342070579529
202.0,289.0,-3.8094,0.198,9.0652,-0.0385,0.024,-0.1129,-2.2161227665343226,0.0,4.518576622009277,-1.4401460886001587,-0.0,1.8741705417633057,5.533348667412557,0.0,0.2142370492219925,-1.6456401983844202,0.0,-0.008218296803534031,0.5894906520843506,0.0,0.0045911455526947975,1.096337914466858,0.0,0.030808500945568085
202.0,289.0,-3.8094,0.198,9.0652,-0.0385,0.024,-0.1129,-2.216090818444723,0.0,4.476268768310547,-1.4400776624679565,-0.0,1.9114153385162354,5.533320414810934,0.0,0.23905977606773376,-1.6456287542926233,0.0,-0.004299727734178305,0.5894787907600403,0.0,0.0028639407828450203,1.0963616371154785,0.0,-0.024986114352941513
202.0,289.0,-3.8094,0.198,9.0652,-0.0385,0.024,-0.1129,-2.2161389789977015,0.0,4.476580619812012,-1.440085768699646,-0.0,1.9099550247192383,5.533328163414755,0.0,0.23269250988960266,-1.6456401983844202,0.0,0.007189137861132622,0.5894582867622375,0.0,-0.0027164388447999954,1.0962973833084106,0.0,-0.00910921674221754
202.0,289.0,-3.8094,0.198,9.0652,-0.0385,0.024,-0.1129,-2.216102739373678,0.0,4.5111870765686035,-1.4400578737258911,-0.0,1.9232838153839111,5.533336388855734,0.0,0.22277575731277466,-1.6456039587603968,0.0,-0.010390367358922958,0.5895389318466187,0.0,-0.010021166875958443,1.0963419675827026,0.0,0.0032428642734885216
202.0,289.0,-3.8094,0.198,9.0652,-0.0385,0.024,-0.1129,-2.2160707912840785,0.0,4.5137786865234375,-1.4401668310165405,-0.0,1.9014358520507812,5.533344495087423,0.0,0.2392074465751648,-1.6456287542926233,0.0,-0.0038153938949108124,0.5894705057144165,0.0,0.0024494128301739693,1.096366286277771,0.0,-0.0219985730946064
202.0,289.0,-3.8094,0.198,9.0652,-0.0385,0.024,-0.1129,-2.2160545788206996,0.0,4.440669059753418,-1.4400253295898438,-0.0,1.9047106504440308,5.533319937973776,0.0,0.22434774041175842,-1.6456440130816858,0.0,0.003865271806716919,0.5894664525985718,0.0,-0.0037614977918565273,1.096349835395813,0.0,0.004604963585734367
202.0,289.0,-3.8094,0.198,9.0652,-0.0385,0.024,-0.1129,-2.216086526910299,0.0,4.501420021057129,-1.4400615692138672,-0.0,1.8955447673797607,5.533360528736868,0.0,0.2187935709953308,-1.6455519835101526,0.0,-0.0017376667819917202,0.5895147919654846,0.0,0.006706372834742069,1.0963133573532104,0.0,0.011634544469416142
202.0,289.0,-3.8094,0.198,9.0652,-0.0385,0.024,-0.1129,-2.2160664997496546,0.0,4.514491081237793,-1.440093994140625,-0.0,1.9314870834350586,5.533340382366934,0.0,0.23137998580932617,-1.6456483046161097,0.0,-0.013499261811375618,0.5894582271575928,0.0,0.002847250085324049,1.0963175296783447,0.0,0.03804514929652214
202.0,289.0,-3.8094,0.198,9.0652,-0.0385,0.024,-0.1129,-2.2160831890501917,0.0,4.477819919586182,-1.4401378631591797,-0.0,1.860522747039795,5.533360469132223,0.0,0.21782860159873962,-1.645632568989889,0.0,0.00681988475844264,0.5895512700080872,0.0,0.005461931228637695,1.0963133573532104,0.0,0.0008260589092969894
202.0,289.0,-3.8094,0.198,9.0652,-0.0385,0.024,-0.1129,-2.2161108456053675,0.0,4.473212242126465,-1.440114140510559,-0.0,1.9013389348983765,5.533376800804891,0.0,0.22325150668621063,-1.64561635652651,0.0,-0.013322976417839527,0.589466392993927,0.0,0.0014834937173873186,1.096301555633545,0.0,0.022532090544700623
202.0,289.0,-3.8094,0.198,9.0652,-0.0385,0.024,-0.1129,-2.2161108456053675,0.0,4.502872943878174,-1.4400938749313354,-0.0,1.8751440048217773,5.533376860409536,0.0,0.22325663268566132,-1.645672623311178,0.0,-0.004939985927194357,0.5894747376441956,0.0,0.009280442260205746,1.096329689025879,0.0,-0.027786340564489365
202.0,289.0,-3.8094,0.198,9.0652,-0.0385,0.024,-0.1129,-2.216102739373678,0.0,4.492560386657715,-1.440133810043335,-0.0,1.9030182361602783,5.533303904324331,0.0,0.2275002896785736,-1.64561635652651,0.0,0.003039016854017973,0.5895267128944397,0.0,0.019301095977425575,1.0963456630706787,0.0,0.025283755734562874
202.0,289.0,-3.8094,0.198,9.0652,-0.0385,0.024,-0.1129,-2.2160664997496546,0.0,4.4520673751831055,-1.4401545524597168,-0.0,1.917751669883728,5.533352780133047,0.0,0.2281528115272522,-1.6456287542926233,0.0,0.0020605563186109066,0.5895066261291504,0.0,0.002382407896220684,1.0963175296783447,0.0,-0.04493547976016998
202.0,289.0,-3.8094,0.198,9.0652,-0.0385,0.024,-0.1129,-2.216095109979147,0.0,4.516450881958008,-1.440093994140625,-0.0,1.898214340209961,5.533372926502981,0.0,0.22500556707382202,-1.6455915609942835,0.0,-0.003516707569360733,0.5894705653190613,0.0,-0.00584038533270359,1.0962814092636108,0.0,-0.024598870426416397
202.0,289.0,-3.8094,0.198,9.0652,-0.0385,0.024,-0.1129,-2.216107030908102,0.0,4.498700141906738,-1.4400657415390015,-0.0,1.8758724927902222,5.533364701062002,0.0,0.23310819268226624,-1.645672623311178,0.0,-0.011701598763465881,0.5894865989685059,0.0,0.004800423979759216,1.0963056087493896,0.0,0.010414281859993935
202.0,289.0,-3.8094,0.198,9.0652,-0.0385,0.024,-0.1129,-2.216095109979147,0.0,4.503350257873535,-1.4400815963745117,-0.0,1.8753045797348022,5.533336448460378,0.0,0.2296910583972931,-1.6456201712237757,0.0,0.0018904991447925568,0.5894423127174377,0.0,0.011569993570446968,1.096341609954834,0.0,-0.00616090651601553
199.0,302.0,-3.7735,0.25,8.9306,-0.0356,0.0273,-0.1165,-2.216062685052389,0.0,4.474894046783447,-1.44010591506958,-0.0,1.8955787420272827,5.533344435482778,0.0,0.2358761727809906,-1.6456287542926233,0.0,-0.001841111108660698,0.5894786715507507,0.0,-0.004635038319975138,1.0963175296783447,0.0,-0.034674033522605896
199.0,302.0,-3.7735,0.25,8.9306,-0.0356,0.0273,-0.1165,-2.2161508999266566,0.0,4.442485332489014,-1.4400898218154907,-0.0,1.9160635471343994,5.533352780133047,0.0,0.21540486812591553,-1.6456120649920862,0.0,-0.004075532779097557,0.5894827842712402,0.0,0.0008843695977702737,1.0963175296783447,0.0,-0.029209746047854424
199.0,302.0,-3.7735,0.25,8.9306,-0.0356,0.0273,-0.1165,-2.216074605981344,0.0,4.4921464920043945,-1.4401347637176514,-0.0,1.8448197841644287,5.533295798092642,0.0,0.2160957157611847,-1.6456602255450647,0.0,0.014379387721419334,0.5894140601158142,0.0,-0.009765391238033772,1.0963338613510132,0.0,-0.013394501060247421
199.0,302.0,-3.7735,0.25,8.9306,-0.0356,0.0273,-0.1165,-2.2160827122130335,0.0,4.476325988769531,-1.4400697946548462,-0.0,1.8912899494171143,5.533340620785513,0.0,0.22965911030769348,-1.6456201712237757,0.0,-0.0010959110222756863,0.5895390510559082,0.0,0.013500566594302654,1.0962973833084106,0.0,-0.005386844277381897
199.0,302.0,-3.7735,0.25,8.9306,-0.0356,0.0273,-0.1165,-2.2160383663573207,0.0,4.503190040588379,-1.440041422843933,-0.0,1.899381160736084,5.533356416016378,0.0,0.22448062896728516,-1.6456764380084437,0.0,-0.0005126148462295532,0.5894988775253296,0.0,0.003801278304308653,1.0963215827941895,0.0,0.0012570838443934917
199.0,302.0,-3.7735,0.25,8.9306,-0.0356,0.0273,-0.1165,-2.216090818444723,0.0,4.5112385749816895,-1.4400898218154907,-0.0,1.9569118022918701,5.533348667412557,0.0,0.22509491443634033,-1.6456201712237757,0.0,0.00039264874067157507,0.5894869565963745,0.0,-0.009104263968765736,1.0963338613510132,0.0,-0.01793617010116577
199.0,302.0,-3.7735,0.25,8.9306,-0.0356,0.0273,-0.1165,-2.216074605981344,0.0,4.5115156173706055,-1.440073847770691,-0.0,1.916856288909912,5.533332335739889,0.0,0.23629264533519745,-1.6456201712237757,0.0,0.002154184505343437,0.5895025730133057,0.0,0.009791404008865356,1.0962735414505005,0.0,-0.042234063148498535
199.0,302.0,-3.7735,0.25,8.9306,-0.0356,0.0273,-0.1165,-2.2160588703551234,0.0,4.492383003234863,-1.4401021003723145,-0.0,1.9302561283111572,5.533356952458181,0.0,0.22777041792869568,-1.6456201712237757,0.0,-0.0009220580104738474,0.5895189642906189,0.0,0.002611238043755293,1.0963133573532104,0.0,0.026453865692019463
199.0,302.0,-3.7735,0.25,8.9306,-0.0356,0.0273,-0.1165,-2.2160707912840785,0.0,4.480072021484375,-1.4401265382766724,-0.0,1.8971251249313354,5.533348667412557,0.0,0.22407738864421844,-1.6456201712237757,0.0,-0.004397837910801172,0.58949875831604,0.0,-0.002788316225633025,1.096358060836792,0.0,-0.022518057376146317
199.0,302.0,-3.7735,0.25,8.9306,-0.0356,0.0273,-0.1165,-2.2161227665343226,0.0,4.490849494934082,-1.4400376081466675,-0.0,1.8086119890213013,5.533348667412557,0.0,0.22689521312713623,-1.6455839315997522,0.0,0.004673168063163757,0.589474618434906,0.0,0.00489614624530077,1.096301555633545,0.0,-0.0004229634068906307
199.0,302.0,-3.7735,0.25,8.9306,-0.0356,0.0273,-0.1165,-2.2160870037474574,0.0,4.502069473266602,-1.4400817155838013,-0.0,1.8775532245635986,5.533276247769155,0.0,0.23325929045677185,-1.6456244627581995,0.0,0.006621329113841057,0.5895066261291504,0.0,0.005916507914662361,1.0963215827941895,0.0,0.01400323212146759
199.0,302.0,-3.7735,0.25,8.9306,-0.0356,0.0273,-0.1165,-2.216142793694967,0.0,4.513692378997803,-1.44008207321167,-0.0,1.8714888095855713,5.533356952458181,0.0,0.22091925144195557,-1.64561635652651,0.0,-0.0048849801532924175,0.5894582867622375,0.0,0.01163504272699356,1.0963056087493896,0.0,-0.01935582235455513
199.0,302.0,-3.7735,0.25,8.9306,-0.0356,0.0273,-0.1165,-2.2161108456053675,0.0,4.493968963623047,-1.44010591506958,-0.0,1.8797738552093506,5.533291744976797,0.0,0.21818047761917114,-1.6456201712237757,0.0,-0.0001795933349058032,0.5894865393638611,0.0,0.013992302119731903,1.0962852239608765,0.0,-0.04862561821937561
199.0,302.0,-3.7735,0.25,8.9306,-0.0356,0.0273,-0.1165,-2.216078897515768,0.0,4.475430011749268,-1.4401100873947144,-0.0,1.8821616172790527,5.533279824047842,0.0,0.2239627242088318,-1.6456287542926233,0.0,-0.0094919353723526,0.5894582867622375,0.0,0.01336637046188116,1.0963175296783447,0.0,0.013238854706287384
199.0,302.0,-3.7735,0.25,8.9306,-0.0356,0.0273,-0.1165,-2.216130872766012,0.0,4.468122482299805,-1.4400376081466675,-0.0,1.9063849449157715,5.533385085850515,0.0,0.22095176577568054,-1.6456244627581995,0.0,-0.009749511256814003,0.5894865393638611,0.0,0.013905974105000496,1.096301555633545,0.0,-0.016201168298721313
199.0,302.0,-3.7735,0.25,8.9306,-0.0356,0.0273,-0.1165,-2.216102739373678,0.0,4.525044918060303,-1.440102219581604,-0.0,1.8668899536132812,5.533328163414755,0.0,0.2311779260635376,-1.64561635652651,0.0,0.00214939471334219,0.589474618434906,0.0,0.0007371380925178528,1.096309781074524,0.0,0.017879094928503036
199.0,302.0,-3.7735,0.25,8.9306,-0.0356,0.0273,-0.1165,-2.216090818444723,0.0,4.494561195373535,-1.440093994140625,-0.0,1.9186848402023315,5.533316361695089,0.0,0.2385123372077942,-1.6456401983844202,0.0,-2.152571687474847e-05,0.5894869565963745,0.0,-0.0011908647138625383,1.0963659286499023,0.0,-0.07239790260791779
203.0,304.0,-3.8554,0.2261,9.0467,-0.0338,0.0241,-0.1095,-2.216095109979147,0.0,4.457687854766846,-1.440073847770691,-0.0,1.879512071609497,5.533352720528402,0.0,0.23490601778030396,-1.6455958525287073,0.0,-0.015192239545285702,0.5895469784736633,0.0,0.0031196526251733303,1.0963338613510132,0.0,-0.010059947147965431
203.0,304.0,-3.8554,0.2261,9.0467,-0.0338,0.0241,-0.1095,-2.216090818444723,0.0,4.457419395446777,-1.4400578737258911,-0.0,1.8498252630233765,5.533348667412557,0.0,0.22300784289836884,-1.6455758253680628,0.0,-0.005670404061675072,0.5895147323608398,0.0,0.004193850327283144,1.096337914466858,0.0,0.021970219910144806
203.0,304.0,-3.8554,0.2261,9.0467,-0.0338,0.0241,-0.1095,-2.2161108456053675,0.0,4.514196395874023,-1.4400980472564697,-0.0,1.8845994472503662,5.533356356411733,0.0,0.2274724692106247,-1.6456483046161097,0.0,-0.01304140966385603,0.5894705653190613,0.0,9.709340520203114e-05,1.0962973833084106,0.0,0.013798142783343792
203.0,304.0,-3.8554,0.2261,9.0467,-0.0338,0.0241,-0.1095,-2.2161270580687464,0.0,4.488356590270996,-1.44010591506958,-0.0,1.9139440059661865,5.533336388855734,0.0,0.22286644577980042,-1.6456483046161097,0.0,0.006882448215037584,0.5894787311553955,0.0,0.020419523119926453,1.0963056087493896,0.0,-0.009881647303700447
203.0,304.0,-3.8554,0.2261,9.0467,-0.0338,0.0241,-0.1095,-2.2160784206786097,0.0,4.541331768035889,-1.440089464187622,-0.0,1.8969025611877441,5.533332335739889,0.0,0.226749449968338,-1.645599667225973,0.0,-0.010302640497684479,0.5894665122032166,0.0,0.0008221745956689119,1.0963133573532104,0.0,-0.0037497468292713165
203.0,304.0,-3.8554,0.2261,9.0467,-0.0338,0.0241,-0.1095,-2.2160588703551234,0.0,4.492198467254639,-1.4401265382766724,-0.0,1.9113264083862305,5.533308315068044,0.0,0.22592070698738098,-1.6456077734576624,0.0,0.003119745058938861,0.589522659778595,0.0,-0.006076537538319826,1.0963575839996338,0.0,0.01609686017036438
203.0,304.0,-3.8554,0.2261,9.0467,-0.0338,0.0241,-0.1095,-2.216090818444723,0.0,4.482879161834717,-1.440037727355957,-0.0,1.9071297645568848,5.533336388855734,0.0,0.23728780448436737,-1.6456120649920862,0.0,-0.004787440411746502,0.589474618434906,0.0,0.002621932653710246,1.0963096618652344,0.0,-0.010035725310444832
203.0,304.0,-3.8554,0.2261,9.0467,-0.0338,0.0241,-0.1095,-2.216074605981344,0.0,4.509920120239258,-1.4401142597198486,-0.0,1.9078142642974854,5.533348667412557,0.0,0.22092394530773163,-1.6456244627581995,0.0,0.00042608618969097733,0.5895106792449951,0.0,-0.012240546755492687,1.0963133573532104,0.0,0.005935070104897022
203.0,304.0,-3.8554,0.2261,9.0467,-0.0338,0.0241,-0.1095,-2.2160545788206996,0.0,4.453359603881836,-1.4400454759597778,-0.0,1.853912591934204,5.533312189369955,0.0,0.2249344438314438,-1.6456564108477991,0.0,-0.002369323279708624,0.5894906520843506,0.0,-0.001625287113711238,1.096301555633545,0.0,-0.00494669284671545
203.0,304.0,-3.8554,0.2261,9.0467,-0.0338,0.0241,-0.1095,-2.216078897515768,0.0,4.491615295410156,-1.4400898218154907,-0.0,1.8928864002227783,5.533316361695089,0.0,0.22975340485572815,-1.6456244627581995,0.0,-0.0009421927970834076,0.589458703994751,0.0,0.009565815329551697,1.0962973833084106,0.0,0.0185403972864151
203.0,304.0,-3.8554,0.2261,9.0467,-0.0338,0.0241,-0.1095,-2.2161108456053675,0.0,4.480813503265381,-1.440130591392517,-0.0,1.9297497272491455,5.533340382366934,0.0,0.22674113512039185,-1.645599667225973,0.0,-0.0071354215033352375,0.5895185470581055,0.0,0.005662828683853149,1.096301555633545,0.0,-0.003756704507395625
203.0,304.0,-3.8554,0.2261,9.0467,-0.0338,0.0241,-0.1095,-2.216086526910299,0.0,4.530994892120361,-1.4401142597198486,-0.0,1.8727238178253174,5.533344495087423,0.0,0.21374750137329102,-1.6456244627581995,0.0,-0.0010138858342543244,0.5894587635993958,0.0,-0.005986190401017666,1.0963056087493896,0.0,0.02224482223391533
203.0,304.0,-3.8554,0.2261,9.0467,-0.0338,0.0241,-0.1095,-2.2161108456053675,0.0,4.486711502075195,-1.4400898218154907,-0.0,1.912348985671997,5.533312189369955,0.0,0.22592537105083466,-1.6456077734576624,0.0,-0.0032773118000477552,0.5894827842712402,0.0,0.0038661945145577192,1.096301555633545,0.0,-0.0014947226736694574
203.0,304.0,-3.8554,0.2261,9.0467,-0.0338,0.0241,-0.1095,-2.216102739373678,0.0,4.475728988647461,-1.4401265382766724,-0.0,1.9049707651138306,5.533328163414755,0.0,0.23181584477424622,-1.6456359068499964,0.0,-0.007844837382435799,0.589438259601593,0.0,0.002177734859287739,1.0963175296783447,0.0,0.006761932745575905
203.0,304.0,-3.8554,0.2261,9.0467,-0.0338,0.0241,-0.1095,-2.216078897515768,0.0,4.4990081787109375,-1.4401100873947144,-0.0,1.8735764026641846,5.533308076649465,0.0,0.22395744919776917,-1.6456287542926233,0.0,-0.013644549995660782,0.5895185470581055,0.0,0.0043960330076515675,1.0963056087493896,0.0,-0.047168564051389694
203.0,304.0,-3.8554,0.2261,9.0467,-0.0338,0.0241,-0.1095,-2.216074605981344,0.0,4.463697910308838,-1.440077543258667,-0.0,1.8721165657043457,5.53330414274291,0.0,0.2321377992630005,-1.6456440130816858,0.0,-0.006604391150176525,0.5895189046859741,0.0,0.0068551842123270035,1.0963215827941895,0.0,-0.01344548910856247
203.0,304.0,-3.8554,0.2261,9.0467,-0.0338,0.0241,-0.1095,-2.2160827122130335,0.0,4.462494373321533,-1.4401586055755615,-0.0,1.9030059576034546,5.533316302090444,0.0,0.2189880907535553,-1.645672623311178,0.0,-0.015293163247406483,0.5894868969917297,0.0,0.0014724819920957088,1.096369981765747,0.0,-0.006069941446185112
202.0,297.0,-3.8853,0.1866,9.0927,-0.0347,0.0232,-0.1126,-2.216102739373678,0.0,4.450935363769531,-1.440097689628601,-0.0,1.8649779558181763,5.533332335739889,0.0,0.23020809888839722,-1.6456316153155726,0.0,-0.005049411207437515,0.5895066261291504,0.0,0.003524358384311199,1.0963456630706787,0.0,0.006947394926100969
202.0,297.0,-3.8853,0.1866,9.0927,-0.0347,0.0232,-0.1126,-2.2160784206786097,0.0,4.505297660827637,-1.440102219581604,-0.0,1.8854666948318481,5.533304083138265,0.0,0.22102607786655426,-1.6456440130816858,0.0,0.000346246175467968,0.5894303321838379,0.0,0.001982378540560603,1.096337914466858,0.0,0.043662507086992264
202.0,297.0,-3.8853,0.1866,9.0927,-0.0347,0.0232,-0.1126,-2.216074605981344,0.0,4.484976291656494,-1.440049648284912,-0.0,1.8490402698516846,5.533295798092642,0.0,0.22502830624580383,-1.6456244627581995,0.0,-0.0019731326028704643,0.5894263386726379,0.0,0.006970657967031002,1.0963051319122314,0.0,-0.017036842182278633
202.0,297.0,-3.8853,0.1866,9.0927,-0.0347,0.0232,-0.1126,-2.2160984478392542,0.0,4.431598663330078,-1.4400696754455566,-0.0,1.8588237762451172,5.533348667412557,0.0,0.22222211956977844,-1.6456201712237757,0.0,-0.010895708575844765,0.5894827842712402,0.0,-0.004096695221960545,1.0963256359100342,0.0,-0.02806837111711502
202.0,297.0,-3.8853,0.1866,9.0927,-0.0347,0.0232,-0.1126,-2.2160707912840785,0.0,4.492730140686035,-1.4400898218154907,-0.0,1.895195484161377,5.533364701062002,0.0,0.22582143545150757,-1.6456359068499964,0.0,-0.007851013913750648,0.5895066857337952,0.0,0.00714503601193428,1.096329689025879,0.0,0.012677265331149101
202.0,297.0,-3.8853,0.1866,9.0927,-0.0347,0.0232,-0.1126,-2.216118951837057,0.0,4.454553604125977,-1.440142035484314,-0.0,1.870269536972046,5.533344495087423,0.0,0.23526006937026978,-1.6456201712237757,0.0,-0.00599165353924036,0.5895106792449951,0.0,0.00358743779361248,1.0963133573532104,0.0,-0.022009313106536865
202.0,297.0,-3.8853,0.1866,9.0927,-0.0347,0.0232,-0.1126,-2.2161108456053675,0.0,4.4988555908203125,-1.4400619268417358,-0.0,1.8981554508209229,5.533295798092642,0.0,0.22697678208351135,-1.64561635652651,0.0,0.006854393985122442,0.5895066857337952,0.0,-0.01599537581205368,1.096301555633545,0.0,-0.035365991294384
202.0,297.0,-3.8853,0.1866,9.0927,-0.0347,0.0232,-0.1126,-2.216102739373678,0.0,4.447054862976074,-1.440093994140625,-0.0,1.9291812181472778,5.533304083138265,0.0,0.21718832850456238,-1.6456316153155726,0.0,0.005315680056810379,0.5895147919654846,0.0,-0.0031229890882968903,1.0963175296783447,0.0,0.002829032251611352
202.0,297.0,-3.8853,0.1866,9.0927,-0.0347,0.0232,-0.1126,-2.216095109979147,0.0,4.4937567710876465,-1.440110445022583,-0.0,1.8576757907867432,5.533372747689047,0.0,0.22688451409339905,-1.645632568989889,0.0,-0.0017412083689123392,0.5895512700080872,0.0,0.006053814198821783,1.0963338613510132,0.0,-0.009689723141491413
202.0,297.0,-3.8853,0.1866,9.0927,-0.0347,0.0232,-0.1126,-2.216130872766012,0.0,4.501532077789307,-1.440085768699646,-0.0,1.9310035705566406,5.533392834454336,0.0,0.2284666895866394,-1.6456120649920862,0.0,-0.002699114615097642,0.589474618434906,0.0,-0.00894229207187891,1.0963659286499023,0.0,0.01325780525803566
202.0,297.0,-3.8853,0.1866,9.0927,-0.0347,0.0232,-0.1126,-2.2160664997496546,0.0,4.477811813354492,-1.44010591506958,-0.0,1.8872778415679932,5.533328163414755,0.0,0.22365552186965942,-1.6455596129046839,0.0,-0.004107594024389982,0.5894344449043274,0.0,0.001768106478266418,1.0963215827941895,0.0,0.0033248921390622854
202.0,297.0,-3.8853,0.1866,9.0927,-0.0347,0.0232,-0.1126,-2.2161108456053675,0.0,4.49588680267334,-1.4401017427444458,-0.0,1.898551106452942,5.533295798092642,0.0,0.22090387344360352,-1.6456244627581995,0.0,0.0039401184767484665,0.5894787311553955,0.0,0.00966904778033495,1.0963456630706787,0.0,-0.0010039173066616058
202.0,297.0,-3.8853,0.1866,9.0927,-0.0347,0.0232,-0.1126,-2.2161227665343226,0.0,4.474775791168213,-1.4401100873947144,-0.0,1.8805768489837646,5.533348667412557,0.0,0.22692373394966125,-1.6455877462970179,0.0,-0.0043958197347819805,0.589462399482727,0.0,-0.002752317115664482,1.096329689025879,0.0,-0.006307507865130901
202.0,297.0,-3.8853,0.1866,9.0927,-0.0347,0.0232,-0.1126,-2.216090818444723,0.0,4.495959281921387,-1.4401544332504272,-0.0,1.885512113571167,5.533303904324331,0.0,0.21663036942481995,-1.6456688086139124,0.0,0.002887677401304245,0.5894664525985718,0.0,0.028533080592751503,1.096341609954834,0.0,0.018339471891522408
202.0,297.0,-3.8853,0.1866,9.0927,-0.0347,0.0232,-0.1126,-2.2160707912840785,0.0,4.468068599700928,-1.4401307106018066,-0.0,1.8987542390823364,5.533320414810934,0.0,0.22438779473304749,-1.6456201712237757,0.0,0.00017542147543281317,0.5894463658332825,0.0,0.0076907360926270485,1.0963338613510132,0.0,-0.07271759957075119
202.0,297.0,-3.8853,0.1866,9.0927,-0.0347,0.0232,-0.1126,-2.2161108456053675,0.0,4.483636379241943,-1.4401307106018066,-0.0,1.9388339519500732,5.533344495087423,0.0,0.22223302721977234,-1.6456440130816858,0.0,-0.009113842621445656,0.5894706845283508,0.0,0.011257778853178024,1.096329689025879,0.0,-0.05215274542570114
202.0,297.0,-3.8853,0.1866,9.0927,-0.0347,0.0232,-0.1126,-2.2160707912840785,0.0,4.4721527099609375,-1.4401421546936035,-0.0,1.878037929534912,5.533296334534445,0.0,0.23002350330352783,-1.6456525961505335,0.0,-0.0007691894425079226,0.589474618434906,0.0,-0.0021341522224247456,1.0963133573532104,0.0,-0.017571162432432175
207.0,307.0,-3.8339,0.2046,9.0473,-0.0423,0.0205,-0.1109,-2.216102739373678,0.0,4.461303234100342,-1.4401100873947144,-0.0,1.8643739223480225,5.533295798092642,0.0,0.218767911195755,-1.6456077734576624,0.0,0.010164820589125156,0.5894505381584167,0.0,0.006528748199343681,1.0963174104690552,0.0,-0.008228863589465618
207.0,307.0,-3.8339,0.2046,9.0473,-0.0423,0.0205,-0.1109,-2.216114660302633,0.0,4.480195045471191,-1.4401100873947144,-0.0,1.8680427074432373,5.533344495087423,0.0,0.22682975232601166,-1.6456077734576624,0.0,0.0016839767340570688,0.5894787311553955,0.0,-0.008120907470583916,1.0963338613510132,0.0,0.0021468852646648884
207.0,307.0,-3.8339,0.2046,9.0473,-0.0423,0.0205,-0.1109,-2.216086526910299,0.0,4.5135064125061035,-1.4400335550308228,-0.0,1.9586290121078491,5.533336448460378,0.0,0.23671479523181915,-1.6456359068499964,0.0,-0.004632714204490185,0.5894947052001953,0.0,0.006398390047252178,1.0963257551193237,0.0,-0.028735022991895676
207.0,307.0,-3.8339,0.2046,9.0473,-0.0423,0.0205,-0.1109,-2.216086526910299,0.0,4.497913360595703,-1.4401100873947144,-0.0,1.933774471282959,5.533328163414755,0.0,0.22473359107971191,-1.6456440130816858,0.0,0.005135173909366131,0.5895189642906189,0.0,-0.0036883915308862925,1.0963175296783447,0.0,0.027671921998262405
207.0,307.0,-3.8339,0.2046,9.0473,-0.0423,0.0205,-0.1109,-2.2160588703551234,0.0,4.515303134918213,-1.4401297569274902,-0.0,1.911264181137085,5.533348667412557,0.0,0.2301347553730011,-1.6456564108477991,0.0,-0.00433853454887867,0.589474618434906,0.0,-0.006247363518923521,1.096349835395813,0.0,0.02647280879318714
207.0,307.0,-3.8339,0.2046,9.0473,-0.0423,0.0205,-0.1109,-2.2160946331419886,0.0,4.4843292236328125,-1.4400861263275146,-0.0,1.8989365100860596,5.53331212976531,0.0,0.23507943749427795,-1.6455920378314417,0.0,0.003273126669228077,0.5895147323608398,0.0,0.0027254729066044092,1.0963456630706787,0.0,0.00235065259039402
207.0,307.0,-3.8339,0.2046,9.0473,-0.0423,0.0205,-0.1109,-2.216074605981344,0.0,4.477695941925049,-1.440102219581604,-0.0,1.9196219444274902,5.533324587136068,0.0,0.22913506627082825,-1.6456120649920862,0.0,-0.007008437067270279,0.5895066857337952,0.0,0.004558130167424679,1.096361756324768,0.0,-0.007351914420723915
207.0,307.0,-3.8339,0.2046,9.0473,-0.0423,0.0205,-0.1109,-2.216095109979147,0.0,4.514413356781006,-1.4400898218154907,-0.0,1.8990367650985718,5.533332335739889,0.0,0.2181885689496994,-1.6456244627581995,0.0,0.001492371316999197,0.5894823670387268,0.0,-0.00669105164706707,1.0963093042373657,0.0,0.02619960904121399
207.0,307.0,-3.8339,0.2046,9.0473,-0.0423,0.0205,-0.1109,-2.216135164300436,0.0,4.464221000671387,-1.440093994140625,-0.0,1.9051883220672607,5.533360528736868,0.0,0.23525655269622803,-1.6455958525287073,0.0,-0.005349098704755306,0.5895025134086609,0.0,0.0011006444692611694,1.0963175296783447,0.0,0.028485821560025215
207.0,307.0,-3.8339,0.2046,9.0473,-0.0423,0.0205,-0.1109,-2.2160831890501917,0.0,4.4774932861328125,-1.4400780200958252,-0.0,1.8857476711273193,5.533344495087423,0.0,0.2249310463666916,-1.6455758253680628,0.0,-0.00029658013954758644,0.5895071029663086,0.0,-0.0006910781376063824,1.0963175296783447,0.0,0.008171414956450462
207.0,307.0,-3.8339,0.2046,9.0473,-0.0423,0.0205,-0.1109,-2.2160984478392542,0.0,4.522217273712158,-1.4400376081466675,-0.0,1.8444418907165527,5.533332395344534,0.0,0.2221454679965973,-1.6456440130816858,0.0,0.008055193349719048,0.5895186066627502,0.0,0.014541327953338623,1.096337914466858,0.0,-0.05156863108277321
207.0,307.0,-3.8339,0.2046,9.0473,-0.0423,0.0205,-0.1109,-2.2161108456053675,0.0,4.496065139770508,-1.440102219581604,-0.0,1.8901193141937256,5.533328163414755,0.0,0.23295918107032776,-1.6456244627581995,0.0,-0.005838901735842228,0.5895308256149292,0.0,-0.004706007428467274,1.0963133573532104,0.0,0.04281918331980705
207.0,307.0,-3.8339,0.2046,9.0473,-0.0423,0.0205,-0.1109,-2.2160588703551234,0.0,4.532001972198486,-1.4401224851608276,-0.0,1.8873507976531982,5.533328699856558,0.0,0.22516265511512756,-1.6456201712237757,0.0,0.004321491811424494,0.5895070433616638,0.0,0.00018079672008752823,1.096337914466858,0.0,-0.02558276243507862
207.0,307.0,-3.8339,0.2046,9.0473,-0.0423,0.0205,-0.1109,-2.216090818444723,0.0,4.460566997528076,-1.4401462078094482,-0.0,1.9027049541473389,5.533376800804891,0.0,0.21824049949645996,-1.6456077734576624,0.0,-0.0018846348393708467,0.5895025730133057,0.0,0.0024194917641580105,1.096329689025879,0.0,0.005227355752140284
207.0,307.0,-3.8339,0.2046,9.0473,-0.0423,0.0205,-0.1109,-2.2160984478392542,0.0,4.466357707977295,-1.44010591506958,-0.0,1.8967307806015015,5.533316361695089,0.0,0.23372161388397217,-1.645684544240133,0.0,-0.012814778834581375,0.5894263386726379,0.0,0.003992258105427027,1.0963256359100342,0.0,0.03642577677965164
207.0,307.0,-3.8339,0.2046,9.0473,-0.0423,0.0205,-0.1109,-2.2161151371397914,0.0,4.505495071411133,-1.440093994140625,-0.0,1.8450640439987183,5.533328163414755,0.0,0.21845191717147827,-1.6456077734576624,0.0,-0.005398507229983807,0.5894865393638611,0.0,0.0070715248584747314,1.096349835395813,0.0,-0.04487735778093338
207.0,307.0,-3.8339,0.2046,9.0473,-0.0423,0.0205,-0.1109,-2.216102739373678,0.0,4.517484188079834,-1.440133810043335,-0.0,1.9059884548187256,5.533316361695089,0.0,0.2301231175661087,-1.6456440130816858,0.0,-0.014916976913809776,0.5895070433616638,0.0,0.004388076718896627,1.0964058637619019,0.0,-0.007260569371283054
200.0,297.0,-4.127,0.7472,9.463,-0.0292,0.0357,-0.1167,-2.216130872766012,0.0,4.498451232910156,-1.440073847770691,-0.0,1.9024662971496582,5.5332926390464685,0.0,0.23549044132232666,-1.6456525961505335,0.0,0.0020053479820489883,0.5894865393638611,0.0,0.0068700602278113365,1.0963735580444336,0.00157778593711555,-0.046780943870544434
200.0,297.0,-4.127,0.7472,9.463,-0.0292,0.0357,-0.1167,-2.21616329769277,0.0,4.513756275177002,-1.4401183128356934,-0.0,1.8912279605865479,5.533312368183889,0.0,0.21866843104362488,-1.6456645170794886,0.0,-0.015391189604997635,0.5894865393638611,0.0,0.006544762756675482,1.096437931060791,0.002121962374076247,0.010293995961546898
200.0,297.0,-4.127,0.7472,9.463,-0.0292,0.0357,-0.1167,-2.216086526910299,0.0,4.488476753234863,-1.4401346445083618,-0.0,1.9124647378921509,5.533295857697286,0.0,0.2238602638244629,-1.6456645170794886,0.0,0.0037353886291384697,0.5894906520843506,0.0,0.002812761114910245,1.0964337587356567,0.0019933602306991816,-0.00225180946290493
200.0,297.0,-4.127,0.7472,9.463,-0.0292,0.0357,-0.1167,-2.2160984478392542,0.0,4.486545562744141,-1.4400817155838013,-0.0,1.8830749988555908,5.533304083138265,0.0,0.22564226388931274,-1.6456401983844202,0.0,-0.007786341477185488,0.58949875831604,0.0,-0.0021886248141527176,1.0963932275772095,0.0014524419093504548,-0.016683686524629593
200.0,297.0,-4.127,0.7472,9.463,-0.0292,0.0357,-0.1167,-2.2160946331419886,0.0,4.500099182128906,-1.4401297569274902,-0.0,1.8808369636535645,5.533324587136068,0.0,0.218673437833786,-1.6456359068499964,0.0,0.006685283035039902,0.5894583463668823,0.0,-0.0009646850521676242,1.0964295864105225,0.0010589133016765118,-0.017484746873378754
200.0,297.0,-4.127,0.7472,9.463,-0.0292,0.0357,-0.1167,-2.216130872766012,0.0,4.4715962409973145,-1.4400657415390015,-0.0,1.9509015083312988,5.5332844136054895,0.0,0.2094321995973587,-1.6456645170794886,0.0,-0.00815231166779995,0.5894100069999695,0.0,0.006925063207745552,1.0963771343231201,0.0008386867702938616,-0.022710531949996948
200.0,297.0,-4.127,0.7472,9.463,-0.0292,0.0357,-0.1167,-2.2161065540709437,0.0,4.433328151702881,-1.440085768699646,-0.0,1.8759713172912598,5.533296334534445,0.0,0.21913403272628784,-1.645627800618307,0.0,-0.01102733239531517,0.5895025730133057,0.0,-0.002099897712469101,1.0964053869247437,0.000669199216645211,-0.003783953608945012
200.0,297.0,-4.127,0.7472,9.463,-0.0292,0.0357,-0.1167,-2.216118951837057,0.0,4.464663505554199,-1.4400697946548462,-0.0,1.880049705505371,5.533276247769155,0.0,0.22552263736724854,-1.6456602255450647,0.0,0.0015117181465029716,0.589474618434906,0.0,0.001118795364163816,1.096482515335083,0.001689961296506226,-0.014356466941535473
200.0,297.0,-4.127,0.7472,9.463,-0.0292,0.0357,-0.1167,-2.2161466083922328,0.0,4.458646297454834,-1.4401142597198486,-0.0,1.893219232559204,5.533320414810934,0.0,0.24051301181316376,-1.6456721464740198,0.0,-0.005395791959017515,0.5895103216171265,0.0,0.009060719050467014,1.0964701175689697,0.0027671498246490955,0.020571455359458923
200.0,297.0,-4.127,0.7472,9.463,-0.0292,0.0357,-0.1167,-2.216114660302633,0.0,4.4694108963012695,-1.4400815963745117,-0.0,1.907932162284851,5.5332922814186,0.0,0.22473353147506714,-1.6456196943866175,0.0,-0.014474395662546158,0.5894906520843506,0.0,0.010608041658997536,1.0964494943618774,0.0028994933236390352,-0.0027029383927583694
200.0,297.0,-4.127,0.7472,9.463,-0.0292,0.0357,-0.1167,-2.216118951837057,0.0,4.485359191894531,-1.4401100873947144,-0.0,1.904419183731079,5.533279824047842,0.0,0.22861149907112122,-1.6456721464740198,0.0,-0.006366307847201824,0.5894263386726379,0.0,0.0031744425650686026,1.0964938402175903,0.0027373949997127056,-0.03097919002175331
200.0,297.0,-4.127,0.7472,9.463,-0.0292,0.0357,-0.1167,-2.216102739373678,0.0,4.493768215179443,-1.4401544332504272,-0.0,1.868996262550354,5.533292221813955,0.0,0.23270530998706818,-1.645627800618307,0.0,0.0021257216576486826,0.5894344449043274,0.0,-0.003288751933723688,1.096534013748169,0.0016330479411408305,0.03189516067504883
200.0,297.0,-4.127,0.7472,9.463,-0.0292,0.0357,-0.1167,-2.216034074822897,0.0,4.48736047744751,-1.440130591392517,-0.0,1.8713970184326172,5.533295798092642,0.0,0.22749242186546326,-1.645623509083883,0.0,0.00190173857845366,0.5894906520843506,0.0,0.009961677715182304,1.0964815616607666,0.0009486902272328734,0.040127236396074295
200.0,297.0,-4.127,0.7472,9.463,-0.0292,0.0357,-0.1167,-2.216090818444723,0.0,4.505008697509766,-1.4400293827056885,0.0013541473308578134,1.8885630369186401,5.533299970417776,0.0,0.2243691384792328,-1.645684544240133,0.0,-0.002771671861410141,0.5894664525985718,0.0,-0.004210975952446461,1.0964736938476562,0.0005807868437841535,-0.0177613478153944
200.0,297.0,-4.127,0.7472,9.463,-0.0292,0.0357,-0.1167,-2.2161270580687464,0.0,4.515030384063721,-1.4400293827056885,0.003157645231112838,1.8918771743774414,5.533361005574026,0.0,0.22590959072113037,-1.6456316153155726,0.0,-0.0036636143922805786,0.5894263386726379,0.0,0.005338555667549372,1.0964577198028564,0.0004186037986073643,0.0022390796802937984
200.0,297.0,-4.127,0.7472,9.463,-0.0292,0.0357,-0.1167,-2.216078897515768,0.0,4.457477569580078,-1.4400458335876465,0.0030731281731277704,1.873610019683838,5.533332335739889,0.0,0.2266060709953308,-1.645627800618307,0.0,0.007125047966837883,0.5894664525985718,0.0,-0.0037346966564655304,1.0965015888214111,0.0003529205860104412,-0.006349856499582529
200.0,297.0,-4.127,0.7472,9.463,-0.0292,0.0357,-0.1167,-2.216078897515768,0.0,4.503347396850586,-1.4399847984313965,0.002885247115045786,1.9119703769683838,5.533295798092642,0.0,0.2154974639415741,-1.6456244627581995,0.0,0.010186804458498955,0.5894628167152405,0.0,-0.002271221252158284,1.0964856147766113,0.00033598928712308407,0.0013289707712829113
211.0,299.0,-3.719,0.5821,9.1322,-0.0292,0.0232,-0.1229,-2.2160827122130335,0.0,4.476566791534424,-1.4399940967559814,0.0036144396290183067,1.8815476894378662,5.533336448460378,0.0,0.22243890166282654,-1.6456401983844202,0.0,-0.00674011092633009,0.5895470976829529,0.0,0.00538987061008811,1.0965138673782349,0.0002879710227716714,0.012254315428435802
211.0,299.0,-3.719,0.5821,9.1322,-0.0292,0.0232,-0.1229,-2.2161227665343226,0.0,4.509177207946777,-1.439966082572937,0.004810733254998922,1.8979488611221313,5.533364701062002,0.0,0.22600805759429932,-1.6456401983844202,0.0,0.0001584875863045454,0.589462399482727,0.0,0.01951020583510399,1.0964815616607666,0.0002753791050054133,-0.007202004082500935
211.0,299.0,-3.719,0.5821,9.1322,-0.0292,0.0232,-0.1229,-2.2160984478392542,0.0,4.491326332092285,-1.4399940967559814,0.005192193202674389,1.9112775325775146,5.533304083138265,0.0,0.22928529977798462,-1.6456483046161097,0.0,0.003726659342646599,0.5895106792449951,0.0,-0.007752564270049334,1.0964975357055664,0.00029864191310480237,0.013736849650740623
211.0,299.0,-3.719,0.5821,9.1322,-0.0292,0.0232,-0.1229,-2.216102739373678,0.0,4.510493755340576,-1.4399340152740479,0.002643593354150653,1.9032618999481201,5.533324587136068,0.0,0.21862876415252686,-1.6456401983844202,0.0,-0.0010769220534712076,0.5894264578819275,0.0,0.004924118518829346,1.0965057611465454,0.000269133917754516,-0.049461573362350464
211.0,299.0,-3.719,0.5821,9.1322,-0.0292,0.0232,-0.1229,-2.216095109979147,0.0,4.481246471405029,-1.439945936203003,0.0009632246219553053,1.864783763885498,5.533352780133047,0.0,0.21923023462295532,-1.6456120649920862,0.0,0.01398870162665844,0.5894344449043274,0.0,0.0006087969522923231,1.0964975357055664,0.00016433179553132504,0.002309744246304035
211.0,299.0,-3.719,0.5821,9.1322,-0.0292,0.0232,-0.1229,-2.2161151371397914,0.0,4.483964920043945,-1.4400062561035156,0.000538267195224762,1.9076838493347168,5.533279824047842,0.0,0.2303558588027954,-1.6456802527057093,0.0,0.005810849368572235,0.5894947052001953,0.0,0.004004509653896093,1.0964815616607666,0.00015314164920710027,-0.004467588849365711
211.0,299.0,-3.719,0.5821,9.1322,-0.0292,0.0232,-0.1229,-2.216175695458883,0.0,4.4541015625,-1.4399784803390503,0.0003713683981914073,1.9226057529449463,5.533340561180868,0.0,0.22075511515140533,-1.6456401983844202,0.0,-0.0005984129966236651,0.5894582867622375,0.0,0.014755044132471085,1.0964736938476562,0.00013895520532969385,0.01971796527504921
211.0,299.0,-3.719,0.5821,9.1322,-0.0292,0.0232,-0.1229,-2.216118951837057,0.0,4.483115196228027,-1.4399380683898926,0.000283574074273929,1.9169962406158447,5.533308315068044,0.0,0.22863276302814484,-1.6456401983844202,0.0,0.01196941826492548,0.5895313620567322,0.0,-0.001109775621443987,1.0964773893356323,0.00012717372737824917,-0.009403371252119541
211.0,299.0,-3.719,0.5821,9.1322,-0.0292,0.0232,-0.1229,-2.2161466083922328,0.0,4.499424457550049,-1.4398975372314453,0.00024497052072547376,1.906022310256958,5.533260214119711,0.0,0.23793034255504608,-1.6456316153155726,0.0,0.004487794823944569,0.5895071029663086,0.0,0.0038478414062410593,1.0965098142623901,9.630954446038231e-05,-0.0049560233019292355
211.0,299.0,-3.719,0.5821,9.1322,-0.0292,0.0232,-0.1229,-2.216086526910299,0.0,4.478490829467773,-1.439962387084961,0.0002034343924606219,1.9166934490203857,5.533348727017202,0.0,0.2242715209722519,-1.6456316153155726,0.0,-0.01710420846939087,0.5895389318466187,0.0,0.009800579398870468,1.0964696407318115,6.696203490719199e-05,-0.009285208769142628
211.0,299.0,-3.719,0.5821,9.1322,-0.0292,0.0232,-0.1229,-2.216086526910299,0.0,4.439650535583496,-1.4399335384368896,4.764317054650746e-05,1.8763501644134521,5.533348667412557,0.0,0.2216232419013977,-1.6456316153155726,0.0,0.006621629931032658,0.5894505381584167,0.0,0.011306333355605602,1.0964374542236328,-0.0001455981400795281,0.04666630178689957
211.0,299.0,-3.719,0.5821,9.1322,-0.0292,0.0232,-0.1229,-2.216102739373678,0.0,4.526388168334961,-1.4399019479751587,4.0654147596796975e-05,1.8785905838012695,5.53330414274291,0.0,0.2178003489971161,-1.6457203070269983,0.0,0.007745671551674604,0.5894988179206848,0.0,0.01457943581044674,1.0964131355285645,-0.0008183082682080567,0.02091839909553528
211.0,299.0,-3.719,0.5821,9.1322,-0.0292,0.0232,-0.1229,-2.216107030908102,0.0,4.467815399169922,-1.4399340152740479,3.7285572034306824e-05,1.9049988985061646,5.533360945969381,0.0,0.21958017349243164,-1.645684544240133,0.0,-0.012194059789180756,0.5894099473953247,0.0,0.00539379520341754,1.0964374542236328,-0.0015359974931925535,-0.0060067372396588326
211.0,299.0,-3.719,0.5821,9.1322,-0.0292,0.0232,-0.1229,-2.2160989246764125,0.0,4.507574558258057,-1.4399545192718506,6.632697477471083e-05,1.8834768533706665,5.533352720528402,0.0,0.2234354317188263,-1.6456120649920862,0.0,0.007010262925177813,0.5895270705223083,0.0,-0.0039471834897994995,1.0963891744613647,-0.0021515795961022377,-0.003854373237118125
211.0,299.0,-3.719,0.5821,9.1322,-0.0292,0.0232,-0.1229,-2.216090818444723,0.0,4.493768692016602,-1.4399220943450928,8.953825454227626e-05,1.9478341341018677,5.533288109093466,0.0,0.22250181436538696,-1.6456244627581995,0.0,0.010225435718894005,0.5895153284072876,0.0,0.010352540761232376,1.0963817834854126,-0.001695895567536354,-0.04134918376803398
211.0,299.0,-3.719,0.5821,9.1322,-0.0292,0.0232,-0.1229,-2.2161108456053675,0.0,4.497035503387451,-1.4399380683898926,0.00011088557948824018,1.875022292137146,5.533312785416403,0.0,0.22683864831924438,-1.6456316153155726,0.0,0.0035658827982842922,0.5895029306411743,0.0,0.001068399171344936,1.0963572263717651,-0.0019267532043159008,0.014723720960319042
211.0,299.0,-3.719,0.5821,9.1322,-0.0292,0.0232,-0.1229,-2.2160421810545863,0.0,4.515861511230469,-1.4399338960647583,0.0002628606162033975,1.8887556791305542,5.533320414810934,0.0,0.24720492959022522,-1.6456683317767542,0.0,-0.0012545252684503794,0.5894910097122192,0.0,0.00102944765239954,1.096313238143921,-0.003740347921848297,-0.000536113977432251
205.0,296.0,-3.7813,0.1615,9.0784,-0.0231,0.0244,-0.117,-2.2160545788206996,0.0,4.466196060180664,-1.4399380683898926,0.0002678473829291761,1.933929681777954,5.533376979618826,0.0,0.22300845384597778,-1.6456602255450647,0.0,-0.0015377027448266745,0.5894583463668823,0.0,-0.006511885207146406,1.096301555633545,-0.005947556346654892,-0.03529481217265129
205.0,296.0,-3.7813,0.1615,9.0784,-0.0231,0.0244,-0.117,-2.2161032162108363,0.0,4.4713521003723145,-1.4399504661560059,0.00024419455439783633,1.9163415431976318,5.533328163414755,0.0,0.22756023705005646,-1.6456201712237757,0.0,0.0029829794075340033,0.589450478553772,0.0,-0.0055532935075461864,1.0962414741516113,-0.007313401438295841,-0.0053988173604011536
205.0,296.0,-3.7813,0.1615,9.0784,-0.0231,0.0244,-0.117,-2.216095109979147,0.0,4.524005889892578,-1.439962387084961,0.0002508596226107329,1.8592326641082764,5.533332276135244,0.0,0.22332635521888733,-1.6456244627581995,0.0,-0.01266343705356121,0.5894988179206848,0.0,-0.0011563166044652462,1.0962013006210327,-0.005869279615581036,0.01634906604886055
205.0,296.0,-3.7813,0.1615,9.0784,-0.0231,0.0244,-0.117,-2.2160712681212367,0.0,4.472900390625,-1.4399582147598267,0.0002240896428702399,1.866710901260376,5.533292221813955,0.0,0.22695380449295044,-1.6456077734576624,0.0,-0.015439264476299286,0.5894464254379272,0.0,0.007468631025403738,1.0961774587631226,-0.00534798065200448,0.05373568460345268
205.0,296.0,-3.7813,0.1615,9.0784,-0.0231,0.0244,-0.117,-2.216074605981344,0.0,4.479136943817139,-1.4398894309997559,0.00020248250802978873,1.8793768882751465,5.533279883652487,0.0,0.22159594297409058,-1.6455720106707972,0.0,0.00085314956959337,0.5894627571105957,0.0,-0.00013603834668174386,1.0961616039276123,-0.005375332199037075,-0.016183696687221527
205.0,296.0,-3.7813,0.1615,9.0784,-0.0231,0.0244,-0.117,-2.216090818444723,0.0,4.463743209838867,-1.4399261474609375,0.00019025303481612355,1.9100620746612549,5.533344673901357,0.0,0.22728267312049866,-1.6455758253680628,0.0,-0.00827665813267231,0.5894263982772827,0.0,-0.001205013832077384,1.096173882484436,-0.005667596589773893,-0.01735587790608406
205.0,296.0,-3.7813,0.1615,9.0784,-0.0231,0.0244,-0.117,-2.2160502872862757,0.0,4.5020623207092285,-1.4399741888046265,0.00017444812692701817,1.9289097785949707,5.533320414810934,0.0,0.21770788729190826,-1.6456440130816858,0.0,0.008432899601757526,0.5894546508789062,0.0,-0.0002848117146641016,1.0960935354232788,-0.005078417714685202,-0.010697302408516407
205.0,296.0,-3.7813,0.1615,9.0784,-0.0231,0.0244,-0.117,-2.216062685052389,0.0,4.518198013305664,-1.4399380683898926,0.0001610682375030592,1.8456933498382568,5.533227968006887,0.0,0.2114638090133667,-1.6456039587603968,0.0,0.017362583428621292,0.5894746780395508,0.0,-0.005522793158888817,1.0960936546325684,-0.004119584336876869,-0.03105689398944378
205.0,296.0,-3.7813,0.1615,9.0784,-0.0231,0.0244,-0.117,-2.2160588703551234,0.0,4.47224235534668,-1.4399179220199585,0.00015323264233302325,1.9119129180908203,5.533312368183889,0.0,0.22972360253334045,-1.6456401983844202,0.0,-0.00431034853681922,0.5894344449043274,0.0,0.00903214979916811,1.0960813760757446,-0.003279914613813162,0.014819332398474216
205.0,296.0,-3.7813,0.1615,9.0784,-0.0231,0.0244,-0.117,-2.216062685052389,0.0,4.452981948852539,-1.4398976564407349,0.00016321356815751642,1.876391053199768,5.533320534020223,0.0,0.2331644892692566,-1.6456244627581995,0.0,-0.008211023174226284,0.589458703994751,0.0,-0.01653832197189331,1.0960736274719238,-0.001611836371012032,-0.0030289320275187492
205.0,296.0,-3.7813,0.1615,9.0784,-0.0231,0.0244,-0.117,-2.2160421810545863,0.0,4.448690414428711,-1.4399142265319824,0.00016935684834606946,1.8601951599121094,5.533268379956045,-0.0002499769616406411,0.22537782788276672,-1.6456316153155726,0.0,0.005532511509954929,0.5894827842712402,0.0,-0.004731965716928244,1.096097707748413,-0.0007611559703946114,-0.009410482831299305
205.0,296.0,-3.7813,0.1615,9.0784,-0.0231,0.0244,-0.117,-2.2160545788206996,0.0,4.497307777404785,-1.4399586915969849,0.0007860356708988547,1.8849035501480103,5.533300447254934,-0.0002254102291772142,0.21047700941562653,-1.64561635652651,0.0,-0.003010399639606476,0.5894787311553955,0.0,-0.007287145592272282,1.0960776805877686,-0.0005400283844210207,-0.048763446509838104
205.0,296.0,-3.7813,0.1615,9.0784,-0.0231,0.0244,-0.117,-2.216095109979147,0.0,4.484855651855469,-1.4398903846740723,0.002085997024551034,1.8975820541381836,5.533296751766958,-0.00019596081983763725,0.23325510323047638,-1.6456201712237757,0.0,-0.0026212721131742,0.589454174041748,0.0,-0.0020863451063632965,1.0961101055145264,-0.000345237844157964,-0.01451114472001791
205.0,296.0,-3.7813,0.1615,9.0784,-0.0231,0.0244,-0.117,-2.216034551660055,8.804288518149406e-05,4.479441165924072,-1.439850091934204,0.0034384974278509617,1.925844669342041,5.533272492676534,-0.00020796306489501148,0.23832103610038757,-1.6456483046161097,0.0,-0.00860755704343319,0.5894829630851746,0.0,-0.01927047222852707,1.0960813760757446,-0.00021008553449064493,-0.053700633347034454
205.0,296.0,-3.7813,0.1615,9.0784,-0.0231,0.0244,-0.117,-2.2160502872862757,0.00011645948688965291,4.454341888427734,-1.4398219585418701,0.004727127030491829,1.8753340244293213,5.5332520482833765,-0.0001864337536972016,0.22288590669631958,-1.6456287542926233,0.0,-0.023560872301459312,0.5894222259521484,0.0,-0.016713248565793037,1.0960854291915894,8.326696115545928e-05,0.05394591763615608
205.0,296.0,-3.7813,0.1615,9.0784,-0.0231,0.0244,-0.117,-2.216018339196676,0.00012835810775868595,4.4922075271606445,-1.4397817850112915,0.006044591777026653,1.908799171447754,5.5332844136054895,-0.0001743902830639854,0.22196289896965027,-1.6455958525287073,0.0,-0.002031574724242091,0.5894344449043274,0.0,-0.0190158411860466,1.0960732698440552,0.00015380469267256558,0.007136381231248379
202.0,297.0,-3.8865,-0.0604,9.0497,-0.0504,0.0354,-0.1199,-2.216107030908102,0.0005254540592432022,4.432523727416992,-1.439750075340271,0.007202192209661007,1.9027984142303467,5.533316421299734,-0.00015898587298579514,0.20740580558776855,-1.6455839315997522,0.0,-0.016240958124399185,0.58946692943573,0.0,-0.015015816316008568,1.0961177349090576,0.00017522939015179873,0.08619409054517746
202.0,297.0,-3.8865,-0.0604,9.0497,-0.0504,0.0354,-0.1199,-2.216062685052389,0.0004258852859493345,4.517458915710449,-1.4397339820861816,0.007793020457029343,1.9599077701568604,5.533304500370779,-0.00017031902098096907,0.2123393714427948,-1.6456316153155726,0.0,-0.01552941557019949,0.58946692943573,0.0,-0.03265932947397232,1.0960896015167236,0.00019034274737350643,0.07633127272129059
202.0,297.0,-3.8865,-0.0604,9.0497,-0.0504,0.0354,-0.1199,-2.21604647258901,0.00036784863914363086,4.495993614196777,-1.4396615028381348,0.008160659112036228,1.9599616527557373,5.533300447254934,-0.00016168029105756432,0.22708848118782043,-1.6455920378314417,0.0,-0.019777221605181694,0.5894303321838379,0.0,-0.024231135845184326,1.096114158630371,0.0001713470119284466,0.02367566153407097
202.0,297.0,-3.8865,-0.0604,9.0497,-0.0504,0.0354,-0.1199,-2.2160383663573207,0.00030542147578671575,4.504918575286865,-1.4396666288375854,0.008585186675190926,1.983793020248413,5.533272492676534,-0.0001501221559010446,0.21499374508857727,-1.6456039587603968,0.0,-0.005416735541075468,0.5894103646278381,0.0,-0.014708641916513443,1.096113681793213,0.00013327569467946887,0.11617486923933029
202.0,297.0,-3.8865,-0.0604,9.0497,-0.0504,0.0354,-0.1199,-2.2160383663573207,0.00026111124316230416,4.487913131713867,-1.4395899772644043,0.008557888679206371,1.9689264297485352,5.533280300885,-0.00015878333942964673,0.2114139199256897,-1.6455920378314417,0.0,-0.012143397703766823,0.5894950032234192,0.0,-0.013135203160345554,1.0961099863052368,0.00010904865484917536,0.11070606112480164
202.0,297.0,-3.8865,-0.0604,9.0497,-0.0504,0.0354,-0.1199,-2.2160545788206996,0.0002380853984504938,4.447504043579102,-1.439513921737671,0.008231386542320251,1.95806884765625,5.533289003163137,-0.0001532966853119433,0.22120489180088043,-1.6456521193133753,0.0,-0.007744075730443001,0.5894669890403748,0.0,-0.03137462958693504,1.0961018800735474,9.726190910441801e-05,0.10511379688978195
202.0,297.0,-3.8865,-0.0604,9.0497,-0.0504,0.0354,-0.1199,-2.2160750828185023,0.00021027123148087412,4.4574666023254395,-1.4394781589508057,0.008479389362037182,1.9582030773162842,5.533247995167532,-0.00014409796858672053,0.2086712121963501,-1.6455844084369105,0.0,-0.012339966371655464,0.5894148945808411,0.0,-0.022610468789935112,1.096045732498169,8.369368879357353e-05,0.14808884263038635
202.0,297.0,-3.8865,-0.0604,9.0497,-0.0504,0.0354,-0.1199,-2.216091295281881,0.00021965347696095705,4.492034912109375,-1.4394500255584717,0.009066841565072536,1.9615263938903809,5.533276665001669,-0.00013593598851002753,0.21070802211761475,-1.6456201712237757,0.0,-0.01245240867137909,0.5894304513931274,0.0,-0.03045968897640705,1.0960456132888794,7.344780169660226e-05,0.17339426279067993
202.0,297.0,-3.8865,-0.0604,9.0497,-0.0504,0.0354,-0.1199,-2.2160545788206996,0.00019885553047060966,4.472512245178223,-1.4393900632858276,0.009102040901780128,1.9498950242996216,5.533248412400045,-0.00011220911983400583,0.21833397448062897,-1.6456401983844202,0.0,-0.005319829564541578,0.5894787311553955,0.0,-0.0233689546585083,1.0960936546325684,6.543711060658097e-05,0.19839617609977722
202.0,297.0,-3.8865,-0.0604,9.0497,-0.0504,0.0354,-0.1199,-2.216079374352926,0.00018704718968365341,4.463429927825928,-1.4393465518951416,0.009882243350148201,2.002948760986328,5.533256161003866,-0.0001227051398018375,0.2071436047554016,-1.64561635652651,0.0,-0.013869172893464565,0.5894870758056641,0.0,-0.03410598635673523,1.096097707748413,9.148523531621322e-05,0.1944122463464737
202.0,297.0,-3.8865,-0.0604,9.0497,-0.0504,0.0354,-0.1199,-2.2160426578917445,0.00019628452719189227,4.473639488220215,-1.439233660697937,0.012070209719240665,2.012052059173584,5.533304500370779,-0.00013449767720885575,0.20010100305080414,-1.6455877462970179,0.0,-0.02086756005883217,0.5894346833229065,0.0,-0.026265539228916168,1.096097707748413,8.305778465000913e-05,0.20218656957149506
202.0,297.0,-3.8865,-0.0604,9.0497,-0.0504,0.0354,-0.1199,-2.216018339196676,0.0001814452843973413,4.461813926696777,-1.4392025470733643,0.014294818043708801,2.000574827194214,5.5332844136054895,-0.0003572547575458884,0.19951128959655762,-1.6456287542926233,0.0,-0.03097715973854065,0.5894709825515747,0.0,-0.03615764155983925,1.0960859060287476,9.26992142922245e-05,0.28296875953674316
202.0,297.0,-3.8865,-0.0604,9.0497,-0.0504,0.0354,-0.1199,-2.2160226307311,0.00017273880075663328,4.467370986938477,-1.4391021728515625,0.01479471754282713,2.074341058731079,5.533244299679556,-0.00043486268259584904,0.199081689119339,-1.6456316153155726,0.0,-0.01626543141901493,0.5894750356674194,0.0,-0.0353817455470562,1.0960817337036133,9.597911412129179e-05,0.30154603719711304
202.0,297.0,-3.8865,-0.0604,9.0497,-0.0504,0.0354,-0.1199,-2.2160712681212367,0.00011970353807555512,4.47387170791626,-1.4390419721603394,0.015167797915637493,2.080000877380371,5.53323649147109,-0.0007783430628478527,0.19312262535095215,-1.6456039587603968,0.0,-0.020785149186849594,0.5894026160240173,0.0,-0.019180456176400185,1.096057653427124,5.575557588599622e-05,0.28764036297798157
202.0,297.0,-3.8865,-0.0604,9.0497,-0.0504,0.0354,-0.1199,-2.2160226307311,8.868065197020769e-05,4.490616798400879,-1.4389300346374512,0.017334019765257835,2.080613851547241,5.533228325634756,-0.0008307496318593621,0.18657898902893066,-1.645599667225973,0.0,-0.03792571648955345,0.5894346237182617,0.0,-0.03974462300539017,1.0960617065429688,5.097050961921923e-05,0.3359764814376831
202.0,297.0,-3.8865,-0.0604,9.0497,-0.0504,0.0354,-0.1199,-2.2160140476622523,8.451635221717879e-05,4.472222328186035,-1.4388823509216309,0.018447062000632286,2.052299737930298,5.533284890442648,-0.000801792019046843,0.18690979480743408,-1.6456077734576624,0.0,-0.03709547966718674,0.5894504189491272,0.0,-0.03229912742972374,1.0961183309555054,4.8238547606160864e-05,0.39214247465133667
202.0,297.0,-3.8865,-0.0604,9.0497,-0.0504,0.0354,-0.1199,-2.2160750828185023,7.895544695202261e-05,4.451357841491699,-1.4387502670288086,0.020635122433304787,2.0662097930908203,5.533175813942709,-0.0007352081011049449,0.17233571410179138,-1.6456401983844202,0.0,-0.042906440794467926,0.5894787907600403,0.0,-0.04166444391012192,1.0960617065429688,6.696900527458638e-05,0.34382808208465576
202.0,279.0,-3.9464,0.3428,9.1801,-0.0469,0.0487,-0.1174,-2.216079374352926,6.931593088665977e-05,4.4786882400512695,-1.4386223554611206,0.022067993879318237,2.0933687686920166,5.533240663796224,-0.0006568614626303315,0.1661536544561386,-1.6456368605243128,0.0,-0.04003637284040451,0.5894508957862854,0.0,-0.04119136556982994,1.096045732498169,6.23346131760627e-05,0.4083232879638672
202.0,279.0,-3.9464,0.3428,9.1801,-0.0469,0.0487,-0.1174,-2.2160545788206996,5.630416490021162e-05,4.403131484985352,-1.4385030269622803,0.02433166839182377,2.0877065658569336,5.53324060419158,-0.0007201919797807932,0.19057700037956238,-1.645632568989889,0.0,-0.03401300311088562,0.5894346237182617,0.0,-0.018780741840600967,1.0960817337036133,7.77186214691028e-05,0.38646435737609863
202.0,279.0,-3.9464,0.3428,9.1801,-0.0469,0.0487,-0.1174,-2.2160350284972132,5.00418282172177e-05,4.403050422668457,-1.4383622407913208,0.02642131596803665,2.1150591373443604,5.533212411194601,-0.0009590052650310099,0.1733357310295105,-1.645632568989889,0.0,-0.0557350292801857,0.5894226431846619,0.0,-0.021236654371023178,1.0960657596588135,9.312941983807832e-05,0.48316001892089844
202.0,279.0,-3.9464,0.3428,9.1801,-0.0469,0.0487,-0.1174,-2.216002126733297,0.00011389046994736418,4.4564619064331055,-1.438146948814392,0.028223874047398567,2.151151418685913,5.533220696240225,-0.001464628498069942,0.1709965169429779,-1.6456807295428675,0.0,-0.04645281657576561,0.5894386172294617,0.0,-0.027286125347018242,1.0960533618927002,0.00026288878871127963,0.4301745891571045
202.0,279.0,-3.9464,0.3428,9.1801,-0.0469,0.0487,-0.1174,-2.2160226307311,0.00014856398047413677,4.467521667480469,-1.4379944801330566,0.028814228251576424,2.122182607650757,5.533188330918112,-0.0026263182517141104,0.1706092208623886,-1.6456359068499964,0.0,-0.05139215290546417,0.5894587635993958,0.0,-0.032412778586149216,1.0960290431976318,0.00030450636404566467,0.4346029758453369
202.0,279.0,-3.9464,0.3428,9.1801,-0.0469,0.0487,-0.1174,-2.21599878887319,0.0002414501504972577,4.422386169433594,-1.4378628730773926,0.029295388609170914,2.1555275917053223,5.533151852875509,-0.003962566144764423,0.16370965540409088,-1.64561635652651,0.0,-0.05959288775920868,0.5894386172294617,0.0,-0.022109627723693848,1.0960617065429688,0.0005835079937241971,0.46904146671295166
202.0,279.0,-3.9464,0.3428,9.1801,-0.0469,0.0487,-0.1174,-2.2160188160338343,0.0003290580352768302,4.446799278259277,-1.437678575515747,0.029591232538223267,2.100449562072754,5.533116328507223,-0.007348089013248682,0.15810751914978027,-1.64561635652651,-2.138541503882152e-07,-0.05564756318926811,0.5894746780395508,0.0,-0.02588309347629547,1.0960776805877686,0.0005913032218813896,0.46948301792144775
202.0,279.0,-3.9464,0.3428,9.1801,-0.0469,0.0487,-0.1174,-2.215970655480856,0.0006696825730614364,4.464461326599121,-1.4374785423278809,0.030011272057890892,2.1127514839172363,5.533068465977468,-0.011832457035779953,0.1535729616880417,-1.645632568989889,-5.952709158929537e-11,-0.04538935795426369,0.5894263386726379,0.0,-0.017211351543664932,1.0960694551467896,0.0005338436458259821,0.4749877452850342
202.0,279.0,-3.9464,0.3428,9.1801,-0.0469,0.0487,-0.1174,-2.2159868679442347,0.0008322698995471001,4.450278282165527,-1.4373905658721924,0.030352458357810974,2.154562473297119,5.532951819687643,-0.013142590411007404,0.15616610646247864,-1.6456287542926233,-2.537733207168963e-13,-0.06702534109354019,0.5894222855567932,0.0,-0.019773069769144058,1.0960617065429688,0.0005922844284214079,0.5369377136230469
202.0,279.0,-3.9464,0.3428,9.1801,-0.0469,0.0487,-0.1174,-2.2159749470152796,0.0012618578039109707,4.413965225219727,-1.4372309446334839,0.031937140971422195,2.153960943222046,5.532908069878378,-0.01586126536130905,0.13813510537147522,-1.6456316153155726,-7.06387427701909e-17,-0.06377912312746048,0.5894222855567932,0.0,-0.032506637275218964,1.0960854291915894,0.0005278622265905142,0.5346054434776306
202.0,279.0,-3.9464,0.3428,9.1801,-0.0469,0.0487,-0.1174,-2.215994974175924,0.0019163374090567231,4.407310485839844,-1.4369988441467285,0.0346742607653141,2.1842150688171387,5.532783615380087,-0.017542818561196327,0.14128868281841278,-1.6456316153155726,-1.966254844948003e-20,-0.06499052792787552,0.5894827842712402,0.0,-0.02633274905383587,1.0961259603500366,0.0006518281879834831,0.5918650031089783
202.0,279.0,-3.9464,0.3428,9.1801,-0.0469,0.0487,-0.1174,-2.2160192928709925,0.002098943805322051,4.465342044830322,-1.4368548393249512,0.03651491552591324,2.1680288314819336,5.5326958177383325,-0.01834283210337162,0.14663636684417725,-1.6456401983844202,-8.382451756096576e-23,-0.07161379605531693,0.5894509553909302,0.0,-0.021593933925032616,1.096097707748413,0.0007080369396135211,0.5689482688903809
202.0,279.0,-3.9464,0.3428,9.1801,-0.0469,0.0487,-0.1174,-2.215966363946432,0.002554591977968812,4.452621936798096,-1.4365990161895752,0.03983991593122482,2.226668357849121,5.532579529076376,-0.02006259746849537,0.13907086849212646,-1.6455801169024866,-2.3332861602637e-26,-0.0794033482670784,0.58946692943573,0.0,-0.02529793605208397,1.0961177349090576,0.0010572794126346707,0.5843055248260498
202.0,279.0,-3.9464,0.3428,9.1801,-0.0469,0.0487,-0.1174,-2.2159182033934535,0.002583540976047516,4.462883949279785,-1.4363069534301758,0.04277018830180168,2.2676565647125244,5.532422888069906,-0.02060142159461975,0.13702762126922607,-1.6456244627581995,-6.494787220383617e-30,-0.06299996376037598,0.5894103646278381,0.0,-0.022216247394680977,1.096113681793213,0.0011432351311668754,0.5884976387023926
202.0,279.0,-3.9464,0.3428,9.1801,-0.0469,0.0487,-0.1174,-2.2159587345519007,0.0024722879752516747,4.429194450378418,-1.436063289642334,0.04681872949004173,2.2061164379119873,5.532363939076223,-0.020428834483027458,0.12980496883392334,-1.6455877462970179,-1.8078478634272908e-33,-0.07735283672809601,0.589450478553772,0.0,-0.025718268007040024,1.0961017608642578,0.0013012931449338794,0.6207647323608398
202.0,279.0,-3.9464,0.3428,9.1801,-0.0469,0.0487,-0.1174,-2.215898176232809,0.0023234267719089985,4.418586254119873,-1.4359078407287598,0.0488632507622242,2.218478202819824,5.532255756645956,-0.01996355503797531,0.1202777624130249,-1.64561635652651,-7.70713976012446e-36,-0.06923249363899231,0.589451014995575,0.0,-0.029508071020245552,1.0960935354232788,0.00135589181445539,0.5964877009391785
202.0,279.0,-3.9464,0.3428,9.1801,-0.0469,0.0487,-0.1174,-2.2159024677672328,0.002315073972567916,4.4693803787231445,-1.4355794191360474,0.05218740925192833,2.2114005088806152,5.5321358917053125,-0.01811436377465725,0.12879881262779236,-1.6456440130816858,-2.145310877465757e-39,-0.08432314544916153,0.5894468426704407,0.0,-0.03189530223608017,1.096113681793213,0.0014740830520167947,0.6512211561203003
194.0,251.0,-4.3974,-0.0102,9.0796,-0.0582,0.111,-0.1321,-2.2159272632994593,0.002121631521731615,4.468219757080078,-1.4351837635040283,0.058576323091983795,2.239589214324951,5.532064127713003,-0.015198157168924809,0.13819637894630432,-1.6456120649920862,-5.969531458023721e-43,-0.08976992964744568,0.5894669890403748,0.0,-0.0384642668068409,1.0961215496063232,0.002072661416605115,0.6079716682434082
194.0,251.0,-4.3974,-0.0102,9.0796,-0.0582,0.111,-0.1321,-2.2158624134459437,0.0024713887833058834,4.442790985107422,-1.4349677562713623,0.06305620819330215,2.20621395111084,5.532016145973959,-0.012767993845045567,0.13710488379001617,-1.6456120649920862,-2.802596928649634e-45,-0.08132679015398026,0.5894550085067749,0.0,-0.026501454412937164,1.096125602722168,0.002515058731660247,0.621200442314148
194.0,251.0,-4.3974,-0.0102,9.0796,-0.0582,0.111,-0.1321,-2.215874811212057,0.0021517479326575994,4.417760848999023,-1.434556007385254,0.07091505825519562,2.2547621726989746,5.531899559288778,-0.01037805899977684,0.1276390254497528,-1.6456120649920862,-1.565750062582083e-05,-0.09326750785112381,0.5894067287445068,0.0,-0.03361925110220909,1.096133828163147,0.003013039007782936,0.6372495889663696
194.0,251.0,-4.3974,-0.0102,9.0796,-0.0582,0.111,-0.1321,-2.2158709965147914,0.0015647573163732886,4.4333953857421875,-1.4341161251068115,0.0788310244679451,2.3157591819763184,5.531859922200002,-0.009299535304307938,0.1289990097284317,-1.6456764380084437,-0.00011727064702427015,-0.0957428514957428,0.5894627571105957,0.0,-0.03921976685523987,1.0961415767669678,0.0031938795000314713,0.6253198385238647
194.0,251.0,-4.3974,-0.0102,9.0796,-0.0582,0.111,-0.1321,-2.2158428631224574,0.0012289726873859763,4.42641544342041,-1.4337282180786133,0.08281721919775009,2.289520025253296,5.53177564123229,-0.009090152569115162,0.10976874828338623,-1.6456244627581995,-0.0001114888655138202,-0.09399382770061493,0.5894186496734619,0.0,-0.03160727396607399,1.0961575508117676,0.0024015672970563173,0.6890125274658203
194.0,251.0,-4.3974,-0.0102,9.0796,-0.0582,0.111,-0.1321,-2.2158266506590785,0.0008007329306565225,4.433079719543457,-1.433220624923706,0.0897272378206253,2.3318533897399902,5.531719553261556,-0.010288132354617119,0.13565033674240112,-1.6455920378314417,-0.00010377531725680456,-0.08344883471727371,0.5893701910972595,-2.4192178216253524e-07,-0.04089401662349701,1.0961939096450806,0.0015089843655005097,0.6368186473846436
194.0,251.0,-4.3974,-0.0102,9.0796,-0.0582,0.111,-0.1321,-2.215874811212057,0.000579603249207139,4.480329513549805,-1.4326766729354858,0.09587661176919937,2.2984113693237305,5.531603324204244,-0.012798283249139786,0.12556588649749756,-1.6455877462970179,-9.705981938168406e-05,-0.08736638724803925,0.5894144773483276,-6.733980734141554e-11,-0.03597771376371384,1.0961415767669678,0.0010041455971077085,0.693824291229248
194.0,251.0,-4.3974,-0.0102,9.0796,-0.0582,0.111,-0.1321,-2.2158552608885707,0.00045420107198879123,4.434845924377441,-1.432012677192688,0.10152490437030792,2.2851791381835938,5.531555878907003,-0.016559625044465065,0.1289762258529663,-1.6456440130816858,-9.1161324235145e-05,-0.0855521559715271,0.5894263982772827,-1.8744286857256057e-14,-0.026253346353769302,1.0961414575576782,0.0005499527906067669,0.6194537281990051
194.0,251.0,-4.3974,-0.0102,9.0796,-0.0582,0.111,-0.1321,-2.2158948383727015,0.00044687482295557857,4.427133560180664,-1.431640625,0.1057409718632698,2.3234307765960693,5.531463610916891,-0.01861567050218582,0.14537109434604645,-1.6456440130816858,-8.761149365454912e-05,-0.07297535985708237,0.5894508957862854,-7.990983601524444e-17,-0.0330318920314312,1.096149206161499,0.0004374691634438932,0.6431334018707275
194.0,251.0,-4.3974,-0.0102,9.0796,-0.0582,0.111,-0.1321,-2.215814252892965,0.0003096468572039157,4.422998428344727,-1.430961012840271,0.11382057517766953,2.3530216217041016,5.531347441464224,-0.023583989590406418,0.11299886554479599,-1.64561635652651,-8.277633605757728e-05,-0.0707145407795906,0.5894185900688171,-2.224319201751922e-20,-0.04084774851799011,1.0961616039276123,0.000338662852300331,0.6095495223999023
194.0,251.0,-4.3974,-0.0102,9.0796,-0.0582,0.111,-0.1321,-2.215846677819723,0.00022921200434211642,4.431208610534668,-1.4302253723144531,0.11932451277971268,2.3006105422973633,5.531106459885397,-0.03507115691900253,0.11148067563772202,-1.6456440130816858,-7.072012522257864e-05,-0.07801461219787598,0.5894308686256409,-6.191474211101169e-24,-0.03244255110621452,1.096157431602478,0.0002762732619885355,0.6122882962226868
194.0,251.0,-4.3974,-0.0102,9.0796,-0.0582,0.111,-0.1321,-2.215874811212057,0.00020801853679586202,4.452993392944336,-1.4297575950622559,0.12374328076839447,2.3672728538513184,5.530982839852133,-0.04348696023225784,0.1074758768081665,-1.6456077734576624,-6.067752474336885e-05,-0.07252097129821777,0.5894264578819275,-2.6395224258936835e-26,-0.0448414608836174,1.0961456298828125,0.00024605615180917084,0.6437668204307556
194.0,251.0,-4.3974,-0.0102,9.0796,-0.0582,0.111,-0.1321,-2.2158385715880335,0.0001826821535360068,4.4311041831970215,-1.42896568775177,0.13171426951885223,2.36044979095459,5.530650841980734,-0.06261574476957321,0.09393086284399033,-1.6456244627581995,-5.772605072706938e-05,-0.0705517902970314,0.5894509553909302,-7.347208327667715e-30,-0.03473648801445961,1.0961333513259888,0.00021137839939910918,0.6165929436683655
194.0,251.0,-4.3974,-0.0102,9.0796,-0.0582,0.111,-0.1321,-2.2158266506590785,0.00016284894081763923,4.430581092834473,-1.4281460046768188,0.13892105221748352,2.3783724308013916,5.530186641007223,-0.08749082684516907,0.10125498473644257,-1.6455801169024866,-5.5076772696338594e-05,-0.0773896649479866,0.5894386768341064,-2.0451221328247388e-33,-0.045989979058504105,1.0961817502975464,0.00018526912026572973,0.6532377600669861
194.0,251.0,-4.3974,-0.0102,9.0796,-0.0582,0.111,-0.1321,-2.2158428631224574,0.00015185757365543395,4.4686784744262695,-1.4275983572006226,0.13957667350769043,2.4119954109191895,5.529829907208242,-0.104082852602005,0.07452577352523804,-1.6456077734576624,-5.34415667061694e-05,-0.057528868317604065,0.5895153284072876,-8.718676181852928e-36,-0.044164784252643585,1.0962300300598145,0.0001936443877639249,0.6277891993522644
194.0,251.0,-4.3974,-0.0102,9.0796,-0.0582,0.111,-0.1321,-2.215903421441549,0.0001378967281198129,4.451344013214111,-1.4266345500946045,0.14360947906970978,2.4004909992218018,5.529098260193624,-0.12239775061607361,0.06947138160467148,-1.6456287542926233,-5.1163053285563365e-05,-0.06666810065507889,0.5894308090209961,-2.426875179201007e-39,-0.04311542958021164,1.09621000289917,0.00021466937323566526,0.61676025390625
194.0,251.0,-4.3974,-0.0102,9.0796,-0.0582,0.111,-0.1321,-2.215850969354147,0.0001262867299374193,4.446242332458496,-1.4258067607879639,0.1541498750448227,2.379162311553955,5.528305101185598,-0.13131967186927795,0.06291799992322922,-1.6456001440631312,-4.906895264866762e-05,-0.08119750767946243,0.5894185900688171,-6.754258598045618e-43,-0.025630641728639603,1.0961652994155884,0.00021692579321097583,0.6209228038787842
185.0,237.0,-5.1422,0.0407,9.1179,0.0134,-0.1826,-0.0878,-2.215879102746481,0.00011648012150544673,4.464938163757324,-1.4248113632202148,0.16403621435165405,2.4311294555664062,5.527428555279531,-0.14687801897525787,0.07200580090284348,-1.6456244627581995,-4.714133683592081e-05,-0.05060796067118645,0.5894550681114197,-0.0,-0.02698911540210247,1.096205472946167,0.0008938731043599546,0.5750159025192261
185.0,237.0,-5.1422,0.0407,9.1179,0.0134,-0.1826,-0.0878,-2.2158547840514125,0.00011074678332079202,4.401768207550049,-1.4241833686828613,0.17086778581142426,2.4465277194976807,5.526679563313284,-0.17862308025360107,0.04314153268933296,-1.6456001440631312,-4.593945777742192e-05,-0.0626216009259224,0.5894227027893066,-0.0,-0.05243969336152077,1.0962135791778564,0.0008256413275375962,0.5779002904891968
185.0,237.0,-5.1422,0.0407,9.1179,0.0134,-0.1826,-0.0878,-2.2158667049803675,8.251737745013088e-05,4.508045673370361,-1.4231116771697998,0.17833788692951202,2.47977614402771,5.525479125767507,-0.21479257941246033,0.04205400124192238,-1.6456201712237757,-4.424603685038164e-05,-0.05413728207349777,0.5894387364387512,-0.0,-0.043645963072776794,1.096205472946167,0.000743125390727073,0.6181507110595703
185.0,237.0,-5.1422,0.0407,9.1179,0.0134,-0.1826,-0.0878,-2.2158624134459437,6.0158217820571736e-05,4.439377307891846,-1.4220199584960938,0.1837209314107895,2.4783456325531006,5.5241219876106165,-0.23650918900966644,0.019299881532788277,-1.645604435597555,-3.474668483249843e-05,-0.06462763249874115,0.5894026160240173,-0.0,-0.044126078486442566,1.0962255001068115,0.0005740727647207677,0.5886960625648499
185.0,237.0,-5.1422,0.0407,9.1179,0.0134,-0.1826,-0.0878,-2.215935369531149,5.551808135351166e-05,4.397226333618164,-1.4212887287139893,0.1850624829530716,2.4845328330993652,5.523154008179464,-0.26008743047714233,0.010281897149980068,-1.6456287542926233,-3.127501258859411e-05,-0.06396495550870895,0.5894066691398621,-0.0,-0.03550188988447189,1.096205472946167,0.0004951016744598746,0.5911751389503479
185.0,237.0,-5.1422,0.0407,9.1179,0.0134,-0.1826,-0.0878,-2.215902944604391,5.2292001782916486e-05,4.494557857513428,-1.4202409982681274,0.19449234008789062,2.4603075981140137,5.521496701031484,-0.2893531024456024,-0.01187293604016304,-1.6455681959735315,-3.021380507561844e-05,-0.06438996642827988,0.589382529258728,-0.0,-0.03181735798716545,1.096221923828125,0.00041042035445570946,0.5658326148986816
185.0,237.0,-5.1422,0.0407,9.1179,0.0134,-0.1826,-0.0878,-2.215874811212057,4.942060331813991e-05,4.425995826721191,-1.4190536737442017,0.20411039888858795,2.4936513900756836,5.519668030529775,-0.32345134019851685,-0.0220206119120121,-1.6455920378314417,7.99453027866548e-06,-0.05822481960058212,0.5894631147384644,-0.0,-0.04704640060663223,1.0962214469909668,0.0003504783380776644,0.5625378489494324
185.0,237.0,-5.1422,0.0407,9.1179,0.0134,-0.1826,-0.0878,-2.2159110508360804,4.7675315727246925e-05,4.42149543762207,-1.4182300567626953,0.20974059402942657,2.4915549755096436,5.518246280937948,-0.3451640009880066,-0.032413944602012634,-1.6455519835101526,3.044808363483753e-05,-0.05029471963644028,0.5894107818603516,-8.334433368872851e-05,-0.04892429709434509,1.0962095260620117,0.00031938249594531953,0.5622132420539856
185.0,237.0,-5.1422,0.0407,9.1179,0.0134,-0.1826,-0.0878,-2.215886732141012,4.5276938180904835e-05,4.474827766418457,-1.416929841041565,0.21487101912498474,2.5057084560394287,5.516081976681509,-0.3761909306049347,-0.05014190822839737,-1.6455805937396448,2.90687403321499e-05,-0.04392824321985245,0.589491069316864,-9.902766032610089e-05,-0.04896559938788414,1.0961816310882568,0.0002818704815581441,0.559904932975769
185.0,237.0,-5.1422,0.0407,9.1179,0.0134,-0.1826,-0.0878,-2.215870519677633,-3.773431672016159e-05,4.498154163360596,-1.4156512022018433,0.22012288868427277,2.50250506401062,5.5136549351509,-0.4107472002506256,-0.06565561145544052,-1.6456082502948206,4.146628634771332e-05,-0.04461689293384552,0.589394748210907,-9.411961946170777e-05,-0.06478200852870941,1.0961893796920776,0.0002522439754102379,0.5473465919494629
185.0,237.0,-5.1422,0.0407,9.1179,0.0134,-0.1826,-0.0878,-2.215902944604391,-1.827515006880276e-05,4.457078456878662,-1.4143272638320923,0.22961750626564026,2.5477712154388428,5.511018740921774,-0.4593183994293213,-0.08498284220695496,-1.6456001440631312,3.9749695133650675e-05,-0.051907192915678024,0.5894346237182617,-0.0001043413212755695,-0.04098453372716904,1.0961893796920776,0.00022825428459327668,0.5079418420791626
185.0,237.0,-5.1422,0.0407,9.1179,0.0134,-0.1826,-0.0878,-2.215886732141012,-1.7534932339913212e-05,4.483168601989746,-1.4134196043014526,0.2406967431306839,2.550851345062256,5.5091455457504175,-0.4791049659252167,-0.09480635821819305,-1.645576302205221,3.86139472539071e-05,-0.035756513476371765,0.5894509553909302,-0.00010100383224198595,-0.04573208838701248,1.0961734056472778,0.0002146438928321004,0.5412006974220276
185.0,237.0,-5.1422,0.0407,9.1179,0.0134,-0.1826,-0.0878,-2.2159024677672328,-9.763030539033934e-05,4.474459171295166,-1.411992073059082,0.24576187133789062,2.5333445072174072,5.506152319699087,-0.5123797059059143,-0.11258432269096375,-1.6455925146686,4.93538063892629e-05,-0.018295368179678917,0.5894148349761963,-0.00010833703709067777,-0.05915086716413498,1.096205472946167,0.0001724089088384062,0.5257594585418701
185.0,237.0,-5.1422,0.0407,9.1179,0.0134,-0.1826,-0.0878,-2.2159186802306117,-0.00015108643856365234,4.459895133972168,-1.4104944467544556,0.24656692147254944,2.5456435680389404,5.503003048687734,-0.5501194000244141,-0.10289958119392395,-1.6455958525287073,5.848695582244545e-05,-0.030542265623807907,0.5893948078155518,-0.00010530299186939374,-0.05094308406114578,1.0962177515029907,0.00015931643429212272,0.5664140582084656
185.0,237.0,-5.1422,0.0407,9.1179,0.0134,-0.1826,-0.0878,-2.2159272632994593,-0.00012964685447514057,4.472517967224121,-1.4094936847686768,0.25144651532173157,2.569981098175049,5.500657248287954,-0.5754774212837219,-0.11094649881124496,-1.6456082502948206,5.7746619859244674e-05,-0.03766479715704918,0.5894271731376648,-0.00022112068836577237,-0.06446405500173569,1.0962296724319458,0.00015164667274802923,0.5172890424728394
185.0,237.0,-5.1422,0.0407,9.1179,0.0134,-0.1826,-0.0878,-2.2159272632994593,-0.0001535475457785651,4.453152179718018,-1.408020257949829,0.2605136036872864,2.6410162448883057,5.4970857975776575,-0.6093680262565613,-0.11545076966285706,-1.6455758253680628,5.560904901358299e-05,-0.031023968011140823,0.5893906950950623,-0.00019611672905739397,-0.054223477840423584,1.0962013006210327,7.773733523208648e-05,0.5275535583496094
185.0,237.0,-5.1422,0.0407,9.1179,0.0134,-0.1826,-0.0878,-2.215926786462301,-0.0001804029889171943,4.495086193084717,-1.4064016342163086,0.26226019859313965,2.557823657989502,5.493241536408224,-0.6401253938674927,-0.09815669059753418,-1.6455925146686,5.362121373764239e-05,-0.0380542129278183,0.5893988609313965,-0.00020692184625659138,-0.056653574109077454,1.0961893796920776,5.512037387234159e-05,0.5442214608192444
173.0,227.0,-3.0772,0.4062,9.3003,0.0675,-0.4288,-0.0699,-2.2159348926939906,-0.0003260897356085479,4.442173957824707,-1.4053741693496704,0.25954779982566833,2.6332526206970215,5.49067651012496,-0.6658658981323242,-0.11180271208286285,-1.6456244627581995,5.237294681137428e-05,-0.0350913479924202,0.589394748210907,-0.0001932218438014388,-0.06977438926696777,1.0961976051330566,5.94773082411848e-05,0.5351055860519409
173.0,227.0,-3.0772,0.4062,9.3003,0.0675,-0.4288,-0.0699,-2.2159954510130824,-0.0002694855211302638,4.494462013244629,-1.4036997556686401,0.2643950283527374,2.5705251693725586,5.486560511379995,-0.681940495967865,-0.10346363484859467,-1.6455720106707972,0.00013825795031152666,-0.028404830023646355,0.5893867015838623,-0.00017449296137783676,-0.06154254078865051,1.0962172746658325,7.438514876412228e-05,0.5552269220352173
173.0,227.0,-3.0772,0.4062,9.3003,0.0675,-0.4288,-0.0699,-2.215926786462301,-0.00022843947226647288,4.467041015625,-1.4021267890930176,0.2710135579109192,2.637291669845581,5.482460903912344,-0.7051182985305786,-0.10125057399272919,-1.6456201712237757,0.00012791839253623039,-0.04113853722810745,0.589382529258728,-0.00018556714348960668,-0.06041950359940529,1.0962172746658325,7.00464952387847e-05,0.5366177558898926
173.0,227.0,-3.0772,0.4062,9.3003,0.0675,-0.4288,-0.0699,-2.2159186802306117,-0.00019824541232082993,4.4957051277160645,-1.4004684686660767,0.27156591415405273,2.5850720405578613,5.478148805886068,-0.718217670917511,-0.10560747981071472,-1.6455963293658655,0.00011786657705670223,-0.047262225300073624,0.5894391536712646,-0.00017051314353011549,-0.06005062162876129,1.0962579250335693,6.619220948778093e-05,0.5568960309028625
173.0,227.0,-3.0772,0.4062,9.3003,0.0675,-0.4288,-0.0699,-2.2159186802306117,-0.00018219185585621744,4.436335563659668,-1.3993568420410156,0.2733040750026703,2.5770394802093506,5.4752665040786646,-0.7231209874153137,-0.0959315374493599,-1.6455047766314905,0.0001119990847655572,-0.041266798973083496,0.5893664956092834,-0.00016175638302229345,-0.05996881425380707,1.096253752708435,0.00016041762137319893,0.557365357875824
173.0,227.0,-3.0772,0.4062,9.3003,0.0675,-0.4288,-0.0699,-2.215942522088522,-0.00019479509501252323,4.467016220092773,-1.3976715803146362,0.27627134323120117,2.6042089462280273,5.471035587578573,-0.7349915504455566,-0.11639082431793213,-1.645576302205221,0.00010421726619824767,-0.039098042994737625,0.5894350409507751,-0.00017020743689499795,-0.061698585748672485,1.096265435218811,0.0006734913913533092,0.5720369219779968
173.0,227.0,-3.0772,0.4062,9.3003,0.0675,-0.4288,-0.0699,-2.2159224949278773,-0.00017589885101187974,4.421082019805908,-1.3960185050964355,0.2790257930755615,2.554159641265869,5.466561543732443,-0.733756959438324,-0.10609166324138641,-1.6455720106707972,9.744623821461573e-05,-0.041387323290109634,0.5894469618797302,-0.00016018546011764556,-0.06543901562690735,1.0962576866149902,0.0013183736009523273,0.596738874912262
173.0,227.0,-3.0772,0.4062,9.3003,0.0675,-0.4288,-0.0699,-2.2159348926939906,-0.00016514018352609128,4.444432735443115,-1.3948662281036377,0.2814147472381592,2.550473690032959,5.463605034142294,-0.7355458736419678,-0.10995490849018097,-1.645576302205221,9.33957562665455e-05,-0.05981694906949997,0.5893464684486389,-0.00015336139767896384,-0.05784858763217926,1.0962495803833008,0.0013532651355490088,0.5645012259483337
173.0,227.0,-3.0772,0.4062,9.3003,0.0675,-0.4288,-0.0699,-2.2159468136229457,-0.00017646803462412208,4.477330207824707,-1.393196702003479,0.28742608428001404,2.583923816680908,5.459264802723684,-0.7297372221946716,-0.09165620058774948,-1.6455400625811976,8.792628068476915e-05,-0.03867415338754654,0.5893703103065491,-0.00014415003533940762,-0.06871476769447327,1.096265435218811,0.0012557689333334565,0.5733559727668762
173.0,227.0,-3.0772,0.4062,9.3003,0.0675,-0.4288,-0.0699,-2.215987344781393,-0.00017733492131810635,4.484027862548828,-1.3914549350738525,0.28977712988853455,2.6194233894348145,5.4549497840698145,-0.7181682586669922,-0.07808980345726013,-1.6455686728106897,8.305752999149263e-05,-0.04313231259584427,0.589382529258728,-0.00013598252553492785,-0.0594438873231411,1.096257209777832,0.0013056413736194372,0.5468199849128723
173.0,227.0,-3.0772,0.4062,9.3003,0.0675,-0.4288,-0.0699,-2.2160030804076136,-0.00021334103075787425,4.5076680183410645,-1.3903478384017944,0.2870926260948181,2.567157030105591,5.452125119953909,-0.713502049446106,-0.08089384436607361,-1.6455805937396448,8.010063174879178e-05,-0.0422387532889843,0.5894230604171753,-0.00013103269156999886,-0.058928392827510834,1.0962694883346558,0.0013992945896461606,0.5321600437164307
173.0,227.0,-3.0772,0.4062,9.3003,0.0675,-0.4288,-0.0699,-2.216023107568258,-0.0008117117686197162,4.452767848968506,-1.3886507749557495,0.2940768301486969,2.653980016708374,5.447950291424551,-0.699367105960846,-0.08072878420352936,-1.645576302205221,9.123919880948961e-05,-0.04329424351453781,0.5893948078155518,-0.00012434454401955009,-0.06957236677408218,1.096313714981079,0.0011176463449373841,0.5737253427505493
173.0,227.0,-3.0772,0.4062,9.3003,0.0675,-0.4288,-0.0699,-2.215994974175924,-0.000646270636934787,4.494853496551514,-1.3868564367294312,0.29636040329933167,2.628924608230591,5.443802344589987,-0.6791003942489624,-0.09020329266786575,-1.645576302205221,8.684545900905505e-05,-0.049323830753564835,0.5894308686256409,-0.0001070182552211918,-0.05397602543234825,1.0963056087493896,0.0009317485382780433,0.5450732707977295
173.0,227.0,-3.0772,0.4062,9.3003,0.0675,-0.4288,-0.0699,-2.21599878887319,-0.0007727097254246473,4.472103118896484,-1.3851203918457031,0.28849172592163086,2.6102700233459473,5.43987916687087,-0.6611960530281067,-0.06405103206634521,-1.645564381276266,8.284342766273767e-05,-0.036585524678230286,0.5893665552139282,-9.988874808186665e-05,-0.06494336575269699,1.0962977409362793,0.0009716937784105539,0.5212888121604919
173.0,227.0,-3.0772,0.4062,9.3003,0.0675,-0.4288,-0.0699,-2.2160426578917445,-0.0008280592155642807,4.509035110473633,-1.3839688301086426,0.2902703881263733,2.5957391262054443,5.437253939896383,-0.6410732269287109,-0.06764023005962372,-1.6455805937396448,9.355010843137279e-05,-0.03518948331475258,0.5894231200218201,-9.564274660078809e-05,-0.05648885667324066,1.0963056087493896,0.0014011133462190628,0.5083194971084595
173.0,227.0,-3.0772,0.4062,9.3003,0.0675,-0.4288,-0.0699,-2.216023107568258,-0.0009231992880813777,4.481897354125977,-1.382238745689392,0.300526887178421,2.6147704124450684,5.433444845467367,-0.6149221062660217,-0.058772895485162735,-1.645560089741842,8.976954995887354e-05,-0.03961162269115448,0.5893784761428833,-8.990958303911611e-05,-0.05974925309419632,1.0963133573532104,0.002451895968988538,0.5364623665809631
173.0,227.0,-3.0772,0.4062,9.3003,0.0675,-0.4288,-0.0699,-2.216011186639303,-0.0006056312122382224,4.5072340965271,-1.3804652690887451,0.2981345057487488,2.5736823081970215,5.429884898453512,-0.5973497629165649,-0.06519138813018799,-1.6455805937396448,9.837416291702539e-05,-0.02451525256037712,0.5894111394882202,-8.482507837470621e-05,-0.06645467877388,1.0963293313980103,0.002978426404297352,0.4762510061264038
151.0,204.0,-2.1846,0.5366,9.2154,-0.0165,-0.0009,-0.1126,-2.2160350284972132,-0.000497538479976356,4.541269779205322,-1.379258155822754,0.293438196182251,2.5772809982299805,5.427628862648763,-0.5768382549285889,-0.04585796594619751,-1.6455724875079554,0.00010063243098556995,-0.03395827114582062,0.5894070863723755,-8.174336835509166e-05,-0.06344128400087357,1.0963695049285889,0.00437531154602766,0.4800482392311096
151.0,204.0,-2.1846,0.5366,9.2154,-0.0165,-0.0009,-0.1126,-2.2160264454283656,-0.00038976783980615437,4.534543037414551,-1.3775007724761963,0.2950916886329651,2.6436007022857666,5.4242902276809595,-0.5417755246162415,-0.032626476138830185,-1.6455443541156214,0.00011154887761222199,-0.023114804178476334,0.589358389377594,-7.751888188067824e-05,-0.06505634635686874,1.0964096784591675,0.0054254126735031605,0.5082635879516602
151.0,204.0,-2.1846,0.5366,9.2154,-0.0165,-0.0009,-0.1126,-2.215982576409811,-0.00032038067001849413,4.518610000610352,-1.375719666481018,0.2964649498462677,2.5561742782592773,5.421084987908163,-0.5210937857627869,-0.033289555460214615,-1.6455686728106897,0.00012392648204695433,-0.03460295870900154,0.5893505215644836,-8.843464456731454e-05,-0.06825955212116241,1.0964455604553223,0.004036219324916601,0.48012667894363403
151.0,204.0,-2.1846,0.5366,9.2154,-0.0165,-0.0009,-0.1126,-2.21599878887319,-0.0003340967232361436,4.494571208953857,-1.3745596408843994,0.2902128994464874,2.472876787185669,5.419040310173788,-0.5034363269805908,-0.044754937291145325,-1.6455524603473108,0.00012033952953061089,-0.02550237998366356,0.5893784761428833,-8.564560994273052e-05,-0.06985568255186081,1.096421480178833,0.00336388498544693,0.4949277639389038
151.0,204.0,-2.1846,0.5366,9.2154,-0.0165,-0.0009,-0.1126,-2.2160545788206996,-0.00032943388214334846,4.4553751945495605,-1.372754693031311,0.2860787510871887,2.5874624252319336,5.416222381382742,-0.47167640924453735,-0.02707323431968689,-1.645564381276266,0.00013004506763536483,-0.013892866671085358,0.5894070863723755,-8.175562834367156e-05,-0.061623841524124146,1.0964696407318115,0.003153905738145113,0.44904273748397827
151.0,204.0,-2.1846,0.5366,9.2154,-0.0165,-0.0009,-0.1126,-2.216010709802145,-0.00028967185062356293,4.473645210266113,-1.3710576295852661,0.2867547273635864,2.6194779872894287,5.41347889879302,-0.42943647503852844,-0.009514454752206802,-1.6455405394183558,0.00030980067094787955,-0.034925803542137146,0.5894550681114197,-9.037395648192614e-05,-0.08055707812309265,1.0965021848678589,0.0032485593110322952,0.5088212490081787
151.0,204.0,-2.1846,0.5366,9.2154,-0.0165,-0.0009,-0.1126,-2.2160426578917445,-0.00025847370852716267,4.488687992095947,-1.3693286180496216,0.2851755917072296,2.527439594268799,5.411086964398184,-0.40079596638679504,0.023154806345701218,-1.6455686728106897,0.0002571010554675013,-0.016150936484336853,0.5894148349761963,-8.743840589886531e-05,-0.07046951353549957,1.0965495109558105,0.002818872220814228,0.44809821248054504
151.0,204.0,-2.1846,0.5366,9.2154,-0.0165,-0.0009,-0.1126,-2.2160426578917445,-0.00016617789515294135,4.460307598114014,-1.3681803941726685,0.2814877927303314,2.5871548652648926,5.409523534565725,-0.3797450065612793,0.029710114002227783,-1.6455205122577112,0.00026477049686945975,-0.013834908604621887,0.5893747806549072,-8.507699385518208e-05,-0.0581483393907547,1.0964975357055664,0.0030321490485221148,0.48475611209869385
151.0,204.0,-2.1846,0.5366,9.2154,-0.0165,-0.0009,-0.1126,-2.2160469494261683,-0.00014950383047107607,4.493772983551025,-1.366454839706421,0.2791811227798462,2.5539863109588623,5.407354759960928,-0.3414916694164276,0.04589708894491196,-1.6454675833331507,0.0002399496006546542,-0.022863905876874924,0.5893387198448181,-8.176447590813041e-05,-0.0762338787317276,1.0965735912322998,0.0027550864033401012,0.43425965309143066
151.0,204.0,-2.1846,0.5366,9.2154,-0.0165,-0.0009,-0.1126,-2.216018339196676,-0.00013595317432191223,4.523798942565918,-1.364874243736267,0.27322202920913696,2.5094709396362305,5.405425774842062,-0.3016704022884369,0.06565895676612854,-1.645548168812887,0.00021172261040192097,-0.0209137424826622,0.589378833770752,-7.87002791184932e-05,-0.07336687296628952,1.096521258354187,0.002048944588750601,0.4745371341705322
151.0,204.0,-2.1846,0.5366,9.2154,-0.0165,-0.0009,-0.1126,-2.216062685052389,-0.00015384260041173548,4.5434699058532715,-1.3637531995773315,0.27288466691970825,2.527787208557129,5.404220986157217,-0.2696513831615448,0.07526370882987976,-1.6455085913287562,0.00022889557294547558,-0.022611670196056366,0.5893427729606628,-7.678192196181044e-05,-0.057439640164375305,1.096569538116455,0.002175641478970647,0.5108122825622559
151.0,204.0,-2.1846,0.5366,9.2154,-0.0165,-0.0009,-0.1126,-2.2160350284972132,-0.0001572630717419088,4.506605625152588,-1.3621279001235962,0.27236971259117126,2.575446605682373,5.402814554959097,-0.23279644548892975,0.1035711020231247,-1.6455405394183558,0.0002065182925434783,-0.022625643759965897,0.5893628597259521,-7.407353405142203e-05,-0.08602412790060043,1.0966219902038574,0.002628216054290533,0.45751631259918213
151.0,204.0,-2.1846,0.5366,9.2154,-0.0165,-0.0009,-0.1126,-2.216062685052389,-0.00017508059681858867,4.53676700592041,-1.3605421781539917,0.26852738857269287,2.490856409072876,5.401459026127615,-0.20538537204265594,0.11104267835617065,-1.6455367247210901,0.0001880257041193545,-0.029333820566534996,0.5893908143043518,-7.65897348173894e-05,-0.06914060562849045,1.0965772867202759,0.002454680623486638,0.4957888126373291
151.0,204.0,-2.1846,0.5366,9.2154,-0.0165,-0.0009,-0.1126,-2.2160502872862757,-0.00030599889578297734,4.485891342163086,-1.3594539165496826,0.26153355836868286,2.5346007347106934,5.400693821697988,-0.17719613015651703,0.13104605674743652,-1.6455243269549769,0.00020189232600387186,-0.01925727352499962,0.5893743634223938,-7.993303734110668e-05,-0.07005058228969574,1.0965732336044312,0.0023588123731315136,0.5131148099899292
151.0,204.0,-2.1846,0.5366,9.2154,-0.0165,-0.0009,-0.1126,-2.2160870037474574,-0.0011342990910634398,4.48785400390625,-1.3579928874969482,0.2605549693107605,2.5005171298980713,5.399800705700674,-0.13305418193340302,0.13940748572349548,-1.6455405394183558,0.00018698150233831257,-0.007960292510688305,0.5893867015838623,-8.661142203436611e-08,-0.060425687581300735,1.0966095924377441,0.0027536668349057436,0.4884454607963562
