ramyac6/ROB537/final_project/csv/good/good_7.csv
tof_0,tof_1,accelx,accely,accelz,gyrox,gyroy,gyroz,shoulder_lift_joint_position,shoulder_lift_joint_velocity,shoulder_lift_joint_effort,elbow_joint_position,elbow_joint_velocity,elbow_joint_effort,wrist_1_joint_position,wrist_1_joint_velocity,wrist_1_joint_effort,wrist_2_joint_position,wrist_2_joint_velocity,wrist_2_joint_effort,wrist_3_joint_position,wrist_3_joint_velocity,wrist_3_joint_effort,shoulder_pan_joint_position,shoulder_pan_joint_velocity,shoulder_pan_joint_effort
872.0,891.0,-4.8431,-0.3763,8.5872,-0.0377,0.0308,-0.1104,-2.257751604119772,0.0,4.371575832366943,-1.6501145362854004,0.00026757107116281986,1.7872920036315918,-0.43253715456042485,-4.983990584150888e-05,0.17808125913143158,-1.5970657507525843,-0.0,-0.023589391261339188,0.5560946464538574,-0.0,-0.013547562062740326,1.1717209815979004,5.641347888740711e-05,0.31156396865844727
872.0,891.0,-4.8431,-0.3763,8.5872,-0.0377,0.0308,-0.1104,-2.2576996288695277,0.0,4.368866920471191,-1.650078296661377,0.000269743031822145,1.7542717456817627,-0.4325130742839356,-4.1916050008694583e-07,0.16410687565803528,-1.597046200429098,-0.0,-0.03189252316951752,0.5561227798461914,-0.0,0.014764521270990372,1.1717009544372559,4.682165672420524e-05,0.2956123352050781
872.0,891.0,-4.8431,-0.3763,8.5872,-0.0377,0.0308,-0.1104,-2.2577597103514613,0.0,4.388918876647949,-1.6500861644744873,0.00019705858721863478,1.7519471645355225,-0.4325769704631348,-1.1667487809230437e-10,0.17609858512878418,-1.5970619360553187,-0.0,-0.018221119418740273,0.5560789108276367,-0.0,-0.006306151393800974,1.1716930866241455,4.3431307858554646e-05,0.30352431535720825
872.0,891.0,-4.8431,-0.3763,8.5872,-0.0377,0.0308,-0.1104,-2.257780214349264,0.0,4.3643693923950195,-1.6500576734542847,0.0001861516502685845,1.7841237783432007,-0.43254907548937993,-4.974033337989958e-13,0.1670348346233368,-1.5970538298236292,-0.0,-0.04160294681787491,0.5561628341674805,-0.0,0.00280699972063303,1.1717090606689453,4.143190017202869e-05,0.2613388001918793
872.0,891.0,-4.8431,-0.3763,8.5872,-0.0377,0.0308,-0.1104,-2.257735391656393,0.0,4.346301078796387,-1.6500462293624878,0.00019802658061962575,1.806762933731079,-0.4325290483287354,-1.384540335596076e-16,0.17759236693382263,-1.597058121358053,-0.0,-0.0267802681773901,0.5561308860778809,-0.0,0.007975527085363865,1.1716690063476562,1.937913111760281e-05,0.3336906135082245
872.0,891.0,-4.8431,-0.3763,8.5872,-0.0377,0.0308,-0.1104,-2.2577153644957484,0.0,4.380380630493164,-1.6500462293624878,0.00020681419118773192,1.7137646675109863,-0.4325331014445801,-3.8539181612980916e-20,0.1665041595697403,-1.5970657507525843,-0.0,-0.023699631914496422,0.5561186671257019,-0.0,-0.0026423127856105566,1.1716607809066772,1.8202155843027867e-05,0.2950541377067566
872.0,891.0,-4.8431,-0.3763,8.5872,-0.0377,0.0308,-0.1104,-2.257723470727438,0.0,4.375527858734131,-1.6500462293624878,0.00019557868654374033,1.75105619430542,-0.43250520647082524,-1.6429857246350235e-22,0.17248424887657166,-1.5970738569842737,-0.0,-0.020901735872030258,0.556114912033081,-0.0,-0.0007433625869452953,1.1716771125793457,1.7494508938398212e-05,0.29344069957733154
872.0,891.0,-4.8431,-0.3763,8.5872,-0.0377,0.0308,-0.1104,-2.257735868493551,0.0,4.366559982299805,-1.6500420570373535,0.0003391673672012985,1.7498774528503418,-0.432569221859314,-4.5733110889003925e-26,0.1773642897605896,-1.5970857779132288,-0.0,-0.03090164065361023,0.5561186671257019,-0.0,-0.004506120458245277,1.171684980392456,1.6530544598936103e-05,0.2776506245136261
872.0,891.0,-4.8431,-0.3763,8.5872,-0.0377,0.0308,-0.1104,-2.2577320537962855,0.0,4.3737664222717285,-1.650033950805664,0.0002768115955404937,1.7743772268295288,-0.43247254312548833,-1.2729978644489832e-29,0.18093335628509521,-1.5970376173602503,-0.0,-0.03389645367860794,0.5561550259590149,-0.0,0.004774165339767933,1.1717332601547241,2.9217739339060245e-09,0.3020018935203552
832.0,875.0,-4.7276,-0.3302,8.6022,-0.0325,0.0299,-0.1214,-2.2578283749022425,0.0,4.34968900680542,-1.6500906944274902,0.00024648295948281884,1.751761794090271,-0.43253715456042485,-5.426989405034514e-32,0.176438570022583,-1.5970376173602503,-0.0,-0.017003335058689117,0.5561787486076355,-0.0,0.0045616040006279945,1.1717050075531006,5.259089604775502e-13,0.2788432836532593
832.0,875.0,-4.7276,-0.3302,8.6022,-0.0325,0.0299,-0.1214,-2.25777592281484,0.0,4.385733127593994,-1.650010108947754,0.00021169388492126018,1.7712597846984863,-0.4324929279140015,-1.5106225957964702e-35,0.18154026567935944,-1.5970056692706507,-0.0,-0.02999691665172577,0.5561431050300598,-0.0,-0.011247390881180763,1.1716567277908325,1.2700082379656877e-18,0.2625004053115845
832.0,875.0,-4.7276,-0.3302,8.6022,-0.0325,0.0299,-0.1214,-2.257751604119772,0.0,4.378730297088623,-1.6500256061553955,0.00018551071116235107,1.7161928415298462,-0.4325450223735352,-4.20487349930255e-39,0.17691051959991455,-1.5970056692706507,-0.0,-0.013004881329834461,0.5561390519142151,-0.0,-0.0009687622077763081,1.17168128490448,3.0669202138980872e-24,0.3265547752380371
832.0,875.0,-4.7276,-0.3302,8.6022,-0.0325,0.0299,-0.1214,-2.257747312585348,0.0,4.3477044105529785,-1.6500906944274902,0.00017137976828962564,1.7599036693572998,-0.4325089019588013,-1.792540995564306e-41,0.18154451251029968,-1.5970657507525843,-0.0,-0.025633588433265686,0.5561268329620361,-0.0,0.0002012740878853947,1.1717209815979004,5.520348851565521e-28,0.29620346426963806
832.0,875.0,-4.7276,-0.3302,8.6022,-0.0325,0.0299,-0.1214,-2.257747312585348,0.0,4.376747131347656,-1.650050401687622,0.00015380648255813867,1.7804288864135742,-0.4325327438167115,-5.605193857299268e-45,0.16803914308547974,-1.5970538298236292,-0.0,-0.02695152536034584,0.5561186671257019,-0.0,0.0034752837382256985,1.1716567277908325,1.3330993069217627e-33,0.227668896317482
832.0,875.0,-4.7276,-0.3302,8.6022,-0.0325,0.0299,-0.1214,-2.257707735101217,0.0,4.376158714294434,-1.6500576734542847,0.0001395019207848236,1.6910985708236694,-0.43253691614184575,-0.0,0.17519524693489075,-1.5970538298236292,-0.0,-0.02675759047269821,0.5561146140098572,-0.0,-0.002426581457257271,1.1716809272766113,3.219278632210476e-39,0.26028674840927124
832.0,875.0,-4.7276,-0.3302,8.6022,-0.0325,0.0299,-0.1214,-2.2577439747252406,0.0,4.40435791015625,-1.6500658988952637,0.0001313575921813026,1.748618483543396,-0.43254907548937993,-0.0,0.1745835244655609,-1.5970295111285608,-0.0,-0.029801923781633377,0.5561186671257019,-0.0,0.005561282392591238,1.1716930866241455,5.801375642304743e-43,0.2569880485534668
832.0,875.0,-4.7276,-0.3302,8.6022,-0.0325,0.0299,-0.1214,-2.2577315769591273,0.0,4.357738494873047,-1.6501386165618896,0.00014460351667366922,1.7236742973327637,-0.4325450223735352,-0.0,0.1795760989189148,-1.5970657507525843,-0.0,-0.013035325333476067,0.5561509132385254,-0.0,-0.0036369101144373417,1.171684980392456,0.0,0.28273290395736694
832.0,875.0,-4.7276,-0.3302,8.6022,-0.0325,0.0299,-0.1214,-2.2577678165831507,0.0,4.391932487487793,-1.650050401687622,0.00013413593114819378,1.778839111328125,-0.43249698102984624,-0.0,0.19599226117134094,-1.597029987965719,-0.0,-0.020481549203395844,0.5561828017234802,-0.0,0.0180206298828125,1.171684980392456,0.0,0.2698136568069458
832.0,875.0,-4.7276,-0.3302,8.6022,-0.0325,0.0299,-0.1214,-2.2577439747252406,0.0,4.371243476867676,-1.650018334388733,0.00012778741074725986,1.7005722522735596,-0.43250103414569097,-0.0,0.17592138051986694,-1.5970338026629847,-0.0,-0.023506812751293182,0.5560946464538574,-0.0,0.0037600742653012276,1.1717209815979004,0.0,0.22999103367328644
832.0,875.0,-4.7276,-0.3302,8.6022,-0.0325,0.0299,-0.1214,-2.2577558956541957,0.0,4.3424224853515625,-1.650086522102356,0.00013910957204643637,1.7546453475952148,-0.4325971168330689,-0.0,0.18656796216964722,-1.59698993364443,-0.0,-0.03276492655277252,0.5561068058013916,-0.0,0.011861167848110199,1.171648621559143,0.0,0.2823565900325775
832.0,875.0,-4.7276,-0.3302,8.6022,-0.0325,0.0299,-0.1214,-2.2577320537962855,0.0,4.398311614990234,-1.650078296661377,0.00014281875337474048,1.6915113925933838,-0.43258531511340337,-0.0,0.20468075573444366,-1.597041432057516,-0.0,-0.024287179112434387,0.5562029480934143,-0.0,-0.0056925080716609955,1.1716890335083008,0.0,0.2642037272453308
832.0,875.0,-4.7276,-0.3302,8.6022,-0.0325,0.0299,-0.1214,-2.257707735101217,0.0,4.372488021850586,-1.6500617265701294,0.0001432607532478869,1.7543662786483765,-0.4325171273997803,-0.0,0.2004111111164093,-1.5970376173602503,-0.0,-0.012730460613965988,0.556114673614502,-0.0,0.0025967364199459553,1.1717332601547241,0.0,0.29133743047714233
832.0,875.0,-4.7276,-0.3302,8.6022,-0.0325,0.0299,-0.1214,-2.2577315769591273,0.0,4.342452049255371,-1.650050401687622,0.00013009316171519458,1.752933144569397,-0.4325089019588013,-0.0,0.18606305122375488,-1.597018067036764,-0.0,-0.019733119755983353,0.5561787486076355,-0.0,0.0009726013522595167,1.1716809272766113,0.0,0.23699836432933807
832.0,875.0,-4.7276,-0.3302,8.6022,-0.0325,0.0299,-0.1214,-2.2577439747252406,0.0,4.338658809661865,-1.6500215530395508,0.00016129788127727807,1.7549209594726562,-0.4325171273997803,-0.0,0.17931360006332397,-1.5970223585711878,-0.0,-0.01683763414621353,0.5561631321907043,-0.0,0.0014184697065502405,1.1717292070388794,0.0,0.23404988646507263
832.0,875.0,-4.7276,-0.3302,8.6022,-0.0325,0.0299,-0.1214,-2.2577597103514613,0.0,4.370450973510742,-1.650018334388733,0.0005916887312196195,1.7357237339019775,-0.4325409692576905,-0.0,0.18133413791656494,-1.5970261732684534,-0.0,-0.0062384894117712975,0.5561468601226807,-0.0,-0.0008208871586248279,1.171673059463501,0.0,0.25838688015937805
832.0,875.0,-4.7276,-0.3302,8.6022,-0.0325,0.0299,-0.1214,-2.2577597103514613,0.0,4.3500657081604,-1.6500585079193115,0.0005660744500346482,1.7506499290466309,-0.43251295507464604,-0.0,0.17906853556632996,-1.597058121358053,-0.0,-0.034480608999729156,0.5561709403991699,-0.0,0.0024411261547356844,1.1717373132705688,0.0,0.24487879872322083
825.0,882.0,-4.739,-0.3846,8.4323,-0.0295,0.0313,-0.1148,-2.2577272854247035,0.0,4.352497577667236,-1.6500626802444458,0.00046405140892602503,1.7117329835891724,-0.43253691614184575,-0.0,0.18547046184539795,-1.5970619360553187,-0.0,-0.01335032656788826,0.5561187267303467,-0.0,0.009331091307103634,1.1716969013214111,0.0,0.28325098752975464
825.0,882.0,-4.739,-0.3846,8.4323,-0.0295,0.0313,-0.1148,-2.257764001885885,0.0,4.34574556350708,-1.6500740051269531,0.00045984252938069403,1.6909353733062744,-0.4325249952128907,-0.0,0.1779818832874298,-1.5970261732684534,-0.0,-0.025432396680116653,0.5561668276786804,-0.0,0.005865768529474735,1.1716890335083008,0.0,0.24642831087112427
825.0,882.0,-4.739,-0.3846,8.4323,-0.0295,0.0313,-0.1148,-2.2577678165831507,0.0,4.400697231292725,-1.6500990390777588,0.0003875764668919146,1.7393735647201538,-0.43254883707080083,-0.0,0.18870732188224792,-1.597041432057516,-0.0,-0.024037636816501617,0.5561509132385254,-0.0,0.008466253988444805,1.1717209815979004,0.0,0.20583800971508026
825.0,882.0,-4.739,-0.3846,8.4323,-0.0295,0.0313,-0.1148,-2.257751604119772,0.0,4.346781253814697,-1.6499935388565063,0.0003365797165315598,1.7913011312484741,-0.43258483827624516,-0.0,0.1920417845249176,-1.5970261732684534,-0.0,-0.027467479929327965,0.556138813495636,-0.0,0.0017313221469521523,1.1716809272766113,0.0,0.2185765504837036
825.0,882.0,-4.739,-0.3846,8.4323,-0.0295,0.0313,-0.1148,-2.257747312585348,0.0,4.390922546386719,-1.6500380039215088,0.0003658389614429325,1.7444658279418945,-0.4325249952128907,-0.0,0.19607146084308624,-1.5969975630389612,-0.0,-0.026536738499999046,0.5561109185218811,-0.0,0.00582988653331995,1.17168128490448,0.0,0.22198912501335144
825.0,882.0,-4.739,-0.3846,8.4323,-0.0295,0.0313,-0.1148,-2.257751604119772,0.0,4.370161056518555,-1.6500017642974854,0.0008634289260953665,1.7331671714782715,-0.43258078516040044,-0.0,0.184414803981781,-1.5970223585711878,-0.0,-0.03268355876207352,0.5561346411705017,-0.0,0.004293764941394329,1.171673059463501,0.0,0.24342136085033417
825.0,882.0,-4.739,-0.3846,8.4323,-0.0295,0.0313,-0.1148,-2.257735391656393,0.0,4.399203300476074,-1.6500306129455566,0.001464966917410493,1.7760610580444336,-0.43256481111560063,-0.0,0.1937825083732605,-1.597058121358053,-0.0,-0.027492977678775787,0.5560867786407471,-0.0,-0.012181149795651436,1.1716930866241455,0.0,0.24101948738098145
825.0,882.0,-4.739,-0.3846,8.4323,-0.0295,0.0313,-0.1148,-2.257707735101217,0.0,4.360746383666992,-1.6499862670898438,0.0025803325697779655,1.7828271389007568,-0.43256481111560063,-0.0,0.17914876341819763,-1.5970099608050745,-0.0,-0.0253597404807806,0.5561668276786804,-0.0,0.004692185204476118,1.1716890335083008,0.0,0.2950473427772522
825.0,882.0,-4.739,-0.3846,8.4323,-0.0295,0.0313,-0.1148,-2.2577439747252406,0.0,4.393119812011719,-1.649954080581665,0.003368345322087407,1.7576115131378174,-0.43258078516040044,-0.0,0.18511831760406494,-1.5970457235919397,-0.0,-0.024204563349485397,0.5561028122901917,-0.0,-0.004530813544988632,1.171673059463501,0.0,0.2616528868675232
825.0,882.0,-4.739,-0.3846,8.4323,-0.0295,0.0313,-0.1148,-2.2577439747252406,0.0,4.4033098220825195,-1.6499779224395752,0.004486443009227514,1.7727138996124268,-0.43256886423144536,-0.0,0.18921706080436707,-1.5970261732684534,-0.0,-0.028908105567097664,0.5561227798461914,-0.0,0.017458923161029816,1.1716890335083008,0.0,0.23260606825351715
825.0,882.0,-4.739,-0.3846,8.4323,-0.0295,0.0313,-0.1148,-2.257695337335104,0.0,4.390106201171875,-1.6499626636505127,0.00585272628813982,1.7872949838638306,-0.43257708967242436,-0.0,0.1791674941778183,-1.5970376173602503,-0.0,-0.0321890190243721,0.5562029480934143,-0.0,0.0019841704051941633,1.1716972589492798,0.0,0.3005925416946411
825.0,882.0,-4.739,-0.3846,8.4323,-0.0295,0.0313,-0.1148,-2.2577277622618617,0.0,4.3709940910339355,-1.6499062776565552,0.006971911061555147,1.7960996627807617,-0.4325569433024903,-0.0,0.17387744784355164,-1.5969656149493616,-0.0,-0.02024802938103676,0.556114673614502,-0.0,0.016129905357956886,1.1717090606689453,0.0,0.32167378067970276
825.0,882.0,-4.739,-0.3846,8.4323,-0.0295,0.0313,-0.1148,-2.257747789422506,0.0,4.395835876464844,-1.6498985290527344,0.007569862995296717,1.7905932664871216,-0.432560996418335,-0.0,0.1844959557056427,-1.5970457235919397,-0.0,-0.029230952262878418,0.5561667680740356,-0.0,-0.001459913095459342,1.1717209815979004,0.0,0.30002492666244507
825.0,882.0,-4.739,-0.3846,8.4323,-0.0295,0.0313,-0.1148,-2.2577396831908167,0.0,4.3922576904296875,-1.649822473526001,0.007952705956995487,1.7861566543579102,-0.43256886423144536,-0.0,0.19569164514541626,-1.59698993364443,-0.0,-0.035969123244285583,0.5561349391937256,-0.0,0.001479970756918192,1.1716493368148804,0.0,0.3562396168708801
825.0,882.0,-4.739,-0.3846,8.4323,-0.0295,0.0313,-0.1148,-2.2577597103514613,0.0,4.401533603668213,-1.649786114692688,0.007910091429948807,1.7995525598526,-0.4325487178615113,-1.1894509270859999e-06,0.17505282163619995,-1.5970619360553187,-0.0,-0.016682565212249756,0.5561990141868591,-0.0,0.00819970853626728,1.171600580215454,1.4535936315951403e-05,0.35734328627586365
825.0,882.0,-4.739,-0.3846,8.4323,-0.0295,0.0313,-0.1148,-2.257723470727438,0.0,4.400339126586914,-1.6497260332107544,0.007747737690806389,1.8086379766464233,-0.43255312860522466,-5.070815767282966e-09,0.18590471148490906,-1.5970218817340296,-0.0,-0.027797037735581398,0.5561869144439697,-0.0,0.00490677310153842,1.1716649532318115,1.4081731933401898e-05,0.30214816331863403
825.0,882.0,-4.739,-0.3846,8.4323,-0.0295,0.0313,-0.1148,-2.257751604119772,0.0,4.406472682952881,-1.6496857404708862,0.007200028747320175,1.8343892097473145,-0.43260498464617925,-1.411479982373065e-12,0.194477379322052,-1.5970457235919397,-0.0,-0.03876153379678726,0.5561949610710144,-0.0,0.003401467576622963,1.1716890335083008,1.345038617728278e-05,0.3804587721824646
817.0,894.0,-4.7372,-0.3559,8.6423,-0.0437,0.0289,-0.12,-2.2577678165831507,0.0,4.355658054351807,-1.649654507637024,0.006854639388620853,1.8217265605926514,-0.43262942255053716,-3.9289056805107245e-16,0.1741238534450531,-1.597029987965719,-0.0,-0.03461732715368271,0.556138813495636,-0.0,-0.004827152006328106,1.1716649532318115,1.2873233572463505e-05,0.3727648854255676
817.0,894.0,-4.7372,-0.3559,8.6423,-0.0437,0.0289,-0.12,-2.2577277622618617,0.0,4.395803451538086,-1.6495894193649292,0.007102762348949909,1.8141229152679443,-0.4325724405101319,-1.6749541966482927e-18,0.16944873332977295,-1.597058121358053,-0.0,-0.031652238219976425,0.5561707019805908,-0.0,0.003471568925306201,1.1716771125793457,1.2515216440078802e-05,0.32946285605430603
817.0,894.0,-4.7372,-0.3559,8.6423,-0.0437,0.0289,-0.12,-2.2577115497984828,0.0,4.399367809295654,-1.6495702266693115,0.008576283231377602,1.821706771850586,-0.43259675920520024,-4.662296691955912e-22,0.18249498307704926,-1.5970776716815394,-0.0,-0.03423074632883072,0.5561228394508362,-0.0,0.0033232299610972404,1.1717050075531006,2.402730933681596e-05,0.35164323449134827
817.0,894.0,-4.7372,-0.3559,8.6423,-0.0437,0.0289,-0.12,-2.2577678165831507,0.0,4.4130988121032715,-1.649549961090088,0.009559817612171173,1.8166179656982422,-0.43256838739428716,-0.0002502791758161038,0.17427027225494385,-1.5970376173602503,-0.0,-0.031499940901994705,0.5561468601226807,-0.0,0.015130730345845222,1.1716930866241455,2.310288618900813e-05,0.4055939316749573
817.0,894.0,-4.7372,-0.3559,8.6423,-0.0437,0.0289,-0.12,-2.257747312585348,0.0,4.424134731292725,-1.6495022773742676,0.010408861562609673,1.8177108764648438,-0.4326170247844239,-0.00023883710673544556,0.1755625605583191,-1.5970457235919397,-0.0,-0.04896663874387741,0.5561668276786804,-0.0,-0.0029023142997175455,1.1716567277908325,2.2524676751345396e-05,0.3733918368816376
817.0,894.0,-4.7372,-0.3559,8.6423,-0.0437,0.0289,-0.12,-2.257719656030172,0.0,4.355010986328125,-1.6494019031524658,0.01214384101331234,1.820819616317749,-0.4326170247844239,-0.00024447269970551133,0.17503172159194946,-1.5970342795001429,-0.0,-0.03619162365794182,0.5561787486076355,-0.0,0.006961635779589415,1.171664834022522,3.256447598687373e-05,0.3906068205833435
817.0,894.0,-4.7372,-0.3559,8.6423,-0.0437,0.0289,-0.12,-2.257747312585348,0.0,4.439414978027344,-1.6493334770202637,0.014201637357473373,1.8343950510025024,-0.43262536943469243,-0.0002174155815737322,0.1802830994129181,-1.5970457235919397,-0.0,-0.056730400770902634,0.5561547875404358,-0.0,0.002146597485989332,1.1717009544372559,3.1427425710717216e-05,0.4664527177810669
817.0,894.0,-4.7372,-0.3559,8.6423,-0.0437,0.0289,-0.12,-2.25777592281484,0.0,4.390876770019531,-1.649326205253601,0.015457170084118843,1.8684955835342407,-0.4326329988292237,-0.0002324716915609315,0.17135193943977356,-1.5970342795001429,-0.0,-0.04896702617406845,0.556170642375946,-0.0,0.003858323674649,1.1716771125793457,3.0712475563632324e-05,0.3883262872695923
817.0,894.0,-4.7372,-0.3559,8.6423,-0.0437,0.0289,-0.12,-2.2577396831908167,0.0,4.391378402709961,-1.64926278591156,0.017481571063399315,1.8774468898773193,-0.4326370519450684,-0.00021114008268341422,0.18354341387748718,-1.5970056692706507,-0.0,-0.04658813774585724,0.5561787486076355,-0.0,0.009433095343410969,1.17168128490448,1.0135142474609893e-05,0.42432934045791626
817.0,894.0,-4.7372,-0.3559,8.6423,-0.0437,0.0289,-0.12,-2.2576991520323695,0.0,4.414219856262207,-1.6490541696548462,0.019880786538124084,1.8294122219085693,-0.43261297166857915,-0.0001918496418511495,0.18273188173770905,-1.5970342795001429,-0.0,-0.03437052667140961,0.5561746954917908,-0.0,0.014430297538638115,1.1716890335083008,2.4475170154469872e-11,0.3945065140724182
817.0,894.0,-4.7372,-0.3559,8.6423,-0.0437,0.0289,-0.12,-2.257780214349264,0.0,4.395839691162109,-1.6489500999450684,0.02130850777029991,1.8428881168365479,-0.43262536943469243,-0.00018083475879393518,0.17675596475601196,-1.597029987965719,-0.0,-0.04497954994440079,0.5561990737915039,-0.0,-0.00542081193998456,1.1716972589492798,4.405444193174507e-15,0.45881175994873047
817.0,894.0,-4.7372,-0.3559,8.6423,-0.0437,0.0289,-0.12,-2.257735391656393,0.0,4.400547981262207,-1.6488341093063354,0.023440703749656677,1.8898849487304688,-0.43262536943469243,-0.0001664964947849512,0.1818443387746811,-1.5970175901996058,-0.0,-0.04764137417078018,0.5561909675598145,-0.0,0.014129633083939552,1.1716930866241455,1.0638629967573046e-20,0.41084760427474976
817.0,894.0,-4.7372,-0.3559,8.6423,-0.0437,0.0289,-0.12,-2.2577272854247035,0.0,4.405847549438477,-1.6486977338790894,0.025696581229567528,1.8873019218444824,-0.43262894571337895,-0.0001542650134069845,0.1767295002937317,-1.5969818274127405,-0.0,-0.048786669969558716,0.5561869740486145,-0.0,0.014236604794859886,1.17168128490448,4.141885801800527e-05,0.44154924154281616
817.0,894.0,-4.7372,-0.3559,8.6423,-0.0437,0.0289,-0.12,-2.257764001885885,0.0,4.42296028137207,-1.6486144065856934,0.027424359694123268,1.9151945114135742,-0.43266911924395757,-0.0001626396697247401,0.17737321555614471,-1.5970261732684534,-0.0,-0.05143546685576439,0.5561147332191467,-0.0,0.010870586149394512,1.1716607809066772,4.051660653203726e-05,0.3778803050518036
817.0,894.0,-4.7372,-0.3559,8.6423,-0.0437,0.0289,-0.12,-2.257719656030172,0.0,4.439864635467529,-1.6484144926071167,0.02979186549782753,1.9434926509857178,-0.43264086664233403,-0.00015706989506725222,0.1880226731300354,-1.597041432057516,-0.0,-0.03868509456515312,0.5561787486076355,-0.0,0.004881964065134525,1.171701192855835,3.79537814296782e-05,0.4774172902107239
817.0,894.0,-4.7372,-0.3559,8.6423,-0.0437,0.0289,-0.12,-2.257723470727438,0.0,4.418252944946289,-1.648210048675537,0.03151114284992218,1.8585989475250244,-0.43264491975817876,-0.00013860702165402472,0.16796240210533142,-1.5970175901996058,-0.0,-0.041902437806129456,0.5561106204986572,-0.0,-0.005454395432025194,1.1716291904449463,3.569581895135343e-05,0.3909776210784912
817.0,894.0,-4.7372,-0.3559,8.6423,-0.0437,0.0289,-0.12,-2.2577277622618617,0.0,4.403709888458252,-1.6481026411056519,0.03224954381585121,1.963266372680664,-0.4326368135264893,-0.0001294997928198427,0.1838824450969696,-1.5970099608050745,-0.0,-0.04799379035830498,0.5561147928237915,-0.0,0.006784398108720779,1.171625018119812,3.433409801800735e-05,0.44730228185653687
868.0,865.0,-4.815,-0.265,8.6351,-0.0432,0.0391,-0.1179,-2.257719656030172,0.0,4.430887699127197,-1.6478861570358276,0.03636833280324936,1.9230132102966309,-0.4326647085002442,-0.00014298925816547126,0.1903533935546875,-1.5969937483416956,-0.0,-0.05391034483909607,0.556110680103302,-0.0,0.01133059337735176,1.1716290712356567,3.247572749387473e-05,0.4455474615097046
868.0,865.0,-4.815,-0.265,8.6351,-0.0432,0.0391,-0.1179,-2.2577034435667933,0.0,4.420889854431152,-1.647690773010254,0.037851665169000626,1.9111053943634033,-0.4326166671565552,-0.00015440330025739968,0.18278959393501282,-1.59698993364443,-0.0,-0.05395764112472534,0.5561347603797913,-0.0,0.005333133973181248,1.1716607809066772,1.5475980035262182e-05,0.4280082881450653
868.0,865.0,-4.815,-0.265,8.6351,-0.0432,0.0391,-0.1179,-2.2577439747252406,0.0,4.434899806976318,-1.6474944353103638,0.04070905223488808,1.9325592517852783,-0.43266065538439946,-0.00016564890393055975,0.17862513661384583,-1.597001854573385,-0.0,-0.05413607507944107,0.5561910271644592,-0.0,-0.005226738750934601,1.1716607809066772,1.4894280866428744e-05,0.4514053761959076
868.0,865.0,-4.815,-0.265,8.6351,-0.0432,0.0391,-0.1179,-2.2576991520323695,0.0,4.423659801483154,-1.647262454032898,0.043137919157743454,1.933440923690796,-0.4326527875712891,-0.00024027508334256709,0.1732826828956604,-1.5970056692706507,-0.0,-0.06037795916199684,0.556154727935791,-0.0,0.018613265827298164,1.1716532707214355,1.4189780813467223e-05,0.4642653465270996
868.0,865.0,-4.815,-0.265,8.6351,-0.0432,0.0391,-0.1179,-2.257780214349264,0.0,4.452141284942627,-1.6470625400543213,0.0464303232729435,1.9507513046264648,-0.43270142496142583,-0.00028765067690983415,0.17831671237945557,-1.59698993364443,-0.0,-0.05574336275458336,0.5561308860778809,-0.0,0.019010396674275398,1.171633243560791,1.3756023690802976e-05,0.4303031861782074
868.0,865.0,-4.815,-0.265,8.6351,-0.0432,0.0391,-0.1179,-2.2577034435667933,0.0,4.426400661468506,-1.6467341184616089,0.05180802568793297,1.9547102451324463,-0.43267257631335454,-0.0002890640462283045,0.18024560809135437,-1.597001854573385,-0.0,-0.06871213018894196,0.5561388731002808,-0.0,0.011208010837435722,1.1716532707214355,1.3152927749615628e-05,0.4362955093383789
868.0,865.0,-4.815,-0.265,8.6351,-0.0432,0.0391,-0.1179,-2.257747789422506,0.0,4.459099769592285,-1.6463944911956787,0.057465218007564545,1.9659420251846313,-0.43267662942919927,-0.0002898654784075916,0.1669779121875763,-1.5970338026629847,-0.0,-0.06003941223025322,0.5561506748199463,-0.0,0.01838289014995098,1.1716607809066772,2.722329583981775e-10,0.47769448161125183
868.0,865.0,-4.815,-0.265,8.6351,-0.0432,0.0391,-0.1179,-2.2576991520323695,0.0,4.464465141296387,-1.6462388038635254,0.06013505905866623,1.971994161605835,-0.43270988882098393,-0.00026664978940971196,0.16703660786151886,-1.596978012715475,-0.0,-0.05856059491634369,0.5561587810516357,-0.0,0.006939970888197422,1.1716934442520142,4.90009711951421e-14,0.48130396008491516
868.0,865.0,-4.815,-0.265,8.6351,-0.0432,0.0391,-0.1179,-2.2577277622618617,0.0,4.478557109832764,-1.645818829536438,0.06485246866941452,1.9893779754638672,-0.432725266819336,-0.0003061520110350102,0.18295170366764069,-1.5969656149493616,-0.0,-0.07077290117740631,0.556138813495636,-0.0,0.010771991685032845,1.1716413497924805,1.1833158582104032e-19,0.5305257439613342
868.0,865.0,-4.815,-0.265,8.6351,-0.0432,0.0391,-0.1179,-2.2577396831908167,0.0,4.407560348510742,-1.6454029083251953,0.06939081847667694,2.025244951248169,-0.4327011865428467,-0.0003332844644319266,0.17912861704826355,-1.5970137755023401,-0.0,-0.05742863565683365,0.5562108755111694,-0.0,0.010759185068309307,1.1716492176055908,2.8575685104774288e-25,0.4878736138343811
868.0,865.0,-4.815,-0.265,8.6351,-0.0432,0.0391,-0.1179,-2.2577716312804164,0.0,4.472994804382324,-1.645058035850525,0.07112525403499603,1.9766591787338257,-0.43267186105761724,-0.00034624349791556597,0.18912336230278015,-1.5970099608050745,-0.0,-0.058957718312740326,0.5561747550964355,-0.0,0.019141126424074173,1.1716455221176147,5.143522722723552e-29,0.5130537748336792
868.0,865.0,-4.815,-0.265,8.6351,-0.0432,0.0391,-0.1179,-2.257764001885885,0.0,4.395990371704102,-1.6446703672409058,0.0737432986497879,1.9830676317214966,-0.43276508272204595,-0.00033966341288760304,0.18278509378433228,-1.5970099608050745,-0.0,-0.0553046278655529,0.5561666488647461,-0.0,0.018010828644037247,1.1716495752334595,1.2421001107095342e-34,0.48035928606987
868.0,865.0,-4.815,-0.265,8.6351,-0.0432,0.0391,-0.1179,-2.25769104580068,0.0,4.382322788238525,-1.6441906690597534,0.08056110143661499,2.0146703720092773,-0.4327652019313355,-0.00046000105794519186,0.17849573493003845,-1.597041432057516,-0.0,-0.06426674872636795,0.5561990141868591,-0.0,0.011840528808534145,1.171673059463501,2.9995214018412007e-40,0.5139327645301819
868.0,865.0,-4.815,-0.265,8.6351,-0.0432,0.0391,-0.1179,-2.257735391656393,0.0,4.441778182983398,-1.6438148021697998,0.08667173236608505,2.0424489974975586,-0.43268878877673345,-0.00047232897486537695,0.1745588332414627,-1.5970099608050745,-0.0,-0.05467546731233597,0.5561867952346802,-0.0,0.0035534107591956854,1.1716772317886353,5.465064010866787e-44,0.5129751563072205
868.0,865.0,-4.815,-0.265,8.6351,-0.0432,0.0391,-0.1179,-2.2577439747252406,0.0,4.450802326202393,-1.643285870552063,0.094858318567276,2.036853790283203,-0.4327330154231568,-0.0006198636838234961,0.1796242743730545,-1.596978012715475,-0.0,-0.07438087463378906,0.5561665892601013,-0.0,0.0008439016528427601,1.1716209650039673,0.0,0.5342729091644287
868.0,865.0,-4.815,-0.265,8.6351,-0.0432,0.0391,-0.1179,-2.2577396831908167,0.0,4.45943546295166,-1.6427104473114014,0.10339759290218353,2.07901668548584,-0.4327691358378907,-0.0007019350305199623,0.16871041059494019,-1.5970175901996058,-0.0,-0.06107619032263756,0.5561385154724121,-0.0,0.0015175063163042068,1.1716291904449463,0.0,0.5036077499389648
868.0,865.0,-4.815,-0.265,8.6351,-0.0432,0.0391,-0.1179,-2.2577678165831507,0.0,4.481837272644043,-1.642290711402893,0.10943397879600525,2.1019017696380615,-0.43276508272204595,-0.0009138514869846404,0.18509112298488617,-1.5970099608050745,-0.0,-0.050611577928066254,0.5561748147010803,-0.0,0.02279501035809517,1.1716372966766357,0.0,0.5285085439682007
788.0,913.0,-4.9202,-0.4277,8.7093,-0.0426,0.067,-0.1254,-2.2577678165831507,0.0,4.436685562133789,-1.6416431665420532,0.11881082504987717,2.0718600749969482,-0.4328013223460694,-0.0016796092968434095,0.1662718653678894,-1.5970376173602503,-0.0,-0.06548876315355301,0.556182861328125,-0.0,0.023711999878287315,1.17168128490448,0.0,0.5470595955848694
788.0,913.0,-4.9202,-0.4277,8.7093,-0.0426,0.067,-0.1254,-2.257747312585348,0.0,4.498777866363525,-1.6408791542053223,0.12640675902366638,2.079709529876709,-0.43280096471820073,-0.005862604361027479,0.17732441425323486,-1.5970137755023401,-0.0,-0.06844071298837662,0.5561148524284363,-0.0,0.007443555165082216,1.171673059463501,0.0,0.5736939907073975
788.0,913.0,-4.9202,-0.4277,8.7093,-0.0426,0.067,-0.1254,-2.2576991520323695,0.0,4.461065292358398,-1.6403142213821411,0.13004682958126068,2.1174075603485107,-0.43290551126513677,-0.018691882491111755,0.17139683663845062,-1.5970657507525843,-0.0,-0.06132543832063675,0.5560947060585022,-0.0,0.02753465622663498,1.1716737747192383,0.0,0.5477599501609802
788.0,913.0,-4.9202,-0.4277,8.7093,-0.0426,0.067,-0.1254,-2.257735391656393,0.0,4.4537177085876465,-1.6395272016525269,0.1318156123161316,2.1156439781188965,-0.4330132764628907,-0.03027869202196598,0.16086186468601227,-1.5970619360553187,-0.0,-0.0712069720029831,0.5561869144439697,-0.0,0.005850468762218952,1.1716455221176147,0.0,0.5665455460548401
788.0,913.0,-4.9202,-0.4277,8.7093,-0.0426,0.067,-0.1254,-2.2577115497984828,0.0,4.54915714263916,-1.6387031078338623,0.13914750516414642,2.128587484359741,-0.4332333368114014,-0.027591194957494736,0.1618618369102478,-1.597041432057516,-0.0,-0.06220487505197525,0.5561386942863464,-0.0,0.010235308669507504,1.1716291904449463,0.0,0.575504720211029
788.0,913.0,-4.9202,-0.4277,8.7093,-0.0426,0.067,-0.1254,-2.257686754266256,0.0,4.4749321937561035,-1.6381549835205078,0.14704416692256927,2.1363718509674072,-0.4333335918239136,-0.024783682078123093,0.16758012771606445,-1.597018067036764,-0.0,-0.0625077560544014,0.556178867816925,-0.0,0.01883479580283165,1.1716495752334595,0.0,0.5777566432952881
788.0,913.0,-4.9202,-0.4277,8.7093,-0.0426,0.067,-0.1254,-2.2577201328673304,0.00010240014671580866,4.514922618865967,-1.637231469154358,0.1597628891468048,2.179076671600342,-0.43348975599322515,-0.022323187440633774,0.15386462211608887,-1.597041432057516,-0.0,-0.07206857949495316,0.5562350153923035,-0.0,0.014786498621106148,1.1716049909591675,0.0,0.5978854894638062
788.0,913.0,-4.9202,-0.4277,8.7093,-0.0426,0.067,-0.1254,-2.257796426812643,0.00011332405119901523,4.487316131591797,-1.6362674236297607,0.17254717648029327,2.178436279296875,-0.4335937064937134,-0.018345147371292114,0.16819223761558533,-1.596973721181051,-3.839408790895504e-09,-0.07031220942735672,0.556170642375946,-0.0,0.023206837475299835,1.1716690063476562,0.0,0.6223752498626709
788.0,913.0,-4.9202,-0.4277,8.7093,-0.0426,0.067,-0.1254,-2.2577597103514613,0.00026944337878376245,4.479659080505371,-1.6355441808700562,0.17995740473270416,2.2438158988952637,-0.43369777620349126,-0.021134506911039352,0.17360803484916687,-1.5970223585711878,-1.6368000704813923e-11,-0.07240727543830872,0.5561748743057251,-0.0,0.02353755757212639,1.1716372966766357,0.0,0.6614420413970947
788.0,913.0,-4.9202,-0.4277,8.7093,-0.0426,0.067,-0.1254,-2.25777592281484,0.0001859567128121853,4.48695707321167,-1.6343995332717896,0.18420624732971191,2.2317473888397217,-0.4338384431651612,-0.026102395728230476,0.17961819469928741,-1.597041432057516,-4.556092814491947e-15,-0.08308824896812439,0.5561866760253906,-0.0,0.030524039641022682,1.171673059463501,0.0,0.5892083644866943
788.0,913.0,-4.9202,-0.4277,8.7093,-0.0426,0.067,-0.1254,-2.257723470727438,0.00014194582763593644,4.528806686401367,-1.6333359479904175,0.19261379539966583,2.247492790222168,-0.43398602426562505,-0.03324580937623978,0.1662748157978058,-1.597058121358053,-1.2682051910254752e-18,-0.07903482764959335,0.5561987161636353,-0.0,0.016523858532309532,1.1716413497924805,0.0,0.5497028827667236
788.0,913.0,-4.9202,-0.4277,8.7093,-0.0426,0.067,-0.1254,-2.2577315769591273,0.00012260446965228766,4.501463890075684,-1.632495403289795,0.1982840597629547,2.2222747802734375,-0.43412990987811284,-0.0415588803589344,0.16753286123275757,-1.5970938841449183,-5.4065579007070754e-21,-0.07170748710632324,0.55619877576828,-0.0,0.018118279054760933,1.1716413497924805,0.0,0.6167893409729004
788.0,913.0,-4.9202,-0.4277,8.7093,-0.0426,0.067,-0.1254,-2.257735391656393,0.00010179883247474208,4.495362281799316,-1.6312919855117798,0.21068108081817627,2.2209136486053467,-0.43444688737902837,-0.060437820851802826,0.16410383582115173,-1.5970457235919397,-1.5049353896543176e-24,-0.07614739239215851,0.556226909160614,-0.0,0.021373484283685684,1.1716372966766357,0.0,0.5959801077842712
788.0,913.0,-4.9202,-0.4277,8.7093,-0.0426,0.067,-0.1254,-2.257695337335104,8.703130879439414e-05,4.496665000915527,-1.6299922466278076,0.22383981943130493,2.2510199546813965,-0.4348260921290894,-0.08355743438005447,0.1534721851348877,-1.5970376173602503,-4.189043036753039e-28,-0.06853092461824417,0.5562106966972351,-0.0,0.013575637713074684,1.1716333627700806,0.0,0.5360041260719299
788.0,913.0,-4.9202,-0.4277,8.7093,-0.0426,0.067,-0.1254,-2.257763525048727,7.935674511827528e-05,4.487221717834473,-1.6290724277496338,0.22542813420295715,2.313030242919922,-0.4352110189250489,-0.09638597816228867,0.14625580608844757,-1.597041432057516,-1.7858546521195217e-30,-0.08046406507492065,0.5562146902084351,-0.0,0.013496325351297855,1.1716455221176147,0.0,0.5776198506355286
788.0,913.0,-4.9202,-0.4277,8.7093,-0.0426,0.067,-0.1254,-2.2577396831908167,7.008643297012895e-05,4.514449119567871,-1.627656102180481,0.23114001750946045,2.2525992393493652,-0.4359200757792969,-0.11404421180486679,0.14035993814468384,-1.5970137755023401,-4.970992040539715e-34,-0.08171097934246063,0.556182861328125,-0.0,0.011760368943214417,1.1716532707214355,0.0,0.5415189862251282
788.0,913.0,-4.9202,-0.4277,8.7093,-0.0426,0.067,-0.1254,-2.257719656030172,6.275554915191606e-05,4.500120639801025,-1.6262972354888916,0.24318842589855194,2.284034490585327,-0.43667645872149663,-0.12530997395515442,0.1356969177722931,-1.5970223585711878,-1.3836935593539344e-37,-0.07270229607820511,0.5562187433242798,-0.0,0.011262498795986176,1.1716291904449463,0.0,0.6109327077865601
835.0,851.0,-5.5842,-0.7352,9.1119,-0.056,0.1604,-0.12,-2.2577558956541957,5.8664867538027465e-05,4.520085334777832,-1.6252573728561401,0.2504259943962097,2.294513702392578,-0.43715985239062505,-0.12670078873634338,0.13444216549396515,-1.5970175901996058,-5.89890601542175e-40,-0.07528138160705566,0.5561666488647461,-0.0,0.01575011946260929,1.1716573238372803,-3.798398029175587e-05,0.5567468404769897
835.0,851.0,-5.5842,-0.7352,9.1119,-0.056,0.1604,-0.12,-2.2577439747252406,5.343962766346522e-05,4.52254581451416,-1.6236684322357178,0.25717249512672424,2.2887895107269287,-0.43801672876391606,-0.15289485454559326,0.13132140040397644,-1.59698993364443,-1.639519203260036e-43,-0.06819447875022888,0.5561228394508362,-0.0,0.02919400855898857,1.1716492176055908,-4.086440458195284e-05,0.5208081603050232
835.0,851.0,-5.5842,-0.7352,9.1119,-0.056,0.1604,-0.12,-2.2577229938902796,5.044440331403166e-05,4.495752334594727,-1.622597336769104,0.26317086815834045,2.3185369968414307,-0.4387260240367432,-0.1774541586637497,0.10319086909294128,-1.597058121358053,-1.401298464324817e-45,-0.08338174968957901,0.5562068819999695,-0.0,0.01572488248348236,1.1716573238372803,-3.74622322851792e-05,0.5247318744659424
835.0,851.0,-5.5842,-0.7352,9.1119,-0.056,0.1604,-0.12,-2.257747312585348,4.653223368222825e-05,4.483212471008301,-1.6209934949874878,0.27106520533561707,2.331860065460205,-0.4398189348033448,-0.18957670032978058,0.11724425852298737,-1.5970099608050745,-0.0,-0.07370302081108093,0.5561787486076355,-0.0,0.014929475262761116,1.171633243560791,-3.330332401674241e-05,0.549087405204773
835.0,851.0,-5.5842,-0.7352,9.1119,-0.056,0.1604,-0.12,-2.2577716312804164,4.318321589380503e-05,4.5177741050720215,-1.619345784187317,0.2836819887161255,2.3446645736694336,-0.440987305050232,-0.19160166382789612,0.12928833067417145,-1.5970099608050745,-0.0,-0.08173252642154694,0.5561467409133911,-0.0,0.02233484387397766,1.1716291904449463,-2.9975606594234705e-05,0.5115336179733276
835.0,851.0,-5.5842,-0.7352,9.1119,-0.056,0.1604,-0.12,-2.2577926121153773,4.120607263757847e-05,4.510464668273926,-1.618186354637146,0.2848092317581177,2.283951997756958,-0.4417993587306519,-0.19931960105895996,0.11918273568153381,-1.5970175901996058,-0.0,-0.07540786266326904,0.556218683719635,-0.0,0.017043255269527435,1.1716690063476562,-2.810351907100994e-05,0.49582087993621826
835.0,851.0,-5.5842,-0.7352,9.1119,-0.056,0.1604,-0.12,-2.2577678165831507,7.72496321133076e-07,4.53481912612915,-1.6164381504058838,0.29217788577079773,2.3092994689941406,-0.44307179868731694,-0.21630972623825073,0.11910097301006317,-1.597001854573385,-0.0,-0.06658913940191269,0.5561230182647705,-0.0,0.029732540249824524,1.171673059463501,-4.90535612129861e-09,0.5088135004043579
835.0,851.0,-5.5842,-0.7352,9.1119,-0.056,0.1604,-0.12,-2.257792135278219,1.8654880157981113e-12,4.528090953826904,-1.614638090133667,0.30148911476135254,2.331088066101074,-0.44438059747729497,-0.21787983179092407,0.10088604688644409,-1.597029987965719,-0.0,-0.06060108542442322,0.5561869144439697,-0.0,0.01729300618171692,1.171673059463501,-1.1845859105370955e-14,0.48682156205177307
835.0,851.0,-5.5842,-0.7352,9.1119,-0.056,0.1604,-0.12,-2.257780214349264,3.3578122446702337e-16,4.516855239868164,-1.6134907007217407,0.30309396982192993,2.348917245864868,-0.4452290099910279,-0.23820030689239502,0.10141192376613617,-1.5970380941974085,-0.0,-0.07149354368448257,0.5561666488647461,-0.0,0.011327946558594704,1.1716852188110352,-2.1322127116299762e-18,0.531928539276123
835.0,851.0,-5.5842,-0.7352,9.1119,-0.056,0.1604,-0.12,-2.25780787090444,8.108721187170464e-22,4.514734745025635,-1.6116548776626587,0.31247207522392273,2.3577306270599365,-0.4468311828425904,-0.25836828351020813,0.10206915438175201,-1.5969694296466272,-0.0,-0.049124184995889664,0.5561625957489014,-0.0,0.013424251228570938,1.1716291904449463,-5.1490426453668204e-24,0.4808834195137024
835.0,851.0,-5.5842,-0.7352,9.1119,-0.056,0.1604,-0.12,-2.2577954731383265,1.958160767192545e-27,4.506507396697998,-1.6097744703292847,0.32212692499160767,2.370450258255005,-0.44840319574389653,-0.26937437057495117,0.09675800800323486,-1.5969980398761194,-0.0,-0.05990438908338547,0.5561347007751465,-0.0,0.013563647866249084,1.1716493368148804,-1.2434332599382317e-29,0.45910972356796265
835.0,851.0,-5.5842,-0.7352,9.1119,-0.056,0.1604,-0.12,-2.2577959499754847,3.5246201290196794e-31,4.504178047180176,-1.6085195541381836,0.3220635950565338,2.3803021907806396,-0.44959648073229985,-0.2866792678833008,0.09032104164361954,-1.5970256964312952,-0.0,-0.061825767159461975,0.556122899055481,-0.0,0.011660360731184483,1.17168128490448,-2.2381359175068583e-33,0.473213791847229
835.0,851.0,-5.5842,-0.7352,9.1119,-0.056,0.1604,-0.12,-2.2577997646727503,8.511542475832003e-37,4.489083290100098,-1.606583595275879,0.326647013425827,2.334199905395508,-0.45139749467883306,-0.29627344012260437,0.08083027601242065,-1.5970056692706507,-0.0,-0.05545428767800331,0.5561549663543701,-0.0,0.01539694145321846,1.1717013120651245,-5.404836202870106e-39,0.5088059902191162
835.0,851.0,-5.5842,-0.7352,9.1119,-0.056,0.1604,-0.12,-2.2578193149962367,2.0557048471645066e-42,4.515835762023926,-1.604648232460022,0.3363650441169739,2.4031574726104736,-0.45327527940783696,-0.3282032907009125,0.0738525390625,-1.596973721181051,-0.0,-0.0575268492102623,0.5561786890029907,-0.0,-0.0007342190947383642,1.1716649532318115,-1.2611686178923354e-44,0.4647204875946045
835.0,851.0,-5.5842,-0.7352,9.1119,-0.056,0.1604,-0.12,-2.2578116856017054,0.0,4.524066925048828,-1.6032558679580688,0.33499273657798767,2.431340456008911,-0.45476336896929936,-0.33253180980682373,0.07978502660989761,-1.59698993364443,-0.0,-0.06492193788290024,0.5561667680740356,-0.0,0.0020339451730251312,1.171701192855835,0.0,0.4421350955963135
835.0,851.0,-5.5842,-0.7352,9.1119,-0.056,0.1604,-0.12,-2.2578517399229945,-0.000610169256106019,4.542604923248291,-1.601244568824768,0.33934640884399414,2.351250171661377,-0.4567883771708985,-0.3626704514026642,0.06108260154724121,-1.5969861189471644,-0.0,-0.061873238533735275,0.5561668276786804,-0.0,0.013505866751074791,1.1716930866241455,0.0,0.45036426186561584
835.0,851.0,-5.5842,-0.7352,9.1119,-0.056,0.1604,-0.12,-2.2578236065306605,-0.00047650528722442687,4.512815475463867,-1.599237084388733,0.3495490849018097,2.4088830947875977,-0.45912595212969975,-0.3818252980709076,0.05474097281694412,-1.5969613234149378,-0.0,-0.058490388095378876,0.5561227798461914,-0.0,0.010864180512726307,1.1717251539230347,0.0,0.4290635585784912
775.0,826.0,-5.6004,-0.8955,8.7308,-0.0702,0.1208,-0.1245,-2.2578679523863734,-0.0004050046263728291,4.567203044891357,-1.5978374481201172,0.3466031551361084,2.3353867530822754,-0.46061845243487554,-0.4074490964412689,0.03034547157585621,-1.5969818274127405,-0.0,-0.07368437200784683,0.5561067461967468,-0.0,-0.006749008782207966,1.1716409921646118,0.0,0.5222216248512268
775.0,826.0,-5.6004,-0.8955,8.7308,-0.0702,0.1208,-0.1245,-2.257859846154684,-0.0003849142522085458,4.586719989776611,-1.5957207679748535,0.3453952372074127,2.4002060890197754,-0.4630957406810303,-0.4227234125137329,0.03616712987422943,-1.5969861189471644,-0.0,-0.07256050407886505,0.5561549067497253,-0.0,0.005673092789947987,1.1716890335083008,0.0,0.45838844776153564
775.0,826.0,-5.6004,-0.8955,8.7308,-0.0702,0.1208,-0.1245,-2.2578679523863734,-0.0003723927366081625,4.5709357261657715,-1.5936121940612793,0.3528778851032257,2.4545445442199707,-0.46565766752276616,-0.4356849491596222,0.03689425438642502,-1.5969980398761194,-0.0,-0.05360345169901848,0.5560948252677917,-0.0,0.0075024510733783245,1.1717292070388794,0.00044191229972057045,0.46191656589508057
775.0,826.0,-5.6004,-0.8955,8.7308,-0.0702,0.1208,-0.1245,-2.2578641376891078,-0.0003013435343746096,4.532901287078857,-1.5921828746795654,0.3496514558792114,2.428802490234375,-0.46743424356494145,-0.46372705698013306,0.0031415696721524,-1.5970218817340296,-0.0,-0.04966932535171509,0.5561627745628357,-0.0,-0.001474538934417069,1.1717532873153687,0.0003875468100886792,0.4521555006504059
775.0,826.0,-5.6004,-0.8955,8.7308,-0.0702,0.1208,-0.1245,-2.2578841648497523,-0.00025091483257710934,4.587736129760742,-1.5900862216949463,0.3479742705821991,2.3789994716644287,-0.47031577051196294,-0.48465365171432495,0.008149653673171997,-1.596973721181051,-0.0,-0.0585443452000618,0.5561269521713257,-0.0,-0.007142145186662674,1.1717087030410767,0.0004244136798661202,0.46555811166763306
775.0,826.0,-5.6004,-0.8955,8.7308,-0.0702,0.1208,-0.1245,-2.2578350506224574,-0.00025794230168685317,4.5396952629089355,-1.5880106687545776,0.3541962504386902,2.378079652786255,-0.4732901614955445,-0.5114879608154297,-0.0109028872102499,-1.5970099608050745,2.052835225185845e-05,-0.05490409582853317,0.5561948418617249,-0.0,0.013453532941639423,1.171712875366211,0.0006785066216252744,0.4677661657333374
775.0,826.0,-5.6004,-0.8955,8.7308,-0.0702,0.1208,-0.1245,-2.257843156854147,-0.0002611885138321668,4.507387161254883,-1.5865849256515503,0.35246217250823975,2.4041614532470703,-0.4753999275020142,-0.5224606990814209,0.008623822592198849,-1.5969856421100062,2.0096267689950764e-05,-0.048531122505664825,0.556106686592102,-0.0,0.011323985643684864,1.1717292070388794,0.0006501642055809498,0.5062787532806396
775.0,826.0,-5.6004,-0.8955,8.7308,-0.0702,0.1208,-0.1245,-2.2578798733153285,-0.00024291512090712786,4.5682477951049805,-1.5845203399658203,0.3512522578239441,2.394127130508423,-0.47861333311114507,-0.547576367855072,0.01489183772355318,-1.5970099608050745,8.472808588066982e-08,-0.052907947450876236,0.5561509728431702,-0.0,0.008665421977639198,1.171704649925232,0.0008230733219534159,0.4632626473903656
775.0,826.0,-5.6004,-0.8955,8.7308,-0.0702,0.1208,-0.1245,-2.257859846154684,-0.0002488151076249778,4.5703959465026855,-1.5823445320129395,0.3512320816516876,2.4092869758605957,-0.4819668096354981,-0.5705808997154236,0.0113942576572299,-1.5970099608050745,2.3584370567597546e-11,-0.04459173232316971,0.5561349391937256,-0.0,0.012488160282373428,1.1717571020126343,0.0008642988395877182,0.4768924117088318
775.0,826.0,-5.6004,-0.8955,8.7308,-0.0702,0.1208,-0.1245,-2.2578641376891078,-0.0002528019540477544,4.595084190368652,-1.5809710025787354,0.35716867446899414,2.407571315765381,-0.48439212263140874,-0.5802430510520935,-0.006170873064547777,-1.5970342795001429,1.0054386793620362e-13,-0.03366123139858246,0.5561068654060364,-0.0,0.005455649457871914,1.1717005968093872,0.0008831862942315638,0.4997834861278534
775.0,826.0,-5.6004,-0.8955,8.7308,-0.0702,0.1208,-0.1245,-2.257887979547018,-0.0002163503086194396,4.606669902801514,-1.5788592100143433,0.3598179817199707,2.4298017024993896,-0.4879440826228638,-0.6003415584564209,0.0028978814370930195,-1.5969660917865198,2.7986756053225234e-17,-0.03759811073541641,0.5561309456825256,-0.0,0.0054800319485366344,1.1717406511306763,0.0007511064759455621,0.4897609353065491
775.0,826.0,-5.6004,-0.8955,8.7308,-0.0702,0.1208,-0.1245,-2.2578636608519496,-0.0002267103991471231,4.56973123550415,-1.5767066478729248,0.35559821128845215,2.397704839706421,-0.49159152925524907,-0.6117895841598511,0.010524110868573189,-1.59698993364443,7.790217372375356e-21,-0.06079433858394623,0.5560948848724365,-0.0,-0.003481177845969796,1.1717772483825684,0.0005003258120268583,0.40245431661605835
775.0,826.0,-5.6004,-0.8955,8.7308,-0.0702,0.1208,-0.1245,-2.2579080067076625,-0.0002791122533380985,4.542609691619873,-1.5752979516983032,0.35836803913116455,2.3961682319641113,-0.49396081388507085,-0.6165888905525208,-0.003363593015819788,-1.5969861189471644,3.321091789205976e-23,-0.042418863624334335,0.5560988187789917,-0.0,0.000348465284332633,1.1717250347137451,0.0004092703456990421,0.4321260452270508
775.0,826.0,-5.6004,-0.8955,8.7308,-0.0702,0.1208,-0.1245,-2.257895608941549,-0.0005592166562564671,4.578583240509033,-1.57310950756073,0.36207640171051025,2.4460666179656982,-0.49759192884478765,-0.6183909773826599,-0.0027766679413616657,-1.5969622770892542,9.244379762513157e-27,-0.03448234871029854,0.5561108589172363,-0.0,0.006829791236668825,1.1717209815979004,0.00032151766936294734,0.4556087553501129
775.0,826.0,-5.6004,-0.8955,8.7308,-0.0702,0.1208,-0.1245,-2.25797237972402,-0.0009023683378472924,4.543305397033691,-1.5709242820739746,0.3549029529094696,2.4079275131225586,-0.5013355773738404,-0.6260172724723816,-0.0021755548659712076,-1.5969660917865198,2.5732071629895584e-30,-0.04036625474691391,0.5561227798461914,-0.0,0.0024929360952228308,1.171741008758545,0.00021812408522237092,0.41551637649536133
775.0,826.0,-5.6004,-0.8955,8.7308,-0.0702,0.1208,-0.1245,-2.257911821404928,-0.0007927034166641533,4.584585666656494,-1.569527506828308,0.3593844175338745,2.4407379627227783,-0.5037889045527955,-0.6215476393699646,0.018299685791134834,-1.5969937483416956,1.0969985849626184e-32,-0.03218589723110199,0.5560469627380371,-0.0,0.012549346312880516,1.1717451810836792,0.00018950518278870732,0.4072207510471344
775.0,826.0,-5.6004,-0.8955,8.7308,-0.0702,0.1208,-0.1245,-2.2579199276366175,-0.0006579447654075921,4.5868353843688965,-1.5674272775650024,0.36256590485572815,2.393639326095581,-0.5075445932200928,-0.6139200329780579,0.009697148576378822,-1.5970056692706507,3.0535359869717177e-36,-0.01688329130411148,0.556087076663971,-0.0,-0.0005502463318407536,1.1717369556427002,0.00016365695046260953,0.4286279082298279
650.0,745.0,-5.9079,-0.2381,8.1924,-0.0189,-0.0695,-0.1219,-2.2579032383360804,-0.0004996766219846904,4.546896934509277,-1.5658897161483765,0.3553546965122223,2.40122652053833,-0.5099136394313355,-0.6151338815689087,0.03202057629823685,-1.5969856421100062,1.301770259987222e-38,-0.03990338742733002,0.5560949444770813,-0.0,0.0068032946437597275,1.171741008758545,0.00011303738574497402,0.3944779932498932
650.0,745.0,-5.9079,-0.2381,8.1924,-0.0189,-0.0695,-0.1219,-2.257895132104391,-0.0005180180887691677,4.5533623695373535,-1.5637576580047607,0.35290735960006714,2.411993980407715,-0.5135613244822999,-0.6042982935905457,0.026353484019637108,-1.5969775358783167,3.623757828743977e-42,-0.05229562520980835,0.5560830235481262,-0.0,0.012984933331608772,1.1717250347137451,-7.452427234966308e-05,0.3508017063140869
650.0,745.0,-5.9079,-0.2381,8.1924,-0.0189,-0.0695,-0.1219,-2.2579599819579066,-0.0008330629789270461,4.5521721839904785,-1.5616341829299927,0.351847380399704,2.412620782852173,-0.5171048206141968,-0.5897731781005859,0.03703303262591362,-1.5969894568072718,1.401298464324817e-45,-0.03078486956655979,0.5560830235481262,-0.0,-0.012446794658899307,1.1717169284820557,-0.00019620702369138598,0.3467184603214264
650.0,745.0,-5.9079,-0.2381,8.1924,-0.0189,-0.0695,-0.1219,-2.2579156361021937,-0.0007425849908031523,4.579395294189453,-1.5601840019226074,0.34722787141799927,2.3741607666015625,-0.5194563430598755,-0.5852512121200562,0.036722149699926376,-1.596945587788717,0.0,-0.02251463383436203,0.556134819984436,-0.0,-0.006912732496857643,1.171704649925232,-0.00028989490238018334,0.3407629132270813
650.0,745.0,-5.9079,-0.2381,8.1924,-0.0189,-0.0695,-0.1219,-2.2579318485655726,-0.0005488329334184527,4.555753707885742,-1.5580799579620361,0.34505054354667664,2.4311940670013428,-0.5228588146022339,-0.5685707330703735,0.038627829402685165,-1.5969417730914515,7.971721061039716e-05,-0.02367217093706131,0.5561307072639465,-0.0,4.646903835237026e-05,1.171712875366211,-0.00029334393911994994,0.3584136962890625
650.0,745.0,-5.9079,-0.2381,8.1924,-0.0189,-0.0695,-0.1219,-2.257932325402731,-0.0004350891103968024,4.60414457321167,-1.5559957027435303,0.3438558578491211,2.3491928577423096,-0.5261683028987427,-0.54081130027771,0.04646147042512894,-1.59698993364443,9.511686948826537e-05,-0.02432018145918846,0.5560910701751709,-0.0,0.0023442087695002556,1.1717653274536133,-0.00022362434538081288,0.2784842848777771
650.0,745.0,-5.9079,-0.2381,8.1924,-0.0189,-0.0695,-0.1219,-2.257883211175436,-0.0003858204872813076,4.583788871765137,-1.554642915725708,0.34068769216537476,2.3238539695739746,-0.528216080074646,-0.5196980834007263,0.034077029675245285,-1.59698993364443,9.126439545070753e-05,-0.013086188584566116,0.5560588836669922,-0.0,-0.010462253354489803,1.1716886758804321,-0.0003715156635735184,0.30503982305526733
650.0,745.0,-5.9079,-0.2381,8.1924,-0.0189,-0.0695,-0.1219,-2.2578913174071253,-0.00012089184747310355,4.586411952972412,-1.5525418519973755,0.3394257128238678,2.330787181854248,-0.5312783283046265,-0.49092966318130493,0.058388084173202515,-1.5969699064837855,8.602996967965737e-05,-0.008832303807139397,0.5561509728431702,-0.0,-0.008967747911810875,1.1717292070388794,-0.00040311040356755257,0.272493839263916
650.0,745.0,-5.9079,-0.2381,8.1924,-0.0189,-0.0695,-0.1219,-2.2578755817809046,-0.00010061507782666013,4.522313117980957,-1.550553321838379,0.3356550931930542,2.314898729324341,-0.5340539974025269,-0.45827868580818176,0.07224763929843903,-1.596933666859762,9.763128036865965e-05,-0.022075720131397247,0.5561028718948364,-0.0,0.004123737569898367,1.1717169284820557,-0.0003842285950668156,0.26921355724334717
650.0,745.0,-5.9079,-0.2381,8.1924,-0.0189,-0.0695,-0.1219,-2.2578875027098597,-0.00013573613250628114,4.6063714027404785,-1.5492511987686157,0.33681902289390564,2.352703094482422,-0.5358330768397828,-0.4428987503051758,0.07051379978656769,-1.5969699064837855,9.42285914788954e-05,-0.01555689424276352,0.556079089641571,-0.0,0.014481889083981514,1.1717209815979004,-0.0003424607857596129,0.2823086380958557
650.0,745.0,-5.9079,-0.2381,8.1924,-0.0189,-0.0695,-0.1219,-2.257944246331686,-0.00011795327736763284,4.595309734344482,-1.547248125076294,0.3337804973125458,2.348881721496582,-0.5383300346187134,-0.39946281909942627,0.09809532761573792,-1.5969536940204065,8.954112126957625e-05,-0.01168118417263031,0.5560709834098816,-0.0,-0.012681689113378525,1.171704649925232,-0.00033657284802757204,0.20874005556106567
650.0,745.0,-5.9079,-0.2381,8.1924,-0.0189,-0.0695,-0.1219,-2.257923742333883,-0.00012710080773103982,4.5636887550354,-1.5453113317489624,0.3262780010700226,2.3517184257507324,-0.5405326646617432,-0.36413201689720154,0.10915790498256683,-1.5969813505755823,8.529797923984006e-05,0.0073998840525746346,0.5560950040817261,-0.0,-0.004969906061887741,1.171741008758545,-0.0003767898306250572,0.23794524371623993
650.0,745.0,-5.9079,-0.2381,8.1924,-0.0189,-0.0695,-0.1219,-2.2579194507994593,-0.0001294761459575966,4.610976219177246,-1.5440255403518677,0.3272063732147217,2.3420395851135254,-0.5418960613063355,-0.3475643992424011,0.126548171043396,-1.5969856421100062,9.466594929108396e-05,-8.356105536222458e-05,0.5561069846153259,-0.0,-0.02581203728914261,1.1717292070388794,-0.0003855074755847454,0.24097678065299988
650.0,745.0,-5.9079,-0.2381,8.1924,-0.0189,-0.0695,-0.1219,-2.257928033868307,-9.423394658369943e-05,4.577216148376465,-1.5420647859573364,0.32652708888053894,2.331221580505371,-0.5438711208156128,-0.30762648582458496,0.14703479409217834,-1.5969775358783167,9.222946391673759e-05,0.004686813335865736,0.5560910701751709,-0.0,-0.029946761205792427,1.1716969013214111,-0.00037223234539851546,0.21915647387504578
650.0,745.0,-5.9079,-0.2381,8.1924,-0.0189,-0.0695,-0.1219,-2.2579480610289515,-0.00012213949230499566,4.579087257385254,-1.5401718616485596,0.31625664234161377,2.3338427543640137,-0.545554594402649,-0.2669929265975952,0.1631433069705963,-1.5969894568072718,8.834977052174509e-05,0.001692717894911766,0.5561029314994812,-0.0,-0.010082571767270565,1.171741008758545,-0.0004961246158927679,0.21436432003974915
650.0,745.0,-5.9079,-0.2381,8.1924,-0.0189,-0.0695,-0.1219,-2.2579556904234828,-0.00014930414909031242,4.601986885070801,-1.5389037132263184,0.3166959285736084,2.3211493492126465,-0.5465316337398072,-0.23860712349414825,0.17118871212005615,-1.5969741980182093,8.593934762757272e-05,-0.003839341690763831,0.5560628771781921,-0.0,-0.008676573634147644,1.1716930866241455,-0.0004193978675175458,0.2193557173013687
650.0,745.0,-5.9079,-0.2381,8.1924,-0.0189,-0.0695,-0.1219,-2.257899423638815,-0.0001328314101556316,4.616813659667969,-1.5370583534240723,0.3202005922794342,2.29789400100708,-0.5477562707713624,-0.17800302803516388,0.2021235227584839,-1.5969660917865198,8.256072032963857e-05,-0.0004051078576594591,0.5561029314994812,-0.0,-0.01834321767091751,1.1717087030410767,-0.0003772169875446707,0.21397045254707336
613.0,813.0,-4.215,-0.131,8.5801,0.0188,-0.2138,-0.11,-2.257951398889059,-0.0001195929289679043,4.591896057128906,-1.535192847251892,0.30715227127075195,2.311403751373291,-0.548638181095459,-0.15054066479206085,0.21051274240016937,-1.596933666859762,7.943763193907216e-05,-0.013946439139544964,0.5560990571975708,-0.0,-0.016056859865784645,1.1717087030410767,-0.00037946488009765744,0.2002938687801361
613.0,813.0,-4.215,-0.131,8.5801,0.0188,-0.2138,-0.11,-2.257939477960104,-0.00014013191685080528,4.618133544921875,-1.5339254140853882,0.305056631565094,2.275125741958618,-0.5492207568934937,-0.12999942898750305,0.23874527215957642,-1.5969374815570276,8.294006693176925e-05,0.004556241910904646,0.5560628175735474,-0.0,-0.01747407577931881,1.1716969013214111,-0.0003017935960087925,0.19330009818077087
613.0,813.0,-4.215,-0.131,8.5801,0.0188,-0.2138,-0.11,-2.2579356632628382,-0.0001281971635762602,4.672499656677246,-1.5321149826049805,0.3055606782436371,2.285083293914795,-0.5498421949199219,-0.08565443754196167,0.23946577310562134,-1.5969699064837855,8.54001336847432e-05,0.005280160810798407,0.5560629367828369,-0.0,-0.01634121499955654,1.171676754951477,-0.00011614765389822423,0.18524223566055298
613.0,813.0,-4.215,-0.131,8.5801,0.0188,-0.2138,-0.11,-2.257927557031149,-0.00011810333671746776,4.609396934509277,-1.5303242206573486,0.2971141040325165,2.283278465270996,-0.5501491588405152,-0.03308132290840149,0.2683893144130707,-1.5969660917865198,8.2467267930042e-05,0.00741560896858573,0.556098997592926,-0.0,-0.026079412549734116,1.1717169284820557,-9.730706369737163e-05,0.2011292576789856
613.0,813.0,-4.215,-0.131,8.5801,0.0188,-0.2138,-0.11,-2.257927557031149,-0.00011221302702324465,4.548093795776367,-1.5291447639465332,0.29044443368911743,2.2785141468048096,-0.5501838487437745,-0.00596274109557271,0.2899765372276306,-1.5969536940204065,8.062048436840996e-05,0.00820628460496664,0.5560870170593262,-0.0,-0.013225080445408821,1.1717569828033447,-8.781194628681988e-05,0.21890684962272644
613.0,813.0,-4.215,-0.131,8.5801,0.0188,-0.2138,-0.11,-2.257927557031149,-0.00019992513989564031,4.597830295562744,-1.5273340940475464,0.2890669107437134,2.2407760620117188,-0.5500798982432862,0.032005321234464645,0.3014346659183502,-1.5969379583941858,6.705359965053503e-07,0.006546522490680218,0.5560788512229919,-0.0,-0.029800519347190857,1.171781301498413,-5.369948894440313e-07,0.20784908533096313
613.0,813.0,-4.215,-0.131,8.5801,0.0188,-0.2138,-0.11,-2.257939477960104,-0.0002099808625644073,4.566829681396484,-1.5256706476211548,0.2836146354675293,2.3045337200164795,-0.5498964351466675,0.0414833128452301,0.3126521110534668,-1.596973721181051,1.8664615686336816e-10,0.0029094102792441845,0.5560950040817261,-0.0,-0.016956333070993423,1.1717332601547241,-1.2967791987797406e-12,0.17759822309017181
613.0,813.0,-4.215,-0.131,8.5801,0.0188,-0.2138,-0.11,-2.2579318485655726,-0.00019685820734594017,4.626954555511475,-1.524515151977539,0.2773269712924957,2.3008151054382324,-0.5498088163188477,0.03702758252620697,0.31603485345840454,-1.596933666859762,7.957017748687345e-13,0.0027631139382719994,0.5560510158538818,-0.0,-0.04140353947877884,1.171761155128479,-2.3341565166500587e-16,0.19593501091003418
613.0,813.0,-4.215,-0.131,8.5801,0.0188,-0.2138,-0.11,-2.257991930047506,-0.00017998553812503815,4.550112724304199,-1.5227880477905273,0.27237021923065186,2.256091356277466,-0.549693302517273,0.022411521524190903,0.30560293793678284,-1.5969813505755823,2.2148651609190913e-16,0.0024679494090378284,0.5561109185218811,-0.0,-0.02146434783935547,1.1717894077301025,-5.636713837956245e-22,0.27405819296836853
613.0,813.0,-4.215,-0.131,8.5801,0.0188,-0.2138,-0.11,-2.257923742333883,-0.00016577713540755212,4.6737260818481445,-1.521201729774475,0.27360373735427856,2.3154280185699463,-0.5495941203883667,0.004712153226137161,0.2889128029346466,-1.5969379583941858,6.165158697351565e-20,0.003814761759713292,0.5561109185218811,-0.0,-0.020574374124407768,1.1717209815979004,-1.3612000031127636e-27,0.24201294779777527
613.0,813.0,-4.215,-0.131,8.5801,0.0188,-0.2138,-0.11,-2.2579599819579066,-0.00011562222061911598,4.569799900054932,-1.5200656652450562,0.2662314176559448,2.2745485305786133,-0.5497102302363892,-0.005469860043376684,0.2819426953792572,-1.5969699064837855,2.628303792385807e-22,-0.017155513167381287,0.5561346411705017,-0.0,-0.02438829466700554,1.1717649698257446,-2.450111557481054e-31,0.23136599361896515
613.0,813.0,-4.215,-0.131,8.5801,0.0188,-0.2138,-0.11,-2.257963796655172,-9.578748722560704e-05,4.611629962921143,-1.5185350179672241,0.2659159302711487,2.2457470893859863,-0.5496773284724732,-0.009119548834860325,0.27980679273605347,-1.5969417730914515,7.315979851490843e-26,-0.010401902720332146,0.5560708045959473,-0.0,-0.02279367297887802,1.1717569828033447,-5.916731877134487e-37,0.2746465802192688
613.0,813.0,-4.215,-0.131,8.5801,0.0188,-0.2138,-0.11,-2.2579361400999964,-8.657261787448078e-05,4.575191974639893,-1.5174469947814941,0.26813212037086487,2.310502529144287,-0.5497294229320069,-0.006385681219398975,0.2789113223552704,-1.5969536940204065,3.118916674300042e-28,-0.016718406230211258,0.5560910105705261,-0.0,-0.023241184651851654,1.1717529296875,0.00041312098619528115,0.29221656918525696
613.0,813.0,-4.215,-0.131,8.5801,0.0188,-0.2138,-0.11,-2.257995744744772,-7.565555279143155e-05,4.604045867919922,-1.515924334526062,0.2654283046722412,2.3208112716674805,-0.5497493308833619,-0.003741081338375807,0.2738143503665924,-1.5969536940204065,8.681619993216934e-32,-0.01089294534176588,0.5560989379882812,-0.0,-0.026075810194015503,1.1717448234558105,0.0003241788945160806,0.28082388639450073
613.0,813.0,-4.215,-0.131,8.5801,0.0188,-0.2138,-0.11,-2.2579838238158167,-0.00010077340994030237,4.618453025817871,-1.514353632926941,0.25709268450737,2.2914879322052,-0.5497575563243409,-0.002161632990464568,0.27023637294769287,-1.5969417730914515,2.4165603938450827e-35,-0.001447671209461987,0.5560708045959473,-0.0,-0.017569921910762787,1.1717451810836792,0.000266559945885092,0.2549593448638916
613.0,813.0,-4.215,-0.131,8.5801,0.0188,-0.2138,-0.11,-2.2579552135863246,-9.377527749165893e-05,4.6602606773376465,-1.5133739709854126,0.2554554343223572,2.2994437217712402,-0.549821214084961,-0.0023103696294128895,0.27184033393859863,-1.5969660917865198,1.0302177032861565e-37,-0.020429246127605438,0.5561386942863464,-0.0,-0.01175285317003727,1.171761155128479,0.0002383219834882766,0.3208863139152527
613.0,813.0,-4.215,-0.131,8.5801,0.0188,-0.2138,-0.11,-2.257967611352438,-0.00011321905185468495,4.63617467880249,-1.5119794607162476,0.2571464478969574,2.343623161315918,-0.5498538774302979,-0.004186335951089859,0.26097825169563293,-1.5969298521624964,2.8676171773943057e-41,-0.01940574310719967,0.5560989379882812,-0.0,-0.018757889047265053,1.171741008758545,0.00016939107445068657,0.30407747626304626
666.0,746.0,-3.0748,-0.1896,8.4144,-0.0767,0.2428,-0.1211,-2.257991453210348,-0.00013418546586763114,4.6333699226379395,-1.5103391408920288,0.24631889164447784,2.3167953491210938,-0.5498611491969605,-0.0067151193507015705,0.2583097517490387,-1.5969818274127405,8.407790785948902e-45,-0.006050480995327234,0.5561549067497253,-0.0,-0.011430801823735237,1.1717292070388794,0.00010868369281524792,0.31029796600341797
666.0,746.0,-3.0748,-0.1896,8.4144,-0.0767,0.2428,-0.1211,-2.2580119572081507,-0.0010303680319339037,4.649357318878174,-1.5093680620193481,0.24045589566230774,2.2877326011657715,-0.5499170583537598,-0.008946927264332771,0.25929710268974304,-1.5969379583941858,0.0,-0.007919477298855782,0.5560869574546814,-0.0,-0.012608555145561695,1.1716927289962769,0.00010043669317383319,0.2850697636604309
666.0,746.0,-3.0748,-0.1896,8.4144,-0.0767,0.2428,-0.1211,-2.257991453210348,-0.0010455837473273277,4.607771873474121,-1.5079855918884277,0.2426491528749466,2.345532178878784,-0.5499887031367798,-0.009848942048847675,0.24970194697380066,-1.596949879323141,0.0,-0.025733767077326775,0.5561307072639465,-0.0,-0.005756459664553404,1.1717169284820557,9.0353365521878e-05,0.29792124032974243
666.0,746.0,-3.0748,-0.1896,8.4144,-0.0767,0.2428,-0.1211,-2.2579757175841273,-0.0007282518199644983,4.635540008544922,-1.5065455436706543,0.24333447217941284,2.345770835876465,-0.5500367444804688,-0.010415926575660706,0.2386724054813385,-1.5968979040728968,0.0,-0.019984973594546318,0.5561069250106812,-0.0,-0.01957596279680729,1.171769380569458,-6.982222112128511e-05,0.2922918200492859
666.0,746.0,-3.0748,-0.1896,8.4144,-0.0767,0.2428,-0.1211,-2.2580162487425746,-0.0006056730635464191,4.656993865966797,-1.505627155303955,0.24168828129768372,2.330528974533081,-0.5501039785197754,-0.011702458374202251,0.2480766475200653,-1.596882168446676,0.0,-0.020191984251141548,0.5560988783836365,-0.0,-0.003938181791454554,1.1717373132705688,-7.029769767541438e-05,0.25709694623947144
666.0,746.0,-3.0748,-0.1896,8.4144,-0.0767,0.2428,-0.1211,-2.257963319818014,-0.00039512707735411823,4.651679992675781,-1.504083275794983,0.23203757405281067,2.3276045322418213,-0.5501677554896851,-0.012874346226453781,0.24487775564193726,-1.596921745930807,0.0,-0.016618432477116585,0.5561428666114807,-0.0,0.0003548767417669296,1.1717451810836792,-3.19003956974484e-05,0.2664802074432373
666.0,746.0,-3.0748,-0.1896,8.4144,-0.0767,0.2428,-0.1211,-2.2579552135863246,-0.00037435031845234334,4.627392768859863,-1.5028001070022583,0.22868792712688446,2.368230104446411,-0.5503527683070679,-0.01435819547623396,0.2407776415348053,-1.5969298521624964,0.0,-0.024815626442432404,0.5561187267303467,-0.0,-0.012676980346441269,1.171761155128479,-2.8476371880969964e-05,0.2986862063407898
666.0,746.0,-3.0748,-0.1896,8.4144,-0.0767,0.2428,-0.1211,-2.257987161675924,-0.00032878966885618865,4.630767345428467,-1.501876950263977,0.2268630713224411,2.316819190979004,-0.5503760141185303,-0.015510295517742634,0.23165909945964813,-1.596933666859762,0.0,-0.020527474582195282,0.556067168712616,-0.0,-0.007726365700364113,1.1717169284820557,-8.254963177023456e-05,0.28006884455680847
666.0,746.0,-3.0748,-0.1896,8.4144,-0.0767,0.2428,-0.1211,-2.2579671345152796,-0.00027800159296020865,4.691688537597656,-1.5004538297653198,0.2236887514591217,2.3784804344177246,-0.5504916471293946,-0.01814822107553482,0.2236955165863037,-1.596949879323141,2.7119314793822014e-08,-0.006004152819514275,0.5560510754585266,-0.0,-0.0044637625105679035,1.1717369556427002,-6.491603562608361e-05,0.26535147428512573
666.0,746.0,-3.0748,-0.1896,8.4144,-0.0767,0.2428,-0.1211,-2.258008142510885,-0.0003707715659402311,4.675170421600342,-1.4991064071655273,0.21553243696689606,2.3527657985687256,-0.5506150287440796,-0.019519733265042305,0.22316542267799377,-1.596945587788717,7.548761095377277e-12,-0.01682998612523079,0.5561627745628357,-0.0,-0.0006216318579390645,1.1717369556427002,-5.336613321560435e-05,0.23156699538230896
666.0,746.0,-3.0748,-0.1896,8.4144,-0.0767,0.2428,-0.1211,-2.258008142510885,-0.00043083634227514267,4.690491676330566,-1.4982508420944214,0.21189017593860626,2.334552526473999,-0.5506946605494996,-0.020603302866220474,0.23677438497543335,-1.596949879323141,3.21815497698625e-14,-0.01635747402906418,0.5560989379882812,-0.0,-0.01469519641250372,1.171712875366211,-4.770758096128702e-05,0.2780093252658844
666.0,746.0,-3.0748,-0.1896,8.4144,-0.0767,0.2428,-0.1211,-2.2579671345152796,-0.00037282612174749374,4.657778739929199,-1.4970394372940063,0.20746393501758575,2.3426437377929688,-0.5508626264384766,-0.024703945964574814,0.21467325091362,-1.5969179312335413,8.957852354788894e-18,-0.011783339083194733,0.5561346411705017,-0.0,-0.007983054034411907,1.171764850616455,-4.116133277420886e-05,0.2689153552055359
666.0,746.0,-3.0748,-0.1896,8.4144,-0.0767,0.2428,-0.1211,-2.2579838238158167,-0.000316609104629606,4.6529154777526855,-1.4957767724990845,0.20509950816631317,2.3756651878356934,-0.5510506194880982,-0.027308685705065727,0.2016274333000183,-1.596933666859762,2.493450936268181e-21,-0.007938061840832233,0.5561346411705017,-0.0,-0.008554395288228989,1.1717209815979004,-3.619490598794073e-05,0.2652900815010071
666.0,746.0,-3.0748,-0.1896,8.4144,-0.0767,0.2428,-0.1211,-2.258035799066061,-0.000287690811092034,4.626522064208984,-1.494924545288086,0.2029028832912445,2.3543543815612793,-0.5512064260295411,-0.03048560582101345,0.209486722946167,-1.5968940893756312,1.0629972484195509e-23,-0.0058213574811816216,0.5561627745628357,-0.0,-0.006272336933761835,1.1717209815979004,-3.35002550855279e-05,0.21604067087173462
666.0,746.0,-3.0748,-0.1896,8.4144,-0.0767,0.2428,-0.1211,-2.2579995594420375,-0.00025302477297373116,4.679502487182617,-1.493774175643921,0.19773992896080017,2.415003776550293,-0.5513692659190674,-0.03662771359086037,0.20415738224983215,-1.5969298521624964,2.95889207003763e-27,0.0010029415134340525,0.5561307072639465,-0.0,-0.004377225413918495,1.1717329025268555,-3.013503192050848e-05,0.24795091152191162
666.0,746.0,-3.0748,-0.1896,8.4144,-0.0767,0.2428,-0.1211,-2.2579714260497035,-0.00022581580560654402,4.643615245819092,-1.4925824403762817,0.19384552538394928,2.360482692718506,-0.5516486924937745,-0.04953831434249878,0.18972980976104736,-1.5969260374652308,8.236184864234136e-31,-0.0003897304995916784,0.5561349391937256,-0.0,-0.0007347548380494118,1.1717652082443237,-2.7384236091165803e-05,0.24531623721122742
389.0,430.0,-5.2965,-0.3733,8.7057,-0.0663,0.2636,-0.1318,-2.257979532281393,-0.00021070968068670481,4.657699108123779,-1.4917665719985962,0.19079118967056274,2.3939149379730225,-0.5518723291209717,-0.06352950632572174,0.17680597305297852,-1.5969379583941858,3.511214482875635e-33,-0.0021050095092505217,0.5561267137527466,-0.0,0.005616042297333479,1.1717169284820557,-5.1612314564408734e-05,0.25463318824768066
389.0,430.0,-5.2965,-0.3733,8.7057,-0.0663,0.2636,-0.1318,-2.2579671345152796,-0.00019149493891745806,4.662978172302246,-1.4906554222106934,0.18886391818523407,2.3922643661499023,-0.552391843204834,-0.09056314080953598,0.1655258685350418,-1.5969298521624964,9.773593575445232e-37,-0.004334961995482445,0.5561267137527466,-0.0,-0.009315195493400097,1.1717250347137451,-8.689168316777796e-05,0.23719193041324615
389.0,430.0,-5.2965,-0.3733,8.7057,-0.0663,0.2636,-0.1318,-2.258023878137106,-0.00020044365373905748,4.669541835784912,-1.4895362854003906,0.17866884171962738,2.33880615234375,-0.5530468982509156,-0.1206711083650589,0.14937902987003326,-1.596921745930807,2.7205088646094864e-40,-0.0026905881240963936,0.5561108589172363,-0.0,-0.0022138087078928947,1.1717332601547241,-0.00017192716768477112,0.2097458690404892
389.0,430.0,-5.2965,-0.3733,8.7057,-0.0663,0.2636,-0.1318,-2.2580038509764613,-0.0001899781491374597,4.675825119018555,-1.4888371229171753,0.17396306991577148,2.3883113861083984,-0.5535981220057984,-0.13862834870815277,0.15181979537010193,-1.5969098250018519,1.1602751284609485e-42,0.005247933324426413,0.5560988783836365,-0.0,0.0022517580073326826,1.1717087030410767,-0.00018864318553823978,0.18535207211971283
389.0,430.0,-5.2965,-0.3733,8.7057,-0.0663,0.2636,-0.1318,-2.2579552135863246,-0.00017604295862838626,4.644798278808594,-1.4878413677215576,0.1740739494562149,2.361481189727783,-0.5544465345195313,-0.14724090695381165,0.13394968211650848,-1.5968940893756312,0.0,-0.005248929373919964,0.5561349987983704,-0.0,-0.003637234913185239,1.1717332601547241,-0.0001734083198243752,0.18752868473529816
389.0,430.0,-5.2965,-0.3733,8.7057,-0.0663,0.2636,-0.1318,-2.258023878137106,-0.00016401245375163853,4.703482627868652,-1.4868621826171875,0.17265434563159943,2.3673033714294434,-0.5554092687419434,-0.1603299081325531,0.13861168920993805,-1.5969098250018519,0.0,0.012987016700208187,0.5561028718948364,-0.0,-0.009074030444025993,1.1717050075531006,-0.00018037947302218527,0.15979622304439545
389.0,430.0,-5.2965,-0.3733,8.7057,-0.0663,0.2636,-0.1318,-2.258008142510885,-0.00015686587721575052,4.675371170043945,-1.48609459400177,0.17143657803535461,2.397023916244507,-0.5560670656016846,-0.18492311239242554,0.12533998489379883,-1.596949879323141,0.0,-0.00499916123226285,0.5561825633049011,-0.0,-0.00457499036565423,1.1716485023498535,-0.00017420518270228058,0.15684381127357483
389.0,430.0,-5.2965,-0.3733,8.7057,-0.0663,0.2636,-0.1318,-2.2579833469786585,-0.00014724198263138533,4.698442459106445,-1.485099196434021,0.16656430065631866,2.381579637527466,-0.557240442638733,-0.20388813316822052,0.11965598165988922,-1.5969379583941858,0.00010095590550918132,0.02709207683801651,0.5561147928237915,-0.0,-0.005779127590358257,1.1717373132705688,-0.0003041763266082853,0.14390289783477783
389.0,430.0,-5.2965,-0.3733,8.7057,-0.0663,0.2636,-0.1318,-2.257987161675924,-0.00013873088755644858,4.647200584411621,-1.4841192960739136,0.1627109944820404,2.361758232116699,-0.5584445756724854,-0.2114831656217575,0.1066911369562149,-1.596933666859762,9.936765854945406e-05,0.005567912477999926,0.5561227202415466,-0.0,0.013688755221664906,1.1717009544372559,-0.00025288667529821396,0.14607365429401398
389.0,430.0,-5.2965,-0.3733,8.7057,-0.0663,0.2636,-0.1318,-2.2579714260497035,-0.00013358311844058335,4.650721549987793,-1.483507513999939,0.15697365999221802,2.378286600112915,-0.5593997997096558,-0.22486402094364166,0.12466183304786682,-1.5968979040728968,9.516612044535577e-05,-0.0012312342878431082,0.5561147928237915,-0.0,0.002358832396566868,1.1717087030410767,-0.0002727903483901173,0.10705026984214783
389.0,430.0,-5.2965,-0.3733,8.7057,-0.0663,0.2636,-0.1318,-2.257995744744772,-0.00012654006422962993,4.716578960418701,-1.482596755027771,0.15780703723430634,2.3874247074127197,-0.5608520072749634,-0.2585103213787079,0.08872751146554947,-1.5969021956073206,0.00010730667418101802,0.008341320790350437,0.5561468601226807,-0.0,-0.0023274323903024197,1.1717373132705688,-0.0003111820260528475,0.0988006442785263
389.0,430.0,-5.2965,-0.3733,8.7057,-0.0663,0.2636,-0.1318,-2.257987161675924,-0.00012224320380482823,4.718141555786133,-1.4819327592849731,0.15782858431339264,2.369199275970459,-0.56195421636615,-0.26785022020339966,0.08409252017736435,-1.5969060103045862,0.00010327797645004466,0.016254032030701637,0.5561227798461914,-0.0,0.0014002451207488775,1.1716890335083008,-0.0003312593908049166,0.10216030478477478
389.0,430.0,-5.2965,-0.3733,8.7057,-0.0663,0.2636,-0.1318,-2.2580038509764613,-0.00011631869710981846,4.684296131134033,-1.4810292720794678,0.15936553478240967,2.3985917568206787,-0.5637135070613404,-0.3148230016231537,0.0737210139632225,-1.5969298521624964,0.00011367378465365618,0.015145896002650261,0.5561029314994812,-0.0,-0.011268584989011288,1.1717050075531006,-0.0003436477272771299,0.09709734469652176
389.0,430.0,-5.2965,-0.3733,8.7057,-0.0663,0.2636,-0.1318,-2.2579833469786585,-8.402981620747596e-05,4.684026718139648,-1.4800139665603638,0.1564033180475235,2.393601655960083,-0.5657965701869507,-0.3315944969654083,0.06627951562404633,-1.5968578497516077,0.00010808773367898539,0.014033103361725807,0.5561307072639465,-0.0,-0.003841073950752616,1.1716927289962769,-0.000336652243277058,0.13169130682945251
389.0,430.0,-5.2965,-0.3733,8.7057,-0.0663,0.2636,-0.1318,-2.2580439052977503,-0.000112695517600514,4.667279243469238,-1.4794223308563232,0.14980871975421906,2.3868086338043213,-0.5671453040889283,-0.3559204041957855,0.05022360011935234,-1.5969098250018519,0.0001045018871081993,0.011701846495270729,0.556087076663971,-0.0,-0.003929574973881245,1.1717172861099243,-0.00034758474794216454,0.13572366535663605
389.0,430.0,-5.2965,-0.3733,8.7057,-0.0663,0.2636,-0.1318,-2.258007665673727,-0.000700061849784106,4.672155380249023,-1.4785629510879517,0.14191818237304688,2.361276388168335,-0.569351391201355,-0.3774263858795166,0.05296584218740463,-1.5968855063067835,0.00011329041444696486,0.027895335108041763,0.5561385750770569,-0.0,-0.010270936414599419,1.17168128490448,-0.0004527564160525799,0.11832532286643982
389.0,430.0,-5.2965,-0.3733,8.7057,-0.0663,0.2636,-0.1318,-2.2579833469786585,-0.00047773588448762894,4.682836532592773,-1.477687120437622,0.14015676081180573,2.359276294708252,-0.5717331928065796,-0.4199497401714325,0.012057101354002953,-1.5968855063067835,0.00010862004273803905,0.011373225599527359,0.5561428666114807,-0.0,0.0020435608457773924,1.1716526746749878,-0.0008073890348896384,0.07192300260066986
292.0,328.0,-5.5705,-0.277,7.8784,-0.0484,0.0967,-0.1225,-2.25802006343984,-0.0003940325404983014,4.70358419418335,-1.4771957397460938,0.1410118192434311,2.3538155555725098,-0.5734826487353821,-0.43827661871910095,0.017853187397122383,-1.596949879323141,0.00010543887037783861,0.01996980607509613,0.5561108589172363,-0.0,0.007624147459864616,1.1716930866241455,-0.001044951262883842,0.08410859853029251
292.0,328.0,-5.5705,-0.277,7.8784,-0.0484,0.0967,-0.1225,-2.258008142510885,-0.00031203925027512014,4.683130264282227,-1.4762598276138306,0.14260117709636688,2.356959104537964,-0.5762033027461548,-0.4655056297779083,0.007696431130170822,-1.5968659559832972,0.0001509405701654032,0.021901074796915054,0.5560792088508606,-0.0,0.005675488617271185,1.171693205833435,-0.0009549285168759525,0.030227242037653923
292.0,328.0,-5.5705,-0.277,7.8784,-0.0484,0.0967,-0.1225,-2.258047719995016,-0.0002582970482762903,4.677401065826416,-1.4754365682601929,0.14722104370594025,2.3556532859802246,-0.5791327518275757,-0.4940296709537506,0.0016207597218453884,-1.5968855063067835,0.00013734360982198268,0.02383754402399063,0.5560831427574158,-0.0,0.005079042166471481,1.1716890335083008,-0.0007554519106633961,0.04644758999347687
292.0,328.0,-5.5705,-0.277,7.8784,-0.0484,0.0967,-0.1225,-2.2580157719054164,-0.00023169491032604128,4.714704990386963,-1.4748170375823975,0.14790475368499756,2.3370652198791504,-0.581199125652649,-0.5142017006874084,-0.016495469957590103,-1.5968778769122522,0.00012944165791850537,0.024021467193961143,0.5561345815658569,-0.0,-0.002673184731975198,1.1716771125793457,-0.0006868956843391061,0.06357289850711823
292.0,328.0,-5.5705,-0.277,7.8784,-0.0484,0.0967,-0.1225,-2.25805201152944,-0.0002006924187298864,4.684375762939453,-1.4739975929260254,0.14252802729606628,2.3349790573120117,-0.5843591255000611,-0.5447871088981628,-0.011440236121416092,-1.596877400075094,0.0001421761407982558,0.03885921090841293,0.5560988783836365,-0.0,0.009202240034937859,1.1716852188110352,-0.00045866405707783997,0.09332866966724396
292.0,328.0,-5.5705,-0.277,7.8784,-0.0484,0.0967,-0.1225,-2.2579876385130824,-0.00017700834723655134,4.710776329040527,-1.473182201385498,0.13428764045238495,2.34804368019104,-0.5875865382007142,-0.5599216222763062,-0.00694832019507885,-1.596893612538473,0.00013246588059701025,0.016308996826410294,0.5560910701751709,-0.0,0.011164591647684574,1.1716649532318115,-0.0004903997178189456,0.07734119892120361
292.0,328.0,-5.5705,-0.277,7.8784,-0.0484,0.0967,-0.1225,-2.25802006343984,-0.00016409822273999453,4.67444372177124,-1.4726299047470093,0.13353846967220306,2.3449301719665527,-0.589774565105774,-0.56301349401474,0.009042218327522278,-1.5968459288226526,0.00012627081014215946,0.03489484637975693,0.5560910701751709,-0.0,-0.0007696124957874417,1.171645164489746,-0.0006817433750256896,0.053508512675762177
292.0,328.0,-5.5705,-0.277,7.8784,-0.0484,0.0967,-0.1225,-2.257991453210348,-0.00014791591092944145,4.674599647521973,-1.4717859029769897,0.12990394234657288,2.3375320434570312,-0.5933339160731812,-0.5813016891479492,0.012887333519756794,-1.5968578497516077,0.00011799328058259562,0.02377236634492874,0.5561147928237915,-0.0,0.0017649342771619558,1.1716049909591675,-0.0013809254160150886,0.07735027372837067
292.0,328.0,-5.5705,-0.277,7.8784,-0.0484,0.0967,-0.1225,-2.2579714260497035,-0.0001346387289231643,4.712222099304199,-1.4710748195648193,0.12951627373695374,2.331587314605713,-0.5969208043864747,-0.5927451252937317,0.002382224192842841,-1.5968778769122522,0.00012918438005726784,0.025342192500829697,0.5560870170593262,-0.0,-0.005288559012115002,1.1716413497924805,-0.0013515569735318422,0.02116042748093605
292.0,328.0,-5.5705,-0.277,7.8784,-0.0484,0.0967,-0.1225,-2.257995744744772,-0.00012703673564828932,4.693662166595459,-1.4705350399017334,0.1297399401664734,2.360957622528076,-0.5993366998485108,-0.6025424003601074,0.011043692007660866,-1.5969141165362757,0.00012410007184371352,0.02216390147805214,0.5560752153396606,-0.0,0.004705729894340038,1.1716413497924805,-0.0012495251139625907,0.028438277542591095
292.0,328.0,-5.5705,-0.277,7.8784,-0.0484,0.0967,-0.1225,-2.2580319843687953,-0.00011711787374224514,4.709600448608398,-1.4697314500808716,0.13100381195545197,2.3839025497436523,-0.6029654902270813,-0.6091511845588684,0.013129044324159622,-1.5968855063067835,0.00011717542656697333,0.04750114679336548,0.556083083152771,-0.0,0.008048356510698795,1.1716132164001465,-0.0012640438508242369,0.027573416009545326
292.0,328.0,-5.5705,-0.277,7.8784,-0.0484,0.0967,-0.1225,-2.2579876385130824,-0.00010863570787478238,4.703280448913574,-1.468951940536499,0.12593571841716766,2.2998266220092773,-0.6066840452006836,-0.6206454038619995,0.028064414858818054,-1.5969298521624964,0.00012681938824243844,0.03850865736603737,0.5560950040817261,-0.0,0.007579191587865353,1.1716455221176147,-0.001281319186091423,-0.05545835942029953
292.0,328.0,-5.5705,-0.277,7.8784,-0.0484,0.0967,-0.1225,-2.2579790554442347,-0.00010363198816776276,4.685037136077881,-1.4684277772903442,0.1206919476389885,2.2913193702697754,-0.6091648501208802,-0.6208118796348572,0.019723523408174515,-1.5969260374652308,0.00012252053420525044,0.025399047881364822,0.5560989379882812,-0.0,-0.002289912663400173,1.171633243560791,-0.0015335901407524943,-0.018107697367668152
292.0,328.0,-5.5705,-0.277,7.8784,-0.0484,0.0967,-0.1225,-2.25802006343984,-9.693496394902468e-05,4.692239761352539,-1.4677324295043945,0.11840072274208069,2.2615926265716553,-0.612860695724823,-0.6269806027412415,0.01610574498772621,-1.5969060103045862,0.00011656966671580449,0.025451092049479485,0.5560950040817261,-0.0,-0.007941742427647114,1.1715893745422363,-0.002141781849786639,-0.030976224690675735
292.0,328.0,-5.5705,-0.277,7.8784,-0.0484,0.0967,-0.1225,-2.2579995594420375,-9.105106437345967e-05,4.6534528732299805,-1.4669721126556396,0.11415603011846542,2.2795209884643555,-0.6166394513896485,-0.6198782324790955,0.030434273183345795,-1.596893612538473,0.00011646354687400162,0.03675752878189087,0.5561028718948364,-0.0,-0.0007088190177455544,1.1715569496154785,-0.0029703641775995493,-0.03538458049297333
292.0,328.0,-5.5705,-0.277,7.8784,-0.0484,0.0967,-0.1225,-2.257987161675924,-8.750976121518761e-05,4.675755977630615,-1.4665212631225586,0.11260485649108887,2.245765447616577,-0.618984119301178,-0.6163604259490967,0.01932591386139393,-1.5969098250018519,0.0001159149978775531,0.035648465156555176,0.5561069250106812,-0.0,0.003248287830501795,1.171593427658081,-0.0036707893013954163,-0.0958714634180069
292.0,328.0,-5.5705,-0.277,7.8784,-0.0484,0.0967,-0.1225,-2.258035799066061,-8.268593228422105e-05,4.658407211303711,-1.4658410549163818,0.11302594095468521,2.264366626739502,-0.6224934619716187,-0.5970891118049622,0.041830871254205704,-1.596854035054342,0.00010762079909909517,0.042306553572416306,0.556098997592926,-0.0,-0.007493449840694666,1.1715372800827026,-0.0038609385956078768,-0.08274256438016891
273.0,333.0,-5.6076,-0.347,8.8008,0.0495,-0.3622,-0.106,-2.25802006343984,-7.836614531697705e-05,4.6497697830200195,-1.465173363685608,0.11356107145547867,2.253985643386841,-0.6260029238513489,-0.5865839123725891,0.025760747492313385,-1.5969298521624964,0.00012040956789860502,0.04601719230413437,0.556074857711792,-0.0,0.003475435543805361,1.1715214252471924,-0.0030613166745752096,-0.11663360893726349
273.0,333.0,-5.6076,-0.347,8.8008,0.0495,-0.3622,-0.106,-2.257979532281393,-7.572861068183556e-05,4.689237594604492,-1.4647175073623657,0.11117036640644073,2.2761404514312744,-0.6282586020282288,-0.5683338642120361,0.04636923223733902,-1.5968697706805628,0.00011535054363775998,0.0307091623544693,0.556107223033905,-0.0,-0.002650513779371977,1.1715373992919922,-0.0031832410022616386,-0.0620490163564682
273.0,333.0,-5.6076,-0.347,8.8008,0.0495,-0.3622,-0.106,-2.258008142510885,-7.20892203389667e-05,4.730931758880615,-1.4640657901763916,0.10732244700193405,2.2128665447235107,-0.6315772098353882,-0.5446128845214844,0.03210519626736641,-1.596877400075094,0.0001084038449334912,0.039155907928943634,0.5561108589172363,-0.0,-0.008679441176354885,1.1715373992919922,-0.0032178990077227354,-0.07506974041461945
273.0,333.0,-5.6076,-0.347,8.8008,0.0495,-0.3622,-0.106,-2.258035799066061,-6.878350541228428e-05,4.663393020629883,-1.4634431600570679,0.10113578289747238,2.211857318878174,-0.6347792905620118,-0.5286844968795776,0.05466534197330475,-1.5968778769122522,0.00010224588186247274,0.032996226102113724,0.5560546517372131,-0.0,-0.005534176714718342,1.1714730262756348,-0.0037528197281062603,-0.11863413453102112
273.0,333.0,-5.6076,-0.347,8.8008,0.0495,-0.3622,-0.106,-2.258035799066061,-6.674317410215735e-05,4.664889335632324,-1.4630422592163086,0.09760333597660065,2.1881580352783203,-0.6368919771960755,-0.5169810652732849,0.06223038583993912,-1.5968659559832972,0.00011486185394460335,0.036092646420001984,0.5561028718948364,-0.0,-0.009622077457606792,1.171473503112793,-0.003933996427804232,-0.11989890784025192
273.0,333.0,-5.6076,-0.347,8.8008,0.0495,-0.3622,-0.106,-2.2580038509764613,-6.38999990769662e-05,4.682268142700195,-1.4624589681625366,0.093598373234272,2.2043519020080566,-0.6398671430400391,-0.4970935881137848,0.04707947000861168,-1.5969141165362757,0.00010897032916545868,0.03594890236854553,0.5560910701751709,-0.0,-0.012948568910360336,1.1714452505111694,-0.004791534040123224,-0.1119520515203476
273.0,333.0,-5.6076,-0.347,8.8008,0.0495,-0.3622,-0.106,-2.258035799066061,-7.35465728212148e-05,4.727715492248535,-1.4619272947311401,0.08933477848768234,2.176792860031128,-0.6427852672389527,-0.46807748079299927,0.0864781066775322,-1.5968659559832972,0.00011789514974225312,0.04636600986123085,0.556107223033905,-0.0,-0.016457244753837585,1.1714494228363037,-0.0048552281223237514,-0.16370989382266998
273.0,333.0,-5.6076,-0.347,8.8008,0.0495,-0.3622,-0.106,-2.258047719995016,-7.15966452844441e-05,4.7077226638793945,-1.4615675210952759,0.08524025976657867,2.164714813232422,-0.6445663136294861,-0.44977205991744995,0.0829460471868515,-1.5968974272357386,0.00011462211114121601,0.048391155898571014,0.556042492389679,-0.0,-0.011169209145009518,1.1714136600494385,-0.00486822659149766,-0.14812225103378296
273.0,333.0,-5.6076,-0.347,8.8008,0.0495,-0.3622,-0.106,-2.2580114803709925,-6.885785842314363e-05,4.644388198852539,-1.4610633850097656,0.07893063873052597,2.1273441314697266,-0.6473378104022522,-0.43053120374679565,0.08374027907848358,-1.5968659559832972,0.0001093992541427724,0.03573603555560112,0.5560912489891052,-0.0,-0.016477063298225403,1.1713738441467285,-0.004568822681903839,-0.1349256932735443
273.0,333.0,-5.6076,-0.347,8.8008,0.0495,-0.3622,-0.106,-2.258023878137106,-5.725881419493817e-05,4.675595283508301,-1.460723638534546,0.07625190913677216,2.1891260147094727,-0.6489145320704957,-0.403385728597641,0.10331524163484573,-1.5968816916095179,0.00010617286898195744,0.04237840324640274,0.556074857711792,-0.0,-0.01896296814084053,1.1713778972625732,-0.004349010996520519,-0.13638967275619507
273.0,333.0,-5.6076,-0.347,8.8008,0.0495,-0.3622,-0.106,-2.2579671345152796,-5.3942378144711256e-05,4.675788879394531,-1.4602718353271484,0.07409697026014328,2.149912118911743,-0.6511504215053101,-0.36143338680267334,0.1262371838092804,-1.5968974272357386,0.00010167488653678447,0.05638173222541809,0.5560870170593262,-0.0,-0.01915300264954567,1.1712976694107056,-0.004256668966263533,-0.11766181886196136
273.0,333.0,-5.6076,-0.347,8.8008,0.0495,-0.3622,-0.106,-2.257991453210348,-5.206988862482831e-05,4.679329872131348,-1.4598687887191772,0.0721372440457344,2.165839672088623,-0.6530981820872803,-0.33158597350120544,0.15558290481567383,-1.596893612538473,9.754252823768184e-05,0.043966472148895264,0.5560989379882812,-0.0,-0.02597171999514103,1.1712894439697266,-0.0039175949059426785,-0.16864806413650513
273.0,333.0,-5.6076,-0.347,8.8008,0.0495,-0.3622,-0.106,-2.2580563030638636,-5.0892158469650894e-05,4.6109747886657715,-1.4596003293991089,0.07194113731384277,2.1132967472076416,-0.6543522638133545,-0.2994728982448578,0.16889584064483643,-1.5968855063067835,0.00011450977763161063,0.043031737208366394,0.5560469627380371,-0.0,-0.024774186313152313,1.1713180541992188,-0.0033697527833282948,-0.1869775950908661
273.0,333.0,-5.6076,-0.347,8.8008,0.0495,-0.3622,-0.106,-2.2579833469786585,-1.956358119059587e-06,4.703225612640381,-1.459096908569336,0.0667935237288475,2.1406664848327637,-0.6559252899936219,-0.25177276134490967,0.18716920912265778,-1.5968816916095179,0.00010702509462134913,0.05841662734746933,0.5560625195503235,-0.0,-0.017680350691080093,1.1712538003921509,-0.003241366008296609,-0.18904323875904083
273.0,333.0,-5.6076,-0.347,8.8008,0.0495,-0.3622,-0.106,-2.258007665673727,-4.724373670050852e-12,4.686071395874023,-1.4588253498077393,0.05718103423714638,2.146785020828247,-0.6573146146586915,-0.20642302930355072,0.2054118812084198,-1.5968778769122522,9.989721729652956e-05,0.03470074012875557,0.5560870170593262,-0.0,-0.02266456000506878,1.1712377071380615,-0.0027887255419045687,-0.13550086319446564
273.0,333.0,-5.6076,-0.347,8.8008,0.0495,-0.3622,-0.106,-2.257995744744772,-8.503704688247191e-16,4.661679744720459,-1.4585570096969604,0.051130495965480804,2.0814287662506104,-0.658089355831482,-0.1629263013601303,0.2212849259376526,-1.5968897978412073,9.565045183990151e-05,0.04443144425749779,0.5560706853866577,-0.0,-0.025086283683776855,1.1712820529937744,-0.002622988075017929,-0.19837166368961334
273.0,333.0,-5.6076,-0.347,8.8008,0.0495,-0.3622,-0.106,-2.2580038509764613,-2.0535445331160816e-21,4.670925617218018,-1.4582934379577637,0.04193409904837608,2.0841245651245117,-0.6587878626636048,-0.11158209294080734,0.25307032465934753,-1.596893612538473,8.991659706225619e-05,0.03365463763475418,0.5560386776924133,-0.0,-0.026865266263484955,1.1712744235992432,-0.0025558224879205227,-0.16122713685035706
300.0,506.0,-3.7161,-0.4397,8.744,0.0461,-0.3942,-0.1127,-2.2580038509764613,-4.9590681545249494e-27,4.703970909118652,-1.458085536956787,0.03355620801448822,2.072795867919922,-0.6593341392329712,-0.08133842796087265,0.2648339867591858,-1.596854035054342,8.483128476655111e-05,0.033818282186985016,0.5561432838439941,-0.0,-0.020512200891971588,1.1712219715118408,-0.002337789162993431,-0.1837165653705597
300.0,506.0,-3.7161,-0.4397,8.744,0.0461,-0.3942,-0.1127,-2.25802006343984,-8.926146445624421e-31,4.69791841506958,-1.45796537399292,0.029009545221924782,2.0629568099975586,-0.6596455138972779,-0.059450894594192505,0.2829136252403259,-1.596893612538473,8.174900722224265e-05,0.04386480152606964,0.5560747981071472,-0.0,-0.037294745445251465,1.171185851097107,-0.002017380902543664,-0.13990528881549835
300.0,506.0,-3.7161,-0.4397,8.744,0.0461,-0.3942,-0.1127,-2.2579714260497035,-2.1555593578625045e-36,4.700989723205566,-1.4578057527542114,0.025423923507332802,2.123425006866455,-0.6598290365985413,-0.023372817784547806,0.28583642840385437,-1.5968735853778284,7.752400415483862e-05,0.0348760262131691,0.556107223033905,-0.0,-0.023191198706626892,1.1711617708206177,-0.0013463259674608707,-0.06779643893241882
300.0,506.0,-3.7161,-0.4397,8.744,0.0461,-0.3942,-0.1127,-2.2580400906004847,-5.2058237949666954e-42,4.673569202423096,-1.4576374292373657,0.022913793101906776,2.110098361968994,-0.6598485869220276,0.010662609711289406,0.3204409182071686,-1.5968616644488733,7.371420360868797e-05,0.03236927092075348,0.5560870170593262,-0.0,-0.018741866573691368,1.1711939573287964,-0.0008506131125614047,-0.1246146559715271
300.0,506.0,-3.7161,-0.4397,8.744,0.0461,-0.3942,-0.1127,-2.2579995594420375,-1.401298464324817e-45,4.655609130859375,-1.4575581550598145,0.022542491555213928,2.1170809268951416,-0.6597602528384705,0.02052975632250309,0.31803205609321594,-1.5968697706805628,7.13758054189384e-05,0.04029574990272522,0.5560345649719238,-0.0,-0.035590384155511856,1.1712260246276855,-0.0006466723280027509,-0.10563632845878601
300.0,506.0,-3.7161,-0.4397,8.744,0.0461,-0.3942,-0.1127,-2.257991453210348,0.0,4.663887023925781,-1.457425594329834,0.02222205139696598,2.0872159004211426,-0.6597119134715577,0.01743856817483902,0.3076969087123871,-1.5968659559832972,6.813369691371918e-05,0.039814215153455734,0.5560747385025024,-0.0,-0.018569283187389374,1.1712100505828857,-0.00047568429727107286,-0.09720396995544434
300.0,506.0,-3.7161,-0.4397,8.744,0.0461,-0.3942,-0.1127,-2.2579995594420375,0.0,4.697554111480713,-1.45737886428833,0.021288640797138214,2.099705696105957,-0.6596606534770508,0.005447597708553076,0.31638866662979126,-1.596893612538473,6.517340079881251e-05,0.0360742062330246,0.5560870170593262,-0.0,-0.015059197321534157,1.1711900234222412,-0.0003762295236811042,-0.1115284264087677
300.0,506.0,-3.7161,-0.4397,8.744,0.0461,-0.3942,-0.1127,-2.257987161675924,0.0,4.660560131072998,-1.4572221040725708,0.020891478285193443,2.0772533416748047,-0.6597087544253846,-0.0005878674564883113,0.30445927381515503,-1.5969141165362757,6.333867349894717e-05,0.026281870901584625,0.5561190843582153,-0.0,-0.02251765877008438,1.1711820363998413,-0.00033020845148712397,-0.1251920610666275
300.0,506.0,-3.7161,-0.4397,8.744,0.0461,-0.3942,-0.1127,-2.257991453210348,0.0,4.646110534667969,-1.4571188688278198,0.020190682262182236,2.0929148197174072,-0.6597042244723816,-0.004404834471642971,0.30242919921875,-1.5969017187701624,6.077255238778889e-05,0.025088347494602203,0.5561509728431702,-0.0,-0.020429864525794983,1.1712100505828857,-0.0003255157789681107,-0.13550376892089844
300.0,506.0,-3.7161,-0.4397,8.744,0.0461,-0.3942,-0.1127,-2.257995744744772,0.0,4.637434482574463,-1.4570026397705078,0.018903931602835655,2.1121902465820312,-0.6596959394267579,-0.0016829344676807523,0.2995673716068268,-1.5968816916095179,5.8406218158779666e-05,0.03786005079746246,0.5561108589172363,-0.0,-0.013571098446846008,1.1711658239364624,-0.00023443801910616457,-0.1523594707250595
300.0,506.0,-3.7161,-0.4397,8.744,0.0461,-0.3942,-0.1127,-2.258023878137106,0.0,4.659854412078857,-1.4569023847579956,0.019386006519198418,2.102457284927368,-0.6597286027720948,-0.000865783600602299,0.2990633547306061,-1.5968697706805628,5.6928467529360205e-05,0.03139005973935127,0.5560747385025024,-0.0,-0.01732563227415085,1.1712383031845093,-0.0002508587494958192,-0.10738763213157654
300.0,506.0,-3.7161,-0.4397,8.744,0.0461,-0.3942,-0.1127,-2.257987161675924,0.0,4.659663677215576,-1.4568183422088623,0.019364090636372566,2.0926389694213867,-0.6597925585559388,-0.0007584128179587424,0.29824745655059814,-1.5968855063067835,5.484692883328535e-05,0.045275893062353134,0.5561313629150391,-0.0,-0.006900710519403219,1.1712301969528198,-0.0002811434678733349,-0.0912790521979332
300.0,506.0,-3.7161,-0.4397,8.744,0.0461,-0.3942,-0.1127,-2.25802006343984,0.0,4.66926383972168,-1.4567102193832397,0.020176898688077927,2.0521111488342285,-0.6597684782794495,-0.0013433085987344384,0.29476213455200195,-1.5968578497516077,5.291220804792829e-05,0.02810789830982685,0.5560747981071472,-0.0,-0.027353305369615555,1.1712141036987305,-0.00026173199876211584,-0.1561795175075531
300.0,506.0,-3.7161,-0.4397,8.744,0.0461,-0.3942,-0.1127,-2.2580114803709925,0.0,4.641064643859863,-1.4565502405166626,0.019718030467629433,2.08937406539917,-0.6597803396037598,-0.0025426545180380344,0.2855951189994812,-1.596893612538473,5.169649011804722e-05,0.023964960128068924,0.5560625195503235,-0.0,-0.0006434749811887741,1.1712021827697754,-0.00024399202084168792,-0.049326010048389435
300.0,506.0,-3.7161,-0.4397,8.744,0.0461,-0.3942,-0.1127,-2.2579552135863246,0.0,4.676955699920654,-1.4564580917358398,0.020477889105677605,2.0923266410827637,-0.6597880882075806,-0.0032244117464870214,0.2891869843006134,-1.5968697706805628,4.997418000129983e-05,0.03279970586299896,0.5561309456825256,-0.0,-0.014490313827991486,1.1711698770523071,-0.0003250539011787623,-0.09777495265007019
300.0,506.0,-3.7161,-0.4397,8.744,0.0461,-0.3942,-0.1127,-2.2580038509764613,0.0,4.660457134246826,-1.4563502073287964,0.02249188907444477,2.086679697036743,-0.6599004429629822,-0.0043295202776789665,0.29122763872146606,-1.5968697706805628,5.4138350691346204e-08,0.027164723724126816,0.5560789108276367,-0.0,-0.011509416624903679,1.171149730682373,-0.00032065564300864935,-0.111243337392807
300.0,506.0,-3.7161,-0.4397,8.744,0.0461,-0.3942,-0.1127,-2.2580038509764613,0.0,4.683042526245117,-1.4562382698059082,0.023968588560819626,2.0984251499176025,-0.659848229294159,-0.006045432295650244,0.2933262586593628,-1.5968735853778284,2.3080026778643514e-10,0.0327497273683548,0.5560948848724365,-0.0,-0.018536392599344254,1.1711421012878418,-0.0003657380002550781,-0.08189595490694046
414.0,640.0,-4.3807,0.0323,8.4891,-0.0371,0.1185,-0.1347,-2.2580038509764613,0.0,4.652317047119141,-1.4561150074005127,0.027060216292738914,2.111090660095215,-0.6599647563746949,-0.00844030175358057,0.28453558683395386,-1.5968778769122522,6.424410835129471e-14,0.039645012468099594,0.5561025738716125,-0.0,-0.023165017366409302,1.1711740493774414,-0.0006264867261052132,-0.09610800445079803
414.0,640.0,-4.3807,0.0323,8.4891,-0.0371,0.1185,-0.1347,-2.2579833469786585,0.0,4.650060653686523,-1.455918788909912,0.030669288709759712,2.1401143074035645,-0.6600242418101807,-0.009522530250251293,0.27712082862854004,-1.596893612538473,1.7882584397851165e-17,0.025887392461299896,0.5560829639434814,-0.0,-0.017396170645952225,1.1711502075195312,-0.0010867093224078417,-0.03304804489016533
414.0,640.0,-4.3807,0.0323,8.4891,-0.0371,0.1185,-0.1347,-2.257995744744772,0.0,4.683121681213379,-1.455826997756958,0.03262561559677124,2.160128116607666,-0.6600358051112671,-0.008546636439859867,0.27957743406295776,-1.5968897978412073,7.623628043768578e-20,0.034917041659355164,0.5560346245765686,-0.0,-0.0018259384669363499,1.171166181564331,-0.0013146429555490613,-0.05090795457363129
414.0,640.0,-4.3807,0.0323,8.4891,-0.0371,0.1185,-0.1347,-2.2580038509764613,0.0,4.623339653015137,-1.4556347131729126,0.03477456048130989,2.141233205795288,-0.6600958865932007,-0.0076339030638337135,0.27156639099121094,-1.5968697706805628,2.122064865125834e-23,0.029131274670362473,0.5560625195503235,-0.0,-0.016847360879182816,1.1711419820785522,-0.0014855691697448492,-0.1039833351969719
414.0,640.0,-4.3807,0.0323,8.4891,-0.0371,0.1185,-0.1347,-2.257975240746969,0.0,4.68781852722168,-1.4554146528244019,0.037747155874967575,2.1444649696350098,-0.6601399344256897,-0.006618013605475426,0.2648071050643921,-1.5968974272357386,9.046695687822242e-26,0.035819873213768005,0.5560993552207947,-0.0,-0.004850739613175392,1.1711301803588867,-0.0015633703442290425,-0.09531620144844055
414.0,640.0,-4.3807,0.0323,8.4891,-0.0371,0.1185,-0.1347,-2.25802006343984,0.0,4.742749214172363,-1.455259084701538,0.039280135184526443,2.129965305328369,-0.660196380024292,-0.005926285870373249,0.2762426435947418,-1.5968778769122522,2.5181812379925383e-29,0.03033721074461937,0.556102991104126,-0.0,-0.012541728094220161,1.171142339706421,-0.0020493625197559595,-0.06356862187385559
414.0,640.0,-4.3807,0.0323,8.4891,-0.0371,0.1185,-0.1347,-2.2579595051207484,0.0,4.6783447265625,-1.454983115196228,0.04184454306960106,2.1523334980010986,-0.6602118772319336,-0.00481755193322897,0.27483558654785156,-1.5969017187701624,7.009450773434222e-33,0.021697815507650375,0.556066632270813,-0.0,0.0041875084862113,1.1710662841796875,-0.002364342799410224,-0.04748658835887909
414.0,640.0,-4.3807,0.0323,8.4891,-0.0371,0.1185,-0.1347,-2.257963319818014,0.0,4.677931785583496,-1.454802393913269,0.04286893084645271,2.220579147338867,-0.66028846920047,-0.004826467018574476,0.2692109942436218,-1.596893612538473,2.9882389403019075e-35,0.036741942167282104,0.5560585260391235,-6.212660252913338e-08,-0.008544004522264004,1.1710984706878662,-0.0023592570796608925,-0.05120513588190079
414.0,640.0,-4.3807,0.0323,8.4891,-0.0371,0.1185,-0.1347,-2.257995744744772,0.0,4.665989875793457,-1.4545433521270752,0.04531027376651764,2.1658971309661865,-0.6602958005717774,-0.005184534937143326,0.2708531618118286,-1.5968778769122522,8.317873667388572e-39,0.016615474596619606,0.5561030507087708,-1.7293168633192302e-11,-0.011785076931118965,1.1710541248321533,-0.0021669408306479454,-0.04848191887140274
414.0,640.0,-4.3807,0.0323,8.4891,-0.0371,0.1185,-0.1347,-2.257967611352438,0.0,4.69180965423584,-1.4543075561523438,0.04609203711152077,2.1578850746154785,-0.660315529709198,-0.006849144585430622,0.26865124702453613,-1.5969017187701624,2.3149450630645978e-42,0.024795953184366226,0.5560588836669922,-4.813617935511567e-15,-0.0010875959414988756,1.1710824966430664,-0.002123670419678092,-0.06140602380037308
