ramyac6/ROB537/final_project/csv/good/good_168.csv
tof_0,tof_1,accelx,accely,accelz,gyrox,gyroy,gyroz,shoulder_lift_joint_position,shoulder_lift_joint_velocity,shoulder_lift_joint_effort,elbow_joint_position,elbow_joint_velocity,elbow_joint_effort,wrist_1_joint_position,wrist_1_joint_velocity,wrist_1_joint_effort,wrist_2_joint_position,wrist_2_joint_velocity,wrist_2_joint_effort,wrist_3_joint_position,wrist_3_joint_velocity,wrist_3_joint_effort,shoulder_pan_joint_position,shoulder_pan_joint_velocity,shoulder_pan_joint_effort
363.0,377.0,0.5892,-0.0873,9.3996,-0.0322,0.0237,-0.1194,-1.6359511814513148,0.0,2.2740650177001953,-1.933128833770752,-0.0,2.032733917236328,4.972640979080953,0.0,0.28831344842910767,-1.5830662886248987,0.0,-0.008811937645077705,0.8807960152626038,-0.0,0.0037820343859493732,0.8037539720535278,0.0,-0.0592467226088047
363.0,377.0,0.5892,-0.0873,9.3996,-0.0322,0.0237,-0.1194,-1.6359912357726039,0.0,2.315427780151367,-1.9330968856811523,-0.0,2.0810348987579346,4.972645002394476,0.0,0.28744423389434814,-1.5829938093768519,0.0,-4.683469160227105e-05,0.8808280229568481,-0.0,-0.015744837000966072,0.8037821650505066,0.0,0.004764925688505173
363.0,377.0,0.5892,-0.0873,9.3996,-0.0322,0.0237,-0.1194,-1.635946889916891,0.0,2.2716383934020996,-1.933205246925354,-0.0,2.0744876861572266,4.972665059357443,0.0,0.2888586223125458,-1.5830581823932093,0.0,-0.013818413019180298,0.8807919025421143,-0.0,0.0013292768271639943,0.8037622570991516,0.0,0.005888186860829592
363.0,377.0,0.5892,-0.0873,9.3996,-0.0322,0.0237,-0.1194,-1.6359392605223597,0.0,2.2813377380371094,-1.9330761432647705,-0.0,2.0352301597595215,4.972636896162786,0.0,0.28561827540397644,-1.5830701033221644,0.0,-0.005072424188256264,0.8807919025421143,-0.0,-0.0018681962974369526,0.803778350353241,0.0,-0.018093746155500412
363.0,377.0,0.5892,-0.0873,9.3996,-0.0322,0.0237,-0.1194,-1.635934968987936,0.0,2.2530293464660645,-1.9331691265106201,-0.0,2.0465247631073,4.972672897368231,0.0,0.28270769119262695,-1.5830581823932093,0.0,-0.004936083219945431,0.8808279633522034,-0.0,-0.004858510103076696,0.8038024306297302,0.0,0.00032654963433742523
363.0,377.0,0.5892,-0.0873,9.3996,-0.0322,0.0237,-0.1194,-1.6359511814513148,0.0,2.2650880813598633,-1.9331494569778442,-0.0,2.00342059135437,4.972672986775198,0.0,0.29085206985473633,-1.5830462614642542,0.0,0.008147367276251316,0.8807759284973145,-0.0,-0.002772536128759384,0.8037419319152832,0.0,0.01588049717247486
363.0,377.0,0.5892,-0.0873,9.3996,-0.0322,0.0237,-0.1194,-1.6359230480589808,0.0,2.2912940979003906,-1.933153510093689,-0.0,1.9780040979385376,4.972656982928076,0.0,0.30077701807022095,-1.5830257574664515,0.0,-0.008020761422812939,0.8807755708694458,-0.0,-0.002357262186706066,0.8037903904914856,0.0,0.0307165440171957
369.0,391.0,0.5856,-0.0676,9.3811,-0.0379,0.0299,-0.1222,-1.6359549961485804,0.0,2.231630563735962,-1.933117389678955,-0.0,1.9704351425170898,4.972652870207586,0.0,0.30112695693969727,-1.583061997090475,0.0,0.002042185515165329,0.8808276653289795,-0.0,0.011572839692234993,0.8037862777709961,0.0,-0.01008250005543232
369.0,391.0,0.5856,-0.0676,9.3811,-0.0379,0.0299,-0.1222,-1.6359631023802699,0.0,2.236863136291504,-1.9331412315368652,-0.0,1.9973907470703125,4.972661006241598,0.0,0.28854286670684814,-1.5830820242511194,0.0,-0.015109628438949585,0.8807677626609802,-0.0,0.003959798254072666,0.8037580847740173,0.0,0.026436876505613327
369.0,391.0,0.5856,-0.0676,9.3811,-0.0379,0.0299,-0.1222,-1.6359392605223597,0.0,2.2640953063964844,-1.933197021484375,-0.0,2.0071215629577637,4.972665059357443,0.0,0.2855316400527954,-1.5830138365374964,0.0,-0.01773587055504322,0.8807840347290039,-0.0,-0.00493674585595727,0.8037742376327515,0.0,0.02491110935807228
369.0,391.0,0.5856,-0.0676,9.3811,-0.0379,0.0299,-0.1222,-1.6359707317748011,0.0,2.318419933319092,-1.9330843687057495,-0.0,2.009375810623169,4.972656923323431,0.0,0.28336915373802185,-1.5830462614642542,0.0,-0.00628485344350338,0.8808276653289795,-0.0,0.00311182695440948,0.8038026690483093,0.0,-0.009869350120425224
369.0,391.0,0.5856,-0.0676,9.3811,-0.0379,0.0299,-0.1222,-1.635975023309225,0.0,2.3100826740264893,-1.933128833770752,-0.0,2.004199981689453,4.972633081465521,0.0,0.2939767837524414,-1.5830424467669886,0.0,-0.001655051950365305,0.8808078765869141,-0.0,0.011512522585690022,0.8037460446357727,0.0,-0.03434934467077255
369.0,391.0,0.5856,-0.0676,9.3811,-0.0379,0.0299,-0.1222,-1.6359387836852015,0.0,2.2793712615966797,-1.9331371784210205,-0.0,2.0223193168640137,4.972693311959066,0.0,0.29641565680503845,-1.5830300490008753,0.0,-0.013336876407265663,0.8807272911071777,-0.0,-4.038435872644186e-05,0.8038148283958435,0.0,0.09552113711833954
369.0,391.0,0.5856,-0.0676,9.3811,-0.0379,0.0299,-0.1222,-1.6359549961485804,0.0,2.2940263748168945,-1.9331567287445068,-0.0,2.036470890045166,4.972656953125753,0.0,0.2876926064491272,-1.5830701033221644,0.0,-0.0017892387695610523,0.8808078765869141,-0.0,8.787901606410742e-05,0.8037945628166199,0.0,0.019500505179166794
369.0,391.0,0.5856,-0.0676,9.3811,-0.0379,0.0299,-0.1222,-1.6359511814513148,0.0,2.268974781036377,-1.9331847429275513,-0.0,2.004462480545044,4.9726933417613886,0.0,0.27338656783103943,-1.583033863698141,0.0,-0.007208775728940964,0.8807919025421143,-0.0,0.003840520977973938,0.8037460446357727,0.0,0.0061103058978915215
369.0,391.0,0.5856,-0.0676,9.3811,-0.0379,0.0299,-0.1222,-1.6359669170775355,0.0,2.2506706714630127,-1.9331692457199097,-0.0,2.081111192703247,4.97268112280921,0.0,0.28744274377822876,-1.5830300490008753,0.0,-0.022203080356121063,0.8808599710464478,-0.0,0.0019546514376997948,0.8038148283958435,0.0,-0.03879899904131889
369.0,391.0,0.5856,-0.0676,9.3811,-0.0379,0.0299,-0.1222,-1.6359392605223597,0.0,2.319946050643921,-1.93314528465271,-0.0,2.0240225791931152,4.972672956972875,0.0,0.28813886642456055,-1.5830662886248987,0.0,-0.015906307846307755,0.8807516694068909,-0.0,0.006823836360126734,0.8037903904914856,0.0,-0.021377727389335632
369.0,391.0,0.5856,-0.0676,9.3811,-0.0379,0.0299,-0.1222,-1.6359912357726039,0.0,2.296888589859009,-1.9331567287445068,-0.0,2.0072762966156006,4.9727011797721765,0.0,0.2897586226463318,-1.5830701033221644,0.0,-0.00620744563639164,0.8808239102363586,-0.0,-0.0102620217949152,0.8037659525871277,0.0,-0.021546252071857452
369.0,391.0,0.5856,-0.0676,9.3811,-0.0379,0.0299,-0.1222,-1.6359273395934046,0.0,2.3181421756744385,-1.9331412315368652,-0.0,2.012085199356079,4.97266103604392,0.0,0.2803083062171936,-1.5830662886248987,0.0,-0.008261403068900108,0.8808161020278931,-0.0,-0.013720846734941006,0.8037821650505066,0.0,-0.00973724015057087
349.0,391.0,0.4893,-0.1095,9.6353,-0.0428,0.0237,-0.1196,-1.6359430752196253,0.0,2.3241283893585205,-1.9331051111221313,-0.0,1.972545862197876,4.972672956972875,0.0,0.2988704442977905,-1.5830219427691858,0.0,-0.011239609681069851,0.8807799220085144,-0.0,-0.00045601377496495843,0.8037903904914856,0.0,0.0030190199613571167
349.0,391.0,0.4893,-0.1095,9.6353,-0.0428,0.0237,-0.1196,-1.6359669170775355,0.0,2.3214850425720215,-1.933092713356018,-0.0,2.002310276031494,4.972632723837652,0.0,0.29596126079559326,-1.5830138365374964,0.0,-0.013032341375946999,0.8807558417320251,-0.0,0.0017077497905120254,0.8037739396095276,0.0,0.02089633047580719
349.0,391.0,0.4893,-0.1095,9.6353,-0.0428,0.0237,-0.1196,-1.6359192333617152,0.0,2.29262375831604,-1.933084487915039,-0.0,2.0353496074676514,4.972652870207586,0.0,0.28671547770500183,-1.583061997090475,0.0,-0.009134842082858086,0.8808160424232483,-0.0,0.005946661811321974,0.8037580847740173,0.0,-0.03496316820383072
349.0,391.0,0.4893,-0.1095,9.6353,-0.0428,0.0237,-0.1196,-1.635934968987936,0.0,2.258127450942993,-1.9331412315368652,-0.0,2.0059497356414795,4.972620892315664,0.0,0.2838505506515503,-1.5830500761615198,0.0,-0.0031924275681376457,0.8808479905128479,-0.0,0.007583529222756624,0.8037539124488831,0.0,-0.035964708775281906
349.0,391.0,0.4893,-0.1095,9.6353,-0.0428,0.0237,-0.1196,-1.635975023309225,0.0,2.2810468673706055,-1.933117389678955,-0.0,2.081179141998291,4.972612666874685,0.0,0.2909185290336609,-1.5830181280719202,0.0,-0.008839843794703484,0.8808078765869141,-0.0,-0.006939245387911797,0.8038266897201538,0.0,0.023073440417647362
349.0,391.0,0.4893,-0.1095,9.6353,-0.0428,0.0237,-0.1196,-1.6359669170775355,0.0,2.3392934799194336,-1.9331010580062866,-0.0,2.0033700466156006,4.972612637072363,0.0,0.2923814654350281,-1.583033863698141,0.0,-0.0025134042371064425,0.8808116912841797,-0.0,-0.01628333516418934,0.8037945628166199,0.0,0.00023800795315764844
349.0,391.0,0.4893,-0.1095,9.6353,-0.0428,0.0237,-0.1196,-1.635934968987936,0.0,2.294285535812378,-1.933161735534668,-0.0,2.089017868041992,4.972681033402242,0.0,0.29198744893074036,-1.5830500761615198,0.0,0.0018162806518375874,0.8807877898216248,-0.0,0.0023333639837801456,0.8037942051887512,0.0,0.0632886290550232
349.0,391.0,0.4893,-0.1095,9.6353,-0.0428,0.0237,-0.1196,-1.6359788380064906,0.0,2.3198137283325195,-1.9331371784210205,-0.0,2.0518546104431152,4.972652870207586,0.0,0.2895645797252655,-1.5830181280719202,0.0,0.0045267799869179726,0.8808279633522034,-0.0,-0.010750405490398407,0.8038024306297302,0.0,0.007783979177474976
349.0,391.0,0.4893,-0.1095,9.6353,-0.0428,0.0237,-0.1196,-1.6359707317748011,0.0,2.2660675048828125,-1.9331773519515991,-0.0,2.037230968475342,4.972672956972875,0.0,0.297461599111557,-1.5830462614642542,0.0,-0.01064768061041832,0.8807758688926697,-0.0,-0.004422004334628582,0.8037742376327515,0.0,0.035665325820446014
349.0,391.0,0.4893,-0.1095,9.6353,-0.0428,0.0237,-0.1196,-1.6359549961485804,0.0,2.3075718879699707,-1.9331567287445068,-0.0,2.047205924987793,4.972701626807012,0.0,0.27735471725463867,-1.583033863698141,0.0,-0.0109613798558712,0.8808038234710693,-0.0,-0.0007042234065011144,0.8037945628166199,0.0,0.006008494179695845
349.0,391.0,0.4893,-0.1095,9.6353,-0.0428,0.0237,-0.1196,-1.6359707317748011,0.0,2.3208305835723877,-1.93314528465271,-0.0,2.0069940090179443,4.972685205727377,0.0,0.28136974573135376,-1.5830462614642542,0.0,-0.007869482040405273,0.8808038234710693,-0.0,0.005576103925704956,0.8037945628166199,0.0,-0.04798763245344162
349.0,391.0,0.4893,-0.1095,9.6353,-0.0428,0.0237,-0.1196,-1.635975023309225,0.0,2.262834072113037,-1.9331412315368652,-0.0,2.020036220550537,4.972632664233007,0.0,0.29903197288513184,-1.5830257574664515,0.0,-0.01240905374288559,0.8807476758956909,-0.0,-0.013995908200740814,0.8037663102149963,0.0,-0.01315724290907383
349.0,391.0,0.4893,-0.1095,9.6353,-0.0428,0.0237,-0.1196,-1.635946889916891,0.0,2.3010094165802,-1.933197021484375,-0.0,2.0262160301208496,4.972713428526678,0.0,0.29917317628860474,-1.5830219427691858,0.0,-0.007186257280409336,0.8807677626609802,-0.0,-0.0012404799927026033,0.8037821650505066,0.0,-0.0031142733059823513
359.0,394.0,0.4175,-0.1382,9.6634,-0.0405,0.0257,-0.1246,-1.635946889916891,0.0,2.269165515899658,-1.933117389678955,-0.0,2.038353204727173,4.972637253790655,0.0,0.2849293053150177,-1.5830820242511194,0.0,-0.007327361032366753,0.8807878494262695,-0.0,0.00229404354467988,0.8038184642791748,0.0,-0.03585663065314293
359.0,394.0,0.4175,-0.1382,9.6634,-0.0405,0.0257,-0.1246,-1.6359549961485804,0.0,2.3206403255462646,-1.933197021484375,-0.0,2.022855043411255,4.972665118962087,0.0,0.29832735657691956,-1.583033863698141,0.0,-0.010902401991188526,0.8808078765869141,-0.0,0.004237968474626541,0.8037903904914856,0.0,0.01758807711303234
359.0,394.0,0.4175,-0.1382,9.6634,-0.0405,0.0257,-0.1246,-1.6359392605223597,0.0,2.2658908367156982,-1.9331010580062866,-0.0,2.050943374633789,4.972661006241598,0.0,0.2944045662879944,-1.5830181280719202,0.0,-0.005414335057139397,0.880859911441803,-0.0,0.006524756085127592,0.8037942051887512,0.0,0.011708366684615612
359.0,394.0,0.4175,-0.1382,9.6634,-0.0405,0.0257,-0.1246,-1.6359788380064906,0.0,2.254491090774536,-1.9331289529800415,-0.0,2.0287392139434814,4.972652870207586,0.0,0.28597313165664673,-1.5830376783954065,0.0,-0.003363354131579399,0.8808438777923584,-0.0,0.0006614015437662601,0.8037945628166199,0.0,0.013071258552372456
359.0,394.0,0.4175,-0.1382,9.6634,-0.0405,0.0257,-0.1246,-1.6359549961485804,0.0,2.2877156734466553,-1.9331371784210205,-0.0,1.951461672782898,4.972652870207586,0.0,0.2817456126213074,-1.5830381552325647,0.0,-0.016581416130065918,0.8808398246765137,-0.0,-0.004649118985980749,0.8037621974945068,0.0,-0.02385673113167286
359.0,394.0,0.4175,-0.1382,9.6634,-0.0405,0.0257,-0.1246,-1.6359511814513148,0.0,2.3375093936920166,-1.9331690073013306,-0.0,1.9964685440063477,4.97266103604392,0.0,0.28907209634780884,-1.5830662886248987,0.0,-0.014531305059790611,0.8808398842811584,-0.0,0.0015977241564542055,0.8037457466125488,0.0,-0.027101561427116394
359.0,394.0,0.4175,-0.1382,9.6634,-0.0405,0.0257,-0.1246,-1.6359669170775355,0.0,2.340968132019043,-1.9331412315368652,-0.0,2.04172420501709,4.972665089159765,0.0,0.28708481788635254,-1.5830782095538538,0.0,0.0006647384725511074,0.880820095539093,-0.0,0.0049204146489501,0.8037862777709961,0.0,0.00923345610499382
359.0,394.0,0.4175,-0.1382,9.6634,-0.0405,0.0257,-0.1246,-1.6359955273070277,0.0,2.3062353134155273,-1.9331732988357544,-0.0,2.0635886192321777,4.972596663027563,0.0,0.30128946900367737,-1.5830543676959437,0.0,-0.0008551089558750391,0.8808159828186035,-0.0,0.00794330332428217,0.8038065433502197,0.0,0.005596468690782785
359.0,394.0,0.4175,-0.1382,9.6634,-0.0405,0.0257,-0.1246,-1.6359230480589808,0.0,2.2757465839385986,-1.9331165552139282,-0.0,2.0521345138549805,4.972701626807012,0.0,0.2879902124404907,-1.5830543676959437,0.0,-0.008695399388670921,0.8807763457298279,-0.0,0.0060013290494680405,0.8037942051887512,0.0,-0.01057346910238266
359.0,394.0,0.4175,-0.1382,9.6634,-0.0405,0.0257,-0.1246,-1.6359273395934046,0.0,2.281623125076294,-1.9331133365631104,-0.0,2.0452210903167725,4.972636866360464,0.0,0.2946304976940155,-1.5830219427691858,0.0,-0.009247779846191406,0.8807477951049805,-0.0,-0.00460233585909009,0.8038024306297302,0.0,0.060212161391973495
359.0,394.0,0.4175,-0.1382,9.6634,-0.0405,0.0257,-0.1246,-1.6359111271300257,0.0,2.3382887840270996,-1.9331773519515991,-0.0,1.9736671447753906,4.972640979080953,0.0,0.29050955176353455,-1.583017651234762,0.0,-0.012058276683092117,0.8807719349861145,-0.0,0.000355569354724139,0.8037903904914856,0.0,0.0033194515854120255
359.0,394.0,0.4175,-0.1382,9.6634,-0.0405,0.0257,-0.1246,-1.635946889916891,0.0,2.33319091796875,-1.9331773519515991,-0.0,2.025784969329834,4.972649115114965,0.0,0.2952931225299835,-1.5829861799823206,0.0,-0.011192258447408676,0.8807878494262695,-0.0,-0.004078616388142109,0.8038148283958435,0.0,0.03853442519903183
366.0,370.0,0.3888,-0.131,9.7735,-0.0392,0.0206,-0.117,-1.6359631023802699,0.0,2.3526341915130615,-1.933117389678955,-0.0,2.0400338172912598,4.972645032196798,0.0,0.2835133671760559,-1.5830181280719202,0.0,-0.0037804897874593735,0.8808078765869141,-0.0,0.0006364487926475704,0.8037418723106384,0.0,0.021462609991431236
366.0,370.0,0.3888,-0.131,9.7735,-0.0392,0.0206,-0.117,-1.6359230480589808,0.0,2.2974796295166016,-1.9331493377685547,-0.0,2.040271520614624,4.972649085312643,0.0,0.295772522687912,-1.5830300490008753,0.0,3.959937021136284e-05,0.8808119297027588,-0.0,0.0034528535325080156,0.8037539124488831,0.0,0.009546763263642788
366.0,370.0,0.3888,-0.131,9.7735,-0.0392,0.0206,-0.117,-1.6359230480589808,0.0,2.325866222381592,-1.9331897497177124,-0.0,2.0299668312072754,4.972656982928076,0.0,0.28724250197410583,-1.583033863698141,0.0,0.000586172565817833,0.8808119297027588,-0.0,-0.0038950457237660885,0.8037580847740173,0.0,0.009349978528916836
366.0,370.0,0.3888,-0.131,9.7735,-0.0392,0.0206,-0.117,-1.6359793148436488,0.0,2.2521982192993164,-1.9331133365631104,-0.0,2.03147292137146,4.972624945431509,0.0,0.28944867849349976,-1.583033863698141,0.0,-0.007424967363476753,0.8808038234710693,-0.0,0.003393778810277581,0.8037259578704834,0.0,0.01797870546579361
366.0,370.0,0.3888,-0.131,9.7735,-0.0392,0.0206,-0.117,-1.6359511814513148,0.0,2.277789831161499,-1.9331289529800415,-0.0,2.075399160385132,4.972645032196798,0.0,0.28678634762763977,-1.5830500761615198,0.0,-0.01810741424560547,0.8808201551437378,-0.0,-0.006153516471385956,0.8037944436073303,0.0,1.4456803910434246e-05
366.0,370.0,0.3888,-0.131,9.7735,-0.0392,0.0206,-0.117,-1.635935445825094,0.0,2.3178958892822266,-1.9331051111221313,-0.0,2.006051778793335,4.972645032196798,0.0,0.29798007011413574,-1.5830100218402308,0.0,-0.0030376759823411703,0.880767822265625,-0.0,-0.00014431134331971407,0.803778350353241,0.0,0.043718915432691574
366.0,370.0,0.3888,-0.131,9.7735,-0.0392,0.0206,-0.117,-1.6359707317748011,0.0,2.2948098182678223,-1.93314528465271,-0.0,2.0010387897491455,4.9727094052131555,0.0,0.2947925329208374,-1.5830743948565882,0.0,0.003878744086250663,0.8807718753814697,-0.0,-0.005215820390731096,0.8037821650505066,0.0,0.009660952724516392
366.0,370.0,0.3888,-0.131,9.7735,-0.0392,0.0206,-0.117,-1.6359549961485804,0.0,2.3152966499328613,-1.9331207275390625,-0.0,2.001983165740967,4.972640949278631,0.0,0.29478517174720764,-1.5830376783954065,0.0,0.00036408938467502594,0.8808238506317139,-0.0,-0.006912454962730408,0.8037580847740173,0.0,0.028890276327729225
366.0,370.0,0.3888,-0.131,9.7735,-0.0392,0.0206,-0.117,-1.6359392605223597,0.0,2.2899179458618164,-1.9331607818603516,-0.0,2.034456968307495,4.97265653589324,0.0,0.2901916801929474,-1.5830219427691858,0.0,-0.007202068343758583,0.8808119297027588,-0.0,-0.009647956117987633,0.8037781119346619,0.0,0.01031743548810482
366.0,370.0,0.3888,-0.131,9.7735,-0.0392,0.0206,-0.117,-1.6360069713988246,0.0,2.2984652519226074,-1.9331607818603516,-0.0,2.0234627723693848,4.972648697882452,0.0,0.2931941747665405,-1.5830500761615198,0.0,-0.00980575941503048,0.8807997703552246,-0.0,0.004700591787695885,0.8037986755371094,0.0,-0.02953072264790535
366.0,370.0,0.3888,-0.131,9.7735,-0.0392,0.0206,-0.117,-1.6359874210753382,0.0,2.302931070327759,-1.9331412315368652,-0.0,2.0277273654937744,4.972693371563711,0.0,0.293654203414917,-1.583033863698141,0.0,-0.004771667532622814,0.8808078765869141,-0.0,-0.005687054246664047,0.8038024306297302,0.0,0.023362429812550545
366.0,370.0,0.3888,-0.131,9.7735,-0.0392,0.0206,-0.117,-1.6359230480589808,0.0,2.2667343616485596,-1.933128833770752,-0.0,1.9674758911132812,4.972672956972875,0.0,0.29453518986701965,-1.583033863698141,0.0,-0.00440506637096405,0.8807597756385803,-0.0,0.006240298040211201,0.8037539720535278,0.0,-0.0032171779312193394
366.0,370.0,0.3888,-0.131,9.7735,-0.0392,0.0206,-0.117,-1.635946889916891,0.0,2.2981045246124268,-1.933137059211731,-0.0,1.954064965248108,4.972616660385885,0.0,0.29222679138183594,-1.5830662886248987,0.0,-0.009659900330007076,0.8807597756385803,-0.0,0.0011134266387671232,0.8037945628166199,0.0,0.027329059317708015
371.0,378.0,0.2638,-0.1962,10.0463,-0.0348,0.0191,-0.1132,-1.635975023309225,0.0,2.3188443183898926,-1.9331207275390625,-0.0,2.029080390930176,4.972645032196798,0.0,0.28759074211120605,-1.583033863698141,0.0,-0.01898285560309887,0.8807719349861145,-0.0,0.0034216931089758873,0.803770124912262,0.0,-0.012691978365182877
371.0,378.0,0.2638,-0.1962,10.0463,-0.0348,0.0191,-0.1132,-1.6359626255431117,0.0,2.2808265686035156,-1.933152675628662,-0.0,2.001392364501953,4.972620892315664,0.0,0.28869128227233887,-1.5830820242511194,0.0,-0.010163911618292332,0.8808279037475586,-0.0,-0.006493064574897289,0.8037621974945068,0.0,-0.007525554858148098
371.0,378.0,0.2638,-0.1962,10.0463,-0.0348,0.0191,-0.1132,-1.635958810845846,0.0,2.285271167755127,-1.9331247806549072,-0.0,1.9962799549102783,4.9726126966770074,0.0,0.29300883412361145,-1.5830219427691858,0.0,-0.0019153880421072245,0.8807919025421143,-0.0,0.005560663063079119,0.8038469552993774,0.0,-0.02029593475162983
371.0,378.0,0.2638,-0.1962,10.0463,-0.0348,0.0191,-0.1132,-1.6359192333617152,0.0,2.310241937637329,-1.933105230331421,-0.0,2.0104823112487793,4.972656953125753,0.0,0.29872840642929077,-1.5830100218402308,0.0,-0.010708611458539963,0.8808078765869141,-0.0,0.006202131509780884,0.8037539720535278,0.0,0.0007574990158900619
371.0,378.0,0.2638,-0.1962,10.0463,-0.0348,0.0191,-0.1132,-1.635934968987936,0.0,2.282973051071167,-1.9331215620040894,-0.0,2.0329437255859375,4.972604560642996,0.0,0.2855178713798523,-1.5830376783954065,0.0,0.002338966354727745,0.8808038234710693,-0.0,-0.003734912257641554,0.8037539720535278,0.0,-0.013211974874138832
371.0,378.0,0.2638,-0.1962,10.0463,-0.0348,0.0191,-0.1132,-1.6359549961485804,0.0,2.3149688243865967,-1.9331371784210205,-0.0,2.02851939201355,4.97266103604392,0.0,0.29077577590942383,-1.5830543676959437,0.0,-0.007142369635403156,0.8807637691497803,-0.0,-0.0018746205605566502,0.803770124912262,0.0,0.029628079384565353
371.0,378.0,0.2638,-0.1962,10.0463,-0.0348,0.0191,-0.1132,-1.636015077630514,0.0,2.3229520320892334,-1.9330886602401733,-0.0,2.0308644771575928,4.972645032196798,0.0,0.2884886562824249,-1.5830662886248987,0.0,0.006497977301478386,0.88075190782547,-0.0,-0.019956320524215698,0.8037176132202148,0.0,-0.007495468482375145
371.0,378.0,0.2638,-0.1962,10.0463,-0.0348,0.0191,-0.1132,-1.6359549961485804,0.0,2.3231723308563232,-1.933128833770752,-0.0,2.0287046432495117,4.972625005036154,0.0,0.2896283268928528,-1.5830376783954065,0.0,0.0018840492703020573,0.8807919025421143,-0.0,0.0018841747660189867,0.8037862777709961,0.0,-0.000829673430416733
371.0,378.0,0.2638,-0.1962,10.0463,-0.0348,0.0191,-0.1132,-1.6359192333617152,0.0,2.278947353363037,-1.9330843687057495,-0.0,2.052220344543457,4.972652840405264,0.0,0.29381653666496277,-1.583005730305807,0.0,0.00022124481620267034,0.880763828754425,-0.0,-0.00972079485654831,0.8037377595901489,0.0,-0.02052493207156658
371.0,378.0,0.2638,-0.1962,10.0463,-0.0348,0.0191,-0.1132,-1.6359511814513148,0.0,2.3138585090637207,-1.9331649541854858,-0.0,2.0307257175445557,4.9726852653320215,0.0,0.2819999158382416,-1.5830100218402308,0.0,-0.008537670597434044,0.8808478713035583,-0.0,-0.0010126461274921894,0.8037663698196411,0.0,0.026667850092053413
371.0,378.0,0.2638,-0.1962,10.0463,-0.0348,0.0191,-0.1132,-1.6359631023802699,0.0,2.2659456729888916,-1.933120608329773,-0.0,2.027496099472046,4.972640949278631,0.0,0.3003145754337311,-1.5830662886248987,0.0,-0.007571340072900057,0.8807762861251831,-0.0,-0.01058982778340578,0.8037621974945068,0.0,-0.016443151980638504
371.0,378.0,0.2638,-0.1962,10.0463,-0.0348,0.0191,-0.1132,-1.6359192333617152,0.0,2.304647922515869,-1.9331247806549072,-0.0,2.1067914962768555,4.972620832711019,0.0,0.291912704706192,-1.5830743948565882,0.0,0.001070764847099781,0.8808157444000244,-0.0,-0.012737891636788845,0.8037659525871277,0.0,-0.027371104806661606
364.0,376.0,0.3691,-0.1478,9.81,-0.0296,0.0191,-0.1174,-1.6359511814513148,0.0,2.3160810470581055,-1.9330928325653076,-0.0,1.9890855550765991,4.972640949278631,0.0,0.29197239875793457,-1.5830662886248987,0.0,-0.005615373142063618,0.880795955657959,-0.0,-0.008816068060696125,0.8037501573562622,0.0,0.00861682090908289
364.0,376.0,0.3691,-0.1478,9.81,-0.0296,0.0191,-0.1174,-1.6359707317748011,0.0,2.2958011627197266,-1.9331485033035278,-0.0,2.037106513977051,4.972645032196798,0.0,0.2887258529663086,-1.5830500761615198,0.0,-0.023083049803972244,0.88074791431427,-0.0,0.015879111364483833,0.8037498593330383,0.0,0.006743760779500008
364.0,376.0,0.3691,-0.1478,9.81,-0.0296,0.0191,-0.1174,-1.635946889916891,0.0,2.300022840499878,-1.9331412315368652,-0.0,2.043619394302368,4.972656953125753,0.0,0.3011783957481384,-1.5830181280719202,0.0,-0.014405901543796062,0.8807878494262695,-0.0,-0.003709013108164072,0.8037663102149963,0.0,0.027955103665590286
364.0,376.0,0.3691,-0.1478,9.81,-0.0296,0.0191,-0.1174,-1.6359912357726039,0.0,2.282050609588623,-1.9331815242767334,-0.0,2.066924571990967,4.972636866360464,0.0,0.29279255867004395,-1.5830863157855433,0.0,-0.016948947682976723,0.8808040022850037,-0.0,-0.011728506535291672,0.8037862777709961,0.0,-0.0027512996457517147
364.0,376.0,0.3691,-0.1478,9.81,-0.0296,0.0191,-0.1174,-1.6359549961485804,0.0,2.3095672130584717,-1.9331339597702026,-0.0,2.0115115642547607,4.972669291287222,0.0,0.28591665625572205,-1.5830543676959437,0.0,-0.004755076020956039,0.880795955657959,-0.0,0.006002915091812611,0.8037903904914856,0.0,-0.012556400150060654
364.0,376.0,0.3691,-0.1478,9.81,-0.0296,0.0191,-0.1174,-1.6359707317748011,0.0,2.302150249481201,-1.933117389678955,-0.0,2.0265352725982666,4.972685205727377,0.0,0.29719167947769165,-1.5830257574664515,0.0,-0.003401657333597541,0.8807919025421143,-0.0,-0.006480009760707617,0.8037862777709961,0.0,0.010998353362083435
364.0,376.0,0.3691,-0.1478,9.81,-0.0296,0.0191,-0.1174,-1.6359392605223597,0.0,2.3076369762420654,-1.9330761432647705,-0.0,2.0508768558502197,4.972685205727377,0.0,0.2928001284599304,-1.583033863698141,0.0,-0.0030937609262764454,0.8807878494262695,-0.0,-0.008975451812148094,0.8037983179092407,0.0,-0.01625947654247284
364.0,376.0,0.3691,-0.1478,9.81,-0.0296,0.0191,-0.1174,-1.63590731243276,0.0,2.313441276550293,-1.933137059211731,-0.0,2.0418105125427246,4.972652870207586,0.0,0.2926642894744873,-1.583061997090475,0.0,-0.028808945789933205,0.8808078169822693,-0.0,5.103036528453231e-05,0.8037739396095276,0.0,-0.044482581317424774
364.0,376.0,0.3691,-0.1478,9.81,-0.0296,0.0191,-0.1174,-1.6359707317748011,0.0,2.321983814239502,-1.9330885410308838,-0.0,2.0226693153381348,4.972672956972875,0.0,0.29817500710487366,-1.5830500761615198,0.0,-0.014045760035514832,0.8808197379112244,-0.0,0.004453988745808601,0.8037983179092407,0.0,-0.022509664297103882
364.0,376.0,0.3691,-0.1478,9.81,-0.0296,0.0191,-0.1174,-1.6359707317748011,0.0,2.3220553398132324,-1.933109164237976,-0.0,2.047698974609375,4.972672956972875,0.0,0.2895860970020294,-1.5830424467669886,0.0,-0.0005222883191891015,0.8808078765869141,-0.0,0.0015265638940036297,0.8037781119346619,0.0,-0.0188506618142128
364.0,376.0,0.3691,-0.1478,9.81,-0.0296,0.0191,-0.1174,-1.6359311542906703,0.0,2.283310651779175,-1.93314528465271,-0.0,2.094871997833252,4.97263269403533,0.0,0.28388771414756775,-1.5830381552325647,0.0,-0.004717544186860323,0.8807999491691589,-0.0,-0.0034924799110740423,0.8037415742874146,0.0,0.006573148537427187
364.0,376.0,0.3691,-0.1478,9.81,-0.0296,0.0191,-0.1174,-1.63590731243276,0.0,2.3091824054718018,-1.9331815242767334,-0.0,2.0246787071228027,4.972637283592977,0.0,0.2945100665092468,-1.5830219427691858,0.0,0.0027160285972058773,0.8808078765869141,-0.0,-0.004474379122257233,0.8038024306297302,1.4701295736330167e-10,0.010443436913192272
364.0,376.0,0.3691,-0.1478,9.81,-0.0296,0.0191,-0.1174,-1.6359788380064906,0.0,2.3407726287841797,-1.9331609010696411,-0.0,2.0297446250915527,4.972600358515539,0.0,0.28912970423698425,-1.5830662886248987,0.0,-0.013688525184988976,0.8807840347290039,-0.0,-0.005895532667636871,0.8037983179092407,3.5501901029528344e-16,-0.0037759433034807444
367.0,387.0,0.4409,0.0299,9.5318,-0.033,0.0266,-0.1242,-1.6359192333617152,0.0,2.241055727005005,-1.9331412315368652,-0.0,2.020540237426758,4.972668874054708,0.0,0.2810852527618408,-1.583061997090475,0.0,-0.009305132552981377,0.8808199167251587,-0.0,0.013891300186514854,0.8038024306297302,1.1502164711139543e-23,0.005696476437151432
367.0,387.0,0.4409,0.0299,9.5318,-0.033,0.0266,-0.1242,-1.635946889916891,0.0,2.31379771232605,-1.9331051111221313,-0.0,2.003297805786133,4.972604501038351,0.0,0.286241352558136,-1.5830820242511194,0.0,0.004651299212127924,0.8807958960533142,-0.0,-0.0028815038967877626,0.8038308620452881,2.777636952959141e-29,-0.030584342777729034
367.0,387.0,0.4409,0.0299,9.5318,-0.033,0.0266,-0.1242,-1.635946889916891,0.0,2.2900195121765137,-1.933128833770752,-0.0,2.039870023727417,4.9726770398910425,0.0,0.2843254506587982,-1.5830219427691858,0.0,-0.017645826563239098,0.8807919025421143,-0.0,-0.005813548341393471,0.8037900924682617,8.999190754092971e-37,0.02287892997264862
367.0,387.0,0.4409,0.0299,9.5318,-0.033,0.0266,-0.1242,-1.635946889916891,0.0,2.2846264839172363,-1.9331649541854858,-0.0,2.0484731197357178,4.972656953125753,0.0,0.2973089814186096,-1.5830701033221644,0.0,-0.016075672581791878,0.880811870098114,-0.0,-0.015279151499271393,0.8037903904914856,2.1734139181677913e-42,-0.03138051927089691
367.0,387.0,0.4409,0.0299,9.5318,-0.033,0.0266,-0.1242,-1.635946889916891,0.0,2.283273696899414,-1.933120608329773,-0.0,1.9899404048919678,4.972640949278631,0.0,0.3021344542503357,-1.5830581823932093,0.0,-0.00030380673706531525,0.8808078765869141,-0.0,0.0032898283097893,0.8037900924682617,0.0,-0.02780669555068016
367.0,387.0,0.4409,0.0299,9.5318,-0.033,0.0266,-0.1242,-1.6360069713988246,0.0,2.2485475540161133,-1.9331576824188232,-0.0,2.036755084991455,4.97266103604392,0.0,0.2884758412837982,-1.5830462614642542,0.0,-0.009889554232358932,0.8807958960533142,-0.0,0.006145437713712454,0.8037903904914856,0.0,-0.03821449726819992
367.0,387.0,0.4409,0.0299,9.5318,-0.033,0.0266,-0.1242,-1.6359230480589808,0.0,2.337613821029663,-1.9331494569778442,-0.0,2.0453097820281982,4.972636866360464,0.0,0.28184154629707336,-1.5830901304828089,0.0,-0.012351013720035553,0.8808357119560242,-0.0,-0.003990582190454006,0.8037742376327515,0.0,-0.023489752784371376
367.0,387.0,0.4409,0.0299,9.5318,-0.033,0.0266,-0.1242,-1.6359268627562464,0.0,2.2970077991485596,-1.9331732988357544,-0.0,2.035411834716797,4.972668874054708,0.0,0.2990143299102783,-1.5830701033221644,0.0,-0.01099703274667263,0.8808038234710693,-0.0,-0.003907373175024986,0.8038184642791748,0.0,-0.012773776426911354
367.0,387.0,0.4409,0.0299,9.5318,-0.033,0.0266,-0.1242,-1.635946889916891,0.0,2.352405548095703,-1.9331609010696411,-0.0,2.0151822566986084,4.972636866360464,0.0,0.28893524408340454,-1.5830100218402308,0.0,-4.761433228850365e-05,0.8807639479637146,-0.0,0.00348000624217093,0.80378657579422,0.0,-0.04182881861925125
367.0,387.0,0.4409,0.0299,9.5318,-0.033,0.0266,-0.1242,-1.6359592876830042,0.0,2.2718865871429443,-1.9331412315368652,-0.0,2.0356974601745605,4.972689258843221,0.0,0.2862367331981659,-1.5830581823932093,0.0,0.008354625664651394,0.8807600140571594,-0.0,0.0009587840177118778,0.8037983179092407,0.0,0.012842198833823204
367.0,387.0,0.4409,0.0299,9.5318,-0.033,0.0266,-0.1242,-1.6359268627562464,0.0,2.2600159645080566,-1.933137059211731,-0.0,2.063628911972046,4.972640949278631,0.0,0.29260048270225525,-1.5830462614642542,0.0,-0.008680257946252823,0.8808078169822693,-0.0,0.00277458387427032,0.8038024306297302,0.0,0.02391888201236725
367.0,387.0,0.4409,0.0299,9.5318,-0.033,0.0266,-0.1242,-1.6359549961485804,0.0,2.2936229705810547,-1.9330925941467285,-0.0,1.994084358215332,4.97266103604392,0.0,0.28043898940086365,-1.5830581823932093,0.0,-0.013254527933895588,0.8808357119560242,-0.0,0.007862361147999763,0.8037497997283936,0.0,-0.009442226029932499
376.0,387.0,0.4756,-0.131,9.5773,-0.0348,0.0241,-0.1268,-1.6359912357726039,0.0,2.310154438018799,-1.9330885410308838,-0.0,2.0168356895446777,4.972656953125753,0.0,0.29641956090927124,-1.5830381552325647,0.0,-0.007203432731330395,0.880795955657959,-0.0,-0.001839263248257339,0.8037862777709961,0.0,-0.001626953948289156
376.0,387.0,0.4756,-0.131,9.5773,-0.0348,0.0241,-0.1268,-1.6359392605223597,0.0,2.270308256149292,-1.9331567287445068,-0.0,2.016056537628174,4.972649115114965,0.0,0.27856940031051636,-1.5830462614642542,0.0,-0.00496321264654398,0.8808436393737793,-0.0,-0.0025423644110560417,0.8038346171379089,0.0,0.03486955538392067
376.0,387.0,0.4756,-0.131,9.5773,-0.0348,0.0241,-0.1268,-1.6359631023802699,0.0,2.2666187286376953,-1.9331092834472656,-0.0,1.9900155067443848,4.972668874054708,0.0,0.29433998465538025,-1.5830662886248987,0.0,-0.007723139598965645,0.8807799816131592,-0.0,-0.007981373928487301,0.8037862777709961,0.0,-0.01737138256430626
376.0,387.0,0.4756,-0.131,9.5773,-0.0348,0.0241,-0.1268,-1.6359192333617152,0.0,2.3454551696777344,-1.9331815242767334,-0.0,2.050539970397949,4.972640919476309,0.0,0.29086944460868835,-1.5830343405352991,0.0,-0.01358682382851839,0.880795955657959,-0.0,-0.006962689571082592,0.8037659525871277,0.0,-0.03939726576209068
376.0,387.0,0.4756,-0.131,9.5773,-0.0348,0.0241,-0.1268,-1.635975023309225,0.0,2.262604236602783,-1.9331568479537964,-0.0,2.0373637676239014,4.972656982928076,0.0,0.2877609431743622,-1.5830782095538538,0.0,-0.013296471908688545,0.8807957768440247,-0.0,-0.00364830088801682,0.8037862777709961,0.0,0.008309214375913143
376.0,387.0,0.4756,-0.131,9.5773,-0.0348,0.0241,-0.1268,-1.6359430752196253,0.0,2.323960781097412,-1.9331051111221313,-0.0,2.0714051723480225,4.972637283592977,0.0,0.27781742811203003,-1.583005730305807,0.0,-0.0007673758082091808,0.8807600140571594,-0.0,0.004453718196600676,0.80381840467453,0.0,-0.019773896783590317
376.0,387.0,0.4756,-0.131,9.5773,-0.0348,0.0241,-0.1268,-1.6359912357726039,0.0,2.305081367492676,-1.9331649541854858,-0.0,2.036079168319702,4.972629028349676,0.0,0.2804360091686249,-1.5830257574664515,0.0,-0.004340299405157566,0.8808197379112244,-0.0,0.0018559712916612625,0.8038066029548645,0.0,-0.04574654996395111
376.0,387.0,0.4756,-0.131,9.5773,-0.0348,0.0241,-0.1268,-1.6359549961485804,0.0,2.2844297885894775,-1.9330967664718628,-0.0,2.03590726852417,4.972649085312643,0.0,0.2856723964214325,-1.5830500761615198,0.0,-0.009973247535526752,0.8807879090309143,-0.0,-0.004704324062913656,0.8038066029548645,0.0,-0.022310249507427216
376.0,387.0,0.4756,-0.131,9.5773,-0.0348,0.0241,-0.1268,-1.6359626255431117,0.0,2.269258499145508,-1.933137059211731,-0.0,2.0177011489868164,4.9726450619991205,0.0,0.2782209515571594,-1.5830376783954065,0.0,-0.01376737467944622,0.8808078169822693,-0.0,-0.009172409772872925,0.803810715675354,0.0,-0.0015944838523864746
376.0,387.0,0.4756,-0.131,9.5773,-0.0348,0.0241,-0.1268,-1.6359511814513148,0.0,2.284684419631958,-1.9331207275390625,-0.0,2.041403293609619,4.972661065846243,0.0,0.2917391061782837,-1.5830662886248987,0.0,-0.0027310119476169348,0.8807319402694702,-0.0,0.012907021678984165,0.8037254810333252,0.0,0.00046118503087200224
376.0,387.0,0.4756,-0.131,9.5773,-0.0348,0.0241,-0.1268,-1.6359149418272914,0.0,2.3451805114746094,-1.9331247806549072,-0.0,2.0812244415283203,4.972656953125753,0.0,0.29331597685813904,-1.5830500761615198,0.0,-0.009475309401750565,0.8807879090309143,-0.0,0.006857653148472309,0.8037945032119751,0.0,0.03253895789384842
376.0,387.0,0.4756,-0.131,9.5773,-0.0348,0.0241,-0.1268,-1.6359230480589808,0.0,2.2857484817504883,-1.933152675628662,-0.0,2.0398173332214355,4.972693371563711,0.0,0.29351651668548584,-1.5830462614642542,0.0,-0.002011348959058523,0.8808038234710693,-0.0,-0.0064514391124248505,0.8037821650505066,0.0,-0.02225806750357151
376.0,387.0,0.4756,-0.131,9.5773,-0.0348,0.0241,-0.1268,-1.6359430752196253,0.0,2.3067636489868164,-1.9331207275390625,-0.0,2.03348970413208,4.972648697882452,0.0,0.2998073697090149,-1.5830219427691858,0.0,-0.0019837156869471073,0.8807799816131592,-0.0,0.0033570413943380117,0.8037742376327515,0.0,-0.011697127483785152
364.0,384.0,0.4929,-0.0461,9.5587,-0.0423,0.0231,-0.1182,-1.6359831295409144,0.0,2.3306214809417725,-1.9331215620040894,-0.0,2.0149431228637695,4.972620832711019,0.0,0.2949655055999756,-1.5830543676959437,0.0,-0.01796228624880314,0.8807919025421143,-0.0,-0.009082475677132607,0.8037903904914856,0.0,0.006456076633185148
364.0,384.0,0.4929,-0.0461,9.5587,-0.0423,0.0231,-0.1182,-1.6359549961485804,0.0,2.2905476093292236,-1.9331692457199097,-0.0,1.9742405414581299,4.972693371563711,0.0,0.2925715744495392,-1.5830820242511194,0.0,-0.003561323508620262,0.8807879686355591,-0.0,-0.006803356111049652,0.8037217855453491,0.0,-0.00040753744542598724
364.0,384.0,0.4929,-0.0461,9.5587,-0.0423,0.0231,-0.1182,-1.6359707317748011,0.0,2.3271069526672363,-1.9331247806549072,-0.0,2.060419797897339,4.972652870207586,0.0,0.2945631444454193,-1.5830424467669886,0.0,-0.006788223050534725,0.8807838559150696,-0.0,0.006979070138186216,0.8037821650505066,0.0,0.012278714217245579
364.0,384.0,0.4929,-0.0461,9.5587,-0.0423,0.0231,-0.1182,-1.635975023309225,0.0,2.2812328338623047,-1.9331412315368652,-0.0,2.015486717224121,4.972648697882452,0.0,0.28340640664100647,-1.583005730305807,0.0,-0.012190870009362698,0.8808236122131348,-0.0,-0.00848330371081829,0.8037621974945068,0.0,0.034978460520505905
364.0,384.0,0.4929,-0.0461,9.5587,-0.0423,0.0231,-0.1182,-1.6359831295409144,0.0,2.3014137744903564,-1.9331690073013306,-0.0,2.0138907432556152,4.972656953125753,0.0,0.291914165019989,-1.5830462614642542,0.0,-0.006343211978673935,0.8807997703552246,-0.0,-0.0014324000803753734,0.8037780523300171,0.0,0.014107702299952507
364.0,384.0,0.4929,-0.0461,9.5587,-0.0423,0.0231,-0.1182,-1.6359631023802699,0.0,2.303736686706543,-1.9331649541854858,-0.0,2.0084705352783203,4.972668874054708,0.0,0.2947908639907837,-1.5830219427691858,0.0,-0.005293482448905706,0.8808357119560242,-0.0,0.000616036937572062,0.8037698268890381,0.0,0.007203695829957724
364.0,384.0,0.4929,-0.0461,9.5587,-0.0423,0.0231,-0.1182,-1.6359707317748011,0.0,2.267303705215454,-1.933152675628662,-0.0,2.012815475463867,4.972665118962087,0.0,0.29082950949668884,-1.5830424467669886,0.0,-0.011283342726528645,0.880811870098114,-0.0,-0.00563395582139492,0.8037780523300171,0.0,-0.005204103887081146
364.0,384.0,0.4929,-0.0461,9.5587,-0.0423,0.0231,-0.1182,-1.6359874210753382,0.0,2.3126168251037598,-1.933128833770752,-0.0,2.0311455726623535,4.97263269403533,0.0,0.28301525115966797,-1.5830219427691858,0.0,-0.016067786142230034,0.8807719945907593,-0.0,-0.00033060647547245026,0.8038225769996643,0.0,0.050029050558805466
364.0,384.0,0.4929,-0.0461,9.5587,-0.0423,0.0231,-0.1182,-1.6359669170775355,0.0,2.324765205383301,-1.93314528465271,-0.0,2.0018677711486816,4.972669291287222,0.0,0.2841801643371582,-1.583061997090475,0.0,-0.0027656410820782185,0.8808038234710693,-0.0,-0.004578446038067341,0.8038387298583984,0.0,0.01701461337506771
364.0,384.0,0.4929,-0.0461,9.5587,-0.0423,0.0231,-0.1182,-1.635958810845846,0.0,2.3290271759033203,-1.9331371784210205,-0.0,2.024414539337158,4.97260861375884,0.0,0.3043275475502014,-1.58307391801943,0.0,-0.0035381363704800606,0.8807680010795593,-0.0,-0.011474160477519035,0.8037942051887512,0.0,0.004126860294491053
364.0,384.0,0.4929,-0.0461,9.5587,-0.0423,0.0231,-0.1182,-1.635958810845846,0.0,2.3023123741149902,-1.93314528465271,-0.0,2.043264389038086,4.972640949278631,0.0,0.2789013385772705,-1.5830219427691858,0.0,-0.0036597824655473232,0.8807839155197144,-0.0,0.00877838209271431,0.8037862777709961,0.0,0.016702668741345406
364.0,384.0,0.4929,-0.0461,9.5587,-0.0423,0.0231,-0.1182,-1.6359430752196253,0.0,2.2805333137512207,-1.9331650733947754,-0.0,2.001591682434082,4.972636866360464,0.0,0.2860495448112488,-1.5830662886248987,0.0,-0.007563686929643154,0.8807401061058044,-0.0,-0.010795866139233112,0.8037536144256592,8.463166278893652e-10,0.02186695858836174
382.0,375.0,0.5133,-0.0102,9.4325,-0.0296,0.027,-0.1203,-1.6360107860960902,0.0,2.3258466720581055,-1.933128833770752,-0.0,1.9787614345550537,4.972672956972875,0.0,0.30060693621635437,-1.5830581823932093,0.0,-0.010141919367015362,0.8807519674301147,-0.0,-0.01103023998439312,0.8038384318351746,2.0437547646948292e-15,-0.021613381803035736
382.0,375.0,0.5133,-0.0102,9.4325,-0.0296,0.027,-0.1203,-1.635946889916891,0.0,2.317322254180908,-1.9331412315368652,-0.0,2.007582902908325,4.972672956972875,0.0,0.2862624228000641,-1.5830939451800745,0.0,-0.018354792147874832,0.8807879090309143,-0.0,-0.0018656193278729916,0.8038139939308167,6.621505325275575e-23,-0.059811271727085114
382.0,375.0,0.5133,-0.0102,9.4325,-0.0296,0.027,-0.1203,-1.6359387836852015,0.0,2.3240396976470947,-1.9331247806549072,-0.0,1.9843175411224365,4.972672956972875,0.0,0.2927909195423126,-1.5831058661090296,0.0,-0.0035675964318215847,0.8807240724563599,-0.0,-0.009204522706568241,0.8038422465324402,0.0004136637144256383,0.05075707659125328
382.0,375.0,0.5133,-0.0102,9.4325,-0.0296,0.027,-0.1203,-1.6359793148436488,0.0,2.3390326499938965,-1.933180570602417,-0.0,2.0142250061035156,4.972645032196798,0.0,0.29428553581237793,-1.5830701033221644,0.0,-0.011349800042808056,0.8807798624038696,-0.0,-0.0012053976533934474,0.8038099408149719,0.0003924669581465423,0.0031476616859436035
382.0,375.0,0.5133,-0.0102,9.4325,-0.0296,0.027,-0.1203,-1.6359707317748011,0.0,2.318329334259033,-1.9331051111221313,-0.00044673256343230605,1.9701220989227295,4.97266103604392,0.0,0.28213000297546387,-1.5830782095538538,0.0,-0.0071623604744672775,0.8807919025421143,-0.0,-0.0020969859324395657,0.803866982460022,0.00018985418137162924,-0.021572208032011986
382.0,375.0,0.5133,-0.0102,9.4325,-0.0296,0.027,-0.1203,-1.6360193691649378,0.0,2.3389525413513184,-1.9331732988357544,-0.00034418850555084646,1.9771461486816406,4.972625034838476,0.0,0.2951381802558899,-1.58307391801943,0.0,-0.000996891874819994,0.8807719945907593,-0.0,-0.002067031804472208,0.8038346171379089,0.00013465019583236426,0.003151019336655736
382.0,375.0,0.5133,-0.0102,9.4325,-0.0296,0.027,-0.1203,-1.636015077630514,0.0,2.2836966514587402,-1.9331732988357544,-0.0002635425771586597,1.9724925756454468,4.972596692829885,0.0,0.28759267926216125,-1.5830701033221644,0.0,-0.00769324554130435,0.8807680010795593,-0.0,-0.004162720404565334,0.8037900924682617,0.00010363446199335158,0.021422870457172394
382.0,375.0,0.5133,-0.0102,9.4325,-0.0296,0.027,-0.1203,-1.6359907589354457,0.0,2.346207618713379,-1.933180570602417,-0.0002241550391772762,2.0358617305755615,4.972616779595175,0.0,0.28653308749198914,-1.583061997090475,0.0,-0.004053295589983463,0.8808197379112244,-0.0,-0.0013179389061406255,0.8037942051887512,8.83690154296346e-05,0.01821722835302353
382.0,375.0,0.5133,-0.0102,9.4325,-0.0296,0.027,-0.1203,-1.6359874210753382,0.0,2.2740068435668945,-1.9332374334335327,-0.000261494773440063,2.0375657081604004,4.972609030991354,0.0,0.2916485071182251,-1.5830543676959437,0.0,-0.009981535375118256,0.8808356523513794,-0.0,-0.006633134558796883,0.8037659525871277,7.386301149381325e-05,0.03610413521528244
382.0,375.0,0.5133,-0.0102,9.4325,-0.0296,0.027,-0.1203,-1.6359993420042933,0.0,2.2970662117004395,-1.9331363439559937,-0.00021106428175698966,2.012601852416992,4.972613024502554,0.0,0.29403942823410034,-1.5830300490008753,0.0,-0.01968318223953247,0.8807798624038696,-0.0,0.0004816092550754547,0.803761899471283,3.172410652041435e-05,0.03251256048679352
382.0,375.0,0.5133,-0.0102,9.4325,-0.0296,0.027,-0.1203,-1.6360112629332484,0.0,2.2950243949890137,-1.9331527948379517,-0.00018502493912819773,2.0245208740234375,4.972593354969778,0.0,0.2792157232761383,-1.5830581823932093,0.0,-0.015956727787852287,0.8807919025421143,-0.0,0.0008909676689654589,0.8037580847740173,2.8690070394077338e-05,0.0128533486276865
382.0,375.0,0.5133,-0.0102,9.4325,-0.0296,0.027,-0.1203,-1.6359993420042933,-0.000518296379595995,2.2709972858428955,-1.9331403970718384,-0.0001893826702143997,2.053697109222412,4.972597348480978,0.0,0.2846343219280243,-1.5830820242511194,0.0,-0.013903495855629444,0.8808555603027344,-0.0,0.0006679437356069684,0.8037900924682617,4.1293180430557186e-08,-0.00871480256319046
382.0,375.0,0.5133,-0.0102,9.4325,-0.0296,0.027,-0.1203,-1.6359707317748011,-0.0005359146744012833,2.3002254962921143,-1.9332095384597778,-0.00017240684246644378,2.0295937061309814,4.972585427552023,0.0,0.29272782802581787,-1.5830219427691858,0.0,-0.006026557646691799,0.8808236718177795,-0.0,-0.007895335555076599,0.8038106560707092,9.971817344295655e-14,0.002965950407087803
389.0,379.0,0.2716,-0.2895,9.6329,-0.018,0.0168,-0.1347,-1.6360231838622035,-0.0005695279687643051,2.248342752456665,-1.9331682920455933,-0.00015288207214325666,2.0433707237243652,4.972585427552023,0.0,0.29908517003059387,-1.5829861799823206,0.0,-0.0070672850124537945,0.8807998299598694,-0.0,-0.00727242324501276,0.8037497997283936,3.23074230017534e-21,0.0031748823821544647
389.0,379.0,0.2716,-0.2895,9.6329,-0.018,0.0168,-0.1347,-1.6360913715758265,-0.0005073171923868358,2.3290317058563232,-1.9331765174865723,-0.00014091354387346655,2.0118770599365234,4.972585427552023,0.0,0.2900356650352478,-1.5830300490008753,0.0,-0.01298249326646328,0.8807639479637146,-0.0,-0.004325387999415398,0.8038384318351746,7.801862086027006e-27,0.022440830245614052
389.0,379.0,0.2716,-0.2895,9.6329,-0.018,0.0168,-0.1347,-1.6360069713988246,-0.0004385642532724887,2.315959930419922,-1.9331806898117065,-0.00012759512173943222,2.018460512161255,4.9725973782833,0.0,0.29337969422340393,-1.5830219427691858,0.0,-0.0024342508986592293,0.8808157444000244,-0.0,-0.006977202836424112,0.8037983179092407,2.5277036143040704e-34,-0.025854067876935005
389.0,379.0,0.2716,-0.2895,9.6329,-0.018,0.0168,-0.1347,-1.6360351047911585,-0.00035265585756860673,2.3300905227661133,-1.9332013130187988,-9.714746556710452e-05,1.9878194332122803,4.972581344633856,0.0,0.2960953116416931,-1.5830300490008753,0.0,-0.010675331577658653,0.880776047706604,-0.0,0.0038322939071804285,0.8037942051887512,8.189188225514231e-42,0.04756590351462364
389.0,379.0,0.2716,-0.2895,9.6329,-0.018,0.0168,-0.1347,-1.6360188923277796,-0.00030747221899218857,2.3045825958251953,-1.9331806898117065,-7.29908497305587e-05,2.0293140411376953,4.9725933251674554,0.0,0.2990625500679016,-1.583033863698141,0.0,-0.01215558685362339,0.8808157444000244,-0.0,0.007583534345030785,0.8038143515586853,0.0,0.0024929638020694256
389.0,379.0,0.2716,-0.2895,9.6329,-0.018,0.0168,-0.1347,-1.6360508404173792,-0.0002626114001031965,2.277601718902588,-1.9331412315368652,7.756255217827857e-05,2.0291080474853516,4.972601431399145,0.0,0.29470452666282654,-1.5830500761615198,0.0,-0.006828330457210541,0.8807876706123352,-0.0,-0.0028261432889848948,0.8037818670272827,0.0,0.016381017863750458
389.0,379.0,0.2716,-0.2895,9.6329,-0.018,0.0168,-0.1347,-1.6360351047911585,-0.0002367092965869233,2.320327043533325,-1.9331485033035278,0.00012019833229715005,2.0425543785095215,4.972597348480978,0.0,0.2887308597564697,-1.5830662886248987,0.0,-0.005857206415385008,0.8808038234710693,-0.0,0.010512295179069042,0.8038343191146851,0.0,0.01571524888277054
389.0,379.0,0.2716,-0.2895,9.6329,-0.018,0.0168,-0.1347,-1.6360627613463343,-0.0002091981004923582,2.3218274116516113,-1.9331051111221313,0.0005031030741520226,2.0649659633636475,4.972601431399145,0.0,0.2856057584285736,-1.583033863698141,0.0,-0.005459287203848362,0.8807235956192017,-0.0,0.007252593524754047,0.8038466572761536,0.0,-0.020420026034116745
389.0,379.0,0.2716,-0.2895,9.6329,-0.018,0.0168,-0.1347,-1.6360627613463343,-0.0001733333192532882,2.268012762069702,-1.933152675628662,0.0003766980080399662,2.0207009315490723,4.972601431399145,0.0,0.289801687002182,-1.5830462614642542,0.0,-0.012817250564694405,0.8808435797691345,-0.0,0.0033724477980285883,0.8037901520729065,0.0,-0.00533695425838232
389.0,379.0,0.2716,-0.2895,9.6329,-0.018,0.0168,-0.1347,-1.6360308132567347,-0.0005089716287329793,2.2792391777038574,-1.933092713356018,0.00028218672377988696,2.0007400512695312,4.972556906729498,0.0,0.28399303555488586,-1.5830062071429651,0.0,-0.0070885419845581055,0.8808158040046692,-0.0,-0.0022855252027511597,0.8038143515586853,0.0,-0.0007166714058257639
389.0,379.0,0.2716,-0.2895,9.6329,-0.018,0.0168,-0.1347,-1.6360751591124476,-0.0007418319582939148,2.2718658447265625,-1.9331609010696411,0.00023750121181365103,1.9721674919128418,4.972573238402166,0.0,0.2917683720588684,-1.583033863698141,0.0,-0.008943591266870499,0.8807839751243591,-0.0,-0.0009208449046127498,0.8038263916969299,0.0,-0.0035419180057942867
389.0,379.0,0.2716,-0.2895,9.6329,-0.018,0.0168,-0.1347,-1.6360513172545375,-0.0011611016234382987,2.299062967300415,-1.9331172704696655,0.00019609813170973212,2.002145290374756,4.972589599877157,0.0,0.28878283500671387,-1.5830100218402308,0.0,-0.003341241041198373,0.8808118104934692,-0.0,0.004850611090660095,0.8037821650505066,0.0,0.02525201626121998
369.0,402.0,0.2435,-0.0425,9.5856,-0.0153,0.0342,-0.1226,-1.6361547909178675,-0.0009523755288682878,2.30778169631958,-1.9331567287445068,0.00016698901890777051,2.0233969688415527,4.972601431399145,0.0,0.2989719808101654,-1.5830257574664515,0.0,-0.006421500351279974,0.8807799220085144,-0.0,0.0031746728345751762,0.8038706183433533,0.0,0.011820489540696144
369.0,402.0,0.2435,-0.0425,9.5856,-0.0153,0.0342,-0.1226,-1.6361385784544886,-0.0008728267857804894,2.296525001525879,-1.9332176446914673,0.00015026058827061206,2.0034549236297607,4.972541260510244,0.0,0.29292407631874084,-1.5829981009112757,0.0,-0.009678501635789871,0.8808236718177795,-0.0,-0.0006320850807242095,0.8038305044174194,0.0,0.01583159528672695
369.0,402.0,0.2435,-0.0425,9.5856,-0.0153,0.0342,-0.1226,-1.6360951862730921,-0.0008109731134027243,2.298140525817871,-1.9331889152526855,0.00018246060062665492,1.9798414707183838,4.972597348480978,0.0,0.29012826085090637,-1.5830982367144983,0.0,-0.007544602733105421,0.8807998895645142,-0.0,-0.012688698247075081,0.8037900924682617,0.0,0.030922526493668556
369.0,402.0,0.2435,-0.0425,9.5856,-0.0153,0.0342,-0.1226,-1.636146684686178,-0.0006554386927746236,2.2955117225646973,-1.9331412315368652,0.0001705095637589693,2.0283589363098145,4.972597348480978,0.0,0.29042577743530273,-1.5830257574664515,0.0,-0.0009380087722092867,0.880772054195404,-0.0,0.0008652567630633712,0.8038384318351746,0.0,-0.0012443468440324068
369.0,402.0,0.2435,-0.0425,9.5856,-0.0153,0.0342,-0.1226,-1.636122842828268,-0.0005662463954649866,2.3007545471191406,-1.933100938796997,0.00015385332517325878,2.0075271129608154,4.972556906729498,0.0,0.28451937437057495,-1.5830100218402308,0.0,-0.007996125146746635,0.8808078169822693,-0.0,-0.00014264369383454323,0.8037698268890381,0.0,-0.011698732152581215
369.0,402.0,0.2435,-0.0425,9.5856,-0.0153,0.0342,-0.1226,-1.6361309490599574,-0.0005256858421489596,2.28873348236084,-1.9331247806549072,0.00016373328980989754,2.0048766136169434,4.972609030991354,0.0,0.2887788414955139,-1.583045784627096,0.0,-0.008535586297512054,0.8807799220085144,-0.0,-0.00633606081828475,0.8038142919540405,0.0,0.031969696283340454
369.0,402.0,0.2435,-0.0425,9.5856,-0.0153,0.0342,-0.1226,-1.6361309490599574,-0.000531028606928885,2.299039363861084,-1.9331049919128418,0.00014829034626018256,2.010519504547119,4.972604948073187,0.0,0.2979596257209778,-1.58299428621401,0.0,-0.005876041948795319,0.8808117508888245,-0.0,-0.014094941318035126,0.8038466572761536,0.0,-0.007949738763272762
369.0,402.0,0.2435,-0.0425,9.5856,-0.0153,0.0342,-0.1226,-1.6361309490599574,-0.0005050671752542257,2.3077235221862793,-1.9331247806549072,0.0007420016918331385,2.0185458660125732,4.972604948073187,0.0,0.2924405038356781,-1.58299428621401,0.0,-0.013331141322851181,0.8808395862579346,-0.0,-0.005995769985020161,0.8037942051887512,0.0,0.019875958561897278
369.0,402.0,0.2435,-0.0425,9.5856,-0.0153,0.0342,-0.1226,-1.6362110577025355,-0.000625082990154624,2.310593366622925,-1.9330843687057495,0.0007105687400326133,2.005077838897705,4.972593354969778,0.0,0.28946349024772644,-1.5829861799823206,0.0,-0.0059085749089717865,0.8808197379112244,-0.0,0.0008761262288317084,0.8038148283958435,0.0,-0.013666326180100441
369.0,402.0,0.2435,-0.0425,9.5856,-0.0153,0.0342,-0.1226,-1.6361867390074671,-0.000829920347314328,2.250401020050049,-1.9331296682357788,0.00098341831471771,2.0655341148376465,4.972601431399145,0.0,0.2840428650379181,-1.5829861799823206,0.0,-0.0029922218527644873,0.8808118104934692,-0.0,-0.0024751643650233746,0.8037862777709961,0.0,-0.04147464781999588
369.0,402.0,0.2435,-0.0425,9.5856,-0.0153,0.0342,-0.1226,-1.6361829243102015,-0.0008621700690127909,2.3013579845428467,-1.9331132173538208,0.0012867621844634414,2.042856454849243,4.972604948073187,0.0,0.28507286310195923,-1.5830262343036097,0.0,-0.0070161703042685986,0.8807442784309387,-0.0,0.002031871350482106,0.803802490234375,0.0,-0.03228503093123436
369.0,402.0,0.2435,-0.0425,9.5856,-0.0153,0.0342,-0.1226,-1.6362396679320277,-0.0015622604405507445,2.2658190727233887,-1.9330564737319946,0.0016415517311543226,2.0290651321411133,4.972593354969778,0.0,0.28818777203559875,-1.58299428621401,0.0,-0.02272098697721958,0.8808197379112244,-0.0,-0.0031270147301256657,0.8038143515586853,-3.0273013180703856e-05,-0.007575781550258398
369.0,402.0,0.2435,-0.0425,9.5856,-0.0153,0.0342,-0.1226,-1.6361986599364222,-0.002105087274685502,2.246400833129883,-1.9330573081970215,0.0025272835046052933,2.0667316913604736,4.972577321320333,0.0,0.2758578658103943,-1.5829737822162073,0.0,-0.010162688791751862,0.8807958960533142,-0.0,0.000400940771214664,0.803794264793396,-2.882380249502603e-05,-0.008701120503246784
372.0,397.0,0.5372,-0.0616,9.5809,-0.035,0.018,-0.1217,-1.636275430718893,-0.0036597494035959244,2.250762462615967,-1.9330251216888428,0.003746781963855028,2.0560007095336914,4.972585427552023,0.0,0.28430864214897156,-1.5829618612872522,0.0,-0.012061773799359798,0.8807958960533142,-0.0,0.004206651356071234,0.8038264513015747,-2.7088724891655147e-05,-0.0019228309392929077
372.0,397.0,0.5372,-0.0616,9.5809,-0.035,0.018,-0.1217,-1.636242528954977,-0.004409728571772575,2.2502710819244385,-1.933012843132019,0.0038869844283908606,2.05171275138855,4.972621249943533,0.0,0.27588990330696106,-1.5829580465899866,0.0,0.009617609903216362,0.880772054195404,-0.0,-0.002400586847215891,0.8038184642791748,-2.5918569008354098e-05,-0.0606791228055954
372.0,397.0,0.5372,-0.0616,9.5809,-0.035,0.018,-0.1217,-1.6362577877440394,-0.005807435605674982,2.236522674560547,-1.9329816102981567,0.004056979902088642,2.044361114501953,4.972597348480978,0.0,0.28417712450027466,-1.5829737822162073,0.0,-0.00023129174951463938,0.8807958364486694,-0.0,-0.005528432782739401,0.8037700653076172,-2.4507065973011777e-05,-0.049026843160390854
372.0,397.0,0.5372,-0.0616,9.5809,-0.035,0.018,-0.1217,-1.6363746128477992,-0.007062261458486319,2.176227331161499,-1.9329413175582886,0.003193882992491126,2.0352399349212646,4.972617107420721,0.0,0.25926315784454346,-1.5829618612872522,1.4137352991383523e-05,0.010526181198656559,0.8808315992355347,-0.0,-0.002737410832196474,0.8038302063941956,-1.1620926670730114e-05,-0.051779940724372864
372.0,397.0,0.5372,-0.0616,9.5809,-0.035,0.018,-0.1217,-1.6363665066161097,-0.008738244883716106,2.2065250873565674,-1.9329659938812256,0.002627904061228037,2.045236825942993,4.972621249943533,-3.482934687326633e-07,0.27604231238365173,-1.5830062071429651,0.0001447281683795154,0.005179101601243019,0.880772054195404,-0.0,-0.008086094632744789,0.8038222789764404,-1.1187339623575099e-05,-0.02490796335041523
372.0,397.0,0.5372,-0.0616,9.5809,-0.035,0.018,-0.1217,-1.6365071735777796,-0.009354724548757076,2.192408323287964,-1.9328936338424683,0.0018432544311508536,2.042229175567627,4.972589570074835,-6.330060607628862e-12,0.2613724172115326,-1.5829537550555628,0.00014159694546833634,0.020463550463318825,0.8807998895645142,-0.0,0.0014021256938576698,0.8038384318351746,-1.065744709194405e-05,-0.055803947150707245
372.0,397.0,0.5372,-0.0616,9.5809,-0.035,0.018,-0.1217,-1.6365224323668421,-0.010066214948892593,2.2098302841186523,-1.9329018592834473,0.0015960672171786427,2.029477119445801,4.972605603724279,-1.7619956075377906e-15,0.2615775167942047,-1.5829618612872522,0.00013127014972269535,0.01733112707734108,0.880776047706604,-0.0,0.0033434215001761913,0.8038222789764404,-1.0291832950315438e-05,-0.08702191710472107
372.0,397.0,0.5372,-0.0616,9.5809,-0.035,0.018,-0.1217,-1.6366220913329066,-0.012561448849737644,2.1618494987487793,-1.9328656196594238,0.001358594628982246,2.0209672451019287,4.972589570074835,-3.202339914854402e-20,0.2611216902732849,-1.5829461256610315,0.00013957289047539234,0.018584661185741425,0.8808316588401794,-0.0,-0.006017470266669989,0.8037901520729065,-2.862389361993345e-12,-0.08041929453611374
372.0,397.0,0.5372,-0.0616,9.5809,-0.035,0.018,-0.1217,-1.636731287042135,-0.01325342245399952,2.1904501914978027,-1.932861566543579,0.00115880963858217,2.018409252166748,4.97253708818511,-8.91383003957526e-24,0.26594409346580505,-1.5829618612872522,0.00013087695697322488,0.03873133286833763,0.8808554410934448,-0.0,-0.0022696496453136206,0.8038384318351746,-6.912333548028457e-18,-0.1289810687303543
372.0,397.0,0.5372,-0.0616,9.5809,-0.035,0.018,-0.1217,-1.6367937527098597,-0.01534490380436182,2.1704752445220947,-1.9328656196594238,0.001176268793642521,2.0729613304138184,4.972585427552023,-1.6200448431936623e-28,0.25637543201446533,-1.5829899946795862,0.00013802151079289615,0.028488576412200928,0.8808038830757141,-0.0,-0.008552719838917255,0.8038384318351746,-2.239508563707443e-25,-0.09423006325960159
372.0,397.0,0.5372,-0.0616,9.5809,-0.035,0.018,-0.1217,-1.6369582615294398,-0.018504885956645012,2.0992226600646973,-1.9328532218933105,0.0016622769180685282,2.016388416290283,4.972577351122656,-2.9443514339747876e-33,0.265516459941864,-1.5829699675189417,0.00012825769954361022,0.03053142875432968,0.8808276653289795,-0.0,0.002356952056288719,0.8038546442985535,-7.255722717403246e-33,-0.1125124841928482
372.0,397.0,0.5372,-0.0616,9.5809,-0.035,0.018,-0.1217,-1.6370908222594203,-0.02030492015182972,2.1359028816223145,-1.9328211545944214,0.0018755149794742465,2.051208972930908,4.972604948073187,-8.195710877502093e-37,0.25110140442848206,-1.582938019429342,0.0001609435712452978,0.018192090094089508,0.8808117508888245,-0.0,-0.00701693631708622,0.8038586974143982,-1.752171548624958e-38,-0.1417521834373474
375.0,392.0,0.3075,-0.0066,9.5665,-0.0325,0.014,-0.1174,-1.6372982464232386,-0.022915352135896683,2.107633590698242,-1.9327889680862427,0.0018039101269096136,2.0626220703125,4.972569095879354,-0.00013190778554417193,0.24442055821418762,-1.5829461256610315,0.000168918413692154,0.03187476843595505,0.8808395862579346,-0.0,0.009284388273954391,0.8038143515586853,-0.0,-0.07650674879550934
375.0,392.0,0.3075,-0.0066,9.5665,-0.0325,0.014,-0.1174,-1.6374346218504847,-0.02510581538081169,2.09395170211792,-1.9327733516693115,0.0016849433304741979,2.03937029838562,4.972577351122656,-0.00013504302478395402,0.24304430186748505,-1.5829699675189417,0.00015447956684511155,0.019401133060455322,0.8808196187019348,-0.0,0.0008681127801537514,0.803882896900177,0.0,-0.11674317717552185
375.0,392.0,0.3075,-0.0066,9.5665,-0.0325,0.014,-0.1174,-1.6376143894591273,-0.027761511504650116,2.053908348083496,-1.9327569007873535,0.0015835602534934878,2.032893419265747,4.972549426346578,-0.0001446730166207999,0.244795024394989,-1.582938019429342,0.00016171908646356314,0.03709789738059044,0.8808237314224243,-0.0,0.005927308462560177,0.8038181662559509,0.0,-0.12109202146530151
375.0,392.0,0.3075,-0.0066,9.5665,-0.0325,0.014,-0.1174,-1.6377984486021937,-0.03082006797194481,2.126288414001465,-1.9328343868255615,0.001537900185212493,2.007080316543579,4.9725613472755334,-0.0001562161633046344,0.23766818642616272,-1.5829499403582972,0.00017155750538222492,0.04420037195086479,0.8808078169822693,-0.0,0.008136337623000145,0.8038425445556641,0.0,-0.13531142473220825
375.0,392.0,0.3075,-0.0066,9.5665,-0.0325,0.014,-0.1174,-1.6380216083922328,-0.03417084366083145,2.095351219177246,-1.9327857494354248,0.0014399776700884104,2.00894832611084,4.972597825318136,-0.00016272328502964228,0.24252396821975708,-1.5829299131976526,0.0001566692953929305,0.018923897296190262,0.8808276653289795,-0.0,0.004640418570488691,0.8038425445556641,0.0,-0.11581890285015106
375.0,392.0,0.3075,-0.0066,9.5665,-0.0325,0.014,-0.1174,-1.6382934055724085,-0.03825005516409874,2.0508646965026855,-1.9327692985534668,0.0016111399745568633,2.0093822479248047,4.9725732682044885,-0.00025430062669329345,0.2446821928024292,-1.5829580465899866,0.00019074964802712202,0.03243338689208031,0.8808435797691345,-0.0,0.003975627012550831,0.8038263916969299,0.0,-0.10697270929813385
375.0,392.0,0.3075,-0.0066,9.5665,-0.0325,0.014,-0.1174,-1.63856901744985,-0.04602113738656044,2.044243812561035,-1.9327569007873535,0.0023025551345199347,2.035165309906006,4.9726019380386255,-0.00020742914057336748,0.24915984272956848,-1.5829499403582972,0.00016318114649038762,0.047394007444381714,0.8808315396308899,-0.0,0.006519177462905645,0.8038747310638428,0.0,-0.0849960595369339
375.0,392.0,0.3075,-0.0066,9.5665,-0.0325,0.014,-0.1174,-1.6389452419676722,-0.05131629854440689,2.025364398956299,-1.9327651262283325,0.003334468463435769,2.028123378753662,4.972581434040823,-0.00017513128113932908,0.2374812364578247,-1.5829737822162073,0.00014250770618673414,0.04765552654862404,0.8808519840240479,-0.0,0.008637924678623676,0.8038302063941956,0.0,-0.13510039448738098
375.0,392.0,0.3075,-0.0066,9.5665,-0.0325,0.014,-0.1174,-1.6392976246275843,-0.056580595672130585,1.9775636196136475,-1.9327092170715332,0.003505832515656948,2.0512213706970215,4.9725613472755334,-0.00015681915101595223,0.23476175963878632,-1.5829218069659632,0.00015611070557497442,0.04505869001150131,0.8808316588401794,-0.0,0.008313500322401524,0.8038546442985535,0.0,-0.15335920453071594
375.0,392.0,0.3075,-0.0066,9.5665,-0.0325,0.014,-0.1174,-1.6398092708983363,-0.062269505113363266,2.0152268409729004,-1.9326326847076416,0.003867838531732559,2.0398941040039062,4.972553092032232,-0.00013763191236648709,0.24639354646205902,-1.5829103628741663,0.0001399768516421318,0.03831074386835098,0.8808560967445374,-0.0,0.003186385612934828,0.80385822057724,0.0,-0.15276303887367249
375.0,392.0,0.3075,-0.0066,9.5665,-0.0325,0.014,-0.1174,-1.6401716671385707,-0.06409154832363129,1.984102487564087,-1.9326096773147583,0.00446251081302762,2.0531539916992188,4.972593652993002,-0.0001447424729121849,0.2416817843914032,-1.5829656759845179,0.00012987646914552897,0.03515215218067169,0.8808435797691345,-0.0,0.013318335637450218,0.8038140535354614,0.0,-0.13322237133979797
375.0,392.0,0.3075,-0.0066,9.5665,-0.0325,0.014,-0.1174,-1.6406637630858363,-0.06225728988647461,2.0173816680908203,-1.9326014518737793,0.0035082243848592043,2.067436695098877,4.972605603724279,-0.00013603238039650023,0.22858157753944397,-1.5829461256610315,0.00011847775022033602,0.03948213532567024,0.8808156251907349,-0.0,0.007414576597511768,0.8038546442985535,0.0,-0.1380690336227417
375.0,392.0,0.3075,-0.0066,9.5665,-0.0325,0.014,-0.1174,-1.641008039514059,-0.06436408311128616,2.0326101779937744,-1.9325850009918213,0.002484970260411501,2.0368776321411133,4.972520756512441,-0.00014210290100891143,0.24702394008636475,-1.582938019429342,0.0001111609599320218,0.0381968654692173,0.8808236718177795,-0.0,0.002121372614055872,0.8038304448127747,0.0,-0.118320532143116
368.0,408.0,0.0538,-0.0808,9.2183,-0.0386,-0.0133,-0.1245,-1.6415792904295863,-0.0713166818022728,2.01278018951416,-1.932605504989624,0.0013905063970014453,2.049783229827881,4.972577351122656,-0.0001516562042525038,0.24921834468841553,-1.5829499403582972,0.00011924249702133238,0.04090314731001854,0.88081955909729,-0.0,0.01191636361181736,0.8037781119346619,0.0,-0.17687349021434784
368.0,408.0,0.0538,-0.0808,9.2183,-0.0386,-0.0133,-0.1245,-1.642118593255514,-0.0743553414940834,1.981459379196167,-1.9325693845748901,0.0013304147869348526,2.0449867248535156,4.972545343428411,-0.0001420208136551082,0.2276466339826584,-1.5829699675189417,0.00011134992382721975,0.03426603227853775,0.8808237314224243,-0.0,0.0049500660970807076,0.803794264793396,0.0,-0.16204412281513214
368.0,408.0,0.0538,-0.0808,9.2183,-0.0386,-0.0133,-0.1245,-1.6425425014891566,-0.07547441869974136,2.0523977279663086,-1.9325217008590698,0.002894903998821974,2.009458541870117,4.972597765713491,-0.00013408611994236708,0.23079140484333038,-1.5829418341266077,0.00010574291809462011,0.04484759271144867,0.8808878064155579,-0.0,0.015591597184538841,0.8038061261177063,0.0,-0.169652059674263
368.0,408.0,0.0538,-0.0808,9.2183,-0.0386,-0.0133,-0.1245,-1.643202920953268,-0.07698787748813629,2.009162187576294,-1.9325010776519775,0.005874775815755129,1.9971137046813965,4.9726019380386255,-0.00012479021097533405,0.22268949449062347,-1.5829537550555628,0.00011324482329655439,0.04126990959048271,0.8808878660202026,-0.0,0.01636907272040844,0.8038140535354614,0.0,-0.18980100750923157
368.0,408.0,0.0538,-0.0808,9.2183,-0.0386,-0.0133,-0.1245,-1.6436382732787074,-0.0786234512925148,2.011056900024414,-1.932509183883667,0.007505370303988457,1.981848955154419,4.972577351122656,-0.00011862227984238416,0.2299572378396988,-1.5829342047320765,0.00010814301640493795,0.033216673880815506,0.8808276653289795,-0.0,-0.0021192608401179314,0.8038061261177063,0.0,-0.13796758651733398
368.0,408.0,0.0538,-0.0808,9.2183,-0.0386,-0.0133,-0.1245,-1.6442891559996546,-0.0796770229935646,1.9760748147964478,-1.932490348815918,0.008122999221086502,2.0016674995422363,4.9726213095481775,-0.00011128825281048194,0.23210978507995605,-1.582938019429342,9.691964078228921e-05,0.04986055567860603,0.8808838129043579,-0.0,0.006161677651107311,0.8038142919540405,0.0,-0.19890335202217102
368.0,408.0,0.0538,-0.0808,9.2183,-0.0386,-0.0133,-0.1245,-1.6447812519469203,-0.08348909020423889,2.020379066467285,-1.932402491569519,0.007589185610413551,2.003473997116089,4.972541230707922,-0.0001063564996002242,0.22446715831756592,-1.5828941504107874,8.652596443425864e-05,0.04318910092115402,0.8808758854866028,-0.0,0.006774651352316141,0.803801953792572,0.0,-0.1490473449230194
368.0,408.0,0.0538,-0.0808,9.2183,-0.0386,-0.0133,-0.1245,-1.6454650364317835,-0.08677630126476288,2.01535701751709,-1.9323176145553589,0.00676112063229084,2.0729472637176514,4.972589599877157,-0.00010042283247457817,0.2193361073732376,-1.582954231892721,8.034508937271312e-05,0.04642215371131897,0.8807920217514038,-0.0,0.00539835449308157,0.803801953792572,0.0,-0.22681207954883575
368.0,408.0,0.0538,-0.0808,9.2183,-0.0386,-0.0133,-0.1245,-1.6459557018675746,-0.08538005501031876,2.034092903137207,-1.9322657585144043,0.007525082211941481,2.053586959838867,4.972569095879354,-9.638971096137539e-05,0.22002118825912476,-1.5829461256610315,7.626025035278872e-05,0.046387363225221634,0.8808917999267578,-0.0,0.006947117857635021,0.8038263916969299,0.0,-0.1351102888584137
368.0,408.0,0.0538,-0.0808,9.2183,-0.0386,-0.0133,-0.1245,-1.6466151676573695,-0.08466615527868271,2.004641056060791,-1.9322460889816284,0.008289294317364693,2.070709705352783,4.972581314831533,-9.149043034994975e-05,0.20583385229110718,-1.5829342047320765,8.568652992835268e-05,0.04599565267562866,0.8807641267776489,-0.0,0.0058277929201722145,0.8037821650505066,0.0,-0.13829834759235382
368.0,408.0,0.0538,-0.0808,9.2183,-0.0386,-0.0133,-0.1245,-1.6473280392088832,-0.08946516364812851,2.026320457458496,-1.9321818351745605,0.008180211298167706,2.0418028831481934,4.972577351122656,-8.70650474098511e-05,0.22437219321727753,-1.582938019429342,8.058682578848675e-05,0.055315807461738586,0.8808156847953796,-0.0,0.00017859996296465397,0.8038222789764404,0.0,-0.2080080211162567
368.0,408.0,0.0538,-0.0808,9.2183,-0.0386,-0.0133,-0.1245,-1.6478783092894496,-0.0952356830239296,2.0190484523773193,-1.9320824146270752,0.008705527521669865,1.9857566356658936,4.972589599877157,-8.401724335271865e-05,0.20666418969631195,-1.5829299131976526,7.713352533755824e-05,0.04446879029273987,0.8808037638664246,-0.0,0.0038055444601923227,0.8038426041603088,0.0,-0.1375007927417755
385.0,446.0,0.6658,-0.1579,9.2399,-0.0411,-0.0615,-0.1301,-1.6486150226988734,-0.10203627496957779,1.9529517889022827,-1.9319736957550049,0.009404102340340614,2.0234344005584717,4.972569095879354,-8.027058356674388e-05,0.21441492438316345,-1.582926098500387,7.296462717931718e-05,0.036243684589862823,0.8808237314224243,-0.0,0.013771122321486473,0.8038304448127747,0.0,-0.15122318267822266
385.0,446.0,0.6658,-0.1579,9.2399,-0.0411,-0.0615,-0.1301,-1.649262090722555,-0.10260123014450073,1.9932634830474854,-1.9319943189620972,0.01028734166175127,2.01015567779541,4.972597348480978,-1.7154826537080226e-07,0.22328105568885803,-1.582914177571432,7.880324119469151e-05,0.040166035294532776,0.8808519244194031,-0.0,-0.0045994664542376995,0.8038106560707092,0.0,-0.1493447870016098
385.0,446.0,0.6658,-0.1579,9.2399,-0.0411,-0.0615,-0.1301,-1.6500855884947718,-0.10284165292978287,1.9659051895141602,-1.9318782091140747,0.01217932440340519,2.0271475315093994,4.9725650427635095,-3.1178054929470456e-12,0.22825826704502106,-1.5829461256610315,7.776958227623254e-05,0.04395533725619316,0.8808679580688477,-0.0,0.005350190680474043,0.8038222789764404,0.0,-0.15801720321178436
385.0,446.0,0.6658,-0.1579,9.2399,-0.0411,-0.0615,-0.1301,-1.6507336101927699,-0.09978485107421875,2.019622564315796,-1.9317820072174072,0.011079845018684864,2.060246467590332,4.97253708818511,-8.678526465208966e-16,0.2384745180606842,-1.582914177571432,7.499250205000862e-05,0.058314479887485504,0.8808554410934448,-0.0,-0.0040735602378845215,0.8037821650505066,0.0,-0.14276929199695587
385.0,446.0,0.6658,-0.1579,9.2399,-0.0411,-0.0615,-0.1301,-1.651499410668844,-0.0997319146990776,1.9916253089904785,-1.9317104816436768,0.008771666325628757,2.06905460357666,4.9725853977497,-1.5772793011260504e-20,0.22668786346912384,-1.5829342047320765,7.158407242968678e-05,0.05037374794483185,0.8808519840240479,-0.0,0.002332279458642006,0.8038384318351746,0.0,-0.14201921224594116
385.0,446.0,0.6658,-0.1579,9.2399,-0.0411,-0.0615,-0.1301,-1.6523834667601527,-0.10989025980234146,2.003697633743286,-1.9317185878753662,0.00581400515511632,2.053633213043213,4.972625392466345,-2.8666273453787277e-25,0.21892523765563965,-1.5829461256610315,1.1613154811129789e-06,0.057162489742040634,0.8808078765869141,-0.0,-0.0016141020460054278,0.8038466572761536,0.0,-0.1777137815952301
385.0,446.0,0.6658,-0.1579,9.2399,-0.0411,-0.0615,-0.1301,-1.6530786953368128,-0.11778905242681503,2.007331371307373,-1.9315903186798096,0.005200532265007496,2.0355782508850098,4.972581344633856,-7.97936248230829e-29,0.21387562155723572,-1.5828941504107874,3.2325636611929554e-10,0.04522065445780754,0.8808435201644897,-0.0,0.006268952041864395,0.8038263916969299,0.0,-0.2350580394268036
385.0,446.0,0.6658,-0.1579,9.2399,-0.0411,-0.0615,-0.1301,-1.6540056667723597,-0.12697197496891022,1.9771289825439453,-1.9315747022628784,0.007286345586180687,2.0417823791503906,4.972629028349676,-1.4502098601678524e-33,0.22625648975372314,-1.5829418341266077,5.8750247573205634e-15,0.051073744893074036,0.8808435201644897,-0.0,0.0021888492628932,0.8037901520729065,0.0,-0.14899440109729767
385.0,446.0,0.6658,-0.1579,9.2399,-0.0411,-0.0615,-0.1301,-1.6547848186888636,-0.1279851645231247,2.00968074798584,-1.9315228462219238,0.011594641022384167,2.021772623062134,4.972577321320333,-2.6447049094713293e-05,0.22617125511169434,-1.5829179922686976,1.6353349336439935e-18,0.062167663127183914,0.8808514475822449,-0.0,-0.0029449709691107273,0.8037780523300171,0.0,-0.17476992309093475
385.0,446.0,0.6658,-0.1579,9.2399,-0.0411,-0.0615,-0.1301,-1.6558920345702113,-0.12126550823450089,2.028289318084717,-1.9313912391662598,0.016482312232255936,2.072521448135376,4.972604948073187,-4.806620657049621e-10,0.21211569011211395,-1.5828941504107874,2.972140745503272e-23,0.05058347433805466,0.8808276653289795,-0.0,-0.0031950720585882664,0.8038024306297302,0.0,-0.17992037534713745
385.0,446.0,0.6658,-0.1579,9.2399,-0.0411,-0.0615,-0.1301,-1.656661172906393,-0.11892405897378922,2.037541389465332,-1.9313228130340576,0.015473144128918648,2.0490145683288574,4.972569095879354,-1.3379405818924467e-13,0.23211738467216492,-1.5829222838031214,8.27306241733672e-27,0.051274072378873825,0.8808315992355347,-0.0,0.00829973816871643,0.8037659525871277,-3.5701705201063305e-05,-0.18228864669799805
385.0,446.0,0.6658,-0.1579,9.2399,-0.0411,-0.0615,-0.1301,-1.6577207050719203,-0.1342812478542328,1.9851861000061035,-1.9312348365783691,0.010278575122356415,2.0194358825683594,4.972553151636877,-2.4316407196407497e-18,0.2314060628414154,-1.5828903357135218,1.5035883423218224e-31,0.04003973677754402,0.8808600306510925,-0.0,0.006636647041887045,0.8038384318351746,-1.767704452504404e-05,-0.20508521795272827
385.0,446.0,0.6658,-0.1579,9.2399,-0.0411,-0.0615,-0.1301,-1.65855135540151,-0.1515531986951828,2.0016517639160156,-1.931199550628662,0.00566994259133935,2.0531764030456543,4.972565012961187,-6.768561367347765e-22,0.22851166129112244,-1.5828941504107874,4.1852928217909854e-35,0.05086946487426758,0.8808196187019348,-0.0,0.018455516546964645,0.8038061261177063,-1.6085999959614128e-05,-0.210933655500412
389.0,542.0,-0.5677,0.3505,9.6485,-0.0371,-0.0502,-0.1333,-1.659800191918844,-0.1614755094051361,1.9501043558120728,-1.931086778640747,0.006414033938199282,1.9981412887573242,4.972593354969778,-1.2301525459779635e-26,0.22334712743759155,-1.5828941504107874,7.606556350017259e-40,0.042477309703826904,0.8808395862579346,-0.0,0.004526352509856224,0.8038305044174194,-5.4918920795898885e-05,-0.14080668985843658
389.0,542.0,-0.5677,0.3505,9.6485,-0.0371,-0.0502,-0.1333,-1.661020895043844,-0.15666188299655914,1.9853410720825195,-1.9310225248336792,0.013709386810660362,2.0136537551879883,4.972613024502554,4.0869541408028454e-05,0.22163818776607513,-1.5828984419452112,1.401298464324817e-44,0.045095719397068024,0.8808441758155823,-0.0,0.002007857197895646,0.8038024306297302,-0.00011385107791284099,-0.18378441035747528
389.0,542.0,-0.5677,0.3505,9.6485,-0.0371,-0.0502,-0.1333,-1.6619936428465785,-0.1391279399394989,1.9635305404663086,-1.9308910369873047,0.017826568335294724,2.054098129272461,4.972633141070165,3.615343666751869e-05,0.22323139011859894,-1.5829342047320765,0.0,0.04808056727051735,0.8808118104934692,-0.0,0.008239880204200745,0.8037900924682617,-5.353714368538931e-05,-0.22082236409187317
389.0,542.0,-0.5677,0.3505,9.6485,-0.0371,-0.0502,-0.1333,-1.6631580791869105,-0.14131726324558258,2.027845621109009,-1.930831789970398,0.014346613548696041,2.0239672660827637,4.972605603724279,7.279182057118305e-08,0.22786831855773926,-1.5829299131976526,0.0,0.04986896365880966,0.8808479309082031,-0.0,0.011478632688522339,0.8038302063941956,-1.0989641141545547e-10,-0.16204920411109924
389.0,542.0,-0.5677,0.3505,9.6485,-0.0371,-0.0502,-0.1333,-1.6641012630858363,-0.16291145980358124,1.9936187267303467,-1.9307996034622192,0.007542358711361885,2.0458908081054688,4.9725613472755334,2.0261873776017403e-11,0.22312912344932556,-1.5828984419452112,0.0,0.045810516923666,0.8808600306510925,-0.0,0.001240768819116056,0.8037859797477722,-2.6538685731956023e-16,-0.17983940243721008
389.0,542.0,-0.5677,0.3505,9.6485,-0.0371,-0.0502,-0.1333,-1.6653863392271937,-0.18484900891780853,2.000253200531006,-1.9307188987731934,0.0019113575108349323,2.00128173828125,4.972577321320333,3.682495325824976e-16,0.23076704144477844,-1.582914177571432,0.0,0.044570356607437134,0.8808477520942688,-0.0,0.0018785676220431924,0.8038345575332642,0.00011825006367871538,-0.18820706009864807
389.0,542.0,-0.5677,0.3505,9.6485,-0.0371,-0.0502,-0.1333,-1.6664048633971156,-0.18237172067165375,1.8984425067901611,-1.9306639432907104,0.005016804207116365,1.9913623332977295,4.972613054304876,-0.00010949757415801287,0.22588011622428894,-1.5829342047320765,0.0,0.04720171540975571,0.8808276653289795,-0.0,0.013283616863191128,0.8038024306297302,5.95896665345208e-09,-0.20350046455860138
389.0,542.0,-0.5677,0.3505,9.6485,-0.0371,-0.0502,-0.1333,-1.6676870785155238,-0.1577976793050766,2.014310836791992,-1.930584192276001,0.014035414904356003,2.0699703693389893,4.972620951920309,-3.637694589997409e-09,0.22217285633087158,-1.5829022566424769,8.160384368238738e-07,0.04630027338862419,0.8808562159538269,-0.0,0.002534714061766863,0.8038142919540405,1.930629755880314e-16,-0.19948089122772217
389.0,542.0,-0.5677,0.3505,9.6485,-0.0371,-0.0502,-0.1333,-1.6690722904601039,-0.14807011187076569,1.9850714206695557,-1.9305198192596436,0.016820689663290977,2.0317273139953613,4.972573208599844,-6.611330000171403e-14,0.22139833867549896,-1.5829103628741663,1.4831094685696655e-11,0.048518866300582886,0.8807642459869385,-0.0,0.012711366638541222,0.8037859797477722,-0.00011007145076291636,-0.20565283298492432
389.0,542.0,-0.5677,0.3505,9.6485,-0.0371,-0.0502,-0.1333,-1.670072694818014,-0.15939344465732574,2.040299415588379,-1.930431842803955,0.013990388251841068,2.0484418869018555,4.972609716444769,-1.8402879348785795e-17,0.23071619868278503,-1.5829342047320765,4.128289930635217e-15,0.05220461264252663,0.8808193206787109,-0.0,0.010088780894875526,0.8038504719734192,-2.658096243113306e-10,-0.21216216683387756
389.0,542.0,-0.5677,0.3505,9.6485,-0.0371,-0.0502,-0.1333,-1.6714121303954066,-0.18318545818328857,1.9420781135559082,-1.9303324222564697,0.0076022339053452015,1.9777330160140991,4.972605573921957,-3.344632913230709e-22,0.2237476408481598,-1.5828903357135218,7.502963071912405e-20,0.05542927235364914,0.8808603286743164,-0.0,-0.009520167484879494,0.8038467168807983,-8.611893162575329e-18,-0.18452385067939758
389.0,542.0,-0.5677,0.3505,9.6485,-0.0371,-0.0502,-0.1333,-1.672405859033102,-0.1860782951116562,1.955087423324585,-1.9302442073822021,0.005813797004520893,2.013692855834961,4.972605573921957,-9.309908989610548e-26,0.22510957717895508,-1.5828855673419397,2.08847769213642e-23,0.05180417001247406,0.8808562159538269,-0.0,0.001276985858567059,0.8037862777709961,-0.00011376936890883371,-0.207665354013443
451.0,705.0,-0.1406,0.7172,11.1458,-0.0021,-0.1049,-0.1301,-1.67372526744985,-0.17831003665924072,1.8919687271118164,-1.9301800727844238,0.010114626958966255,2.023500919342041,4.972593354969778,-1.6920297023024248e-30,0.21215017139911652,-1.5829022566424769,3.795705067903487e-28,0.05456272512674332,0.8808436989784241,-0.0,0.009181017056107521,0.803761899471283,-0.00040526079828850925,-0.2230072021484375
451.0,705.0,-0.1406,0.7172,11.1458,-0.0021,-0.1049,-0.1301,-1.674695154229635,-0.16740882396697998,1.9677931070327759,-1.9301085472106934,0.014409808441996574,2.0434892177581787,4.972577351122656,-4.7098265831457735e-34,0.21415948867797852,-1.5828622023211878,1.0565484284512819e-31,0.05695793405175209,0.8808436393737793,-0.0,0.004607719369232655,0.8037580847740173,-0.000613681913819164,-0.2623598575592041
451.0,705.0,-0.1406,0.7172,11.1458,-0.0021,-0.1049,-0.1301,-1.6760827503600062,-0.15920192003250122,1.950598955154419,-1.929992437362671,0.020351674407720566,2.033860683441162,4.972589272051611,-8.559877912177468e-39,0.20750132203102112,-1.582886044179098,1.9202246211405318e-36,0.06034388765692711,0.8808562159538269,-0.0,0.002735690213739872,0.8038222789764404,-0.00024199589097406715,-0.2109711766242981
451.0,705.0,-0.1406,0.7172,11.1458,-0.0021,-0.1049,-0.1301,-1.6770698032774867,-0.15976101160049438,2.013669729232788,-1.9298723936080933,0.02122587338089943,2.06541109085083,4.972573238402166,-2.382207389352189e-42,0.22066730260849,-1.5829179922686976,5.3450147714280795e-40,0.06090755760669708,0.8808436989784241,-0.0,-4.3244799599051476e-05,0.8038222789764404,0.00021858436230104417,-0.2692861557006836
451.0,705.0,-0.1406,0.7172,11.1458,-0.0021,-0.1049,-0.1301,-1.678371091882223,-0.1729261726140976,1.9755910634994507,-1.9297449588775635,0.019133005291223526,2.027836561203003,4.9725650427635095,-0.0,0.23026353120803833,-1.582926098500387,9.80908925027372e-45,0.0644167885184288,0.88082355260849,-0.0,0.0006644567474722862,0.8037900924682617,0.00022114191961009055,-0.20649144053459167
451.0,705.0,-0.1406,0.7172,11.1458,-0.0021,-0.1049,-0.1301,-1.6797381840147914,-0.18652385473251343,1.9398143291473389,-1.929480791091919,0.0188341923058033,2.055960178375244,4.972637283592977,-0.0,0.2092645764350891,-1.5828898588763636,0.0,0.05491224676370621,0.8808353543281555,5.816391990265402e-07,0.0016520433127880096,0.8037780523300171,5.781698564533144e-05,-0.17822614312171936
451.0,705.0,-0.1406,0.7172,11.1458,-0.0021,-0.1049,-0.1301,-1.6807934246458949,-0.18019221723079681,1.974195957183838,-1.9293731451034546,0.02463257685303688,2.0268192291259766,4.9726209221179865,-0.0,0.20508556067943573,-1.5829022566424769,0.0,0.05843387916684151,0.8808638453483582,1.6190142282379583e-10,0.001543185906484723,0.803770124912262,3.256408698248947e-09,-0.20981356501579285
451.0,705.0,-0.1406,0.7172,11.1458,-0.0021,-0.1049,-0.1301,-1.682176252404684,-0.16100309789180756,2.0046539306640625,-1.92911696434021,0.03593495860695839,2.013087034225464,4.972604948073187,0.00011046412691939622,0.21075621247291565,-1.582914177571432,0.0,0.06351316720247269,0.8808236122131348,2.9424778975553232e-15,0.00926972460001707,0.8038142919540405,1.0550348576445986e-16,-0.20832504332065582
451.0,705.0,-0.1406,0.7172,11.1458,-0.0021,-0.1049,-0.1301,-1.6832105122008265,-0.15702402591705322,2.0287623405456543,-1.928861379623413,0.04309337958693504,2.0311899185180664,4.972620951920309,9.89867330645211e-05,0.20993143320083618,-1.5829060713397425,0.0,0.04670292139053345,0.880771815776825,8.190495822279963e-19,-0.0015384787693619728,0.8037901520729065,2.5477852015520053e-22,-0.21261107921600342
451.0,705.0,-0.1406,0.7172,11.1458,-0.0021,-0.1049,-0.1301,-1.6846171818175257,-0.17502614855766296,2.0146942138671875,-1.9285577535629272,0.04676324129104614,2.0705149173736572,4.972600775748052,4.0569462726125494e-05,0.22385916113853455,-1.5829179922686976,0.0,0.0582783967256546,0.8808959126472473,1.4885822636460408e-23,0.0031124816741794348,0.8038143515586853,8.254501135090005e-30,-0.22122609615325928
451.0,705.0,-0.1406,0.7172,11.1458,-0.0021,-0.1049,-0.1301,-1.6857043705382289,-0.1930796355009079,2.0292088985443115,-1.9282499551773071,0.047635603696107864,2.0349647998809814,4.972673404007711,3.573451976990327e-05,0.21713221073150635,-1.5829499403582972,0.0,0.054986536502838135,0.880892276763916,4.143522719552475e-27,0.005943776573985815,0.8038024306297302,1.993365495379455e-35,-0.21424254775047302
451.0,705.0,-0.1406,0.7172,11.1458,-0.0021,-0.1049,-0.1301,-1.6872707806029261,-0.19098789989948273,1.983330488204956,-1.9278231859207153,0.05386440455913544,2.1260180473327637,4.972608583956518,5.6860582844819874e-05,0.2161605805158615,-1.582886044179098,0.0,0.054768551141023636,0.8808116912841797,7.530647042299975e-32,-0.007996373809874058,0.8037660121917725,6.459985920537407e-43,-0.17366786301136017
451.0,705.0,-0.1406,0.7172,11.1458,-0.0021,-0.1049,-0.1301,-1.688728471795553,-0.1723683774471283,2.0371198654174805,-1.9273505210876465,0.06533284485340118,2.078291177749634,4.972656923323431,0.00014077528612688184,0.2211041897535324,-1.5829179922686976,0.0,0.04995653033256531,0.8808358311653137,1.3686580304056868e-36,0.00336969131603837,0.8037983179092407,0.0,-0.209984689950943
704.0,917.0,1.0774,0.4241,10.5679,-0.0221,-0.1023,-0.1284,-1.6898519001402796,-0.17588846385478973,2.0484800338745117,-1.9270241260528564,0.07159748673439026,2.087766170501709,4.972665476589956,0.00022130957222543657,0.22305962443351746,-1.5829342047320765,0.0,0.060752980411052704,0.8808353543281555,3.80971013495988e-40,0.012860441580414772,0.8038184642791748,0.0,-0.20528723299503326
704.0,917.0,1.0774,0.4241,10.5679,-0.0221,-0.1023,-0.1284,-1.6914106808104457,-0.19316919147968292,2.0189900398254395,-1.9264200925827026,0.07527174055576324,2.109281063079834,4.972613024502554,0.00015597320452798158,0.2205946445465088,-1.5828822294818323,2.5961349820136093e-05,0.06882423162460327,0.8808193206787109,7.006492321624085e-45,0.006913904100656509,0.8038426041603088,0.0,-0.20768553018569946
704.0,917.0,1.0774,0.4241,10.5679,-0.0221,-0.1023,-0.1284,-1.6925488911070765,-0.19835717976093292,2.045346736907959,-1.9258960485458374,0.07841621339321136,2.130561351776123,4.972569066077032,0.00012377099483273923,0.22169387340545654,-1.582926098500387,2.499986112525221e-05,0.04285329207777977,0.8808438181877136,0.0,0.005823151208460331,0.8038263916969299,0.0,-0.20594289898872375
704.0,917.0,1.0774,0.4241,10.5679,-0.0221,-0.1023,-0.1284,-1.6940747700133265,-0.18695217370986938,2.0212693214416504,-1.9252369403839111,0.08267071843147278,2.026958465576172,4.972604948073187,9.70615801634267e-05,0.2292478084564209,-1.582938019429342,2.3684142433921807e-05,0.043381981551647186,0.8808684945106506,0.0,0.005808481015264988,0.8038346171379089,0.0,-0.17636020481586456
704.0,917.0,1.0774,0.4241,10.5679,-0.0221,-0.1023,-0.1284,-1.6951819858946742,-0.1867958903312683,2.0447044372558594,-1.924753189086914,0.08156514167785645,2.086625814437866,4.972633111267843,8.354258898179978e-05,0.23690983653068542,-1.5828574339496058,2.2784737666370347e-05,0.04939832538366318,0.8808562159538269,0.0,0.008451814763247967,0.8038384318351746,0.0,-0.21292676031589508
704.0,917.0,1.0774,0.4241,10.5679,-0.0221,-0.1023,-0.1284,-1.696700235406393,-0.1962498128414154,2.0669212341308594,-1.9240940809249878,0.08661751449108124,2.113804817199707,4.972661393671789,7.04589401721023e-05,0.22476808726787567,-1.5828898588763636,2.1686697436962277e-05,0.0323730930685997,0.8808111548423767,0.0,0.013067138381302357,0.8038305044174194,0.0,-0.18548151850700378
704.0,917.0,1.0774,0.4241,10.5679,-0.0221,-0.1023,-0.1284,-1.6978594265379847,-0.19162438809871674,2.0907559394836426,-1.9235347509384155,0.09083124995231628,2.1405463218688965,4.972589242249288,6.305333954514936e-05,0.23025020956993103,-1.582914177571432,2.0930188838974573e-05,0.05520644411444664,0.8808152079582214,0.0,0.008362570777535439,0.803866982460022,0.0,-0.16749857366085052
704.0,917.0,1.0774,0.4241,10.5679,-0.0221,-0.1023,-0.1284,-1.6993862591185511,-0.18357771635055542,2.098659038543701,-1.9228155612945557,0.10149829834699631,2.0966248512268066,4.972589242249288,5.530340058612637e-05,0.2339211255311966,-1.5829022566424769,1.999997220991645e-05,0.03649396821856499,0.8808603286743164,0.0,0.005965066608041525,0.8038024306297302,0.0,-0.19643712043762207
704.0,917.0,1.0774,0.4241,10.5679,-0.0221,-0.1023,-0.1284,-1.7008801899352015,-0.18676915764808655,2.051466941833496,-1.9219279289245605,0.10704110562801361,2.119558811187744,4.972641426115789,4.925027315039188e-05,0.22911274433135986,-1.5828984419452112,1.4146631643896512e-09,0.04099705442786217,0.880831241607666,0.0,0.002574379090219736,0.8037739396095276,0.0,-0.16227814555168152
704.0,917.0,1.0774,0.4241,10.5679,-0.0221,-0.1023,-0.1284,-1.7019454441466273,-0.19049957394599915,2.06856369972229,-1.9213329553604126,0.10910028219223022,2.11543869972229,4.972589599877157,2.2770500436308794e-05,0.21795868873596191,-1.5828779379474085,3.937766725106012e-13,0.040515873581171036,0.8808845281600952,0.0,0.004194360692054033,0.8038222789764404,0.0,-0.18140029907226562
704.0,917.0,1.0774,0.4241,10.5679,-0.0221,-0.1023,-0.1284,-1.7035123310484828,-0.18967613577842712,2.046656370162964,-1.9203944206237793,0.11062368750572205,2.1518778800964355,4.972625034838476,2.06666791200405e-05,0.21385890245437622,-1.5829299131976526,7.156695522276116e-18,0.04483773559331894,0.8808603286743164,0.0,0.0038384352810680866,0.803737461566925,0.0,-0.18903708457946777
704.0,917.0,1.0774,0.4241,10.5679,-0.0221,-0.1023,-0.1284,-1.704527040521139,-0.18834495544433594,2.1256163120269775,-1.9197341203689575,0.10921385884284973,2.119812488555908,4.972629058151998,1.9334704120410606e-05,0.22360441088676453,-1.582914177571432,1.992092849200991e-21,0.051675524562597275,0.880876362323761,0.0,-0.0002866261638700962,0.8038181662559509,0.0,-0.18233539164066315
884.0,936.0,1.471,-0.1992,10.2018,-0.0486,-0.0553,-0.1252,-1.7059537372984828,-0.18230591714382172,2.0983386039733887,-1.9187636375427246,0.11352366209030151,2.132502317428589,4.972573178797521,1.780465208867099e-05,0.23230618238449097,-1.5829461256610315,3.620530126103903e-26,0.0399693064391613,0.8808395862579346,0.0,-0.007599486969411373,0.8037659525871277,0.0,-0.22385619580745697
884.0,936.0,1.471,-0.1992,10.2018,-0.0486,-0.0553,-0.1252,-1.707064767877096,-0.17732766270637512,2.153881311416626,-1.9181851148605347,0.12169458717107773,2.13740873336792,4.972620951920309,1.6807156498543918e-05,0.22468528151512146,-1.5828984419452112,1.0077878319204158e-29,0.048889756202697754,0.8808918595314026,0.0,0.005246535409241915,0.8038384318351746,0.0,-0.2062232494354248
884.0,936.0,1.471,-0.1992,10.2018,-0.0486,-0.0553,-0.1252,-1.708484788934225,-0.17212004959583282,2.176887035369873,-1.917129635810852,0.13051028549671173,2.130800247192383,4.972620951920309,1.563895057188347e-05,0.23955288529396057,-1.582914177571432,1.831604558339661e-34,0.04000347480177879,0.8808399438858032,0.0,0.00327143631875515,0.8038061261177063,0.0,-0.21644528210163116
884.0,936.0,1.471,-0.1992,10.2018,-0.0486,-0.0553,-0.1252,-1.709870000878805,-0.17861545085906982,2.140650510787964,-1.9160023927688599,0.14117354154586792,2.170311450958252,4.972629058151998,1.4622584785684012e-05,0.22236885130405426,-1.5829179922686976,3.328850363031426e-39,0.044423021376132965,0.8808116912841797,0.0,0.0039006732404232025,0.8038181662559509,0.0,-0.18478542566299438
884.0,936.0,1.471,-0.1992,10.2018,-0.0486,-0.0553,-0.1252,-1.7109657726683558,-0.18756866455078125,2.0436501502990723,-1.915220022201538,0.14306437969207764,2.1820502281188965,4.972625034838476,1.3942967598268297e-05,0.230767160654068,-1.582926098500387,9.262582849187041e-43,0.05191585421562195,0.8808603286743164,0.0,-0.001616600202396512,0.803801953792572,0.0,-0.21228528022766113
884.0,936.0,1.471,-0.1992,10.2018,-0.0486,-0.0553,-0.1252,-1.7123996220030726,-0.18541434407234192,2.120835304260254,-1.9140254259109497,0.14687655866146088,2.218960762023926,4.972625034838476,2.6034778784378432e-05,0.2247389554977417,-1.5829103628741663,0.0,0.05634111911058426,0.8808075785636902,0.0,0.010226660408079624,0.8037900924682617,0.0,-0.17180465161800385
884.0,936.0,1.471,-0.1992,10.2018,-0.0486,-0.0553,-0.1252,-1.713473459283346,-0.17400027811527252,2.130593776702881,-1.9131343364715576,0.15428376197814941,2.2035655975341797,4.9726126966770074,2.5157654818031006e-05,0.2278996855020523,-1.5828540960894983,0.0,0.047061480581760406,0.8808798789978027,0.0,-0.0037119314074516296,0.8037862777709961,0.0,-0.1671849638223648
884.0,936.0,1.471,-0.1992,10.2018,-0.0486,-0.0553,-0.1252,-1.7149073086180628,-0.16818934679031372,2.154428243637085,-1.9118754863739014,0.16574689745903015,2.215405225753784,4.972633170872488,2.382573984505143e-05,0.22997598350048065,-1.5829418341266077,0.0,0.04274311289191246,0.8808353543281555,0.0,-0.007608211599290371,0.8037900924682617,0.0,-0.22697651386260986
884.0,936.0,1.471,-0.1992,10.2018,-0.0486,-0.0553,-0.1252,-1.716036935845846,-0.1795283406972885,2.1417269706726074,-1.910804271697998,0.17191500961780548,2.179287910461426,4.972604948073187,2.2915763111086562e-05,0.22990378737449646,-1.5828984419452112,0.0,0.04746873676776886,0.8808436989784241,0.0,-0.004105342552065849,0.8038143515586853,0.0,-0.16542789340019226
884.0,936.0,1.471,-0.1992,10.2018,-0.0486,-0.0553,-0.1252,-1.71752991298818,-0.19378577172756195,2.1940741539001465,-1.90937340259552,0.1737307608127594,2.2051048278808594,4.972613024502554,1.0903498150582891e-05,0.2242358922958374,-1.582914177571432,0.0,0.04408479481935501,0.880831241607666,0.0,0.0001819994067773223,0.8038222789764404,0.0,-0.19095544517040253
884.0,936.0,1.471,-0.1992,10.2018,-0.0486,-0.0553,-0.1252,-1.7190200291075648,-0.18133559823036194,2.221651315689087,-1.9079312086105347,0.18143333494663239,2.1593129634857178,4.972585069924154,2.852358011296019e-05,0.23588643968105316,-1.5829022566424769,0.0,0.06043388694524765,0.880831778049469,0.0,0.005092062521725893,0.8038387894630432,0.0,-0.19282716512680054
884.0,936.0,1.471,-0.1992,10.2018,-0.0486,-0.0553,-0.1252,-1.7201367817320765,-0.17819589376449585,2.172672748565674,-1.9068713188171387,0.19128231704235077,2.21018385887146,4.972597348480978,3.015195034095086e-05,0.22397178411483765,-1.5829022566424769,0.0,0.04884609580039978,0.8808763027191162,0.0,-0.00422219093888998,0.8038102388381958,0.0,-0.19801035523414612
884.0,936.0,1.471,-0.1992,10.2018,-0.0486,-0.0553,-0.1252,-1.7216798267760218,-0.18550601601600647,2.1494321823120117,-1.9052708148956299,0.19645187258720398,2.2160122394561768,4.972609030991354,-2.0436909835552797e-05,0.22926712036132812,-1.5829737822162073,0.0,0.04932655766606331,0.8808964490890503,0.0,-0.006887226365506649,0.8037821650505066,0.0,-0.17418843507766724
917.0,916.0,0.8554,-0.1232,9.2172,-0.0403,0.0139,-0.1242,-1.7228290043272914,-0.19711755216121674,2.199871778488159,-1.9040472507476807,0.1988178789615631,2.1806066036224365,4.972609030991354,-2.008964293054305e-05,0.22433435916900635,-1.5829499403582972,0.0,0.04345995560288429,0.8808193206787109,0.0,-0.002129355212673545,0.8038263916969299,0.0,-0.20269063115119934
917.0,916.0,0.8554,-0.1232,9.2172,-0.0403,0.0139,-0.1242,-1.7243849239745082,-0.1920347362756729,2.1811766624450684,-1.9024361371994019,0.2074386477470398,2.2229092121124268,4.972593354969778,-5.53032997174796e-09,0.23021739721298218,-1.582914177571432,0.0,0.040991224348545074,0.8808276653289795,0.0,-0.0025165823753923178,0.8038305044174194,0.0,-0.18928706645965576
917.0,916.0,0.8554,-0.1232,9.2172,-0.0403,0.0139,-0.1242,-1.725560804406637,-0.1815563291311264,2.1908071041107178,-1.9011597633361816,0.21445688605308533,2.2421462535858154,4.972604948073187,-1.5393874326294354e-12,0.2235306054353714,-1.5829342047320765,0.0,0.04309558868408203,0.8807755708694458,0.0,0.007125581614673138,0.8037983179092407,0.0,-0.1774660050868988
917.0,916.0,0.8554,-0.1232,9.2172,-0.0403,0.0139,-0.1242,-1.7270666561522425,-0.19125942885875702,2.207810401916504,-1.89943265914917,0.21636129915714264,2.2513973712921143,4.972585427552023,-2.79776074356504e-17,0.2381574809551239,-1.5829022566424769,0.0,0.0456082820892334,0.8808562755584717,0.0,-0.0025099313352257013,0.8038061261177063,0.0,-0.17942556738853455
917.0,916.0,0.8554,-0.1232,9.2172,-0.0403,0.0139,-0.1242,-1.7281624279417933,-0.2010892927646637,2.1677396297454834,-1.8980599641799927,0.21462181210517883,2.245391845703125,4.972593742399969,-7.787669591465207e-21,0.23496171832084656,-1.5829060713397425,0.0,0.03765801340341568,0.8808116912841797,0.0,-0.008566943928599358,0.803858757019043,0.0,-0.16794344782829285
917.0,916.0,0.8554,-0.1232,9.2172,-0.0403,0.0139,-0.1242,-1.7297212086119593,-0.1983562856912613,2.2205047607421875,-1.8962769508361816,0.22571930289268494,2.2591328620910645,4.972605633526602,-5.6949582358356565e-05,0.2262551188468933,-1.5829222838031214,0.0,0.05600246787071228,0.8808684945106506,0.0,0.0016661856789141893,0.8037937879562378,0.0,-0.1759011149406433
917.0,916.0,0.8554,-0.1232,9.2172,-0.0403,0.0139,-0.1242,-1.7312637768187464,-0.1859484165906906,2.183506488800049,-1.8945425748825073,0.2389887124300003,2.304248809814453,4.972585457354345,-8.976852404884994e-05,0.2232016623020172,-1.5829103628741663,0.0,0.041774433106184006,0.8808353543281555,0.0,-0.010789766907691956,0.8038102388381958,4.139365239463899e-11,-0.16562634706497192
917.0,916.0,0.8554,-0.1232,9.2172,-0.0403,0.0139,-0.1242,-1.7324210606017054,-0.18747228384017944,2.1900975704193115,-1.893117904663086,0.23620668053627014,2.268887519836426,4.972557204752722,-0.00011289577378192917,0.22308975458145142,-1.5828779379474085,0.0,0.05535884201526642,0.8808519840240479,0.0,-0.009662877768278122,0.8037900924682617,9.996080656009314e-17,-0.22759395837783813
917.0,916.0,0.8554,-0.1232,9.2172,-0.0403,0.0139,-0.1242,-1.7339421711363734,-0.19774861633777618,2.226210594177246,-1.8911341428756714,0.24802809953689575,2.2713775634765625,4.972605603724279,-0.00010070425923913717,0.21523892879486084,-1.582914177571432,0.0,0.05422408506274223,0.8807713389396667,0.0,-0.01712806150317192,0.8037979006767273,3.2386027737145043e-24,-0.21469241380691528
917.0,916.0,0.8554,-0.1232,9.2172,-0.0403,0.0139,-0.1242,-1.7350956402220667,-0.20035576820373535,2.2313995361328125,-1.889630913734436,0.2534750998020172,2.3150503635406494,4.972577351122656,-0.00017038400983437896,0.21922749280929565,-1.5829022566424769,0.0,0.05776629596948624,0.8808479309082031,0.0,0.0022978142369538546,0.8038628101348877,7.820845658506684e-30,-0.1895054578781128
917.0,916.0,0.8554,-0.1232,9.2172,-0.0403,0.0139,-0.1242,-1.7367102108397425,-0.205558642745018,2.1844654083251953,-1.8875786066055298,0.24903827905654907,2.3139896392822266,4.972549396544256,-0.0002446322760079056,0.21691828966140747,-1.5828779379474085,0.0,0.041653648018836975,0.8808644413948059,0.0,-0.0168328694999218,0.803801953792572,-5.321905337041244e-05,-0.22148671746253967
917.0,916.0,0.8554,-0.1232,9.2172,-0.0403,0.0139,-0.1242,-1.7378550968565882,-0.20436273515224457,2.1971025466918945,-1.886132001876831,0.2580300271511078,2.299694538116455,4.972585427552023,-0.00016977055929601192,0.22586771845817566,-1.5829222838031214,0.0,0.05020202696323395,0.8807631134986877,0.0,-0.0020114355720579624,0.8037942051887512,-9.040079748956487e-05,-0.2203984260559082
914.0,897.0,1.7037,-0.1866,9.9302,-0.0412,0.0626,-0.1229,-1.739429613152975,-0.19541610777378082,2.2320003509521484,-1.884011149406433,0.2748372256755829,2.3562026023864746,4.9725814042385,-0.00014177797129377723,0.21130383014678955,-1.5828984419452112,0.0,0.05834672600030899,0.8808193206787109,0.0,-0.004025839269161224,0.8038143515586853,-7.527793786721304e-05,-0.2248903512954712
914.0,897.0,1.7037,-0.1866,9.9302,-0.0412,0.0626,-0.1229,-1.7410313091673792,-0.1966298371553421,2.1942055225372314,-1.8818042278289795,0.27484390139579773,2.294989585876465,4.9725814042385,-0.00012248066195752472,0.21240289509296417,-1.5829179922686976,0.0,0.05717312544584274,0.8808803558349609,0.0,-0.005636607762426138,0.8038181662559509,-9.672786109149456e-05,-0.19807901978492737
914.0,897.0,1.7037,-0.1866,9.9302,-0.0412,0.0626,-0.1229,-1.7422977886595667,-0.20330514013767242,2.2019784450531006,-1.880237102508545,0.28166845440864563,2.306041955947876,4.97255306222991,-0.00011113599612144753,0.22726401686668396,-1.5829022566424769,0.0,0.04722766578197479,0.8808518052101135,0.0,0.010997938923537731,0.8038263916969299,-8.734563743928447e-05,-0.2115323841571808
914.0,897.0,1.7037,-0.1866,9.9302,-0.0412,0.0626,-0.1229,-1.743939062158102,-0.2078508585691452,2.223573923110962,-1.8779454231262207,0.2850915491580963,2.371687889099121,4.9726213095481775,-0.00012353830970823765,0.22093990445137024,-1.5829060713397425,0.0,0.05867239087820053,0.8808603286743164,0.0,-0.0020754789002239704,0.8038384318351746,-7.733783422736451e-05,-0.22692230343818665
914.0,897.0,1.7037,-0.1866,9.9302,-0.0412,0.0626,-0.1229,-1.7451721630492152,-0.206532821059227,2.1890463829040527,-1.8761851787567139,0.28560468554496765,2.323307514190674,4.972604948073187,-0.00011423287651268765,0.21245867013931274,-1.5829418341266077,0.0,0.05693167448043823,0.8808399438858032,0.0,0.004182491451501846,0.8038102388381958,-7.121794624254107e-05,-0.22966375946998596
914.0,897.0,1.7037,-0.1866,9.9302,-0.0412,0.0626,-0.1229,-1.7468377552428187,-0.21113495528697968,2.2240142822265625,-1.8738254308700562,0.29719865322113037,2.403254985809326,4.9725569663341425,-8.296503074234352e-05,0.20972946286201477,-1.5829060713397425,0.0,0.050563402473926544,0.8808603286743164,0.0,-0.00819423422217369,0.8038184642791748,-6.442100857384503e-05,-0.2556822896003723
914.0,897.0,1.7037,-0.1866,9.9302,-0.0412,0.0626,-0.1229,-1.7482129536070765,-0.21898671984672546,2.2894973754882812,-1.8720386028289795,0.29650211334228516,2.336576461791992,4.972589599877157,-8.712156704859808e-05,0.20605826377868652,-1.5829022566424769,0.0,0.05426209792494774,0.8808395862579346,0.0,-0.013868425041437149,0.8037821054458618,-6.011785808368586e-05,-0.21115553379058838
914.0,897.0,1.7037,-0.1866,9.9302,-0.0412,0.0626,-0.1229,-1.7499743900694789,-0.21110059320926666,2.2560782432556152,-1.869599461555481,0.30093544721603394,2.3593006134033203,4.972585427552023,-7.143769471440464e-05,0.2191256284713745,-1.5828655401812952,0.0,0.058450955897569656,0.8808197975158691,0.0,0.013019034639000893,0.8037862777709961,-5.520140257431194e-05,-0.18015269935131073
914.0,897.0,1.7037,-0.1866,9.9302,-0.0412,0.0626,-0.1229,-1.7513400516905726,-0.2078857570886612,2.285425901412964,-1.867750883102417,0.3059874475002289,2.36660099029541,4.972553092032232,-6.742370896972716e-05,0.2151438444852829,-1.5829060713397425,0.0,0.056065887212753296,0.8808477520942688,0.0,-0.0014533877838402987,0.8038629293441772,-5.2011313528055325e-05,-0.1899491846561432
914.0,897.0,1.7037,-0.1866,9.9302,-0.0412,0.0626,-0.1229,-1.7530938587584437,-0.22396594285964966,2.2063283920288086,-1.865311861038208,0.3048105835914612,2.3434243202209473,4.972581434040823,-7.84012590884231e-05,0.21225979924201965,-1.5828660170184534,0.0,0.06032978743314743,0.8808075785636902,0.0,0.00429721362888813,0.8038384318351746,-4.348429501987994e-05,-0.21680320799350739
