ramyac6/ROB537/final_project/csv/good/good_211.csv
tof_0,tof_1,accelx,accely,accelz,gyrox,gyroy,gyroz,shoulder_lift_joint_position,shoulder_lift_joint_velocity,shoulder_lift_joint_effort,elbow_joint_position,elbow_joint_velocity,elbow_joint_effort,wrist_1_joint_position,wrist_1_joint_velocity,wrist_1_joint_effort,wrist_2_joint_position,wrist_2_joint_velocity,wrist_2_joint_effort,wrist_3_joint_position,wrist_3_joint_velocity,wrist_3_joint_effort,shoulder_pan_joint_position,shoulder_pan_joint_velocity,shoulder_pan_joint_effort
157.0,203.0,6.0909,-2.8062,6.4463,-0.0405,0.0228,-0.1196,-1.9311100445189417,0.0,3.634669780731201,-0.941585123538971,-0.0,2.07661771774292,3.6219441133686523,0.0,0.26291564106941223,-1.3616798559771937,0.0,-0.01589159667491913,0.8987534642219543,0.0,-0.009234646335244179,1.3428928852081299,0.0,-0.005417210515588522
157.0,203.0,6.0909,-2.8062,6.4463,-0.0405,0.0228,-0.1196,-1.9310976467528285,0.0,3.6629562377929688,-0.9416014552116394,-0.0,2.1068267822265625,3.621895952815674,0.0,0.2547520399093628,-1.3616798559771937,0.0,-0.011511184275150299,0.8986847400665283,0.0,-0.016668079420924187,1.3428488969802856,0.0,-0.010697596706449986
157.0,203.0,6.0909,-2.8062,6.4463,-0.0405,0.0228,-0.1196,-1.9311219654478968,0.0,3.6263315677642822,-0.9416579008102417,-0.0,2.0819547176361084,3.621864004726074,0.0,0.2775149643421173,-1.3616636435138147,0.0,-0.019431179389357567,0.898733377456665,0.0,-0.008289482444524765,1.3429129123687744,0.0,-0.020758775994181633
157.0,203.0,6.0909,-2.8062,6.4463,-0.0405,0.0228,-0.1196,-1.9311262569823207,0.0,3.6152358055114746,-0.9416946172714233,-0.0,2.071028232574463,3.621920271510742,0.0,0.2811267077922821,-1.3616474310504358,0.0,-0.02979365549981594,0.8987371325492859,0.0,-0.008094854652881622,1.3429371118545532,0.0,0.01073466707020998
157.0,203.0,6.0909,-2.8062,6.4463,-0.0405,0.0228,-0.1196,-1.931105752984518,0.0,3.645840644836426,-0.9416738748550415,-0.0,2.0831451416015625,3.621895952815674,0.0,0.25748199224472046,-1.3616917769061487,0.0,-0.01926533505320549,0.8987215161323547,0.0,-0.0056280577555298805,1.3429452180862427,0.0,-0.004803122021257877
157.0,203.0,6.0909,-2.8062,6.4463,-0.0405,0.0228,-0.1196,-1.931133886376852,0.0,3.6145076751708984,-0.941605806350708,-0.0,2.0955936908721924,3.621908350581787,0.0,0.26298287510871887,-1.361716095601217,0.0,-0.02485760487616062,0.898688793182373,0.0,-0.008178457617759705,1.342856764793396,0.0,0.011749735102057457
156.0,212.0,6.0754,-2.7852,6.3571,-0.0351,0.0217,-0.1084,-1.931117673913473,0.0,3.6052403450012207,-0.9416017532348633,-0.0,2.0992586612701416,3.621880217189453,0.0,0.26353883743286133,-1.3616598288165491,0.0,-0.021703124046325684,0.898681104183197,0.0,-0.020335134118795395,1.3428847789764404,0.0,0.05069837346673012
156.0,212.0,6.0754,-2.7852,6.3571,-0.0351,0.0217,-0.1084,-1.9311586819090785,0.0,3.605457305908203,-0.9416340589523315,-0.0,2.1388466358184814,3.62189166128125,0.0,0.27260351181030273,-1.3616755644427698,0.0,-0.031145326793193817,0.8987178802490234,0.0,-0.01304708793759346,1.3428928852081299,0.0,0.009195378050208092
156.0,212.0,6.0754,-2.7852,6.3571,-0.0351,0.0217,-0.1084,-1.9311100445189417,0.0,3.646190643310547,-0.9415779113769531,-0.0,2.0822017192840576,3.6219040590473632,0.0,0.26816150546073914,-1.361687485371725,0.0,-0.019569478929042816,0.8987494111061096,0.0,-0.006144597195088863,1.3428928852081299,0.0,-0.03542390093207359
156.0,212.0,6.0754,-2.7852,6.3571,-0.0351,0.0217,-0.1084,-1.9311257801451625,0.0,3.635921001434326,-0.9415932893753052,-0.0,2.1163077354431152,3.621839686031006,0.0,0.26514047384262085,-1.3616917769061487,0.0,-0.015894103795289993,0.8987298011779785,0.0,-0.008205104619264603,1.3428725004196167,0.0,0.003653363324701786
156.0,212.0,6.0754,-2.7852,6.3571,-0.0351,0.0217,-0.1084,-1.931133886376852,0.0,3.6399996280670166,-0.9416460394859314,-0.0,2.093926429748535,3.621936007136963,0.0,0.26967015862464905,-1.361687485371725,0.0,-0.030294429510831833,0.8987298011779785,0.0,0.0019436645088717341,1.3429330587387085,0.0,-0.0716523677110672
156.0,212.0,6.0754,-2.7852,6.3571,-0.0351,0.0217,-0.1084,-1.931133886376852,0.0,3.6211981773376465,-0.9415738582611084,-0.0,2.131572723388672,3.6219164568134765,0.0,0.25163495540618896,-1.3616793791400355,0.0,-0.0276179201900959,0.8987374305725098,0.0,-0.007610171101987362,1.3429129123687744,0.0,-0.04335612803697586
156.0,212.0,6.0754,-2.7852,6.3571,-0.0351,0.0217,-0.1084,-1.9311419926085414,0.0,3.608167886734009,-0.9415860176086426,-0.0,2.0862412452697754,3.6218554216572265,0.0,0.26384758949279785,-1.3616755644427698,0.0,-0.03092184290289879,0.8986847400665283,0.0,-0.014563128352165222,1.3429011106491089,0.0,0.005471990443766117
156.0,212.0,6.0754,-2.7852,6.3571,-0.0351,0.0217,-0.1084,-1.9311300716795863,0.0,3.604447603225708,-0.9415852427482605,-0.0,2.0950920581817627,3.6219164568134765,0.0,0.2555842101573944,-1.3617237249957483,0.0,-0.022912167012691498,0.8987374305725098,0.0,-0.014782153069972992,1.3428846597671509,0.0,0.050997111946344376
156.0,212.0,6.0754,-2.7852,6.3571,-0.0351,0.0217,-0.1084,-1.9311257801451625,0.0,3.6310083866119385,-0.9416296482086182,-0.0,2.096613883972168,3.6218764024921875,0.0,0.2603226900100708,-1.3616722265826624,0.0,-0.018138011917471886,0.8987255096435547,0.0,-0.006234078202396631,1.3429211378097534,0.0,-0.031030509620904922
156.0,212.0,6.0754,-2.7852,6.3571,-0.0351,0.0217,-0.1084,-1.9311706028380335,0.0,3.6411075592041016,-0.9416700005531311,-0.0,2.1133480072021484,3.621887369746826,0.0,0.2654479742050171,-1.3616917769061487,0.0,-0.028072014451026917,0.8987650871276855,0.0,-0.012719128280878067,1.3428928852081299,0.0,0.03551087528467178
156.0,212.0,6.0754,-2.7852,6.3571,-0.0351,0.0217,-0.1084,-1.931117673913473,0.0,3.6696665287017822,-0.9416258335113525,-0.0,2.1000256538391113,3.6218554216572265,0.0,0.27132904529571533,-1.3616679350482386,0.0,-0.0279696062207222,0.8987534642219543,0.0,-0.0029123814310878515,1.342904806137085,0.0,-0.01750987395644188
156.0,212.0,6.0754,-2.7852,6.3571,-0.0351,0.0217,-0.1084,-1.9311586819090785,0.0,3.622223377227783,-0.9416418671607971,-0.0,2.1041419506073,3.6219121652790527,0.0,0.25526922941207886,-1.3616474310504358,0.0,-0.017296137288212776,0.8987054824829102,0.0,-0.0031868144869804382,1.3428806066513062,0.0,0.01845729723572731
159.0,210.0,6.0802,-2.9121,6.4397,-0.0432,0.022,-0.1239,-1.9311262569823207,0.0,3.609661340713501,-0.9416217803955078,-0.0,2.147799253463745,3.621936007136963,0.0,0.2658081352710724,-1.3616798559771937,0.0,-0.021613895893096924,0.8987374901771545,0.0,-0.0029108717571944,1.3428806066513062,0.0,-0.013129020109772682
159.0,210.0,6.0802,-2.9121,6.4397,-0.0432,0.022,-0.1239,-1.931117673913473,0.0,3.6185507774353027,-0.9416258931159973,-0.0,2.0678207874298096,3.6219240862080078,0.0,0.25100451707839966,-1.3616755644427698,0.0,-0.0229637548327446,0.8987013697624207,0.0,-0.018364794552326202,1.3429371118545532,0.0,-0.02352180704474449
159.0,210.0,6.0802,-2.9121,6.4397,-0.0432,0.022,-0.1239,-1.931129594842428,0.0,3.6384716033935547,-0.94159334897995,-0.0,2.1122853755950928,3.6219679552265625,0.0,0.26297158002853394,-1.361687485371725,0.0,-0.018332896754145622,0.8987054228782654,0.0,-0.0002186172641813755,1.342856764793396,0.0,-0.005156038329005241
159.0,210.0,6.0802,-2.9121,6.4397,-0.0432,0.022,-0.1239,-1.9311143360533656,0.0,3.606762409210205,-0.941614031791687,-0.0,2.0859997272491455,3.621887369746826,0.0,0.26332083344459534,-1.3616717497455042,0.0,-0.021976588293910027,0.8987498879432678,0.0,-0.0006119420286267996,1.3429207801818848,0.0,-0.01887090504169464
159.0,210.0,6.0802,-2.9121,6.4397,-0.0432,0.022,-0.1239,-1.9311219654478968,0.0,3.663374662399292,-0.9416414499282837,-0.0,2.1195621490478516,3.6218721109577636,0.0,0.26555711030960083,-1.361704174672262,0.0,-0.01878431811928749,0.8987138867378235,0.0,-0.003255999879911542,1.3429288864135742,0.0,0.0003431616351008415
159.0,210.0,6.0802,-2.9121,6.4397,-0.0432,0.022,-0.1239,-1.931105752984518,0.0,3.637561798095703,-0.9416094422340393,-0.0,2.156205415725708,3.6218554216572265,0.0,0.2641310393810272,-1.3616755644427698,0.0,-0.026243217289447784,0.8986973166465759,0.0,-0.010594803839921951,1.3428888320922852,0.0,0.03685649856925011
159.0,210.0,6.0802,-2.9121,6.4397,-0.0432,0.022,-0.1239,-1.9311419926085414,0.0,3.644948959350586,-0.9416496753692627,-0.0,2.1307289600372314,3.6218764024921875,0.0,0.258684903383255,-1.3616960684405726,0.0,-0.018064020201563835,0.898733377456665,0.0,-0.01734820567071438,1.3428847789764404,0.0,-0.004297565668821335
159.0,210.0,6.0802,-2.9121,6.4397,-0.0432,0.022,-0.1239,-1.9311100445189417,0.0,3.6547703742980957,-0.9415615797042847,-0.0,2.0804519653320312,3.6218997675129394,0.0,0.2695373296737671,-1.3616717497455042,0.0,-0.025718379765748978,0.8987374305725098,0.0,-0.0003686605195980519,1.3428969383239746,0.0,0.027969032526016235
159.0,210.0,6.0802,-2.9121,6.4397,-0.0432,0.022,-0.1239,-1.93113436321401,0.0,3.6460587978363037,-0.9416414499282837,-0.0,2.136880397796631,3.6219164568134765,0.0,0.2659955322742462,-1.3616798559771937,0.0,-0.02216409146785736,0.8987493515014648,0.0,-0.01648397371172905,1.3428725004196167,0.0,0.02677857130765915
159.0,210.0,6.0802,-2.9121,6.4397,-0.0432,0.022,-0.1239,-1.9311219654478968,0.0,3.633314609527588,-0.9416015148162842,-0.0,2.0922963619232178,3.621895952815674,0.0,0.25747424364089966,-1.3616393248187464,0.0,-0.0212140791118145,0.8986929059028625,0.0,-0.031032562255859375,1.3428806066513062,0.0,-0.0023911986500024796
159.0,210.0,6.0802,-2.9121,6.4397,-0.0432,0.022,-0.1239,-1.9311586819090785,0.0,3.603949785232544,-0.9415900707244873,-0.0,2.1185050010681152,3.6219240862080078,0.0,0.26630067825317383,-1.3617079893695276,0.0,-0.015276584774255753,0.8987814784049988,0.0,0.0020042036194354296,1.3428969383239746,0.0,0.009482769295573235
159.0,210.0,6.0802,-2.9121,6.4397,-0.0432,0.022,-0.1239,-1.9310656986632289,0.0,3.6355018615722656,-0.9416217803955078,-0.0,2.1379952430725098,3.6219402986713867,0.0,0.26419082283973694,-1.3616998831378382,0.0,-0.015413478016853333,0.8987415432929993,0.0,0.00463069137185812,1.3429248332977295,0.0,-0.021171510219573975
158.0,212.0,6.0616,-2.7691,6.4738,-0.0327,0.0171,-0.1258,-1.931150575677389,0.0,3.6542680263519287,-0.941605806350708,-0.0,2.1275765895843506,3.6218554216572265,0.0,0.26261967420578003,-1.3616555372821253,0.0,-0.019721440970897675,0.8986810445785522,0.0,-0.001827075146138668,1.3429288864135742,0.0,0.009693233296275139
158.0,212.0,6.0616,-2.7691,6.4738,-0.0327,0.0171,-0.1258,-1.931117673913473,0.0,3.6301674842834473,-0.9415778517723083,-0.0,2.0962936878204346,3.6218883234211425,0.0,0.24998429417610168,-1.3616717497455042,0.0,-0.01980896294116974,0.89872145652771,0.0,0.0024464703164994717,1.3428765535354614,3.790975089401627e-09,-0.006852022837847471
158.0,212.0,6.0616,-2.7691,6.4738,-0.0327,0.0171,-0.1258,-1.9311100445189417,0.0,3.632014751434326,-0.9416094422340393,-0.0,2.0994415283203125,3.621864004726074,0.0,0.269124299287796,-1.3616598288165491,0.0,-0.024622242897748947,0.8987173438072205,0.0,-0.013995973393321037,1.3428888320922852,9.154758351945843e-15,-0.0010845086071640253
158.0,212.0,6.0616,-2.7691,6.4738,-0.0327,0.0171,-0.1258,-1.9310938320555628,0.0,3.6467843055725098,-0.9416300058364868,-0.0,2.111548900604248,3.6219164568134765,0.0,0.2663865089416504,-1.3616512457477015,0.0,-0.01978795789182186,0.8987174034118652,0.0,-0.013660149648785591,1.3429129123687744,2.9660251171127642e-22,-0.00477371271699667
158.0,212.0,6.0616,-2.7691,6.4738,-0.0327,0.0171,-0.1258,-1.9311629734435023,0.0,3.577979564666748,-0.941605806350708,-0.0,2.124958038330078,3.62186781942334,0.0,0.2601092457771301,-1.3616755644427698,0.0,-0.014015155844390392,0.8987095355987549,0.0,-0.015986686572432518,1.342933177947998,9.609544066559715e-30,0.002450672909617424
158.0,212.0,6.0616,-2.7691,6.4738,-0.0327,0.0171,-0.1258,-1.9311419926085414,0.0,3.650456666946411,-0.941618025302887,-0.0,2.1171228885650635,3.621908350581787,0.0,0.26801231503486633,-1.3617356459247034,0.0,-0.020428413525223732,0.8987210988998413,0.0,0.0035784137435257435,1.3429571390151978,3.113369279003946e-37,-0.009679469279944897
158.0,212.0,6.0616,-2.7691,6.4738,-0.0327,0.0171,-0.1258,-1.9311257801451625,0.0,3.5901615619659424,-0.9415851831436157,-0.0,2.1333062648773193,3.6219441133686523,0.0,0.2729548215866089,-1.3617237249957483,0.0,-0.020444687455892563,0.8987298011779785,0.0,0.000190652790479362,1.3429690599441528,0.00019558213534764946,-0.018996194005012512
158.0,212.0,6.0616,-2.7691,6.4738,-0.0327,0.0171,-0.1258,-1.931133886376852,0.0,3.603713035583496,-0.9415696859359741,-0.0,2.1116645336151123,3.621851606959961,0.0,0.25003206729888916,-1.3616755644427698,0.0,-0.023732729256153107,0.8987539410591125,0.0,-0.002215880434960127,1.3429166078567505,0.00023132396745495498,-0.03907988965511322
158.0,212.0,6.0616,-2.7691,6.4738,-0.0327,0.0171,-0.1258,-1.93113436321401,0.0,3.65915584564209,-0.9415768980979919,-0.0,2.0962259769439697,3.6219283777424316,0.0,0.27278023958206177,-1.3616793791400355,0.0,-0.020152539014816284,0.8987013697624207,0.0,-0.02054802142083645,1.3429690599441528,0.00026367921964265406,0.043951962143182755
158.0,212.0,6.0616,-2.7691,6.4738,-0.0327,0.0171,-0.1258,-1.931129594842428,0.0,3.6395509243011475,-0.9416660070419312,-0.0,2.0965523719787598,3.621908350581787,2.3961963080409987e-08,0.27193909883499146,-1.3616798559771937,0.0,-0.024599973112344742,0.8986728191375732,0.0,-0.007339900359511375,1.3429248332977295,0.00046992581337690353,0.019732829183340073
158.0,212.0,6.0616,-2.7691,6.4738,-0.0327,0.0171,-0.1258,-1.9311586819090785,0.0,3.6009230613708496,-0.9415737986564636,-0.0,2.0871448516845703,3.621880217189453,4.35496907633115e-13,0.262595534324646,-1.3616917769061487,-1.4521984503801377e-08,-0.023179760202765465,0.898681104183197,0.0,-0.010973458178341389,1.3429527282714844,0.00040674066985957325,0.04446389898657799
158.0,212.0,6.0616,-2.7691,6.4738,-0.0327,0.0171,-0.1258,-1.9311462841429652,0.0,3.6049962043762207,-0.9415853023529053,-0.0,2.1449005603790283,3.6219040590473632,7.9149405569402e-18,0.256986141204834,-1.3616755644427698,-2.63929909828306e-13,-0.026608336716890335,0.8987895250320435,0.0,-0.013158293440937996,1.342944860458374,0.0003232523740734905,-0.005737615749239922
153.0,205.0,6.3159,-3.256,6.0407,-0.0501,0.0231,-0.1139,-1.9311462841429652,0.0,3.628739833831787,-0.941662073135376,-0.0,2.1369855403900146,3.6219121652790527,2.2031533543211163e-21,0.2768411934375763,-1.3616960684405726,-7.346586081543994e-17,-0.014020784758031368,0.8987298011779785,0.0,-0.011536208912730217,1.3429125547409058,0.0002801286755129695,-0.034335143864154816
153.0,205.0,6.3159,-3.256,6.0407,-0.0501,0.0231,-0.1139,-1.931105752984518,0.0,3.636066436767578,-0.9416217803955078,-0.0,2.101836681365967,3.6219283777424316,4.004122369433771e-26,0.27238214015960693,-1.3616836706744593,-1.3352056218766171e-21,-0.023182926699519157,0.898676872253418,0.0,0.002698149997740984,1.342932939529419,0.00023782662174198776,-0.04089425131678581
153.0,205.0,6.3159,-3.256,6.0407,-0.0501,0.0231,-0.1139,-1.9311100445189417,0.0,3.6448302268981934,-0.9416620135307312,-0.0,2.0942111015319824,3.6219283777424316,7.277296036251429e-31,0.2650977671146393,-1.3616717497455042,-2.426670035109566e-26,-0.014872897416353226,0.8987534642219543,0.0,-0.006743251346051693,1.3428723812103271,8.091243944363669e-05,-0.007429024204611778
153.0,205.0,6.3159,-3.256,6.0407,-0.0501,0.0231,-0.1139,-1.9311100445189417,0.0,3.6161766052246094,-0.9416258335113525,-0.0,2.1148266792297363,3.6218721109577636,1.3226125197799855e-35,0.2637384831905365,-1.3616350332843226,-4.410353241573312e-31,-0.01716773398220539,0.8987895846366882,0.0,-0.0009011100046336651,1.3429288864135742,6.853032391518354e-05,0.03635498136281967
153.0,205.0,6.3159,-3.256,6.0407,-0.0501,0.0231,-0.1139,-1.931117673913473,0.0,3.627624034881592,-0.9416339993476868,-0.0,2.0921146869659424,3.6219679552265625,2.403787385702791e-40,0.2780272960662842,-1.3616679350482386,-8.015598690028436e-36,-0.021641023457050323,0.8987453579902649,0.0,-0.0054229069501161575,1.3429453372955322,2.973648952320218e-05,-0.019918348640203476
153.0,205.0,6.3159,-3.256,6.0407,-0.0501,0.0231,-0.1139,-1.9311219654478968,0.0,3.6561717987060547,-0.9416300058364868,-0.0,2.0814602375030518,3.6219522196003417,6.726232628759122e-44,0.27205994725227356,-1.3616917769061487,-2.2311712369718673e-39,-0.022504065185785294,0.8987132906913757,0.0,-0.00537235289812088,1.3429290056228638,2.7054742531618103e-05,0.012710162438452244
153.0,205.0,6.3159,-3.256,6.0407,-0.0501,0.0231,-0.1139,-1.9311262569823207,0.0,3.679647922515869,-0.9415932893753052,-0.0,2.1010611057281494,3.6219116884418945,0.0,0.26139387488365173,-1.361716095601217,-4.0637655465419695e-44,-0.01581576094031334,0.8987132906913757,0.0,0.00167757086455822,1.3429172039031982,2.4150675017153844e-05,-0.022880716249346733
153.0,205.0,6.3159,-3.256,6.0407,-0.0501,0.0231,-0.1139,-1.931105752984518,0.0,3.603081464767456,-0.941557765007019,-0.0,2.1898958683013916,3.6219283777424316,0.0,0.275626003742218,-1.3616960684405726,-0.0,-0.042094919830560684,0.8987292647361755,0.0,0.0033037709072232246,1.342932939529419,2.180968840548303e-05,0.022515185177326202
153.0,205.0,6.3159,-3.256,6.0407,-0.0501,0.0231,-0.1139,-1.9310862026610316,0.0,3.6193079948425293,-0.9416014552116394,3.0646282733748365e-10,2.155851364135742,3.621887369746826,0.0,0.26768922805786133,-1.3616717497455042,-0.0,-0.008799820207059383,0.8987374305725098,0.0,-0.009342108853161335,1.3429129123687744,1.9882458218489774e-05,-0.002373735187575221
153.0,205.0,6.3159,-3.256,6.0407,-0.0501,0.0231,-0.1139,-1.9310904941954554,0.0,3.6979665756225586,-0.9416139721870422,9.929007061679227e-18,2.1419644355773926,3.62186781942334,0.0,0.27672502398490906,-1.3616717497455042,-0.0,-0.023631595075130463,0.8987173438072205,0.0,-0.0009949515806511045,1.3429088592529297,1.8268170606461354e-05,0.01952623762190342
153.0,205.0,6.3159,-3.256,6.0407,-0.0501,0.0231,-0.1139,-1.9311024151244105,0.0,3.650728225708008,-0.9416014552116394,2.3977384615703772e-23,2.125255823135376,3.621895952815674,8.37098341435194e-05,0.26931777596473694,-1.3616798559771937,-0.0,-0.022779975086450577,0.898781418800354,0.0,-0.001028186408802867,1.3429571390151978,1.721961234579794e-05,0.019296037033200264
153.0,205.0,6.3159,-3.256,6.0407,-0.0501,0.0231,-0.1139,-1.93113436321401,0.0,3.673830032348633,-0.941642165184021,7.768367735064506e-31,2.0971033573150635,3.621936007136963,8.295603765873238e-05,0.2597866654396057,-1.3617437521563929,-0.0,-0.02614627219736576,0.8986929059028625,0.0,0.0003429783973842859,1.3428887128829956,1.5995467038010247e-05,0.01823812536895275
162.0,214.0,5.8798,-2.6967,6.3111,-0.04,0.0234,-0.1258,-1.9310862026610316,0.0,3.648773193359375,-0.9415655732154846,0.00026570900809019804,2.092078924179077,3.6219441133686523,7.725907198619097e-05,0.2577908933162689,-1.3616717497455042,-0.0,-0.03852732107043266,0.8987293243408203,0.0,-0.0038327560760080814,1.3429371118545532,1.4933803868188988e-05,0.0013468791730701923
162.0,214.0,5.8798,-2.6967,6.3111,-0.04,0.0234,-0.1258,-1.9310580692686976,0.0,3.6435155868530273,-0.941614031791687,0.0002149393258150667,2.097385883331299,3.6218997675129394,8.674473792780191e-05,0.2688943147659302,-1.3616636435138147,-0.0,-0.02007175236940384,0.89872145652771,0.0,-0.0020805024541914463,1.3429207801818848,2.8006057618767954e-05,0.0028986232355237007
162.0,214.0,5.8798,-2.6967,6.3111,-0.04,0.0234,-0.1258,-1.9310862026610316,0.0,3.603783130645752,-0.941557765007019,0.00018045873730443418,2.0709428787231445,3.6219240862080078,8.151477231876925e-05,0.2660442590713501,-1.3616717497455042,-0.0,-0.02572120726108551,0.8987051248550415,0.0,-0.0047567421570420265,1.342932939529419,2.6367511964053847e-05,-0.007502187509089708
162.0,214.0,5.8798,-2.6967,6.3111,-0.04,0.0234,-0.1258,-1.9310375652708949,0.0,3.603018283843994,-0.9415616989135742,0.00016107945702970028,2.1269874572753906,3.621920271510742,7.79832698754035e-05,0.26306986808776855,-1.3616636435138147,-0.0,-0.03163713216781616,0.8987539410591125,0.0,-0.003582492470741272,1.342932939529419,2.5257555535063148e-05,0.0072919465601444244
162.0,214.0,5.8798,-2.6967,6.3111,-0.04,0.0234,-0.1258,-1.931066175500387,0.0,3.620725154876709,-0.9415618181228638,0.00014090370677877218,2.0896081924438477,3.621932192439697,7.372455729637295e-05,0.27334463596343994,-1.3616755644427698,-0.0,-0.03082205541431904,0.8987255692481995,0.0,0.00615920964628458,1.342932939529419,2.3915275960462168e-05,-0.016459541395306587
162.0,214.0,5.8798,-2.6967,6.3111,-0.04,0.0234,-0.1258,-1.931066175500387,0.0,3.653688907623291,-0.9415499567985535,0.00012522010365501046,2.099742889404297,3.621875448817871,6.990684050833806e-05,0.265739381313324,-1.3617361227618616,-0.0,-0.020598212257027626,0.89872145652771,0.0,-0.01483437791466713,1.3429207801818848,2.270846198371146e-05,0.007416300009936094
162.0,214.0,5.8798,-2.6967,6.3111,-0.04,0.0234,-0.1258,-1.9310780964293421,0.0,3.6279444694519043,-0.9415932297706604,0.00011267813533777371,2.1120619773864746,3.6219040590473632,6.646512338193133e-05,0.2798839211463928,-1.3617361227618616,-0.0,-0.032116763293743134,0.8987297415733337,0.0,-0.009514246135950089,1.3429932594299316,2.1617575839627534e-05,-0.0017715325811877847
162.0,214.0,5.8798,-2.6967,6.3111,-0.04,0.0234,-0.1258,-1.9311143360533656,0.0,3.608161449432373,-0.9416217803955078,0.00010241990094073117,2.0853209495544434,3.6219116884418945,6.334644422167912e-05,0.2688140571117401,-1.3616555372821253,-0.0,-0.025843441486358643,0.8987458348274231,0.0,-0.00033659464679658413,1.3429371118545532,2.0626725017791614e-05,-0.019883325323462486
162.0,214.0,5.8798,-2.6967,6.3111,-0.04,0.0234,-0.1258,-1.9310862026610316,0.0,3.6301541328430176,-0.9415292739868164,7.510920113418251e-05,2.1202940940856934,3.621895952815674,5.173630779609084e-05,0.26506534218788147,-1.361643139516012,-0.0,-0.02469630353152752,0.8986526727676392,0.0,-0.0005617646966129541,1.3429248332977295,2.2970373265707167e-06,0.0017237246502190828
162.0,214.0,5.8798,-2.6967,6.3111,-0.04,0.0234,-0.1258,-1.9310981235899867,0.0,3.613734245300293,-0.9415414333343506,7.067593833198771e-05,2.1130824089050293,3.621908350581787,4.1972961639658024e-07,0.26351410150527954,-1.3616917769061487,-0.0,-0.014920508489012718,0.8987895846366882,0.0,-0.0003694405313581228,1.3429248332977295,5.547075385831102e-12,-0.013870570808649063
162.0,214.0,5.8798,-2.6967,6.3111,-0.04,0.0234,-0.1258,-1.9311019382872523,0.0,3.6309080123901367,-0.9416340589523315,6.552995182573795e-05,2.0690619945526123,3.621936007136963,7.62837709666897e-12,0.26569706201553345,-1.3616917769061487,-0.0,-0.017238350585103035,0.898741602897644,0.0,-0.0036838280502706766,1.342932939529419,1.7971817126815783e-19,-0.021042564883828163
162.0,214.0,5.8798,-2.6967,6.3111,-0.04,0.0234,-0.1258,-1.9311100445189417,2.054536344076041e-05,3.6256301403045654,-0.9416500329971313,6.108256638981402e-05,2.1288187503814697,3.6218721109577636,1.3864199546455926e-16,0.26433777809143066,-1.3616841475116175,-0.0,-0.017779801040887833,0.8987297415733337,0.0,-0.007089952938258648,1.3429088592529297,5.8226408897065975e-27,0.023961730301380157
155.0,214.0,6.1256,-2.6764,6.3996,-0.018,0.0215,-0.1177,-1.9311024151244105,2.8716907763737254e-05,3.618793487548828,-0.941662073135376,5.720046829083003e-05,2.1009135246276855,3.621887369746826,2.5197498675304686e-21,0.2583557069301605,-1.3616960684405726,-0.0,-0.025444824248552322,0.89872145652771,0.0,-0.003644125070422888,1.3429371118545532,1.8864616884090458e-34,-0.021878663450479507
155.0,214.0,6.1256,-2.6764,6.3996,-0.018,0.0215,-0.1177,-1.9311138592162074,2.6994250220013782e-05,3.606139659881592,-0.9415860176086426,5.378232162911445e-05,2.110865831375122,3.621920271510742,4.579520595189888e-26,0.261310338973999,-1.3616755644427698,-0.0,-0.016640204936265945,0.8987493515014648,0.0,0.0017119722906500101,1.3429166078567505,6.112463901384852e-42,0.002662056125700474
155.0,214.0,6.1256,-2.6764,6.3996,-0.018,0.0215,-0.1177,-1.9310900173582972,2.5832088795141317e-05,3.665248155593872,-0.9416378140449524,5.1475315558491275e-05,2.122411012649536,3.62186781942334,1.2747265370373477e-29,0.2656797468662262,-1.3616598288165491,-0.0,-0.011249052360653877,0.8987095355987549,0.0,-0.004206528887152672,1.3429371118545532,0.0,-0.015653368085622787
155.0,214.0,6.1256,-2.6764,6.3996,-0.018,0.0215,-0.1177,-1.931066175500387,2.442974437144585e-05,3.623966932296753,-0.9416015148162842,4.869049371336587e-05,2.096652030944824,3.6219159799763183,2.3167521990881355e-34,0.27519655227661133,-1.3616755644427698,-0.0,-0.024963796138763428,0.8987054824829102,0.0,0.0014781418722122908,1.3429248332977295,0.0,-0.03951170668005943
155.0,214.0,6.1256,-2.6764,6.3996,-0.018,0.0215,-0.1177,-1.9311381779112757,3.475696939858608e-05,3.6708171367645264,-0.9416258335113525,4.619156243279576e-05,2.134786367416382,3.621920271510742,4.210582389246209e-39,0.2570561170578003,-1.3617118040667933,-0.0,-0.01807294599711895,0.8987054824829102,0.0,-0.013597304932773113,1.3429083824157715,0.0,-0.00039508938789367676
155.0,214.0,6.1256,-2.6764,6.3996,-0.018,0.0215,-0.1177,-1.9311262569823207,3.30555958498735e-05,3.649752616882324,-0.9416378140449524,1.3706316167372279e-05,2.1085000038146973,3.6219441133686523,7.707141553786494e-44,0.2536443769931793,-1.3616755644427698,-0.0,-0.015557507053017616,0.89872145652771,0.0,-0.0015678911004215479,1.342944860458374,0.0,-0.004139036871492863
155.0,214.0,6.1256,-2.6764,6.3996,-0.018,0.0215,-0.1177,-1.9310819111266078,3.151243072352372e-05,3.623244047164917,-0.9415860176086426,1.2549007806228474e-05,2.099078416824341,3.621936007136963,0.0,0.2598504424095154,-1.3617079893695276,-0.0,-0.01701865717768669,0.8987854719161987,0.0,-0.008609560318291187,1.342908501625061,0.0,-0.052123017609119415
155.0,214.0,6.1256,-2.6764,6.3996,-0.018,0.0215,-0.1177,-1.9310981235899867,3.0446424716501497e-05,3.688019037246704,-0.9416300058364868,1.2045165021845605e-05,2.1337037086486816,3.621932192439697,0.0,0.2719011902809143,-1.3616917769061487,-0.0,-0.019225001335144043,0.8987054228782654,0.0,-0.009075574576854706,1.3429648876190186,0.0,-0.009269692935049534
155.0,214.0,6.1256,-2.6764,6.3996,-0.018,0.0215,-0.1177,-1.93113436321401,5.3593787185945985e-09,3.6246228218078613,-0.9415820240974426,1.1433126019255724e-05,2.117258310317993,3.6219441133686523,0.0,0.2799079716205597,-1.3617199102984827,-0.0,-0.02346808835864067,0.8987458348274231,0.0,-0.008392787538468838,1.3429408073425293,0.0,-0.02404186688363552
155.0,214.0,6.1256,-2.6764,6.3996,-0.018,0.0215,-0.1177,-1.9310981235899867,1.7363705580125227e-16,3.639695644378662,-0.9415820240974426,1.0880262379941996e-05,2.1027069091796875,3.6219398218342285,0.0,0.27304112911224365,-1.3617199102984827,-0.0,-0.01894567906856537,0.89872145652771,0.0,-0.0020154789090156555,1.3429571390151978,0.0,0.006634985096752644
155.0,214.0,6.1256,-2.6764,6.3996,-0.018,0.0215,-0.1177,-1.931054254571432,5.6256199450511585e-24,3.6365554332733154,-0.9416014552116394,1.03784059319878e-05,2.1361494064331055,3.621997042293213,8.049109112562292e-08,0.26607197523117065,-1.361711327229635,-0.0,-0.014731263741850853,0.8987095355987549,0.0,-0.00832805223762989,1.3429769277572632,0.0,0.036719921976327896
155.0,214.0,6.1256,-2.6764,6.3996,-0.018,0.0215,-0.1177,-1.9311100445189417,1.8226291465290644e-31,3.628169536590576,-0.9415737390518188,9.920807315211277e-06,2.103297472000122,3.6218792635151367,1.4628856936579893e-12,0.2574853301048279,-1.3616636435138147,-0.0,-0.017156116664409637,0.898733913898468,0.0,0.004787071142345667,1.3429206609725952,0.0002545180614106357,0.04181633144617081
159.0,211.0,6.3494,-2.7918,6.4044,-0.0298,0.0061,-0.1197,-1.9311062298216761,4.401434980139918e-37,3.5761075019836426,-0.9415539503097534,2.3957584180389624e-11,2.0973894596099854,3.621959848994873,4.0719962797793735e-16,0.25830918550491333,-1.361727539693014,-0.0,-0.014100109227001667,0.8986727595329285,0.0,-0.014208078384399414,1.3429489135742188,0.00021764628763776273,0.022304758429527283
159.0,211.0,6.3494,-2.7918,6.4044,-0.0298,0.0061,-0.1197,-1.9311219654478968,1.401298464324817e-44,3.6428751945495605,-0.9415778517723083,7.761951124504256e-19,2.1335861682891846,3.621895952815674,7.400651654573392e-21,0.2626723647117615,-1.3617356459247034,-0.0,-0.010873766615986824,0.8987494111061096,0.0,-0.010914240963757038,1.3429769277572632,0.0002509951882530004,-0.02212735079228878
159.0,211.0,6.3494,-2.7918,6.4044,-0.0298,0.0061,-0.1197,-1.931105752984518,-1.5699823052273132e-05,3.6598758697509766,-0.9415851831436157,2.5147736263455046e-26,2.1108362674713135,3.6219116884418945,1.345031879007531e-25,0.27167582511901855,-1.3617151419269007,-0.0,-0.012767070904374123,0.8987974524497986,0.0,0.001905829762108624,1.3429890871047974,0.00041396141750738025,-0.032772667706012726
159.0,211.0,6.3494,-2.7918,6.4044,-0.0298,0.0061,-0.1197,-1.9310780964293421,-2.928662797785364e-05,3.6479685306549072,-0.9415820240974426,8.14754603680113e-34,2.086390495300293,3.621931715602539,2.4445285235519364e-30,0.2620011568069458,-1.3617151419269007,-0.0,-0.026190968230366707,0.8987255096435547,0.0,6.946377106942236e-05,1.3430050611495972,0.0011498505482450128,-0.03549014404416084
159.0,211.0,6.3494,-2.7918,6.4044,-0.0298,0.0061,-0.1197,-1.931117673913473,-2.7557398425415158e-05,3.6661529541015625,-0.9415540099143982,2.6397660470950904e-41,2.1264071464538574,3.62197653829541,4.4428098845113105e-35,0.2631850242614746,-1.3617475668536585,-0.0,-0.02152557671070099,0.8987452983856201,0.0,-0.009775971993803978,1.343032956123352,0.0019160013180226088,-0.0005659996531903744
159.0,211.0,6.3494,-2.7918,6.4044,-0.0298,0.0061,-0.1197,-1.9311868153014125,-2.6347321181674488e-05,3.5905468463897705,-0.941618025302887,0.0,2.1213860511779785,3.62197653829541,1.2366723793076268e-38,0.2621667683124542,-1.3617351690875452,-0.0,-0.025851815938949585,0.8987054824829102,0.0,0.0006737229414284229,1.3430047035217285,0.002668594941496849,0.016860589385032654
159.0,211.0,6.3494,-2.7918,6.4044,-0.0298,0.0061,-0.1197,-1.931133886376852,-2.4890026907087304e-05,3.5993547439575195,-0.9415974617004395,-0.0,2.0939433574676514,3.6219398218342285,2.2420775429197073e-43,0.2625553011894226,-1.3617475668536585,-0.0,-0.010398884303867817,0.8986528515815735,0.0,0.002807795535773039,1.3429923057556152,0.0051587726920843124,0.01771310158073902
159.0,211.0,6.3494,-2.7918,6.4044,-0.0298,0.0061,-0.1197,-1.9311419926085414,-2.3585509552503936e-05,3.5895133018493652,-0.9416217803955078,-0.0,2.110983371734619,3.6219240862080078,0.0,0.2632777690887451,-1.3617156187640589,-0.0,-0.03336091339588165,0.8987137675285339,0.0,-0.0031099936459213495,1.3430883884429932,0.006375052500516176,0.015207466669380665
159.0,211.0,6.3494,-2.7918,6.4044,-0.0298,0.0061,-0.1197,-1.9311262569823207,-1.1206173439859413e-05,3.644268274307251,-0.941545844078064,-0.0,2.101799249649048,3.621983690852783,0.0,0.2634911835193634,-1.3617313543902796,-0.0,-0.009821855463087559,0.8986888527870178,0.0,0.0014859328512102365,1.3431445360183716,0.004379851743578911,0.051276084035634995
159.0,211.0,6.3494,-2.7918,6.4044,-0.0298,0.0061,-0.1197,-1.9310981235899867,-1.067389348463621e-05,3.66326642036438,-0.9415860176086426,-0.0,2.115967273712158,3.6219560342976074,0.00010099073551828042,0.2687300443649292,-1.3617680708514612,-0.0,-0.024888625368475914,0.8987054824829102,0.0,-0.005632968153804541,1.34320068359375,0.0026150366757065058,-0.0018626293167471886
159.0,211.0,6.3494,-2.7918,6.4044,-0.0298,0.0061,-0.1197,-1.931166788140768,-1.0190471584792249e-05,3.5852622985839844,-0.9415900707244873,-0.0,2.1062726974487305,3.6219684320637207,9.323286212747917e-05,0.2679538130760193,-1.361727539693014,-0.0,-0.029199277982115746,0.8986769914627075,0.0,-0.0037814949173480272,1.343172311782837,0.001555583206936717,-0.016891848295927048
159.0,211.0,6.3494,-2.7918,6.4044,-0.0298,0.0061,-0.1197,-1.931105752984518,-3.9172053334368684e-07,3.616985321044922,-0.9415700435638428,-0.0,2.074667453765869,3.621959848994873,9.641477663535625e-05,0.2636774480342865,-1.3616793791400355,-0.0,-0.010798498056828976,0.8987211585044861,0.0,-0.007534509524703026,1.3432002067565918,0.0012101951288059354,-0.010397248901426792
155.0,218.0,6.3649,-2.8618,6.6808,-0.0496,0.0006,-0.1214,-1.9311462841429652,-1.2691245420575793e-14,3.6311728954315186,-0.9415581226348877,0.00017626321641728282,2.091252088546753,3.621927424068115,8.156552939908579e-05,0.28340277075767517,-1.3617880980121058,-0.0,-0.015798361971974373,0.8987293243408203,0.0,-0.006013163831084967,1.3432042598724365,0.0010082934750244021,-0.007392999716103077
155.0,218.0,6.3649,-2.8618,6.6808,-0.0496,0.0006,-0.1214,-1.9311219654478968,-4.1118012795178467e-22,3.6766481399536133,-0.9416024684906006,0.0012939395383000374,2.093569278717041,3.621992273921631,0.00010623212438076735,0.2700769901275635,-1.3617356459247034,-0.0,-0.022164449095726013,0.89872145652771,6.135243424409964e-10,-0.002876347629353404,1.3432084321975708,0.0008125227759592235,-0.035545751452445984
155.0,218.0,6.3649,-2.8618,6.6808,-0.0496,0.0006,-0.1214,-1.9311143360533656,-1.3321713096738965e-29,3.6395797729492188,-0.941569983959198,0.0007251258357428014,2.0871548652648926,3.6219393449970703,9.957893053069711e-05,0.2638859748840332,-1.3617079893695276,-0.0,-0.02022964507341385,0.8986728191375732,1.1150500112816746e-14,-0.008657298982143402,1.3432165384292603,0.0008613372920081019,-0.004372632130980492
155.0,218.0,6.3649,-2.8618,6.6808,-0.0496,0.0006,-0.1214,-1.9310976467528285,-4.316065635615707e-37,3.6143088340759277,-0.9416055679321289,0.00015308326692320406,2.0872979164123535,3.621983690852783,0.00010058396583190188,0.265026330947876,-1.3617280165301722,-0.0,-0.043976955115795135,0.8987095355987549,2.0265484275379052e-19,0.0001070232829079032,1.3432124853134155,0.0009912368841469288,0.037053704261779785
155.0,218.0,6.3649,-2.8618,6.6808,-0.0496,0.0006,-0.1214,-1.9311663113036097,-1.0425660574576639e-42,3.594083309173584,-0.9415621757507324,0.00014166059554554522,2.0935254096984863,3.6219684320637207,9.801710257306695e-05,0.2655123770236969,-1.3617079893695276,-0.0,-0.019752833992242813,0.8987297415733337,5.640972046013755e-23,0.006652332842350006,1.3432281017303467,0.0009357173694297671,0.005150249227881432
155.0,218.0,6.3649,-2.8618,6.6808,-0.0496,0.0006,-0.1214,-1.9311500988402308,-0.0001045935568981804,3.6152920722961426,-0.9415373802185059,5.3960517107043415e-05,2.127825975418091,3.621932192439697,-7.7399643487297e-05,0.2622367739677429,-1.3617156187640589,-0.0,-0.017107369378209114,0.8987534046173096,1.0252188280124882e-27,-0.004784123506397009,1.3432520627975464,0.0013571589952334762,-0.011324381455779076
155.0,218.0,6.3649,-2.8618,6.6808,-0.0496,0.0006,-0.1214,-1.9311539135374964,-0.0005879446980543435,3.6188154220581055,-0.9415941834449768,3.5555594579683714e-10,2.091249942779541,3.6219398218342285,-0.00014088460011407733,0.2620980143547058,-1.3616717497455042,-0.0,-0.018366478383541107,0.8987452983856201,1.8632843239488637e-32,0.008183999918401241,1.3432077169418335,0.0013115399051457644,0.01354314386844635
155.0,218.0,6.3649,-2.8618,6.6808,-0.0496,0.0006,-0.1214,-1.9311658344664515,-0.00038934691110625863,3.6178784370422363,-0.9415819644927979,1.1519558747152329e-17,2.098466396331787,3.621919794673584,-0.00010767768981168047,0.26564761996269226,-1.3617118040667933,-0.0,-0.021073516458272934,0.8987575173377991,3.386427194593297e-37,-0.011345327831804752,1.343263864517212,0.0014593274099752307,0.0020370734855532646
155.0,218.0,6.3649,-2.8618,6.6808,-0.0496,0.0006,-0.1214,-1.9311539135374964,-0.0002892245538532734,3.6097512245178223,-0.9416096210479736,3.73219018249051e-25,2.123072624206543,3.621919794673584,-8.6880725575611e-05,0.2582716941833496,-1.3616917769061487,-0.0,-0.022388428449630737,0.8986725807189941,6.154502855314597e-42,-0.005285090766847134,1.3432559967041016,0.001464749570004642,0.042648933827877045
155.0,218.0,6.3649,-2.8618,6.6808,-0.0496,0.0006,-0.1214,-1.9311500988402308,-0.00019466024241410196,3.645951271057129,-0.9416014552116394,9.012800127585118e-31,2.1201114654541016,3.6219441133686523,-7.58890964789316e-05,0.2672994136810303,-1.3617079893695276,-0.0,-0.01941552385687828,0.8987575173377991,1.401298464324817e-45,-0.018176458775997162,1.3432642221450806,0.0009377792594023049,0.0069593023508787155
155.0,218.0,6.3649,-2.8618,6.6808,-0.0496,0.0006,-0.1214,-1.9311219654478968,-0.0001196834709844552,3.6051721572875977,-0.9415415525436401,2.9200324661926826e-38,2.0832114219665527,3.621895952815674,-3.2507017749594525e-05,0.2689096927642822,-1.3617079893695276,-0.0,-0.01833847537636757,0.8988212943077087,0.0,-0.010687926784157753,1.343196153640747,0.0004609755997080356,0.005266471765935421
155.0,218.0,6.3649,-2.8618,6.6808,-0.0496,0.0006,-0.1214,-1.931150575677389,0.0001301146112382412,3.6108126640319824,-0.9416464567184448,1.401298464324817e-45,2.0894346237182617,3.621992273921631,-2.8373235181788914e-05,0.25493472814559937,-1.3617079893695276,-0.0,-0.02529253624379635,0.8987212181091309,3.9622860548149674e-11,-0.01568421721458435,1.343196153640747,-0.00021208527323324233,0.004847489297389984
156.0,215.0,5.8941,-3.3553,6.5252,-0.0266,0.0414,-0.128,-1.9311019382872523,0.00011283207277301699,3.634047508239746,-0.9415900707244873,-0.0,2.0558595657348633,3.6219355302998046,-2.5195728085236624e-05,0.26602500677108765,-1.3616793791400355,-0.0,-0.016895698383450508,0.8987095355987549,7.201258653550104e-16,0.013474073261022568,1.343184232711792,-0.001867543556727469,-0.039576273411512375
156.0,215.0,5.8941,-3.3553,6.5252,-0.0266,0.0414,-0.128,-1.931129594842428,9.667187987361103e-05,3.6639814376831055,-0.9416014552116394,-0.0,2.0911240577697754,3.6219441133686523,-2.265826697112061e-05,0.2760310173034668,-1.3617156187640589,-0.0,-0.01790759712457657,0.8987452983856201,1.3087931956181734e-20,-0.009915148839354515,1.3431599140167236,-0.0016569769941270351,-0.04121275618672371
156.0,215.0,5.8941,-3.3553,6.5252,-0.0266,0.0414,-0.128,-1.9311863384642542,8.729502587812021e-05,3.6197397708892822,-0.9415740966796875,-0.0,2.101125955581665,3.6219441133686523,-2.1067060515633784e-05,0.26021242141723633,-1.3617437521563929,-0.0,-0.028290826827287674,0.89872145652771,3.6430740451418896e-24,-0.009362870827317238,1.3431482315063477,-0.001194363459944725,-0.01380184292793274
156.0,215.0,5.8941,-3.3553,6.5252,-0.0266,0.0414,-0.128,-1.9311462841429652,5.165401671547443e-05,3.6541190147399902,-0.9415932893753052,-0.0,2.107776165008545,3.621947928065918,-1.926333425217308e-05,0.25885048508644104,-1.3616674582110804,-0.0,-0.014683425426483154,0.8987854719161987,6.621107611266484e-29,0.003805522806942463,1.343116283416748,-0.0016554328612983227,-0.04080681502819061
156.0,215.0,5.8941,-3.3553,6.5252,-0.0266,0.0414,-0.128,-1.9311138592162074,6.935562123544514e-05,3.650942087173462,-0.9415820240974426,-0.0,2.1001710891723633,3.6219441133686523,-1.7744141587172635e-05,0.27249911427497864,-1.3617199102984827,-0.0,-0.009699270129203796,0.8987293243408203,1.2033536587722719e-33,-0.0011055306531488895,1.343096137046814,-0.0015845440793782473,-0.0027155447751283646
156.0,215.0,5.8941,-3.3553,6.5252,-0.0266,0.0414,-0.128,-1.931133886376852,8.140077989082783e-05,3.6241836547851562,-0.941554069519043,-3.1195584597298875e-05,2.0951452255249023,3.621987982387207,-8.351741598744411e-06,0.2656500041484833,-1.3617599646197718,-0.0,-0.024363193660974503,0.8988258242607117,2.1870360806693393e-38,0.000429641455411911,1.3430960178375244,-0.0010248575126752257,0.022896675392985344
156.0,215.0,5.8941,-3.3553,6.5252,-0.0266,0.0414,-0.128,-1.9310981235899867,0.00014524211292155087,3.625638484954834,-0.9415538311004639,5.552871152758598e-05,2.0853114128112793,3.621959848994873,-1.5178876211496828e-10,0.2658613920211792,-1.3616955916034144,-0.0,-0.008235597983002663,0.89872145652771,3.9796876386824805e-43,-0.014826837927103043,1.3431285619735718,-0.0002896983933169395,0.013369917869567871
156.0,215.0,5.8941,-3.3553,6.5252,-0.0266,0.0414,-0.128,-1.9310938320555628,0.00018616984016261995,3.6383283138275146,-0.9415581226348877,6.795776425860822e-05,2.0788841247558594,3.6220123010822753,-4.2250958862209004e-14,0.2651902437210083,-1.361739460621969,-0.0,-0.03518957272171974,0.8987014293670654,0.0,-0.002826147712767124,1.3431847095489502,-1.2911099247503444e-06,-0.02081582136452198
156.0,215.0,5.8941,-3.3553,6.5252,-0.0266,0.0414,-0.128,-1.9310780964293421,0.0005712907295674086,3.6277596950531006,-0.9415374398231506,0.00041112411417998374,2.123218059539795,3.622004194850586,0.0006653042510151863,0.26656994223594666,-1.361795727406637,-0.0,-0.021842829883098602,0.8987853527069092,0.0,-0.008014246821403503,1.343204379081726,0.0019435710273683071,-0.022344347089529037
156.0,215.0,5.8941,-3.3553,6.5252,-0.0266,0.0414,-0.128,-1.93113436321401,0.0003788606554735452,3.6112570762634277,-0.9414893984794617,0.0004227542376611382,2.0870466232299805,3.621987982387207,0.0005500142578966916,0.26609814167022705,-1.3617995421039026,-0.0005173042300157249,-0.03260723873972893,0.8987095355987549,0.0,-0.004317222163081169,1.3432806730270386,0.004164800513535738,0.01800454780459404
156.0,215.0,5.8941,-3.3553,6.5252,-0.0266,0.0414,-0.128,-1.931105752984518,0.00018963596085086465,3.5596580505371094,-0.9415663480758667,0.00019352487288415432,2.07904052734375,3.6219960886188964,0.0003268401778768748,0.26719096302986145,-1.3617914358722132,-0.0008087105816230178,-0.015106018632650375,0.8987377882003784,0.0,-0.007782568223774433,1.3432719707489014,0.004386750515550375,0.07425068318843842
156.0,215.0,5.8941,-3.3553,6.5252,-0.0266,0.0414,-0.128,-1.9311462841429652,-0.00025619936059229076,3.5380687713623047,-0.941569983959198,2.8251452022232115e-06,2.108241558074951,3.621964140529297,0.00015843147411942482,0.2606237828731537,-1.3617833296405237,-0.0006454198737628758,-0.03251904249191284,0.8986685276031494,0.0,0.0056315818801522255,1.343295693397522,0.00448423158377409,0.1037711352109909
159.0,216.0,5.4838,-3.9972,6.6084,-0.0956,0.0675,-0.1119,-1.931150575677389,-0.0009420051355846226,3.5070199966430664,-0.9416014552116394,6.822393778388447e-12,2.0761501789093018,3.621919794673584,-0.00016879064787644893,0.2462170273065567,-1.3618157545672815,-0.0005413357284851372,-0.03893211856484413,0.8987534046173096,0.0,0.00812465138733387,1.3432998657226562,0.004182477481663227,0.1749422252178192
159.0,216.0,5.4838,-3.9972,6.6084,-0.0956,0.0675,-0.1119,-1.9311701260008753,-0.0011417552595958114,3.535490036010742,-0.9416014552116394,2.210368509915531e-19,2.0472068786621094,3.6219236093708496,-0.0008821574738249183,0.24905213713645935,-1.3618114630328577,-0.0004461529606487602,-0.03190339729189873,0.8987617492675781,0.0,-0.0032928448636084795,1.3433682918548584,0.0025704754516482353,0.14843910932540894
159.0,216.0,5.4838,-3.9972,6.6084,-0.0956,0.0675,-0.1119,-1.9311658344664515,-0.0009761058026924729,3.482128381729126,-0.9416217803955078,-0.0006320335087366402,2.0169358253479004,3.621908350581787,-0.0008210614905692637,0.24929124116897583,-1.3618195692645472,-0.00035036931512877345,-0.042403049767017365,0.8987054824829102,0.0,-0.009747536852955818,1.3432998657226562,0.0007214429788291454,0.11006183922290802
159.0,216.0,5.4838,-3.9972,6.6084,-0.0956,0.0675,-0.1119,-1.931185861627096,-0.0007551426533609629,3.4779105186462402,-0.9416176676750183,-0.0005345593672245741,2.038331985473633,3.621895952815674,-0.00048244043136946857,0.23806920647621155,-1.361807648335592,-0.00028659350937232375,-0.05723734200000763,0.8986687660217285,0.0,0.0011838247301056981,1.3432756662368774,-0.0005859043449163437,0.20234112441539764
159.0,216.0,5.4838,-3.9972,6.6084,-0.0956,0.0675,-0.1119,-1.931230207482809,-0.000441281619714573,3.4810304641723633,-0.9416300058364868,-0.0004121399251744151,2.0511527061462402,3.6219116884418945,-0.00033752783201634884,0.23883435130119324,-1.3617919127093714,-8.509134931955487e-05,-0.049099233001470566,0.8987374901771545,0.0,-0.006513665895909071,1.343291997909546,-0.000691780645865947,0.22432760894298553
159.0,216.0,5.4838,-3.9972,6.6084,-0.0956,0.0675,-0.1119,-1.9311653576292933,-0.00038030894938856363,3.4809412956237793,-0.9415820240974426,-0.0003353488282300532,2.0587141513824463,3.621936007136963,-0.00025959586491808295,0.23635588586330414,-1.3617799917804163,-7.154813647503033e-05,-0.06117890775203705,0.8987054824829102,0.0,-0.009611411951482296,1.343300223350525,-0.00035318871960043907,0.16018790006637573
159.0,216.0,5.4838,-3.9972,6.6084,-0.0956,0.0675,-0.1119,-1.9312097034850062,-0.000366201507858932,3.51536226272583,-0.9416376948356628,-0.00029423346859402955,2.0290942192077637,3.621887369746826,-0.00022128493583295494,0.2458862066268921,-1.3617633024798792,-6.392423529177904e-05,-0.0518636628985405,0.8987575769424438,0.0,-0.012800611555576324,1.3433161973953247,-0.0002002791006816551,0.20127925276756287
159.0,216.0,5.4838,-3.9972,6.6084,-0.0956,0.0675,-0.1119,-1.9312058887877406,-0.0003396155370865017,3.476889133453369,-0.9416094422340393,-0.0002528929617255926,2.008765935897827,3.6219159799763183,-0.0001849057007348165,0.24612843990325928,-1.3617799917804163,-5.5972130212467164e-05,-0.04728950187563896,0.8987374305725098,0.0,-0.003264734987169504,1.3433277606964111,0.0003595750604290515,0.20544368028640747
159.0,216.0,5.4838,-3.9972,6.6084,-0.0956,0.0675,-0.1119,-1.931242128411764,-0.00034824927570298314,3.4533140659332275,-0.9416098594665527,-0.0002217386063421145,2.0358591079711914,3.621932192439697,-0.00015880056889727712,0.2506752610206604,-1.3618000189410608,-4.977990101906471e-05,-0.06146137788891792,0.8986852169036865,0.0,-0.0051514627411961555,1.343371868133545,0.0018038140842691064,0.16963908076286316
159.0,216.0,5.4838,-3.9972,6.6084,-0.0956,0.0675,-0.1119,-1.931270261804098,-0.0009771926561370492,3.468447208404541,-0.9415974617004395,-0.00019741849973797798,1.9678624868392944,3.6219522196003417,-0.00013915561430621892,0.24350276589393616,-1.3617475668536585,-1.4531437955156434e-05,-0.0561823770403862,0.8987095355987549,0.0,-0.012724390253424644,1.3433518409729004,0.0020252263639122248,0.21743112802505493
159.0,216.0,5.4838,-3.9972,6.6084,-0.0956,0.0675,-0.1119,-1.9313022098936976,-0.002975416136905551,3.45999813079834,-0.9416500329971313,-0.00017790608399081975,2.04868221282959,3.6219679552265625,-0.00012383650755509734,0.24411563575267792,-1.3617757002459925,9.70926805621275e-09,-0.05750390887260437,0.898676872253418,0.0,-0.0017377038020640612,1.3433754444122314,0.0024568664375692606,0.22676746547222137
155.0,214.0,5.7218,-2.5119,6.7005,-0.0096,0.0075,-0.1255,-1.9313341579832972,-0.004138541407883167,3.4246714115142822,-0.941614031791687,-0.00012224020611029118,1.9555160999298096,3.6219560342976074,-0.00011439193622209132,0.2366313934326172,-1.3617518583880823,2.7026107046745906e-12,-0.060597844421863556,0.8986568450927734,0.0,-0.005128300283104181,1.343423843383789,0.003506989683955908,0.20629090070724487
155.0,214.0,5.7218,-2.5119,6.7005,-0.0096,0.0075,-0.1255,-1.9313661060728968,-0.005994230043143034,3.389871597290039,-0.9416217803955078,-0.00013141818635631353,1.9945979118347168,3.621887369746826,-0.00010383339395048097,0.24979519844055176,-1.361767594014303,4.9118613430664324e-17,-0.0766657292842865,0.898676872253418,0.0,-0.022405404597520828,1.3434758186340332,0.008127706125378609,0.27236294746398926
155.0,214.0,5.7218,-2.5119,6.7005,-0.0096,0.0075,-0.1255,-1.9313813648619593,-0.0075583672150969505,3.3915774822235107,-0.9416418671607971,-0.00014048315642867237,2.0115554332733154,3.6219398218342285,-9.505946945864707e-05,0.2457009255886078,-1.3617714087115687,8.927066052714037e-22,-0.049812473356723785,0.8986971378326416,0.0,-0.020304914563894272,1.3434793949127197,0.00896079745143652,0.24686655402183533
155.0,214.0,5.7218,-2.5119,6.7005,-0.0096,0.0075,-0.1255,-1.9314738712706507,-0.007963155396282673,3.3603596687316895,-0.9416300058364868,-0.00014749485126230866,2.021676778793335,3.621920271510742,-8.765290112933144e-05,0.23559248447418213,-1.3617551962481897,1.622450223768055e-26,-0.050653111189603806,0.8987054824829102,0.0,-0.025803187862038612,1.3435955047607422,0.006564636714756489,0.24110201001167297
155.0,214.0,5.7218,-2.5119,6.7005,-0.0096,0.0075,-0.1255,-1.9315740070738734,-0.009278330020606518,3.3682520389556885,-0.9416057467460632,-0.0002502606366761029,1.9537324905395508,3.6218997675129394,-8.131708455039188e-05,0.234122633934021,-1.3617633024798792,2.9487233472580453e-31,-0.05984719097614288,0.8987298011779785,0.0,-0.011311165988445282,1.343595027923584,0.004544553812593222,0.19083672761917114
155.0,214.0,5.7218,-2.5119,6.7005,-0.0096,0.0075,-0.1255,-1.9316584072508753,-0.010648922994732857,3.283905267715454,-0.9416254758834839,-0.00021452712826430798,1.9771898984909058,3.62197653829541,-7.713543163845316e-05,0.22786688804626465,-1.3617561499225062,8.207878973123305e-35,-0.04210927337408066,0.8987095355987549,0.0,-0.011584483087062836,1.343606948852539,0.00311494548805058,0.14861631393432617
155.0,214.0,5.7218,-2.5119,6.7005,-0.0096,0.0075,-0.1255,-1.931697507897848,-0.01315035205334425,3.29653263092041,-0.9416579008102417,-0.00018016801914200187,1.9461076259613037,3.6219517427631835,-5.870672612218186e-05,0.23734351992607117,-1.361767594014303,1.4917410698092694e-39,-0.05086232349276543,0.8986608386039734,0.0,-0.018475281074643135,1.3436110019683838,0.0018439778359606862,0.17789272964000702
155.0,214.0,5.7218,-2.5119,6.7005,-0.0096,0.0075,-0.1255,-1.931810041467184,-0.015063484199345112,3.241338014602661,-0.941585123538971,-0.00015529636584687978,1.928847074508667,3.6219236093708496,-5.426671850727871e-05,0.23154312372207642,-1.3617351690875452,2.6624670822171524e-44,-0.05280677601695061,0.8987259864807129,0.0,-0.012181775644421577,1.3436068296432495,0.0010753662791103125,0.15923762321472168
155.0,214.0,5.7218,-2.5119,6.7005,-0.0096,0.0075,-0.1255,-1.931941648522848,-0.01731986738741398,3.236341953277588,-0.9415740966796875,-0.00013645904255099595,1.9263099431991577,3.6219722467609863,-5.118068293086253e-05,0.23164008557796478,-1.3617880980121058,0.0,-0.06157616525888443,0.8987298011779785,0.0,-0.02055918425321579,1.3436871767044067,0.0007890095585025847,0.13322323560714722
155.0,214.0,5.7218,-2.5119,6.7005,-0.0096,0.0075,-0.1255,-1.932089468041891,-0.020400550216436386,3.20582914352417,-0.9415974617004395,-0.00012169733963673934,1.877918004989624,3.622004194850586,-3.6346995329950005e-05,0.21956869959831238,-1.3617518583880823,0.0,-0.044433943927288055,0.8986892700195312,0.0,-0.041529010981321335,1.3436671495437622,0.0012121842009946704,0.16313055157661438
155.0,214.0,5.7218,-2.5119,6.7005,-0.0096,0.0075,-0.1255,-1.93227018932485,-0.02215065434575081,3.1674060821533203,-0.9416340589523315,-0.00011256467405473813,1.8658864498138428,3.6220123010822753,-3.491124152787961e-05,0.21836858987808228,-1.3617551962481897,0.0,-0.05486831068992615,0.8986449241638184,0.0,-0.016313426196575165,1.343654751777649,0.001981030683964491,0.15222418308258057
155.0,214.0,5.7218,-2.5119,6.7005,-0.0096,0.0075,-0.1255,-1.9324256382384242,-0.025867179036140442,3.118253469467163,-0.9416177272796631,-0.00010232620115857571,1.9032015800476074,3.6219674783894042,-3.3194424759130925e-05,0.21212539076805115,-1.3617799917804163,0.0,-0.044611427932977676,0.898688793182373,0.0,-0.027781855314970016,1.3437225818634033,0.004370932467281818,0.13804759085178375
154.0,213.0,4.882,-2.7081,6.743,-0.0232,-0.016,-0.1287,-1.9326335392394007,-0.031521812081336975,3.109060287475586,-0.9415892362594604,-7.503957021981478e-05,1.8955581188201904,3.6219956117817382,2.2299191186903045e-05,0.2235906422138214,-1.361795727406637,0.0,-0.05187967047095299,0.8986732959747314,0.0,-0.019856680184602737,1.3437787294387817,0.006052650976926088,0.17670609056949615
154.0,213.0,4.882,-2.7081,6.743,-0.0232,-0.016,-0.1287,-1.9328776798644007,-0.03925219550728798,3.1607537269592285,-0.9415892362594604,-6.926144124008715e-05,1.8989832401275635,3.622004194850586,2.1301440938259475e-05,0.2077956199645996,-1.3617714087115687,0.0,-0.05473892763257027,0.8986608982086182,0.0,-0.026620611548423767,1.3438102006912231,0.0085265738889575,0.16101324558258057
154.0,213.0,4.882,-2.7081,6.743,-0.0232,-0.016,-0.1287,-1.9331847629942835,-0.04725908860564232,3.081935167312622,-0.9415618181228638,-6.431221117964014e-05,1.8652713298797607,3.6219798761555175,1.0213703717454337e-05,0.20413485169410706,-1.3617590109454554,0.0,-0.06661540269851685,0.8987300395965576,0.0,-0.029342465102672577,1.343934416770935,0.010775013826787472,0.21312077343463898
154.0,213.0,4.882,-2.7081,6.743,-0.0232,-0.016,-0.1287,-1.9335571728148402,-0.05132323503494263,3.107187271118164,-0.941614031791687,-4.578897278406657e-05,1.8810930252075195,3.6219350534626464,6.493245336969267e-07,0.21078349649906158,-1.361767594014303,0.0,-0.059833623468875885,0.8987658619880676,0.0,-0.03098136931657791,1.343957781791687,0.01232382096350193,0.25573915243148804
154.0,213.0,4.882,-2.7081,6.743,-0.0232,-0.016,-0.1287,-1.9339930019774378,-0.05779416859149933,3.0795738697052,-0.9415860176086426,-4.287293631932698e-05,1.8644572496414185,3.6219560342976074,1.1801155538893049e-11,0.1946662962436676,-1.361795727406637,0.0,-0.06971477717161179,0.8987420797348022,0.0,-0.0290374793112278,1.3440779447555542,0.0141293341293931,0.20757821202278137
154.0,213.0,4.882,-2.7081,6.743,-0.0232,-0.016,-0.1287,-1.9344927273192347,-0.06275887042284012,3.0462255477905273,-0.9416542053222656,-4.03125086450018e-05,1.9079838991165161,3.621903582210205,2.1448017718957678e-16,0.2008633315563202,-1.3617633024798792,0.0,-0.07107018679380417,0.8987293243408203,0.0,-0.01815289631485939,1.34414541721344,0.015431121923029423,0.27718549966812134
154.0,213.0,4.882,-2.7081,6.743,-0.0232,-0.016,-0.1287,-1.935052057305807,-0.06866521388292313,3.017226219177246,-0.9416701793670654,-3.804067455348559e-05,1.839313268661499,3.621983690852783,3.898071672991237e-21,0.18508818745613098,-1.3617714087115687,0.0,-0.059982236474752426,0.8987095355987549,0.0,-0.021153384819626808,1.344305396080017,0.016633186489343643,0.2641443610191345
154.0,213.0,4.882,-2.7081,6.743,-0.0232,-0.016,-0.1287,-1.935587545434469,-0.0725269690155983,2.955345630645752,-0.9415618777275085,-4.785179771715775e-05,1.8496497869491577,3.6219517427631835,7.084552713802287e-26,0.19974485039710999,-1.361750904713766,0.0,-0.06093163043260574,0.8987053036689758,0.0,-0.03602013736963272,1.3444730043411255,0.018832989037036896,0.2889595031738281
154.0,213.0,4.882,-2.7081,6.743,-0.0232,-0.016,-0.1287,-1.9362360439696253,-0.07459856569766998,2.953489303588867,-0.9415778517723083,-4.558319051284343e-05,1.830731987953186,3.6218997675129394,-0.0006332931807264686,0.18071863055229187,-1.3618000189410608,0.0,-0.0590885728597641,0.8986852169036865,0.0,-0.023756610229611397,1.3445924520492554,0.018026933073997498,0.20623740553855896
154.0,213.0,4.882,-2.7081,6.743,-0.0232,-0.016,-0.1287,-1.9366871319212855,-0.07551426440477371,2.9487037658691406,-0.941557765007019,-2.274194048368372e-05,1.8316450119018555,3.6219402986713867,-0.0010564436670392752,0.1883593499660492,-1.3617633024798792,0.0,-0.06918609142303467,0.8986847400665283,0.0,-0.011121357791125774,1.3447604179382324,0.018215982243418694,0.22751371562480927
154.0,213.0,4.882,-2.7081,6.743,-0.0232,-0.016,-0.1287,-1.9373513660826625,-0.08096060156822205,2.9238786697387695,-0.9416377544403076,-5.118303670315072e-05,1.7670190334320068,3.621936007136963,-0.0013857766753062606,0.17139098048210144,-1.3617876211749476,0.0,-0.044756993651390076,0.8987579941749573,0.0,-0.02109403721988201,1.3448517322540283,0.017372077330946922,0.2517995834350586
154.0,213.0,4.882,-2.7081,6.743,-0.0232,-0.016,-0.1287,-1.9379741154112757,-0.09326647967100143,2.921530246734619,-0.941557765007019,-4.889002229901962e-05,1.7823060750961304,3.6218597131916503,-0.001116609200835228,0.17331527173519135,-1.3617518583880823,0.0,-0.048475928604602814,0.8987219333648682,0.0,-0.02367216907441616,1.3450113534927368,0.015413397923111916,0.29473230242729187
145.0,222.0,7.1844,-3.4522,6.4403,-0.1153,-0.197,-0.1431,-1.938777586022848,-0.1045054942369461,2.8383677005767822,-0.941605806350708,-3.47790373780299e-05,1.7671196460723877,3.621936007136963,-0.0007189986063167453,0.17573077976703644,-1.3617590109454554,0.0,-0.05141066759824753,0.8987219333648682,0.0,-0.020549224689602852,1.345103144645691,0.013505522161722183,0.20024356245994568
145.0,222.0,7.1844,-3.4522,6.4403,-0.1153,-0.197,-0.1431,-1.9396091900267542,-0.11039122194051743,2.8516950607299805,-0.9415700435638428,-2.4647090413054684e-07,1.7608379125595093,3.62186781942334,-0.0005136242252774537,0.17675372958183289,-1.3617475668536585,0.0,-0.04759795591235161,0.8987134695053101,0.0,-0.011461897753179073,1.3451265096664429,0.008637705817818642,0.1746845543384552
145.0,222.0,7.1844,-3.4522,6.4403,-0.1153,-0.197,-0.1431,-1.9402686558165492,-0.11163897812366486,2.819272041320801,-0.9415538907051086,-5.951980987066452e-13,1.7906465530395508,3.6218835550495605,-0.0003701931855175644,0.162916898727417,-1.3618157545672815,0.0,-0.04859091714024544,0.8986568450927734,0.0,-0.012064401991665363,1.3451905250549316,0.005469555500894785,0.17652174830436707
145.0,222.0,7.1844,-3.4522,6.4403,-0.1153,-0.197,-0.1431,-1.9411598644652308,-0.10758378356695175,2.8951590061187744,-0.9415823817253113,-1.9283662570426663e-20,1.7210206985473633,3.621903582210205,-0.00029969727620482445,0.16420011222362518,-1.3617561499225062,0.0,-0.037116825580596924,0.8986971378326416,0.0,-0.018006742000579834,1.3452544212341309,0.0019270379561930895,0.1713034212589264
145.0,222.0,7.1844,-3.4522,6.4403,-0.1153,-0.197,-0.1431,-1.9420954189696253,-0.1011044904589653,2.844316005706787,-0.9416065812110901,3.1292067433241755e-05,1.7845115661621094,3.621895952815674,-0.00025177738280035555,0.16327635943889618,-1.361783806477682,0.0,-0.04240797460079193,0.8986449241638184,0.0,-0.024342797696590424,1.345234751701355,0.0008659023442305624,0.10031501948833466
145.0,222.0,7.1844,-3.4522,6.4403,-0.1153,-0.197,-0.1431,-1.9429947338499964,-0.11043375730514526,2.865448474884033,-0.9416016936302185,-0.0013737407280132174,1.7356499433517456,3.6218554216572265,-0.00019296912068966776,0.15794482827186584,-1.361739460621969,0.0,-0.02395092509686947,0.8986852169036865,0.0,-0.02156279981136322,1.3452786207199097,0.0005585845792666078,0.09355493634939194
145.0,222.0,7.1844,-3.4522,6.4403,-0.1153,-0.197,-0.1431,-1.9440185032286585,-0.13197824358940125,2.817282199859619,-0.9415417313575745,-0.0011079908581450582,1.6696481704711914,3.62186781942334,-0.0002322115033166483,0.15901729464530945,-1.3617318312274378,0.00037392444210126996,-0.029896363615989685,0.898688793182373,0.0,-0.02036747708916664,1.3452223539352417,0.00014055549399927258,0.11679574102163315
145.0,222.0,7.1844,-3.4522,6.4403,-0.1153,-0.197,-0.1431,-1.9447814426817835,-0.1442308872938156,2.804877281188965,-0.9415820837020874,-0.00029962396365590394,1.6995220184326172,3.6219522196003417,-0.0006095262360759079,0.15790946781635284,-1.3616836706744593,0.00039869308238849044,-0.022260582074522972,0.898733913898468,0.0,-0.027397500351071358,1.3452507257461548,7.667859449611569e-07,0.08575552701950073
145.0,222.0,7.1844,-3.4522,6.4403,-0.1153,-0.197,-0.1431,-1.9458252392210902,-0.14545705914497375,2.9012699127197266,-0.9416137933731079,-2.762358120023123e-10,1.745844841003418,3.62197653829541,-0.0002590905351098627,0.14921963214874268,-1.3617156187640589,0.00033803877886384726,-0.007569039240479469,0.8987498879432678,0.0,-0.014035239815711975,1.3451741933822632,-0.0011776702012866735,0.0528411865234375
145.0,222.0,7.1844,-3.4522,6.4403,-0.1153,-0.197,-0.1431,-1.9469005070128382,-0.1319962590932846,2.894371509552002,-0.9415218234062195,0.00161648727953434,1.7485766410827637,3.6219684320637207,0.0003396399552002549,0.14818330109119415,-1.3617075125323694,0.00031804648460820317,-0.007715978659689426,0.898681104183197,0.0,-0.02564522624015808,1.3451905250549316,-0.0017380864592269063,0.016657132655382156
145.0,222.0,7.1844,-3.4522,6.4403,-0.1153,-0.197,-0.1431,-1.9479037723936976,-0.1141214668750763,2.971742868423462,-0.9415178298950195,0.0008662157924845815,1.7835144996643066,3.62197129308667,0.001334672560915351,0.15651488304138184,-1.3617232481585901,0.00023649880313314497,-0.0034736101515591145,0.8987013697624207,0.0,-0.027004867792129517,1.3451987504959106,-0.0017749472754076123,0.0202346071600914
145.0,222.0,7.1844,-3.4522,6.4403,-0.1153,-0.197,-0.1431,-1.9488984547057093,-0.11537132412195206,2.9618635177612305,-0.9416055679321289,3.3048714875860696e-09,1.756246566772461,3.6219798761555175,0.0005485977744683623,0.16185922920703888,-1.3617032209979456,0.00020561717974487692,-0.021979227662086487,0.8986928462982178,0.0,-0.03391558676958084,1.3452187776565552,-0.0004598012310452759,-0.02099904976785183
135.0,210.0,5.7565,-1.5613,7.2772,-0.0066,-0.0313,-0.1823,-1.9496380291380824,-0.12371161580085754,2.9799177646636963,-0.9415860176086426,-0.0016341161681339145,1.7742341756820679,3.6219517427631835,0.0003713042533490807,0.15037567913532257,-1.3617518583880823,0.0001872781285783276,-0.020217571407556534,0.8987178802490234,0.0,-0.020519139245152473,1.3451941013336182,-0.00010036311141448095,-0.021621547639369965
135.0,210.0,5.7565,-1.5613,7.2772,-0.0066,-0.0313,-0.1823,-1.9506732426085414,-0.14130061864852905,2.9686384201049805,-0.9415663480758667,-0.000767468533013016,1.757692813873291,3.6219441133686523,0.0001972501922864467,0.16981863975524902,-1.3617599646197718,0.00018968156655319035,-0.012134134769439697,0.8987298011779785,0.0,-0.03304309397935867,1.3451982736587524,-9.053560852401166e-12,0.02712893858551979
135.0,210.0,5.7565,-1.5613,7.2772,-0.0066,-0.0313,-0.1823,-1.951785226861471,-0.14236807823181152,2.99904203414917,-0.9415507316589355,-1.6747766551361565e-07,1.783052921295166,3.622016592616699,0.0001338253787253052,0.1779591143131256,-1.3617880980121058,0.00015129713574424386,-0.011971825733780861,0.8987338542938232,0.0,-0.03369908779859543,1.345186471939087,-2.933238028310442e-19,0.07056799530982971
135.0,210.0,5.7565,-1.5613,7.2772,-0.0066,-0.0313,-0.1823,-1.952752252618307,-0.12679840624332428,3.001260280609131,-0.9415661096572876,0.0021941957529634237,1.782078504562378,3.6220361429401855,0.00017605563334655017,0.1658516824245453,-1.3617313543902796,0.00013803526235278696,-0.02485801838338375,0.898688793182373,0.0,-0.008167820051312447,1.3452147245407104,-9.503317191676132e-27,0.06470435857772827
135.0,210.0,5.7565,-1.5613,7.2772,-0.0066,-0.0313,-0.1823,-1.9537636242308558,-0.11573928594589233,3.1106534004211426,-0.9415020942687988,0.00105939747299999,1.7971428632736206,3.622039957637451,0.0012178508331999183,0.17560675740242004,-1.3617642561541956,0.0001271103392355144,-0.030940260738134384,0.8987054228782654,0.0,-0.029382413253188133,1.345226526260376,0.0002475540095474571,0.051164738833904266
135.0,210.0,5.7565,-1.5613,7.2772,-0.0066,-0.0313,-0.1823,-1.954418798486227,-0.1133054569363594,3.1117186546325684,-0.9415579438209534,0.0005560751887969673,1.847223162651062,3.621987505550049,0.001145627349615097,0.172102689743042,-1.3617633024798792,4.2889769247267395e-05,-0.01350131444633007,0.8987095355987549,0.0,-0.03615684434771538,1.3452625274658203,0.0004150718741584569,0.037907712161540985
135.0,210.0,5.7565,-1.5613,7.2772,-0.0066,-0.0313,-0.1823,-1.955414434472555,-0.11220280826091766,3.07877516746521,-0.941546618938446,-4.26454353146255e-05,1.8540832996368408,3.622028036708496,0.0007039423799142241,0.18842247128486633,-1.3617437521563929,3.913874752470292e-05,-0.029386302456259727,0.8986806273460388,0.0,-0.026834528893232346,1.3452868461608887,0.0017842325614765286,0.04875652864575386
135.0,210.0,5.7565,-1.5613,7.2772,-0.0066,-0.0313,-0.1823,-1.956285139123434,-0.11563075333833694,3.097043991088867,-0.9415781497955322,-0.0003266929415985942,1.846097707748413,3.6220313745686035,0.0005058988463133574,0.1874287873506546,-1.3617590109454554,3.600694617489353e-05,-0.028715558350086212,0.8986971974372864,0.0,-0.019897282123565674,1.34529447555542,0.0020588915795087814,0.07084518671035767
135.0,210.0,5.7565,-1.5613,7.2772,-0.0066,-0.0313,-0.1823,-1.9572011433043421,-0.11381015181541443,3.062221050262451,-0.941505491733551,-0.00020298991876188666,1.906170129776001,3.622023745174072,0.0003948644734919071,0.18514013290405273,-1.3617919127093714,3.3339230867568403e-05,-0.03375012427568436,0.8986970782279968,0.0,-0.026231370866298676,1.3452744483947754,0.001594780245795846,0.03278958052396774
135.0,210.0,5.7565,-1.5613,7.2772,-0.0066,-0.0313,-0.1823,-1.9580322704710902,-0.10686185956001282,3.1500203609466553,-0.941538393497467,-0.0001485597313148901,1.8520519733428955,3.621987505550049,0.00027877025422640145,0.17855875194072723,-1.3617475668536585,3.103955168626271e-05,-0.023194367066025734,0.898733913898468,0.0,-0.010366413742303848,1.3453223705291748,0.0009752931073307991,0.024462219327688217
135.0,210.0,5.7565,-1.5613,7.2772,-0.0066,-0.0313,-0.1823,-1.9586559734740199,-0.10647673904895782,3.13431453704834,-0.9415663480758667,-5.958168549113907e-05,1.8351322412490845,3.622067614192627,0.00032067846041172743,0.19048148393630981,-1.36169940630068,2.9512764740502462e-05,-0.03305802494287491,0.8987298011779785,0.0,-0.02203913778066635,1.3453223705291748,0.0006933425320312381,0.02905919775366783
135.0,210.0,5.7565,-1.5613,7.2772,-0.0066,-0.0313,-0.1823,-1.9594627819456996,-0.10662131011486053,3.0955376625061035,-0.9414819478988647,-2.737937521146705e-08,1.8118269443511963,3.622047110194824,0.0007019616896286607,0.18295127153396606,-1.3617799917804163,2.7696311008185148e-05,-0.01510663889348507,0.8987854719161987,0.0,-0.03326525539159775,1.3452703952789307,0.0005004927515983582,-0.0006879651919007301
120.0,215.0,7.0277,-3.4122,6.1334,-0.0212,-0.0577,-0.1338,-1.960306306878561,-0.10342881828546524,3.1425561904907227,-0.9415140151977539,-8.870570010175197e-16,1.807085633277893,3.6220432954975585,0.0009800858097150922,0.190619558095932,-1.3617633024798792,1.310251718678046e-05,-0.030619457364082336,0.8987854719161987,0.0,-0.021187838166952133,1.34529447555542,0.00039159218431450427,0.05271518975496292
120.0,215.0,7.0277,-3.4122,6.1334,-0.0212,-0.0577,-0.1338,-1.9611417255797328,-0.10124748200178146,3.1196861267089844,-0.9415579438209534,-2.873951859719137e-23,1.875671148300171,3.622067614192627,0.0006920641171745956,0.19729694724082947,-1.3617876211749476,4.1404442185921653e-07,-0.03375568985939026,0.8986852169036865,0.0,-0.01655302569270134,1.3452904224395752,0.00022120405628811568,0.06345188617706299
120.0,215.0,7.0277,-3.4122,6.1334,-0.0212,-0.0577,-0.1338,-1.961917062798971,-0.09378454834222794,3.0985488891601562,-0.9415301084518433,-9.311239335349283e-31,1.8448882102966309,3.6220876413532714,0.0004573097685351968,0.19313892722129822,-1.3617714087115687,7.525052629631102e-12,-0.032610006630420685,0.8986971378326416,0.0,-0.017088932916522026,1.3452982902526855,0.00025872833793982863,0.09878106415271759
120.0,215.0,7.0277,-3.4122,6.1334,-0.0212,-0.0577,-0.1338,-1.9627076588072718,-0.08440285921096802,3.1272072792053223,-0.9415621161460876,-3.0167231812698664e-38,1.8080753087997437,3.622027559871338,0.0002846450370270759,0.18329890072345734,-1.3617590109454554,1.3676411018560667e-16,-0.04376355558633804,0.8986449241638184,0.0,-0.030903592705726624,1.3453104496002197,0.0005128933116793633,0.07393497228622437
120.0,215.0,7.0277,-3.4122,6.1334,-0.0212,-0.0577,-0.1338,-1.963175436059469,-0.08609023690223694,3.1193885803222656,-0.9415177702903748,-0.00010710398782975972,1.8297672271728516,3.6220637994953613,0.00023920151579659432,0.18011771142482758,-1.361739460621969,3.806879372542527e-20,-0.044077493250370026,0.8986812233924866,0.0,-0.028250250965356827,1.345306396484375,0.0008194957626983523,0.10527046769857407
120.0,215.0,7.0277,-3.4122,6.1334,-0.0212,-0.0577,-0.1338,-1.9639140568175257,-0.09393025189638138,3.142275333404541,-0.9415136575698853,-0.00013690744526684284,1.7927653789520264,3.6220595079609375,0.00015789394092280418,0.18630701303482056,-1.3617475668536585,6.918815009767615e-25,-0.052753761410713196,0.8987012505531311,0.0,-0.030253730714321136,1.34531831741333,0.0012163370847702026,0.10503573715686798
120.0,215.0,7.0277,-3.4122,6.1334,-0.0212,-0.0577,-0.1338,-1.964628358880514,-0.10353218019008636,3.072701930999756,-0.9414618611335754,-3.8123762351460755e-05,1.8081488609313965,3.6220595079609375,4.571616227622144e-05,0.18153822422027588,-1.361783806477682,1.2574605750859161e-29,-0.05117239058017731,0.8987178802490234,0.0,-0.031079396605491638,1.3453142642974854,0.0008714130381122231,0.1414940357208252
120.0,215.0,7.0277,-3.4122,6.1334,-0.0212,-0.0577,-0.1338,-1.9654432735838832,-0.10196711868047714,3.0926904678344727,-0.941425621509552,0.002324949949979782,1.855359673500061,3.62211196004834,8.317465835716575e-05,0.16793009638786316,-1.3617633024798792,2.2853724692284307e-34,-0.06078752875328064,0.8986490964889526,0.0,-0.02627759426832199,1.34531831741333,0.0005790984141640365,0.12025652825832367
120.0,215.0,7.0277,-3.4122,6.1334,-0.0212,-0.0577,-0.1338,-1.966182371179098,-0.08720745146274567,3.140333890914917,-0.941381573677063,0.008457074873149395,1.8400750160217285,3.6221276956745605,0.00044780675671063364,0.1776595413684845,-1.3617590109454554,4.153552344345118e-39,-0.05619654804468155,0.8986568450927734,0.0,-0.025359123945236206,1.3453023433685303,0.00045582946040667593,0.11469237506389618
120.0,215.0,7.0277,-3.4122,6.1334,-0.0212,-0.0577,-0.1338,-1.9667817554869593,-0.07735835015773773,3.1770386695861816,-0.9413782954216003,0.010010706260800362,1.8625233173370361,3.6220995622822265,0.00045171903911978006,0.18477505445480347,-1.3617551962481897,1.1560712330679741e-42,-0.05322035029530525,0.8987011909484863,0.0,-0.035972412675619125,1.3453264236450195,0.00043952048872597516,0.13313010334968567
120.0,215.0,7.0277,-3.4122,6.1334,-0.0212,-0.0577,-0.1338,-1.9674364529051722,-0.07287478446960449,3.13952898979187,-0.9413827061653137,0.003068351885303855,1.8620227575302124,3.622107668513916,0.0003386296739336103,0.18346381187438965,-1.3618195692645472,-0.0003014716203324497,-0.060869909822940826,0.8986532092094421,0.0,-0.03381828963756561,1.3453302383422852,0.0011448333971202374,0.16877907514572144
120.0,215.0,7.0277,-3.4122,6.1334,-0.0212,-0.0577,-0.1338,-1.9681154690184535,-0.07725094258785248,3.1178574562072754,-0.941422700881958,-0.005308358930051327,1.8258309364318848,3.6221000391193847,0.0002257971791550517,0.17707672715187073,-1.3617833296405237,-0.0002852891047950834,-0.06600493937730789,0.8986971378326416,0.0,-0.02437387779355049,1.3453823328018188,0.003620566800236702,0.12269174307584763
114.0,203.0,4.8449,-2.3587,7.2431,-0.0528,-0.0319,-0.1326,-1.968762060204977,-0.08802302181720734,3.0908493995666504,-0.9414388537406921,-0.002392178401350975,1.8261966705322266,3.62211196004834,0.00015036285913083702,0.16598698496818542,-1.3618200461017054,-0.00027473390218801796,-0.05904538184404373,0.8987539410591125,0.0,-0.019473329186439514,1.3454302549362183,0.004643801599740982,0.15984706580638885
114.0,203.0,4.8449,-2.3587,7.2431,-0.0528,-0.0319,-0.1326,-1.9694653950133265,-0.09441821277141571,3.034003257751465,-0.9413943290710449,0.0032159292604774237,1.8201229572296143,3.6220876413532714,8.834516484057531e-05,0.16617992520332336,-1.3618319670306605,-0.0002629183290991932,-0.06821472197771072,0.8987538814544678,0.0,-0.03116564452648163,1.3454662561416626,0.005473019555211067,0.14319857954978943
114.0,203.0,4.8449,-2.3587,7.2431,-0.0528,-0.0319,-0.1326,-1.969964166680807,-0.0931970402598381,3.0554628372192383,-0.9413384795188904,0.004382499027997255,1.7732186317443848,3.622171564693115,0.00013618165394291282,0.17201213538646698,-1.3617833296405237,-0.00024030353233683854,-0.06155753135681152,0.89872145652771,0.0,-0.018709974363446236,1.3454740047454834,0.005902890115976334,0.19827313721179962
114.0,203.0,4.8449,-2.3587,7.2431,-0.0528,-0.0319,-0.1326,-1.9706388912596644,-0.08748862892389297,3.114323854446411,-0.9413064122200012,0.005844538100063801,1.8252098560333252,3.6221791940876464,0.003896652488037944,0.168748140335083,-1.3617752234088343,-0.00029581866692751646,-0.07548490911722183,0.8987415432929993,0.0,-0.029171697795391083,1.3455216884613037,0.0061796242371201515,0.18759989738464355
114.0,203.0,4.8449,-2.3587,7.2431,-0.0528,-0.0319,-0.1326,-1.9714380703368128,-0.08687665313482285,3.036672592163086,-0.9412586092948914,0.006325406488031149,1.818206787109375,3.6222759920307617,0.01666436158120632,0.1918564736843109,-1.3617952505694788,-0.0008361460641026497,-0.07540132105350494,0.8986727595329285,0.0,-0.027684897184371948,1.345605731010437,0.00817883387207985,0.18362469971179962
114.0,203.0,4.8449,-2.3587,7.2431,-0.0528,-0.0319,-0.1326,-1.9722010097899378,-0.08495762944221497,3.1289737224578857,-0.9412508010864258,0.003978525288403034,1.8322367668151855,3.622455282802246,0.023034175857901573,0.199357271194458,-1.3618634382831019,-0.0012728739529848099,-0.08343859761953354,0.8986971378326416,0.0,-0.03379325568675995,1.3457012176513672,0.01223620492964983,0.1993238925933838
114.0,203.0,4.8449,-2.3587,7.2431,-0.0528,-0.0319,-0.1326,-1.9729281864561976,-0.08266864717006683,3.1206235885620117,-0.9412068724632263,0.0003075408167205751,1.7824172973632812,3.6226231294819335,0.021489592269062996,0.1957637071609497,-1.3618395964251917,-0.00153088360093534,-0.09126758575439453,0.8987658619880676,0.0,-0.018877176567912102,1.3457934856414795,0.014332211576402187,0.24807123839855194
114.0,203.0,4.8449,-2.3587,7.2431,-0.0528,-0.0319,-0.1326,-1.973398347894186,-0.08373384177684784,3.0238544940948486,-0.9412466883659363,7.426748660499527e-10,1.7997794151306152,3.6227189737507324,0.01677016355097294,0.20233967900276184,-1.3618915716754358,-0.00277490122243762,-0.08161566406488419,0.898676872253418,0.0,-0.029164059087634087,1.3458807468414307,0.016344431787729263,0.2305690050125122
114.0,203.0,4.8449,-2.3587,7.2431,-0.0528,-0.0319,-0.1326,-1.974177976647848,-0.08905110508203506,3.084043502807617,-0.9412385821342468,-0.0017133039655163884,1.792504072189331,3.6228386598774414,0.008994783274829388,0.18696901202201843,-1.3619030157672327,-0.016114288941025734,-0.09204290807247162,0.8986929059028625,0.0,-0.021156461909413338,1.346064805984497,0.019383477047085762,0.26075881719589233
114.0,203.0,4.8449,-2.3587,7.2431,-0.0528,-0.0319,-0.1326,-1.9748403034605921,-0.09405478090047836,3.044173240661621,-0.9412100315093994,-0.0001745563349686563,1.7984378337860107,3.622943087215088,0.007211070042103529,0.1812286376953125,-1.3620675245868128,-0.015652630478143692,-0.11198319494724274,0.898737907409668,0.0,-0.018010517582297325,1.3461881875991821,0.021392090246081352,0.30725961923599243
114.0,203.0,4.8449,-2.3587,7.2431,-0.0528,-0.0319,-0.1326,-1.975595613519186,-0.09680602699518204,3.0403966903686523,-0.9412182569503784,-4.0038090898253387e-11,1.805426001548767,3.6230947214313964,0.012692753225564957,0.2138732373714447,-1.3621590773211878,-0.0043874941766262054,-0.09682131558656693,0.898668646812439,0.0,-0.02596639096736908,1.346367359161377,0.026073899120092392,0.34176987409591675
114.0,203.0,4.8449,-2.3587,7.2431,-0.0528,-0.0319,-0.1326,-1.9763342342772425,-0.09133125841617584,3.0268797874450684,-0.9412068128585815,0.002112962771207094,1.8104233741760254,3.623222990626953,0.020906351506710052,0.20730245113372803,-1.3621833960162562,-0.00039197513251565397,-0.10498046875,0.8986971378326416,0.0,-0.024825699627399445,1.3465789556503296,0.030171634629368782,0.32785069942474365
104.0,208.0,7.4381,-3.536,5.2319,-0.0188,-0.0302,-0.0982,-1.976865907708639,-0.08850888162851334,3.0295581817626953,-0.9412233233451843,0.0025493090506643057,1.8521363735198975,3.6233669954487304,0.028630265966057777,0.20628514885902405,-1.3621752897845667,-0.00035186068271286786,-0.12045612931251526,0.8987173438072205,0.0,-0.00621577026322484,1.3467830419540405,0.03377028554677963,0.3840946555137634
104.0,208.0,7.4381,-3.536,5.2319,-0.0188,-0.0302,-0.0982,-1.9775968990721644,-0.08580468595027924,3.069094181060791,-0.9412068724632263,0.0015542424516752362,1.7967586517333984,3.6236187654682617,0.03977920860052109,0.2246609628200531,-1.3621671835528772,-0.00023123968276195228,-0.12637406587600708,0.8987053036689758,0.0,-0.019223127514123917,1.3470618724822998,0.03723939508199692,0.38976967334747314
104.0,208.0,7.4381,-3.536,5.2319,-0.0188,-0.0302,-0.0982,-1.978255411187643,-0.08419280499219894,3.100126266479492,-0.9412190914154053,0.0006028702482581139,1.8164550065994263,3.6239701944538574,0.057860251516103745,0.2325752079486847,-1.3621228376971644,-0.00017220120935235173,-0.1290242224931717,0.89872145652771,0.0,-0.012737888842821121,1.3473851680755615,0.03819667175412178,0.373799204826355
104.0,208.0,7.4381,-3.536,5.2319,-0.0188,-0.0302,-0.0982,-1.9789744816222132,-0.08408260345458984,3.0325870513916016,-0.9411464333534241,0.0002374656469328329,1.7709441184997559,3.6244894701191406,0.08238227665424347,0.24898755550384521,-1.3620827833758753,3.351730811118614e-06,-0.1126544326543808,0.8987298011779785,0.0,-0.022895801812410355,1.3476759195327759,0.037367384880781174,0.37295639514923096
104.0,208.0,7.4381,-3.536,5.2319,-0.0188,-0.0302,-0.0982,-1.9795972309508265,-0.08199051767587662,3.0052247047424316,-0.9411985278129578,-0.00033173392876051366,1.7658672332763672,3.6252614694782714,0.09476393461227417,0.2391348034143448,-1.3621833960162562,4.319922300055623e-05,-0.11934053897857666,0.8987579941749573,0.0,-0.012697478756308556,1.3479832410812378,0.03642323613166809,0.28387323021888733
104.0,208.0,7.4381,-3.536,5.2319,-0.0188,-0.0302,-0.0982,-1.9803043804564417,-0.0826922059059143,3.0256290435791016,-0.9412388205528259,-0.00025675538927316666,1.7784860134124756,3.626040144557617,0.08853866159915924,0.24319490790367126,-1.3621271292315882,3.624029704951681e-05,-0.10985905677080154,0.8987855315208435,0.0,-0.008456755429506302,1.3483185768127441,0.03580537065863609,0.27267196774482727
104.0,208.0,7.4381,-3.536,5.2319,-0.0188,-0.0302,-0.0982,-1.9807959995665492,-0.08440840989351273,3.017749786376953,-0.9411106705665588,-0.00017538375686854124,1.7671387195587158,3.6265837389179687,0.07050995528697968,0.2267933189868927,-1.3621872107135218,3.233362076571211e-05,-0.10452140867710114,0.8987137675285339,0.0,-0.005887211300432682,1.3485498428344727,0.037118155509233475,0.27177897095680237
104.0,208.0,7.4381,-3.536,5.2319,-0.0188,-0.0302,-0.0982,-1.9814349613585414,-0.08728090673685074,3.045644760131836,-0.9411947727203369,-2.0836339899688028e-05,1.7561419010162354,3.6269747453876953,0.04263291507959366,0.21080273389816284,-1.3621309439288538,2.827052230713889e-05,-0.0976954847574234,0.8987338542938232,0.0,-0.0087563656270504,1.3488528728485107,0.038561202585697174,0.26908591389656067
104.0,208.0,7.4381,-3.536,5.2319,-0.0188,-0.0302,-0.0982,-1.9820734463133753,-0.08489634096622467,2.9680798053741455,-0.9412190914154053,-6.750708932828919e-13,1.778653621673584,3.6272141176411132,0.026689786463975906,0.1996166706085205,-1.3621514479266565,2.511465754650999e-05,-0.11736553907394409,0.8986727595329285,0.0,-0.010566502809524536,1.3491079807281494,0.0424148291349411,0.26181119680404663
104.0,208.0,7.4381,-3.536,5.2319,-0.0188,-0.0302,-0.0982,-1.98270907024526,-0.07494919002056122,3.074958562850952,-0.9411302208900452,0.0017141798743978143,1.7918024063110352,3.6274658876606445,0.025561677291989326,0.22125786542892456,-1.3621872107135218,2.2592663299292326e-05,-0.11706700921058655,0.8986971378326416,0.0,-0.012508128769695759,1.34952712059021,0.04596681520342827,0.2534331977367401
104.0,208.0,7.4381,-3.536,5.2319,-0.0188,-0.0302,-0.0982,-1.98329557994985,-0.0658947303891182,2.993011236190796,-0.9411548972129822,0.0009102570475079119,1.765274167060852,3.6276776033588867,0.03632614016532898,0.20948827266693115,-1.362171475087301,2.0531006157398224e-05,-0.10922452062368393,0.89872145652771,0.0,-0.03324119374155998,1.3498984575271606,0.04895282909274101,0.2797338366508484
104.0,208.0,7.4381,-3.536,5.2319,-0.0188,-0.0302,-0.0982,-1.9837032757201136,-0.06752680987119675,2.9876198768615723,-0.9412029981613159,2.4135297849170456e-07,1.7508342266082764,3.627906008357666,0.05089648440480232,0.21278288960456848,-1.3621395269977015,1.9215874999645166e-05,-0.09188102930784225,0.8987054228782654,0.0,-0.006499601062387228,1.3501489162445068,0.05113925412297249,0.2342504858970642
102.0,212.0,4.9436,-1.7204,6.9398,-0.029,0.0137,-0.1038,-1.9842897854247035,-0.07763326168060303,3.00543212890625,-0.9412026405334473,-0.0025992272421717644,1.767482042312622,3.6284052568623046,0.07083415985107422,0.22353975474834442,-1.362114731465475,3.540633770171553e-05,-0.10004831850528717,0.8987178802490234,0.0,-0.011323986575007439,1.350560188293457,0.04958745092153549,0.22983288764953613
102.0,212.0,4.9436,-1.7204,6.9398,-0.029,0.0137,-0.1038,-1.9849006138243617,-0.08537590503692627,2.9667294025421143,-0.9412428736686707,-0.001134877442382276,1.7279762029647827,3.628948374385498,0.06739498674869537,0.22623619437217712,-1.3621185461627405,4.9227732233703136e-05,-0.09516498446464539,0.8987255692481995,0.0,-0.011350825428962708,1.3509790897369385,0.047096434980630875,0.17266052961349487
102.0,212.0,4.9436,-1.7204,6.9398,-0.029,0.0137,-0.1038,-1.9856201610960902,-0.0891571119427681,2.967421770095825,-0.9412149786949158,0.000360220146831125,1.7020295858383179,3.6294800478168945,0.05588550493121147,0.21612460911273956,-1.3621028105365198,4.588985029840842e-05,-0.09438155591487885,0.8986971378326416,0.0,-0.02098938450217247,1.3513340950012207,0.046729523688554764,0.21325530111789703
102.0,212.0,4.9436,-1.7204,6.9398,-0.029,0.0137,-0.1038,-1.9862305126585902,-0.08395729213953018,2.946732521057129,-0.9411705136299133,0.0013718937989324331,1.733610987663269,3.6298953729816894,0.04220347851514816,0.20775973796844482,-1.3621066252337855,3.887005368596874e-05,-0.10189597308635712,0.8987178802490234,0.0,-0.010809790343046188,1.3516972064971924,0.04739807918667793,0.18001767992973328
102.0,212.0,4.9436,-1.7204,6.9398,-0.029,0.0137,-0.1038,-1.9867269001402796,-0.07533829659223557,2.974043607711792,-0.9411188364028931,0.0017006080597639084,1.7151397466659546,3.6300908762165527,0.03428606316447258,0.21077635884284973,-1.3621390501605433,3.6497876862995327e-05,-0.10968534648418427,0.8986363410949707,0.0,-0.01937069743871689,1.351992130279541,0.04925474897027016,0.14165464043617249
102.0,212.0,4.9436,-1.7204,6.9398,-0.029,0.0137,-0.1038,-1.987338205377096,-0.06793864071369171,2.9729418754577637,-0.9411869645118713,0.0005757723702117801,1.704970121383667,3.630326433772705,0.024509131908416748,0.20272371172904968,-1.3621552626239222,3.3759682992240414e-05,-0.10464172065258026,0.8987014293670654,0.0,-0.004655908327549696,1.3523589372634888,0.05031245946884155,0.22889062762260437
102.0,212.0,4.9436,-1.7204,6.9398,-0.029,0.0137,-0.1038,-1.9879051647581996,-0.06697364896535873,2.9873690605163574,-0.9411664605140686,2.4763998851540237e-08,1.742133617401123,3.6305152612873535,0.01874844916164875,0.20061402022838593,-1.3621271292315882,3.91337598557584e-05,-0.0927472859621048,0.8986970782279968,0.0,-0.012397272512316704,1.352810263633728,0.04889007657766342,0.1647539585828781
102.0,212.0,4.9436,-1.7204,6.9398,-0.029,0.0137,-0.1038,-1.9884520969786585,-0.06866401433944702,3.00715970993042,-0.9411985874176025,8.023221013752453e-16,1.7304563522338867,3.6306745248981933,0.017584186047315598,0.2056080549955368,-1.362110439931051,-1.7571302350916085e-06,-0.10291503369808197,0.898688793182373,0.0,-0.005458745174109936,1.3531286716461182,0.044623661786317825,0.16181133687496185
102.0,212.0,4.9436,-1.7204,6.9398,-0.029,0.0137,-0.1038,-1.9889465771117152,-0.0714147612452507,2.9474425315856934,-0.9412428736686707,-0.0007292093359865248,1.7350869178771973,3.630810423488281,0.024020293727517128,0.19801545143127441,-1.3621352354632776,-3.1934972027913844e-11,-0.10479574650526047,0.8986811637878418,0.0,-0.01646348461508751,1.353559970855713,0.04025004804134369,0.11024340242147446
102.0,212.0,4.9436,-1.7204,6.9398,-0.029,0.0137,-0.1038,-1.9893137417235316,-0.0716908723115921,3.01999568939209,-0.9411544799804688,-0.00044290884397923946,1.7309062480926514,3.631026430720947,0.03533269092440605,0.20323781669139862,-1.362159554158346,-8.889216911113409e-15,-0.09161801636219025,0.89872145652771,0.0,-0.016153782606124878,1.3537710905075073,0.036717720329761505,0.1374235451221466
102.0,212.0,4.9436,-1.7204,6.9398,-0.029,0.0137,-0.1038,-1.9899221859373988,-0.0723998099565506,3.0572900772094727,-0.9411467909812927,-0.00018998951418325305,1.7511134147644043,3.6314422327229003,0.0648728758096695,0.2155485898256302,-1.3621833960162562,-1.615571495009176e-19,-0.10650604218244553,0.8987338542938232,0.0,-0.013936782255768776,1.3540422916412354,0.03286917507648468,0.13691161572933197
102.0,212.0,4.9436,-1.7204,6.9398,-0.029,0.0137,-0.1038,-1.9904610119261683,-0.07016821950674057,2.998373031616211,-0.9411509037017822,0.0002437196089886129,1.763092279434204,3.632077379817627,0.0976421982049942,0.22594675421714783,-1.3621352354632776,-2.93622173912107e-24,-0.08734704554080963,0.8986852169036865,0.0,-0.01697823405265808,1.3542613983154297,0.030363894999027252,0.11262629926204681
101.0,209.0,7.3998,-3.6981,5.5346,-0.0441,0.0687,-0.0867,-1.9909798107542933,-0.06629423797130585,3.064114570617676,-0.941175103187561,0.00024039490381255746,1.7821128368377686,3.632887526149414,0.11289943754673004,0.25041764974594116,-1.3621352354632776,-5.33643831042796e-29,-0.08480196446180344,0.8986728191375732,0.0,-0.022062422707676888,1.3544929027557373,0.028096383437514305,0.09030254185199738
101.0,209.0,7.3998,-3.6981,5.5346,-0.0441,0.0687,-0.0867,-1.9915353260436,-0.06512752175331116,3.0755929946899414,-0.9411587119102478,0.0001980738015845418,1.7638366222381592,3.633779688472412,0.10167046636343002,0.24961555004119873,-1.3620827833758753,-9.698712770111873e-34,-0.09675513952970505,0.8986691832542419,0.0,-0.00368132209405303,1.3547483682632446,0.027839403599500656,0.10761915147304535
101.0,209.0,7.3998,-3.6981,5.5346,-0.0441,0.0687,-0.0867,-1.9919468365111292,-0.0639159083366394,3.083552360534668,-0.9411385655403137,0.0001749685179674998,1.780860424041748,3.634415789241455,0.09812746196985245,0.24068741500377655,-1.3621228376971644,-2.6996723411721163e-37,-0.09677039086818695,0.8987178802490234,0.0,-0.02681289054453373,1.354952096939087,0.02738553285598755,0.08873194456100464
101.0,209.0,7.3998,-3.6981,5.5346,-0.0441,0.0687,-0.0867,-1.9924217663206996,-0.06276556104421616,3.0843091011047363,-0.941166877746582,0.00012114000128349289,1.7666430473327637,3.635296030635498,0.13113214075565338,0.2633896768093109,-1.362086598073141,-4.9059459236011846e-42,-0.09825222194194794,0.8986929059028625,0.0,-0.021378090605139732,1.3551390171051025,0.027756983414292336,0.1242210641503334
101.0,209.0,7.3998,-3.6981,5.5346,-0.0441,0.0687,-0.0867,-1.9929005108275355,-0.05928627774119377,3.0895471572875977,-0.9411545395851135,8.089678158285096e-05,1.755194902420044,3.636485739345215,0.1479903757572174,0.2687320113182068,-1.3620870749102991,-0.0,-0.07938741892576218,0.8987855911254883,0.0,-0.023851599544286728,1.355366826057434,0.026634545996785164,0.09119226783514023
101.0,209.0,7.3998,-3.6981,5.5346,-0.0441,0.0687,-0.0867,-1.9934240780272425,-0.05488795042037964,3.090893268585205,-0.9411828517913818,0.00010285388270858675,1.757246732711792,3.6377875047871093,0.15843899548053741,0.27451252937316895,-1.3621109167682093,-0.0,-0.08316092193126678,0.8987012505531311,0.0,-0.02883964218199253,1.355606198310852,0.02332792617380619,0.026677921414375305
101.0,209.0,7.3998,-3.6981,5.5346,-0.0441,0.0687,-0.0867,-1.9938518009581507,-0.05331282690167427,3.0733559131622314,-0.9412428736686707,-7.458381878677756e-05,1.745237946510315,3.6391970354267578,0.1953439861536026,0.3067995607852936,-1.362147633229391,-0.0,-0.07246970385313034,0.8987137675285339,0.0,-0.016062628477811813,1.3558018207550049,0.021229596808552742,0.06257861107587814
101.0,209.0,7.3998,-3.6981,5.5346,-0.0441,0.0687,-0.0867,-1.9942270718016566,-0.05628643557429314,3.1178994178771973,-0.9411705732345581,-6.41829174128361e-05,1.7552759647369385,3.6403977113911132,0.207325741648674,0.2938276529312134,-1.3621066252337855,-0.0,-0.09603336453437805,0.8987095355987549,0.0,-0.012357320636510849,1.3559212684631348,0.019899766892194748,0.07254987955093384
101.0,209.0,7.3998,-3.6981,5.5346,-0.0441,0.0687,-0.0867,-1.994706769982809,-0.06112319231033325,3.1008057594299316,-0.941163182258606,-7.093156568771519e-07,1.7802103757858276,3.6420957285114746,0.2314726710319519,0.31231749057769775,-1.3621395269977015,-0.0,-0.08660215139389038,0.898741602897644,0.0,-0.0144418403506279,1.3560322523117065,0.0196684580296278,0.021603258326649666
101.0,209.0,7.3998,-3.6981,5.5346,-0.0441,0.0687,-0.0867,-1.995129247704977,-0.06567605584859848,3.0920379161834717,-0.941154956817627,-2.2980927124921675e-14,1.7749565839767456,3.644303007716797,0.27354586124420166,0.32171642780303955,-1.3621271292315882,-0.0,-0.07637489587068558,0.8987575769424438,0.0,-0.028539150953292847,1.356244683265686,0.020207516849040985,0.07699927687644958
101.0,209.0,7.3998,-3.6981,5.5346,-0.0441,0.0687,-0.0867,-1.9956609211363734,-0.07180436700582504,3.1079678535461426,-0.9411023855209351,-7.445528727159291e-22,1.7711217403411865,3.646637125606201,0.3203255534172058,0.368502676486969,-1.3621552626239222,-0.0,-0.08488015830516815,0.8986929059028625,0.0,-0.01840444654226303,1.3563239574432373,0.021011272445321083,0.12759432196617126
101.0,209.0,7.3998,-3.6981,5.5346,-0.0441,0.0687,-0.0867,-1.996256013909811,-0.07443595677614212,3.105177879333496,-0.9411507844924927,0.0013132665771991014,1.7749122381210327,3.64937607824292,0.34313300251960754,0.37873944640159607,-1.3621633688556116,-0.0,-0.09310774505138397,0.898688793182373,0.0,-0.025875799357891083,1.3565274477005005,0.02146156318485737,0.11947707831859589
98.0,200.0,7.9113,-3.4672,5.8744,0.0437,0.3955,-0.0156,-1.9968472919859828,-0.07552188634872437,3.2039690017700195,-0.9411394000053406,0.004331240896135569,1.813432216644287,3.652266188258789,0.3805548846721649,0.39309054613113403,-1.3621352354632776,-0.0,-0.09506672620773315,0.8986811637878418,0.0,-0.015316972509026527,1.35664701461792,0.021601606160402298,0.0881776213645935
98.0,200.0,7.9113,-3.4672,5.8744,0.0437,0.3955,-0.0156,-1.9973751507201136,-0.07487352937459946,3.1874637603759766,-0.9410586953163147,0.0038035069592297077,1.8047071695327759,3.6546212869831542,0.41244593262672424,0.3932977318763733,-1.3621228376971644,-0.0,-0.10293234884738922,0.8986971378326416,0.0,-0.023325473070144653,1.3568148612976074,0.022242186591029167,0.12257537990808487
98.0,200.0,7.9113,-3.4672,5.8744,0.0437,0.3955,-0.0156,-1.997969766656393,-0.07380757480859756,3.1732420921325684,-0.941171407699585,0.0013201346155256033,1.7716293334960938,3.658017321223877,0.44276487827301025,0.4150330126285553,-1.3620708624469202,-0.0,-0.09717338532209396,0.8986692428588867,0.0,-0.02108655869960785,1.3569377660751343,0.025796083733439445,0.07390329241752625
98.0,200.0,7.9113,-3.4672,5.8744,0.0437,0.3955,-0.0156,-1.998551984826559,-0.07280918210744858,3.1919291019439697,-0.9411591291427612,8.100659698584423e-08,1.8235197067260742,3.66158835470166,0.4650398790836334,0.4072386920452118,-1.3620947043048304,-0.0,-0.08838328719139099,0.8986532092094421,0.0,-0.024445556104183197,1.3571697473526,0.027180809527635574,0.05171343684196472
98.0,200.0,7.9113,-3.4672,5.8744,0.0437,0.3955,-0.0156,-1.9991475544371546,-0.07261645793914795,3.1862995624542236,-0.941163182258606,2.624510834760242e-15,1.7995926141738892,3.6653496462055664,0.48615923523902893,0.42817431688308716,-1.3621028105365198,-0.0,-0.07604959607124329,0.8986811637878418,0.0,-0.038851212710142136,1.3573445081710815,0.027247559279203415,0.08202864229679108
98.0,200.0,7.9113,-3.4672,5.8744,0.0437,0.3955,-0.0156,-1.9997183285155238,-0.077414371073246,3.102480888366699,-0.9411709308624268,8.503081210279352e-23,1.7917606830596924,3.6693460184284667,0.4947931170463562,0.42408856749534607,-1.3620627562152308,8.611731755081564e-05,-0.08291874825954437,0.898693323135376,0.0,-0.025042980909347534,1.3576284646987915,0.025300243869423866,0.08334866166114807
98.0,200.0,7.9113,-3.4672,5.8744,0.0437,0.3955,-0.0156,-2.0002299747862757,-0.08331470936536789,3.0940258502960205,-0.9411026239395142,-0.00029243199969641864,1.8028967380523682,3.6723171907612304,0.502709150314331,0.40110665559768677,-1.3621066252337855,9.784044232219458e-05,-0.07799997925758362,0.898688793182373,0.0,-0.04104803502559662,1.357767939567566,0.022917024791240692,0.028979692608118057
98.0,200.0,7.9113,-3.4672,5.8744,0.0437,0.3955,-0.0156,-2.0008493862547816,-0.08572666347026825,3.050032138824463,-0.9411109089851379,-2.82725795841543e-06,1.7374318838119507,3.6764728265949707,0.5196187496185303,0.39814847707748413,-1.3621066252337855,9.126046643359587e-05,-0.0722682774066925,0.8986934423446655,0.0,-0.036666207015514374,1.3579596281051636,0.020124081522226334,0.021514907479286194
98.0,200.0,7.9113,-3.4672,5.8744,0.0437,0.3955,-0.0156,-2.0015160046019496,-0.08499381691217422,3.0359582901000977,-0.9410710334777832,0.0019320993451401591,1.7381649017333984,3.6808535295673828,0.5375111699104309,0.39580315351486206,-1.362147633229391,7.309712964342907e-05,-0.07868671417236328,0.8986933827400208,0.0,-0.05257285013794899,1.3581269979476929,0.01814289391040802,-0.011026555672287941
98.0,200.0,7.9113,-3.4672,5.8744,0.0437,0.3955,-0.0156,-2.002223154107565,-0.0838456079363823,3.041806221008301,-0.9409984946250916,0.0029605142772197723,1.7335476875305176,3.685180826778076,0.54814612865448,0.39453744888305664,-1.3621633688556116,6.702222162857652e-05,-0.08441174030303955,0.898629367351532,-6.888539871852117e-08,-0.049855053424835205,1.358258605003357,0.016372431069612503,0.020385265350341797
98.0,200.0,7.9113,-3.4672,5.8744,0.0437,0.3955,-0.0156,-2.00293030361318,-0.0871109887957573,3.00160551071167,-0.9410111904144287,0.0016765821492299438,1.7461224794387817,3.689528627986572,0.5443741679191589,0.385978102684021,-1.3621109167682093,6.322767148958519e-05,-0.08718127012252808,0.8986375331878662,-1.251957955708538e-12,-0.04874388128519058,1.3583176136016846,0.015832964330911636,0.07012379169464111
98.0,200.0,7.9113,-3.4672,5.8744,0.0437,0.3955,-0.0156,-2.0034524403014125,-0.08567118644714355,3.037999153137207,-0.9410112500190735,0.0004793503030668944,1.696021556854248,3.6926962572285156,0.5342820286750793,0.3879826068878174,-1.3621271292315882,4.8943627916742116e-05,-0.10073668509721756,0.8986692428588867,-3.484870892527523e-16,-0.06014084815979004,1.358478307723999,0.014345924369990826,0.07951744645833969
98.0,168.0,3.4684,-1.7743,5.397,0.0417,0.3317,-0.0738,-2.0041281185545863,-0.07945439219474792,2.9783811569213867,-0.9410911798477173,-0.0006010885699652135,1.687121033668518,3.6968394952961425,0.5106367468833923,0.37609314918518066,-1.3621352354632776,4.6052711695665494e-05,-0.1005629301071167,0.8985769748687744,-6.333580586444317e-21,-0.07224533706903458,1.3585336208343506,0.01131304632872343,0.0881771445274353
98.0,168.0,3.4684,-1.7743,5.397,0.0417,0.3317,-0.0738,-2.0048228702940882,-0.08384541422128677,2.959010601043701,-0.9410706162452698,-0.002817891538143158,1.6700212955474854,3.700638933772705,0.47338438034057617,0.36850881576538086,-1.3621514479266565,3.2858981285244226e-05,-0.09852361679077148,0.8986334800720215,-0.00020582661090884358,-0.06596158444881439,1.3586417436599731,0.00885593518614769,0.15497365593910217
98.0,168.0,3.4684,-1.7743,5.397,0.0417,0.3317,-0.0738,-2.0055138073363246,-0.09138842672109604,2.9336016178131104,-0.9411589503288269,-0.0012713164323940873,1.6452401876449585,3.704014464015625,0.4065283536911011,0.3145919144153595,-1.362114731465475,-4.9716349167283624e-05,-0.10155178606510162,0.8986453413963318,-0.00022198510123416781,-0.07588016241788864,1.3587013483047485,0.007072451524436474,0.12490217387676239
98.0,168.0,3.4684,-1.7743,5.397,0.0417,0.3317,-0.0738,-2.0062128506102503,-0.09847922623157501,2.7987780570983887,-0.9411072731018066,-0.0004361421742942184,1.6516058444976807,3.7068869310566406,0.33139947056770325,0.26885613799095154,-1.3621428648578089,-8.949831681093201e-05,-0.09851042926311493,0.8986215591430664,-0.0002224703785032034,-0.07834380865097046,1.3586848974227905,0.005378704983741045,0.1424260139465332
98.0,168.0,3.4684,-1.7743,5.397,0.0417,0.3317,-0.0738,-2.0068122349181117,-0.09963548183441162,2.7673561573028564,-0.9410791993141174,0.00026310913381166756,1.5736109018325806,3.7086617189594726,0.2718678116798401,0.25263726711273193,-1.3621309439288538,-0.00048895797226578,-0.11201019585132599,0.8986339569091797,-0.00019799692381639034,-0.06551045179367065,1.3587450981140137,0.0035545502323657274,0.21549123525619507
98.0,168.0,3.4684,-1.7743,5.397,0.0417,0.3317,-0.0738,-2.0074945888915003,-0.0915505662560463,2.834280014038086,-0.9410151839256287,0.0025187742430716753,1.6276949644088745,3.71023337423291,0.14825111627578735,0.18467551469802856,-1.3621628920184534,-0.0012818293180316687,-0.12114214152097702,0.8986132144927979,-0.00020144626614637673,-0.06718237698078156,1.358801245689392,0.0016910285921767354,0.19403013586997986
98.0,168.0,3.4684,-1.7743,5.397,0.0417,0.3317,-0.0738,-2.008181234399313,-0.07769430428743362,2.774829387664795,-0.9410356283187866,0.002554810605943203,1.5618155002593994,3.711024447078369,0.054089516401290894,0.13714651763439178,-1.3621705214129847,-0.002834335435181856,-0.13959366083145142,0.8986900448799133,-0.00022931776766199619,-0.08772788941860199,1.3587851524353027,0.0008609346696175635,0.24465888738632202
98.0,168.0,3.4684,-1.7743,5.397,0.0417,0.3317,-0.0738,-2.0087887249388636,-0.0733647346496582,2.778205394744873,-0.9409946203231812,0.00021504108735825866,1.587103247642517,3.710911913509033,-0.038748517632484436,0.07174152880907059,-1.3622186819659632,-0.002486240351572633,-0.1544673591852188,0.898693859577179,-0.00026618153788149357,-0.0718064159154892,1.3587770462036133,0.0010829094098880887,0.3187084496021271
98.0,168.0,3.4684,-1.7743,5.397,0.0417,0.3317,-0.0738,-2.009383340875143,-0.07395598292350769,2.810626983642578,-0.9410462379455566,-0.002773697953671217,1.5827877521514893,3.7103864389606933,-0.0832461342215538,0.0691477432847023,-1.3622387091266077,-0.0020635260734707117,-0.14552855491638184,0.8986012935638428,-0.00026239806902594864,-0.08094030618667603,1.3587651252746582,0.0019455006113275886,0.32880470156669617
98.0,168.0,3.4684,-1.7743,5.397,0.0417,0.3317,-0.0738,-2.0099154911436976,-0.07798287272453308,2.788590908050537,-0.9411435127258301,-0.0034805035684257746,1.5931384563446045,3.709756537074707,-0.11601557582616806,0.046680547297000885,-1.362263027821676,-0.0015758208464831114,-0.13558076322078705,0.8986132144927979,-0.0003616774338297546,-0.0860433280467987,1.3588052988052368,0.0019978692289441824,0.3450811505317688
98.0,168.0,3.4684,-1.7743,5.397,0.0417,0.3317,-0.0738,-2.0104581318297328,-0.0803917795419693,2.753209352493286,-0.941066563129425,-0.00033365399576723576,1.5496399402618408,3.708582563991211,-0.1838313192129135,0.029213715344667435,-1.3622430006610315,-0.0009361313423141837,-0.14157161116600037,0.8986339569091797,-0.00028573261806741357,-0.08589909970760345,1.3588052988052368,0.0012484292965382338,0.31750231981277466
102.0,172.0,5.9952,-2.1948,6.2118,-0.0499,-0.2787,-0.1914,-2.011101385156149,-0.07917436957359314,2.8041176795959473,-0.9410985112190247,-5.828761084902823e-11,1.5707411766052246,3.7069617944904785,-0.20636656880378723,0.009811865165829659,-1.3622673193561,-0.0006048826035112143,-0.1510199010372162,0.8986415863037109,-0.0002725838858168572,-0.08511647582054138,1.3587688207626343,0.0007110160076990724,0.35040003061294556
102.0,172.0,5.9952,-2.1948,6.2118,-0.0499,-0.2787,-0.1914,-2.011696001092428,-0.07408122718334198,2.8055033683776855,-0.9410421848297119,-1.8884444462669772e-18,1.5822415351867676,3.7053024011799316,-0.2248174101114273,-0.004312112461775541,-1.3622306028949183,-0.000783122144639492,-0.15200453996658325,0.8986334800720215,-0.00022735069796908647,-0.09462781250476837,1.3588250875473022,0.0005420984816737473,0.33742815256118774
