ramyac6/ROB537/final_project/csv/good/good_200.csv
tof_0,tof_1,accelx,accely,accelz,gyrox,gyroy,gyroz,shoulder_lift_joint_position,shoulder_lift_joint_velocity,shoulder_lift_joint_effort,elbow_joint_position,elbow_joint_velocity,elbow_joint_effort,wrist_1_joint_position,wrist_1_joint_velocity,wrist_1_joint_effort,wrist_2_joint_position,wrist_2_joint_velocity,wrist_2_joint_effort,wrist_3_joint_position,wrist_3_joint_velocity,wrist_3_joint_effort,shoulder_pan_joint_position,shoulder_pan_joint_velocity,shoulder_pan_joint_effort
956.0,908.0,1.8102,0.1256,9.2758,-0.0347,0.0228,-0.1234,-1.6909119091429652,0.0,2.49406099319458,-1.9121723175048828,-0.0,1.9816334247589111,4.883564221649923,-0.0,0.2855032980442047,-1.5969098250018519,0.0,-0.008400553837418556,0.8254547119140625,-0.0,-0.008569475263357162,0.8108879327774048,0.0,0.007316218689084053
956.0,908.0,1.8102,0.1256,9.2758,-0.0347,0.0228,-0.1234,-1.6909758053221644,0.0,2.518779754638672,-1.912160873413086,-0.0,1.9628572463989258,4.883628311544218,-0.0,0.28460991382598877,-1.5969222227679651,0.0,-0.014467189088463783,0.8254666328430176,-0.0,-0.0128546841442585,0.8108192086219788,0.0,-0.05039018392562866
956.0,908.0,1.8102,0.1256,9.2758,-0.0347,0.0228,-0.1234,-1.690956254998678,0.0,2.518024444580078,-1.9121485948562622,-0.0,1.9703410863876343,4.883592146426,-0.0,0.292597234249115,-1.5969060103045862,0.0,-0.005489633418619633,0.825434684753418,-0.0,0.0014191832160577178,0.8108515739440918,0.0,-0.00024637486785650253
956.0,908.0,1.8102,0.1256,9.2758,-0.0347,0.0228,-0.1234,-1.6909476719298304,0.0,2.4459404945373535,-1.9121485948562622,-0.0,1.9695048332214355,4.883543777256765,-0.0,0.2859068214893341,-1.596921745930807,0.0,-0.0027050916105508804,0.8254745006561279,-0.0,-0.006375261582434177,0.81088787317276,0.0,-0.011263147927820683
956.0,908.0,1.8102,0.1256,9.2758,-0.0347,0.0228,-0.1234,-1.6909438572325648,0.0,2.4997520446777344,-1.9121403694152832,-0.0,2.0023093223571777,4.883592146426,-0.0,0.299003541469574,-1.5969098250018519,0.0,-0.005930724088102579,0.8254469633102417,-0.0,0.005168579518795013,0.8108436465263367,0.0,0.009341680444777012
956.0,908.0,1.8102,0.1256,9.2758,-0.0347,0.0228,-0.1234,-1.690967699090475,0.0,2.468064546585083,-1.912100076675415,-0.0,1.9922666549682617,4.883588033705511,-0.0,0.29530563950538635,-1.596905533467428,0.0,0.004353256430476904,0.8254387378692627,-0.0,-0.0019624396227300167,0.8108676075935364,0.0,0.008495747111737728
956.0,908.0,1.8102,0.1256,9.2758,-0.0347,0.0228,-0.1234,-1.6909357510008753,0.0,2.516087055206299,-1.912116527557373,-0.0,2.014873504638672,4.883588063507833,-0.0,0.3046262860298157,-1.5969579855548304,0.0,0.00028026639483869076,0.8254469633102417,-0.0,-0.016093533486127853,0.8108436465263367,0.0,0.05313965678215027
956.0,908.0,1.8102,0.1256,9.2758,-0.0347,0.0228,-0.1234,-1.690928121606344,0.0,2.540405511856079,-1.912152647972107,-0.0,1.9893944263458252,4.883572104364195,-0.0,0.2985188961029053,-1.5969179312335413,0.0,-0.01676899567246437,0.825446605682373,-0.0,0.0054749371483922005,0.8108839988708496,0.0,-0.01133081316947937
933.0,900.0,1.8383,0.0724,9.3159,-0.0418,0.0208,-0.1145,-1.690928121606344,0.0,2.5636608600616455,-1.9121289253234863,-0.0,2.000662326812744,4.883576157480039,-0.0,0.29039984941482544,-1.5969374815570276,0.0,-0.006390498485416174,0.8254588842391968,-0.0,-0.012310894206166267,0.8108840584754944,0.0,-0.010327518917620182
933.0,900.0,1.8383,0.0724,9.3159,-0.0418,0.0208,-0.1145,-1.6909080944456996,0.0,2.5320427417755127,-1.9121650457382202,-0.0,2.011155605316162,4.883572029858389,-0.0,0.2979969382286072,-1.5969417730914515,0.0,-0.017021389678120613,0.8254588842391968,-0.0,-0.0024455629754811525,0.8108717203140259,0.0,0.0645139068365097
933.0,900.0,1.8383,0.0724,9.3159,-0.0418,0.0208,-0.1145,-1.6909438572325648,0.0,2.490436315536499,-1.9121167659759521,-0.0,2.035855770111084,4.883576157480039,-0.0,0.2883756160736084,-1.5969541708575647,0.0,-0.00730176130309701,0.8254023790359497,-0.0,0.0020395517349243164,0.8108675479888916,0.0,-0.024891376495361328
933.0,900.0,1.8383,0.0724,9.3159,-0.0418,0.0208,-0.1145,-1.6909200153746546,0.0,2.5087480545043945,-1.9121413230895996,-0.0,2.0143532752990723,4.883600312262335,-0.0,0.30079346895217896,-1.5969136396991175,0.0,-0.006265588104724884,0.8254142999649048,-0.0,-0.006182772107422352,0.8108557462692261,0.0,0.021217433735728264
933.0,900.0,1.8383,0.0724,9.3159,-0.0418,0.0208,-0.1145,-1.6909200153746546,0.0,2.5478696823120117,-1.9121403694152832,-0.0,2.013359785079956,4.8835880784089944,-0.0,0.2827351987361908,-1.5969136396991175,0.0,-0.0021631792187690735,0.8254506587982178,-0.0,-0.0017390679568052292,0.8108758330345154,0.0,0.022459793835878372
933.0,900.0,1.8383,0.0724,9.3159,-0.0418,0.0208,-0.1145,-1.6909119091429652,0.0,2.5236878395080566,-1.9121123552322388,-0.0,1.9959534406661987,4.883539709239759,-0.0,0.3007519245147705,-1.596949879323141,0.0,-0.006044462323188782,0.8253986835479736,-0.0,-0.0020211355295032263,0.8108676075935364,0.0,0.029124164953827858
933.0,900.0,1.8383,0.0724,9.3159,-0.0418,0.0208,-0.1145,-1.6909200153746546,0.0,2.4871349334716797,-1.9121248722076416,-0.0,1.9880738258361816,4.883608194976606,-0.0,0.2880561947822571,-1.596961800252096,0.0,-0.013351717963814735,0.8254547119140625,-0.0,-0.01509096845984459,0.8108597993850708,0.0,-0.029554687440395355
933.0,900.0,1.8383,0.0724,9.3159,-0.0418,0.0208,-0.1145,-1.69089998821401,0.0,2.531729221343994,-1.9121485948562622,-0.0,1.9575809240341187,4.883547889977255,-0.0,0.29286056756973267,-1.5968812147723597,0.0,-0.020361527800559998,0.8254224061965942,-0.0,-0.0009222140070050955,0.8108799457550049,0.0,-0.01560090109705925
933.0,900.0,1.8383,0.0724,9.3159,-0.0418,0.0208,-0.1145,-1.6909357510008753,0.0,2.5348081588745117,-1.9121609926223755,-0.0,1.9838910102844238,4.883592131524839,-0.0,0.2925606071949005,-1.5969374815570276,0.0,-0.018641779199242592,0.8254506587982178,-0.0,-0.006234852597117424,0.8108680844306946,0.0,0.004756897687911987
933.0,900.0,1.8383,0.0724,9.3159,-0.0418,0.0208,-0.1145,-1.6908875904478968,0.0,2.534862995147705,-1.9121371507644653,-0.0,2.00327730178833,4.8836282817418954,-0.0,0.2946511507034302,-1.5969341436969202,0.0,-0.011347181163728237,0.825467050075531,-0.0,0.005856213625520468,0.8108882308006287,0.0,-0.025016795843839645
933.0,900.0,1.8383,0.0724,9.3159,-0.0418,0.0208,-0.1145,-1.690904279748434,0.0,2.513047456741333,-1.9121485948562622,-0.0,2.042609691619873,4.883588048606672,-0.0,0.29045236110687256,-1.5969179312335413,0.0,-0.00502408854663372,0.8254588842391968,-0.0,-0.007090253755450249,0.8108799457550049,0.0,0.025932999327778816
933.0,900.0,1.8383,0.0724,9.3159,-0.0418,0.0208,-0.1145,-1.690928121606344,0.0,2.5139801502227783,-1.9121609926223755,-0.0,2.013242244720459,4.883572059660711,-0.0,0.2860306203365326,-1.5969341436969202,0.0,-0.016697436571121216,0.8254305720329285,-0.0,0.0006973384297452867,0.8108597993850708,0.0,0.029064511880278587
933.0,900.0,1.8383,0.0724,9.3159,-0.0418,0.0208,-0.1145,-1.690916200677389,0.0,2.4885265827178955,-1.9121527671813965,-0.0,2.0291850566864014,4.883547919779577,-0.0,0.2855384349822998,-1.5969179312335413,0.0,-0.0036600984167307615,0.8254666328430176,-0.0,-0.009439757093787193,0.8109002113342285,0.0,-0.035119105130434036
933.0,900.0,1.8383,0.0724,9.3159,-0.0418,0.0208,-0.1145,-1.6909357510008753,0.0,2.4851880073547363,-1.9121403694152832,-0.0,1.9943970441818237,4.883624139219084,-0.0,0.298297643661499,-1.5969017187701624,0.0,-4.8018700908869505e-05,0.8254305720329285,-0.0,0.008198948577046394,0.81088787317276,0.0,0.02450844831764698
933.0,900.0,1.8383,0.0724,9.3159,-0.0418,0.0208,-0.1145,-1.69089998821401,0.0,2.4823803901672363,-1.9121806621551514,-0.0,2.003335475921631,4.8835802403982065,-0.0,0.29076918959617615,-1.5969494024859827,0.0,-1.0592862963676453e-05,0.8254346251487732,-0.0,-0.007071059197187424,0.8108634948730469,0.0,-0.01868325285613537
933.0,900.0,1.8383,0.0724,9.3159,-0.0418,0.0208,-0.1145,-1.6909238300719203,0.0,2.5329079627990723,-1.9121246337890625,-0.0,1.9597452878952026,4.883592146426,-0.0,0.2900010347366333,-1.596893612538473,0.0,0.00021238438785076141,0.8253827095031738,-0.0,-0.01033684890717268,0.8108676671981812,0.0,-0.004374478943645954
964.0,905.0,1.66,0.0102,9.5306,-0.0392,0.016,-0.1126,-1.6908875904478968,0.0,2.4962217807769775,-1.9120999574661255,-0.0,2.017340898513794,4.8836040673549554,-0.0,0.2936584949493408,-1.59691030183901,0.0,-0.005255013704299927,0.8253662586212158,-0.0,-0.013296401128172874,0.8108395338058472,0.0,0.033131103962659836
964.0,905.0,1.66,0.0102,9.5306,-0.0392,0.016,-0.1126,-1.6909319363036097,0.0,2.529423236846924,-1.9121289253234863,-0.0,1.9930362701416016,4.883588063507833,-0.0,0.30349403619766235,-1.596905533467428,0.0,0.002641395665705204,0.825442910194397,-0.0,0.006684183608740568,0.8108837604522705,0.0,-0.027527134865522385
964.0,905.0,1.66,0.0102,9.5306,-0.0392,0.016,-0.1126,-1.6909519634642542,0.0,2.4492335319519043,-1.912144422531128,-0.0,1.9963915348052979,4.883560138731756,-0.0,0.30456000566482544,-1.5969460646258753,0.0,-0.008909080177545547,0.8254506587982178,-0.0,0.008880546316504478,0.8108515739440918,0.0,0.023431334644556046
964.0,905.0,1.66,0.0102,9.5306,-0.0392,0.016,-0.1126,-1.690916200677389,0.0,2.491668701171875,-1.9120721817016602,-0.0,2.005204200744629,4.8836122182901285,-0.0,0.28317171335220337,-1.5969341436969202,0.0,-0.014310862869024277,0.8254988789558411,-0.0,-0.00744152395054698,0.8108597993850708,0.0,0.017089763656258583
964.0,905.0,1.66,0.0102,9.5306,-0.0392,0.016,-0.1126,-1.690928121606344,0.0,2.509202003479004,-1.9120606184005737,-0.0,2.016453504562378,4.883567991643705,-0.0,0.29043447971343994,-1.596893612538473,0.0,-0.001024841796606779,0.8254785537719727,-0.0,-0.021297777071595192,0.8108717203140259,0.0,0.060556549578905106
964.0,905.0,1.66,0.0102,9.5306,-0.0392,0.016,-0.1126,-1.690928121606344,0.0,2.5015532970428467,-1.9120917320251465,-0.0,2.01412296295166,4.883560138731756,-0.0,0.3077583909034729,-1.5969017187701624,0.0,-0.00982749368995428,0.8254546523094177,-0.0,-0.009344527497887611,0.8109161853790283,0.0,0.010246227495372295
964.0,905.0,1.66,0.0102,9.5306,-0.0392,0.016,-0.1126,-1.6909438572325648,0.0,2.510258197784424,-1.9121289253234863,-0.0,1.9672363996505737,4.883608135371961,-0.0,0.3019956052303314,-1.5969417730914515,0.0,-0.003020661883056164,0.8254106044769287,-0.0,0.005179562605917454,0.8109039068222046,0.0,-0.03826794773340225
964.0,905.0,1.66,0.0102,9.5306,-0.0392,0.016,-0.1126,-1.690904279748434,0.0,2.543640613555908,-1.912144422531128,-0.0,1.9859652519226074,4.883567991643705,-0.0,0.2907748818397522,-1.5969136396991175,0.0,-0.016545547172427177,0.8254346251487732,-0.0,-0.004714055918157101,0.81088787317276,0.0,0.008388446643948555
964.0,905.0,1.66,0.0102,9.5306,-0.0392,0.016,-0.1126,-1.6908837757506312,0.0,2.5479512214660645,-1.9121123552322388,-0.0,1.9575954675674438,4.883600416570463,-0.0,0.29799705743789673,-1.5969179312335413,0.0,0.00498773530125618,0.8254589438438416,-0.0,-0.0034480965696275234,0.8108639121055603,0.0,-0.013449293561279774
964.0,905.0,1.66,0.0102,9.5306,-0.0392,0.016,-0.1126,-1.6908875904478968,0.0,2.518550395965576,-1.9121289253234863,-0.0,2.007166862487793,4.883572059660711,-0.0,0.2804854214191437,-1.5969341436969202,0.0,-0.017180174589157104,0.8254305124282837,-0.0,0.000382778060156852,0.8108436465263367,0.0,-0.02345266379415989
964.0,905.0,1.66,0.0102,9.5306,-0.0392,0.016,-0.1126,-1.6909200153746546,0.0,2.485626697540283,-1.9121123552322388,-0.0,2.014200448989868,4.883552062302389,-0.0,0.30042794346809387,-1.5969298521624964,0.0,-0.010998431593179703,0.8254184126853943,-0.0,0.01312263123691082,0.8108676075935364,0.0,-0.024035120382905006
964.0,905.0,1.66,0.0102,9.5306,-0.0392,0.016,-0.1126,-1.6909319363036097,0.0,2.5147931575775146,-1.9121403694152832,-0.0,1.98404860496521,4.8835802403982065,-0.0,0.28889238834381104,-1.5969017187701624,0.0,-0.006893771700561047,0.8254265189170837,-0.0,0.004375984892249107,0.8108516335487366,0.0,-0.025430675595998764
964.0,905.0,1.66,0.0102,9.5306,-0.0392,0.016,-0.1126,-1.6909638843932093,0.0,2.503878355026245,-1.9121567010879517,-0.0,1.9967920780181885,4.883572059660711,-0.0,0.2966380715370178,-1.5968979040728968,0.0,-0.001926638651639223,0.8253903985023499,-0.0,0.0014551798813045025,0.8109163045883179,0.0,-0.010644434951245785
964.0,905.0,1.66,0.0102,9.5306,-0.0392,0.016,-0.1126,-1.6909519634642542,0.0,2.5530147552490234,-1.912116527557373,-0.0,1.9766361713409424,4.88355607071475,-0.0,0.2854733467102051,-1.5969417730914515,0.0,-0.00497820321470499,0.8254547119140625,-0.0,-0.007070223800837994,0.8109079599380493,0.0,0.008132284507155418
964.0,905.0,1.66,0.0102,9.5306,-0.0392,0.016,-0.1126,-1.6909834347166957,0.0,2.493093967437744,-1.9121041297912598,-0.0,2.011789083480835,4.883560138731756,-0.0,0.2983778119087219,-1.5969460646258753,0.0,-0.00696184067055583,0.8254183530807495,-0.0,0.00645213620737195,0.8108758330345154,0.0,-0.031076716259121895
964.0,905.0,1.66,0.0102,9.5306,-0.0392,0.016,-0.1126,-1.6908961735167445,0.0,2.485670328140259,-1.912144422531128,-0.0,2.0169272422790527,4.883592146426,-0.0,0.2855393588542938,-1.5969179312335413,0.0,-0.005325000733137131,0.8254510760307312,-0.0,-0.007507153321057558,0.81088787317276,0.0,0.023371364921331406
936.0,890.0,1.8293,0.0808,9.2327,-0.0359,0.0267,-0.1147,-1.6908837757506312,0.0,2.5092239379882812,-1.9121041297912598,-0.0,1.9788304567337036,4.883576142578878,-0.0,0.29201778769493103,-1.5969341436969202,0.0,-0.009250078350305557,0.8254666328430176,-0.0,-0.015939250588417053,0.8108676075935364,0.0,0.007511454168707132
936.0,890.0,1.8293,0.0808,9.2327,-0.0359,0.0267,-0.1147,-1.6909119091429652,0.0,2.50520658493042,-1.912108302116394,-0.0,1.9896012544631958,4.883572059660711,-0.0,0.29455479979515076,-1.5969460646258753,0.0,-0.006948079913854599,0.8254506587982178,-0.0,-0.00698135606944561,0.8108757734298706,0.0,-0.01671198010444641
936.0,890.0,1.8293,0.0808,9.2327,-0.0359,0.0267,-0.1147,-1.6909119091429652,0.0,2.501150608062744,-1.912144422531128,-0.0,1.9898122549057007,4.883564221649923,-0.0,0.2985476851463318,-1.596949879323141,0.0,-0.0041115316562354565,0.8254387378692627,-0.0,-0.0006520269671455026,0.810879647731781,0.0,-0.022354405373334885
936.0,890.0,1.8293,0.0808,9.2327,-0.0359,0.0267,-0.1147,-1.6909119091429652,0.0,2.540839195251465,-1.9121081829071045,-0.0,1.9431049823760986,4.883608135371961,-0.0,0.28128015995025635,-1.5969379583941858,0.0,0.00169843016192317,0.8253822922706604,-0.0,-0.0021597109735012054,0.8108997344970703,0.0,0.006954964715987444
936.0,890.0,1.8293,0.0808,9.2327,-0.0359,0.0267,-0.1147,-1.690928121606344,0.0,2.5081698894500732,-1.9121805429458618,-0.0,1.985818862915039,4.883564206748762,-0.0,0.290654718875885,-1.5969060103045862,0.0,0.00040414021350443363,0.8254424929618835,-0.0,-0.0031969896517693996,0.810896098613739,0.0,-0.01984436623752117
936.0,890.0,1.8293,0.0808,9.2327,-0.0359,0.0267,-0.1147,-1.690928121606344,0.0,2.511713981628418,-1.9121527671813965,-0.0,1.9763872623443604,4.88355607071475,-0.0,0.2990362048149109,-1.596961800252096,0.0,-0.0031102087814360857,0.8254346251487732,-0.0,-0.012543495744466782,0.8108676075935364,0.0,0.0037762662395834923
936.0,890.0,1.8293,0.0808,9.2327,-0.0359,0.0267,-0.1147,-1.6909319363036097,0.0,2.499711275100708,-1.9120804071426392,-0.0,1.9843757152557373,4.883620071202078,-0.0,0.2934223413467407,-1.596949879323141,0.0,-0.0007510825525969267,0.8254347443580627,-0.0,0.003235817886888981,0.8108717203140259,0.0,-0.005566072650253773
936.0,890.0,1.8293,0.0808,9.2327,-0.0359,0.0267,-0.1147,-1.690916200677389,0.0,2.4639909267425537,-1.912152647972107,-0.0,2.034858226776123,4.883580225497045,-0.0,0.30013352632522583,-1.5969222227679651,0.0,-0.009735658764839172,0.8254187107086182,-0.0,0.004595945589244366,0.8108717203140259,0.0,-0.04269004240632057
936.0,890.0,1.8293,0.0808,9.2327,-0.0359,0.0267,-0.1147,-1.6909119091429652,0.0,2.465646743774414,-1.912116527557373,-0.0,2.02612566947937,4.883612277894773,-0.0,0.2803698480129242,-1.5969579855548304,0.0,-0.01503237895667553,0.8254871368408203,-0.0,-0.0026537682861089706,0.8109160661697388,0.0,0.006754509173333645
936.0,890.0,1.8293,0.0808,9.2327,-0.0359,0.0267,-0.1147,-1.6909557781615199,0.0,2.5259456634521484,-1.9121123552322388,-0.0,1.9695812463760376,4.883531826525488,-0.0,0.2939348518848419,-1.5969136396991175,0.0,-0.012266665697097778,0.8254224061965942,-0.0,-0.005803569685667753,0.8108757734298706,0.0,0.04915948957204819
936.0,890.0,1.8293,0.0808,9.2327,-0.0359,0.0267,-0.1147,-1.6909119091429652,0.0,2.5060670375823975,-1.9121205806732178,-0.0,1.9955885410308838,4.88357991257266,-0.0,0.29763340950012207,-1.5969179312335413,0.0,-0.008767115883529186,0.8255110383033752,-0.0,-0.008409149944782257,0.8108518719673157,0.0,-0.010091209784150124
936.0,890.0,1.8293,0.0808,9.2327,-0.0359,0.0267,-0.1147,-1.69089998821401,0.0,2.5040996074676514,-1.9121041297912598,-0.0,1.971782922744751,4.883583995490827,-0.0,0.3041994869709015,-1.5969460646258753,0.0,-0.011578338220715523,0.8254384398460388,-0.0,-0.0016128688585013151,0.8108757734298706,0.0,-0.010597426444292068
936.0,890.0,1.8293,0.0808,9.2327,-0.0359,0.0267,-0.1147,-1.6909119091429652,0.0,2.5147433280944824,-1.9120763540267944,-0.0,2.035431385040283,4.883580225497045,-0.0,0.3101017475128174,-1.5969260374652308,0.0,0.007877225987613201,0.8254908323287964,-0.0,-0.0027989856898784637,0.8109161853790283,0.0,0.0011055809445679188
936.0,890.0,1.8293,0.0808,9.2327,-0.0359,0.0267,-0.1147,-1.6909238300719203,0.0,2.508607864379883,-1.912160873413086,-0.0,1.9550081491470337,4.88358439782218,-0.0,0.2890966534614563,-1.5969222227679651,0.0,-0.0049800146371126175,0.8254749178886414,-0.0,-0.0038442625664174557,0.810831606388092,0.0,-0.0022756815887987614
936.0,890.0,1.8293,0.0808,9.2327,-0.0359,0.0267,-0.1147,-1.690928121606344,0.0,2.4722232818603516,-1.9121330976486206,-0.0,1.9820241928100586,4.883583980589666,-0.0,0.28574925661087036,-1.5969255606280726,0.0,-0.01246660202741623,0.8254224061965942,-0.0,-0.0006388623733073473,0.8108557462692261,0.0,-0.024151645600795746
964.0,920.0,1.9298,0.1316,9.0532,-0.0312,0.0276,-0.1187,-1.6909157238402308,0.0,2.5453596115112305,-1.9121248722076416,-0.0,1.9801011085510254,4.883556055813589,-0.0,0.2983100116252899,-1.5969460646258753,0.0,-0.008169952780008316,0.8254265785217285,-0.0,0.002434835769236088,0.8108797073364258,0.0,0.0284635778516531
964.0,920.0,1.9298,0.1316,9.0532,-0.0312,0.0276,-0.1187,-1.6908794842162074,0.0,2.5153770446777344,-1.9121123552322388,-0.0,1.989522099494934,4.883600029140272,-0.0,0.29468265175819397,-1.5969298521624964,0.0,-0.007234507706016302,0.8254593014717102,-0.0,-0.0053146714344620705,0.8108395934104919,0.0,0.014588619582355022
964.0,920.0,1.9298,0.1316,9.0532,-0.0312,0.0276,-0.1187,-1.690967699090475,0.0,2.505384683609009,-1.9121041297912598,-0.0,1.9857659339904785,4.883560153632917,-0.0,0.2884690463542938,-1.5969255606280726,0.0,-0.005053683649748564,0.8254506587982178,-0.0,-0.0013747371267527342,0.8109079599380493,0.0,0.03809242695569992
964.0,920.0,1.9298,0.1316,9.0532,-0.0312,0.0276,-0.1187,-1.6909595928587855,0.0,2.5172030925750732,-1.9120649099349976,-0.0,1.9744230508804321,4.883543821960249,-0.0,0.29552316665649414,-1.5969422499286097,0.0,-0.018085669726133347,0.825434684753418,-0.0,-0.0009071461390703917,0.8108475208282471,0.0,-0.019773881882429123
964.0,920.0,1.9298,0.1316,9.0532,-0.0312,0.0276,-0.1187,-1.690916200677389,0.0,2.5313878059387207,-1.9121248722076416,-0.0,2.0296382904052734,4.883520024805822,-0.0,0.295234739780426,-1.5969341436969202,0.0,-0.012716911733150482,0.8254347443580627,-0.0,0.003860977478325367,0.8108758330345154,0.0,-0.0056128292344510555
964.0,920.0,1.9298,0.1316,9.0532,-0.0312,0.0276,-0.1187,-1.6908875904478968,0.0,2.5313987731933594,-1.9121452569961548,-0.0,2.008254051208496,4.883556011110105,-0.0,0.2831505835056305,-1.5968979040728968,0.0,-0.005404572002589703,0.8254265785217285,-0.0,-0.008991044946014881,0.8108234405517578,0.0,-0.017516888678073883
964.0,920.0,1.9298,0.1316,9.0532,-0.0312,0.0276,-0.1187,-1.6909357510008753,0.0,2.510434627532959,-1.9121205806732178,-0.0,2.0002379417419434,4.883583980589666,-0.0,0.2858436107635498,-1.5969303289996546,0.0,-0.014607859775424004,0.8254506587982178,-0.0,-0.007161353249102831,0.8108758330345154,0.0,0.015712197870016098
964.0,920.0,1.9298,0.1316,9.0532,-0.0312,0.0276,-0.1187,-1.6909438572325648,0.0,2.515957832336426,-1.9121485948562622,-0.0,2.020242929458618,4.883608165174284,-0.0,0.2890653908252716,-1.596949879323141,0.0,-0.0033458033576607704,0.82541424036026,-0.0,-0.0029569752514362335,0.8108717203140259,0.0,-0.0073646982200443745
964.0,920.0,1.9298,0.1316,9.0532,-0.0312,0.0276,-0.1187,-1.6909476719298304,0.0,2.5325233936309814,-1.9121248722076416,-0.0,2.0575716495513916,4.883580225497045,-0.0,0.2929249405860901,-1.5968893210040491,0.0,0.0026026382111012936,0.8254305720329285,-0.0,-0.0037476574070751667,0.8108395934104919,0.0,-0.0013625617139041424
964.0,920.0,1.9298,0.1316,9.0532,-0.0312,0.0276,-0.1187,-1.6909476719298304,0.0,2.483883857727051,-1.9121248722076416,-0.0,2.0135772228240967,4.883592206030645,-0.0,0.2918882369995117,-1.5969136396991175,0.0,-0.006935953628271818,0.8254305720329285,-0.0,-0.010000144131481647,0.8108680248260498,0.0,0.03494195640087128
964.0,920.0,1.9298,0.1316,9.0532,-0.0312,0.0276,-0.1187,-1.6909758053221644,0.0,2.5628294944763184,-1.912144422531128,-0.0,2.054532527923584,4.883567961841383,-0.0,0.29620036482810974,-1.5969460646258753,0.0,-0.00746412668377161,0.825422465801239,-0.0,-0.014110620133578777,0.810928463935852,0.0,0.03315063193440437
964.0,920.0,1.9298,0.1316,9.0532,-0.0312,0.0276,-0.1187,-1.6909400425352992,0.0,2.4937870502471924,-1.9121123552322388,-0.0,2.0001206398010254,4.883519637375631,-0.0,0.30349814891815186,-1.5969098250018519,0.0,-0.00788994412869215,0.82541424036026,-0.0,-0.006568032316863537,0.8108676075935364,0.0,-0.016005389392375946
964.0,920.0,1.9298,0.1316,9.0532,-0.0312,0.0276,-0.1187,-1.6909476719298304,0.0,2.532071590423584,-1.9121330976486206,-0.0,2.0270607471466064,4.8835520325000665,-0.0,0.2864992618560791,-1.5969179312335413,0.0,-0.015383636578917503,0.8254265785217285,-0.0,0.0027608759701251984,0.8108271956443787,0.0,-0.0014838925562798977
964.0,920.0,1.9298,0.1316,9.0532,-0.0312,0.0276,-0.1187,-1.690904279748434,0.0,2.4913158416748047,-1.912116527557373,-0.0,2.046342611312866,4.8835720894630334,-0.0,0.2905171811580658,-1.5969341436969202,0.0,-0.009278613142669201,0.825430691242218,-0.0,-0.0012282873503863811,0.8109163045883179,0.0,-0.010298524051904678
964.0,920.0,1.9298,0.1316,9.0532,-0.0312,0.0276,-0.1187,-1.6909080944456996,0.0,2.5332555770874023,-1.9121485948562622,-0.0,2.0308470726013184,4.8836201010044,-0.0,0.29128286242485046,-1.5969136396991175,0.0,-0.007030842825770378,0.8254183530807495,-0.0,-0.01906227506697178,0.8108758330345154,0.0,0.031464241445064545
964.0,920.0,1.9298,0.1316,9.0532,-0.0312,0.0276,-0.1187,-1.6909476719298304,0.0,2.534473180770874,-1.9121485948562622,-0.0,1.9522228240966797,4.883571761637487,-0.0,0.28996360301971436,-1.5969222227679651,0.0,-0.027120834216475487,0.8254786729812622,-0.0,-0.008093735203146935,0.8107911944389343,0.0,0.004721301607787609
967.0,905.0,1.8293,0.0754,9.3751,-0.0293,0.027,-0.1208,-1.6909319363036097,0.0,2.5175564289093018,-1.912100076675415,-0.0,1.9794831275939941,4.883588093310156,-0.0,0.28620684146881104,-1.5969379583941858,0.0,-0.0021153974812477827,0.8254224061965942,-0.0,-0.010752340778708458,0.8108838200569153,0.0,-0.008417087607085705
967.0,905.0,1.8293,0.0754,9.3751,-0.0293,0.027,-0.1208,-1.690928121606344,0.0,2.4970955848693848,-1.9121288061141968,-0.0,2.020805597305298,4.883588063507833,-0.0,0.29255232214927673,-1.5969136396991175,0.0,-0.021172314882278442,0.8254265189170837,-0.0,-0.00797694455832243,0.8108717203140259,0.0,0.0073586758226156235
967.0,905.0,1.8293,0.0754,9.3751,-0.0293,0.027,-0.1208,-1.6909080944456996,0.0,2.502920627593994,-1.912091851234436,-0.0,1.998896598815918,4.8836040673549554,-0.0,0.30533066391944885,-1.596905533467428,0.0,-0.014290682971477509,0.8254507184028625,-0.0,-0.012911553494632244,0.8109039068222046,0.0,0.01637336239218712
967.0,905.0,1.8293,0.0754,9.3751,-0.0293,0.027,-0.1208,-1.6909438572325648,0.0,2.508798599243164,-1.912108302116394,-0.0,2.0181429386138916,4.883600371866979,-0.0,0.294807493686676,-1.5969298521624964,0.0,-0.013112751767039299,0.825434684753418,-0.0,-0.0060423691757023335,0.8108680844306946,0.0,0.014331398531794548
967.0,905.0,1.8293,0.0754,9.3751,-0.0293,0.027,-0.1208,-1.6909119091429652,0.0,2.4840247631073,-1.912152647972107,-0.0,2.0187458992004395,4.8835880784089944,-0.0,0.29981130361557007,-1.596949879323141,0.0,0.001510643633082509,0.8255106806755066,-0.0,-0.0063978456892073154,0.8109039068222046,0.0,-0.012908083386719227
967.0,905.0,1.8293,0.0754,9.3751,-0.0293,0.027,-0.1208,-1.690967699090475,0.0,2.5528645515441895,-1.9121123552322388,-0.0,2.0120012760162354,4.883560138731756,-0.0,0.29794517159461975,-1.5969298521624964,0.0,-0.011202201247215271,0.8253982663154602,-0.0,-0.0022627643775194883,0.8108557462692261,0.0,-0.015531308017671108
967.0,905.0,1.8293,0.0754,9.3751,-0.0293,0.027,-0.1208,-1.690904279748434,0.0,2.5668556690216064,-1.9121330976486206,-0.0,1.994969129562378,4.883560138731756,-0.0,0.28968626260757446,-1.5969017187701624,0.0,0.00431839469820261,0.8254506587982178,-0.0,-0.0006773404311388731,0.8108475208282471,0.0,-0.01335675735026598
967.0,905.0,1.8293,0.0754,9.3751,-0.0293,0.027,-0.1208,-1.690916200677389,0.0,2.51414155960083,-1.9121805429458618,-0.0,1.9961215257644653,4.883583980589666,-0.0,0.2978721559047699,-1.5969541708575647,0.0,-0.014700235798954964,0.8254789710044861,-0.0,-0.005782501772046089,0.8109039068222046,0.0,0.05040470510721207
967.0,905.0,1.8293,0.0754,9.3751,-0.0293,0.027,-0.1208,-1.6909357510008753,0.0,2.531662702560425,-1.912100076675415,-0.0,1.961602807044983,4.883608135371961,-0.0,0.30315518379211426,-1.5969298521624964,0.0,-0.012383965775370598,0.8254265785217285,-0.0,-0.008662709966301918,0.8108840584754944,0.0,-0.010675927624106407
967.0,905.0,1.8293,0.0754,9.3751,-0.0293,0.027,-0.1208,-1.6909519634642542,0.0,2.512701988220215,-1.9121403694152832,8.762986447585774e-10,2.017962694168091,4.883567991643705,-0.0,0.2953442633152008,-1.5969298521624964,0.0,-0.0078085861168801785,0.8254387378692627,-0.0,-0.01153839286416769,0.8108435869216919,0.0,-0.0059153796173632145
967.0,905.0,1.8293,0.0754,9.3751,-0.0293,0.027,-0.1208,-1.6908718548216761,0.0,2.5138940811157227,-1.91214120388031,2.116157870476706e-15,1.9475829601287842,4.883588063507833,-0.0,0.2972760796546936,-1.5969136396991175,0.0,-0.02426564320921898,0.8254789113998413,-0.0,0.01448512077331543,0.8108556866645813,0.0,0.007475517690181732
967.0,905.0,1.8293,0.0754,9.3751,-0.0293,0.027,-0.1208,-1.6909519634642542,0.0,2.547140121459961,-1.9121330976486206,5.110272145048238e-21,2.032601833343506,4.883527833014288,-0.0,0.30565524101257324,-1.596949879323141,0.0,-0.0069685583002865314,0.8254547119140625,-0.0,-0.004864594899117947,0.8108556866645813,0.0,0.010050337761640549
967.0,905.0,1.8293,0.0754,9.3751,-0.0293,0.027,-0.1208,-1.6908875904478968,0.0,2.561173915863037,-1.912116527557373,1.2340706578568249e-26,1.968123197555542,4.883588063507833,-0.0,0.28405648469924927,-1.5969703833209437,0.0,-0.008945450186729431,0.8254666328430176,-0.0,-0.0020908876322209835,0.810920238494873,0.0,0.01638782024383545
967.0,905.0,1.8293,0.0754,9.3751,-0.0293,0.027,-0.1208,-1.690904279748434,0.0,2.565263271331787,-1.9121288061141968,2.9801359064709166e-32,2.004263162612915,4.883588063507833,-0.0,0.2884097099304199,-1.5969017187701624,0.0,-0.014324781484901905,0.82541424036026,-0.0,0.005678973626345396,0.8108717203140259,0.0,-0.023746130988001823
967.0,905.0,1.8293,0.0754,9.3751,-0.0293,0.027,-0.1208,-1.6909476719298304,0.0,2.4949615001678467,-1.9120523929595947,7.196678791279792e-38,2.0243678092956543,4.883588063507833,-0.0,0.2942696213722229,-1.5969298521624964,0.0,0.0005353102460503578,0.8254305720329285,-0.0,-0.006108325440436602,0.8109121322631836,0.0,-0.006151730194687843
958.0,878.0,1.806,0.1107,9.2883,-0.0377,0.0234,-0.1205,-1.69089998821401,0.0,2.5093512535095215,-1.9121205806732178,1.295360300421861e-41,1.9899029731750488,4.883576142578878,-0.0,0.28946810960769653,-1.5969179312335413,0.0,-0.0071273073554039,0.8254428505897522,-0.0,-0.007029932923614979,0.8109080195426941,0.0,0.04485490918159485
958.0,878.0,1.806,0.1107,9.2883,-0.0377,0.0234,-0.1205,-1.690928121606344,0.0,2.5172464847564697,-1.9121568202972412,0.0,2.0158450603485107,4.883523750096121,-0.0,0.29507091641426086,-1.5969136396991175,0.0,-0.004340507555752993,0.8254465460777283,-0.0,0.007646606303751469,0.8108757734298706,0.0,-0.04502732679247856
958.0,878.0,1.806,0.1107,9.2883,-0.0377,0.0234,-0.1205,-1.6909400425352992,0.0,2.494506597518921,-1.9120566844940186,-0.0,1.9918091297149658,4.88355607071475,-0.0,0.31552553176879883,-1.5969341436969202,0.0,0.006781320553272963,0.8254224061965942,-0.0,0.003636315930634737,0.8109160661697388,0.0,0.005977799650281668
958.0,878.0,1.806,0.1107,9.2883,-0.0377,0.0234,-0.1205,-1.6908837757506312,0.0,2.5507354736328125,-1.9121289253234863,-0.0,1.9823811054229736,4.8836040673549554,-0.0,0.30212506651878357,-1.5969417730914515,0.0,-0.0022518131881952286,0.8253823518753052,-0.0,0.005296098999679089,0.8108915090560913,0.0,-0.00738358311355114
958.0,878.0,1.806,0.1107,9.2883,-0.0377,0.0234,-0.1205,-1.690928121606344,0.0,2.465834856033325,-1.912100076675415,0.00012889654317405075,1.9630649089813232,4.883608135371961,-0.0,0.3017514944076538,-1.5969136396991175,0.0,-0.015670251101255417,0.8254265785217285,-0.0,-0.0018676365725696087,0.8108152151107788,0.0,-0.019168250262737274
958.0,878.0,1.806,0.1107,9.2883,-0.0377,0.0234,-0.1205,-1.6909080944456996,0.0,2.497528314590454,-1.9120564460754395,0.00020254486298654228,1.9931429624557495,4.88357991257266,-0.0,0.2973511815071106,-1.5969460646258753,0.0,-0.0011007694993168116,0.8254305720329285,-0.0,0.00017830240540206432,0.8109201788902283,0.0,0.0251805130392313
958.0,878.0,1.806,0.1107,9.2883,-0.0377,0.0234,-0.1205,-1.6908837757506312,0.0,2.52947998046875,-1.9120646715164185,0.001076385728083551,2.008026123046875,4.8836200563009164,-0.0,0.2991114854812622,-1.5969536940204065,0.0,-0.010645857080817223,0.8254666328430176,-0.0,-0.007433208636939526,0.810912013053894,0.00044521692325361073,-0.005484459456056356
958.0,878.0,1.806,0.1107,9.2883,-0.0377,0.0234,-0.1205,-1.6909438572325648,0.0,2.529663324356079,-1.9121081829071045,0.0013647058513015509,2.0028762817382812,4.883611905365743,-0.0,0.29049837589263916,-1.596961800252096,0.0,-0.018684804439544678,0.8254106044769287,-0.0,-0.007100192364305258,0.8109160661697388,0.000418745243223384,0.014699872583150864
958.0,878.0,1.806,0.1107,9.2883,-0.0377,0.0234,-0.1205,-1.6909438572325648,0.0,2.504150390625,-1.9120728969573975,0.001187110785394907,1.9656429290771484,4.883624139219084,-0.0,0.3109491765499115,-1.596978489552633,0.0,-0.008715372532606125,0.8254023194313049,-0.0,-0.0014680959284305573,0.810895562171936,0.0004223848518449813,0.0032300171442329884
958.0,878.0,1.806,0.1107,9.2883,-0.0377,0.0234,-0.1205,-1.6909119091429652,0.0,2.513627052307129,-1.9120646715164185,0.0009745154529809952,1.9799418449401855,4.883588063507833,-0.0,0.3104383051395416,-1.5969660917865198,0.0,-0.010884876362979412,0.8254265785217285,-0.0,0.0038155510555952787,0.8109441995620728,0.00043136507156305015,0.00014405231922864914
958.0,878.0,1.806,0.1107,9.2883,-0.0377,0.0234,-0.1205,-1.690916200677389,0.0,2.4953994750976562,-1.912056565284729,0.0007118612411431968,2.0118515491485596,4.883572059660711,-0.0,0.2924094796180725,-1.5969494024859827,0.0,-0.007817169651389122,0.8254506587982178,-0.0,-0.01590747945010662,0.8109078407287598,0.00033529038773849607,0.011456065811216831
958.0,878.0,1.806,0.1107,9.2883,-0.0377,0.0234,-0.1205,-1.6909557781615199,0.0,2.4930167198181152,-1.912100911140442,0.0005100397975184023,2.0059516429901123,4.8836282072360895,-0.0,0.2950977683067322,-1.5969660917865198,0.0,-0.007501485291868448,0.8254749178886414,-0.0,-0.008960116654634476,0.8109197616577148,0.00027402545674704015,0.012054071761667728
958.0,878.0,1.806,0.1107,9.2883,-0.0377,0.0234,-0.1205,-1.6908961735167445,0.0,2.545480251312256,-1.9120967388153076,0.00039739839849062264,1.9848906993865967,4.883572059660711,-0.0,0.29425448179244995,-1.596945587788717,0.0,-0.01071186549961567,0.8253982663154602,-0.0,-0.011050290428102016,0.8109557628631592,0.00027780592790804803,0.02966972626745701
958.0,878.0,1.806,0.1107,9.2883,-0.0377,0.0234,-0.1205,-1.6908875904478968,0.0,2.5559980869293213,-1.9120564460754395,0.0003255165065638721,2.0062575340270996,4.883599984436788,-0.0,0.2984967529773712,-1.596921745930807,0.0,-0.018663257360458374,0.8254183530807495,-0.0,0.00505003472790122,0.8109197616577148,0.0002793301537167281,0.02748466469347477
958.0,878.0,1.806,0.1107,9.2883,-0.0377,0.0234,-0.1205,-1.6908556423582972,0.0,2.544677495956421,-1.9120688438415527,0.00031614111503586173,1.9848415851593018,4.883576172381201,-0.0,0.30216386914253235,-1.5969374815570276,0.0,-0.0012393994256854057,0.8253905177116394,-0.0,-0.0008235657587647438,0.8109318017959595,0.00028271673363633454,-0.06833454221487045
958.0,878.0,1.806,0.1107,9.2883,-0.0377,0.0234,-0.1205,-1.69097962001943,0.0,2.5251412391662598,-1.912081241607666,0.0002918063255492598,2.018883228302002,4.8836122182901285,-0.0,0.29257825016975403,-1.5969942251788538,0.0,-0.0022006749641150236,0.8254469633102417,-0.0,-0.008031021803617477,0.8109037280082703,0.00029175725649110973,0.007561203092336655
961.0,924.0,1.6325,0.2447,9.1687,-0.0247,0.0351,-0.12,-1.6909600696959437,0.0,2.513144016265869,-1.9120646715164185,0.00024864685838110745,1.9988529682159424,4.883572059660711,-0.0,0.3022225797176361,-1.5969494024859827,0.0,0.008765129372477531,0.8254748582839966,-0.0,-0.0015086125349625945,0.8108991980552673,0.0013635439099743962,-0.01832430437207222
961.0,924.0,1.6325,0.2447,9.1687,-0.0247,0.0351,-0.12,-1.6908961735167445,0.0,2.5076375007629395,-1.9120326042175293,0.0011608554050326347,1.96840238571167,4.883580225497045,-0.0,0.30236873030662537,-1.5969212690936487,0.0,-0.012195982038974762,0.8254826068878174,-0.0,-0.0007305295439437032,0.8109433650970459,0.0026887664571404457,-0.009041612967848778
961.0,924.0,1.6325,0.2447,9.1687,-0.0247,0.0351,-0.12,-1.6909243069090785,0.0,2.5316600799560547,-1.9120450019836426,0.0016865101642906666,2.009357452392578,4.883551987796583,-0.0,0.29388779401779175,-1.5969775358783167,0.0,-0.0051942188292741776,0.8254826068878174,-0.0,-0.005018775817006826,0.8110118508338928,0.004656931385397911,-0.036106228828430176
961.0,924.0,1.6325,0.2447,9.1687,-0.0247,0.0351,-0.12,-1.6909033260741175,0.0,2.468263626098633,-1.9120087623596191,0.0022240332327783108,1.9770803451538086,4.883588450938024,-0.0,0.2947799563407898,-1.5969536940204065,0.0,-0.008072415366768837,0.8254507184028625,-0.0,-0.002109766472131014,0.8110800385475159,0.008855876512825489,-0.009462391957640648
961.0,924.0,1.6325,0.2447,9.1687,-0.0247,0.0351,-0.12,-1.690967699090475,-0.0001005648955469951,2.51611328125,-1.9120047092437744,0.00271872547455132,1.9837361574172974,4.883564221649923,-0.0,0.27759119868278503,-1.5969856421100062,0.0,-0.009083408862352371,0.8254748582839966,-0.0,-0.004641677252948284,0.8111320734024048,0.010453101247549057,0.034452907741069794
961.0,924.0,1.6325,0.2447,9.1687,-0.0247,0.0351,-0.12,-1.6909557781615199,-0.0001384344941470772,2.5248701572418213,-1.9120324850082397,0.003125698072835803,2.0156548023223877,4.883608180075445,-0.0,0.28671467304229736,-1.5969536940204065,0.0,-0.009226207621395588,0.8254346251487732,-0.0,-0.011468813754618168,0.8111475706100464,0.010955876670777798,0.03412390500307083
961.0,924.0,1.6325,0.2447,9.1687,-0.0247,0.0351,-0.12,-1.6909557781615199,-0.00012673769379034638,2.5282886028289795,-1.9119642972946167,0.00346536748111248,2.040127754211426,4.8836164502199075,-0.0,0.29103538393974304,-1.5970061461078089,0.0,-0.011422581970691681,0.8254547119140625,-0.0,-0.011618398129940033,0.8113043904304504,0.011670466512441635,0.02347417362034321
961.0,924.0,1.6325,0.2447,9.1687,-0.0247,0.0351,-0.12,-1.690928121606344,-0.00011997948604403064,2.473249912261963,-1.9120169878005981,0.00383150577545166,2.0181875228881836,4.883539753943243,-0.0,0.30100181698799133,-1.5969980398761194,0.0,-0.00515463761985302,0.825442910194397,-0.0,-0.00516367657110095,0.8113161325454712,0.011907338164746761,0.017504408955574036
961.0,924.0,1.6325,0.2447,9.1687,-0.0247,0.0351,-0.12,-1.6909400425352992,-0.00011109354090876877,2.5013482570648193,-1.9119733572006226,0.004154326394200325,1.9897226095199585,4.883547904878416,-0.0,0.28560343384742737,-1.5969536940204065,0.0,-0.010560184717178345,0.8254305720329285,-0.0,-0.007674709893763065,0.8114084005355835,0.011384550482034683,0.00036025792360305786
961.0,924.0,1.6325,0.2447,9.1687,-0.0247,0.0351,-0.12,-1.6909476719298304,-0.0001034330198308453,2.519723415374756,-1.9119372367858887,0.003971428610384464,2.010237693786621,4.883536058455267,-0.0,0.29126936197280884,-1.5970466772662562,0.0,0.002181288320571184,0.8254424929618835,-0.0,0.00018931599333882332,0.8114482164382935,0.008337375707924366,-0.05659647285938263
961.0,924.0,1.6325,0.2447,9.1687,-0.0247,0.0351,-0.12,-1.6909238300719203,-7.967453711898997e-05,2.496140956878662,-1.9119174480438232,0.004808548837900162,1.983539342880249,4.883547904878416,-0.0,0.2698174715042114,-1.596961800252096,0.0,-0.003200482577085495,0.8254424929618835,-0.0,-0.0029476801864802837,0.811435878276825,0.005907767452299595,0.030227690935134888
961.0,924.0,1.6325,0.2447,9.1687,-0.0247,0.0351,-0.12,-1.690928121606344,-7.271789945662022e-05,2.4888617992401123,-1.911853313446045,0.005142275709658861,2.0161585807800293,4.883552062302389,-0.0,0.29593324661254883,-1.5969775358783167,0.0,-0.0012536277063190937,0.8254588842391968,-0.0,1.0258401744067669e-05,0.8115164041519165,0.002772081410512328,0.047449592500925064
961.0,924.0,1.6325,0.2447,9.1687,-0.0247,0.0351,-0.12,-1.6909438572325648,-3.888811988872476e-05,2.5352227687835693,-1.9117883443832397,0.006407263223081827,1.9623117446899414,4.883576574712553,-0.0,0.28017064929008484,-1.596933666859762,0.0,-0.013604963198304176,0.8254666328430176,-0.0,-0.010785129852592945,0.8114599585533142,0.0009917218703776598,0.025754857808351517
961.0,924.0,1.6325,0.2447,9.1687,-0.0247,0.0351,-0.12,-1.6909438572325648,-3.441345688770525e-05,2.5084402561187744,-1.9117488861083984,0.00683465413749218,2.0406298637390137,4.883556145220556,-0.0,0.2974090576171875,-1.5969293753253382,0.0,-0.01492539793252945,0.825446605682373,-0.0,0.00014646397903561592,0.8114805817604065,0.00035270280204713345,0.04363199695944786
961.0,924.0,1.6325,0.2447,9.1687,-0.0247,0.0351,-0.12,-1.6909877262511195,-3.087194272666238e-05,2.531704902648926,-1.911805510520935,0.00740104541182518,1.9913759231567383,4.883568379073896,-0.0,0.27760231494903564,-1.5969374815570276,0.0,-0.006503733806312084,0.8254547715187073,-0.0,-0.0002597009879536927,0.8115086555480957,-0.00037422942114062607,0.03467407077550888
961.0,924.0,1.6325,0.2447,9.1687,-0.0247,0.0351,-0.12,-1.6909238300719203,-2.8889908207929693e-05,2.5217080116271973,-1.9116648435592651,0.008813697844743729,2.0022640228271484,4.883524137526312,-0.0,0.2904524505138397,-1.5969136396991175,1.0569056030362844e-07,-0.006606831680983305,0.8254945874214172,-0.0,-0.01142092514783144,0.811452329158783,-0.0010262660216540098,-0.007374607026576996
924.0,902.0,1.9478,-0.0592,9.3398,-0.0069,0.0166,-0.1071,-1.6909438572325648,-2.6352197892265394e-05,2.5110764503479004,-1.911657452583313,0.011550449766218662,1.9894628524780273,4.883556160121717,-0.0,0.28955647349357605,-1.5969460646258753,2.941935584033217e-11,-0.01555741485208273,0.8255265951156616,-0.0,-0.0004286455805413425,0.8114243149757385,-0.0016933352453634143,-0.015115829184651375
924.0,902.0,1.9478,-0.0592,9.3398,-0.0069,0.0166,-0.1071,-1.690916200677389,-1.1445865055748072e-07,2.504450559616089,-1.9115248918533325,0.015418503433465958,2.0046215057373047,4.883552062302389,-0.0,0.287587970495224,-1.5969179312335413,8.188985785046593e-15,-0.01656685397028923,0.8254823088645935,-0.0,0.004641375970095396,0.8113918900489807,-0.0019369384972378612,0.017419379204511642
924.0,902.0,1.9478,-0.0592,9.3398,-0.0069,0.0166,-0.1071,-1.6909758053221644,-2.764042250288923e-13,2.5284667015075684,-1.9114336967468262,0.02049950137734413,2.030942440032959,4.883572461992063,-0.0,0.2885860204696655,-1.5969622770892542,2.279434110257011e-18,-0.010339917615056038,0.8255388140678406,-0.0,-0.012044152244925499,0.8113716840744019,-0.001914657885208726,0.0028652423061430454
924.0,902.0,1.9478,-0.0592,9.3398,-0.0069,0.0166,-0.1071,-1.6909119091429652,-6.674837793250448e-19,2.5199592113494873,-1.911232829093933,0.028071977198123932,2.0464770793914795,4.883527788310804,-0.0,0.3021910786628723,-1.5968855063067835,6.344887777871844e-22,0.004388608504086733,0.8254786133766174,-0.0,-0.004479776136577129,0.8113918900489807,-0.0016400854801759124,0.0027306051924824715
924.0,902.0,1.9478,-0.0592,9.3398,-0.0069,0.0166,-0.1071,-1.6909238300719203,-1.611894673210519e-24,2.4787940979003906,-1.911085605621338,0.03259928524494171,2.0191338062286377,4.883580255299368,-0.0,0.28990256786346436,-1.596893612538473,1.766122995245629e-25,-0.01277039386332035,0.8254343867301941,-0.0,0.0023811578284949064,0.8113840222358704,-0.0010521281510591507,-0.02007283642888069
924.0,902.0,1.9478,-0.0592,9.3398,-0.0069,0.0166,-0.1071,-1.6909476719298304,-3.8925357548948455e-30,2.494159698486328,-1.9108338356018066,0.03796657174825668,2.0303707122802734,4.883523735194959,-0.0,0.29640260338783264,-1.5969379583941858,4.916068590732096e-29,-0.007702278438955545,0.8255183696746826,-0.0,0.0058898767456412315,0.8113721609115601,-0.0007747768540866673,0.017164694145321846
924.0,902.0,1.9478,-0.0592,9.3398,-0.0069,0.0166,-0.1071,-1.6909519634642542,-9.400015207286085e-36,2.533673048019409,-1.9105738401412964,0.04263333976268768,2.094654083251953,4.883527833014288,-0.0,0.30545690655708313,-1.5968893210040491,1.36840575729329e-32,-0.008810551837086678,0.8255306482315063,-0.0,0.003592488821595907,0.811404287815094,-0.0006369154434651136,-0.015132890082895756
924.0,902.0,1.9478,-0.0592,9.3398,-0.0069,0.0166,-0.1071,-1.6909357510008753,-1.691969804779714e-39,2.540076494216919,-1.910447120666504,0.04498538002371788,2.076937675476074,4.88354009666995,-0.0,0.2962111532688141,-1.5969260374652308,5.833728785375833e-35,-0.016579780727624893,0.8254745006561279,-0.0,0.006512597668915987,0.8113721609115601,-0.000548203126527369,0.029332295060157776
924.0,902.0,1.9478,-0.0592,9.3398,-0.0069,0.0166,-0.1071,-1.6909119091429652,-4.203895392974451e-45,2.4991912841796875,-1.9100661277770996,0.04810379818081856,2.032259702682495,4.883572059660711,-0.0,0.29257529973983765,-1.596877400075094,1.6238400747427056e-38,-0.01818954199552536,0.8254704475402832,-0.0,-0.00693090632557869,0.8113521337509155,-0.0003381775750312954,0.00938624981790781
924.0,902.0,1.9478,-0.0592,9.3398,-0.0069,0.0166,-0.1071,-1.6909877262511195,0.0,2.536313772201538,-1.9097864627838135,0.04922798275947571,2.088967800140381,4.8835360435541055,-0.0,0.2861994802951813,-1.5968979040728968,4.52058884591186e-42,-0.002294479636475444,0.825498640537262,-0.0,0.0101550268009305,0.8113236427307129,-0.00036581759923137724,-0.04752577096223831
924.0,902.0,1.9478,-0.0592,9.3398,-0.0069,0.0166,-0.1071,-1.690995832482809,0.0,2.5120716094970703,-1.909487009048462,0.04947322607040405,2.0823352336883545,4.883543792157926,-0.0,0.29152044653892517,-1.5968692938434046,1.401298464324817e-45,-0.010051554068922997,0.825486421585083,-0.0,0.0007152791367843747,0.8113277554512024,-0.000771972059737891,-0.06846310943365097
924.0,902.0,1.9478,-0.0592,9.3398,-0.0069,0.0166,-0.1071,-1.6908756695189417,0.0,2.4672844409942627,-1.909175157546997,0.05080592259764671,2.0531182289123535,4.883564191847601,-0.0,0.26785287261009216,-1.5968855063067835,0.0,-0.0002139727585017681,0.8255027532577515,-0.0,-0.00454371515661478,0.8113682866096497,-0.0014905274147167802,-0.011122958734631538
924.0,902.0,1.9478,-0.0592,9.3398,-0.0069,0.0166,-0.1071,-1.690899511376852,0.0,2.470518112182617,-1.9088797569274902,0.053200580179691315,2.070006847381592,4.883576157480039,-0.0,0.2909606993198395,-1.5968816916095179,0.00011674689449137077,0.00025485921651124954,0.8254463076591492,-0.0,-0.0031014946289360523,0.8113161325454712,-0.00222565745934844,-0.006155305076390505
924.0,902.0,1.9478,-0.0592,9.3398,-0.0069,0.0166,-0.1071,-1.6908799610533656,0.0,2.4831056594848633,-1.9085474014282227,0.05666584149003029,2.058563709259033,4.883568393975057,-0.0,0.2891245186328888,-1.5968940893756312,0.00014609904610551894,0.012364245019853115,0.82554692029953,-0.0,-0.0026494816411286592,0.8112958669662476,-0.0028909756802022457,-0.07569802552461624
924.0,902.0,1.9478,-0.0592,9.3398,-0.0069,0.0166,-0.1071,-1.6909438572325648,0.0,2.4424381256103516,-1.9082874059677124,0.06026899814605713,2.09389066696167,4.883544194489279,-0.0,0.276267409324646,-1.5968497435199183,0.0001601421827217564,0.006569052580744028,0.825402021408081,-0.0,0.000575467012822628,0.8112717866897583,-0.002831886289641261,-0.0660085529088974
907.0,909.0,1.9077,-0.064,9.7543,-0.044,0.0582,-0.1307,-1.6909200153746546,0.0,2.440426826477051,-1.907964825630188,0.06605784595012665,2.102470874786377,4.883543896466055,-7.34115528757684e-05,0.26792606711387634,-1.596865479146139,0.00043301904224790633,0.025105267763137817,0.825462281703949,-0.0,-0.00627669645473361,0.8112800121307373,-0.0031202544923871756,-0.08782989531755447
907.0,909.0,1.9077,-0.064,9.7543,-0.044,0.0582,-0.1307,-1.6909119091429652,0.0,2.391603946685791,-1.9074358940124512,0.07250513881444931,2.049895763397217,4.883524137526312,-0.0021086845081299543,0.26368656754493713,-1.5968740622149866,0.0005335097666829824,0.022301319986581802,0.8254462480545044,-0.0,-0.001980024855583906,0.8112882971763611,-0.003049404127523303,-0.1079687550663948
907.0,909.0,1.9077,-0.064,9.7543,-0.044,0.0582,-0.1307,-1.690916200677389,0.0,2.337022066116333,-1.9070440530776978,0.07946060597896576,2.093531847000122,4.883496212750234,-0.004058874677866697,0.23853737115859985,-1.5968459288226526,0.0009052337263710797,0.041670575737953186,0.8255265951156616,-0.0,0.0001965546398423612,0.8112440705299377,-0.003290595021098852,-0.1748557686805725
907.0,909.0,1.9077,-0.064,9.7543,-0.044,0.0582,-0.1307,-1.69097962001943,-0.0007372084073722363,2.3191652297973633,-1.9065074920654297,0.08534573763608932,2.114199161529541,4.883436354785719,-0.0063701895996928215,0.24534256756305695,-1.5968378225909632,0.0011296651791781187,0.043078187853097916,0.8254585266113281,-0.0,0.0005294428556226194,0.8112565279006958,-0.004026227630674839,-0.2057190239429474
907.0,909.0,1.9077,-0.064,9.7543,-0.044,0.0582,-0.1307,-1.6909119091429652,-0.0007013328722678125,2.2714755535125732,-1.9059151411056519,0.0957023873925209,2.1164464950561523,4.883392768889227,-0.010447931475937366,0.23617029190063477,-1.5968096891986292,0.001065540942363441,0.05195711925625801,0.8255224227905273,-0.0,-0.004326571710407734,0.8112565279006958,-0.004393380600959063,-0.185005784034729
907.0,909.0,1.9077,-0.064,9.7543,-0.044,0.0582,-0.1307,-1.6909362278380335,-0.0006751690525561571,2.2477996349334717,-1.905307650566101,0.10590638220310211,2.119333028793335,4.88333677032546,-0.013972011394798756,0.217733234167099,-1.596757713948385,0.0008984517189674079,0.060431890189647675,0.8254424929618835,-0.0,-0.008287101984024048,0.8111678957939148,-0.005397926550358534,-0.18917496502399445
907.0,909.0,1.9077,-0.064,9.7543,-0.044,0.0582,-0.1307,-1.6909476719298304,-0.0005946264718659222,2.2291412353515625,-1.9046366214752197,0.11326168477535248,2.1115565299987793,4.883232909231939,-0.01594729535281658,0.2112499177455902,-1.5967934767352503,0.0007622158154845238,0.07355402410030365,0.8254224061965942,-0.0,-0.006400382611900568,0.8111318945884705,-0.006721364334225655,-0.22026386857032776
907.0,909.0,1.9077,-0.064,9.7543,-0.044,0.0582,-0.1307,-1.6909200153746546,-0.000571546028368175,2.2303080558776855,-1.904087781906128,0.118010513484478,2.126235008239746,4.883189829974928,-0.014650619588792324,0.21017585694789886,-1.596830193196432,0.0007214985671453178,0.07479643821716309,0.8254826068878174,-0.0,-0.0145151037722826,0.8111238479614258,-0.006683148443698883,-0.2467828094959259
907.0,909.0,1.9077,-0.064,9.7543,-0.044,0.0582,-0.1307,-1.6909438572325648,-0.00047407642705366015,2.2011656761169434,-1.9034250974655151,0.12639813125133514,2.1068687438964844,4.883129554777899,-0.009880861267447472,0.21440228819847107,-1.596785847340719,0.000632433220744133,0.0867120772600174,0.8254945278167725,-0.0,0.0016844137571752071,0.8111039996147156,-0.0068539404310286045,-0.2865382730960846
907.0,909.0,1.9077,-0.064,9.7543,-0.044,0.0582,-0.1307,-1.6908756695189417,-0.00039329956052824855,2.1301069259643555,-1.9025644063949585,0.13680966198444366,2.131908655166626,4.883085611253538,-0.005038102623075247,0.19820192456245422,-1.596773926411764,0.0005804401589557528,0.09299133718013763,0.8254945278167725,-0.0,0.004742124583572149,0.8110036849975586,-0.00668658223003149,-0.30887413024902344
907.0,909.0,1.9077,-0.064,9.7543,-0.044,0.0582,-0.1307,-1.6909038029112757,-0.0003762903215829283,2.1607344150543213,-1.9016963243484497,0.14559049904346466,2.1409833431243896,4.883061873703756,-0.0037250046152621508,0.19541329145431519,-1.5967662970172327,0.0005216260906308889,0.08699847757816315,0.8254945874214172,-0.0,-0.01185441855341196,0.8109996318817139,-0.006519431713968515,-0.30770063400268555
907.0,909.0,1.9077,-0.064,9.7543,-0.044,0.0582,-0.1307,-1.6909519634642542,-0.0004638926184270531,2.154512643814087,-1.900748372077942,0.15474122762680054,2.1844162940979004,4.88305031040267,-0.005098729394376278,0.18332555890083313,-1.5967701117144983,0.0004945011460222304,0.10135175287723541,0.8254622220993042,-0.0,0.0026991055347025394,0.8109839558601379,-0.007224573288112879,-0.32610225677490234
907.0,909.0,1.9077,-0.064,9.7543,-0.044,0.0582,-0.1307,-1.6909715137877406,-0.0015715188346803188,2.112032413482666,-1.8997807502746582,0.16663479804992676,2.1934237480163574,4.882974031358518,-0.006691614165902138,0.17580446600914001,-1.5967620054828089,0.000517224776558578,0.10057544708251953,0.8254867196083069,-0.0,-0.00688506755977869,0.8109156489372253,-0.009924504905939102,-0.3656612038612366
907.0,909.0,1.9077,-0.064,9.7543,-0.044,0.0582,-0.1307,-1.6909557781615199,-0.003788402769714594,2.085136890411377,-1.8987488746643066,0.17511333525180817,2.2104780673980713,4.8829625872667215,-0.008193614892661572,0.17534726858139038,-1.5967257658587855,0.0006219539791345596,0.11380697786808014,0.8254547119140625,-0.0,0.0081879161298275,0.810823380947113,-0.010218003764748573,-0.41184666752815247
907.0,909.0,1.9077,-0.064,9.7543,-0.044,0.0582,-0.1307,-1.6909634075560511,-0.0053112502209842205,2.037876605987549,-1.8976857662200928,0.1849566102027893,2.1730754375457764,4.88287432768897,-0.011900977231562138,0.16570544242858887,-1.5967133680926722,0.0006083493935875595,0.11759727448225021,0.825446605682373,-0.0,-0.003029528073966503,0.8107919692993164,-0.009862362407147884,-0.37679409980773926
907.0,909.0,1.9077,-0.064,9.7543,-0.044,0.0582,-0.1307,-1.6910158596434535,-0.007139380555599928,2.0305209159851074,-1.8968932628631592,0.19154229760169983,2.193448066711426,4.882858741074362,-0.013674856163561344,0.15352827310562134,-1.5967100302325647,0.0006919398438185453,0.12329453974962234,0.8254585266113281,-0.0,0.001706710085272789,0.8107437491416931,-0.011525486595928669,-0.4151743948459625
960.0,897.0,1.928,0.1549,10.1103,-0.0125,0.129,-0.1223,-1.6910320721068324,-0.007949735037982464,2.01322078704834,-1.8956656455993652,0.2032947540283203,2.2440619468688965,4.882742720633306,-0.016012851148843765,0.1396942138671875,-1.5967138449298304,0.0006838226690888405,0.12050081789493561,0.8254625797271729,-0.0,-0.005439057480543852,0.8106755614280701,-0.011788768693804741,-0.4088106155395508
960.0,897.0,1.928,0.1549,10.1103,-0.0125,0.129,-0.1223,-1.6910840473570765,-0.007311210967600346,2.024902820587158,-1.8944017887115479,0.2185540646314621,2.2465438842773438,4.88257114866332,-0.01893627643585205,0.14736482501029968,-1.5967214743243616,0.0008152113296091557,0.12340234965085983,0.825510561466217,-0.0,-0.007213662378489971,0.8106275200843811,-0.011548954993486404,-0.42333275079727173
960.0,897.0,1.928,0.1549,10.1103,-0.0125,0.129,-0.1223,-1.6911560497679652,-0.007103105541318655,1.974575161933899,-1.8931386470794678,0.22415634989738464,2.244858980178833,4.882480057864942,-0.019868146628141403,0.14670445024967194,-1.596677605305807,0.0007443537469953299,0.12302476167678833,0.825486421585083,-0.0,0.0022999949287623167,0.8104867339134216,-0.01116494182497263,-0.4193803071975708
960.0,897.0,1.928,0.1549,10.1103,-0.0125,0.129,-0.1223,-1.6912156544127406,-0.008174405433237553,2.045691728591919,-1.8917462825775146,0.23782096803188324,2.231564521789551,4.882376390486517,-0.017926808446645737,0.14863385260105133,-1.5966818968402308,0.0009735983330756426,0.12145429849624634,0.8254904747009277,-0.0,-0.0045070163905620575,0.8105076551437378,-0.009408188052475452,-0.4526903033256531
960.0,897.0,1.928,0.1549,10.1103,-0.0125,0.129,-0.1223,-1.6912270985045375,-0.009389259852468967,2.0444650650024414,-1.890242099761963,0.2515563666820526,2.336803674697876,4.882264765888014,-0.018332984298467636,0.15898090600967407,-1.596689526234762,0.002007176633924246,0.11930704861879349,0.8254305720329285,-0.0,0.003863589372485876,0.8104515075683594,-0.00792714487761259,-0.43979209661483765
960.0,897.0,1.928,0.1549,10.1103,-0.0125,0.129,-0.1223,-1.691287179986471,-0.010408220812678337,2.037585496902466,-1.8887429237365723,0.2594464421272278,2.2446961402893066,4.882165181427755,-0.015256638638675213,0.141902893781662,-1.5966456572162073,0.009044142439961433,0.12363606691360474,0.8254544138908386,-0.0,-0.004718265030533075,0.8104315400123596,-0.0060522183775901794,-0.3547212481498718
960.0,897.0,1.928,0.1549,10.1103,-0.0125,0.129,-0.1223,-1.6913472614684046,-0.010441258549690247,2.053809642791748,-1.8870502710342407,0.2666437029838562,2.256168842315674,4.8820333806569955,-0.016778798773884773,0.13528397679328918,-1.596557919179098,0.02798575721681118,0.13104459643363953,0.8254544138908386,-0.0,-0.0020825504325330257,0.8103673458099365,-0.004172907676547766,-0.39992403984069824
960.0,897.0,1.928,0.1549,10.1103,-0.0125,0.129,-0.1223,-1.6913916073241175,-0.009047606028616428,2.0331130027770996,-1.8860515356063843,0.27789488434791565,2.325974225997925,4.88200997093276,-0.017190618440508842,0.15038292109966278,-1.5964658896075647,0.025911621749401093,0.13860349357128143,0.8254704475402832,-0.0,-0.008586058393120766,0.8103392720222473,-0.003247068030759692,-0.3675770163536072
960.0,897.0,1.928,0.1549,10.1103,-0.0125,0.129,-0.1223,-1.6914879284300746,-0.007102497853338718,2.0212628841400146,-1.8844558000564575,0.2962937653064728,2.3332743644714355,4.881858202606001,-0.01674691028892994,0.1597638577222824,-1.5963218847857874,0.013690530322492123,0.13247433304786682,0.8254625797271729,-0.0,0.015130938030779362,0.8103511929512024,-0.0022478827740997076,-0.35592859983444214
960.0,897.0,1.928,0.1549,10.1103,-0.0125,0.129,-0.1223,-1.6914426289000453,-0.005597014911472797,2.0201833248138428,-1.8826353549957275,0.30111104249954224,2.336332321166992,4.881754505425253,-0.021566428244113922,0.14295583963394165,-1.5963175932513636,0.0030792125035077333,0.11871003359556198,0.8254945874214172,-0.0,0.0030782504472881556,0.8103110194206238,-0.001771045965142548,-0.4044315218925476
960.0,897.0,1.928,0.1549,10.1103,-0.0125,0.129,-0.1223,-1.6914874515929164,-0.005404134746640921,2.033230781555176,-1.8808013200759888,0.3121400475502014,2.331260919570923,4.88161118605689,-0.02487170323729515,0.15119607746601105,-1.5963061491595667,-0.0006505438359454274,0.11756954342126846,0.8254625797271729,-0.0,0.00028751243371516466,0.8103557825088501,-0.0022920186165720224,-0.401215136051178
960.0,897.0,1.928,0.1549,10.1103,-0.0125,0.129,-0.1223,-1.6915790043272914,-0.005552411545068026,2.0471057891845703,-1.878895878791809,0.3281559944152832,2.436465263366699,4.881431895285406,-0.034016385674476624,0.14571478962898254,-1.5963061491595667,-0.0004064500390086323,0.1287296712398529,0.8254826664924622,-0.0,-3.715971251949668e-05,0.8103234171867371,-0.002206132048740983,-0.43688029050827026
960.0,897.0,1.928,0.1549,10.1103,-0.0125,0.129,-0.1223,-1.6916433773436488,-0.006277778185904026,2.0726311206817627,-1.8768888711929321,0.33185774087905884,2.3656792640686035,4.88114860930995,-0.051202442497015,0.13832324743270874,-1.5962813536273401,-0.0002797924680635333,0.12069965898990631,0.8254424929618835,-0.0,0.006432339549064636,0.8102709054946899,-0.0015312996692955494,-0.42174309492111206
960.0,897.0,1.928,0.1549,10.1103,-0.0125,0.129,-0.1223,-1.6916829548277796,-0.006494665984064341,2.085590124130249,-1.8748085498809814,0.34238287806510925,2.413189649581909,4.8807977614696405,-0.0730137974023819,0.1278391182422638,-1.5963218847857874,-0.00015201597125269473,0.12546002864837646,0.825486421585083,-0.0,-0.006874986924231052,0.8103638887405396,-0.001021849806420505,-0.3910181224346161
960.0,897.0,1.928,0.1549,10.1103,-0.0125,0.129,-0.1223,-1.691662927667135,-0.005951226223260164,2.091559886932373,-1.8734098672866821,0.3527345657348633,2.417052745819092,4.880450430303373,-0.08675479143857956,0.09684403240680695,-1.5963423887835901,-0.00012286525452509522,0.1286766529083252,0.8254666924476624,-0.0,-0.0031279537361115217,0.8103072643280029,-0.0007025392260402441,-0.41793298721313477
960.0,897.0,1.928,0.1549,10.1103,-0.0125,0.129,-0.1223,-1.6916667423644007,-0.0036666239611804485,2.032121181488037,-1.8712412118911743,0.3596336841583252,2.3554372787475586,4.879848632007398,-0.1111903041601181,0.10007405281066895,-1.5962656180011194,-0.00010194426431553438,0.13624422252178192,0.8254945278167725,-0.0,0.0014206708874553442,0.8102990388870239,-0.0005447470466606319,-0.4050886034965515
935.0,905.0,2.0931,0.2255,10.1629,-0.031,0.248,-0.1271,-1.6916710338988246,-0.0019611420575529337,2.0837855339050293,-1.8689862489700317,0.3689836263656616,2.404569149017334,4.879111441760816,-0.12458811700344086,0.09902527183294296,-1.596285645161764,-8.71341981110163e-05,0.12547212839126587,0.8254581689834595,-0.0,0.0036489153280854225,0.8103196024894714,-0.0004881532513536513,-0.3852342367172241
935.0,905.0,2.0931,0.2255,10.1629,-0.031,0.248,-0.1271,-1.6917549572386683,-0.0010882698697969317,2.0788190364837646,-1.866750955581665,0.3773297667503357,2.407578468322754,4.8783780662115,-0.1225830465555191,0.09691173583269119,-1.5963338057147425,-7.608251326018944e-05,0.11782658845186234,0.8254822492599487,-0.0,0.0047191414050757885,0.8103113174438477,-0.00045264497748576105,-0.3447645306587219
935.0,905.0,2.0931,0.2255,10.1629,-0.031,0.248,-0.1271,-1.6917392216124476,-0.0006526504876092076,2.062985420227051,-1.8644400835037231,0.3857579827308655,2.4644434452056885,4.877553018718519,-0.14184148609638214,0.08803613483905792,-1.5963061491595667,-6.75190967740491e-05,0.12268510460853577,0.8255184292793274,-0.0,-0.003479932202026248,0.8103031516075134,-0.0003332218620926142,-0.3705980181694031
935.0,905.0,2.0931,0.2255,10.1629,-0.031,0.248,-0.1271,-1.6916991672911585,-0.001016033347696066,2.0594234466552734,-1.86210036277771,0.39372774958610535,2.433091640472412,4.876556220441618,-0.182117760181427,0.0714646726846695,-1.5963018576251429,-6.0688638768624514e-05,0.13147607445716858,0.8254745006561279,-0.0,-0.008480073884129524,0.8102989792823792,-0.00011831345182145014,-0.41817307472229004
935.0,905.0,2.0931,0.2255,10.1629,-0.031,0.248,-0.1271,-1.6917110882201136,-0.0009012644295580685,2.0729756355285645,-1.859671950340271,0.40538349747657776,2.4911699295043945,4.875363442092695,-0.19778265058994293,0.061813004314899445,-1.5962660948382776,-2.7565174605115317e-05,0.11955296993255615,0.8255065083503723,-0.0,-0.00801795907318592,0.8103395700454712,-9.882052836474031e-05,-0.4109833240509033
935.0,905.0,2.0931,0.2255,10.1629,-0.031,0.248,-0.1271,-1.6917110882201136,-0.0006560255424119532,2.065000534057617,-1.8572973012924194,0.4099572002887726,2.5265884399414062,4.874134945660391,-0.21207080781459808,0.06923826783895493,-1.5962894598590296,-2.5238272428396158e-05,0.11631820350885391,0.825462281703949,-0.0,0.004013978410512209,0.8102830052375793,-8.4844978118781e-05,-0.3956429958343506
935.0,905.0,2.0931,0.2255,10.1629,-0.031,0.248,-0.1271,-1.6917110882201136,-0.000554875354282558,2.058793783187866,-1.8556205034255981,0.41289862990379333,2.5048956871032715,4.873237865954199,-0.2396373152732849,0.055505093187093735,-1.5962737242328089,-2.3897808205219917e-05,0.13715463876724243,0.825462281703949,-0.0,0.012259718030691147,0.8103113770484924,-7.753508543828502e-05,-0.4308165907859802
935.0,905.0,2.0931,0.2255,10.1629,-0.031,0.248,-0.1271,-1.6916991672911585,-0.00037795319803990424,2.119051694869995,-1.853097677230835,0.4299156963825226,2.5259885787963867,4.871534275799551,-0.27017146348953247,0.031161293387413025,-1.5963061491595667,-2.213445259258151e-05,0.12582314014434814,0.825486421585083,-0.0,-0.001414890750311315,0.8103193044662476,-4.612567136064172e-05,-0.4209316074848175
935.0,905.0,2.0931,0.2255,10.1629,-0.031,0.248,-0.1271,-1.6916872463622035,-0.0003018479037564248,2.0805342197418213,-1.850509762763977,0.43975523114204407,2.4825356006622314,4.869823622494497,-0.30936959385871887,0.016818568110466003,-1.5962861219989222,-2.06135337066371e-05,0.11045961827039719,0.8255023956298828,-0.0,0.0027692150324583054,0.8103193044662476,-3.080553869949654e-05,-0.414264440536499
935.0,905.0,2.0931,0.2255,10.1629,-0.031,0.248,-0.1271,-1.6917029819884242,-0.00030152674298733473,2.108304262161255,-1.8479549884796143,0.44974252581596375,2.549316883087158,4.867729830532827,-0.34341713786125183,0.007588178385049105,-1.5962861219989222,-1.928813617269043e-05,0.1288973093032837,0.8254224061965942,-0.0,0.0012182601494714618,0.8102912902832031,-2.7936717742704786e-05,-0.3674408793449402
935.0,905.0,2.0931,0.2255,10.1629,-0.031,0.248,-0.1271,-1.6917468510069789,-0.00046086389920674264,2.0769715309143066,-1.845169186592102,0.44860613346099854,2.547666549682617,4.865531715541639,-0.38175609707832336,-0.015964128077030182,-1.5962899366961878,-1.8122918845620006e-05,0.11731583625078201,0.8254983425140381,-0.0,-0.009202706627547741,0.8103234171867371,-2.5556741093168966e-05,-0.4097467064857483
935.0,905.0,2.0931,0.2255,10.1629,-0.031,0.248,-0.1271,-1.6917225323119105,-0.0034978154581040144,2.150376319885254,-1.8424149751663208,0.4544602930545807,2.527888774871826,4.863114836602964,-0.4126952588558197,-0.027171727269887924,-1.5962699095355433,-8.680014616402332e-06,0.12865740060806274,0.8254942893981934,-0.0,-0.0048743789084255695,0.8103069067001343,-1.5327999980385698e-09,-0.412223219871521
935.0,905.0,2.0931,0.2255,10.1629,-0.031,0.248,-0.1271,-1.6917668781676234,-0.005120642017573118,2.118070602416992,-1.8396278619766235,0.45931050181388855,2.4930052757263184,4.860450494080343,-0.4525786340236664,-0.04474075883626938,-1.5962541739093226,-2.416113753511695e-09,0.12863260507583618,0.8255146741867065,-0.0,-0.004762154538184404,0.8103474974632263,-3.701531861918924e-15,-0.4274531602859497
935.0,905.0,2.0931,0.2255,10.1629,-0.031,0.248,-0.1271,-1.6917702160277308,-0.004069293849170208,2.0611345767974854,-1.8368816375732422,0.46801429986953735,2.579249382019043,4.857587638288297,-0.4940429627895355,-0.05890229344367981,-1.5962818304644983,-6.72534131249819e-13,0.12109573930501938,0.8254305720329285,-0.0,0.011427841149270535,0.8103070259094238,-8.938762499666637e-21,-0.37337517738342285
935.0,905.0,2.0931,0.2255,10.1629,-0.031,0.248,-0.1271,-1.6918069324889125,-0.002373542869463563,2.116713285446167,-1.8349162340164185,0.4688512086868286,2.574286699295044,4.855620953231611,-0.5225503444671631,-0.08887873589992523,-1.5962699095355433,-2.8671190703040026e-15,0.10251832008361816,0.8254864811897278,-0.0,-0.0035765094216912985,0.8104038834571838,-1.6089458125391896e-24,-0.3773636817932129
868.0,812.0,0.8154,0.4445,9.5773,-0.0064,0.2425,-0.1239,-1.6918226681151332,-0.0004545175179373473,2.1029489040374756,-1.8320690393447876,0.4753382205963135,2.599602222442627,4.852322581201353,-0.5596498250961304,-0.07979092001914978,-1.59625751176943,-7.980730056766875e-19,0.12766796350479126,0.8255265951156616,-0.0,0.0007124015828594565,0.8103474974632263,-3.88541432799892e-30,-0.41419342160224915
868.0,812.0,0.8154,0.4445,9.5773,-0.0064,0.2425,-0.1239,-1.691810747186178,-0.00024775826022960246,2.073941469192505,-1.8292464017868042,0.48156270384788513,2.556962013244629,4.848848628788748,-0.6028878092765808,-0.0838128924369812,-1.5962699095355433,-2.221466135457985e-22,0.12543179094791412,0.8254462480545044,-0.0,0.010981088504195213,0.8103474974632263,-9.382818293165687e-36,-0.42157453298568726
868.0,812.0,0.8154,0.4445,9.5773,-0.0064,0.2425,-0.1239,-1.6918350658812464,-0.000252295023528859,2.0897951126098633,-1.826375961303711,0.48982134461402893,2.5987906455993652,4.845208588033476,-0.6404634714126587,-0.0791897103190422,-1.5962417761432093,-6.183532427893566e-26,0.12022235244512558,0.8255428075790405,-0.0,0.006919787265360355,0.8103272318840027,-2.2658996168132292e-41,-0.4053928852081299
868.0,812.0,0.8154,0.4445,9.5773,-0.0064,0.2425,-0.1239,-1.6918188534178675,-0.00027033613878302276,2.1129534244537354,-1.8233897686004639,0.49297454953193665,2.5971262454986572,4.841128158360281,-0.6801941394805908,-0.06756725162267685,-1.5962579886065882,-1.7212088575135644e-29,0.11879326403141022,0.8254504203796387,-0.0,0.0007404467323794961,0.8103516101837158,-0.0,-0.39859986305236816
868.0,812.0,0.8154,0.4445,9.5773,-0.0064,0.2425,-0.1239,-1.6918426952757777,-0.0003306808939669281,2.1042699813842773,-1.8204265832901,0.4999869465827942,2.580129861831665,4.836844484298982,-0.7182780504226685,-0.08084172755479813,-1.5962894598590296,-4.7910497530387396e-33,0.11338253319263458,0.8255063891410828,-0.0,-0.00357801653444767,0.8103635311126709,0.0,-0.4335274398326874
868.0,812.0,0.8154,0.4445,9.5773,-0.0064,0.2425,-0.1239,-1.6918307743468226,-0.0012613307917490602,2.0904147624969482,-1.817402958869934,0.5121573209762573,2.652104377746582,4.8323295442159555,-0.750095546245575,-0.06172812730073929,-1.5963018576251429,-1.3336061972475956e-36,0.116635762155056,0.825486421585083,-0.0,-0.011431021615862846,0.8103553056716919,0.0,-0.3946564197540283
868.0,812.0,0.8154,0.4445,9.5773,-0.0064,0.2425,-0.1239,-1.69189514736318,-0.0011602264130488038,2.113131523132324,-1.8144094944000244,0.5116941928863525,2.5662589073181152,4.827651317208566,-0.7935271859169006,-0.09683220833539963,-1.5962212721454065,-3.712137722888943e-40,0.12144216895103455,0.8254662752151489,-0.0,-0.001145038171671331,0.8104078769683838,0.0,-0.3469918668270111
868.0,812.0,0.8154,0.4445,9.5773,-0.0064,0.2425,-0.1239,-1.6918226681151332,-0.0014000965747982264,2.108480453491211,-1.8122605085372925,0.5116093754768372,2.5871238708496094,4.824318478792467,-0.8174139261245728,-0.08182921260595322,-1.596262280141012,-1.5820659662227185e-42,0.13373634219169617,0.825478196144104,-0.0,-0.0004594345227815211,0.8104000091552734,0.0,-0.3864092230796814
868.0,812.0,0.8154,0.4445,9.5773,-0.0064,0.2425,-0.1239,-1.6918708286681117,-0.002698606112971902,2.0828418731689453,-1.8091416358947754,0.5118758678436279,2.616851329803467,4.819408054440775,-0.8577267527580261,-0.07643872499465942,-1.5962980429278772,-0.0,0.11720272898674011,0.8254904747009277,-0.0,-0.005579621531069279,0.8103231191635132,0.0,-0.3783226013183594
868.0,812.0,0.8154,0.4445,9.5773,-0.0064,0.2425,-0.1239,-1.691883226434225,-0.002070296322926879,2.15346622467041,-1.80601167678833,0.5204663276672363,2.632021903991699,4.814239638834753,-0.8840210437774658,-0.0973447859287262,-1.5962498823748987,-0.0,0.12020735442638397,0.8254785537719727,-0.0,0.013103845529258251,0.8103553056716919,0.00013002645573578775,-0.4137823283672333
868.0,812.0,0.8154,0.4445,9.5773,-0.0064,0.2425,-0.1239,-1.6918789348998011,-0.00104971241671592,2.1002445220947266,-1.8028532266616821,0.5251775979995728,2.590555429458618,4.808865691512384,-0.911001980304718,-0.07726383209228516,-1.5963018576251429,-0.0,0.11866988241672516,0.8255143165588379,-0.0,-0.00239120377227664,0.8102908134460449,0.00011987642938038334,-0.4276345372200012
868.0,812.0,0.8154,0.4445,9.5773,-0.0064,0.2425,-0.1239,-1.6918345890440882,-0.0003451937227509916,2.109124183654785,-1.7997632026672363,0.5332317352294922,2.624802589416504,4.803180607944288,-0.9420915246009827,-0.08224193751811981,-1.5962780157672327,-0.0,0.12065412104129791,0.8254867196083069,-0.0,0.005866315681487322,0.8103231191635132,9.140754264080897e-05,-0.38177239894866943
868.0,812.0,0.8154,0.4445,9.5773,-0.0064,0.2425,-0.1239,-1.6918188534178675,0.00028402332100085914,2.135267496109009,-1.7965573072433472,0.5379643440246582,2.6218056678771973,4.797370987921514,-0.9635173082351685,-0.08405043184757233,-1.5962775389300745,-0.0,0.12507721781730652,0.8254904747009277,-0.0,0.0067454855889081955,0.8103634715080261,8.268510282505304e-05,-0.4225868582725525
868.0,812.0,0.8154,0.4445,9.5773,-0.0064,0.2425,-0.1239,-1.6918307743468226,0.00021617811580654234,2.129945755004883,-1.7932707071304321,0.5419695973396301,2.6084556579589844,4.791540327459135,-0.9885959625244141,-0.06230218708515167,-1.5962818304644983,-0.0,0.12890492379665375,0.8254424929618835,-0.0,0.002253467682749033,0.8103313446044922,7.082384399836883e-05,-0.4617750942707062
868.0,812.0,0.8154,0.4445,9.5773,-0.0064,0.2425,-0.1239,-1.6918226681151332,8.365626126760617e-05,2.138364791870117,-1.7910938262939453,0.5493554472923279,2.6677956581115723,4.787648956268587,-1.0004690885543823,-0.06951344013214111,-1.5962618033038538,-0.0,0.12665203213691711,0.8254384398460388,-0.0,-0.004434065893292427,0.8102825880050659,5.896791481063701e-05,-0.4044587016105652
868.0,812.0,0.8154,0.4445,9.5773,-0.0064,0.2425,-0.1239,-1.6918627224364222,2.530783262955083e-07,2.134227752685547,-1.7878371477127075,0.5544697046279907,2.5540266036987305,4.781636322825708,-1.0219173431396484,-0.07418252527713776,-1.5962699095355433,-0.0,0.11959433555603027,0.825446605682373,-0.0,-0.0042251721024513245,0.8103755116462708,4.927958798361942e-05,-0.4259710907936096
378.0,419.0,0.4881,0.0802,9.5635,-0.0505,-0.2728,-0.1171,-1.6918870411314906,6.111544647094402e-13,2.1280789375305176,-1.7845326662063599,0.5584654808044434,2.5867977142333984,4.775387945562162,-1.0390706062316895,-0.08900067210197449,-1.5962980429278772,-0.0,0.12552954256534576,0.825434684753418,-0.0,-0.007727328687906265,0.8103393316268921,4.2326213588239625e-05,-0.43489861488342285
378.0,419.0,0.4881,0.0802,9.5635,-0.0505,-0.2728,-0.1171,-1.6919108829894007,1.475866195469922e-18,2.107614517211914,-1.7811827659606934,0.552069902420044,2.6275649070739746,4.769080794393577,-1.0586529970169067,-0.09201398491859436,-1.5962818304644983,-0.0,0.1221233457326889,0.8254506587982178,-0.0,-0.0012714999029412866,0.8103310465812683,4.386769433040172e-06,-0.3820798397064209
378.0,419.0,0.4881,0.0802,9.5635,-0.0505,-0.2728,-0.1171,-1.6919189892210902,-0.0009425304597243667,2.124094009399414,-1.777836561203003,0.5489059686660767,2.5728652477264404,4.762603330403127,-1.0744743347167969,-0.10431947559118271,-1.596325699483053,-0.0,0.13341011106967926,0.825498640537262,-0.0,0.005352521315217018,0.8103755116462708,1.0593531260538747e-11,-0.3831663727760315
378.0,419.0,0.4881,0.0802,9.5635,-0.0505,-0.2728,-0.1171,-1.6919423542418421,-0.001451281365007162,2.123189926147461,-1.7744648456573486,0.5530281662940979,2.5977604389190674,4.756230517267742,-1.0889582633972168,-0.07669103890657425,-1.59625751176943,-0.0,0.11588162183761597,0.8254704475402832,-0.0,-0.003983526024967432,0.8103591203689575,2.5582133740727457e-17,-0.38743042945861816
378.0,419.0,0.4881,0.0802,9.5635,-0.0505,-0.2728,-0.1171,-1.6918508015074671,-0.00046566835953854024,2.136751174926758,-1.7711570262908936,0.55495685338974,2.582303047180176,4.749598852335968,-1.1009184122085571,-0.06241966784000397,-1.5962618033038538,-0.0,0.1131952777504921,0.8255065083503723,-0.0,0.0013427200028672814,0.8103755116462708,6.177783687863239e-23,-0.41178175806999207
378.0,419.0,0.4881,0.0802,9.5635,-0.0505,-0.2728,-0.1171,-1.6918746433653773,0.0005566776380874217,2.1474528312683105,-1.7677847146987915,0.5574650764465332,2.5891947746276855,4.7428613034780405,-1.112799048423767,-0.061617281287908554,-1.5962656180011194,-0.0,0.11587879061698914,0.8254663348197937,-0.0,-0.003980450332164764,0.8103028535842896,1.4918622887031608e-28,-0.4357568025588989
378.0,419.0,0.4881,0.0802,9.5635,-0.0505,-0.2728,-0.1171,-1.6918627224364222,0.0011491002514958382,2.1300878524780273,-1.7656359672546387,0.5625406503677368,2.6229186058044434,4.738323123171487,-1.1161459684371948,-0.11471442878246307,-1.5963214079486292,-0.0,0.1094961166381836,0.8254585266113281,-0.0,-0.0022469130344688892,0.8103272318840027,2.6852992950184336e-32,-0.42092153429985046
378.0,419.0,0.4881,0.0802,9.5635,-0.0505,-0.2728,-0.1171,-1.6918426952757777,0.0008602267480455339,2.144469738006592,-1.7622520923614502,0.5612224340438843,2.560314416885376,4.73173199312345,-1.1265615224838257,-0.09372417628765106,-1.5963104406939905,-0.0,0.11546657979488373,0.8254265189170837,-0.0,-0.004204119555652142,0.8103553056716919,6.484681844153282e-38,-0.4285218119621277
378.0,419.0,0.4881,0.0802,9.5635,-0.0505,-0.2728,-0.1171,-1.691906591454977,0.000134574860567227,2.191126823425293,-1.7589088678359985,0.5677810907363892,2.597435474395752,4.724980608537354,-1.1375190019607544,-0.08321350812911987,-1.5962737242328089,-0.0,0.10195289552211761,0.8254704475402832,-0.0,-0.0044945948757231236,0.8103354573249817,1.5694542800437951e-43,-0.3777894973754883
378.0,419.0,0.4881,0.0802,9.5635,-0.0505,-0.2728,-0.1171,-1.6918465099730433,3.249825131224071e-10,2.1279492378234863,-1.7555214166641235,0.5724572539329529,2.618739604949951,4.718120761192896,-1.1392675638198853,-0.07460625469684601,-1.5962737242328089,-0.0,0.10841060429811478,0.8255023956298828,-0.0,-0.014033711515367031,0.8103352189064026,0.0,-0.4327540993690491
378.0,419.0,0.4881,0.0802,9.5635,-0.0505,-0.2728,-0.1171,-1.691878458062643,7.847945015372712e-16,2.163149833679199,-1.7521743774414062,0.5703262090682983,2.626526355743408,4.71109311162915,-1.1480804681777954,-0.08563600480556488,-1.5963142553912562,-0.0,0.10213004052639008,0.8254625797271729,-0.0,0.0031545383390039206,0.8103593587875366,0.0,-0.3339202105998993
378.0,419.0,0.4881,0.0802,9.5635,-0.0505,-0.2728,-0.1171,-1.6919228039183558,-0.0010383892804384232,2.191176176071167,-1.748667597770691,0.5650407075881958,2.592900037765503,4.70423857747998,-1.1548709869384766,-0.07518596947193146,-1.5963061491595667,-0.0,0.10750474780797958,0.8255187273025513,-0.0,-0.0040620299987494946,0.8103190064430237,0.0,-0.3579057455062866
378.0,419.0,0.4881,0.0802,9.5635,-0.0505,-0.2728,-0.1171,-1.691918512383932,-0.0021884958259761333,2.1860361099243164,-1.7451962232589722,0.5605494976043701,2.6186838150024414,4.697286768550537,-1.156935453414917,-0.07339367270469666,-1.5963104406939905,-0.0,0.090431347489357,0.8254343271255493,-0.0,-0.011846436187624931,0.8103231191635132,0.0,-0.36297571659088135
378.0,419.0,0.4881,0.0802,9.5635,-0.0505,-0.2728,-0.1171,-1.6918946705260218,-0.0009902783203870058,2.1931493282318115,-1.7418441772460938,0.5616045594215393,2.553595542907715,4.690375490779541,-1.156612753868103,-0.06161368265748024,-1.5962775389300745,-0.0,0.09971265494823456,0.8254666328430176,-0.0,-0.004803642630577087,0.8103553056716919,0.0,-0.36079007387161255
378.0,419.0,0.4881,0.0802,9.5635,-0.0505,-0.2728,-0.1171,-1.6919504604735316,0.00037226948188617826,2.2018513679504395,-1.7395024299621582,0.5637578368186951,2.6510541439056396,4.685755415553711,-1.1573691368103027,-0.05203363671898842,-1.5963018576251429,-0.0,0.10537447035312653,0.8254544138908386,-0.0,0.004969150759279728,0.8103470802307129,0.0,-0.3982207179069519
329.0,355.0,1.4273,0.1352,9.3577,-0.0507,-0.5353,-0.1126,-1.6918584309019984,0.001529094995930791,2.270014762878418,-1.7361875772476196,0.5656235814094543,2.579982280731201,4.6787049013325195,-1.153607964515686,-0.03678443655371666,-1.5963133017169397,-0.0,0.09370267391204834,0.8254945874214172,-0.0,-0.002416732255369425,0.8103673458099365,0.0,-0.38585764169692993
329.0,355.0,1.4273,0.1352,9.3577,-0.0507,-0.5353,-0.1126,-1.691850324670309,0.0013775296974927187,2.251410961151123,-1.732845425605774,0.5670228004455566,2.5901122093200684,4.671800776118896,-1.1527960300445557,-0.048221368342638016,-1.5963061491595667,-0.00014495350478682667,0.09937464445829391,0.8254663348197937,-0.0,-0.005804550834000111,0.8103511929512024,0.0,-0.3420524597167969
329.0,355.0,1.4273,0.1352,9.3577,-0.0507,-0.5353,-0.1126,-1.6918908558287562,0.0006751859909854829,2.2703893184661865,-1.7294214963912964,0.5683437585830688,2.6227569580078125,4.664854212398193,-1.1484150886535645,-0.04100995510816574,-1.5962937513934534,-0.0001954999315785244,0.10076676309108734,0.8254704475402832,-0.0,0.0009961826726794243,0.8103673458099365,0.0,-0.3350195586681366
329.0,355.0,1.4273,0.1352,9.3577,-0.0507,-0.5353,-0.1126,-1.6919385395445765,-0.00035896728513762355,2.234098434448242,-1.7260504961013794,0.569842517375946,2.5868759155273438,4.658083601588867,-1.1461892127990723,-0.0298922136425972,-1.5963423887835901,-0.00020617751579266042,0.08234991878271103,0.8254983425140381,-0.0,0.008256971836090088,0.8103351593017578,0.00017837823543231934,-0.31128281354904175
329.0,355.0,1.4273,0.1352,9.3577,-0.0507,-0.5353,-0.1126,-1.6919547520079554,-0.001524111139588058,2.264453411102295,-1.722645878791809,0.5740745067596436,2.5897645950317383,4.651046438808105,-1.138676404953003,-0.04457942396402359,-1.5963133017169397,-0.00019431349937804043,0.08910439163446426,0.8254745006561279,-0.0,0.0021458780393004417,0.810371458530426,0.0007567140855826437,-0.33907222747802734
329.0,355.0,1.4273,0.1352,9.3577,-0.0507,-0.5353,-0.1126,-1.6920105419554652,-0.0015971808461472392,2.3194310665130615,-1.7191911935806274,0.563768744468689,2.661579132080078,4.644229097957275,-1.1353741884231567,-0.0390097014605999,-1.5963342825519007,-0.00020325707737356424,0.0904032289981842,0.8254544734954834,-0.0,-0.00532117486000061,0.8103873133659363,0.0007455853628925979,-0.31744199991226196
329.0,355.0,1.4273,0.1352,9.3577,-0.0507,-0.5353,-0.1126,-1.6919666729369105,-0.0033810315653681755,2.3071658611297607,-1.7158114910125732,0.5546935796737671,2.59913969039917,4.63742653905835,-1.1403427124023438,-0.04494231194257736,-1.5963175932513636,-0.00029113111668266356,0.08516670763492584,0.8254585266113281,-0.0,0.00228160060942173,0.8103470206260681,0.000527139869518578,-0.3589944839477539
329.0,355.0,1.4273,0.1352,9.3577,-0.0507,-0.5353,-0.1126,-1.692031045953268,-0.0042083170264959335,2.3302135467529297,-1.7135592699050903,0.5527275800704956,2.6014018058776855,4.63298670827832,-1.1425681114196777,-0.03876733034849167,-1.5963581244098108,-0.00025788601487874985,0.09268507361412048,0.8254183530807495,-0.0,0.002208791673183441,0.8103955388069153,0.0005056210211478174,-0.2856177091598511
329.0,355.0,1.4273,0.1352,9.3577,-0.0507,-0.5353,-0.1126,-1.6919905147948207,-0.0027669379487633705,2.321122884750366,-1.71028470993042,0.5489603877067566,2.6226205825805664,4.626256151790283,-1.1354131698608398,-0.030439773574471474,-1.5962813536273401,-0.00022004247875884175,0.08116988092660904,0.8255265355110168,-0.0,-0.002316467696800828,0.8104037642478943,0.00041323527693748474,-0.26362037658691406
329.0,355.0,1.4273,0.1352,9.3577,-0.0507,-0.5353,-0.1126,-1.6919747791686,0.0006541958427987993,2.2829408645629883,-1.707064151763916,0.5503413677215576,2.655501127243042,4.619367762202881,-1.1336759328842163,-0.03709058091044426,-1.5962937513934534,-0.00019188634178135544,0.08667759597301483,0.8255024552345276,-0.0,0.015238633379340172,0.8103590607643127,0.0003946066426578909,-0.27233439683914185
329.0,355.0,1.4273,0.1352,9.3577,-0.0507,-0.5353,-0.1126,-1.6919785938658656,0.002098583150655031,2.2945563793182373,-1.7038522958755493,0.5507869720458984,2.6424484252929688,4.612499876613281,-1.1273219585418701,-0.04262373968958855,-1.5962937513934534,-0.0002040636754827574,0.0936880111694336,0.8254983425140381,-0.0,0.0012099596206098795,0.8104075789451599,0.00033888223697431386,-0.3047979474067688
329.0,355.0,1.4273,0.1352,9.3577,-0.0507,-0.5353,-0.1126,-1.6919547520079554,0.0009521551546640694,2.3210742473602295,-1.7005726099014282,0.5449315309524536,2.610551118850708,4.605873747462891,-1.123734474182129,-0.03322355076670647,-1.5963380972491663,-0.00018334676860831678,0.07209822535514832,0.8254625797271729,-0.0,-0.007595606613904238,0.8104034662246704,0.000296950078336522,-0.2762569189071655
329.0,355.0,1.4273,0.1352,9.3577,-0.0507,-0.5353,-0.1126,-1.6920067272581996,-0.0005643842741847038,2.338733196258545,-1.6972148418426514,0.547990083694458,2.655294895172119,4.5992156702229,-1.1253983974456787,-0.02759990096092224,-1.5963218847857874,-0.00016639573732391,0.07651549577713013,0.8254623413085938,-0.0,-0.020883340388536453,0.8103955388069153,0.0001956479682121426,-0.28626078367233276
329.0,355.0,1.4273,0.1352,9.3577,-0.0507,-0.5353,-0.1126,-1.6920272312560023,-0.0016849582316353917,2.3443386554718018,-1.6939433813095093,0.5471832752227783,2.580547332763672,4.592627688045166,-1.1182007789611816,-0.027258703485131264,-1.5963500181781214,-0.00017764137010090053,0.08022699505090714,0.8255186676979065,-0.0,0.009974900633096695,0.810363233089447,0.00024076882982626557,-0.2904105484485626
329.0,355.0,1.4273,0.1352,9.3577,-0.0507,-0.5353,-0.1126,-1.6920343838133753,-0.0019111251458525658,2.3123035430908203,-1.6917827129364014,0.5515625476837158,2.638744354248047,4.5880629259296875,-1.1169321537017822,-0.025812290608882904,-1.5962775389300745,-0.00016820966266095638,0.08187791705131531,0.8254785537719727,-0.0,0.002012944547459483,0.8103832602500916,0.0006921420572325587,-0.31525367498397827
329.0,355.0,1.4273,0.1352,9.3577,-0.0507,-0.5353,-0.1126,-1.6921068630614222,-0.00344029045663774,2.3573246002197266,-1.6885597705841064,0.5402700304985046,2.609039783477783,4.581227942104004,-1.119022011756897,-0.035963889211416245,-1.5963133017169397,-0.0001557347713969648,0.08709341287612915,0.8254904747009277,-0.0,-0.0023690462112426758,0.8104356527328491,0.0006038559949956834,-0.29672756791114807
289.0,343.0,2.6171,-0.1747,7.9232,-0.0573,-0.5869,-0.1223,-1.692118307153219,-0.0061239334754645824,2.2678115367889404,-1.685279369354248,0.5259178280830383,2.6534056663513184,4.5744873720356445,-1.1237545013427734,-0.05043527111411095,-1.5962894598590296,-0.00014498247765004635,0.0810864195227623,0.8255387544631958,-0.0,-0.006076017394661903,0.8104397654533386,0.000377143791411072,-0.2594372034072876
289.0,343.0,2.6171,-0.1747,7.9232,-0.0573,-0.5869,-0.1223,-1.6921307049193324,-0.006883544381707907,2.3200557231903076,-1.6820385456085205,0.5236606597900391,2.5756871700286865,4.567889853114746,-1.125714659690857,-0.04390934109687805,-1.596269432698385,-5.948899342911318e-05,0.09156441688537598,0.8255023956298828,-0.0,-0.0017716656439006329,0.8104194402694702,0.00030110933585092425,-0.3292691111564636
289.0,343.0,2.6171,-0.1747,7.9232,-0.0573,-0.5869,-0.1223,-1.692134519616598,-0.004171284846961498,2.267806053161621,-1.678890347480774,0.5236700773239136,2.597659111022949,4.561130686397217,-1.1195429563522339,-0.027640070766210556,-1.5963094870196741,-4.9588179535930976e-05,0.1088726595044136,0.8255547285079956,-0.0,-0.004838248714804649,0.8103794455528259,0.00020061123359482735,-0.28790906071662903
289.0,343.0,2.6171,-0.1747,7.9232,-0.0573,-0.5869,-0.1223,-1.6921583614745082,-0.0010128695284947753,2.298210620880127,-1.6757913827896118,0.522390604019165,2.619192123413086,4.554376764888428,-1.1176538467407227,-0.035203710198402405,-1.5963218847857874,-4.580120730679482e-05,0.09203048050403595,0.8254700899124146,-0.0,0.0025314106605947018,0.8103590607643127,0.00012890562356915325,-0.29877400398254395
289.0,343.0,2.6171,-0.1747,7.9232,-0.0573,-0.5869,-0.1223,-1.6921702824034632,0.0004993347683921456,2.272085189819336,-1.672602653503418,0.5229325890541077,2.619819164276123,4.547699137324951,-1.117790937423706,-0.027431581169366837,-1.5963462034808558,-4.2552801460260525e-05,0.09228730201721191,0.8254700899124146,-0.0,-0.009924851357936859,0.8103917241096497,0.00011275485303485766,-0.32011136412620544
289.0,343.0,2.6171,-0.1747,7.9232,-0.0573,-0.5869,-0.1223,-1.692174573937887,1.3411269719654229e-05,2.2742691040039062,-1.6695278882980347,0.5191802382469177,2.586413860321045,4.54097239553418,-1.1157891750335693,-0.04087396338582039,-1.5962818304644983,-3.973456477979198e-05,0.08956845104694366,0.82554692029953,-0.0,-0.007499749772250652,0.8103955984115601,0.00010020052286563441,-0.2783600986003876
289.0,343.0,2.6171,-0.1747,7.9232,-0.0573,-0.5869,-0.1223,-1.6921822033324183,2.41398101508139e-09,2.25543212890625,-1.6674314737319946,0.520984947681427,2.593003273010254,4.5365492540546875,-1.1216791868209839,-0.03348109871149063,-1.5963061491595667,-3.805444066529162e-05,0.10674197226762772,0.8254506587982178,-0.0,0.006749769672751427,0.8104195594787598,-7.60745388106443e-05,-0.32992100715637207
289.0,343.0,2.6171,-0.1747,7.9232,-0.0573,-0.5869,-0.1223,-1.6922022304930628,-0.0030008661560714245,2.2459747791290283,-1.6643339395523071,0.519561767578125,2.619567394256592,4.5298706728168945,-1.120248794555664,-0.044155851006507874,-1.5962894598590296,-3.578478208510205e-05,0.09783850610256195,0.8254860639572144,-0.0,0.005289544351398945,0.8103671073913574,-3.388655022718012e-05,-0.29519081115722656
289.0,343.0,2.6171,-0.1747,7.9232,-0.0573,-0.5869,-0.1223,-1.6922222576537074,-0.0050797732546925545,2.2439279556274414,-1.6612478494644165,0.5240877270698547,2.6043272018432617,4.52296702444043,-1.115127444267273,-0.047574520111083984,-1.5962894598590296,-3.377059329068288e-05,0.09486539661884308,0.8255224823951721,-0.0,-0.0005169297801330686,0.8103873133659363,-2.0175443538050786e-09,-0.3169283866882324
289.0,343.0,2.6171,-0.1747,7.9232,-0.0573,-0.5869,-0.1223,-1.6923195324339808,-0.004989651031792164,2.2504994869232178,-1.6581510305404663,0.5169855952262878,2.635119915008545,4.516305132503174,-1.1197432279586792,-0.050922051072120667,-1.5963218847857874,-2.010683238040656e-05,0.0997188538312912,0.825474202632904,-0.0,-0.0024796014185994864,0.8104075789451599,-4.872133089090262e-15,-0.29705169796943665
289.0,343.0,2.6171,-0.1747,7.9232,-0.0573,-0.5869,-0.1223,-1.692366739312643,-0.0056009553372859955,2.2327747344970703,-1.6549599170684814,0.5097754001617432,2.5543127059936523,4.509604139918945,-1.1179312467575073,-0.05652058869600296,-1.5963104406939905,-1.5177979548752774e-05,0.10883855819702148,0.8254504203796387,-0.0,-0.0069774119183421135,0.810427725315094,-1.17656280092596e-20,-0.34646645188331604
289.0,343.0,2.6171,-0.1747,7.9232,-0.0573,-0.5869,-0.1223,-1.6923300228514613,-0.006323416717350483,2.260793685913086,-1.651892066001892,0.5044869780540466,2.597797393798828,4.5030528742023925,-1.119740605354309,-0.051188938319683075,-1.59631854692568,-1.4446023669734132e-05,0.08985097706317902,0.8255102634429932,-0.0,-0.010647084563970566,0.8103711009025574,-2.84126035200594e-26,-0.3615037202835083
289.0,343.0,2.6171,-0.1747,7.9232,-0.0573,-0.5869,-0.1223,-1.6923781834044398,-0.005257416982203722,2.191413640975952,-1.6487456560134888,0.5074602365493774,2.576402187347412,4.496289415950439,-1.1139987707138062,-0.05625161901116371,-1.5963104406939905,-1.3782335372525267e-05,0.0941137969493866,0.8254983425140381,-0.0,-0.00795129593461752,0.8103914260864258,-6.861309391745431e-32,-0.3230464458465576
289.0,343.0,2.6171,-0.1747,7.9232,-0.0573,-0.5869,-0.1223,-1.6923939190306605,-0.0032183262519538403,2.249181032180786,-1.6457297801971436,0.5070233345031738,2.596940040588379,4.489536448115967,-1.1103709936141968,-0.06278286874294281,-1.5963061491595667,-1.317697751801461e-05,0.09955821931362152,0.8254504203796387,-0.0,0.01138029433786869,0.8103711605072021,-1.6569255722644931e-37,-0.357452392578125
289.0,343.0,2.6171,-0.1747,7.9232,-0.0573,-0.5869,-0.1223,-1.6924025020995082,-0.001950349542312324,2.208141565322876,-1.6437033414840698,0.5051918625831604,2.609891414642334,4.485099955196045,-1.1119983196258545,-0.04597395285964012,-1.5963175932513636,-1.2802103810827248e-05,0.09964263439178467,0.8254344463348389,-0.0,-0.007785666733980179,0.8104116916656494,-2.982383521622508e-41,-0.33916810154914856
289.0,343.0,2.6171,-0.1747,7.9232,-0.0573,-0.5869,-0.1223,-1.6923743687071742,-0.0011585073079913855,2.220346212387085,-1.6406869888305664,0.5055439472198486,2.606355667114258,4.478428049678467,-1.1045500040054321,-0.03956887125968933,-1.5962894598590296,-1.2278148460609373e-05,0.10734939575195312,0.8254823684692383,-0.0,-0.01951730065047741,0.8104397058486938,-0.0,-0.3419174551963806
263.0,299.0,2.653,-0.0425,9.2046,-0.051,-0.6012,-0.1109,-1.6923943958678187,-0.0007962659583427012,2.2612907886505127,-1.6377192735671997,0.5009859204292297,2.596165895462036,4.471874876613281,-1.106602668762207,-0.039382219314575195,-1.5963299910174769,-1.1795388672908302e-05,0.10335022211074829,0.8255105018615723,-0.0,-0.0036768976133316755,0.8104034662246704,0.0,-0.37733912467956543
263.0,299.0,2.653,-0.0425,9.2046,-0.051,-0.6012,-0.1109,-1.6924501858153285,-0.0029787034727633,2.239123821258545,-1.634708285331726,0.5017737746238708,2.5922739505767822,4.46526209890332,-1.1031692028045654,-0.0528334304690361,-1.596285645161764,-1.1349164196872152e-05,0.10739174485206604,0.8254901766777039,-0.0,-0.01127730030566454,0.8103346824645996,0.0,-0.4029039144515991
263.0,299.0,2.653,-0.0425,9.2046,-0.051,-0.6012,-0.1109,-1.692454000512594,-0.004440818447619677,2.2167551517486572,-1.6316931247711182,0.5005589723587036,2.563497543334961,4.458671255702637,-1.0914973020553589,-0.03660305589437485,-1.596325699483053,-1.0935474165307824e-05,0.10232904553413391,0.8254861235618591,-0.0,-0.0014878264628350735,0.8104117512702942,0.0,-0.34621208906173706
263.0,299.0,2.653,-0.0425,9.2046,-0.051,-0.6012,-0.1109,-1.6925345859923304,-0.004863336682319641,2.250373601913452,-1.6287736892700195,0.5021095871925354,2.5585520267486572,4.452069922084473,-1.0905946493148804,-0.0381045788526535,-1.5963061491595667,-1.0550886145210825e-05,0.09887760877609253,0.8254704475402832,-0.0,-0.004228274337947369,0.8103834986686707,0.0,-0.33434954285621643
263.0,299.0,2.653,-0.0425,9.2046,-0.051,-0.6012,-0.1109,-1.692482133904928,-0.004688787739723921,2.2671024799346924,-1.6256862878799438,0.4931764602661133,2.6250970363616943,4.445523424739502,-1.0906215906143188,-0.02997378073632717,-1.5963342825519007,-1.0192424269916955e-05,0.10760123282670975,0.8255425095558167,-0.0,-0.013421094045042992,0.8103914260864258,0.0,-0.33090391755104065
263.0,299.0,2.653,-0.0425,9.2046,-0.051,-0.6012,-0.1109,-1.6925460300841273,-0.006353522185236216,2.2792067527770996,-1.6227432489395142,0.48496851325035095,2.5444414615631104,4.439014597530029,-1.091795563697815,-0.023487545549869537,-1.5963104406939905,-1.283777578464651e-06,0.09527063369750977,0.8254504203796387,-0.0,-0.0036604288034141064,0.8103793263435364,0.0,-0.3235827088356018
263.0,299.0,2.653,-0.0425,9.2046,-0.051,-0.6012,-0.1109,-1.6926218471922816,-0.0068760826252400875,2.264188528060913,-1.620775580406189,0.4826274812221527,2.5868821144104004,4.434640093440674,-1.0869170427322388,-0.05048667639493942,-1.5963061491595667,-5.472945208140345e-09,0.09812577068805695,0.8254745006561279,-0.0,-0.002876694779843092,0.8103752732276917,-0.00018083130999002606,-0.3214878439903259
263.0,299.0,2.653,-0.0425,9.2046,-0.051,-0.6012,-0.1109,-1.6926261387267054,-0.006834705360233784,2.242865800857544,-1.6178323030471802,0.48458606004714966,2.523689031600952,4.4280149179646,-1.0768465995788574,-0.02648737095296383,-1.5962937513934534,-1.5234146409637273e-12,0.10533718764781952,0.8254904747009277,-0.0,-0.006273424718528986,0.8103996515274048,-0.00013344906619749963,-0.3653184473514557
263.0,299.0,2.653,-0.0425,9.2046,-0.051,-0.6012,-0.1109,-1.6926623783507289,-0.00440596416592598,2.249911308288574,-1.615012526512146,0.4818592667579651,2.628983974456787,4.421604796046875,-1.0762929916381836,-0.02730926126241684,-1.5962937513934534,-4.2404806621089105e-16,0.10896531492471695,0.8254904747009277,-0.0,0.0034881727769970894,0.810363233089447,-0.00018810961046256125,-0.32540297508239746
263.0,299.0,2.653,-0.0425,9.2046,-0.051,-0.6012,-0.1109,-1.6926657162108363,-0.0024366327561438084,2.188035726547241,-1.6121686697006226,0.4743611514568329,2.580698251724243,4.415219469661377,-1.0753675699234009,-0.042633768171072006,-1.5962980429278772,-1.1803536468886684e-19,0.10438576340675354,0.825446367263794,-0.0,-0.015209568664431572,0.8103429079055786,-0.00020359497284516692,-0.3641548156738281
263.0,299.0,2.653,-0.0425,9.2046,-0.051,-0.6012,-0.1109,-1.692658086816305,-0.0014963654102757573,2.223329544067383,-1.6093533039093018,0.4739256799221039,2.527087688446045,4.40877024709668,-1.0729840993881226,-0.03241374343633652,-1.5962613264666956,-3.285557707502477e-23,0.1148824691772461,0.825446367263794,-0.0,-0.009151230566203594,0.8103673458099365,-0.00017861476226244122,-0.3851979970932007
263.0,299.0,2.653,-0.0425,9.2046,-0.051,-0.6012,-0.1109,-1.6927100620665492,-0.002237922279164195,2.2402470111846924,-1.606594204902649,0.47001221776008606,2.583604574203491,4.402387781734131,-1.06820809841156,-0.039018645882606506,-1.59625751176943,-9.14547016354525e-27,0.11294442415237427,0.8254663944244385,-0.0,-0.011145797558128834,0.8103552460670471,-0.00015547148359473795,-0.3683564066886902
263.0,299.0,2.653,-0.0425,9.2046,-0.051,-0.6012,-0.1109,-1.6927057705321253,-0.004331624135375023,2.2333338260650635,-1.6038037538528442,0.4687379002571106,2.601456880569458,4.395925684566162,-1.05635404586792,-0.02711511217057705,-1.5963218847857874,-2.545675204502339e-30,0.11383595317602158,0.8255143165588379,-0.0,-0.005472888704389334,0.810355007648468,-0.00013763824244961143,-0.37669637799263
263.0,299.0,2.653,-0.0425,9.2046,-0.051,-0.6012,-0.1109,-1.6927739582457484,-0.005588922183960676,2.2591745853424072,-1.602003574371338,0.4634668827056885,2.5579941272735596,4.391743822688721,-1.0633580684661865,-0.06037091836333275,-1.5963380972491663,-1.0852612004012609e-32,0.10882444679737091,0.8255143165588379,-0.0,0.0002847001887857914,0.8103752732276917,-0.0001278608397115022,-0.31989753246307373
263.0,299.0,2.653,-0.0425,9.2046,-0.051,-0.6012,-0.1109,-1.692777772943014,-0.006092850584536791,2.262378215789795,-1.5991955995559692,0.4628336727619171,2.568732261657715,4.3854309755512695,-1.052750825881958,-0.03675974905490875,-1.596285645161764,-3.020864074283885e-36,0.10552683472633362,0.8254704475402832,-0.0,-0.014482693746685982,0.8103955388069153,-0.00011554893717402592,-0.3530440330505371
252.0,281.0,3.0281,0.0957,9.0867,-0.0602,-0.5692,-0.1252,-1.6928378544249476,-0.0059308079071342945,2.2346835136413574,-1.5964908599853516,0.45391637086868286,2.52677583694458,4.379182501430176,-1.051430106163025,-0.05021759122610092,-1.5962894598590296,-8.40868761696607e-40,0.09441902488470078,0.8254625797271729,-0.0,0.003906319849193096,0.8104199171066284,-0.00010539950744714588,-0.3472755551338196
252.0,281.0,3.0281,0.0957,9.0867,-0.0602,-0.5692,-0.1252,-1.692862173120016,-0.006312335841357708,2.1655492782592773,-1.5937470197677612,0.44976675510406494,2.552328109741211,4.372807188625,-1.0474945306777954,-0.02256137877702713,-1.596285645161764,-2.3401684354224445e-43,0.10108153522014618,0.8255061507225037,-0.0,0.004069518763571978,0.8104078769683838,-9.68892709352076e-05,-0.28074848651885986
252.0,281.0,3.0281,0.0957,9.0867,-0.0602,-0.5692,-0.1252,-1.6929222546019496,-0.007232028525322676,2.2271692752838135,-1.5910080671310425,0.4380658268928528,2.492793083190918,4.3664747911640625,-1.0466601848602295,-0.026998478919267654,-1.5962894598590296,-0.0,0.09774726629257202,0.8254663944244385,-0.0,-0.010577693581581116,0.8103955388069153,-8.965063898358494e-05,-0.33203667402267456
252.0,281.0,3.0281,0.0957,9.0867,-0.0602,-0.5692,-0.1252,-1.692953725854391,-0.006727226078510284,2.255969524383545,-1.5884020328521729,0.43549391627311707,2.531674385070801,4.36021010457959,-1.0439131259918213,-0.04392026364803314,-1.59625751176943,-0.0,0.0985354334115982,0.8254663944244385,-0.0,-0.014536327682435513,0.8103711605072021,-6.970215326873586e-05,-0.33269065618515015
252.0,281.0,3.0281,0.0957,9.0867,-0.0602,-0.5692,-0.1252,-1.6929532490172328,-0.005642941687256098,2.2481167316436768,-1.5858063697814941,0.4282338619232178,2.5093441009521484,4.354012175197266,-1.0319191217422485,-0.036100469529628754,-1.5963104406939905,-0.0,0.09789810329675674,0.8254861235618591,-0.0,-0.007719893008470535,0.8103673458099365,-7.798597653163597e-05,-0.3573431670665741
252.0,281.0,3.0281,0.0957,9.0867,-0.0602,-0.5692,-0.1252,-1.6929651699461878,-0.004363458603620529,2.2614684104919434,-1.5832463502883911,0.42265599966049194,2.4947006702423096,4.347887201900146,-1.0281134843826294,-0.04068365693092346,-1.5962894598590296,-0.0,0.1006256490945816,0.8254625797271729,-0.0,0.00041245121974498034,0.8103793263435364,-7.323651516344398e-05,-0.27544233202934265
252.0,281.0,3.0281,0.0957,9.0867,-0.0602,-0.5692,-0.1252,-1.6930543384947718,-0.003438726533204317,2.2519967555999756,-1.5815975666046143,0.4162992238998413,2.515446662902832,4.343791170711182,-1.023016333580017,-0.032446056604385376,-1.5962894598590296,-0.0,0.09759990870952606,0.8254785537719727,-0.0,-0.004668110981583595,0.8103511929512024,-7.037322939140722e-05,-0.341170996427536
252.0,281.0,3.0281,0.0957,9.0867,-0.0602,-0.5692,-0.1252,-1.6929933033385218,-0.002492004306986928,2.2680046558380127,-1.5791505575180054,0.41469648480415344,2.458230972290039,4.3376428323933105,-1.0078232288360596,-0.046348705887794495,-1.5963061491595667,-0.0,0.09961995482444763,0.8254544734954834,-0.0,-0.0025712307542562485,0.8103793859481812,-4.276044364814879e-06,-0.3440643548965454
252.0,281.0,3.0281,0.0957,9.0867,-0.0602,-0.5692,-0.1252,-1.693005224267477,-0.0021954705007374287,2.263471841812134,-1.5766947269439697,0.40799644589424133,2.5032029151916504,4.331589384669922,-0.9966690540313721,-0.01493843924254179,-1.5963061491595667,-0.0,0.1091340035200119,0.8255025744438171,-0.0,-0.007128463592380285,0.8103470206260681,1.8274988178745843e-05,-0.33662378787994385
252.0,281.0,3.0281,0.0957,9.0867,-0.0602,-0.5692,-0.1252,-1.6930295429625453,-0.0024650755804032087,2.3050575256347656,-1.5743027925491333,0.40227875113487244,2.551560401916504,4.3257128435322265,-0.9891913533210754,-0.010189630091190338,-1.5963061491595667,-0.0,0.09308318793773651,0.8255102634429932,-0.0,0.0008916637161746621,0.8103914260864258,1.722572596918326e-05,-0.3199503719806671
252.0,281.0,3.0281,0.0957,9.0867,-0.0602,-0.5692,-0.1252,-1.6931058369078578,-0.0039719403721392155,2.2854442596435547,-1.5719149112701416,0.3894239366054535,2.4762794971466064,4.319864435786865,-0.9815945625305176,-0.028191477060317993,-1.5963061491595667,-0.0,0.10207831114530563,0.825474202632904,-0.0,0.0008360121864825487,0.8103752732276917,1.6290359781123698e-05,-0.3114108145236969
252.0,281.0,3.0281,0.0957,9.0867,-0.0602,-0.5692,-0.1252,-1.6931377849974574,-0.0052101188339293,2.304867744445801,-1.5695509910583496,0.38738831877708435,2.443880319595337,4.314112349147461,-0.9673523902893066,-0.029349450021982193,-1.5963094870196741,-0.0,0.08524712175130844,0.825486421585083,-0.0,-0.0016282475553452969,0.8104117512702942,4.573687328957021e-05,-0.3103134036064148
252.0,281.0,3.0281,0.0957,9.0867,-0.0602,-0.5692,-0.1252,-1.6931449375548304,-0.004480232950299978,2.274289131164551,-1.567302942276001,0.3885851502418518,2.463517904281616,4.308265371913574,-0.9599988460540771,-0.03006366640329361,-1.5963094870196741,-0.0,0.09889355301856995,0.8254464268684387,-0.0,0.0005776694742962718,0.8103911876678467,4.408353561302647e-05,-0.32873520255088806
