ramyac6/ROB537/final_project/csv/good/good_59.csv
tof_0,tof_1,accelx,accely,accelz,gyrox,gyroy,gyroz,shoulder_lift_joint_position,shoulder_lift_joint_velocity,shoulder_lift_joint_effort,elbow_joint_position,elbow_joint_velocity,elbow_joint_effort,wrist_1_joint_position,wrist_1_joint_velocity,wrist_1_joint_effort,wrist_2_joint_position,wrist_2_joint_velocity,wrist_2_joint_effort,wrist_3_joint_position,wrist_3_joint_velocity,wrist_3_joint_effort,shoulder_pan_joint_position,shoulder_pan_joint_velocity,shoulder_pan_joint_effort
369.0,502.0,-4.9208,0.7531,8.5759,-0.0431,0.0182,-0.12,-2.290006776849264,0.0,4.690496444702148,-1.4338964223861694,-0.0,1.8366780281066895,5.663880336075582,0.0,0.21487319469451904,-1.7947028318988245,-0.0,0.008057774975895882,0.3555123209953308,-0.0,0.0017149875639006495,1.3066606521606445,0.0,0.02976537123322487
369.0,502.0,-4.9208,0.7531,8.5759,-0.0431,0.0182,-0.12,-2.2900549374022425,0.0,4.631172180175781,-1.433933138847351,-0.0,1.8404873609542847,5.663897025376119,0.0,0.21781107783317566,-1.7946823279010218,-0.0,0.01583050936460495,0.3554643392562866,-0.0,0.017098160460591316,1.3067007064819336,0.0,-0.05684855580329895
369.0,502.0,-4.9208,0.7531,8.5759,-0.0431,0.0182,-0.12,-2.2900263271727503,0.0,4.677114963531494,-1.433872938156128,-0.0,1.8079047203063965,5.66388891914443,0.0,0.21129843592643738,-1.7947028318988245,-0.0,0.023006699979305267,0.3554520010948181,-0.0,0.0006860389839857817,1.306668758392334,0.0,-0.0027668806724250317
369.0,502.0,-4.9208,0.7531,8.5759,-0.0431,0.0182,-0.12,-2.29000248531484,0.0,4.662806987762451,-1.4339412450790405,-0.0,1.828423261642456,5.663905310421743,0.0,0.20742076635360718,-1.794710938130514,-0.0,0.004271671641618013,0.35542377829551697,-0.0,0.002798951230943203,1.306680679321289,0.0,-0.030507121235132217
369.0,502.0,-4.9208,0.7531,8.5759,-0.0431,0.0182,-0.12,-2.2900225124754847,0.0,4.66231107711792,-1.4338849782943726,-0.0,1.7869081497192383,5.663909363537588,0.0,0.22209900617599487,-1.7946541945086878,-0.0,0.023686964064836502,0.3554643392562866,-0.0,0.02521459385752678,1.3066606521606445,0.0,-0.054261352866888046
369.0,502.0,-4.9208,0.7531,8.5759,-0.0431,0.0182,-0.12,-2.2900425396361292,0.0,4.667394638061523,-1.4338849782943726,-0.0,1.876284122467041,5.663884627610006,0.0,0.21304352581501007,-1.7947147528277796,-0.0,0.006858499720692635,0.35546016693115234,-0.0,0.014477269724011421,1.3066729307174683,0.0,0.005792911630123854
369.0,502.0,-4.9208,0.7531,8.5759,-0.0431,0.0182,-0.12,-2.2899981937804164,0.0,4.645705223083496,-1.4339051246643066,-0.0,1.8007123470306396,5.663884627610006,0.0,0.19959351420402527,-1.7946699301349085,-0.0,0.012502871453762054,0.3554360866546631,-0.0,-0.0011996629182249308,1.3066487312316895,0.0,0.026982298120856285
359.0,496.0,-4.9436,0.7226,8.6698,-0.0434,0.0267,-0.1151,-2.2900549374022425,0.0,4.656609535217285,-1.4339088201522827,-0.0,1.8173846006393433,5.663880395680227,0.0,0.21445287764072418,-1.7946541945086878,-0.0,0.012139853090047836,0.3554438352584839,-0.0,0.006097673438489437,1.306668758392334,0.0,-0.01933368667960167
359.0,496.0,-4.9436,0.7226,8.6698,-0.0434,0.0267,-0.1151,-2.2899943790831507,0.0,4.640305519104004,-1.4338886737823486,-0.0,1.8514578342437744,5.6638685939605615,0.0,0.20470070838928223,-1.7947028318988245,-0.0,0.01168777234852314,0.3554720878601074,-0.0,0.0026725418865680695,1.3066929578781128,0.0,0.0043829623609781265
359.0,496.0,-4.9436,0.7226,8.6698,-0.0434,0.0267,-0.1151,-2.2900101147093714,0.0,4.625420570373535,-1.4339090585708618,-0.0,1.8223659992218018,5.6638762829597376,0.0,0.2160603404045105,-1.7946541945086878,-0.0,0.012688098475337029,0.35548853874206543,-0.0,0.014878794550895691,1.306668758392334,0.0,0.036867186427116394
359.0,496.0,-4.9436,0.7226,8.6698,-0.0434,0.0267,-0.1151,-2.2899981937804164,0.0,4.625687599182129,-1.4338725805282593,-0.0,1.8050661087036133,5.663884568005361,0.0,0.21051406860351562,-1.7947066465960901,-0.0,0.019990624859929085,0.35546019673347473,-0.0,0.0005406902637332678,1.3066606521606445,0.0,0.022136498242616653
359.0,496.0,-4.9436,0.7226,8.6698,-0.0434,0.0267,-0.1151,-2.2900425396361292,0.0,4.691356182098389,-1.433848261833191,-0.0,1.8115817308425903,5.663872647076406,0.0,0.21514394879341125,-1.794694725667135,-0.0,0.012995099648833275,0.3554200530052185,-0.0,-0.004376468248665333,1.3066847324371338,0.0,-0.054497864097356796
359.0,496.0,-4.9436,0.7226,8.6698,-0.0434,0.0267,-0.1151,-2.29000248531484,0.0,4.6365461349487305,-1.4339128732681274,-0.0,1.7693403959274292,5.663913059025564,0.0,0.21035954356193542,-1.7946866194354456,-0.0,0.016105812042951584,0.3554401695728302,-0.0,-0.009200765751302242,1.306688904762268,0.0,0.00811335351318121
359.0,496.0,-4.9436,0.7226,8.6698,-0.0434,0.0267,-0.1151,-2.2900101147093714,0.0,4.659104347229004,-1.4338886737823486,-0.0,1.7770240306854248,5.663884627610006,0.0,0.2205059826374054,-1.7946661154376429,-0.0,0.006660449784249067,0.3553716242313385,-0.0,0.00728507898747921,1.306632399559021,0.0,0.023534242063760757
359.0,496.0,-4.9436,0.7226,8.6698,-0.0434,0.0267,-0.1151,-2.2899981937804164,0.0,4.651885032653809,-1.4338440895080566,-0.0,1.808361291885376,5.663912999420919,0.0,0.21169838309288025,-1.7946699301349085,-0.0,0.008501066826283932,0.3554360270500183,-0.0,0.024037636816501617,1.3066527843475342,0.0,0.03567848354578018
359.0,496.0,-4.9436,0.7226,8.6698,-0.0434,0.0267,-0.1151,-2.29000248531484,0.0,4.641145706176758,-1.4338886737823486,-0.0,1.7725557088851929,5.663924920349874,0.0,0.21817855536937714,-1.7946422735797327,-0.0,0.008646885864436626,0.35544800758361816,-0.0,0.009513817727565765,1.306688904762268,0.0,0.03908953070640564
359.0,496.0,-4.9436,0.7226,8.6698,-0.0434,0.0267,-0.1151,-2.2899776897826136,0.0,4.687509536743164,-1.4339128732681274,-0.0,1.8088569641113281,5.663901257305898,0.0,0.2219410240650177,-1.7946575323687952,-0.0,0.006745362654328346,0.35546839237213135,-0.0,0.0019861524924635887,1.306640625,0.0,-0.02643876150250435
359.0,496.0,-4.9436,0.7226,8.6698,-0.0434,0.0267,-0.1151,-2.290018697778219,0.0,4.651893615722656,-1.4339568614959717,-0.0,1.8336673974990845,5.663953351765432,0.0,0.2185494601726532,-1.7946785132037562,-0.0,0.014869478531181812,0.3554278314113617,-0.0,0.007171217352151871,1.306676983833313,0.0,0.005805161781609058
359.0,496.0,-4.9436,0.7226,8.6698,-0.0434,0.0267,-0.1151,-2.2899981937804164,0.0,4.637208938598633,-1.4338808059692383,-0.0,1.8208708763122559,5.663876342564382,0.0,0.20396235585212708,-1.7946661154376429,-0.0,0.018403515219688416,0.35552868247032166,-0.0,0.01025702990591526,1.3066606521606445,0.0,-0.02474301867187023
353.0,489.0,-4.8772,0.7633,8.6046,-0.0327,0.0302,-0.1173,-2.29005827526235,0.0,4.625592231750488,-1.4339125156402588,-0.0,1.8233850002288818,5.66388480642394,0.0,0.22231422364711761,-1.7946742216693323,-0.0,0.014412786811590195,0.35543978214263916,-0.0,-0.015592815354466438,1.306620478630066,0.0,-0.01919686421751976
353.0,489.0,-4.8772,0.7633,8.6046,-0.0327,0.0302,-0.1173,-2.2899700603880824,0.0,4.629067897796631,-1.4338606595993042,-0.0,1.8064806461334229,5.663913059025564,0.0,0.21466219425201416,-1.794649902974264,-0.0,0.016965774819254875,0.35540032386779785,-0.0,0.005645061377435923,1.306668758392334,0.0,-0.024262430146336555
353.0,489.0,-4.8772,0.7633,8.6046,-0.0327,0.0302,-0.1173,-2.289973875085348,0.0,4.686130046844482,-1.4338849782943726,-0.0,1.8433449268341064,5.663872706681051,0.0,0.21719473600387573,-1.7946909109698694,-0.0,0.008077618665993214,0.3554803133010864,-0.0,0.0009054355323314667,1.306668758392334,0.0,-0.014249278232455254
353.0,489.0,-4.8772,0.7633,8.6046,-0.0327,0.0302,-0.1173,-2.2899981937804164,0.0,4.694920539855957,-1.4338440895080566,-0.0,1.7855324745178223,5.663933265000143,0.0,0.21109417080879211,-1.7947066465960901,-0.0,0.004499601665884256,0.35544830560684204,-0.0,0.006785007193684578,1.3066487312316895,0.0,0.019821330904960632
353.0,489.0,-4.8772,0.7633,8.6046,-0.0327,0.0302,-0.1173,-2.2900225124754847,0.0,4.646445274353027,-1.4339009523391724,-0.0,1.821771264076233,5.663884627610006,0.0,0.22051618993282318,-1.7947066465960901,-0.0,0.01329510472714901,0.3555164039134979,-0.0,0.0066220383159816265,1.3066242933273315,0.0,0.014137578196823597
353.0,489.0,-4.8772,0.7633,8.6046,-0.0327,0.0302,-0.1173,-2.289985796014303,0.0,4.647671699523926,-1.4339536428451538,-0.0,1.7966623306274414,5.663884627610006,0.0,0.21871845424175262,-1.7946541945086878,-0.0,0.013432418927550316,0.35546016693115234,-0.0,0.005210586823523045,1.306668758392334,0.0,0.023164741694927216
353.0,489.0,-4.8772,0.7633,8.6046,-0.0327,0.0302,-0.1173,-2.29003443340444,0.0,4.633101940155029,-1.4339169263839722,-0.0,1.7914958000183105,5.663912999420919,0.0,0.21908122301101685,-1.7946866194354456,-0.0,-0.0017427022103220224,0.3554479777812958,-0.0,0.0008721873164176941,1.306656837463379,0.0,-0.033686958253383636
353.0,489.0,-4.8772,0.7633,8.6046,-0.0327,0.0302,-0.1173,-2.2900105915465296,0.0,4.681717872619629,-1.4339207410812378,-0.0,1.818079948425293,5.663876342564382,0.0,0.2181377112865448,-1.7946699301349085,-0.0,0.008044421672821045,0.35546013712882996,-0.0,0.006020828615874052,1.306717038154602,0.0,0.03715626895427704
353.0,489.0,-4.8772,0.7633,8.6046,-0.0327,0.0302,-0.1173,-2.2899981937804164,0.0,4.651180267333984,-1.43394136428833,-0.0,1.7591724395751953,5.663888680725851,0.0,0.21546143293380737,-1.7946909109698694,-0.0,0.015946537256240845,0.35542815923690796,-0.0,0.0037847335916012526,1.3066766262054443,0.0,-0.0018882877193391323
353.0,489.0,-4.8772,0.7633,8.6046,-0.0327,0.0302,-0.1173,-2.289990087548727,0.0,4.687611103057861,-1.4339650869369507,-0.0,1.7902603149414062,5.663856255799093,0.0,0.21462902426719666,-1.7947028318988245,-0.0,0.005096237175166607,0.35546839237213135,-0.0,0.0020224519539624453,1.3066926002502441,0.0,-0.011266257613897324
353.0,489.0,-4.8772,0.7633,8.6046,-0.0327,0.0302,-0.1173,-2.2899700603880824,0.0,4.641402721405029,-1.4339009523391724,-0.0,1.832728624343872,5.663872229843893,0.0,0.21534380316734314,-1.7947028318988245,-0.0,0.018121235072612762,0.35541248321533203,-0.0,0.0059035844169557095,1.3066527843475342,0.0,0.03205190226435661
353.0,489.0,-4.8772,0.7633,8.6046,-0.0327,0.0302,-0.1173,-2.2900225124754847,0.0,4.672022819519043,-1.4338688850402832,-0.0,1.8474282026290894,5.6639373181159876,0.0,0.21084636449813843,-1.7946866194354456,-0.0,-0.004130623769015074,0.3554043769836426,-0.0,0.007185887545347214,1.3066606521606445,0.0,-0.059742189943790436
353.0,489.0,-4.8772,0.7633,8.6046,-0.0327,0.0302,-0.1173,-2.2899981937804164,0.0,4.663921356201172,-1.4338927268981934,-0.0,1.7829620838165283,5.663888680725851,0.0,0.20884236693382263,-1.794694725667135,-0.0,0.0026384827215224504,0.35545614361763,-0.0,0.004573212005198002,1.3066487312316895,0.0,-0.028172116726636887
345.0,484.0,-4.9155,0.7292,8.4784,-0.0368,0.0252,-0.1202,-2.289961954156393,0.0,4.701589107513428,-1.4339087009429932,-0.0,1.7972066402435303,5.663868653565206,0.0,0.19898086786270142,-1.7947467009173792,-0.0,0.012402232736349106,0.3554278314113617,-0.0,0.007231193128973246,1.3066885471343994,0.0,0.033458828926086426
345.0,484.0,-4.9155,0.7292,8.4784,-0.0368,0.0252,-0.1202,-2.2900387249388636,0.0,4.65464973449707,-1.4339170455932617,-0.0,1.8074440956115723,5.66390489318923,0.0,0.20834217965602875,-1.7946909109698694,-0.0,0.019857853651046753,0.3554397523403168,-0.0,-0.0002744719386100769,1.3066569566726685,0.0,0.0332287959754467
345.0,484.0,-4.9155,0.7292,8.4784,-0.0368,0.0252,-0.1202,-2.2899776897826136,0.0,4.654797077178955,-1.433896780014038,-0.0,1.7995398044586182,5.663901257305898,0.0,0.20476678013801575,-1.7946742216693323,-0.0,0.007406505756080151,0.35544008016586304,-0.0,0.01088921818882227,1.3066966533660889,0.0,-0.031126201152801514
345.0,484.0,-4.9155,0.7292,8.4784,-0.0368,0.0252,-0.1202,-2.290058752099508,0.0,4.659206390380859,-1.4338927268981934,-0.0,1.8417294025421143,5.663868653565206,0.0,0.20649942755699158,-1.7947028318988245,-0.0,0.02183322049677372,0.35545608401298523,-0.0,0.01613938994705677,1.3066647052764893,0.0,-0.008167305961251259
345.0,484.0,-4.9155,0.7292,8.4784,-0.0368,0.0252,-0.1202,-2.2900144062437953,0.0,4.62432861328125,-1.4339004755020142,-0.0,1.790172815322876,5.663912999420919,0.0,0.20731064677238464,-1.7946623007403772,-0.0,0.025639651343226433,0.35542818903923035,-0.0,0.004478278569877148,1.3066527843475342,0.0,0.04132933169603348
345.0,484.0,-4.9155,0.7292,8.4784,-0.0368,0.0252,-0.1202,-2.2900220356383265,0.0,4.644192218780518,-1.433836817741394,-0.0,1.798509955406189,5.663868176728048,0.0,0.2036486566066742,-1.7947028318988245,-0.0,0.0050154090858995914,0.35538801550865173,-0.0,0.01067268569022417,1.3066246509552002,0.0,0.009266605600714684
345.0,484.0,-4.9155,0.7292,8.4784,-0.0368,0.0252,-0.1202,-2.2899776897826136,0.0,4.69743537902832,-1.4339087009429932,-0.0,1.8006136417388916,5.663901257305898,0.0,0.21444568037986755,-1.7947266737567347,-0.0,0.01478334330022335,0.3554438352584839,-0.0,0.011235647834837437,1.3066446781158447,0.0,0.009777865372598171
345.0,484.0,-4.9155,0.7292,8.4784,-0.0368,0.0252,-0.1202,-2.2900101147093714,0.0,4.672386169433594,-1.4339454174041748,-0.0,1.7925002574920654,5.663876759796896,0.0,0.21241089701652527,-1.7947028318988245,-0.0,0.011758090928196907,0.3554479777812958,-0.0,0.0021697257179766893,1.3066565990447998,0.0,-0.026159802451729774
345.0,484.0,-4.9155,0.7292,8.4784,-0.0368,0.0252,-0.1202,-2.2899700603880824,0.0,4.696539878845215,-1.4338845014572144,-0.0,1.821639060974121,5.663880395680227,0.0,0.20228078961372375,-1.7946580092059534,-0.0,0.01195773296058178,0.3554278612136841,-0.0,-0.005982726812362671,1.3066487312316895,0.0,-0.007824826054275036
345.0,484.0,-4.9155,0.7292,8.4784,-0.0368,0.0252,-0.1202,-2.2899495563902796,0.0,4.642661094665527,-1.4339247941970825,-0.0,1.7642019987106323,5.663892972260275,0.0,0.2114255726337433,-1.794649902974264,-0.0,0.01242881640791893,0.3554561138153076,-0.0,0.015948092564940453,1.306688904762268,0.0,-0.019193245097994804
345.0,484.0,-4.9155,0.7292,8.4784,-0.0368,0.0252,-0.1202,-2.2900105915465296,0.0,4.639032363891602,-1.4338886737823486,-0.0,1.8115456104278564,5.663872706681051,0.0,0.20875869691371918,-1.794649902974264,-0.0,0.006903460714966059,0.3554764688014984,-0.0,0.007375144399702549,1.3066246509552002,0.0,-0.009995896369218826
345.0,484.0,-4.9155,0.7292,8.4784,-0.0368,0.0252,-0.1202,-2.289990087548727,0.0,4.6246724128723145,-1.4338566064834595,-0.0,1.8049485683441162,5.6638762829597376,0.0,0.21389780938625336,-1.7946942488299769,-0.0,7.749861106276512e-05,0.3554084897041321,-0.0,0.0035415671300143003,1.3065963983535767,0.0,-0.028778638690710068
345.0,484.0,-4.9155,0.7292,8.4784,-0.0368,0.0252,-0.1202,-2.290018697778219,0.0,4.637430667877197,-1.4338685274124146,-0.0,1.8009452819824219,5.663941430836477,0.0,0.2097180187702179,-1.7946623007403772,-0.0,0.028106287121772766,0.3555126190185547,-0.0,0.001985556213185191,1.3066364526748657,0.0,0.0037127449177205563
363.0,496.0,-4.9418,0.7178,8.6764,-0.0327,0.0301,-0.1151,-2.2900144062437953,0.0,4.675453186035156,-1.4339210987091064,-0.0,1.8037939071655273,5.663884627610006,0.0,0.21373078227043152,-1.7947266737567347,-0.0,0.016745705157518387,0.35543200373649597,-0.0,0.00906355306506157,1.306632399559021,0.0,0.051415324211120605
363.0,496.0,-4.9418,0.7178,8.6764,-0.0327,0.0301,-0.1151,-2.290018697778219,0.0,4.6932854652404785,-1.4338524341583252,-0.0,1.7935162782669067,5.663892972260275,0.0,0.21194665133953094,-1.7946379820453089,-0.0,0.01592341810464859,0.3554360866546631,-0.0,0.016823075711727142,1.3066725730895996,0.0,-0.0023731549736112356
363.0,496.0,-4.9418,0.7178,8.6764,-0.0327,0.0301,-0.1151,-2.290018697778219,0.0,4.64220666885376,-1.4338767528533936,-0.0,1.8425989151000977,5.663856732636251,0.0,0.21135607361793518,-1.794710938130514,-0.0,-0.0005304696969687939,0.35543200373649597,-0.0,0.0011797635816037655,1.306676983833313,0.0,0.008806991390883923
363.0,496.0,-4.9418,0.7178,8.6764,-0.0327,0.0301,-0.1151,-2.29000248531484,0.0,4.612902641296387,-1.4339170455932617,-0.0,1.7968143224716187,5.663884627610006,0.0,0.2111108899116516,-1.7946866194354456,-0.0,0.008236465975642204,0.3554520010948181,-0.0,-0.0033802753314375877,1.3066242933273315,0.0,0.041642479598522186
363.0,496.0,-4.9418,0.7178,8.6764,-0.0327,0.0301,-0.1151,-2.2899981937804164,0.0,4.652317047119141,-1.433876395225525,-0.0,1.8246413469314575,5.663912999420919,0.0,0.21008366346359253,-1.7946575323687952,-0.0,0.018315572291612625,0.3555045425891876,-0.0,0.006802961230278015,1.3066929578781128,0.0,-0.05193144455552101
363.0,496.0,-4.9418,0.7178,8.6764,-0.0327,0.0301,-0.1151,-2.29000248531484,0.0,4.644414901733398,-1.433836817741394,-0.0,1.7789857387542725,5.663897025376119,0.0,0.2186504304409027,-1.7946909109698694,-0.0,0.004397995304316282,0.35549628734588623,-0.0,0.006337134167551994,1.3066725730895996,0.0,0.002460627816617489
363.0,496.0,-4.9418,0.7178,8.6764,-0.0327,0.0301,-0.1151,-2.290030618707174,0.0,4.623867988586426,-1.433840036392212,-0.0,1.831585168838501,5.663880395680227,0.0,0.19672581553459167,-1.7946580092059534,-0.0,0.007700078189373016,0.35547247529029846,-0.0,-0.0037051530089229345,1.306632399559021,0.0,0.007183471694588661
363.0,496.0,-4.9418,0.7178,8.6764,-0.0327,0.0301,-0.1151,-2.2900549374022425,0.0,4.623812675476074,-1.433952808380127,-0.0,1.801461935043335,5.66390489318923,0.0,0.21066254377365112,-1.7946341673480433,-0.0,0.02140221558511257,0.3554438352584839,-0.0,0.012633276171982288,1.3066610097885132,0.0,-0.007651227526366711
363.0,496.0,-4.9418,0.7178,8.6764,-0.0327,0.0301,-0.1151,-2.2900220356383265,0.0,4.662322998046875,-1.433848261833191,-0.0,1.7886627912521362,5.66390078046874,0.0,0.2230985164642334,-1.7946742216693323,-0.0,0.01171262189745903,0.35540372133255005,-0.0,-0.0007948623970150948,1.3066729307174683,0.0,0.011476289480924606
363.0,496.0,-4.9418,0.7178,8.6764,-0.0327,0.0301,-0.1151,-2.2899981937804164,0.0,4.688235282897949,-1.4338725805282593,-0.0,1.7843996286392212,5.663880395680227,0.0,0.20354387164115906,-1.7946623007403772,-0.0,0.02165975049138069,0.35546839237213135,-0.0,-0.0029653313104063272,1.3066364526748657,0.0,-0.02471812069416046
363.0,496.0,-4.9418,0.7178,8.6764,-0.0327,0.0301,-0.1151,-2.2900544605650843,0.0,4.672599792480469,-1.4339289665222168,-0.0,1.7586430311203003,5.663888680725851,0.0,0.19669422507286072,-1.7946909109698694,-0.0,0.01102491095662117,0.35543981194496155,-0.0,-0.00284716603346169,1.3066729307174683,0.0,-0.027661636471748352
363.0,496.0,-4.9418,0.7178,8.6764,-0.0327,0.0301,-0.1151,-2.290006300012106,0.0,4.651767730712891,-1.4338769912719727,-0.0,1.8154642581939697,5.663884627610006,0.0,0.19631589949131012,-1.7946541945086878,-0.0,0.005899938754737377,0.3555286228656769,-0.0,0.015743250027298927,1.3066847324371338,0.0,0.01346405129879713
355.0,503.0,-4.9173,0.7388,8.5657,-0.0296,0.0264,-0.121,-2.29000248531484,0.0,4.648766994476318,-1.4338849782943726,-0.0,1.7782756090164185,5.663909423142233,0.0,0.21532286703586578,-1.794694725667135,-0.0,0.016729634255170822,0.35548439621925354,-0.0,0.009376386180520058,1.306688904762268,0.0,-0.029315173625946045
355.0,503.0,-4.9173,0.7388,8.5657,-0.0296,0.0264,-0.121,-2.2899776897826136,0.0,4.664344787597656,-1.4339371919631958,-0.0,1.8418354988098145,5.663880395680227,0.0,0.2043057531118393,-1.7946742216693323,-0.0,0.00953223742544651,0.35543569922447205,-0.0,0.008492604829370975,1.3066606521606445,0.0,0.027380164712667465
355.0,503.0,-4.9173,0.7388,8.5657,-0.0296,0.0264,-0.121,-2.289985796014303,0.0,4.68129825592041,-1.4339046478271484,-0.0,1.8344273567199707,5.6638762829597376,0.0,0.20880624651908875,-1.7946661154376429,-0.0,0.017265435308218002,0.35544803738594055,-0.0,0.0006019952706992626,1.3066766262054443,0.0,-0.0331185981631279
355.0,503.0,-4.9173,0.7388,8.5657,-0.0296,0.0264,-0.121,-2.2900263271727503,0.0,4.690073490142822,-1.4338523149490356,-0.0,1.818589448928833,5.663917231350698,0.0,0.2180783748626709,-1.7946699301349085,-0.0,0.0092378044500947,0.35547247529029846,-0.0,0.010028097778558731,1.3066729307174683,0.0,-0.019031861796975136
355.0,503.0,-4.9173,0.7388,8.5657,-0.0296,0.0264,-0.121,-2.2899776897826136,0.0,4.623618125915527,-1.433864712715149,-0.0,1.805877447128296,5.663844334870138,0.0,0.22262132167816162,-1.7947028318988245,-0.0,0.025287380442023277,0.3554643392562866,-0.0,0.02192813903093338,1.3066966533660889,0.0,-0.03358641266822815
355.0,503.0,-4.9173,0.7388,8.5657,-0.0296,0.0264,-0.121,-2.2900544605650843,0.0,4.678096771240234,-1.4339125156402588,-0.0,1.8019686937332153,5.663901257305898,0.0,0.2191694974899292,-1.794661823903219,-0.0,0.014480509795248508,0.3554360866546631,-0.0,0.0008788047125563025,1.3066527843475342,0.0,-0.002853219397366047
355.0,503.0,-4.9173,0.7388,8.5657,-0.0296,0.0264,-0.121,-2.2900263271727503,0.0,4.677262306213379,-1.4339009523391724,-0.0,1.8687303066253662,5.6638643620307825,0.0,0.21323928236961365,-1.7946785132037562,-0.0,0.007357333786785603,0.3554437756538391,-0.0,0.006031186319887638,1.3066527843475342,0.0,-0.03593742102384567
355.0,503.0,-4.9173,0.7388,8.5657,-0.0296,0.0264,-0.121,-2.2900144062437953,0.0,4.673652648925781,-1.4338964223861694,-0.0,1.8206703662872314,5.663901257305898,0.0,0.2166319489479065,-1.7946580092059534,-0.0,0.011156633496284485,0.35546019673347473,-0.0,0.006453151814639568,1.3066848516464233,0.0,-0.033265143632888794
355.0,503.0,-4.9173,0.7388,8.5657,-0.0296,0.0264,-0.121,-2.290018697778219,0.0,4.623377799987793,-1.4338523149490356,-0.0,1.858126163482666,5.6638521430786035,0.0,0.21485325694084167,-1.7947190443622034,-0.0,0.011226168833673,0.3553960919380188,-0.0,0.016765117645263672,1.3066527843475342,0.0,0.032579805701971054
355.0,503.0,-4.9173,0.7388,8.5657,-0.0296,0.0264,-0.121,-2.2899943790831507,0.0,4.686363220214844,-1.4339046478271484,-0.0,1.804743766784668,5.663880395680227,0.0,0.21845239400863647,-1.7946623007403772,-0.0,0.017158180475234985,0.3554520010948181,-0.0,0.009883513674139977,1.3066606521606445,0.0,-0.006519017741084099
355.0,503.0,-4.9173,0.7388,8.5657,-0.0296,0.0264,-0.121,-2.290018697778219,0.0,4.635141372680664,-1.4339816570281982,-0.0,1.8300920724868774,5.663888859539785,0.0,0.19376109540462494,-1.7946823279010218,-0.0,0.011975148692727089,0.3554237484931946,-0.0,-0.0020943465642631054,1.306680679321289,0.0,0.017863072454929352
355.0,503.0,-4.9173,0.7388,8.5657,-0.0296,0.0264,-0.121,-2.290030618707174,0.0,4.649068832397461,-1.4340054988861084,-0.0,1.8499032258987427,5.663860308914938,0.0,0.22302553057670593,-1.7947028318988245,-0.0,0.005445106420665979,0.3554360568523407,-0.0,-0.0015079935546964407,1.3067008256912231,0.0,-0.00333314947783947
355.0,503.0,-4.9173,0.7388,8.5657,-0.0296,0.0264,-0.121,-2.289990087548727,0.0,4.661637783050537,-1.43388032913208,-0.0,1.7534141540527344,5.663884627610006,0.0,0.20423230528831482,-1.7946222464190882,-0.0,0.0020230673253536224,0.3555205762386322,-0.0,0.017567049711942673,1.3066725730895996,0.0,-0.035955242812633514
355.0,480.0,-4.9017,0.731,8.6327,-0.0379,0.0261,-0.1206,-2.289990087548727,0.0,4.652780055999756,-1.4339169263839722,-0.0,1.7913732528686523,5.663880395680227,0.0,0.21086713671684265,-1.7946699301349085,-0.0,0.014002121053636074,0.3554397523403168,-0.0,-6.473856046795845e-05,1.3066364526748657,0.0,0.05638747662305832
355.0,480.0,-4.9017,0.731,8.6327,-0.0379,0.0261,-0.1206,-2.29003443340444,0.0,4.684436798095703,-1.433864712715149,-0.0,1.8393868207931519,5.663945007115164,0.0,0.2181592732667923,-1.7946909109698694,-0.0,0.008443562313914299,0.3554724454879761,-0.0,-0.0014969110488891602,1.3066766262054443,0.0,0.007436400279402733
355.0,480.0,-4.9017,0.731,8.6327,-0.0379,0.0261,-0.1206,-2.2900101147093714,0.0,4.6318535804748535,-1.4338688850402832,-0.0,1.8254315853118896,5.663856732636251,0.0,0.19071345031261444,-1.7946909109698694,-0.0,0.0113028883934021,0.35546016693115234,-0.0,0.008623077534139156,1.3066527843475342,0.0,0.0007848087698221207
355.0,480.0,-4.9017,0.731,8.6327,-0.0379,0.0261,-0.1206,-2.2900225124754847,0.0,4.659173011779785,-1.4339289665222168,-0.0,1.81583833694458,5.663901257305898,0.0,0.2043517827987671,-1.7946985403644007,-0.0,0.0036509917117655277,0.3554561734199524,-0.0,-0.010774003341794014,1.306668758392334,0.0,0.05873565375804901
355.0,480.0,-4.9017,0.731,8.6327,-0.0379,0.0261,-0.1206,-2.2900225124754847,0.0,4.66779088973999,-1.4339009523391724,-0.0,1.8357276916503906,5.663901257305898,0.0,0.20797601342201233,-1.7947147528277796,-0.0,0.00557000283151865,0.35543200373649597,-0.0,-0.010176201350986958,1.3066242933273315,0.0,-0.0005065589211881161
355.0,480.0,-4.9017,0.731,8.6327,-0.0379,0.0261,-0.1206,-2.290018697778219,0.0,4.6824445724487305,-1.4339004755020142,-0.0,1.8130698204040527,5.663892972260275,0.0,0.20921234786510468,-1.7947028318988245,-0.0,0.013862105086445808,0.35547617077827454,-0.0,0.0034470309037715197,1.3066967725753784,0.0,-0.03187142685055733
355.0,480.0,-4.9017,0.731,8.6327,-0.0379,0.0261,-0.1206,-2.2900101147093714,0.0,4.6248931884765625,-1.433864712715149,-0.0,1.8556089401245117,5.663852619915762,0.0,0.20645682513713837,-1.794762913380758,-0.0,0.016315937042236328,0.3554847240447998,-0.0,0.00803428515791893,1.3066606521606445,0.0,0.026243625208735466
355.0,480.0,-4.9017,0.731,8.6327,-0.0379,0.0261,-0.1206,-2.2899943790831507,0.0,4.62359094619751,-1.4339289665222168,-0.0,1.8269025087356567,5.663888859539785,0.0,0.20384764671325684,-1.7947147528277796,-0.0,0.015347877517342567,0.3554643392562866,-0.0,-0.003522879211232066,1.306640625,0.0,-0.010526728816330433
355.0,480.0,-4.9017,0.731,8.6327,-0.0379,0.0261,-0.1206,-2.2900144062437953,0.0,4.6898112297058105,-1.433912754058838,-0.0,1.807828426361084,5.663897025376119,0.0,0.20581725239753723,-1.794722859059469,-0.0,0.00551532581448555,0.3554520606994629,-0.0,0.013803582638502121,1.3066647052764893,0.0,-0.002556857652962208
355.0,480.0,-4.9017,0.731,8.6327,-0.0379,0.0261,-0.1206,-2.289990087548727,0.0,4.639808654785156,-1.433896780014038,-0.0,1.8295142650604248,5.663917290955343,0.0,0.21327531337738037,-1.7947066465960901,-0.0,0.02018282748758793,0.35544806718826294,-0.0,-0.004342390224337578,1.3066847324371338,0.0,0.01220809854567051
355.0,480.0,-4.9017,0.731,8.6327,-0.0379,0.0261,-0.1206,-2.2899657688536585,0.0,4.582886695861816,-1.4338886737823486,-0.0,1.7848554849624634,5.663868653565206,0.0,0.2192998230457306,-1.7946379820453089,-0.0,0.008020531386137009,0.3554720878601074,-0.0,-0.0010788531508296728,1.306676983833313,0.0,-0.020483100786805153
355.0,480.0,-4.9017,0.731,8.6327,-0.0379,0.0261,-0.1206,-2.29003443340444,0.0,4.657468318939209,-1.4339169263839722,-0.0,1.8326292037963867,5.663880395680227,0.0,0.21248330175876617,-1.7946661154376429,-0.0,0.0025399657897651196,0.3554643392562866,-0.0,0.004856306593865156,1.3066647052764893,0.0,0.014799502678215504
355.0,480.0,-4.9017,0.731,8.6327,-0.0379,0.0261,-0.1206,-2.2900387249388636,0.0,4.659923553466797,-1.4338927268981934,-0.0,1.8426907062530518,5.663912999420919,0.0,0.2150864601135254,-1.7947066465960901,-0.0,0.00817747414112091,0.35547998547554016,-0.0,0.012559888884425163,1.3066847324371338,0.0,0.019433993846178055
349.0,487.0,-4.9448,0.7388,8.6734,-0.0362,0.0301,-0.1141,-2.2899943790831507,0.0,4.696584701538086,-1.4339087009429932,-0.0,1.8323228359222412,5.663880395680227,0.0,0.21561461687088013,-1.7946541945086878,-0.0,0.018174992874264717,0.3554196357727051,-0.0,-0.002651181537657976,1.3066446781158447,0.0,0.011499001644551754
349.0,487.0,-4.9448,0.7388,8.6734,-0.0362,0.0301,-0.1141,-2.290030618707174,0.0,4.6096296310424805,-1.4338726997375488,-0.0,1.8126323223114014,5.663852619915762,0.0,0.20735062658786774,-1.7946661154376429,-0.0,0.018289797008037567,0.3554159998893738,-0.0,0.013976224698126316,1.3065842390060425,0.0,-0.0008298008469864726
349.0,487.0,-4.9448,0.7388,8.6734,-0.0362,0.0301,-0.1141,-2.2900101147093714,0.0,4.6388397216796875,-1.4338927268981934,-0.0,1.8368881940841675,5.663901257305898,0.0,0.19604486227035522,-1.7947066465960901,-0.0,0.010334435850381851,0.3553921580314636,-0.0,0.000247033778578043,1.3066282272338867,0.0,0.006439485587179661
349.0,487.0,-4.9448,0.7388,8.6734,-0.0362,0.0301,-0.1141,-2.29000248531484,0.0,4.678609371185303,-1.4338685274124146,-0.0,1.8016149997711182,5.663880395680227,0.0,0.21136735379695892,-1.7946823279010218,-0.0,0.0006652660667896271,0.35546016693115234,-0.0,0.009189499542117119,1.3066364526748657,0.0,0.02051662467420101
349.0,487.0,-4.9448,0.7388,8.6734,-0.0362,0.0301,-0.1141,-2.289973875085348,0.0,4.65665340423584,-1.4338927268981934,-0.0,1.836268663406372,5.663917290955343,0.0,0.20811784267425537,-1.794649902974264,-0.0,0.0005065713776275516,0.3554115295410156,-0.0,0.018471289426088333,1.3066967725753784,0.0,0.0399215966463089
349.0,487.0,-4.9448,0.7388,8.6734,-0.0362,0.0301,-0.1141,-2.2899662456908167,0.0,4.665722846984863,-1.4339170455932617,-0.0,1.8338449001312256,5.663880336075582,6.158282417345617e-08,0.20253388583660126,-1.7946866194354456,-0.0,0.005020559765398502,0.35540440678596497,-0.0,0.007003781385719776,1.306688904762268,0.0,0.03528609126806259
349.0,487.0,-4.9448,0.7388,8.6734,-0.0362,0.0301,-0.1141,-2.289973875085348,0.0,4.600607872009277,-1.4339247941970825,-0.0,1.8329657316207886,5.663856255799093,1.1192374067478528e-12,0.21462185680866241,-1.7946541945086878,-0.0,0.022771116346120834,0.3554201126098633,-0.0,-0.00540899345651269,1.3067089319229126,0.0,0.03537559509277344
349.0,487.0,-4.9448,0.7388,8.6734,-0.0362,0.0301,-0.1141,-2.290018697778219,0.0,4.660444259643555,-1.4338881969451904,-0.0,1.7874279022216797,5.663897025376119,2.034158887254063e-17,0.19337362051010132,-1.7946742216693323,-0.0,-0.000469899270683527,0.35543978214263916,-0.0,0.005497761070728302,1.3067048788070679,0.0,-0.01747196726500988
349.0,487.0,-4.9448,0.7388,8.6734,-0.0362,0.0301,-0.1141,-2.290030618707174,0.0,4.664525985717773,-1.4339371919631958,-0.0,1.8175344467163086,5.663884627610006,5.6621571138827444e-21,0.2036900520324707,-1.7947028318988245,-0.0,0.01699630171060562,0.3554159998893738,-0.0,0.003415556624531746,1.3066487312316895,0.0,-0.0023703714832663536
349.0,487.0,-4.9448,0.7388,8.6734,-0.0362,0.0301,-0.1141,-2.290006300012106,0.0,4.67191219329834,-1.4338767528533936,-0.0,1.8296618461608887,5.663901257305898,1.0290691124905681e-25,0.21595701575279236,-1.7946742216693323,-0.0,0.023540755733847618,0.35544800758361816,-0.0,-0.005492459982633591,1.3066606521606445,0.0,0.038949187844991684
349.0,487.0,-4.9448,0.7388,8.6734,-0.0362,0.0301,-0.1141,-2.2900544605650843,0.0,4.634020805358887,-1.4339170455932617,-0.0,1.8373048305511475,5.663888680725851,2.864451555394488e-29,0.21312105655670166,-1.7946942488299769,-0.0,0.012888711877167225,0.3554924726486206,-0.0,0.002740653231739998,1.306668758392334,0.0,-0.04245006665587425
349.0,487.0,-4.9448,0.7388,8.6734,-0.0362,0.0301,-0.1141,-2.2900101147093714,0.0,4.654478073120117,-1.433892846107483,-0.0,1.8256158828735352,5.663920926838674,5.205999075208015e-34,0.20567843317985535,-1.794661823903219,-0.0,0.009185838513076305,0.35544827580451965,-0.0,0.0015769655583426356,1.3066487312316895,0.0,0.03671436011791229
350.0,504.0,-4.9508,0.7334,8.5657,-0.0405,0.0247,-0.1148,-2.29003443340444,0.0,4.657781600952148,-1.4339289665222168,-0.0,1.8490067720413208,5.663880395680227,9.461648506432096e-39,0.2183169573545456,-1.7947028318988245,-0.0,0.0022825656924396753,0.35548439621925354,-0.0,-0.01283281110227108,1.3066606521606445,0.0,-0.039092328399419785
350.0,504.0,-4.9508,0.7334,8.5657,-0.0405,0.0247,-0.1148,-2.2900101147093714,0.0,4.672969818115234,-1.4338849782943726,-0.0,1.8346667289733887,5.66389291265563,2.6330398144663313e-42,0.2123405486345291,-1.7946699301349085,-0.0,0.00833697710186243,0.35544800758361816,-0.0,0.014415839686989784,1.3066725730895996,0.0,-0.0031796470284461975
350.0,504.0,-4.9508,0.7334,8.5657,-0.0405,0.0247,-0.1148,-2.2900144062437953,0.0,4.635190963745117,-1.4338643550872803,-0.0,1.837967038154602,5.663901316910543,0.0,0.2178511619567871,-1.7947152296649378,-0.0,0.01522238738834858,0.35543203353881836,-0.0,0.006076337769627571,1.3066766262054443,0.0,-0.008143380284309387
350.0,504.0,-4.9508,0.7334,8.5657,-0.0405,0.0247,-0.1148,-2.290030618707174,0.0,4.651300430297852,-1.4338890314102173,-0.0,1.8437612056732178,5.663933265000143,0.0,0.20675961673259735,-1.7947185675250452,-0.0,0.011138802394270897,0.35547614097595215,-0.0,0.00401816051453352,1.3066364526748657,0.0,-0.02902895025908947
350.0,504.0,-4.9508,0.7334,8.5657,-0.0405,0.0247,-0.1148,-2.2899776897826136,0.0,4.620370864868164,-1.4338440895080566,-0.0,1.7537992000579834,5.663860249310293,0.0,0.2182900309562683,-1.7947266737567347,-0.0,0.020498577505350113,0.3554922044277191,-0.0,0.0022489307448267937,1.3066446781158447,0.0,0.005930819548666477
350.0,504.0,-4.9508,0.7334,8.5657,-0.0405,0.0247,-0.1148,-2.289978166619772,0.0,4.67151403427124,-1.4338890314102173,-0.0,1.8085476160049438,5.663901257305898,0.0,0.20260342955589294,-1.7946623007403772,-0.0,0.0014057334046810865,0.35548436641693115,-0.0,-0.0063194832764565945,1.306632399559021,0.0,-0.015122255310416222
350.0,504.0,-4.9508,0.7334,8.5657,-0.0405,0.0247,-0.1148,-2.2900101147093714,0.0,4.661373138427734,-1.4338566064834595,-0.0,1.839726209640503,5.663905370026388,0.0,0.217429518699646,-1.794633690510885,-0.0,0.009829603135585785,0.3554360866546631,-0.0,0.0009795647347345948,1.3066527843475342,0.0,-0.04157387465238571
350.0,504.0,-4.9508,0.7334,8.5657,-0.0405,0.0247,-0.1148,-2.2900225124754847,0.0,4.6290717124938965,-1.4339009523391724,-0.0,1.8401787281036377,5.663921344071188,0.0,0.20665761828422546,-1.7946823279010218,-0.0,0.01290799304842949,0.35543203353881836,-0.0,0.010990368202328682,1.3066527843475342,0.0,-0.028247885406017303
350.0,504.0,-4.9508,0.7334,8.5657,-0.0405,0.0247,-0.1148,-2.2900263271727503,0.0,4.638697624206543,-1.4339165687561035,-0.0,1.8280365467071533,5.663912999420919,0.0,0.2083161473274231,-1.7946909109698694,-0.0,0.009413636289536953,0.35550832748413086,-0.0,0.005055538844317198,1.306665062904358,0.0,-0.005193896126002073
350.0,504.0,-4.9508,0.7334,8.5657,-0.0405,0.0247,-0.1148,-2.2899538479247035,0.0,4.665544033050537,-1.4339009523391724,-0.0,1.811884880065918,5.663917290955343,0.0,0.2126348316669464,-1.7946866194354456,-0.0,0.0188429094851017,0.35546839237213135,-0.0,0.001122940331697464,1.306688904762268,0.0,-0.03389701992273331
350.0,504.0,-4.9508,0.7334,8.5657,-0.0405,0.0247,-0.1148,-2.290006776849264,0.0,4.665647029876709,-1.4339170455932617,-0.0,1.790378451347351,5.663868653565206,0.0,0.2112601399421692,-1.7946785132037562,-0.0,0.005467028822749853,0.35544800758361816,-0.0,0.010581954382359982,1.3067048788070679,0.0,-0.026325834915041924
350.0,504.0,-4.9508,0.7334,8.5657,-0.0405,0.0247,-0.1148,-2.290006300012106,0.0,4.671278476715088,-1.4339170455932617,-0.0,1.8501678705215454,5.663909363537588,0.0,0.20428770780563354,-1.7946541945086878,-0.0,-0.004192244727164507,0.3554438650608063,-0.0,0.010043466463685036,1.3066283464431763,0.0,0.041219234466552734
350.0,504.0,-4.9508,0.7334,8.5657,-0.0405,0.0247,-0.1148,-2.290006300012106,0.0,4.662453651428223,-1.433864712715149,-0.0,1.8208050727844238,5.663884627610006,0.0,0.2088087648153305,-1.7946942488299769,-0.0,0.016417909413576126,0.3554724156856537,-0.0,-0.001463192398659885,1.3066729307174683,0.0,-0.02431333437561989
345.0,503.0,-4.9244,0.7424,8.5783,-0.0428,0.0254,-0.1231,-2.2899981937804164,0.0,4.645390510559082,-1.433896780014038,-0.0,1.82452392578125,5.66389291265563,0.0,0.20801053941249847,-1.7946460882769983,-0.0,0.013625689782202244,0.35544800758361816,-0.0,0.006318374536931515,1.3066766262054443,0.0,0.051443301141262054
345.0,503.0,-4.9244,0.7424,8.5783,-0.0428,0.0254,-0.1231,-2.2899614773192347,0.0,4.64216423034668,-1.4338688850402832,-0.0,1.83805251121521,5.663880753308096,0.0,0.21417008340358734,-1.7946909109698694,-0.0,0.016212688758969307,0.35548433661460876,-0.0,0.0009464119793847203,1.3066766262054443,0.0,0.00015548570081591606
345.0,503.0,-4.9244,0.7424,8.5783,-0.0428,0.0254,-0.1231,-2.2899657688536585,0.0,4.648168563842773,-1.433868408203125,-0.0,1.8224631547927856,5.663913059025564,0.0,0.20638498663902283,-1.7946985403644007,-0.0,0.017987560480833054,0.3554520606994629,-0.0,0.008892674930393696,1.306688904762268,0.0,0.027027999982237816
345.0,503.0,-4.9244,0.7424,8.5783,-0.0428,0.0254,-0.1231,-2.289973875085348,0.0,4.68168306350708,-1.4339165687561035,-0.0,1.7864487171173096,5.663888740330496,0.0,0.21867337822914124,-1.7946699301349085,-0.0,0.009461548179388046,0.35543203353881836,-0.0,0.0029549000319093466,1.3066729307174683,0.0,-0.01366853341460228
345.0,503.0,-4.9244,0.7424,8.5783,-0.0428,0.0254,-0.1231,-2.2900387249388636,0.0,4.649036884307861,-1.4338849782943726,-0.0,1.800628662109375,5.663897025376119,0.0,0.21076899766921997,-1.7947066465960901,-0.0,0.022570187225937843,0.35544806718826294,-0.0,-7.393461419269443e-05,1.3066610097885132,0.0,0.012509351596236229
345.0,503.0,-4.9244,0.7424,8.5783,-0.0428,0.0254,-0.1231,-2.2899943790831507,0.0,4.629659652709961,-1.4338804483413696,-0.0,1.8167659044265747,5.663868117123403,0.0,0.20150943100452423,-1.7946985403644007,-0.0,0.010655902326107025,0.3554159998893738,-0.0,0.006099012680351734,1.3066446781158447,0.0,-0.0009852219372987747
345.0,503.0,-4.9244,0.7424,8.5783,-0.0428,0.0254,-0.1231,-2.2900430164732875,0.0,4.621604919433594,-1.4339576959609985,-0.0,1.8739087581634521,5.663897025376119,0.0,0.2066430151462555,-1.7946179548846644,-0.0,0.010906177572906017,0.3554602265357971,-0.0,0.0015809121541678905,1.3066283464431763,0.0,0.011183993890881538
345.0,503.0,-4.9244,0.7424,8.5783,-0.0428,0.0254,-0.1231,-2.290046354333395,0.0,4.649713516235352,-1.4338890314102173,-0.0,1.8137774467468262,5.663872766285696,0.0,0.22412604093551636,-1.7946985403644007,-0.0,0.019432764500379562,0.3554278612136841,-0.0,0.005296770017594099,1.3066647052764893,0.0,-0.007339093368500471
345.0,503.0,-4.9244,0.7424,8.5783,-0.0428,0.0254,-0.1231,-2.290006776849264,0.0,4.649204254150391,-1.4338767528533936,-0.0,1.826674461364746,5.6638762829597376,0.0,0.21062082052230835,-1.7946742216693323,-0.0,0.012538483366370201,0.35549628734588623,-0.0,0.012396791018545628,1.306640625,0.0,-0.011928423307836056
345.0,503.0,-4.9244,0.7424,8.5783,-0.0428,0.0254,-0.1231,-2.2900263271727503,0.0,4.66508150100708,-1.4339009523391724,-0.0,1.8132822513580322,5.663868653565206,0.0,0.2065887749195099,-1.7947142759906214,-0.0,0.005736680701375008,0.35540443658828735,-0.0,0.000773234642110765,1.3066527843475342,0.0,0.000970655120909214
345.0,503.0,-4.9244,0.7424,8.5783,-0.0428,0.0254,-0.1231,-2.2900663814940394,0.0,4.624147415161133,-1.4338244199752808,-0.0,1.7991669178009033,5.663892972260275,0.0,0.2083403617143631,-1.794722859059469,-0.0,0.012370522134006023,0.35550037026405334,-0.0,0.0028053438290953636,1.3066643476486206,0.0,0.018974604085087776
345.0,503.0,-4.9244,0.7424,8.5783,-0.0428,0.0254,-0.1231,-2.29003443340444,0.0,4.6751556396484375,-1.4339207410812378,-0.0,1.8147820234298706,5.663897025376119,0.0,0.21031083166599274,-1.794739071522848,-0.0,0.018770059570670128,0.3553962707519531,-0.0,0.0016171131283044815,1.3066487312316895,0.0,-0.006748020648956299
345.0,503.0,-4.9244,0.7424,8.5783,-0.0428,0.0254,-0.1231,-2.29000248531484,0.0,4.659539222717285,-1.4338688850402832,-0.0,1.7888069152832031,5.663901257305898,0.0,0.20971834659576416,-1.7946909109698694,-0.0,-0.002521002199500799,0.35550040006637573,-0.0,0.0040557244792580605,1.306668758392334,0.0,0.016216859221458435
354.0,506.0,-4.8963,0.7567,8.5783,-0.0415,0.0241,-0.1252,-2.29000248531484,0.0,4.685460090637207,-1.4339371919631958,-0.0,1.8185688257217407,5.663856255799093,0.0,0.20360711216926575,-1.7946541945086878,-0.0,0.013160649687051773,0.35544800758361816,-0.0,-0.004590075928717852,1.3066729307174683,0.0,-0.03223709017038345
354.0,506.0,-4.8963,0.7567,8.5783,-0.0415,0.0241,-0.1252,-2.28997339824819,0.0,4.6951470375061035,-1.433896780014038,-0.0,1.8154985904693604,5.663880395680227,0.0,0.2187836617231369,-1.7947028318988245,-0.0,0.017830047756433487,0.3554924726486206,-0.0,0.0027034548111259937,1.3066606521606445,0.0,-0.027664978057146072
354.0,506.0,-4.8963,0.7567,8.5783,-0.0415,0.0241,-0.1252,-2.29003443340444,0.0,4.655248641967773,-1.433828592300415,-0.0,1.78855562210083,5.663868176728048,0.0,0.21081988513469696,-1.7946909109698694,-0.0,0.017550285905599594,0.35544416308403015,-0.0,-0.0016158269718289375,1.306688904762268,0.0,0.00471183005720377
354.0,506.0,-4.8963,0.7567,8.5783,-0.0415,0.0241,-0.1252,-2.2899776897826136,0.0,4.640207767486572,-1.4339454174041748,-0.0,1.8003087043762207,5.663884687214651,0.0,0.210881307721138,-1.7946909109698694,-0.0,0.008499685674905777,0.35549217462539673,-0.0,-0.010310163721442223,1.3066606521606445,0.0,-0.021355459466576576
354.0,506.0,-4.8963,0.7567,8.5783,-0.0415,0.0241,-0.1252,-2.2900387249388636,0.0,4.607475757598877,-1.4339247941970825,-0.0,1.781839370727539,5.663884627610006,0.0,0.2143941968679428,-1.7947066465960901,-0.0,0.017306365072727203,0.35543161630630493,-0.0,-0.0045608775690197945,1.306668758392334,0.0,-0.05806993693113327
354.0,506.0,-4.8963,0.7567,8.5783,-0.0415,0.0241,-0.1252,-2.290030618707174,0.0,4.663454532623291,-1.4339371919631958,-0.0,1.823875904083252,5.66388891914443,0.0,0.20389588177204132,-1.7946990172015589,-0.0,0.0065999869257211685,0.35547617077827454,-0.0,0.00492227403447032,1.306665062904358,0.0,0.006869188975542784
354.0,506.0,-4.8963,0.7567,8.5783,-0.0415,0.0241,-0.1252,-2.2900263271727503,0.0,4.671741485595703,-1.4338725805282593,-0.0,1.8186230659484863,5.663888740330496,0.0,0.22196432948112488,-1.7946580092059534,-0.0,0.01936560682952404,0.35546839237213135,-0.0,0.014663695357739925,1.3066569566726685,0.0,0.021359965205192566
354.0,506.0,-4.8963,0.7567,8.5783,-0.0415,0.0241,-0.1252,-2.2900144062437953,0.0,4.652896881103516,-1.4338964223861694,-0.0,1.8043665885925293,5.663901257305898,0.0,0.21251477301120758,-1.7947185675250452,-0.0,0.025118354707956314,0.3554397523403168,-0.0,0.01915254071354866,1.306668758392334,0.0,0.0167771577835083
354.0,506.0,-4.8963,0.7567,8.5783,-0.0415,0.0241,-0.1252,-2.2899776897826136,0.0,4.6971116065979,-1.4338845014572144,-0.0,1.7699095010757446,5.663929033070364,0.0,0.21866442263126373,-1.7946866194354456,-0.0,0.011043822392821312,0.35540440678596497,-0.0,0.007082565221935511,1.3066766262054443,0.0,-0.003998446278274059
354.0,506.0,-4.8963,0.7567,8.5783,-0.0415,0.0241,-0.1252,-2.29000248531484,0.0,4.649698734283447,-1.433920979499817,-0.0,1.7769970893859863,5.6638762829597376,0.0,0.21047361195087433,-1.7947147528277796,-0.0,0.02900978922843933,0.3554721176624298,-0.0,0.010065432637929916,1.306640625,0.0,0.025512218475341797
354.0,506.0,-4.8963,0.7567,8.5783,-0.0415,0.0241,-0.1252,-2.2900144062437953,0.0,4.676934242248535,-1.4338080883026123,-0.0,1.8284287452697754,5.663901257305898,0.0,0.2147388458251953,-1.794722859059469,-0.0,0.014622705057263374,0.3554316461086273,-0.0,0.006976031698286533,1.3066364526748657,0.0,-0.020191896706819534
354.0,506.0,-4.8963,0.7567,8.5783,-0.0415,0.0241,-0.1252,-2.29003443340444,0.0,4.66805362701416,-1.4339330196380615,-0.0,1.7877503633499146,5.6638526795204065,0.0,0.19889934360980988,-1.7946785132037562,-0.0,0.013323572464287281,0.35547617077827454,-0.0,-0.006036694627255201,1.3066967725753784,0.0,-0.0653638243675232
344.0,505.0,-4.9005,0.7836,8.528,-0.0386,0.0273,-0.1242,-2.290006300012106,0.0,4.638767242431641,-1.4338483810424805,-0.0,1.8139400482177734,5.663868653565206,0.0,0.2078879326581955,-1.7946866194354456,-0.0,0.01681986078619957,0.35548844933509827,-0.0,0.005882358644157648,1.3066487312316895,0.0,0.04569707065820694
344.0,505.0,-4.9005,0.7836,8.528,-0.0386,0.0273,-0.1242,-2.290006776849264,0.0,4.6421918869018555,-1.4339649677276611,-0.0,1.800847053527832,5.663949179440298,0.0,0.20851658284664154,-1.7946580092059534,-0.0,-0.003566634375602007,0.3555527925491333,-0.0,0.007524443790316582,1.3066564798355103,0.0,0.025207089260220528
344.0,505.0,-4.9005,0.7836,8.528,-0.0386,0.0273,-0.1242,-2.290030618707174,0.0,4.626165866851807,-1.4339607954025269,-0.0,1.7746777534484863,5.6639089463050745,0.0,0.2241576910018921,-1.7946623007403772,-0.0,0.021865446120500565,0.3554084897041321,-0.0,0.007502409629523754,1.3067008256912231,0.0,0.0028302278369665146
344.0,505.0,-4.9005,0.7836,8.528,-0.0386,0.0273,-0.1242,-2.289990087548727,0.0,4.690619468688965,-1.433912754058838,-0.0,1.7534832954406738,5.663872229843893,0.0,0.20993590354919434,-1.7947066465960901,-0.0,0.03009236976504326,0.35547205805778503,-0.0,0.008334951475262642,1.3066766262054443,0.0,0.026522332802414894
344.0,505.0,-4.9005,0.7836,8.528,-0.0386,0.0273,-0.1242,-2.2899657688536585,0.0,4.61987829208374,-1.4338886737823486,-0.0,1.8180776834487915,5.663901257305898,0.0,0.21063047647476196,-1.7946699301349085,-0.0,0.01876739412546158,0.35549217462539673,-0.0,-0.0016892291605472565,1.3067171573638916,0.0,0.029460126534104347
344.0,505.0,-4.9005,0.7836,8.528,-0.0386,0.0273,-0.1242,-2.2899943790831507,0.0,4.619541168212891,-1.4338606595993042,-0.0,1.8552005290985107,5.663901257305898,0.0,0.20395539700984955,-1.7946699301349085,-0.0,0.03206296265125275,0.3553961515426636,-0.0,0.0036813835613429546,1.3066610097885132,0.0,0.01155439205467701
344.0,505.0,-4.9005,0.7836,8.528,-0.0386,0.0273,-0.1242,-2.29000248531484,0.0,4.637337684631348,-1.4339526891708374,-0.0,1.8280220031738281,5.663917290955343,0.0,0.21028202772140503,-1.7947028318988245,-0.0,0.004570783115923405,0.3554159998893738,-0.0,0.016527611762285233,1.3066606521606445,0.0,-0.0014378409832715988
344.0,505.0,-4.9005,0.7836,8.528,-0.0386,0.0273,-0.1242,-2.2899700603880824,0.0,4.667527675628662,-1.4339009523391724,-0.0,1.8076653480529785,5.663872229843893,0.0,0.21279051899909973,-1.7947028318988245,-0.0,0.020296569913625717,0.3554200828075409,-0.0,-0.006651969626545906,1.3066527843475342,0.0,-0.0008518639369867742
344.0,505.0,-4.9005,0.7836,8.528,-0.0386,0.0273,-0.1242,-2.290018697778219,0.0,4.672999858856201,-1.4338808059692383,-0.0,1.8334814310073853,5.663888859539785,0.0,0.20955747365951538,-1.794710938130514,-0.0,0.01593659818172455,0.3554520905017853,-0.0,0.0019205394200980663,1.306697130203247,0.0,0.00450678076595068
344.0,505.0,-4.9005,0.7836,8.528,-0.0386,0.0273,-0.1242,-2.2900148830809535,0.0,4.659124374389648,-1.4339046478271484,-0.0,1.8289217948913574,5.6638643620307825,0.0,0.21600580215454102,-1.7946985403644007,-0.0,0.025017287582159042,0.35546016693115234,-0.0,0.00625830702483654,1.306668758392334,0.0,-0.040902554988861084
344.0,505.0,-4.9005,0.7836,8.528,-0.0386,0.0273,-0.1242,-2.290046354333395,0.0,4.660191059112549,-1.4338886737823486,0.00010913328151218593,1.8057239055633545,5.663884627610006,0.0,0.22184020280838013,-1.7946823279010218,-0.0,-0.002880623796954751,0.35543569922447205,-0.0,0.008853601291775703,1.3066487312316895,0.0,0.0013819802552461624
344.0,505.0,-4.9005,0.7836,8.528,-0.0386,0.0273,-0.1242,-2.2900425396361292,0.0,4.640279293060303,-1.4338769912719727,8.012173930183053e-05,1.8564014434814453,5.663868653565206,0.0,0.2281872034072876,-1.7946866194354456,-0.0,0.005659818649291992,0.35541242361068726,-0.0,0.006754907313734293,1.3066201210021973,0.0,0.021775737404823303
344.0,505.0,-4.9005,0.7836,8.528,-0.0386,0.0273,-0.1242,-2.289990087548727,0.0,4.6786651611328125,-1.4338849782943726,5.907813829253428e-05,1.8026471138000488,5.663897025376119,0.0,0.20854969322681427,-1.7947028318988245,-0.0,-0.0022521992214024067,0.35539212822914124,-0.0,-0.0014488559681922197,1.3066123723983765,0.0,-0.026818539947271347
351.0,502.0,-4.9208,0.6969,8.5119,-0.0423,0.0244,-0.1185,-2.29003443340444,0.0,4.642752647399902,-1.4339247941970825,4.12337275434993e-10,1.8528722524642944,5.663864838867941,0.0,0.2120506465435028,-1.7946866194354456,-0.0,0.007932168431580067,0.35549217462539673,-0.0,0.00702259223908186,1.3066766262054443,0.0,-0.010544455610215664
351.0,502.0,-4.9208,0.6969,8.5119,-0.0423,0.0244,-0.1185,-2.2899700603880824,0.0,4.634252548217773,-1.4338440895080566,1.3359203466386587e-17,1.833484172821045,5.663929033070364,0.0,0.21428325772285461,-1.7946866194354456,-0.0,0.0118741225451231,0.3554520905017853,-0.0,0.00740814208984375,1.306680679321289,0.0,-0.04017456993460655
351.0,502.0,-4.9208,0.6969,8.5119,-0.0423,0.0244,-0.1185,-2.2900105915465296,0.0,4.612606525421143,-1.4338845014572144,4.328212560316048e-25,1.8235571384429932,5.663884627610006,0.0,0.2199786901473999,-1.7946909109698694,-0.0,0.015323206782341003,0.3554762005805969,-0.0,0.006316411774605513,1.306668758392334,0.0,0.005544000770896673
351.0,502.0,-4.9208,0.6969,8.5119,-0.0423,0.0244,-0.1185,-2.2900225124754847,0.0,4.648204326629639,-1.433864712715149,1.045212337090144e-30,1.8038954734802246,5.663880395680227,0.0,0.2106572389602661,-1.7946985403644007,-0.0,0.0017920007230713964,0.3554764688014984,-0.0,0.00846500787883997,1.3066647052764893,0.0,0.020396031439304352
351.0,502.0,-4.9208,0.6969,8.5119,-0.0423,0.0244,-0.1185,-2.290006776849264,0.0,4.673855781555176,-1.433828592300415,3.386355167852231e-38,1.7486679553985596,5.663888680725851,0.0,0.2055332064628601,-1.794649902974264,-0.0,0.01742621324956417,0.35543569922447205,-0.0,0.010386169888079166,1.306680679321289,0.0,-0.033736541867256165
351.0,502.0,-4.9208,0.6969,8.5119,-0.0423,0.0244,-0.1185,-2.2900148830809535,0.0,4.663503170013428,-1.433848261833191,1.401298464324817e-45,1.803253412246704,5.663913059025564,0.0,0.20285865664482117,-1.7946866194354456,-0.0,0.002747702645137906,0.3554159998893738,-0.0,0.005248581990599632,1.3066766262054443,0.0,-0.03237491846084595
351.0,502.0,-4.9208,0.6969,8.5119,-0.0423,0.0244,-0.1185,-2.289921899835104,1.9446995402905287e-10,4.714677810668945,-1.4338767528533936,-0.0,1.8528887033462524,5.663924920349874,0.0,0.21407698094844818,-1.7946541945086878,-0.0,0.024037394672632217,0.35540032386779785,-0.0,-0.003021160140633583,1.3067048788070679,0.0,0.005413535051047802
351.0,502.0,-4.9208,0.6969,8.5119,-0.0423,0.0244,-0.1185,-2.289985796014303,6.300579718305677e-18,4.646668434143066,-1.433872938156128,-0.0,1.8379952907562256,5.663945007115164,0.0,0.21349430084228516,-1.7946785132037562,-0.0,0.012026695534586906,0.35544800758361816,-0.0,-0.0008908058516681194,1.3066164255142212,0.0,-0.02525137923657894
351.0,502.0,-4.9208,0.6969,8.5119,-0.0423,0.0244,-0.1185,-2.2900225124754847,1.5215156287172076e-23,4.6498565673828125,-1.4338566064834595,-0.0,1.8125228881835938,5.663880395680227,0.0,0.21874967217445374,-1.7946785132037562,-0.0,0.019442737102508545,0.3554520905017853,-0.0,0.002453396562486887,1.3066966533660889,0.0,-0.027205651625990868
351.0,502.0,-4.9208,0.6969,8.5119,-0.0423,0.0244,-0.1185,-2.2900387249388636,4.92951737458008e-31,4.660457134246826,-1.433912754058838,-0.0,1.805626630783081,5.663860785752096,0.0,0.22544920444488525,-1.794694725667135,-0.0,0.017536357045173645,0.35547617077827454,-0.0,0.01105344109237194,1.3066766262054443,0.0,-0.048354372382164
351.0,502.0,-4.9208,0.6969,8.5119,-0.0423,0.0244,-0.1185,-2.290046354333395,1.5971007777061523e-38,4.689438819885254,-1.4339252710342407,-0.0,1.803991675376892,5.663852619915762,0.0,0.20008060336112976,-1.7946866194354456,-0.0,0.017003091052174568,0.35548439621925354,-0.0,0.004981595557183027,1.3066282272338867,0.0,-0.03823990002274513
351.0,502.0,-4.9208,0.6969,8.5119,-0.0423,0.0244,-0.1185,-2.29003443340444,3.923635700109488e-44,4.653750419616699,-1.4338566064834595,-0.0,1.7839651107788086,5.663872706681051,0.0,0.18882489204406738,-1.794694725667135,-0.0,0.009080778807401657,0.3555164039134979,-0.0,0.01087518036365509,1.3066647052764893,0.0,0.011402903124690056
351.0,502.0,-4.9208,0.6969,8.5119,-0.0423,0.0244,-0.1185,-2.289990087548727,0.0,4.651101589202881,-1.433912754058838,-0.0,1.7766929864883423,5.663872706681051,0.0,0.2119905948638916,-1.794694725667135,-0.0,0.0021306804846972227,0.3554159998893738,-0.0,-0.008245155215263367,1.306680679321289,0.0,-0.017912697046995163
360.0,497.0,-4.8114,0.3362,8.662,-0.0505,0.0295,-0.1237,-2.2900268040099085,0.0,4.634106636047363,-1.4339128732681274,-0.0,1.7885570526123047,5.663917290955343,0.0,0.21458767354488373,-1.7946823279010218,-0.0,0.006398606114089489,0.35542377829551697,-0.0,-0.002429820830002427,1.3066766262054443,0.0,0.002055529272183776
360.0,497.0,-4.8114,0.3362,8.662,-0.0505,0.0295,-0.1237,-2.290002008477682,0.0,4.647007942199707,-1.4338606595993042,-0.0,1.7893452644348145,5.663909423142233,0.0,0.22196370363235474,-1.7946823279010218,-0.0,0.011128397658467293,0.3554438352584839,-0.0,0.0015575462020933628,1.3066766262054443,0.0,0.020624840632081032
360.0,497.0,-4.8114,0.3362,8.662,-0.0505,0.0295,-0.1237,-2.2900387249388636,0.0,4.635712146759033,-1.4338523149490356,-0.0,1.8459445238113403,5.663852619915762,0.0,0.20431452989578247,-1.7946785132037562,-0.0,0.0020410572178661823,0.3554803133010864,-0.0,0.013361889868974686,1.306680679321289,0.0,0.0034314387012273073
360.0,497.0,-4.8114,0.3362,8.662,-0.0505,0.0295,-0.1237,-2.2900144062437953,0.0,4.632020950317383,-1.4338523149490356,-0.0,1.797299861907959,5.6638685939605615,0.0,0.20443731546401978,-1.7946866194354456,-0.0,0.020909523591399193,0.3554561734199524,-0.0,0.002219539601355791,1.306668758392334,0.0,0.002686772495508194
360.0,497.0,-4.8114,0.3362,8.662,-0.0505,0.0295,-0.1237,-2.2900144062437953,0.0,4.657602787017822,-1.4338523149490356,-0.0,1.812051773071289,5.663917290955343,0.0,0.22408060729503632,-1.7946785132037562,-0.0,0.02483266592025757,0.35548847913742065,-0.0,0.010475571267306805,1.3066766262054443,0.0,-0.01622997783124447
360.0,497.0,-4.8114,0.3362,8.662,-0.0505,0.0295,-0.1237,-2.290006776849264,0.0,4.619394302368164,-1.433933138847351,-0.0,1.809037446975708,5.663917290955343,0.0,0.1932835429906845,-1.7946341673480433,-0.0,0.014559878036379814,0.3555447459220886,-0.0,0.014397455379366875,1.306668758392334,0.0,-0.020263053476810455
360.0,497.0,-4.8114,0.3362,8.662,-0.0505,0.0295,-0.1237,-2.2900425396361292,0.0,4.641653060913086,-1.4339128732681274,-0.0,1.8012069463729858,5.663901257305898,0.0,0.2204364836215973,-1.7946909109698694,-0.0,0.028550539165735245,0.35546016693115234,-0.0,-0.0002909495960921049,1.3066606521606445,0.0,-0.007475121878087521
360.0,497.0,-4.8114,0.3362,8.662,-0.0505,0.0295,-0.1237,-2.2899819813170375,0.0,4.614692211151123,-1.4339170455932617,-0.0,1.8293408155441284,5.663897025376119,5.084397614041336e-08,0.19745564460754395,-1.7947347799884241,-0.0,0.01810954138636589,0.3554561138153076,-0.0,-0.004886566661298275,1.3066725730895996,0.0,-0.011327622458338737
360.0,497.0,-4.8114,0.3362,8.662,-0.0505,0.0295,-0.1237,-2.2900225124754847,0.0,4.676827907562256,-1.4339330196380615,-0.0,1.864446997642517,5.66390078046874,9.240642105667884e-13,0.21484260261058807,-1.794718090687887,-0.0,0.006456341128796339,0.35549217462539673,-0.0,0.0018628445686772466,1.3066885471343994,4.771411568071926e-06,-0.02562900073826313
360.0,497.0,-4.8114,0.3362,8.662,-0.0505,0.0295,-0.1237,-2.289973875085348,0.0,4.605469703674316,-1.433848261833191,-0.0,1.8354824781417847,5.66388480642394,0.0005543985171243548,0.21166422963142395,-1.7947424093829554,-0.0,0.003483755514025688,0.35543200373649597,-0.0,0.011804046109318733,1.3067163228988647,0.0011285566724836826,0.028992876410484314
360.0,497.0,-4.8114,0.3362,8.662,-0.0505,0.0295,-0.1237,-2.289985796014303,0.0,4.683543682098389,-1.4338327646255493,-0.0,1.8357858657836914,5.663892972260275,0.000372591515770182,0.21495521068572998,-1.7947467009173792,-0.0,0.009344471618533134,0.35544800758361816,-0.0,0.021007010713219643,1.3067408800125122,0.002340446226298809,-0.030919715762138367
360.0,497.0,-4.8114,0.3362,8.662,-0.0505,0.0295,-0.1237,-2.289990087548727,0.0,4.635972023010254,-1.433872938156128,0.00030278024496510625,1.8119170665740967,5.663917290955343,0.00029841024661436677,0.20881037414073944,-1.7947023550616663,-0.0,0.008380052633583546,0.3555123209953308,-0.0,0.013807998038828373,1.3067286014556885,0.0016533874440938234,-0.02412671595811844
353.0,504.0,-4.7689,0.0359,8.4168,-0.0707,0.0206,-0.1266,-2.289978166619772,0.0,4.655287742614746,-1.4338245391845703,0.0002649628440849483,1.7980096340179443,5.6639253971870325,0.00018888637714553624,0.20329910516738892,-1.7947104612933558,-0.0,0.011989030987024307,0.35549217462539673,-0.0,0.007725505158305168,1.3067445755004883,0.0008087029564194381,0.027345340698957443
353.0,504.0,-4.7689,0.0359,8.4168,-0.0707,0.0206,-0.1266,-2.290006776849264,0.0,4.6258721351623535,-1.4338440895080566,0.00022680549591314048,1.8194053173065186,5.663884627610006,0.00015595939476042986,0.20521071553230286,-1.7947266737567347,-0.0,0.0037997872568666935,0.355424165725708,-0.0,0.0020720355678349733,1.3067972660064697,0.0001823006896302104,-0.009063176810741425
353.0,504.0,-4.7689,0.0359,8.4168,-0.0707,0.0206,-0.1266,-2.2899862728514613,0.0,4.68300724029541,-1.433848261833191,0.00020469706214498729,1.7562077045440674,5.6639253971870325,0.00013801828026771545,0.20956191420555115,-1.7946942488299769,-0.0,-0.0004005176015198231,0.35544800758361816,-0.0,0.01610743999481201,1.3067408800125122,6.990323890931904e-05,-0.0217207670211792
353.0,504.0,-4.7689,0.0359,8.4168,-0.0707,0.0206,-0.1266,-2.29003443340444,0.0,4.70110559463501,-1.4338409900665283,0.00018115265993401408,1.7995566129684448,5.6638566730316064,8.914089448808227e-06,0.20210358500480652,-1.7946866194354456,-0.0,0.008723895996809006,0.35544800758361816,-0.0,-0.00921794306486845,1.3067326545715332,5.333067383617163e-05,-0.02036573365330696
353.0,504.0,-4.7689,0.0359,8.4168,-0.0707,0.0206,-0.1266,-2.29003443340444,0.0,4.6231489181518555,-1.4338244199752808,8.472372428514063e-05,1.7815830707550049,5.663848805218496,-0.00015255036123562604,0.22072793543338776,-1.7947104612933558,-0.0,0.013702860102057457,0.3555123209953308,-0.0,0.0019394862465560436,1.3067326545715332,1.7278462731765143e-12,0.041943132877349854
353.0,504.0,-4.7689,0.0359,8.4168,-0.0707,0.0206,-0.1266,-2.2900506458678187,0.0,4.657242774963379,-1.433853268623352,7.424007344525307e-05,1.8104342222213745,5.663780140667715,-0.0007679329137317836,0.2206525057554245,-1.7947104612933558,-0.0,0.012541767209768295,0.3554959297180176,-0.0,0.0024143652990460396,1.3067007064819336,4.1725455095400124e-18,-0.044628437608480453
353.0,504.0,-4.7689,0.0359,8.4168,-0.0707,0.0206,-0.1266,-2.2899943790831507,0.0,4.663684844970703,-1.433840036392212,9.558926831232384e-05,1.8076074123382568,5.663849341660299,-0.0006550761172547936,0.22457289695739746,-1.7947385946856897,-0.0,0.02360178343951702,0.3555203974246979,-0.0,0.001143507077358663,1.3066926002502441,-0.0013663370627909899,0.01675976999104023
353.0,504.0,-4.7689,0.0359,8.4168,-0.0707,0.0206,-0.1266,-2.2900544605650843,0.0,4.620237350463867,-1.433820366859436,8.641125168651342e-05,1.8095617294311523,5.663857030659475,-0.0005956937093287706,0.22009432315826416,-1.7947261969195765,-0.0,0.01924186199903488,0.35546019673347473,-0.0,0.007406133227050304,1.3066725730895996,-0.0009664086392149329,-0.024417737498879433
353.0,504.0,-4.7689,0.0359,8.4168,-0.0707,0.0206,-0.1266,-2.290018697778219,0.0,4.677813529968262,-1.433864712715149,7.66045122873038e-05,1.8055649995803833,5.663825022965231,-0.00048416026402264833,0.21290773153305054,-1.7947424093829554,-0.0,0.016507288441061974,0.35541969537734985,-0.0,0.01088796742260456,1.3067090511322021,-0.0006181252538226545,0.023074574768543243
353.0,504.0,-4.7689,0.0359,8.4168,-0.0707,0.0206,-0.1266,-2.290030618707174,0.0,4.64072322845459,-1.4338326454162598,6.879682041471824e-05,1.7887686491012573,5.663800704270162,-0.0004231455677654594,0.21213272213935852,-1.7947223822223108,-0.0,0.02209671214222908,0.35543200373649597,-0.0,-4.252349026501179e-05,1.3066766262054443,-0.0004438681644387543,0.01711365580558777
353.0,504.0,-4.7689,0.0359,8.4168,-0.0707,0.0206,-0.1266,-2.2900144062437953,0.0,4.66802978515625,-1.433872938156128,6.391176430042833e-05,1.82017183303833,5.663780438690939,-0.0003786703455261886,0.2135179191827774,-1.7947385946856897,-0.0,0.021878063678741455,0.3554762005805969,-0.0,0.0031686145812273026,1.3067008256912231,-0.00036640773760154843,0.023444699123501778
353.0,504.0,-4.7689,0.0359,8.4168,-0.0707,0.0206,-0.1266,-2.2899981937804164,0.0,4.610611915588379,-1.4338605403900146,5.838341166963801e-05,1.7953392267227173,5.663780438690939,-0.00040737417293712497,0.21481186151504517,-1.7947023550616663,-0.0,0.009821971878409386,0.35547250509262085,-0.0,0.0023647656198590994,1.3066201210021973,-0.0002972477814182639,0.04062636196613312
353.0,504.0,-4.7689,0.0359,8.4168,-0.0707,0.0206,-0.1266,-2.2900425396361292,0.0,4.635943412780762,-1.4338932037353516,-2.7310299628879875e-05,1.8053457736968994,5.663837420731344,-0.0006058565923012793,0.21827532351016998,-1.7947223822223108,-1.0923960347408723e-10,0.03000778704881668,0.35544416308403015,-0.0,-0.0002024022105615586,1.3066487312316895,-0.0002500524278730154,0.02821359597146511
355.0,511.0,-4.9621,0.5922,8.5184,-0.044,0.0331,-0.1147,-2.290025850335592,0.0,4.630555152893066,-1.4338932037353516,-5.028285158914514e-05,1.7794380187988281,5.663748967438497,-0.0009934998815879226,0.2122044563293457,-1.794734303151266,-3.040724613832639e-14,0.011549554765224457,0.35544800758361816,-0.0,0.0005337314214557409,1.306660532951355,-0.0002555000828579068,0.024730272591114044
355.0,511.0,-4.9621,0.5922,8.5184,-0.044,0.0331,-0.1147,-2.29005827526235,0.0,4.684668064117432,-1.4338524341583252,-2.292572389706038e-05,1.8251214027404785,5.663732933789053,-0.0012523091863840818,0.20995548367500305,-1.7946942488299769,-5.526366272108987e-19,0.024018047377467155,0.3554159700870514,-0.0,0.0024484368041157722,1.3066606521606445,-0.00018014124361798167,-0.047240033745765686
355.0,511.0,-4.9621,0.5922,8.5184,-0.044,0.0331,-0.1147,-2.2900706730284632,0.0,4.654932022094727,-1.4338890314102173,-2.1029403797001578e-05,1.8597123622894287,5.663741099625387,-0.0008324331720359623,0.2191394716501236,-1.7947266737567347,-1.5382844449794906e-22,0.02701607719063759,0.3554156422615051,-0.0,0.0021061073057353497,1.3066327571868896,-0.00016672945639584213,-0.0025130570866167545
355.0,511.0,-4.9621,0.5922,8.5184,-0.044,0.0331,-0.1147,-2.2900225124754847,0.0,4.617242336273193,-1.4339131116867065,-1.9901333185579073e-12,1.8236976861953735,5.663728880673208,-0.0005093648796901107,0.2143300622701645,-1.794734303151266,-2.795755981505315e-27,0.019941803067922592,0.35544800758361816,-0.0,-0.004494034685194492,1.3066045045852661,-0.0001731343218125403,0.017590666189789772
355.0,511.0,-4.9621,0.5922,8.5184,-0.044,0.0331,-0.1147,-2.290030618707174,0.0,4.621395111083984,-1.433893084526062,-6.447779170797085e-20,1.825911045074463,5.663721012860098,-0.00037604625686071813,0.22115162014961243,-1.7947104612933558,-5.081148975320615e-32,0.029645444825291634,0.35538801550865173,-0.0,-0.0020626818295568228,1.306628704071045,-0.00017827133706305176,-0.019297555088996887
355.0,511.0,-4.9621,0.5922,8.5184,-0.044,0.0331,-0.1147,-2.2900501690306605,0.0,4.581868648529053,-1.4338289499282837,-1.5570630224484826e-25,1.8122209310531616,5.6637571332748315,-0.0003110315592493862,0.21636655926704407,-1.794706169758932,-1.4143563239347814e-35,0.017103834077715874,0.35543200373649597,-0.0,-0.007199648767709732,1.3066447973251343,-0.00016594470071140677,-0.05391552299261093
355.0,511.0,-4.9621,0.5922,8.5184,-0.044,0.0331,-0.1147,-2.2900225124754847,0.0,4.652095317840576,-1.4337685108184814,0.0007222584099508822,1.8390172719955444,5.663737046509542,-0.00029490169254131615,0.21555234491825104,-1.7947304884540003,-2.570527889972801e-40,0.020186586305499077,0.35544389486312866,-0.0,0.010507660917937756,1.3066283464431763,-0.00015193747822195292,-0.002900324761867523
355.0,511.0,-4.9621,0.5922,8.5184,-0.044,0.0331,-0.1147,-2.2899981937804164,0.0,4.67029333114624,-1.4338009357452393,0.0006144159706309438,1.8186867237091064,5.663757073670187,-0.00025858127628453076,0.21824407577514648,-1.794774357472555,-7.146622168056567e-44,0.018584296107292175,0.35544416308403015,-0.0,0.000597537262365222,1.3066126108169556,-0.0001428913528798148,0.04114764183759689
355.0,511.0,-4.9621,0.5922,8.5184,-0.044,0.0331,-0.1147,-2.290018697778219,0.0,4.631863594055176,-1.4338247776031494,0.00042804182157851756,1.8109785318374634,5.663721072464742,-0.0002527437754906714,0.21007442474365234,-1.7947185675250452,-0.0,0.01000372413545847,0.3554720878601074,-0.0,0.0037594155874103308,1.3066364526748657,-0.00013238245446700603,-0.04006997495889664
355.0,511.0,-4.9621,0.5922,8.5184,-0.044,0.0331,-0.1147,-2.2900263271727503,0.0,4.689910888671875,-1.4338330030441284,0.00043052490218542516,1.874119520187378,5.663745152741232,-0.00022246383014135063,0.2061757743358612,-1.7947505156146448,-0.0,0.012256655842065811,0.3554639220237732,-0.0,0.010604459792375565,1.306676983833313,-0.00012331338075455278,0.012841645628213882
355.0,511.0,-4.9621,0.5922,8.5184,-0.044,0.0331,-0.1147,-2.289973875085348,0.0,4.650242805480957,-1.4337804317474365,0.0005884157144464552,1.7954599857330322,5.663753556996145,-0.00016197359946090728,0.21107453107833862,-1.7947424093829554,-0.0,0.025358885526657104,0.35542815923690796,-0.0,-0.0045252591371536255,1.3066446781158447,-0.00010263423610012978,-0.014586035162210464
355.0,511.0,-4.9621,0.5922,8.5184,-0.044,0.0331,-0.1147,-2.2900144062437953,0.0,4.637735843658447,-1.4338289499282837,0.0006321158725768328,1.8176077604293823,5.663713025837698,-0.00019048605463467538,0.21005010604858398,-1.7946980635272425,-0.0,0.015070289373397827,0.3554159998893738,-0.0,0.0007665715529583395,1.3066610097885132,-9.63483180385083e-05,-0.00026952772168442607
355.0,511.0,-4.9621,0.5922,8.5184,-0.044,0.0331,-0.1147,-2.2900144062437953,0.0,4.695587635040283,-1.4338051080703735,0.0012844203738495708,1.8411130905151367,5.6637375233467,-0.0004298487911000848,0.21530425548553467,-1.7947586218463343,-0.0,0.014062684960663319,0.35546842217445374,-0.0,0.0065882569178938866,1.3066847324371338,-4.100881778867915e-05,-0.030610810965299606
356.0,501.0,-4.9573,0.9009,8.5825,-0.0278,0.0313,-0.121,-2.289973875085348,0.0,4.672038555145264,-1.433793306350708,0.0018869192572310567,1.8088502883911133,5.66368048170165,-0.0004973606555722654,0.2098056674003601,-1.7947185675250452,-0.0,0.005784239619970322,0.3554360270500183,-0.0,0.008894028142094612,1.3066647052764893,-3.8385249354178086e-05,0.04078096151351929
356.0,501.0,-4.9573,0.9009,8.5825,-0.0278,0.0313,-0.121,-2.290062566796774,0.0,4.668910980224609,-1.433688759803772,0.0037202639505267143,1.8457963466644287,5.663664567261495,-0.0006657375488430262,0.20650331676006317,-1.7946904341327112,-0.0,0.004800019785761833,0.3554438650608063,-0.0,0.00927067082375288,1.3066487312316895,-3.536833537509665e-05,0.02716813236474991
356.0,501.0,-4.9573,0.9009,8.5825,-0.0278,0.0313,-0.121,-2.290018220941061,0.0,4.6398820877075195,-1.4336804151535034,0.0045944214798510075,1.8416221141815186,5.663708972721853,-0.0006589513504877687,0.21021758019924164,-1.7947505156146448,-0.0,0.022655557841062546,0.3554401397705078,-0.0,0.004441795405000448,1.3066527843475342,-3.339954491821118e-05,-0.010414781980216503
356.0,501.0,-4.9573,0.9009,8.5825,-0.0278,0.0313,-0.121,-2.290006300012106,0.0,4.681295394897461,-1.433608889579773,0.006328036077320576,1.832709550857544,5.663705158024587,-0.0006907812203280628,0.19938324391841888,-1.7946904341327112,-0.0,0.016354894265532494,0.35540440678596497,-0.0,0.004175606183707714,1.306697130203247,-3.109188037342392e-05,-0.015409822575747967
356.0,501.0,-4.9573,0.9009,8.5825,-0.0278,0.0313,-0.121,-2.29000248531484,0.0,4.644270420074463,-1.4336129426956177,0.007151782512664795,1.8586697578430176,5.663649010449209,-0.0007758057909086347,0.22033646702766418,-1.7946942488299769,-0.0,0.014916054904460907,0.3554397523403168,-0.0,0.00029881251975893974,1.3066766262054443,-2.9082522814860567e-05,0.04717487096786499
356.0,501.0,-4.9573,0.9009,8.5825,-0.0278,0.0313,-0.121,-2.2899776897826136,0.0,4.645066738128662,-1.4335404634475708,0.008735982701182365,1.818063735961914,5.6636531231696985,-0.0009412097278982401,0.21279612183570862,-1.7947147528277796,-0.0,0.01951661892235279,0.3554561734199524,-0.0,-0.0022597662173211575,1.3066606521606445,-2.773803862510249e-05,-0.020099032670259476
356.0,501.0,-4.9573,0.9009,8.5825,-0.0278,0.0313,-0.121,-2.289990087548727,0.0,4.650351524353027,-1.433497428894043,0.010194292291998863,1.8251277208328247,5.663604426174917,-0.0007366403006017208,0.20304346084594727,-1.7947104612933558,-0.0,0.004631750751286745,0.3554360568523407,-0.0,0.0032354933209717274,1.3066569566726685,-2.6127556338906288e-05,-0.0111659225076437
356.0,501.0,-4.9573,0.9009,8.5825,-0.0278,0.0313,-0.121,-2.290030618707174,0.0,4.683465957641602,-1.4333287477493286,0.013140805996954441,1.8497663736343384,5.663637089520254,-0.0005273089627735317,0.22570383548736572,-1.7947185675250452,-0.0,0.01713515818119049,0.35549214482307434,-0.0,0.0015083933249115944,1.3066565990447998,-2.4693836166989058e-05,-0.007678581401705742
356.0,501.0,-4.9573,0.9009,8.5825,-0.0278,0.0313,-0.121,-2.2899819813170375,0.0,4.6094818115234375,-1.4332643747329712,0.014441999606788158,1.832421064376831,5.663649308472433,-0.000534521765075624,0.20686423778533936,-1.7946904341327112,-0.0,0.018755119293928146,0.35545608401298523,-0.0,0.004828666336834431,1.3066606521606445,-2.3717710064374842e-05,0.0005238768644630909
356.0,501.0,-4.9573,0.9009,8.5825,-0.0278,0.0313,-0.121,-2.2900263271727503,0.0,4.684813022613525,-1.4330641031265259,0.017412394285202026,1.8323019742965698,5.663637566357412,-0.0007702314178459346,0.21013200283050537,-1.7947104612933558,-0.0,0.02076243795454502,0.3554643392562866,-0.0,0.0012187364045530558,1.3066446781158447,-2.253025559184607e-05,0.015249407850205898
356.0,501.0,-4.9573,0.9009,8.5825,-0.0278,0.0313,-0.121,-2.289990087548727,0.0,4.6138105392456055,-1.4330328702926636,0.018018977716565132,1.8782603740692139,5.663568663388052,-0.0018851830391213298,0.19937166571617126,-1.7946580092059534,9.679575668997131e-06,0.009553221985697746,0.3554643392562866,-0.0,0.014152939431369305,1.3066004514694214,-2.1714879039791413e-05,0.01808725669980049
356.0,501.0,-4.9573,0.9009,8.5825,-0.0278,0.0313,-0.121,-2.29005827526235,0.0,4.680004119873047,-1.4328888654708862,0.018526142463088036,1.8777422904968262,5.6635851738746545,-0.00422929972410202,0.19854982197284698,-1.7946623007403772,2.1455100807088456e-08,0.006201828829944134,0.35542377829551697,-0.0,0.009614666923880577,1.3066446781158447,-3.1067316740518436e-05,-0.025804702192544937
349.0,499.0,-5.0489,0.7878,8.7147,-0.0452,0.0524,-0.1348,-2.290046354333395,0.0,4.621430397033691,-1.4327250719070435,0.018075566738843918,1.8615715503692627,5.663517284184255,-0.009431980550289154,0.20351606607437134,-1.7946580092059534,3.89935859209517e-13,0.008118337020277977,0.3554520010948181,-0.0,0.00030830904142931104,1.3066527843475342,1.2257361959200352e-05,0.016721095889806747
349.0,499.0,-5.0489,0.7878,8.7147,-0.0452,0.0524,-0.1348,-2.2899943790831507,0.0,4.652768135070801,-1.4326251745224,0.017678841948509216,1.8364405632019043,5.663469600468435,-0.008668854832649231,0.2035093456506729,-1.7947066465960901,1.0854007902803183e-16,0.007486312184482813,0.355524480342865,-0.0,0.004086494445800781,1.306680679321289,1.6805868654046208e-05,-0.007204282563179731
349.0,499.0,-5.0489,0.7878,8.7147,-0.0452,0.0524,-0.1348,-2.290046354333395,0.0,4.63139533996582,-1.4324692487716675,0.018882736563682556,1.8640472888946533,5.663449334889211,-0.0027200260665267706,0.2128559648990631,-1.7946785132037562,1.972662384690056e-21,0.006305383983999491,0.3554438352584839,-0.0,0.011647021397948265,1.3066405057907104,1.5637864635209553e-05,0.029329601675271988
349.0,499.0,-5.0489,0.7878,8.7147,-0.0452,0.0524,-0.1348,-2.2900263271727503,0.0,4.652331352233887,-1.432305097579956,0.02021254226565361,1.8763129711151123,5.6634214399154565,-0.00041814311407506466,0.21549800038337708,-1.7946460882769983,3.585216274643619e-26,0.02368885464966297,0.3554196357727051,-0.0,-0.0016494193114340305,1.3067212104797363,2.924296677520033e-05,-0.004149441607296467
349.0,499.0,-5.0489,0.7878,8.7147,-0.0452,0.0524,-0.1348,-2.2900263271727503,0.0,4.631984233856201,-1.4321978092193604,0.021492471918463707,1.859987497329712,5.663405406266012,-0.00032223775633610785,0.21385620534420013,-1.7946580092059534,9.979581412718341e-30,0.01208058837801218,0.3554237186908722,-0.0,0.006808765232563019,1.3066606521606445,2.7884263545274734e-05,-0.006153202150017023
349.0,499.0,-5.0489,0.7878,8.7147,-0.0452,0.0524,-0.1348,-2.290030141870016,0.0,4.681662559509277,-1.4320175647735596,0.024923458695411682,1.8975443840026855,5.663357364922323,-0.0002903262502513826,0.20619869232177734,-1.7946909109698694,1.8137393400945663e-34,0.0133283119648695,0.35546430945396423,-0.0,-0.000895526260137558,1.3066926002502441,2.625726665428374e-05,0.008358579128980637
349.0,499.0,-5.0489,0.7878,8.7147,-0.0452,0.0524,-0.1348,-2.2900663814940394,0.0,4.656863689422607,-1.431801199913025,0.026656070724129677,1.8950319290161133,5.663409459381857,-0.00022782650194130838,0.20057864487171173,-1.7946823279010218,5.048609878176551e-38,0.02599520981311798,0.3554840385913849,-0.0,0.021573644131422043,1.3066364526748657,2.5156394258374348e-05,-0.017894495278596878
349.0,499.0,-5.0489,0.7878,8.7147,-0.0452,0.0524,-0.1348,-2.2900668583311976,0.0,4.628801345825195,-1.4316418170928955,0.03199079632759094,1.8711025714874268,5.663393485337057,-0.001083492417819798,0.19698543846607208,-1.7946785132037562,9.178504941327552e-43,0.01959780603647232,0.35553646087646484,-0.0,-0.0066168955527246,1.3066527843475342,2.382455022598151e-05,0.03367656096816063
349.0,499.0,-5.0489,0.7878,8.7147,-0.0452,0.0524,-0.1348,-2.290046354333395,0.0,4.679032325744629,-1.431304931640625,0.03508352115750313,1.9357225894927979,5.663329350739279,-0.002927208784967661,0.2074064314365387,-1.794666592274801,0.0,0.0219171941280365,0.3554880917072296,-0.0,0.013996908441185951,1.3066527843475342,2.262663110741414e-05,0.014688076451420784
349.0,499.0,-5.0489,0.7878,8.7147,-0.0452,0.0524,-0.1348,-2.2900783024229945,0.0,4.644309043884277,-1.4311132431030273,0.038825005292892456,1.915297031402588,5.663304972439565,-0.003814940107986331,0.19327111542224884,-1.7946746985064905,0.0,0.02637016586959362,0.35542774200439453,-0.0,0.01711227186024189,1.3067171573638916,1.4623705283156596e-05,-0.014624573290348053
349.0,499.0,-5.0489,0.7878,8.7147,-0.0452,0.0524,-0.1348,-2.290062566796774,0.0,4.643586158752441,-1.4308218955993652,0.043007150292396545,1.9312894344329834,5.663265633374014,-0.004543582908809185,0.1834314465522766,-1.7946704069720667,0.00011956342495977879,0.021688707172870636,0.35541969537734985,-0.0,0.0007228795439004898,1.3066647052764893,1.0398354788776487e-05,-0.0474846214056015
349.0,499.0,-5.0489,0.7878,8.7147,-0.0452,0.0524,-0.1348,-2.2900501690306605,0.0,4.647682189941406,-1.430430293083191,0.04726606234908104,1.956274151802063,5.66322939374999,-0.005967358592897654,0.1915586292743683,-1.7946746985064905,0.0001121124078053981,0.04096771404147148,0.3555000126361847,-0.0,-0.012438998557627201,1.3066966533660889,1.1576159977266798e-06,-0.07194177806377411
349.0,499.0,-5.0489,0.7878,8.7147,-0.0452,0.0524,-0.1348,-2.290030141870016,-8.290027471957728e-05,4.623279571533203,-1.4300575256347656,0.051004327833652496,1.9191534519195557,5.663213717728414,-0.007457698695361614,0.18189367651939392,-1.7946584860431116,0.00012310859165154397,0.04496460780501366,0.3555203974246979,-0.0,-0.000355658121407032,1.3066487312316895,2.79550666469619e-12,-0.0962909609079361
342.0,466.0,-5.5789,0.4756,8.2684,-0.06,0.1124,-0.1205,-2.2900501690306605,-6.653766467934474e-05,4.6217193603515625,-1.4296622276306152,0.0562753900885582,1.9825005531311035,5.663125681668081,-0.01014151331037283,0.18839338421821594,-1.794666592274801,0.00011420060036471114,0.03926507756114006,0.3555000126361847,-0.0,0.00769067695364356,1.3067008256912231,9.057086162648372e-20,-0.08759556710720062
342.0,466.0,-5.5789,0.4756,8.2684,-0.06,0.1124,-0.1205,-2.290062566796774,-6.304214912233874e-05,4.608393669128418,-1.4293227195739746,0.061706382781267166,1.9591639041900635,5.663017618447103,-0.0135892853140831,0.18663465976715088,-1.7946503798114222,0.00011592819646466523,0.035861458629369736,0.3555000126361847,-0.0,0.00880450289696455,1.306640625,2.18717972207864e-25,-0.129676952958107
342.0,466.0,-5.5789,0.4756,8.2684,-0.06,0.1124,-0.1205,-2.2900425396361292,-7.816503784852102e-05,4.581819534301758,-1.428745985031128,0.06855696439743042,1.9949203729629517,5.662938582688131,-0.01847231015563011,0.180204838514328,-1.7946704069720667,0.00011581859143916517,0.04483531415462494,0.35546767711639404,-0.0,-0.00548180378973484,1.3066847324371338,7.086184105920024e-33,-0.1297549605369568
342.0,466.0,-5.5789,0.4756,8.2684,-0.06,0.1124,-0.1205,-2.2899896107115687,-0.00011572732910281047,4.5795578956604,-1.4282349348068237,0.0752464234828949,1.985856294631958,5.662774848728933,-0.026552895084023476,0.16342836618423462,-1.7946503798114222,0.00010881691559916362,0.050487253814935684,0.3554880917072296,-0.0,0.007672391831874847,1.306668758392334,2.2958313520112073e-40,-0.0940372496843338
342.0,466.0,-5.5789,0.4756,8.2684,-0.06,0.1124,-0.1205,-2.2901064358153285,-0.0001947290584212169,4.540801048278809,-1.4277228116989136,0.07755842059850693,2.01728892326355,5.6625868556793115,-0.03512772545218468,0.16191066801548004,-1.7946184317218226,0.0001617782691027969,0.0512157678604126,0.35546016693115234,-0.0,0.008958413265645504,1.3066527843475342,0.0,-0.12395180761814117
342.0,466.0,-5.5789,0.4756,8.2684,-0.06,0.1124,-0.1205,-2.290114542047018,-0.00043535546865314245,4.513533115386963,-1.4270994663238525,0.07747405022382736,1.9575645923614502,5.662187146931448,-0.059482403099536896,0.13961546123027802,-1.7946341673480433,0.00014154925884213299,0.042307984083890915,0.3554479479789734,-0.0,0.000558412924874574,1.3067048788070679,0.0,-0.13019874691963196
342.0,466.0,-5.5789,0.4756,8.2684,-0.06,0.1124,-0.1205,-2.290086408654684,-0.00038981379475444555,4.55314826965332,-1.4264153242111206,0.08144544810056686,1.9649875164031982,5.661583888321676,-0.09588971734046936,0.13364601135253906,-1.794610325490133,0.0001632176572456956,0.06221317499876022,0.3555122911930084,-0.0,0.00822262279689312,1.3066766262054443,0.0,-0.13336317241191864
342.0,466.0,-5.5789,0.4756,8.2684,-0.06,0.1124,-0.1205,-2.2900458774962367,-0.00033534178510308266,4.45705509185791,-1.4259436130523682,0.08938143402338028,1.9933497905731201,5.661004829197683,-0.11929307878017426,0.10423211753368378,-1.7946022192584437,0.000173799620824866,0.05356802046298981,0.3554520606994629,-0.0,0.0038168258033692837,1.3066283464431763,0.0,-0.10113473236560822
342.0,466.0,-5.5789,0.4756,8.2684,-0.06,0.1124,-0.1205,-2.2900945148863734,-0.00028267575544305146,4.590939044952393,-1.4251993894577026,0.09767904132604599,1.9928843975067139,5.659922110825338,-0.13696986436843872,0.09811791032552719,-1.7946222464190882,0.00031423268956132233,0.045592475682497025,0.3554479777812958,-0.0,0.006293001584708691,1.3066766262054443,0.0,-0.17746469378471375
342.0,466.0,-5.5789,0.4756,8.2684,-0.06,0.1124,-0.1205,-2.290130754510397,-0.0002528884506318718,4.539857387542725,-1.4246442317962646,0.10531799495220184,1.9753037691116333,5.659107196121969,-0.14368510246276855,0.10065310448408127,-1.794626537953512,0.00035844845115207136,0.05983000993728638,0.35547614097595215,-0.0,0.0005015977658331394,1.3066966533660889,0.0,-0.15680880844593048
342.0,466.0,-5.5789,0.4756,8.2684,-0.06,0.1124,-0.1205,-2.2901107273497523,-0.0002727230894379318,4.551726341247559,-1.4237282276153564,0.11508282274007797,1.994470477104187,5.657693493157186,-0.18913903832435608,0.09716594964265823,-1.794626537953512,0.001470998045988381,0.06375910341739655,0.3554159998893738,-0.0,0.012281463481485844,1.306680679321289,0.0,-0.23647646605968475
342.0,466.0,-5.5789,0.4756,8.2684,-0.06,0.1124,-0.1205,-2.2900902233519496,-0.000986409024335444,4.5088210105896,-1.4227524995803833,0.11786393076181412,1.9964358806610107,5.656092095166006,-0.20418542623519897,0.07524891942739487,-1.7945178190814417,0.011195329949259758,0.07127019017934799,0.3554200232028961,-0.0,0.000520853791385889,1.306668758392334,0.0,-0.202442467212677
342.0,466.0,-5.5789,0.4756,8.2684,-0.06,0.1124,-0.1205,-2.290154596368307,-0.0013584912521764636,4.550243377685547,-1.4221017360687256,0.11737092584371567,2.001040458679199,5.654886114388265,-0.21360953152179718,0.08415136486291885,-1.7944467703448694,0.027312146499753,0.08038392663002014,0.3554278612136841,-0.0,-0.008795171044766903,1.3066729307174683,-0.0006481522577814758,-0.2138943076133728
330.0,453.0,-5.6877,1.4399,8.2666,0.0718,-0.093,-0.1119,-2.2901021442809046,-0.0010086651891469955,4.504489898681641,-1.4211775064468384,0.11869338154792786,1.9934971332550049,5.652988362103262,-0.23349833488464355,0.06911879777908325,-1.7942383925067347,0.02449146658182144,0.09323146939277649,0.35544800758361816,-0.0,0.000518165878020227,1.3066610097885132,-0.0008370818104594946,-0.3057931661605835
330.0,453.0,-5.6877,1.4399,8.2666,0.0718,-0.093,-0.1119,-2.290070196191305,-0.0006147189415059984,4.5192718505859375,-1.4201618432998657,0.12792298197746277,1.9980589151382446,5.651108193188467,-0.25699761509895325,0.07249182462692261,-1.7941063086139124,0.012204175814986229,0.09036247432231903,0.35545608401298523,-0.0,0.007345627993345261,1.3066446781158447,-0.0008360820938833058,-0.2807087302207947
330.0,453.0,-5.6877,1.4399,8.2666,0.0718,-0.093,-0.1119,-2.2901345692076625,-0.0005432902253232896,4.522345542907715,-1.419342041015625,0.13355328142642975,2.0284783840179443,5.649470793991842,-0.2731412351131439,0.05125625431537628,-1.7940953413592737,0.003254566341638565,0.08717583119869232,0.3554643392562866,-0.0,-0.001504767220467329,1.306628704071045,-0.0007834536954760551,-0.3423354923725128
330.0,453.0,-5.6877,1.4399,8.2666,0.0718,-0.093,-0.1119,-2.2901140652098597,-0.000492808991111815,4.520832061767578,-1.4183024168014526,0.14474453032016754,2.050248861312866,5.647265064507284,-0.29499250650405884,0.03710780292749405,-1.794062916432516,0.000794124323874712,0.08839281648397446,0.3554561734199524,-0.0,0.004440847784280777,1.3066048622131348,-0.0017638917779549956,-0.35079944133758545
330.0,453.0,-5.6877,1.4399,8.2666,0.0718,-0.093,-0.1119,-2.290138383904928,-0.0028237553779035807,4.533990859985352,-1.417386531829834,0.14573651552200317,2.058573007583618,5.645420002728262,-0.2964475750923157,0.04193103313446045,-1.7940672079669397,0.0005683265044353902,0.08878429979085922,0.35543203353881836,-0.0,-0.0033797298092395067,1.3065924644470215,-0.007898950949311256,-0.3463889956474304
330.0,453.0,-5.6877,1.4399,8.2666,0.0718,-0.093,-0.1119,-2.2901698551573695,-0.007710613775998354,4.4922919273376465,-1.416251301765442,0.14295674860477448,2.063828706741333,5.642892050534048,-0.3190503716468811,0.025726154446601868,-1.7940753141986292,0.0004257740220054984,0.09093225747346878,0.35543200373649597,-0.0,0.0072843036614358425,1.3065285682678223,-0.013985492289066315,-0.4072204828262329
330.0,453.0,-5.6877,1.4399,8.2666,0.0718,-0.093,-0.1119,-2.2902704677977503,-0.006847477052360773,4.516097068786621,-1.415108323097229,0.14818055927753448,2.048335552215576,5.640377986222067,-0.33000096678733826,0.039902132004499435,-1.7940433661090296,0.00037731495103798807,0.11839838325977325,0.3554483652114868,-0.0,0.0017037399811670184,1.3064208030700684,-0.011280518025159836,-0.3997943699359894
330.0,453.0,-5.6877,1.4399,8.2666,0.0718,-0.093,-0.1119,-2.290310045281881,-0.0025529705453664064,4.535852432250977,-1.414160132408142,0.15489277243614197,2.076439380645752,5.638303923397817,-0.3306485414505005,0.04225469380617142,-1.7940753141986292,0.00032001378713175654,0.10607216507196426,0.35550040006637573,-0.0,0.00019102694932371378,1.3063403367996216,-0.009383310563862324,-0.41787129640579224
330.0,453.0,-5.6877,1.4399,8.2666,0.0718,-0.093,-0.1119,-2.290297647515768,-0.001158757135272026,4.544921398162842,-1.4129928350448608,0.1642696112394333,2.109208583831787,5.635544287949362,-0.34827929735183716,0.049560703337192535,-1.7940028349505823,0.00023586867609992623,0.09875717759132385,0.3553798496723175,-0.0,0.012329756282269955,1.3063169717788696,-0.008653690107166767,-0.4537859261035919
330.0,453.0,-5.6877,1.4399,8.2666,0.0718,-0.093,-0.1119,-2.2903062305846156,-0.004549489356577396,4.569502830505371,-1.4116575717926025,0.1633957028388977,2.0517683029174805,5.632777380734243,-0.34799787402153015,0.04373563081026077,-1.7940471808062952,0.0010284213349223137,0.09516119956970215,0.35541248321533203,-0.0,0.018013782799243927,1.3062163591384888,-0.009374990127980709,-0.4113472104072571
330.0,453.0,-5.6877,1.4399,8.2666,0.0718,-0.093,-0.1119,-2.2903863392271937,-0.006491891108453274,4.544207572937012,-1.4107105731964111,0.15981487929821014,2.057135581970215,5.630800771504202,-0.33888062834739685,0.038771167397499084,-1.793995205556051,0.002433889778330922,0.11830293387174606,0.35546016693115234,-0.0,-0.00444440171122551,1.3061482906341553,-0.008771082386374474,-0.500106930732727
330.0,453.0,-5.6877,1.4399,8.2666,0.0718,-0.093,-0.1119,-2.290438314477438,-0.004988553002476692,4.553836345672607,-1.4094399213790894,0.15991944074630737,2.0825657844543457,5.62804942110137,-0.3411047160625458,0.0462535098195076,-1.793955151234762,0.005055573768913746,0.12809497117996216,0.3554361164569855,-0.0,-0.004179180134087801,1.3061085939407349,-0.01159798726439476,-0.4970399737358093
347.0,508.0,-4.1378,0.9817,8.7428,0.0195,-0.0999,-0.118,-2.290450235406393,-0.0029471891466528177,4.57108211517334,-1.4084392786026,0.16459888219833374,2.1057112216949463,5.626065659313955,-0.3457010090351105,0.04781998693943024,-1.7939961592303675,0.007683769334107637,0.11980729550123215,0.3554201126098633,-0.0,0.008418797515332699,1.3060526847839355,-0.0098634148016572,-0.5255049467086792
347.0,508.0,-4.1378,0.9817,8.7428,0.0195,-0.0999,-0.118,-2.2904259167113246,-0.0013251022901386023,4.671594619750977,-1.4071006774902344,0.17204828560352325,2.0892648696899414,5.623329686909475,-0.3393026292324066,0.03996272385120392,-1.7938669363604944,0.004748707637190819,0.12279747426509857,0.3553921580314636,-0.0,-0.01017107255756855,1.305992603302002,-0.009270267561078072,-0.5674968361854553
347.0,508.0,-4.1378,0.9817,8.7428,0.0195,-0.0999,-0.118,-2.290450235406393,-0.0012393741635605693,4.585772514343262,-1.4057135581970215,0.1664625108242035,2.089383125305176,5.620710539608755,-0.3172578811645508,0.07001066952943802,-1.7938793341266077,0.0018372860504314303,0.11305643618106842,0.35542070865631104,-0.0,0.007604092825204134,1.3059046268463135,-0.009403293952345848,-0.5059784650802612
347.0,508.0,-4.1378,0.9817,8.7428,0.0195,-0.0999,-0.118,-2.290462156335348,-0.0017950953915715218,4.594592094421387,-1.4047372341156006,0.16686879098415375,2.1428797245025635,5.618837582855978,-0.3171214461326599,0.06863364577293396,-1.7938111464129847,0.0018521830206736922,0.1259605437517166,0.355424165725708,-0.0,-0.012731058523058891,1.3058326244354248,-0.009078608825802803,-0.589951753616333
347.0,508.0,-4.1378,0.9817,8.7428,0.0195,-0.0999,-0.118,-2.2905103168883265,-0.0015039517311379313,4.599554061889648,-1.403374433517456,0.1687835305929184,2.1190109252929688,5.616458225041189,-0.31357672810554504,0.07347681373357773,-1.7937834898578089,0.0047522736713290215,0.12001115083694458,0.3554561734199524,-0.0,-0.0029806201346218586,1.3058207035064697,-0.010563970543444157,-0.5705511569976807
347.0,508.0,-4.1378,0.9817,8.7428,0.0195,-0.0999,-0.118,-2.2905498943724574,-0.001365053467452526,4.617960453033447,-1.4024232625961304,0.17035652697086334,2.1287200450897217,5.6145885465438745,-0.2958894371986389,0.07084167748689651,-1.7938192526446741,0.0037171251606196165,0.1400824934244156,0.35540440678596497,-0.0,0.009372180327773094,1.3057249784469604,-0.010790519416332245,-0.5809710025787354
347.0,508.0,-4.1378,0.9817,8.7428,0.0195,-0.0999,-0.118,-2.290562768975729,-0.0014222776517271996,4.590390682220459,-1.4010040760040283,0.16920922696590424,2.0788516998291016,5.612324523716726,-0.28332197666168213,0.08517956733703613,-1.7937758604632776,0.0019928778056055307,0.13041502237319946,0.3554125130176544,-0.0,-0.0021767320577055216,1.3056485652923584,-0.010183457285165787,-0.5559113025665283
347.0,508.0,-4.1378,0.9817,8.7428,0.0195,-0.0999,-0.118,-2.2905103168883265,-0.0011385788675397635,4.564144134521484,-1.399713158607483,0.16841351985931396,2.1384165287017822,5.610176670342245,-0.25608915090560913,0.09762098640203476,-1.7938159147845667,0.0009556888253428042,0.13527211546897888,0.35538017749786377,-0.0,-0.014148958027362823,1.3055806159973145,-0.008802386932075024,-0.5954679250717163
347.0,508.0,-4.1378,0.9817,8.7428,0.0195,-0.0999,-0.118,-2.290514131585592,-0.0009683239040896297,4.58890438079834,-1.3986567258834839,0.16700372099876404,2.150512218475342,5.6086681363876245,-0.25382331013679504,0.09154272824525833,-1.793779198323385,0.0004894427256658673,0.11771947145462036,0.35542070865631104,-0.0,-0.010404168628156185,1.3055408000946045,-0.0085655702278018,-0.5825427770614624
347.0,508.0,-4.1378,0.9817,8.7428,0.0195,-0.0999,-0.118,-2.290582319299215,-0.0012541980249807239,4.625332832336426,-1.3973100185394287,0.1662970632314682,2.1307129859924316,5.60677199342803,-0.22781972587108612,0.1059955358505249,-1.7937911192523401,0.0003409045166336,0.116740882396698,0.35544830560684204,-0.0,-0.020382976159453392,1.305456280708313,-0.008473042398691177,-0.567737340927124
347.0,508.0,-4.1378,0.9817,8.7428,0.0195,-0.0999,-0.118,-2.2905780277647914,-0.0010822570184245706,4.629380226135254,-1.3959908485412598,0.1587378978729248,2.1055500507354736,5.604966866761007,-0.20810140669345856,0.11134754121303558,-1.7937677542315882,0.0003138881584163755,0.12063175439834595,0.35538432002067566,-0.0,-0.0034904293715953827,1.3053927421569824,-0.00958129484206438,-0.5570071339607239
347.0,508.0,-4.1378,0.9817,8.7428,0.0195,-0.0999,-0.118,-2.2905341587462367,-0.0009444646420888603,4.541136741638184,-1.395042061805725,0.1555337905883789,2.0655791759490967,5.603868472367086,-0.17766548693180084,0.12821504473686218,-1.793772045766012,0.0002672774135135114,0.11793315410614014,0.35542887449264526,-0.0,-0.005556146614253521,1.3053003549575806,-0.009630151093006134,-0.5632284283638
347.0,508.0,-4.1378,0.9817,8.7428,0.0195,-0.0999,-0.118,-2.2905899486937464,-0.0010007902747020125,4.580765724182129,-1.3938676118850708,0.15776759386062622,2.0740888118743896,5.602487611561575,-0.16965220868587494,0.14173287153244019,-1.7938240210162562,0.00022309646010398865,0.116334930062294,0.35538432002067566,-0.0,-0.011455980129539967,1.3052566051483154,-0.009877810254693031,-0.5123587250709534
330.0,452.0,-4.7988,1.0211,9.0802,-0.0454,0.1405,-0.1561,-2.2906505070128382,-0.000934559153392911,4.541256904602051,-1.3928989171981812,0.15791377425193787,2.0966339111328125,5.601561355381765,-0.14273659884929657,0.1397693008184433,-1.793812100087301,0.00022296069073490798,0.12496495991945267,0.35544800758361816,-0.0,-0.005778256803750992,1.3051925897598267,-0.009195485152304173,-0.5582597851753235
330.0,452.0,-4.7988,1.0211,9.0802,-0.0454,0.1405,-0.1561,-2.290614267388815,-0.0013691959902644157,4.587254047393799,-1.3916231393814087,0.15644650161266327,2.086158275604248,5.600683617382803,-0.09665768593549728,0.18223430216312408,-1.7937801519977015,0.00020188535563647747,0.11976160854101181,0.3554643392562866,-0.0,-0.011628169566392899,1.3050960302352905,-0.01021522469818592,-0.5658485293388367
330.0,452.0,-4.7988,1.0211,9.0802,-0.0454,0.1405,-0.1561,-2.290654321710104,-0.004664442501962185,4.58784294128418,-1.3904807567596436,0.14498132467269897,2.093703508377075,5.600016402989187,-0.07598122209310532,0.1741413027048111,-1.793755356465475,0.00017894564371090382,0.1333831250667572,0.35544800758361816,-0.0,-0.006833668332546949,1.3051007986068726,-0.011516808532178402,-0.5753997564315796
330.0,452.0,-4.7988,1.0211,9.0802,-0.0454,0.1405,-0.1561,-2.290633340875143,-0.008168810047209263,4.548932075500488,-1.3895835876464844,0.1446763426065445,2.0520734786987305,5.599569546967306,-0.07287529855966568,0.17827853560447693,-1.7937758604632776,0.00017093827773351222,0.11738336086273193,0.3554401695728302,-0.0,0.001761794788762927,1.3049564361572266,-0.01268149632960558,-0.572630763053894
330.0,452.0,-4.7988,1.0211,9.0802,-0.0454,0.1405,-0.1561,-2.2907382450499476,-0.006785187870264053,4.575201034545898,-1.3884568214416504,0.14736375212669373,2.0661489963531494,5.598970162659445,-0.06577694416046143,0.1878751516342163,-1.793795410786764,0.0001702202862361446,0.1291975975036621,0.35538819432258606,-0.0,-0.011982484720647335,1.3048601150512695,-0.0137809282168746,-0.5511177778244019
330.0,452.0,-4.7988,1.0211,9.0802,-0.0454,0.1405,-0.1561,-2.2907501659789027,-0.004235658794641495,4.528040885925293,-1.3872404098510742,0.1486348956823349,2.135157585144043,5.598527419358053,-0.05240851640701294,0.17797613143920898,-1.7938039938556116,0.0001558209623908624,0.12124896049499512,0.35546430945396423,-0.0,-0.003945843782275915,1.3047564029693604,-0.015864206477999687,-0.5588542819023132
330.0,452.0,-4.7988,1.0211,9.0802,-0.0454,0.1405,-0.1561,-2.290797849694723,-0.004362825769931078,4.554931640625,-1.386375904083252,0.14283831417560577,2.0675926208496094,5.598231780319967,-0.0410100482404232,0.19389408826828003,-1.7938197294818323,0.00014632070087827742,0.11781056225299835,0.35548844933509827,-0.0,-0.012503489851951599,1.3047006130218506,-0.016563165932893753,-0.5881086587905884
330.0,452.0,-4.7988,1.0211,9.0802,-0.0454,0.1405,-0.1561,-2.290837904016012,-0.009003735147416592,4.503120422363281,-1.385260820388794,0.12960417568683624,2.0216176509857178,5.598012673645773,-0.022996146231889725,0.17586871981620789,-1.7937873045550745,0.0001353203842882067,0.1230674535036087,0.35546016693115234,-0.0,-0.006725499406456947,1.3045485019683838,-0.01910630613565445,-0.6000155210494995
330.0,452.0,-4.7988,1.0211,9.0802,-0.0454,0.1405,-0.1561,-2.2909261188902796,-0.010232621803879738,4.45940637588501,-1.3844877481460571,0.12658192217350006,2.013489246368408,5.597904789238729,-0.009489650838077068,0.18814365565776825,-1.7938039938556116,0.00012809761392418295,0.12236077338457108,0.35544800758361816,-0.0,-0.0014230312081053853,1.304457187652588,-0.021698031574487686,-0.6193413138389587
330.0,452.0,-4.7988,1.0211,9.0802,-0.0454,0.1405,-0.1561,-2.2909537754454554,-0.007933799177408218,4.479475975036621,-1.383530855178833,0.1250845193862915,2.009036064147949,5.59786884763793,0.0011813868768513203,0.19295939803123474,-1.7937830130206507,0.00011958718823734671,0.11919888108968735,0.3555040955543518,-0.0,-0.0062024397775530815,1.3042200803756714,-0.024440942332148552,-0.6106692552566528
330.0,452.0,-4.7988,1.0211,9.0802,-0.0454,0.1405,-0.1561,-2.2910176716246546,-0.006421007681638002,4.472530841827393,-1.3824865818023682,0.12836477160453796,1.9884562492370605,5.597933161049642,0.000737690192181617,0.21535629034042358,-1.7937873045550745,0.00011213696416234598,0.1270599514245987,0.3554880917072296,-0.0,0.0021913256496191025,1.304032325744629,-0.025602400302886963,-0.6356459856033325
330.0,452.0,-4.7988,1.0211,9.0802,-0.0454,0.1405,-0.1561,-2.291074415246481,-0.006598154082894325,4.503167629241943,-1.381790041923523,0.1291462779045105,2.0228781700134277,5.597865092545309,0.0004456921014934778,0.19366991519927979,-1.793772045766012,0.00010713140363804996,0.1286327838897705,0.35546839237213135,-0.0,0.013282247819006443,1.3039047718048096,-0.026158910244703293,-0.6227348446846008
330.0,452.0,-4.7988,1.0211,9.0802,-0.0454,0.1405,-0.1561,-2.2911740742125453,-0.010485573671758175,4.4907684326171875,-1.3807216882705688,0.12082160264253616,2.0304293632507324,5.597856926708975,0.0002235435094917193,0.1955060213804245,-1.7937677542315882,0.00010111339361174032,0.12080852687358856,0.3554917573928833,-0.0,0.0010626495350152254,1.3036603927612305,-0.02693866565823555,-0.5775013566017151
295.0,408.0,-4.8826,1.0277,8.4497,-0.0379,0.0921,-0.1721,-2.291274210015768,-0.013187197968363762,4.488558769226074,-1.3798013925552368,0.11154378950595856,1.9769275188446045,5.597836959152975,-0.00012351159239187837,0.1783558875322342,-1.793795410786764,9.573558781994507e-05,0.1252935528755188,0.3554397523403168,-0.0,-0.0056126355193555355,1.3034682273864746,-0.02738955430686474,-0.6303824186325073
295.0,408.0,-4.8826,1.0277,8.4497,-0.0379,0.0921,-0.1721,-2.291298051873678,-0.012100973166525364,4.446803092956543,-1.3791919946670532,0.10693525522947311,2.005263328552246,5.597869264870443,-0.00015497581625822932,0.18650244176387787,-1.7937830130206507,6.269547156989574e-05,0.13763612508773804,0.35546016693115234,-0.0,-0.0089818574488163,1.3032681941986084,-0.027232706546783447,-0.617753267288208
295.0,408.0,-4.8826,1.0277,8.4497,-0.0379,0.0921,-0.1721,-2.2914258442320765,-0.011705216020345688,4.454672336578369,-1.3783637285232544,0.10050493478775024,2.004504919052124,5.597832786827841,-0.00016810202214401215,0.18733420968055725,-1.7937358061419886,5.932766362093389e-05,0.11818137764930725,0.3555082082748413,-0.0,0.006592415273189545,1.3030561208724976,-0.02638213522732258,-0.6261962652206421
295.0,408.0,-4.8826,1.0277,8.4497,-0.0379,0.0921,-0.1721,-2.291514059106344,-0.012545096687972546,4.405854225158691,-1.377761721611023,0.10137965530157089,2.0183324813842773,5.59784101226882,-0.0001840176119003445,0.1906919777393341,-1.7937563101397913,5.7070443290285766e-05,0.12696020305156708,0.3554803133010864,-0.0,0.00769629655405879,1.3029122352600098,-0.024616999551653862,-0.6256868243217468
295.0,408.0,-4.8826,1.0277,8.4497,-0.0379,0.0921,-0.1721,-2.2915779552855433,-0.013637740164995193,4.422305107116699,-1.3769885301589966,0.10026349127292633,2.0051803588867188,5.597865211754598,-0.0008982872823253274,0.17486172914505005,-1.7937758604632776,5.4315074521582574e-05,0.1282690167427063,0.3554720878601074,-0.0,0.005780770909041166,1.3027405738830566,-0.023106886073946953,-0.6141495108604431
295.0,408.0,-4.8826,1.0277,8.4497,-0.0379,0.0921,-0.1721,-2.2917500934996546,-0.018739376217126846,4.399226665496826,-1.3762038946151733,0.09392703324556351,2.0153865814208984,5.597825395851888,-0.004191952757537365,0.183221697807312,-1.793743912373678,6.217474583536386e-05,0.1425982564687729,0.3554717004299164,-0.0,0.005241237580776215,1.3025161027908325,-0.02272195555269718,-0.6398330926895142
295.0,408.0,-4.8826,1.0277,8.4497,-0.0379,0.0921,-0.1721,-2.2918578586974085,-0.023884667083621025,4.370918273925781,-1.3756823539733887,0.08760414272546768,1.9889872074127197,5.597736942559042,-0.005910726264119148,0.17437610030174255,-1.7937477270709437,6.0100264818174765e-05,0.12692636251449585,0.35547617077827454,-0.0,0.011044620536267757,1.3024085760116577,-0.02449716255068779,-0.6377941370010376
295.0,408.0,-4.8826,1.0277,8.4497,-0.0379,0.0921,-0.1721,-2.2920056782164515,-0.028754299506545067,4.378849029541016,-1.374936580657959,0.07849858701229095,1.9788084030151367,5.597672986775198,-0.008756058290600777,0.1817396581172943,-1.7938035170184534,9.075488804910492e-09,0.13686619699001312,0.3554479479789734,-0.0,-0.002848489675670862,1.3021762371063232,-0.026029711589217186,-0.6641323566436768
295.0,408.0,-4.8826,1.0277,8.4497,-0.0379,0.0921,-0.1721,-2.2922779522337855,-0.03063296712934971,4.335428237915039,-1.3743748664855957,0.0724068433046341,1.9484374523162842,5.597569095879354,-0.01189100369811058,0.1678461730480194,-1.793788258229391,9.712055907584727e-05,0.14035041630268097,0.3554438352584839,-0.0,-0.0030231112614274025,1.3020168542861938,-0.026523476466536522,-0.7049074172973633
295.0,408.0,-4.8826,1.0277,8.4497,-0.0379,0.0921,-0.1721,-2.2924381695189417,-0.030456051230430603,4.342512130737305,-1.3739044666290283,0.07008426636457443,1.945295810699463,5.5975050804908655,-0.014262980781495571,0.16161270439624786,-1.7937520186053675,0.0001721512380754575,0.142098069190979,0.3554885685443878,-0.0,0.008346029557287693,1.3018243312835693,-0.025753969326615334,-0.7308890223503113
