ramyac6/ROB537/final_project/csv/good/good_45.csv
tof_0,tof_1,accelx,accely,accelz,gyrox,gyroy,gyroz,shoulder_lift_joint_position,shoulder_lift_joint_velocity,shoulder_lift_joint_effort,elbow_joint_position,elbow_joint_velocity,elbow_joint_effort,wrist_1_joint_position,wrist_1_joint_velocity,wrist_1_joint_effort,wrist_2_joint_position,wrist_2_joint_velocity,wrist_2_joint_effort,wrist_3_joint_position,wrist_3_joint_velocity,wrist_3_joint_effort,shoulder_pan_joint_position,shoulder_pan_joint_velocity,shoulder_pan_joint_effort
243.0,452.0,-0.3852,-0.0389,9.6108,-0.0281,0.0252,-0.1191,-1.9475580654540003,0.0,3.5246548652648926,-1.656089186668396,-0.0,1.9638129472732544,5.1038823304469965,0.0,0.27729225158691406,-1.5416386763202112,0.0,0.008604014292359352,0.47296369075775146,0.0,0.009278030134737492,1.1583665609359741,0.0,-0.055259961634874344
243.0,452.0,-0.3852,-0.0389,9.6108,-0.0281,0.0252,-0.1191,-1.9476028881468714,0.0,3.556671619415283,-1.6561015844345093,-0.0,2.0251026153564453,5.10385416725234,0.0,0.2631766200065613,-1.5416744391070765,0.0,-0.003585082944482565,0.4729919731616974,0.0,-0.008997222408652306,1.1583507061004639,0.0,0.0010565845295786858
243.0,452.0,-0.3852,-0.0389,9.6108,-0.0281,0.0252,-0.1191,-1.9475661716856898,0.0,3.5347304344177246,-1.6560367345809937,-0.0,1.9894187450408936,5.10383020618514,0.0,0.2666439414024353,-1.5416348616229456,0.0,-0.0025875403080135584,0.47306451201438904,0.0,0.0011049495078623295,1.1583507061004639,0.0,0.02080407738685608
243.0,452.0,-0.3852,-0.0389,9.6108,-0.0281,0.0252,-0.1191,-1.9476028881468714,0.0,3.534209728240967,-1.6561170816421509,-0.0,1.9685015678405762,5.103886323958196,0.0,0.26089778542518616,-1.5416267553912562,0.0,0.008304677903652191,0.47304439544677734,0.0,-0.0006911989767104387,1.1583906412124634,0.0,-0.01471385732293129
243.0,452.0,-0.3852,-0.0389,9.6108,-0.0281,0.0252,-0.1191,-1.9475823841490687,0.0,3.5558323860168457,-1.6561007499694824,-0.0,1.958329677581787,5.103886353760519,0.0,0.2595987915992737,-1.5416386763202112,0.0,0.006051642820239067,0.47308871150016785,0.0,-0.000593066681176424,1.158374547958374,0.0,0.014513937756419182
243.0,452.0,-0.3852,-0.0389,9.6108,-0.0281,0.0252,-0.1191,-1.9475943050780238,0.0,3.585620880126953,-1.6560728549957275,-0.0,1.97389817237854,5.1038823304469965,0.0,0.27008897066116333,-1.5416019598590296,0.0,0.002422243356704712,0.4730522334575653,0.0,-0.005218043457716703,1.1583747863769531,0.0,-0.0203922800719738
243.0,452.0,-0.3852,-0.0389,9.6108,-0.0281,0.0252,-0.1191,-1.9475542507567347,0.0,3.5398621559143066,-1.6561254262924194,-0.0,1.981553316116333,5.103910434037008,0.0,0.2535823583602905,-1.5416386763202112,0.0,0.003287510247901082,0.47304853796958923,0.0,0.002655105199664831,1.1583507061004639,0.0,0.011798912659287453
243.0,452.0,-0.3852,-0.0389,9.6108,-0.0281,0.0252,-0.1191,-1.9476186237730921,0.0,3.520249128341675,-1.6560649871826172,-0.0,1.9975478649139404,5.10386602857665,0.0,0.26751333475112915,-1.5415862242328089,0.0,-0.0053956639021635056,0.47307640314102173,0.0,0.0020258070435374975,1.1584066152572632,0.0,0.014041928574442863
236.0,446.0,-0.4499,0.0233,9.6317,-0.0379,0.0289,-0.1237,-1.9476028881468714,0.0,3.5421717166900635,-1.6560609340667725,-0.0,1.9563648700714111,5.103886353760519,0.0,0.2782247066497803,-1.5415862242328089,0.0,-0.007187203504145145,0.47300392389297485,0.0,0.0059866951778531075,1.158354640007019,0.0,0.002774946391582489
236.0,446.0,-0.4499,0.0233,9.6317,-0.0379,0.0289,-0.1237,-1.9476062260069789,0.0,3.575882911682129,-1.6560934782028198,-0.0,1.9973208904266357,5.103914218931951,0.0,0.2649170160293579,-1.5416706244098108,0.0,0.008751838468015194,0.4730682373046875,0.0,0.006738079246133566,1.158362627029419,0.0,-0.035878196358680725
236.0,446.0,-0.4499,0.0233,9.6317,-0.0379,0.0289,-0.1237,-1.9475909672179164,0.0,3.5036492347717285,-1.656072735786438,-0.0,1.9722929000854492,5.103906261711874,0.0,0.26365160942077637,-1.5416181723224085,0.0,0.007203200366348028,0.4729800820350647,0.0,-0.005458347965031862,1.1583267450332642,0.0,-0.011851620860397816
236.0,446.0,-0.4499,0.0233,9.6317,-0.0379,0.0289,-0.1237,-1.947561880151266,0.0,3.631950855255127,-1.656072735786438,-0.0,1.9908790588378906,5.103878158121862,0.0,0.26537850499153137,-1.5416267553912562,0.0,-0.0028889677487313747,0.4730965197086334,0.0,-0.008760688826441765,1.1583987474441528,0.0,-0.008274640887975693
236.0,446.0,-0.4499,0.0233,9.6317,-0.0379,0.0289,-0.1237,-1.9476305447020472,0.0,3.556783676147461,-1.656072735786438,-0.0,1.9833049774169922,5.103858250170507,0.0,0.2721462845802307,-1.5416505972491663,0.0,-0.006041753105819225,0.4730645418167114,0.0,-0.004334115888923407,1.1583467721939087,0.0,0.01778668537735939
236.0,446.0,-0.4499,0.0233,9.6317,-0.0379,0.0289,-0.1237,-1.9475866756834925,0.0,3.5920515060424805,-1.6560367345809937,-0.0,1.9581754207611084,5.103866058378973,0.0,0.25900861620903015,-1.5416348616229456,0.0,0.007395647466182709,0.4730322062969208,0.0,0.0003603098448365927,1.158362627029419,0.0,-0.008339901454746723
236.0,446.0,-0.4499,0.0233,9.6317,-0.0379,0.0289,-0.1237,-1.9475623569884242,0.0,3.5746359825134277,-1.6561007499694824,-0.0,1.9757225513458252,5.103898274689474,0.0,0.2533707022666931,-1.5416467825519007,0.0,0.01119815744459629,0.4730726480484009,0.0,-0.00927478726953268,1.158394694328308,0.0,-0.031630344688892365
236.0,446.0,-0.4499,0.0233,9.6317,-0.0379,0.0289,-0.1237,-1.947578569451803,0.0,3.5608248710632324,-1.6560609340667725,-0.0,1.9682161808013916,5.1039461372192285,0.0,0.2616119384765625,-1.541654411946432,0.0,0.010978613048791885,0.47301623225212097,0.0,0.00043134333100169897,1.1583747863769531,0.0,-0.02841290831565857
236.0,446.0,-0.4499,0.0233,9.6317,-0.0379,0.0289,-0.1237,-1.9475985966124476,0.0,3.535818338394165,-1.6560851335525513,-0.0,1.9922107458114624,5.103886353760519,0.0,0.2629721462726593,-1.5416057745562952,0.0,0.0057645877823233604,0.4730280935764313,0.0,-0.0022895752917975187,1.1583307981491089,0.0,-0.028321892023086548
236.0,446.0,-0.4499,0.0233,9.6317,-0.0379,0.0289,-0.1237,-1.947545667687887,0.0,3.5262715816497803,-1.6560609340667725,-0.0,1.9965651035308838,5.1038942513759515,0.0,0.25988852977752686,-1.5416019598590296,0.0,0.007271546870470047,0.4730563461780548,0.0,0.0016732545336708426,1.1583467721939087,0.0,0.017417950555682182
236.0,446.0,-0.4499,0.0233,9.6317,-0.0379,0.0289,-0.1237,-1.947561880151266,0.0,3.5657243728637695,-1.6560850143432617,-0.0,1.961151123046875,5.1038622734840295,0.0,0.26358744502067566,-1.5416224638568323,0.0,-0.008188849315047264,0.47300803661346436,0.0,-0.004554505459964275,1.1583267450332642,0.0,0.006673701107501984
236.0,446.0,-0.4499,0.0233,9.6317,-0.0379,0.0289,-0.1237,-1.9476186237730921,0.0,3.580097198486328,-1.6560646295547485,-0.0,1.9703577756881714,5.103890466481008,0.0,0.2730330228805542,-1.541654411946432,0.0,-0.00822627916932106,0.47301626205444336,0.0,-0.010533380322158337,1.158382773399353,0.0,-0.003491381648927927
236.0,446.0,-0.4499,0.0233,9.6317,-0.0379,0.0289,-0.1237,-1.9475542507567347,0.0,3.558152675628662,-1.6561007499694824,-0.0,1.9899777173995972,5.103858250170507,0.0,0.2602466344833374,-1.5416143576251429,0.0,-0.009440851397812366,0.47300803661346436,0.0,0.014913924038410187,1.1583665609359741,0.0,0.019682012498378754
236.0,446.0,-0.4499,0.0233,9.6317,-0.0379,0.0289,-0.1237,-1.9475943050780238,0.0,3.6094813346862793,-1.6560975313186646,-0.0,1.960423469543457,5.1038823304469965,0.0,0.2728809714317322,-1.5416300932513636,0.0,0.008512009866535664,0.47304439544677734,0.0,0.0037571305874735117,1.1583348512649536,0.0,-0.005498854909092188
242.0,452.0,-0.3846,-0.0078,9.6138,-0.035,0.0234,-0.1164,-1.9475985966124476,0.0,3.558267593383789,-1.6560934782028198,-0.0,1.9662460088729858,5.1038942513759515,0.0,0.27484244108200073,-1.5416181723224085,0.0,0.00307354424148798,0.47306039929389954,0.0,-0.006180228665471077,1.158342719078064,0.0,0.0015498911961913109
242.0,452.0,-0.3846,-0.0078,9.6138,-0.035,0.0234,-0.1164,-1.9475742779173792,0.0,3.588946580886841,-1.6560686826705933,-0.0,1.9451661109924316,5.103902298002996,0.0,0.2670709490776062,-1.5416305700885218,0.0,-0.005080608185380697,0.4730723202228546,0.0,0.01227822806686163,1.1583665609359741,0.0,0.04368625208735466
242.0,452.0,-0.3846,-0.0078,9.6138,-0.035,0.0234,-0.1164,-1.9475866756834925,0.0,3.551553249359131,-1.6560567617416382,-0.0,1.9843292236328125,5.1038942513759515,0.0,0.26880866289138794,-1.5416343847857874,0.0,-0.00452113151550293,0.4730362296104431,0.0,-0.0009898536372929811,1.158342719078064,0.0,-0.036017078906297684
242.0,452.0,-0.3846,-0.0078,9.6138,-0.035,0.0234,-0.1164,-1.947606702844137,0.0,3.5407049655914307,-1.6560649871826172,-0.0,1.947223424911499,5.1038421271140955,0.0,0.26868101954460144,-1.5416386763202112,0.0,0.001214659889228642,0.4730563163757324,0.0,-0.015180254355072975,1.158390760421753,0.0,-0.024250801652669907
242.0,452.0,-0.3846,-0.0078,9.6138,-0.035,0.0234,-0.1164,-1.947622915307516,0.0,3.5514883995056152,-1.6560769081115723,-0.0,2.004642963409424,5.103914218931951,0.0,0.2637926936149597,-1.5416267553912562,0.0,-0.008435704745352268,0.47305670380592346,0.0,-0.004220465663820505,1.1583348512649536,0.0,0.007065479643642902
242.0,452.0,-0.3846,-0.0078,9.6138,-0.035,0.0234,-0.1164,-1.9475699863829554,0.0,3.615298271179199,-1.6561017036437988,-0.0,1.9709482192993164,5.103938001185217,0.0,0.2710755467414856,-1.5416706244098108,0.0,0.0008616730337962508,0.4730485677719116,0.0,0.0010322497691959143,1.1583706140518188,0.0,-0.01414940319955349
242.0,452.0,-0.3846,-0.0078,9.6138,-0.035,0.0234,-0.1164,-1.947606702844137,0.0,3.5671772956848145,-1.6560646295547485,-0.0,1.9527698755264282,5.103906410723486,0.0,0.26978254318237305,-1.5416424910174769,0.0,-0.005208542570471764,0.4730563163757324,0.0,-0.007938305847346783,1.158342719078064,0.0,0.045227985829114914
242.0,452.0,-0.3846,-0.0078,9.6138,-0.035,0.0234,-0.1164,-1.94765104869985,0.0,3.582369804382324,-1.6560649871826172,-0.0,1.9606387615203857,5.103874194412985,0.0,0.27287328243255615,-1.5415905157672327,0.0,0.0006056729471310973,0.47302404046058655,0.0,-0.0009535286808386445,1.158354640007019,0.0,0.022854074835777283
242.0,452.0,-0.3846,-0.0078,9.6138,-0.035,0.0234,-0.1164,-1.9476148090758265,0.0,3.562102794647217,-1.6560934782028198,-0.0,1.9585429430007935,5.103870081692495,0.0,0.26922717690467834,-1.541610066090719,0.0,-0.005274683237075806,0.4730522632598877,0.0,0.011984346434473991,1.1583867073059082,0.0,0.006563309580087662
242.0,452.0,-0.3846,-0.0078,9.6138,-0.035,0.0234,-0.1164,-1.9475904903807582,0.0,3.556436538696289,-1.6561089754104614,-0.0,2.0060038566589355,5.103834140091696,0.0,0.26518622040748596,-1.5415948073016565,0.0,0.005883103236556053,0.47302812337875366,0.0,-0.0013234061188995838,1.158342719078064,0.0,0.010760840959846973
242.0,452.0,-0.3846,-0.0078,9.6138,-0.035,0.0234,-0.1164,-1.947622915307516,0.0,3.572877883911133,-1.6560686826705933,-0.0,1.9700844287872314,5.103922354965963,0.0,0.2593851685523987,-1.5415976683246058,0.0,0.005754526704549789,0.47306036949157715,0.0,-0.00207000644877553,1.1583948135375977,0.0,-0.016500502824783325
242.0,452.0,-0.3846,-0.0078,9.6138,-0.035,0.0234,-0.1164,-1.9475909672179164,0.0,3.59019136428833,-1.6560769081115723,-0.0,1.9932479858398438,5.103858220368185,0.0,0.26970773935317993,-1.541610066090719,0.0,0.006741354241967201,0.47300803661346436,0.0,-0.008839966729283333,1.158382773399353,0.0,-0.00010411487892270088
242.0,452.0,-0.3846,-0.0078,9.6138,-0.035,0.0234,-0.1164,-1.9476148090758265,0.0,3.577937602996826,-1.656080961227417,-0.0,1.9681576490402222,5.1038823304469965,0.0,0.2652590274810791,-1.5415862242328089,0.0,-0.0012869448401033878,0.47300800681114197,0.0,-0.010192773304879665,1.1583747863769531,0.0,-0.030015021562576294
242.0,452.0,-0.3846,-0.0078,9.6138,-0.035,0.0234,-0.1164,-1.947566648522848,0.0,3.588338851928711,-1.6560646295547485,-0.0,1.9492156505584717,5.103854077845373,0.0,0.2608828544616699,-1.5416267553912562,0.0,0.015489932149648666,0.4730645418167114,0.0,0.007256864104419947,1.158342719078064,0.0,-0.047231364995241165
239.0,461.0,-0.4792,-0.0365,9.6838,-0.031,0.0325,-0.1243,-1.9475904903807582,0.0,3.567910671234131,-1.6560567617416382,-0.0,1.9810588359832764,5.103890466481008,0.0,0.2723742127418518,-1.541638199483053,0.0,-0.010689619928598404,0.4730883240699768,0.0,0.010899536311626434,1.1583348512649536,0.0,0.025010522454977036
239.0,461.0,-0.4792,-0.0365,9.6838,-0.031,0.0325,-0.1243,-1.9475742779173792,0.0,3.4885241985321045,-1.6560686826705933,-0.0,1.958992838859558,5.103874164610662,0.0,0.2708777189254761,-1.541654411946432,0.0,0.007308037485927343,0.47308456897735596,0.0,-0.0020288005471229553,1.1583585739135742,0.0,-0.005809463560581207
239.0,461.0,-0.4792,-0.0365,9.6838,-0.031,0.0325,-0.1243,-1.9475742779173792,0.0,3.617642402648926,-1.6560686826705933,-0.0,1.9990981817245483,5.103902327805319,0.0,0.27271944284439087,-1.5416057745562952,0.0,0.0010037238243967295,0.4730203151702881,0.0,0.0015495236730203032,1.1584265232086182,0.0,0.019297759979963303
239.0,461.0,-0.4792,-0.0365,9.6838,-0.031,0.0325,-0.1243,-1.9476267300047816,0.0,3.5246381759643555,-1.6560686826705933,-0.0,1.9305301904678345,5.10391445735053,0.0,0.2732752561569214,-1.5416057745562952,0.0,-0.000462758558569476,0.47303223609924316,0.0,0.005098696798086166,1.1583868265151978,0.0,-0.015086579136550426
239.0,461.0,-0.4792,-0.0365,9.6838,-0.031,0.0325,-0.1243,-1.9476105175414027,0.0,3.5648586750030518,-1.6560527086257935,-0.0,1.9623198509216309,5.103886323958196,0.0,0.26322120428085327,-1.5415905157672327,0.0,0.0055668228305876255,0.47297605872154236,0.0,-0.0030825175344944,1.1583585739135742,0.0,-0.03652624040842056
239.0,461.0,-0.4792,-0.0365,9.6838,-0.031,0.0325,-0.1243,-1.9475943050780238,0.0,3.5424108505249023,-1.6560893058776855,-0.0,2.0243844985961914,5.103922354965963,0.0,0.2823810279369354,-1.5416181723224085,0.0,0.009084454737603664,0.4729961156845093,0.0,-0.007412747014313936,1.1583229303359985,0.0,0.010343503206968307
239.0,461.0,-0.4792,-0.0365,9.6838,-0.031,0.0325,-0.1243,-1.9476148090758265,0.0,3.553339958190918,-1.6560325622558594,-0.0,1.9823038578033447,5.103894549399175,0.0,0.2616337537765503,-1.5416181723224085,0.0,0.006947056856006384,0.47306859493255615,0.0,-0.0043167006224393845,1.1583507061004639,0.0,0.03214633837342262
239.0,461.0,-0.4792,-0.0365,9.6838,-0.031,0.0325,-0.1243,-1.947622915307516,0.0,3.548879623413086,-1.6560649871826172,-0.0,1.9812556505203247,5.10393043139533,0.0,0.26326993107795715,-1.5416143576251429,0.0,0.008253748528659344,0.47306859493255615,0.0,0.0034059106837958097,1.1583865880966187,0.0,0.0353652685880661
239.0,461.0,-0.4792,-0.0365,9.6838,-0.031,0.0325,-0.1243,-1.947622915307516,0.0,3.5703752040863037,-1.6560975313186646,-0.0,1.9841115474700928,5.103894519596853,0.0,0.26445168256759644,-1.5416348616229456,0.0,0.013541878201067448,0.4729839265346527,0.0,-0.01287961658090353,1.1583387851715088,0.0,-0.014348181895911694
239.0,461.0,-0.4792,-0.0365,9.6838,-0.031,0.0325,-0.1243,-1.9475661716856898,0.0,3.5668580532073975,-1.6560769081115723,-0.0,1.9718356132507324,5.103930490999975,0.0,0.27334466576576233,-1.5416386763202112,0.0,-0.004721416160464287,0.4730403423309326,0.0,0.0032508824951946735,1.158382773399353,0.0,-0.0013266513124108315
239.0,461.0,-0.4792,-0.0365,9.6838,-0.031,0.0325,-0.1243,-1.9476148090758265,0.0,3.5500149726867676,-1.6560934782028198,-0.0,2.014291524887085,5.103925871640005,0.0,0.25996899604797363,-1.5415862242328089,0.0,0.0002780584618449211,0.47300025820732117,0.0,-0.0025407089851796627,1.1583467721939087,0.0,0.0002036795485764742
239.0,461.0,-0.4792,-0.0365,9.6838,-0.031,0.0325,-0.1243,-1.947578569451803,0.0,3.5763397216796875,-1.6560485363006592,-0.0,1.9912919998168945,5.1038622734840295,0.0,0.2597825527191162,-1.5415938536273401,0.0,0.002735047833994031,0.47303223609924316,0.0,-0.00024175760336220264,1.1583348512649536,0.0,0.023384254425764084
239.0,461.0,-0.4792,-0.0365,9.6838,-0.031,0.0325,-0.1243,-1.9476391277708949,0.0,3.5652565956115723,-1.6560934782028198,-0.0,1.9715778827667236,5.10386602857665,0.0,0.2669280469417572,-1.5416467825519007,0.0,0.010945774614810944,0.4730362594127655,0.0,-0.000282303080894053,1.1583784818649292,0.0,0.02005288004875183
239.0,461.0,-0.4792,-0.0365,9.6838,-0.031,0.0325,-0.1243,-1.947606702844137,0.0,3.5246329307556152,-1.656080961227417,-0.0,2.022930145263672,5.103854107647695,0.0,0.27905020117759705,-1.5415943304644983,0.0,0.013704296201467514,0.4730043411254883,0.0,-0.006335200741887093,1.1583507061004639,0.0,-0.006302074063569307
241.0,448.0,-0.4714,0.012,9.6993,-0.0368,0.031,-0.1206,-1.947606702844137,0.0,3.521301507949829,-1.6560893058776855,-0.0,1.9773709774017334,5.103878277331152,0.0,0.26902222633361816,-1.541610066090719,0.0,-0.008408584631979465,0.47308051586151123,0.0,-0.0072254883125424385,1.158374547958374,0.0,-0.03508596122264862
241.0,448.0,-0.4714,0.012,9.6993,-0.0368,0.031,-0.1206,-1.9475866756834925,0.0,3.560333490371704,-1.6560975313186646,-0.0,1.9792132377624512,5.103870081692495,0.0,0.2750505208969116,-1.5416181723224085,0.0,-0.009094811044633389,0.47306036949157715,0.0,-0.0006290040910243988,1.1583387851715088,0.0,-0.009346452541649342
241.0,448.0,-0.4714,0.012,9.6993,-0.0368,0.031,-0.1206,-1.947533746758932,0.0,3.570530891418457,-1.6560686826705933,-0.0,1.9963874816894531,5.103834110289373,0.0,0.2590605616569519,-1.541654411946432,0.0,0.0016587433638051152,0.473004013299942,0.0,0.003018669318407774,1.158402681350708,0.0,0.0362543947994709
241.0,448.0,-0.4714,0.012,9.6993,-0.0368,0.031,-0.1206,-1.9475823841490687,0.0,3.5798439979553223,-1.6560769081115723,-0.0,1.9601480960845947,5.10386602857665,0.0,0.2738119065761566,-1.5416343847857874,0.0,-0.007113931700587273,0.4730043411254883,0.0,-0.01938312128186226,1.1583706140518188,0.0,0.007345420308411121
241.0,448.0,-0.4714,0.012,9.6993,-0.0368,0.031,-0.1206,-1.9476186237730921,0.0,3.5370395183563232,-1.6560893058776855,-0.0,1.9221436977386475,5.103878247528829,0.0,0.25788289308547974,-1.5415738264666956,0.0,0.009757649153470993,0.47301623225212097,0.0,-0.0032898765057325363,1.1583586931228638,0.0,-0.013941332697868347
241.0,448.0,-0.4714,0.012,9.6993,-0.0368,0.031,-0.1206,-1.9476148090758265,0.0,3.553370714187622,-1.6560609340667725,-0.0,1.978201150894165,5.10393391826705,0.0,0.2631473243236542,-1.5416300932513636,0.0,-0.001433754339814186,0.4730243682861328,0.0,-0.01617685705423355,1.1583788394927979,0.0,-0.006357746198773384
241.0,448.0,-0.4714,0.012,9.6993,-0.0368,0.031,-0.1206,-1.9476186237730921,0.0,3.576732635498047,-1.6560893058776855,-0.0,1.9597744941711426,5.103874194412985,0.0,0.2762454152107239,-1.54157001176943,0.0,-0.006175728049129248,0.47307634353637695,0.0,0.004468128085136414,1.1583507061004639,0.0,-0.01655905321240425
241.0,448.0,-0.4714,0.012,9.6993,-0.0368,0.031,-0.1206,-1.9475699863829554,0.0,3.546703815460205,-1.6560407876968384,-0.0,2.006931781768799,5.103902327805319,0.0,0.2737256586551666,-1.5416224638568323,0.0,-0.0007537879282608628,0.4729880392551422,0.0,0.010598341003060341,1.158342719078064,0.0,-0.039339449256658554
241.0,448.0,-0.4714,0.012,9.6993,-0.0368,0.031,-0.1206,-1.947622915307516,0.0,3.6113433837890625,-1.6560449600219727,-0.0,1.9632952213287354,5.103842276125707,0.0,0.2662941515445709,-1.5415905157672327,0.0,-0.007423858158290386,0.473092645406723,0.0,6.433215457946062e-05,1.1583585739135742,0.0,-0.047947704792022705
241.0,448.0,-0.4714,0.012,9.6993,-0.0368,0.031,-0.1206,-1.9475866756834925,0.0,3.5175962448120117,-1.6560852527618408,-0.0,1.965679407119751,5.103874194412985,2.5071460640901932e-06,0.2621033787727356,-1.5416224638568323,0.0,0.007992364466190338,0.4730280935764313,0.0,-0.004692151676863432,1.1583309173583984,0.0,0.003941156901419163
241.0,448.0,-0.4714,0.012,9.6993,-0.0368,0.031,-0.1206,-1.9476148090758265,0.0,3.609233856201172,-1.6560852527618408,-0.0,1.9703643321990967,5.103878247528829,6.978734257145902e-10,0.2734081745147705,-1.541610066090719,0.0,0.002945982851088047,0.47304853796958923,0.0,0.002691324334591627,1.1583586931228638,0.0,-0.03173805773258209
241.0,448.0,-0.4714,0.012,9.6993,-0.0368,0.031,-0.1206,-1.947606702844137,0.0,3.5435400009155273,-1.6560850143432617,-0.0,1.995187520980835,5.103857952147283,1.9425560877743553e-13,0.25795355439186096,-1.5416467825519007,0.0,0.0007970379665493965,0.4730722904205322,0.0,0.011356011964380741,1.158342719078064,0.0,0.022453760728240013
241.0,448.0,-0.4714,0.012,9.6993,-0.0368,0.031,-0.1206,-1.9476267300047816,0.0,3.5806446075439453,-1.656072735786438,-0.0,1.9777913093566895,5.103922414570608,3.530499498604928e-18,0.267822802066803,-1.5416267553912562,0.0,0.006206176243722439,0.47303223609924316,0.0,-0.011711055412888527,1.158382773399353,0.0,0.012606517411768436
241.0,448.0,-0.4714,0.012,9.6993,-0.0368,0.031,-0.1206,-1.9476305447020472,0.0,3.5500242710113525,-1.6560966968536377,-0.0,1.9713647365570068,5.103846031218328,9.827275242686847e-22,0.2682505249977112,-1.5416143576251429,0.0,0.00938083603978157,0.47303223609924316,0.0,-0.00031297490932047367,1.1583586931228638,0.0,0.013203362002968788
241.0,463.0,-0.4552,-0.0156,9.4798,-0.0356,0.0273,-0.1138,-1.9475661716856898,0.0,3.5896997451782227,-1.656080961227417,-0.0,1.9902002811431885,5.103890466481008,2.7354585122869724e-25,0.2628999352455139,-1.5416267553912562,0.0,0.010167773813009262,0.4729999601840973,0.0,0.004878337029367685,1.1583268642425537,0.0,0.019160760566592216
241.0,463.0,-0.4552,-0.0156,9.4798,-0.0356,0.0273,-0.1138,-1.9475742779173792,0.0,3.5536422729492188,-1.6560732126235962,-0.0,2.0099408626556396,5.103870051890173,7.614248896423112e-29,0.2662179172039032,-1.5416267553912562,0.0,0.000253344071097672,0.47302404046058655,0.0,-0.004380068741738796,1.1583387851715088,0.0,-0.033663421869277954
241.0,463.0,-0.4552,-0.0156,9.4798,-0.0356,0.0273,-0.1138,-1.9475580654540003,0.0,3.587924003601074,-1.6560966968536377,-0.0,1.9311732053756714,5.103862005263128,1.3838521020379803e-33,0.27579352259635925,-1.541654411946432,0.0,0.0033807021100074053,0.4731005132198334,0.0,0.0012092188699170947,1.1583309173583984,0.0,-0.0007726340554654598
241.0,463.0,-0.4552,-0.0156,9.4798,-0.0356,0.0273,-0.1138,-1.9475823841490687,0.0,3.5485968589782715,-1.6560567617416382,-0.0,1.9702730178833008,5.103890496283331,3.852003564690746e-37,0.26218557357788086,-1.5415943304644983,0.0,-0.004464338067919016,0.47304439544677734,0.0,0.004943788982927799,1.158362627029419,0.0,-0.024275755509734154
241.0,463.0,-0.4552,-0.0156,9.4798,-0.0356,0.0273,-0.1138,-1.9475943050780238,0.0,3.5273704528808594,-1.6560810804367065,-0.0,1.9715464115142822,5.103854137450018,1.072217532962777e-40,0.26090124249458313,-1.541610066090719,0.0,-0.003053018357604742,0.47301211953163147,0.0,0.0017814403399825096,1.158370852470398,0.0,0.007258685305714607
241.0,463.0,-0.4552,-0.0156,9.4798,-0.0356,0.0273,-0.1138,-1.9476467571654261,0.0,3.5470519065856934,-1.6560407876968384,-0.0,1.9826329946517944,5.103898274689474,2.942726775082116e-44,0.27163589000701904,-1.5416057745562952,0.0,0.009435216896235943,0.4729880392551422,0.0,0.004975551273673773,1.1583906412124634,0.0,0.050347037613391876
241.0,463.0,-0.4552,-0.0156,9.4798,-0.0356,0.0273,-0.1138,-1.9475742779173792,0.0,3.554332971572876,-1.6561212539672852,-0.0,1.9776737689971924,5.103910195618429,0.0,0.28107744455337524,-1.5416057745562952,0.0,-0.0046755000948905945,0.4730199873447418,0.0,-0.0020734453573822975,1.158342719078064,0.0,-0.013089261949062347
241.0,463.0,-0.4552,-0.0156,9.4798,-0.0356,0.0273,-0.1138,-1.9475904903807582,0.0,3.5713019371032715,-1.656072735786438,-0.0,1.9842708110809326,5.10386602857665,0.0,0.27496522665023804,-1.5416386763202112,0.0,0.00034788576886057854,0.47306856513023376,0.0,-0.005930878221988678,1.1583387851715088,0.0,-0.04099079966545105
241.0,463.0,-0.4552,-0.0156,9.4798,-0.0356,0.0273,-0.1138,-1.9475943050780238,0.0,3.5976457595825195,-1.656072735786438,-0.0,2.0015709400177,5.1038942513759515,0.0,0.2793912887573242,-1.5416386763202112,0.0,-0.0029440997168421745,0.473004013299942,0.0,-0.008384855464100838,1.1583189964294434,0.0,-0.023728396743535995
241.0,463.0,-0.4552,-0.0156,9.4798,-0.0356,0.0273,-0.1138,-1.947606702844137,0.0,3.5669422149658203,-1.656089186668396,-0.0,1.9689507484436035,5.103861945658483,0.0,0.2727869749069214,-1.5416224638568323,0.0,0.02082052081823349,0.4730362892150879,0.0,0.0008939574472606182,1.1583867073059082,0.0,0.0003377944231033325
241.0,463.0,-0.4552,-0.0156,9.4798,-0.0356,0.0273,-0.1138,-1.9475985966124476,0.0,3.596524477005005,-1.6561017036437988,-0.0,1.962825059890747,5.1038540480430505,0.0,0.2635190784931183,-1.541610066090719,0.0,-0.0025041287299245596,0.47309261560440063,0.0,-3.714114427566528e-05,1.1583507061004639,0.0,-0.05317046865820885
241.0,463.0,-0.4552,-0.0156,9.4798,-0.0356,0.0273,-0.1138,-1.9476028881468714,0.0,3.5430283546447754,-1.6561212539672852,-0.0,1.968951940536499,5.103878307133474,0.0,0.2792850732803345,-1.5416181723224085,0.0,-0.00029183324659243226,0.47300028800964355,0.0,0.008403665386140347,1.1583467721939087,0.0,-0.00317545048892498
241.0,463.0,-0.4552,-0.0156,9.4798,-0.0356,0.0273,-0.1138,-1.9475985966124476,0.0,3.5615384578704834,-1.6560893058776855,-0.0,1.9896906614303589,5.103898274689474,0.0,0.26282382011413574,-1.5416019598590296,0.0,-0.0030423966236412525,0.47299614548683167,0.0,0.009159044362604618,1.1583507061004639,0.0,0.006081811152398586
241.0,463.0,-0.4552,-0.0156,9.4798,-0.0356,0.0273,-0.1138,-1.9476467571654261,0.0,3.577921152114868,-1.6560649871826172,-0.0,1.9704045057296753,5.103878277331152,0.0,0.27151328325271606,-1.5416224638568323,0.0,0.01040894165635109,0.473004013299942,0.0,0.010800667107105255,1.158354640007019,0.0,-0.003844532184302807
237.0,462.0,-0.4158,-0.0275,9.6162,-0.0377,0.0206,-0.1127,-1.947549959222311,0.0,3.626887798309326,-1.6561048030853271,-0.0,1.9915685653686523,5.103886323958196,0.0,0.2557145357131958,-1.5416181723224085,0.0,0.0013845778303220868,0.4730485677719116,0.0,-0.0014864134136587381,1.158362627029419,0.0,-0.0069779930636286736
237.0,462.0,-0.4158,-0.0275,9.6162,-0.0377,0.0206,-0.1127,-1.9475699863829554,0.0,3.5193982124328613,-1.6561048030853271,-0.0,1.991891622543335,5.103906500130453,0.0,0.2640104591846466,-1.5416305700885218,0.0,0.013796241953969002,0.47309648990631104,0.0,0.008472401648759842,1.158354640007019,0.0,-0.01842259056866169
237.0,462.0,-0.4158,-0.0275,9.6162,-0.0377,0.0206,-0.1127,-1.9475866756834925,0.0,3.5721793174743652,-1.6560370922088623,-0.0,1.9204301834106445,5.103865998774328,0.0,0.2738507390022278,-1.5416463057147425,0.0,0.0047697871923446655,0.4729960858821869,0.0,0.005483738146722317,1.1584064960479736,0.0,-0.037945326417684555
237.0,462.0,-0.4158,-0.0275,9.6162,-0.0377,0.0206,-0.1127,-1.947549959222311,0.0,3.553402900695801,-1.656080961227417,-0.0,1.96882963180542,5.103861945658483,0.0,0.25962939858436584,-1.5415862242328089,0.0,0.006282209884375334,0.473080575466156,0.0,0.0008429833687841892,1.158394694328308,0.0,-0.016047639772295952
237.0,462.0,-0.4158,-0.0275,9.6162,-0.0377,0.0206,-0.1127,-1.947561880151266,0.0,3.598891019821167,-1.6561048030853271,-0.0,1.9878759384155273,5.103878277331152,0.0,0.27923262119293213,-1.541654411946432,0.0,0.0062581682577729225,0.4730965495109558,0.0,-0.011002626270055771,1.158382773399353,0.0,0.002248711185529828
237.0,462.0,-0.4158,-0.0275,9.6162,-0.0377,0.0206,-0.1127,-1.947561880151266,0.0,3.538315534591675,-1.656032919883728,-0.0,1.9504199028015137,5.103906410723486,0.0,0.2704198360443115,-1.541610066090719,0.0,0.011841978877782822,0.4729801118373871,0.0,-0.007640575524419546,1.1582947969436646,0.0,0.0016753575764596462
237.0,462.0,-0.4158,-0.0275,9.6162,-0.0377,0.0206,-0.1127,-1.9475699863829554,0.0,3.5444910526275635,-1.6560449600219727,-0.0,2.0031046867370605,5.103902327805319,0.0,0.27913618087768555,-1.541626278554098,0.0,0.006474699825048447,0.47298794984817505,0.0,-0.013424430042505264,1.1583788394927979,0.0,-0.0010340865701436996
237.0,462.0,-0.4158,-0.0275,9.6162,-0.0377,0.0206,-0.1127,-1.9475943050780238,0.0,3.5776829719543457,-1.656089186668396,-0.0,1.9177420139312744,5.103834050684728,0.0,0.27702805399894714,-1.5416143576251429,0.0,-0.011303217150270939,0.47308459877967834,0.0,0.005355889908969402,1.1583348512649536,0.0,0.02711346372961998
237.0,462.0,-0.4158,-0.0275,9.6162,-0.0377,0.0206,-0.1127,-1.9475699863829554,0.0,3.5559744834899902,-1.6560769081115723,-0.0,1.9481655359268188,5.103882300644674,0.0,0.26441115140914917,-1.5415905157672327,0.0,0.0012626555981114507,0.47304821014404297,0.0,0.001183047890663147,1.1583309173583984,0.0,0.028143208473920822
237.0,462.0,-0.4158,-0.0275,9.6162,-0.0377,0.0206,-0.1127,-1.9475904903807582,0.0,3.5904407501220703,-1.6560769081115723,-0.0,2.00754714012146,5.103918301850118,0.0,0.26529136300086975,-1.5416505972491663,0.0,-0.0005395631305873394,0.4730403423309326,0.0,0.007410517893731594,1.1583747863769531,0.0,-0.05679083988070488
237.0,462.0,-0.4158,-0.0275,9.6162,-0.0377,0.0206,-0.1127,-1.9475580654540003,0.0,3.538989305496216,-1.6561015844345093,-0.0,1.9754011631011963,5.103886353760519,0.0,0.2754707634449005,-1.5415976683246058,0.0,0.005374494940042496,0.47301211953163147,0.0,-0.004729901906102896,1.1583747863769531,0.0,-0.000543094240128994
237.0,462.0,-0.4158,-0.0275,9.6162,-0.0377,0.0206,-0.1127,-1.9476305447020472,0.0,3.522892951965332,-1.6561048030853271,-0.0,1.9788539409637451,5.1039064703281305,0.0,0.27801281213760376,-1.541610066090719,0.0,0.004170698579400778,0.4730726182460785,0.0,0.00033542391611263156,1.1583665609359741,0.0,-0.018807601183652878
237.0,462.0,-0.4158,-0.0275,9.6162,-0.0377,0.0206,-0.1127,-1.9476028881468714,0.0,3.5686376094818115,-1.6560686826705933,-0.0,1.9950956106185913,5.103898274689474,0.0,0.2662695348262787,-1.5416343847857874,0.0,0.005998918320983648,0.473040372133255,0.0,0.001530360197648406,1.158354640007019,0.0,-0.04466250166296959
237.0,462.0,-0.4158,-0.0275,9.6162,-0.0377,0.0206,-0.1127,-1.9475661716856898,0.0,3.591430425643921,-1.6561172008514404,-0.0,1.9921728372573853,5.103902327805319,0.0,0.28142112493515015,-1.5416463057147425,0.0,0.009263868443667889,0.4730280935764313,0.0,-0.0024927486665546894,1.158362627029419,0.0,0.008165966719388962
243.0,455.0,-0.4086,-0.0203,9.6329,-0.0368,0.0281,-0.1142,-1.9476105175414027,0.0,3.5722365379333496,-1.6561089754104614,-0.0,1.993417739868164,5.103894549399175,0.0,0.27150759100914,-1.541610066090719,0.0,0.003879124764353037,0.47298431396484375,0.0,0.005820817314088345,1.1583986282348633,0.0,0.014835244975984097
243.0,455.0,-0.4086,-0.0203,9.6329,-0.0368,0.0281,-0.1142,-1.9475661716856898,0.0,3.5747838020324707,-1.6560567617416382,-0.0,1.9756395816802979,5.103882300644674,0.0,0.2710053622722626,-1.5415905157672327,0.0,-0.01297065056860447,0.47300028800964355,0.0,-0.013333439826965332,1.1583788394927979,0.0,-0.0002822447568178177
243.0,455.0,-0.4086,-0.0203,9.6329,-0.0368,0.0281,-0.1142,-1.9475580654540003,0.0,3.548722505569458,-1.6561089754104614,-0.0,1.9837532043457031,5.103902327805319,0.0,0.264909029006958,-1.5416181723224085,0.0,-0.005357400514185429,0.4730280637741089,0.0,-0.01118667796254158,1.1583268642425537,0.0,-0.0036754379980266094
243.0,455.0,-0.4086,-0.0203,9.6329,-0.0368,0.0281,-0.1142,-1.9476105175414027,0.0,3.588085174560547,-1.65614914894104,-0.0,1.9316635131835938,5.103870051890173,0.0,0.26615917682647705,-1.5416057745562952,0.0,-0.0019091683207079768,0.4730362892150879,0.0,0.003308070357888937,1.1583348512649536,0.0,0.0280116219073534
243.0,455.0,-0.4086,-0.0203,9.6329,-0.0368,0.0281,-0.1142,-1.9475866756834925,0.0,3.5469369888305664,-1.6560850143432617,-0.0,1.9990699291229248,5.103914248734274,0.0,0.2732893228530884,-1.5416224638568323,0.0,-0.008750380016863346,0.47302404046058655,0.0,0.006971067748963833,1.158390760421753,0.0,-0.03165410831570625
243.0,455.0,-0.4086,-0.0203,9.6329,-0.0368,0.0281,-0.1142,-1.9475866756834925,0.0,3.5633044242858887,-1.6560975313186646,-0.0,1.9999120235443115,5.103865998774328,0.0,0.2735750675201416,-1.5415824095355433,0.0,-0.01209336705505848,0.47303223609924316,0.0,-0.006821506656706333,1.1583906412124634,0.0,0.007910252548754215
243.0,455.0,-0.4086,-0.0203,9.6329,-0.0368,0.0281,-0.1142,-1.9475943050780238,0.0,3.530730724334717,-1.6560934782028198,-0.0,1.9457268714904785,5.103874283819952,0.0,0.26955199241638184,-1.5416467825519007,0.0,-0.0006871514488011599,0.47297602891921997,0.0,0.005011988338083029,1.1583906412124634,0.0,0.030985835939645767
243.0,455.0,-0.4086,-0.0203,9.6329,-0.0368,0.0281,-0.1142,-1.9475985966124476,0.0,3.5581488609313965,-1.6560649871826172,-0.0,1.9395925998687744,5.103878247528829,0.0,0.27441298961639404,-1.5416348616229456,0.0,-0.001417004968971014,0.4730363190174103,0.0,-0.0062761446461081505,1.158342719078064,0.0,0.023979760706424713
243.0,455.0,-0.4086,-0.0203,9.6329,-0.0368,0.0281,-0.1142,-1.947594781915182,0.0,3.5619819164276123,-1.656080961227417,-0.0,1.9804925918579102,5.1039064703281305,0.0,0.26265615224838257,-1.5416300932513636,0.0,0.0004177654627710581,0.4730924069881439,0.0,-0.0061951326206326485,1.158382773399353,0.0,-0.004322283901274204
243.0,455.0,-0.4086,-0.0203,9.6329,-0.0368,0.0281,-0.1142,-1.9475699863829554,0.0,3.51155948638916,-1.656072735786438,-0.0,1.9686620235443115,5.103886353760519,0.0,0.268464595079422,-1.5416424910174769,0.0,-0.003020496806129813,0.47297608852386475,0.0,-0.007192335091531277,1.1583348512649536,0.0,0.003295897040516138
243.0,455.0,-0.4086,-0.0203,9.6329,-0.0368,0.0281,-0.1142,-1.947594781915182,0.0,3.5510683059692383,-1.6560934782028198,-0.0,1.9823285341262817,5.103850024729528,0.0,0.2752639055252075,-1.5415905157672327,0.0,0.0032036365009844303,0.4729841947555542,0.0,-0.010759384371340275,1.1583665609359741,0.0,-0.00851512048393488
243.0,455.0,-0.4086,-0.0203,9.6329,-0.0368,0.0281,-0.1142,-1.9475699863829554,0.0,3.535477638244629,-1.6560646295547485,-0.0,1.9609848260879517,5.103898274689474,0.0,0.2753109037876129,-1.5415943304644983,0.0,-0.003844471415504813,0.4730043113231659,0.0,0.00021302280947566032,1.1583906412124634,0.0,0.00831298902630806
243.0,455.0,-0.4086,-0.0203,9.6329,-0.0368,0.0281,-0.1142,-1.9476028881468714,0.0,3.561384677886963,-1.6560975313186646,-0.0,1.9553446769714355,5.103882300644674,0.0,0.28000855445861816,-1.5415781180011194,0.0,0.002073869574815035,0.47305265069007874,0.0,-0.002283434383571148,1.1583507061004639,0.0,0.058847226202487946
243.0,455.0,-0.4086,-0.0203,9.6329,-0.0368,0.0281,-0.1142,-1.9476148090758265,0.0,3.5626277923583984,-1.6561130285263062,-0.0,1.98439359664917,5.103838103800573,0.0,0.27621057629585266,-1.5415905157672327,0.0,0.000744831922929734,0.4730243682861328,0.0,0.005301480181515217,1.158382773399353,0.0,0.05427568405866623
246.0,449.0,-0.4187,-0.0311,9.5258,-0.0472,0.0241,-0.1176,-1.9475742779173792,0.0,3.5820517539978027,-1.6561294794082642,-0.0,1.980086088180542,5.103886353760519,0.0,0.2738756239414215,-1.5416267553912562,0.0,0.0011939698597416282,0.4730284810066223,0.0,-0.003899950534105301,1.1583507061004639,0.0,0.01745837740600109
246.0,449.0,-0.4187,-0.0311,9.5258,-0.0472,0.0241,-0.1176,-1.947622915307516,0.0,3.549191951751709,-1.656044840812683,-0.0,1.9764976501464844,5.103918301850118,0.0,0.26746317744255066,-1.5416057745562952,0.0,-0.009939707815647125,0.47305262088775635,0.0,-0.0016956139588728547,1.1583309173583984,0.0,-0.050795529037714005
246.0,449.0,-0.4187,-0.0311,9.5258,-0.0472,0.0241,-0.1176,-1.9475909672179164,0.0,3.54526948928833,-1.6560686826705933,-0.0,1.9724581241607666,5.103933948069372,0.0,0.28097003698349,-1.5415976683246058,0.0,-0.00412354851141572,0.4730363190174103,0.0,-0.012230165302753448,1.158354640007019,0.0,-0.0035367002710700035
246.0,449.0,-0.4187,-0.0311,9.5258,-0.0472,0.0241,-0.1176,-1.9475866756834925,0.0,3.564171314239502,-1.6560490131378174,-0.0,1.9777384996414185,5.1038942513759515,0.0,0.27308279275894165,-1.5416267553912562,0.0,0.012366672977805138,0.4730485677719116,0.0,0.0003579007461667061,1.1583387851715088,0.0,0.006329766009002924
246.0,449.0,-0.4187,-0.0311,9.5258,-0.0472,0.0241,-0.1176,-1.9475699863829554,0.0,3.5898756980895996,-1.6560449600219727,-0.0,1.9538698196411133,5.103882270842352,0.0,0.2612243890762329,-1.5416057745562952,0.0,-0.0007758117280900478,0.47305262088775635,0.0,0.013022979721426964,1.1583507061004639,0.0,0.0168885700404644
246.0,449.0,-0.4187,-0.0311,9.5258,-0.0472,0.0241,-0.1176,-1.9475823841490687,0.0,3.59382700920105,-1.6561254262924194,-0.0,1.9747402667999268,5.103870081692495,0.0,0.26620838046073914,-1.5416424910174769,0.0,-0.00020652601961046457,0.4730485677719116,0.0,0.006955279503017664,1.158354640007019,0.0,-0.025479577481746674
246.0,449.0,-0.4187,-0.0311,9.5258,-0.0472,0.0241,-0.1176,-1.9475823841490687,0.0,3.554645538330078,-1.656080961227417,-0.0,1.946218729019165,5.103886383562841,0.0,0.2722390294075012,-1.54157001176943,0.0,0.011005919426679611,0.4730641543865204,0.0,-0.015095621347427368,1.1583585739135742,0.0,-0.009097927249968052
246.0,449.0,-0.4187,-0.0311,9.5258,-0.0472,0.0241,-0.1176,-1.9475866756834925,0.0,3.550899028778076,-1.6560485363006592,-0.0,1.964432954788208,5.103906529932775,0.0,0.2660984992980957,-1.5416424910174769,0.0,0.0036030220799148083,0.47303223609924316,0.0,0.005070875398814678,1.158362627029419,0.0,-0.004934239201247692
246.0,449.0,-0.4187,-0.0311,9.5258,-0.0472,0.0241,-0.1176,-1.947606702844137,0.0,3.615077495574951,-1.6561286449432373,-0.0,1.9731297492980957,5.103914278536596,0.0,0.2771758437156677,-1.541610066090719,0.0,0.0032606441527605057,0.47304031252861023,0.0,-0.004679619334638119,1.1583867073059082,0.0,0.018388744443655014
246.0,449.0,-0.4187,-0.0311,9.5258,-0.0472,0.0241,-0.1176,-1.947606702844137,0.0,3.5208163261413574,-1.6561254262924194,-0.0,1.9821176528930664,5.103918361454763,0.0,0.2663428783416748,-1.5416424910174769,0.0,-0.0030660871416330338,0.47301623225212097,0.0,-0.002453004941344261,1.1583788394927979,0.0,-0.005246720276772976
246.0,449.0,-0.4187,-0.0311,9.5258,-0.0472,0.0241,-0.1176,-1.9475661716856898,0.0,3.568284511566162,-1.6560686826705933,-0.0,1.9688888788223267,5.103886353760519,0.0,0.26705390214920044,-1.541654411946432,0.0,0.004609586205333471,0.47308093309402466,0.0,0.001438603736460209,1.1584105491638184,0.0,-0.041734300553798676
246.0,449.0,-0.4187,-0.0311,9.5258,-0.0472,0.0241,-0.1176,-1.9475661716856898,0.0,3.51774001121521,-1.6560975313186646,-0.0,1.980090856552124,5.10389860251502,0.0,0.27241313457489014,-1.5416181723224085,0.0,0.013128929771482944,0.47308462858200073,0.0,0.001534180250018835,1.1583906412124634,0.0,0.014045411720871925
246.0,449.0,-0.4187,-0.0311,9.5258,-0.0472,0.0241,-0.1176,-1.9476424656310023,0.0,3.540550708770752,-1.656072735786438,-0.0,1.979863166809082,5.103890496283331,0.0,0.2658098340034485,-1.541610066090719,0.0,-0.012071649543941021,0.4730645418167114,0.0,0.003330976003780961,1.1583507061004639,0.0,0.03469482436776161
246.0,449.0,-0.4187,-0.0311,9.5258,-0.0472,0.0241,-0.1176,-1.947549959222311,0.0,3.5256032943725586,-1.6560686826705933,-0.0,1.9927619695663452,5.103890496283331,0.0,0.2684038579463959,-1.5415905157672327,0.0,0.00605115108191967,0.4730280637741089,0.0,-0.010425095446407795,1.158410668373108,0.0,-0.05379975587129593
244.0,472.0,-0.4588,-0.0239,9.6341,-0.0409,0.0272,-0.1205,-1.9476429424681605,0.0,3.576968193054199,-1.6560609340667725,-0.0,2.0170512199401855,5.103878247528829,0.0,0.27100545167922974,-1.5416143576251429,0.0,-0.01737341284751892,0.4730162024497986,0.0,0.0027880948036909103,1.158362627029419,0.0,0.024068739265203476
244.0,472.0,-0.4588,-0.0239,9.6341,-0.0409,0.0272,-0.1205,-1.9475985966124476,0.0,3.5696861743927,-1.6560852527618408,-0.0,1.9271732568740845,5.103874194412985,0.0,0.2676592171192169,-1.5416181723224085,0.0,-0.002587712137028575,0.4730202555656433,0.0,-5.963258445262909e-06,1.1583387851715088,0.0,-0.051675040274858475
244.0,472.0,-0.4588,-0.0239,9.6341,-0.0409,0.0272,-0.1205,-1.9475943050780238,0.0,3.580051898956299,-1.6561576128005981,-0.0,1.9884169101715088,5.103861915856161,0.0,0.2653397023677826,-1.541654411946432,0.0,0.004274272359907627,0.47303226590156555,0.0,0.0011545999441295862,1.1583867073059082,0.0,0.03639940172433853
244.0,472.0,-0.4588,-0.0239,9.6341,-0.0409,0.0272,-0.1205,-1.9476028881468714,0.0,3.569852828979492,-1.656105637550354,-0.0,1.9472761154174805,5.103842216521063,0.0,0.26849502325057983,-1.5416343847857874,0.0,0.0009435592801310122,0.4730043411254883,0.0,-0.012886973097920418,1.158354640007019,0.0,-0.013697553426027298
244.0,472.0,-0.4588,-0.0239,9.6341,-0.0409,0.0272,-0.1205,-1.9476024113097132,0.0,3.5479214191436768,-1.6561130285263062,-0.0,1.977510690689087,5.103898274689474,0.0,0.26306048035621643,-1.5415986219989222,0.0,5.179969593882561e-05,0.4730687439441681,0.0,0.0015880162827670574,1.1583788394927979,0.0,-0.002227120567113161
244.0,472.0,-0.4588,-0.0239,9.6341,-0.0409,0.0272,-0.1205,-1.9475985966124476,0.0,3.5993194580078125,-1.6560852527618408,-0.0,1.9639780521392822,5.103865968972006,0.0,0.2602456212043762,-1.5416057745562952,0.0,0.013401361182332039,0.4730646014213562,0.0,0.0034887073561549187,1.1583585739135742,0.0,0.014848672784864902
244.0,472.0,-0.4588,-0.0239,9.6341,-0.0409,0.0272,-0.1205,-1.9475985966124476,0.0,3.567629337310791,-1.6560527086257935,-0.0,1.9760386943817139,5.103922474175253,0.0,0.27449122071266174,-1.541650120412008,0.0,0.0008010795572772622,0.4730404019355774,0.0,-0.004309679381549358,1.1583585739135742,0.0,0.02326813153922558
244.0,472.0,-0.4588,-0.0239,9.6341,-0.0409,0.0272,-0.1205,-1.9475742779173792,0.0,3.5278053283691406,-1.656072735786438,-0.0,1.9865789413452148,5.103890496283331,0.0,0.26288872957229614,-1.5416348616229456,0.0,0.005938734859228134,0.4730362892150879,0.0,0.0034113097935914993,1.158354640007019,0.0,-0.00491334218531847
244.0,472.0,-0.4588,-0.0239,9.6341,-0.0409,0.0272,-0.1205,-1.947578569451803,0.0,3.5593316555023193,-1.656072735786438,-0.0,1.973963737487793,5.103933977871694,0.0,0.26652592420578003,-1.5416057745562952,0.0,0.014615923166275024,0.4730485677719116,0.0,0.0011606139596551657,1.158382773399353,0.0,-0.025988150388002396
244.0,472.0,-0.4588,-0.0239,9.6341,-0.0409,0.0272,-0.1205,-1.9475580654540003,0.0,3.5576791763305664,-1.6561007499694824,-0.0,1.9615449905395508,5.103849994927206,0.0,0.2586999535560608,-1.5416057745562952,0.0,0.012440711259841919,0.47308871150016785,0.0,0.00235715857706964,1.158362627029419,0.0,0.008996020071208477
244.0,472.0,-0.4588,-0.0239,9.6341,-0.0409,0.0272,-0.1205,-1.9476186237730921,0.0,3.5548036098480225,-1.6561089754104614,-0.0,1.9823895692825317,5.103882300644674,0.0,0.26667141914367676,-1.5415905157672327,0.0,-0.0045178611762821674,0.47301992774009705,0.0,-0.0010039302287623286,1.1583507061004639,0.0,-0.06181875988841057
244.0,472.0,-0.4588,-0.0239,9.6341,-0.0409,0.0272,-0.1205,-1.9475985966124476,0.0,3.565228223800659,-1.656080961227417,-0.0,1.9870715141296387,5.103938150196829,0.0,0.2836657166481018,-1.541581932698385,0.0,-0.011520018801093102,0.47304439544677734,0.0,0.0031419042497873306,1.158354640007019,0.0,0.030897781252861023
244.0,472.0,-0.4588,-0.0239,9.6341,-0.0409,0.0272,-0.1205,-1.9475904903807582,0.0,3.5503861904144287,-1.6560893058776855,-0.0,1.9646413326263428,5.103870051890173,0.0,0.27229511737823486,-1.5416057745562952,0.0,0.000606462883297354,0.4731006324291229,0.0,-0.004157409071922302,1.1583309173583984,0.0,0.03841593489050865
244.0,472.0,-0.4588,-0.0239,9.6341,-0.0409,0.0272,-0.1205,-1.947610994378561,0.0,3.559424877166748,-1.6560646295547485,-0.0,1.9754669666290283,5.103894221573629,0.0,0.2829303741455078,-1.5416143576251429,0.0,0.001873090397566557,0.47300392389297485,0.0,-0.005109685473144054,1.158354640007019,0.0,-0.041648030281066895
245.0,471.0,-0.4822,-0.0305,9.719,-0.0454,0.0273,-0.1235,-1.9475699863829554,0.0,3.552367925643921,-1.656052589416504,-0.0,1.9771342277526855,5.103870051890173,0.0,0.26594242453575134,-1.5415943304644983,0.0,-0.0005744385998696089,0.47301623225212097,0.0,-0.0030718762427568436,1.1583150625228882,0.0,-0.012089730240404606
245.0,471.0,-0.4822,-0.0305,9.719,-0.0454,0.0273,-0.1235,-1.947606702844137,0.0,3.5373783111572266,-1.656072735786438,-0.0,1.9869575500488281,5.103882300644674,0.0,0.2702752351760864,-1.5415943304644983,0.0,0.005358352325856686,0.4730645418167114,0.0,-0.011728497222065926,1.1583867073059082,0.0,-0.018430087715387344
245.0,471.0,-0.4822,-0.0305,9.719,-0.0454,0.0273,-0.1235,-1.9476591549315394,0.0,3.569398880004883,-1.6560934782028198,-0.0,1.9728482961654663,5.1038540480430505,0.0,0.2782962918281555,-1.5416424910174769,0.0,0.0015138331800699234,0.4730363190174103,0.0,-0.004701605997979641,1.1583788394927979,0.0,0.0894753634929657
245.0,471.0,-0.4822,-0.0305,9.719,-0.0454,0.0273,-0.1235,-1.9476028881468714,0.0,3.5867996215820312,-1.656072735786438,-0.0,1.965408205986023,5.103894579201498,0.0,0.2673302888870239,-1.5416267553912562,0.0,-0.009280635043978691,0.47296786308288574,0.0,-0.008080800995230675,1.1583665609359741,0.0,0.040520358830690384
245.0,471.0,-0.4822,-0.0305,9.719,-0.0454,0.0273,-0.1235,-1.9475943050780238,0.0,3.5675220489501953,-1.6560324430465698,-0.0,1.9624378681182861,5.103918331652441,0.0,0.27093154191970825,-1.541610066090719,0.0,0.00775926373898983,0.4730043113231659,0.0,0.0025383569300174713,1.158354640007019,0.0,-0.020648621022701263
245.0,471.0,-0.4822,-0.0305,9.719,-0.0454,0.0273,-0.1235,-1.947606702844137,0.0,3.5460703372955322,-1.656064510345459,-0.0,2.0011987686157227,5.103865968972006,0.0,0.272953063249588,-1.5416267553912562,0.0,-0.010200542397797108,0.47307270765304565,0.0,0.0020243125036358833,1.1583788394927979,0.0,-0.01622691936790943
245.0,471.0,-0.4822,-0.0305,9.719,-0.0454,0.0273,-0.1235,-1.947622915307516,0.0,3.5643057823181152,-1.656072735786438,-0.0,1.9787514209747314,5.103934663325109,0.0,0.2800123989582062,-1.5416019598590296,0.0,-0.0015408454928547144,0.4730202853679657,0.0,-0.007408757694065571,1.1583268642425537,0.0,0.0008211291860789061
245.0,471.0,-0.4822,-0.0305,9.719,-0.0454,0.0273,-0.1235,-1.9475909672179164,0.0,3.556209087371826,-1.6560206413269043,-0.0,1.9729580879211426,5.103906500130453,0.0,0.2647848427295685,-1.5416224638568323,0.0,0.00023544934811070561,0.47300392389297485,0.0,-0.0032552361954003572,1.1583467721939087,0.0,-0.021291950717568398
245.0,471.0,-0.4822,-0.0305,9.719,-0.0454,0.0273,-0.1235,-1.9475742779173792,0.0,3.5549395084381104,-1.6560771465301514,-0.0,1.9579721689224243,5.103894161968984,0.0,0.2744886875152588,-1.5416625181781214,0.0,-0.002029574476182461,0.47307270765304565,0.0,0.009783538058400154,1.1583906412124634,0.0,0.0031810642685741186
245.0,471.0,-0.4822,-0.0305,9.719,-0.0454,0.0273,-0.1235,-1.9476186237730921,0.0,3.5151848793029785,-1.656032919883728,-0.0,1.986188530921936,5.10391457655982,0.0,0.27150580286979675,-1.5416424910174769,0.0,0.0028509865514934063,0.47301992774009705,0.0,0.009632171131670475,1.158362627029419,0.0,0.032393090426921844
245.0,471.0,-0.4822,-0.0305,9.719,-0.0454,0.0273,-0.1235,-1.947606702844137,0.0,3.5796384811401367,-1.6561213731765747,-0.0,2.021029233932495,5.103842156916418,0.0,0.2746598720550537,-1.5416424910174769,0.0,0.003939958289265633,0.4730120599269867,0.0,-0.002558840671554208,1.1583906412124634,0.0,-0.029463384300470352
245.0,471.0,-0.4822,-0.0305,9.719,-0.0454,0.0273,-0.1235,-1.9475823841490687,0.0,3.596975088119507,-1.6560852527618408,-0.0,1.9721081256866455,5.103922474175253,0.0,0.2719620168209076,-1.5416143576251429,0.0,-0.0006104374770075083,0.47303223609924316,0.0,-0.0029220767319202423,1.1582789421081543,0.0,0.02869461476802826
245.0,471.0,-0.4822,-0.0305,9.719,-0.0454,0.0273,-0.1235,-1.9476548633971156,0.0,3.585217237472534,-1.6560609340667725,-0.0,1.9840567111968994,5.10387002208785,0.0,0.26481279730796814,-1.5416181723224085,0.0,-0.005213332362473011,0.47302404046058655,0.0,0.003493059892207384,1.1583665609359741,0.0,-0.00623060530051589
245.0,471.0,-0.4822,-0.0305,9.719,-0.0454,0.0273,-0.1235,-1.9476267300047816,0.0,3.614962577819824,-1.6560934782028198,-0.0,1.987177848815918,5.103906500130453,0.0,0.2841784358024597,-1.5416300932513636,0.0,-0.00750230485573411,0.47303223609924316,0.0,0.012643719092011452,1.1583387851715088,0.0,-0.04354601725935936
239.0,454.0,-0.4379,0.0012,9.6491,-0.042,0.0279,-0.1268,-1.9475985966124476,0.0,3.564551830291748,-1.656072735786438,-0.0,1.975550651550293,5.103929984360494,0.0,0.273423433303833,-1.5416019598590296,0.0,0.006769931875169277,0.4730203449726105,0.0,0.002417606534436345,1.1583268642425537,0.0,-0.025982288643717766
239.0,454.0,-0.4379,0.0012,9.6491,-0.042,0.0279,-0.1268,-1.9475909672179164,0.0,3.575960159301758,-1.6560685634613037,-0.0,1.941878318786621,5.103902357607641,0.0,0.281677782535553,-1.5416706244098108,0.0,-0.0061447895132005215,0.4730847179889679,0.0,-0.0004518709029071033,1.1583309173583984,0.0,0.00043919263407588005
239.0,454.0,-0.4379,0.0012,9.6491,-0.042,0.0279,-0.1268,-1.9475985966124476,0.0,3.5716042518615723,-1.6560975313186646,-0.0,1.9704418182373047,5.103902357607641,0.0,0.26013103127479553,-1.541654411946432,0.0,-0.0002517770044505596,0.473080575466156,0.0,0.004332202486693859,1.1583150625228882,0.0,-0.030627351254224777
239.0,454.0,-0.4379,0.0012,9.6491,-0.042,0.0279,-0.1268,-1.9476148090758265,0.0,3.5737318992614746,-1.6560686826705933,-0.0,1.973078727722168,5.103849994927206,0.0,0.27156591415405273,-1.5416019598590296,0.0,-0.005556770600378513,0.4730566740036011,0.0,-0.007452919147908688,1.1583348512649536,0.0,0.025675274431705475
239.0,454.0,-0.4379,0.0012,9.6491,-0.042,0.0279,-0.1268,-1.947578569451803,0.0,3.569319248199463,-1.6560810804367065,-0.0,1.957839846611023,5.103902357607641,0.0,0.2647239565849304,-1.5415986219989222,0.0,0.0035695501137524843,0.47299984097480774,0.0,-0.020236924290657043,1.1583906412124634,0.0,-0.014040332287549973
239.0,454.0,-0.4379,0.0012,9.6491,-0.042,0.0279,-0.1268,-1.9475985966124476,0.0,3.558014392852783,-1.6560370922088623,-0.0,2.0051450729370117,5.103870051890173,0.0,0.271957129240036,-1.5416348616229456,0.0,0.0012787265004590154,0.47300800681114197,0.0,-0.004623361863195896,1.1583704948425293,0.0,-0.009323841892182827
239.0,454.0,-0.4379,0.0012,9.6491,-0.042,0.0279,-0.1268,-1.9475742779173792,0.0,3.515275478363037,-1.6560449600219727,-0.0,1.9986310005187988,5.1038618860538385,0.0,0.2735758423805237,-1.5416587034808558,0.0,-0.004682480823248625,0.47305265069007874,0.0,-0.0038581748958677053,1.158362627029419,0.0,0.030180230736732483
239.0,454.0,-0.4379,0.0012,9.6491,-0.042,0.0279,-0.1268,-1.947578569451803,0.0,3.61381196975708,-1.6560934782028198,-0.0,1.9269065856933594,5.1038823304469965,0.0,0.27191275358200073,-1.5416386763202112,0.0,0.0012782530393451452,0.4730485677719116,0.0,0.00204173824749887,1.158354640007019,0.0,0.01386723667383194
239.0,454.0,-0.4379,0.0012,9.6491,-0.042,0.0279,-0.1268,-1.9475943050780238,0.0,3.560178279876709,-1.6560567617416382,-0.0,1.944535255432129,5.103922503977575,0.0,0.2765600085258484,-1.5416224638568323,0.0,0.006096161436289549,0.47296786308288574,0.0,-0.006172116845846176,1.158362627029419,0.0,0.040181100368499756
239.0,454.0,-0.4379,0.0012,9.6491,-0.042,0.0279,-0.1268,-1.9475985966124476,0.0,3.5868473052978516,-1.6560893058776855,-0.0,1.9760289192199707,5.103934037476339,0.0,0.2547973394393921,-1.5416181723224085,0.0,0.0004585843998938799,0.47306039929389954,0.0,-0.0003965857904404402,1.1583788394927979,0.0,-0.02801990695297718
239.0,454.0,-0.4379,0.0012,9.6491,-0.042,0.0279,-0.1268,-1.947549959222311,-1.719462905391822e-10,3.577580451965332,-1.6561213731765747,-0.0,1.9727654457092285,5.103898274689474,0.0,0.28667256236076355,-1.5416181723224085,0.0,-0.006856909487396479,0.47308871150016785,0.0,-0.006009495817124844,1.1583467721939087,0.0,-0.047620292752981186
239.0,454.0,-0.4379,0.0012,9.6491,-0.042,0.0279,-0.1268,-1.9475661716856898,-4.1523010912283896e-16,3.574525833129883,-1.6561253070831299,-0.0,1.9502735137939453,5.103829878359594,0.0,0.2722483277320862,-1.5416057745562952,0.0,-0.0013681737473234534,0.47301992774009705,0.0,0.0024843825958669186,1.1583467721939087,0.0,0.028620481491088867
239.0,454.0,-0.4379,0.0012,9.6491,-0.042,0.0279,-0.1268,-1.947578569451803,-1.345293095505153e-23,3.5664267539978027,-1.6560485363006592,-0.0,1.967290997505188,5.103906500130453,0.0,0.26766180992126465,-1.5416467825519007,0.0,0.011440146714448929,0.4730203151702881,0.0,0.009153589606285095,1.1583467721939087,0.0,-0.024940505623817444
239.0,454.0,-0.4379,0.0012,9.6491,-0.042,0.0279,-0.1268,-1.9475909672179164,-3.24872423218112e-29,3.6081037521362305,-1.6560330390930176,-0.0,1.9710109233856201,5.103926586895742,0.0,0.263227641582489,-1.5416343847857874,0.0,-0.001564770471304655,0.47303223609924316,0.0,-0.001662430469878018,1.1583665609359741,0.0,-0.01421637274324894
241.0,447.0,-0.4822,-0.0156,9.5563,-0.0382,0.0162,-0.1161,-1.947594781915182,-7.845287179530112e-35,3.5875682830810547,-1.6560567617416382,-0.0,2.0392675399780273,5.1038540480430505,0.0,0.28287649154663086,-1.5415824095355433,0.0,-0.00039455891237594187,0.472984254360199,0.0,-0.0010682737920433283,1.158362627029419,0.0,0.015018395148217678
241.0,447.0,-0.4822,-0.0156,9.5563,-0.0382,0.0162,-0.1161,-1.9475823841490687,-1.8945415107825094e-40,3.565033435821533,-1.6560567617416382,-0.0,1.9868910312652588,5.103865968972006,0.0,0.2654097080230713,-1.5416224638568323,0.0,-0.0012087752111256123,0.47303226590156555,0.0,0.0055745551362633705,1.1583507061004639,0.0,0.013243543915450573
241.0,447.0,-0.4822,-0.0156,9.5563,-0.0382,0.0162,-0.1161,-1.9475466213622035,-0.0,3.561039924621582,-1.6560851335525513,-0.0,1.9755134582519531,5.103865968972006,0.0,0.26520001888275146,-1.541654411946432,0.0,0.0012165821390226483,0.47307640314102173,0.0,0.0018407364841550589,1.1583585739135742,0.0,-0.019535744562745094
241.0,447.0,-0.4822,-0.0156,9.5563,-0.0382,0.0162,-0.1161,-1.9475985966124476,0.0,3.553396701812744,-1.656032919883728,-0.0,1.98395574092865,5.103906500130453,0.0,0.2722170352935791,-1.5416463057147425,0.0,-0.0101957181468606,0.4730563461780548,0.0,-0.0020510016474872828,1.1583507061004639,0.0,0.03812548518180847
241.0,447.0,-0.4822,-0.0156,9.5563,-0.0382,0.0162,-0.1161,-1.947622915307516,0.0,3.555769920349121,-1.656105637550354,-0.0,2.0043561458587646,5.103902357607641,0.0,0.2642984390258789,-1.5416224638568323,0.0,0.0049160802736878395,0.473040372133255,0.0,0.0038111405447125435,1.158354640007019,0.0,-0.0031464602798223495
241.0,447.0,-0.4822,-0.0156,9.5563,-0.0382,0.0162,-0.1161,-1.9475542507567347,0.0,3.5454301834106445,-1.656053066253662,-0.0,1.9847533702850342,5.103878187924185,0.0,0.26892444491386414,-1.5416267553912562,0.0,-0.006238590460270643,0.47302812337875366,0.0,0.003389822319149971,1.1583788394927979,0.0,-0.018073398619890213
241.0,447.0,-0.4822,-0.0156,9.5563,-0.0382,0.0162,-0.1161,-1.9475661716856898,0.0,3.5658435821533203,-1.656069040298462,-0.0,1.9424664974212646,5.1038540480430505,0.0,0.27478277683258057,-1.541610066090719,0.0,-0.0004685580497607589,0.47305259108543396,0.0,-0.0011732648126780987,1.1583665609359741,0.0,0.035345058888196945
241.0,447.0,-0.4822,-0.0156,9.5563,-0.0382,0.0162,-0.1161,-1.9476267300047816,0.0,3.598559856414795,-1.656080961227417,-0.0,1.9521373510360718,5.1038540480430505,0.0,0.2789553999900818,-1.541654411946432,0.0,0.003746932838112116,0.47306039929389954,0.0,-0.00260307383723557,1.1583467721939087,0.0,0.07226009666919708
241.0,447.0,-0.4822,-0.0156,9.5563,-0.0382,0.0162,-0.1161,-1.9476105175414027,0.0,3.575101852416992,-1.6560407876968384,-0.0,1.9220834970474243,5.103902357607641,0.0,0.2711029052734375,-1.5416343847857874,0.0,-0.0004091960145160556,0.47306081652641296,0.0,0.003446584567427635,1.1583585739135742,0.0,-0.023278746753931046
241.0,447.0,-0.4822,-0.0156,9.5563,-0.0382,0.0162,-0.1161,-1.9476186237730921,0.0,3.58561372756958,-1.6560893058776855,-0.0,1.9743695259094238,5.103886055737295,2.481075123128562e-09,0.26665380597114563,-1.5417020956622522,0.0,0.0011460832320153713,0.47308456897735596,0.0,-0.00036569777876138687,1.158342719078064,0.0,-0.02281217649579048
241.0,447.0,-0.4822,-0.0156,9.5563,-0.0382,0.0162,-0.1161,-1.9476429424681605,0.0,3.5737204551696777,-1.6560769081115723,-0.0,1.972086787223816,5.10396226027564,0.0009463677415624261,0.2675895094871521,-1.541689697896139,0.0,-0.002829014090821147,0.47305265069007874,0.0,0.010742638260126114,1.1583906412124634,-2.4765429884610057e-07,-0.004294170066714287
241.0,447.0,-0.4822,-0.0156,9.5563,-0.0382,0.0162,-0.1161,-1.9475823841490687,0.0,3.5507314205169678,-1.6560571193695068,-0.0,1.9638044834136963,5.103929954558172,0.0015763667179271579,0.2762569785118103,-1.5417102018939417,0.0,-0.013043457642197609,0.4730682373046875,0.0,0.008141780272126198,1.1584465503692627,-5.980560014232084e-13,-0.039003439247608185
241.0,447.0,-0.4822,-0.0156,9.5563,-0.0382,0.0162,-0.1161,-1.9475623569884242,0.00013131991727277637,3.5743746757507324,-1.656029224395752,-5.292891472330474e-11,2.016296625137329,5.103925871640005,0.002152287168428302,0.28311628103256226,-1.5416982809649866,0.0,-0.008880618028342724,0.47297197580337524,0.0,0.005912180058658123,1.1584347486495972,0.0034290202893316746,-0.015346609987318516
241.0,447.0,-0.4822,-0.0156,9.5563,-0.0382,0.0162,-0.1161,-1.947538515130514,0.0015226415125653148,3.557363986968994,-1.656069040298462,0.0010371110402047634,2.023012161254883,5.1039819596107385,0.0037506266962736845,0.2805625796318054,-1.5417102018939417,-0.00016012789274100214,-0.006196727976202965,0.4730645716190338,0.0,-0.0011911262990906835,1.158474326133728,0.0014332372229546309,-0.004602907225489616
241.0,447.0,-0.4822,-0.0156,9.5563,-0.0382,0.0162,-0.1161,-1.9474946461119593,0.0013399145100265741,3.571906089782715,-1.6560168266296387,0.0005172611563466489,1.9816298484802246,5.103973763972082,0.009408954530954361,0.2791646718978882,-1.5416982809649866,1.493614945502486e-05,-0.014057284221053123,0.47304031252861023,0.0,0.009233388118445873,1.1584621667861938,0.0005854032351635396,0.041403792798519135
239.0,457.0,-0.0975,-1.1803,9.7304,-0.035,0.0371,-0.0887,-1.9475304088988246,0.0007128611323423684,3.62174916267395,-1.6560730934143066,0.00011714892025338486,1.94282865524292,5.104081797390737,0.020076505839824677,0.2827215790748596,-1.5416939894305628,4.157532096371597e-09,-0.008789584040641785,0.47305262088775635,0.0,0.016307204961776733,1.158466100692749,0.0003933326224796474,-0.0026444520335644484
239.0,457.0,-0.0975,-1.1803,9.7304,-0.035,0.0371,-0.0887,-1.947538515130514,0.0003236431221012026,3.562215805053711,-1.6560490131378174,6.5242491409378545e-09,1.9950547218322754,5.104185479670324,0.0154464365914464,0.2889649271965027,-1.5416939894305628,1.1572642800647404e-12,-0.014122631400823593,0.4730805456638336,0.0,-0.006191464141011238,1.158466100692749,0.0002962011785712093,-0.007367650046944618
239.0,457.0,-0.0975,-1.1803,9.7304,-0.035,0.0371,-0.0887,-1.947550436059469,-0.0002560229622758925,3.625234603881836,-1.656052589416504,2.1137737638977607e-16,1.993685007095337,5.104173141508856,0.00351263047195971,0.2872123122215271,-1.5417426268206995,2.103270654613481e-17,-0.003803607542067766,0.4730563163757324,0.0,-0.007238301448523998,1.1584584712982178,6.337498052744195e-05,0.01185712218284607
239.0,457.0,-0.0975,-1.1803,9.7304,-0.035,0.0371,-0.0887,-1.9475017986693324,-0.0003254643816035241,3.5608177185058594,-1.6560691595077515,5.104514697374024e-22,1.97252357006073,5.104201513319769,-0.0033264632802456617,0.27412623167037964,-1.5417464415179651,5.854531536263876e-21,-0.007875888608396053,0.47302401065826416,0.0,-0.006437413394451141,1.158482313156128,0.0007590665481984615,-0.024039851501584053
239.0,457.0,-0.0975,-1.1803,9.7304,-0.035,0.0371,-0.0887,-1.947578569451803,-0.0002728224790189415,3.527425765991211,-1.6560732126235962,1.23268038680787e-27,2.0203962326049805,5.104149567871847,-0.001990126445889473,0.2705412805080414,-1.5417059103595179,1.6296304357273766e-24,-0.006692483089864254,0.4730120897293091,0.0,-0.005943010561168194,1.1584664583206177,0.003008556319400668,-0.007112209685146809
239.0,457.0,-0.0975,-1.1803,9.7304,-0.035,0.0371,-0.0887,-1.9476429424681605,-0.00023083244741428643,3.5716590881347656,-1.656089186668396,2.976777812984205e-33,1.9415366649627686,5.104153740196981,-0.0006852669175714254,0.2695355713367462,-1.541689697896139,4.536136538742937e-28,-0.013967251405119896,0.4730243980884552,0.0,0.0023044550325721502,1.1585421562194824,0.00258261663839221,-0.00796530582010746
239.0,457.0,-0.0975,-1.1803,9.7304,-0.035,0.0371,-0.0887,-1.947549959222311,-0.00020004484395030886,3.59824800491333,-1.6560649871826172,7.188568636287666e-39,1.9785082340240479,5.104169416218557,-0.00043467379873618484,0.2699512839317322,-1.5416777769671839,1.2626500864202201e-31,-0.001169612631201744,0.47303223609924316,0.0,-0.0071710580959916115,1.1585063934326172,0.001428949530236423,0.020367436110973358
239.0,457.0,-0.0975,-1.1803,9.7304,-0.035,0.0371,-0.0887,-1.947606702844137,-0.00016984244575724006,3.5572357177734375,-1.6561098098754883,0.0,2.0052125453948975,5.104197311192312,-0.000292968878056854,0.27404317259788513,-1.5416739622699183,2.2948049289120587e-36,-0.007671229541301727,0.47301623225212097,0.0,-0.01057483535259962,1.1585021018981934,0.0007961390074342489,-0.006576450541615486
239.0,457.0,-0.0975,-1.1803,9.7304,-0.035,0.0371,-0.0887,-1.9475623569884242,-0.00015256655751727521,3.578279972076416,-1.6561089754104614,-0.0,1.9863519668579102,5.104185151844778,-0.0002354443713556975,0.275600403547287,-1.541701618825094,6.387678919778246e-40,-0.003597263479605317,0.47302401065826416,0.0,-0.0017061794642359018,1.158494234085083,0.0005977581022307277,-0.0069440798833966255
239.0,457.0,-0.0975,-1.1803,9.7304,-0.035,0.0371,-0.0887,-1.947594781915182,-0.00018466851906850934,3.5424156188964844,-1.6561212539672852,-0.0,1.9822077751159668,5.1041612205799005,-0.00019681018602568656,0.27289628982543945,-1.541650120412008,1.7796490496925177e-43,-0.004256408661603928,0.4730322062969208,0.0,-0.0004944826941937208,1.1584981679916382,0.0004785385390277952,0.03840186446905136
239.0,457.0,-0.0975,-1.1803,9.7304,-0.035,0.0371,-0.0887,-1.9475985966124476,-0.0002619833394419402,3.5795326232910156,-1.6560571193695068,-0.0,1.9678022861480713,5.104153024941244,-0.00016907218378037214,0.26065823435783386,-1.5417264143573206,0.0,-0.008287962526082993,0.47303223609924316,0.0,-0.01600877195596695,1.1585341691970825,0.0003989741380792111,0.0159075278788805
239.0,457.0,-0.0975,-1.1803,9.7304,-0.035,0.0371,-0.0887,-1.9476386509337367,-0.0019720792770385742,3.5218796730041504,-1.655993103981018,0.00012128151138313115,1.9726399183273315,5.104169118195333,-0.0001423285430064425,0.26847970485687256,-1.5416458288775843,0.0,0.001016909722238779,0.4729960858821869,0.0,-4.060426726937294e-05,1.1585341691970825,0.000326579378452152,-0.020988326519727707
239.0,457.0,-0.0975,-1.1803,9.7304,-0.035,0.0371,-0.0887,-1.9476663074889125,-0.0023078143130987883,3.563828468322754,-1.6559206247329712,0.0025200643576681614,2.0016233921051025,5.104153054743566,-9.571251575835049e-05,0.2643502950668335,-1.5416744391070765,0.0,0.0015074184630066156,0.4729556143283844,0.0,0.0013681248528882861,1.158502221107483,0.00028746118186973035,0.07352573424577713
239.0,457.0,-0.0975,-1.1803,9.7304,-0.035,0.0371,-0.0887,-1.9476624927916468,-0.0020192975644022226,3.541123390197754,-1.6559888124465942,0.001250817091204226,1.9487425088882446,5.10419328787879,-0.00011309681576676667,0.25275933742523193,-1.5416625181781214,0.0,-0.0003891396336257458,0.4729919731616974,0.0,0.0011550670024007559,1.1585382223129272,0.00025671158800832927,-0.011360823176801205
238.0,442.0,-0.5683,-0.8195,9.4857,-0.0582,0.0182,-0.0846,-1.9477106533446253,-0.0017252571415156126,3.5703859329223633,-1.656053900718689,-0.0005189348594285548,1.9346842765808105,5.104165303498068,-2.8146951080998406e-05,0.273760586977005,-1.5416258017169397,0.0,-0.007454671896994114,0.473048597574234,0.0,0.00740616861730814,1.1585021018981934,0.00023190562205854803,-0.012036054395139217
238.0,442.0,-0.5683,-0.8195,9.4857,-0.0582,0.0182,-0.0846,-1.9476820431151332,-0.0012634434970095754,3.5803029537200928,-1.6560453176498413,-0.00024308799766004086,1.9922974109649658,5.1041694460208795,-5.008963489672169e-05,0.2660042643547058,-1.5416582266436976,0.0,-0.0022894972935318947,0.4730485677719116,0.0,0.0002715537848416716,1.158514142036438,0.00021147119696252048,-0.018522247672080994
238.0,442.0,-0.5683,-0.8195,9.4857,-0.0582,0.0182,-0.0846,-1.9477020702757777,-0.0007620346150361001,3.5406315326690674,-1.6559722423553467,-7.114825950615966e-10,1.9691262245178223,5.104113298445501,-4.525268741417676e-05,0.27207520604133606,-1.5416744391070765,0.0,-0.002238563960418105,0.47307270765304565,0.0,-0.0014611829537898302,1.1585421562194824,0.0001892385189421475,-0.008827151730656624
238.0,442.0,-0.5683,-0.8195,9.4857,-0.0582,0.0182,-0.0846,-1.947714468041891,-0.0005590554792433977,3.5519871711730957,-1.6560137271881104,-1.7181463000452116e-15,1.9523751735687256,5.104177611857214,-4.207891834084876e-05,0.26907724142074585,-1.5416620413409632,0.0,0.0006510012317448854,0.4730522334575653,0.0,-0.005440318025648594,1.1585341691970825,0.00017540766566526145,0.020328328013420105
238.0,442.0,-0.5683,-0.8195,9.4857,-0.0582,0.0182,-0.0846,-1.9477187595763148,-0.0004414873255882412,3.642228841781616,-1.656009554862976,-4.1491213927978644e-21,1.9893301725387573,5.1041694460208795,-3.932117760996334e-05,0.27392303943634033,-1.5416820685016077,0.0,0.005387833807617426,0.47298792004585266,0.0,0.010285433381795883,1.1585263013839722,0.00014302835916168988,0.05347052961587906
238.0,442.0,-0.5683,-0.8195,9.4857,-0.0582,0.0182,-0.0846,-1.947702547112936,-0.0004161550896242261,3.5569491386413574,-1.655956745147705,-1.0019639750466906e-26,1.9812204837799072,5.104117232352056,-5.527208122657612e-05,0.26693645119667053,-1.5416582266436976,0.0,0.00583798298612237,0.4730563163757324,0.0,-0.0029163621366024017,1.158486247062683,5.050658364780247e-05,0.013362651690840721
238.0,442.0,-0.5683,-0.8195,9.4857,-0.0582,0.0182,-0.0846,-1.9476820431151332,-0.00025796363479457796,3.5462069511413574,-1.6560693979263306,-2.419625229041913e-32,1.9951027631759644,5.104129272490301,-5.2146671805530787e-05,0.2673385739326477,-1.5416625181781214,0.0,-0.007467036135494709,0.4730043113231659,0.0,0.006051615811884403,1.158494234085083,2.0650757505791262e-05,0.031580738723278046
238.0,442.0,-0.5683,-0.8195,9.4857,-0.0582,0.0182,-0.0846,-1.9477306805052699,-0.0011537272948771715,3.508269786834717,-1.6559847593307495,-7.839283998972324e-40,2.0219688415527344,5.10414149144248,-4.8407004214823246e-05,0.258663535118103,-1.541682545338766,0.0,0.003068299498409033,0.4730362892150879,0.0,-0.008675963617861271,1.1584782600402832,4.3815898825849686e-11,0.03296436741948128
238.0,442.0,-0.5683,-0.8195,9.4857,-0.0582,0.0182,-0.0846,-1.9477225742735804,-0.001603221520781517,3.531885862350464,-1.656029224395752,-1.401298464324817e-45,1.953974962234497,5.104125487595358,-4.593625999405049e-05,0.28214046359062195,-1.541626278554098,0.0,0.0013063342776149511,0.47303223609924316,0.0,0.0038962196558713913,1.1584821939468384,-0.0009937812574207783,0.027004143223166466
238.0,442.0,-0.5683,-0.8195,9.4857,-0.0582,0.0182,-0.0846,-1.9477182827391566,-0.0009110209066420794,3.5522193908691406,-1.6559805870056152,-0.0,1.9511799812316895,5.104145574360647,-4.370551323518157e-05,0.26533201336860657,-1.5416982809649866,0.0,-0.0040329378098249435,0.4730645418167114,0.0,-0.0049611469730734825,1.1584386825561523,-0.0016136991325765848,-0.011959269642829895
238.0,442.0,-0.5683,-0.8195,9.4857,-0.0582,0.0182,-0.0846,-1.9477302036681117,-0.0005664838245138526,3.5252327919006348,-1.6559929847717285,-0.0,2.0029239654541016,5.10414149144248,-4.852467100135982e-05,0.26765376329421997,-1.5416539351092737,0.0,0.005527990870177746,0.47303223609924316,0.0,-0.0033168746158480644,1.1584064960479736,-0.0018487231573089957,-0.009706717915832996
238.0,442.0,-0.5683,-0.8195,9.4857,-0.0582,0.0182,-0.0846,-1.9476901493468226,-0.00022712055942974985,3.5992140769958496,-1.6560094356536865,0.0017807753756642342,1.9914157390594482,5.104084926634588,-5.2342864364618436e-05,0.2697056829929352,-1.541678253804342,0.0,0.008411007933318615,0.4730203151702881,0.0,-0.006464463192969561,1.1583867073059082,-0.0019340069266036153,0.002622416242957115
238.0,442.0,-0.5683,-0.8195,9.4857,-0.0582,0.0182,-0.0846,-1.9477106533446253,0.00015085047925822437,3.5576086044311523,-1.655932903289795,0.003068844322115183,1.9972949028015137,5.1041214046771906,-5.0155253120465204e-05,0.27247050404548645,-1.541654411946432,0.0,-0.002838278189301491,0.4730120897293091,0.0,0.001028378726914525,1.1583669185638428,-0.0017635172698646784,-0.05562064051628113
238.0,442.0,-0.5683,-0.8195,9.4857,-0.0582,0.0182,-0.0846,-1.9476705990233363,0.00023882831737864763,3.5804319381713867,-1.6558645963668823,0.005948119331151247,2.0337486267089844,5.104137408524313,-4.81431488879025e-05,0.2709857225418091,-1.5416744391070765,0.0,-0.00838611088693142,0.47305262088775635,0.0,-0.004315975587815046,1.1583467721939087,-0.00149094732478261,-0.03004651702940464
243.0,478.0,-0.3039,0.0921,9.8806,-0.0264,0.0399,-0.137,-1.9476705990233363,0.0002009194577112794,3.5762531757354736,-1.6558127403259277,0.007919887080788612,1.989564061164856,5.1041094837482355,-4.628618626156822e-05,0.26214680075645447,-1.541654411946432,0.0,0.00239740451797843,0.47306039929389954,0.0,-0.00919151958078146,1.1583669185638428,-0.0011711969273164868,-0.04929235950112343
243.0,478.0,-0.3039,0.0921,9.8806,-0.0264,0.0399,-0.137,-1.9477187595763148,0.00017210046644322574,3.5630784034729004,-1.6557971239089966,0.008161244913935661,2.0069692134857178,5.104105400830068,-4.456712485989556e-05,0.2667199671268463,-1.5416625181781214,0.0,0.0017102786805480719,0.47306862473487854,0.0,-0.006899545900523663,1.1583986282348633,-0.0009214751189574599,-0.01724116876721382
243.0,478.0,-0.3039,0.0921,9.8806,-0.0264,0.0399,-0.137,-1.9476944408812464,0.00014447206922341138,3.5451602935791016,-1.6556962728500366,0.00822928175330162,2.0227179527282715,5.104181724577703,-8.409708243561909e-05,0.269634872674942,-1.5416143576251429,0.0,0.00965874269604683,0.4730363190174103,0.0,-0.0020301330368965864,1.1584184169769287,-0.0005835219635628164,-0.018347498029470444
243.0,478.0,-0.3039,0.0921,9.8806,-0.0264,0.0399,-0.137,-1.947714468041891,0.00010491030116099864,3.583451509475708,-1.6556729078292847,0.007717764005064964,2.0132343769073486,5.1040972647960565,-0.00011041659308830276,0.2716400921344757,-1.5416300932513636,0.0,0.016118083149194717,0.47300800681114197,0.0,0.004587281029671431,1.1583747863769531,-0.00045660592149943113,0.0186772458255291
243.0,478.0,-0.3039,0.0921,9.8806,-0.0264,0.0399,-0.137,-1.947698255578512,8.699236059328541e-05,3.5561094284057617,-1.6556252241134644,0.006377997808158398,1.9880237579345703,5.1041012583072565,-0.00012096296268282458,0.2668234407901764,-1.5416343847857874,0.0,0.0019736005924642086,0.47298792004585266,0.0,-0.0029930181335657835,1.1583906412124634,-0.00037504377542063594,-0.04476797580718994
243.0,478.0,-0.3039,0.0921,9.8806,-0.0264,0.0399,-0.137,-1.9476663074889125,7.59759932407178e-05,3.5345044136047363,-1.6556252241134644,0.005005921237170696,1.99163818359375,5.104113566666403,-0.00042786175617948174,0.2634369134902954,-1.5416057745562952,0.0,0.014983698725700378,0.4730522334575653,0.0,0.0006400359561666846,1.1583986282348633,-0.00031820754520595074,-0.010007118806242943
243.0,478.0,-0.3039,0.0921,9.8806,-0.0264,0.0399,-0.137,-1.947698255578512,3.508550798869692e-05,3.55090594291687,-1.6555688381195068,0.004548097029328346,2.003906011581421,5.104133713036337,-0.0003586369566619396,0.2593338191509247,-1.541626278554098,0.0,0.012501515448093414,0.47301992774009705,0.0,0.010499775409698486,1.158394694328308,-0.00011475529754534364,-0.008515915833413601
243.0,478.0,-0.3039,0.0921,9.8806,-0.0264,0.0399,-0.137,-1.947742601434225,2.932359893748071e-05,3.520678997039795,-1.6555490493774414,0.0042495205998420715,1.9909558296203613,5.104057478695669,-0.00028333623777143657,0.26762521266937256,-1.5416625181781214,0.0,0.015800675377249718,0.4730079770088196,0.0,0.007552084047347307,1.158382773399353,-7.701820868533105e-05,-0.002430572872981429
243.0,478.0,-0.3039,0.0921,9.8806,-0.0264,0.0399,-0.137,-1.947742601434225,2.671253059816081e-05,3.5455541610717773,-1.6554725170135498,0.004222818650305271,1.9592658281326294,5.104121792107382,-0.0002447917067911476,0.2652893364429474,-1.5416539351092737,0.0,0.0021351254545152187,0.4730203151702881,0.0,0.008065957576036453,1.1583747863769531,-6.82561076246202e-05,0.0052805752493441105
243.0,478.0,-0.3039,0.0921,9.8806,-0.0264,0.0399,-0.137,-1.9477106533446253,4.66956429079346e-09,3.5393004417419434,-1.655509114265442,0.004377732984721661,2.010800361633301,5.104077565460958,-0.00025122833903878927,0.28404274582862854,-1.5416582266436976,0.0,0.01068027038127184,0.4729679226875305,0.0,-0.011885580606758595,1.1584025621414185,-6.128412496764213e-05,0.04367459565401077
243.0,478.0,-0.3039,0.0921,9.8806,-0.0264,0.0399,-0.137,-1.9477259121336878,1.127644798284283e-14,3.604750156402588,-1.6554651260375977,0.005463243927806616,2.000515937805176,5.104077178030767,-0.0002245134237455204,0.2690475285053253,-1.541610066090719,1.0496355571376625e-05,-0.0015516027342528105,0.47301623225212097,0.0,0.00026677586720325053,1.1583669185638428,-5.560458157560788e-05,-0.010499337688088417
243.0,478.0,-0.3039,0.0921,9.8806,-0.0264,0.0399,-0.137,-1.9477182827391566,3.653425383276891e-22,3.542631149291992,-1.6553932428359985,0.007405570242553949,1.9906281232833862,5.104089456587591,-0.00019649951718747616,0.27380526065826416,-1.5416582266436976,2.115170718752779e-05,0.017948513850569725,0.47300800681114197,0.0,-0.005323030985891819,1.1584184169769287,-4.948930290993303e-05,-0.01641317643225193
243.0,478.0,-0.3039,0.0921,9.8806,-0.0264,0.0399,-0.137,-1.9476901493468226,8.822592630600597e-28,3.559504508972168,-1.6553449630737305,0.009344475343823433,1.9569833278656006,5.104125875025549,-0.00017968457541428506,0.26921164989471436,-1.5416820685016077,2.0431640223250724e-05,0.0050153061747550964,0.4730722904205322,0.0,-0.005265692714601755,1.1583788394927979,-2.2966940377955325e-05,0.01656474731862545
243.0,478.0,-0.3039,0.0921,9.8806,-0.0264,0.0399,-0.137,-1.947674413720602,2.1305522867967024e-33,3.55108642578125,-1.6552729606628418,0.011713472194969654,1.970810890197754,5.104101407318868,-0.00016552125453017652,0.25507062673568726,-1.541706387196676,5.076727575215045e-06,0.010276701301336288,0.4730120897293091,0.0,-0.005661731585860252,1.1583867073059082,-2.124069033015985e-05,-0.01271872129291296
242.0,451.0,-0.2991,0.0867,9.6742,-0.037,0.025,-0.1151,-1.9477344952025355,5.145032664987356e-39,3.544053554534912,-1.6551932096481323,0.013951420783996582,2.0005364418029785,5.104085403471746,-0.00015342743427027017,0.2647102475166321,-1.541650120412008,1.4131259495897552e-09,0.004830069839954376,0.4730002284049988,0.0,0.006565148010849953,1.1584504842758179,-1.9836239516735077e-05,-0.009280921891331673
242.0,451.0,-0.2991,0.0867,9.6742,-0.037,0.025,-0.1151,-1.9477020702757777,1.2611686178923354e-44,3.5342538356781006,-1.6551010608673096,0.01669713482260704,1.983400821685791,5.104113626271047,-0.00014298064343165606,0.26787328720092773,-1.5416701475726526,3.9334890054344707e-13,-0.007753814570605755,0.47305262088775635,0.0,-0.009068370796740055,1.158394694328308,-7.450029215760878e-07,-0.008782491087913513
242.0,451.0,-0.2991,0.0867,9.6742,-0.037,0.025,-0.1151,-1.9477383098998011,0.0,3.5132884979248047,-1.6549973487854004,0.01876734010875225,1.9947103261947632,5.1040935693080804,-0.00014980412379372865,0.264880508184433,-1.5417020956622522,7.148921678879343e-18,-0.005285946186631918,0.47305262088775635,0.0,0.00402598362416029,1.1584306955337524,-2.4137149120780424e-14,0.02727525494992733
242.0,451.0,-0.2991,0.0867,9.6742,-0.037,0.025,-0.1151,-1.9477058849730433,0.0,3.6055357456207275,-1.6547883749008179,0.020666509866714478,2.047964572906494,5.104073482542791,-0.00014105450827628374,0.26358169317245483,-1.5416620413409632,1.9899283663383584e-21,-0.0022193833719938993,0.4730645418167114,0.0,0.002602318301796913,1.1583788394927979,-5.828837400045161e-20,0.04539266973733902
242.0,451.0,-0.2991,0.0867,9.6742,-0.037,0.025,-0.1151,-1.9477588138976039,0.0,3.553985118865967,-1.6547373533248901,0.022074207663536072,1.995796799659729,5.10409768202857,-0.00011564787564566359,0.27219951152801514,-1.5416701475726526,5.539039108044305e-25,-0.009379285387694836,0.4730363190174103,0.0,0.00021224608644843102,1.1583986282348633,-1.4075959443625438e-25,0.015927985310554504
242.0,451.0,-0.2991,0.0867,9.6742,-0.037,0.025,-0.1151,-1.9477502308287562,-0.0009746269788593054,3.5372209548950195,-1.6545566320419312,0.022670621052384377,2.011347770690918,5.104093897133627,-0.0001459562045056373,0.26560577750205994,-1.5416339079486292,1.541812004034573e-28,-0.0072745634242892265,0.4730120897293091,0.0,0.013136770576238632,1.1584385633468628,-3.3991784248660298e-31,0.02477792464196682
242.0,451.0,-0.2991,0.0867,9.6742,-0.037,0.025,-0.1151,-1.947766443292135,-0.002218262292444706,3.5005624294281006,-1.654464840888977,0.023402223363518715,2.0098657608032227,5.104061561613836,-0.0005057197995483875,0.26926153898239136,-1.541638199483053,4.291689614170656e-32,-0.03876461833715439,0.47306862473487854,0.0,0.004707912914454937,1.1584385633468628,-8.208615379008122e-37,0.04879093915224075
242.0,451.0,-0.2991,0.0867,9.6742,-0.037,0.025,-0.1151,-1.9477821789183558,-0.0025197232607752085,3.5086026191711426,-1.6542246341705322,0.023664873093366623,2.02408766746521,5.104029196291723,-0.00042297065374441445,0.2549891471862793,-1.5415905157672327,7.79993486547082e-37,-0.02320440486073494,0.47299617528915405,0.0,0.002538746688514948,1.1584346294403076,-2.6624670822171524e-44,0.021500099450349808
242.0,451.0,-0.2991,0.0867,9.6742,-0.037,0.025,-0.1151,-1.9478022060790003,-0.0020499704405665398,3.4997177124023438,-1.654077410697937,0.023820335045456886,2.0079398155212402,5.1040935693080804,-0.0003701241221278906,0.24834731221199036,-1.5416143576251429,2.171143814655585e-40,-0.015015080571174622,0.47300392389297485,0.0,0.005576247349381447,1.1583788394927979,0.0,0.035865668207407
242.0,451.0,-0.2991,0.0867,9.6742,-0.037,0.025,-0.1151,-1.9477979145445765,-0.0015681660734117031,3.55871319770813,-1.6539416313171387,0.02545846812427044,2.0223641395568848,5.1040698168571375,-0.00033563279430381954,0.25877130031585693,-1.5416224638568323,6.025583396596713e-44,-0.011363337747752666,0.4730522334575653,0.0,-0.0018567120423540473,1.1583906412124634,0.0,0.07032448798418045
242.0,451.0,-0.2991,0.0867,9.6742,-0.037,0.025,-0.1151,-1.9478346310057582,-0.001093114260584116,3.547654628753662,-1.6537811756134033,0.02466214820742607,1.9982024431228638,5.10406984665946,-0.00033130758674815297,0.2578945755958557,-1.5415986219989222,0.0,-0.019660398364067078,0.47306862473487854,0.0,0.00024982617469504476,1.1583629846572876,0.0,0.029361654072999954
242.0,451.0,-0.2991,0.0867,9.6742,-0.037,0.025,-0.1151,-1.9477979145445765,-0.0009468452772125602,3.4918394088745117,-1.6536695957183838,0.0257568359375,2.0225276947021484,5.104009854584493,-0.0003547363157849759,0.25697267055511475,-1.5416057745562952,0.0,-0.017188655212521553,0.4730321764945984,0.0,-0.0027238414622843266,1.1584144830703735,0.0,0.12144254148006439
242.0,451.0,-0.2991,0.0867,9.6742,-0.037,0.025,-0.1151,-1.9478384457030238,-0.0012338043889030814,3.5190253257751465,-1.653441309928894,0.025467978790402412,2.0639729499816895,5.104089903622427,-0.000779403024353087,0.2536408305168152,-1.5416305700885218,0.0,-0.02004195563495159,0.47300398349761963,0.0,-0.01236865483224392,1.1583867073059082,0.0,0.05875079706311226
242.0,451.0,-0.2991,0.0867,9.6742,-0.037,0.025,-0.1151,-1.9478823147215785,-0.0016236001392826438,3.498911142349243,-1.6532528400421143,0.02590576559305191,2.0009605884552,5.104053842812338,-0.0010274458909407258,0.2626199424266815,-1.5416906515704554,0.0,-0.010325217619538307,0.4730682373046875,0.0,-0.011583997868001461,1.1584064960479736,0.0,0.08357636630535126
236.0,427.0,-0.5318,0.1041,9.585,-0.0379,0.0426,-0.1235,-1.947890420953268,-0.0022801870945841074,3.4657742977142334,-1.6530647277832031,0.026262806728482246,2.050619602203369,5.104049700289526,-0.0014841423835605383,0.25385791063308716,-1.5416386763202112,0.0,-0.015184827148914337,0.4730362594127655,0.0,-0.010452579706907272,1.1583906412124634,0.0,0.05641384795308113
236.0,427.0,-0.5318,0.1041,9.585,-0.0379,0.0426,-0.1235,-1.9479228458800257,-0.0026997923851013184,3.4614639282226562,-1.6529812812805176,0.0259842686355114,2.0518040657043457,5.10396962144927,-0.0025885782670229673,0.23654082417488098,-1.5416505972491663,0.0,-0.019156355410814285,0.47306859493255615,0.0,0.008169530890882015,1.1584306955337524,0.0,0.11964745074510574
236.0,427.0,-0.5318,0.1041,9.585,-0.0379,0.0426,-0.1235,-1.9479104481139125,-0.003453170880675316,3.4311039447784424,-1.6527336835861206,0.026862848550081253,2.005493402481079,5.103934037476339,-0.010280453599989414,0.22320961952209473,-1.5416505972491663,0.0,-0.016556765884160995,0.4730522632598877,0.0,-0.0031274696812033653,1.1584144830703735,0.0,0.10383190214633942
236.0,427.0,-0.5318,0.1041,9.585,-0.0379,0.0426,-0.1235,-1.9479462109007777,-0.0035415790043771267,3.4497852325439453,-1.65257728099823,0.028051797300577164,2.011803388595581,5.103914725571432,-0.016901863738894463,0.24075838923454285,-1.5415986219989222,0.0,-0.01862393692135811,0.4730566740036011,0.0,-0.002227450953796506,1.158394694328308,0.0,0.0550508126616478
236.0,427.0,-0.5318,0.1041,9.585,-0.0379,0.0426,-0.1235,-1.9479419193663539,-0.004116579424589872,3.465322494506836,-1.6524176597595215,0.02950429730117321,2.0474789142608643,5.103802668839254,-0.014727023430168629,0.2298051118850708,-1.5415781180011194,0.0,-0.0172683447599411,0.4730723202228546,0.0,0.0013541211374104023,1.1584025621414185,0.0,0.04517048969864845
236.0,427.0,-0.5318,0.1041,9.585,-0.0379,0.0426,-0.1235,-1.9480186901488246,-0.005142458714544773,3.4366323947906494,-1.6522012948989868,0.03090902790427208,2.0385189056396484,5.103662538319387,-0.012174178846180439,0.23697982728481293,-1.5416057745562952,0.0,-0.01770077459514141,0.47306862473487854,0.0,0.009879364632070065,1.1584223508834839,0.0,0.05004681274294853
236.0,427.0,-0.5318,0.1041,9.585,-0.0379,0.0426,-0.1235,-1.9480344257750453,-0.006039188243448734,3.4405829906463623,-1.6520850658416748,0.032064370810985565,2.037205934524536,5.103603052883901,-0.005300032440572977,0.22949549555778503,-1.5416587034808558,0.0,-0.021800048649311066,0.47301170229911804,0.0,0.004602507222443819,1.1584465503692627,0.0,0.13964378833770752
236.0,427.0,-0.5318,0.1041,9.585,-0.0379,0.0426,-0.1235,-1.9481226406493128,-0.006823679432272911,3.414677619934082,-1.6517091989517212,0.03655190393328667,2.0750136375427246,5.103626805334844,-0.0008313379948958755,0.23686674237251282,-1.5416348616229456,0.0,-0.01294928602874279,0.4730805456638336,0.0,-0.0019861902110278606,1.1584267616271973,0.0,0.13624215126037598
236.0,427.0,-0.5318,0.1041,9.585,-0.0379,0.0426,-0.1235,-1.9481216869749964,-0.007157169748097658,3.408541679382324,-1.6515381336212158,0.03734907880425453,2.0617213249206543,5.103603052883901,-0.0001881636562757194,0.2253563106060028,-1.5416224638568323,0.0,-0.017222300171852112,0.4730682373046875,0.0,0.004103411920368671,1.1584064960479736,0.0,0.07657109946012497
236.0,427.0,-0.5318,0.1041,9.585,-0.0379,0.0426,-0.1235,-1.9481941662230433,-0.007203646004199982,3.351254940032959,-1.6512171030044556,0.039368439465761185,2.0651674270629883,5.1036714790161035,-9.484974725637585e-05,0.21680651605129242,-1.5416343847857874,0.0,-0.010139362886548042,0.47306039929389954,0.0,0.010900861583650112,1.1584187746047974,0.0,0.06776900589466095
236.0,427.0,-0.5318,0.1041,9.585,-0.0379,0.0426,-0.1235,-1.9482180080809535,-0.007203406188637018,3.4269838333129883,-1.6510047912597656,0.04049373045563698,2.0634589195251465,5.1036149738128564,-7.20357711543329e-05,0.2345757931470871,-1.5415905157672327,0.0,-0.011234169825911522,0.47300392389297485,0.0,0.0005377072957344353,1.1584385633468628,0.0,0.07164224982261658
236.0,427.0,-0.5318,0.1041,9.585,-0.0379,0.0426,-0.1235,-1.9482985935606898,-0.006962671875953674,3.401021957397461,-1.6507818698883057,0.04142024740576744,2.0771234035491943,5.103630977659979,-5.8079709560843185e-05,0.22202327847480774,-1.5416424910174769,0.0,-0.0109298937022686,0.4730641543865204,0.0,-0.011581356637179852,1.1583867073059082,0.0,0.03299526497721672
236.0,427.0,-0.5318,0.1041,9.585,-0.0379,0.0426,-0.1235,-1.9483224354186,-0.0059623196721076965,3.4029626846313477,-1.6504212617874146,0.040101587772369385,2.0512309074401855,5.103635060578146,-4.615938087226823e-05,0.22482672333717346,-1.5415619055377405,0.0,-0.016847457736730576,0.4730641543865204,0.0,0.0006418588454835117,1.1584426164627075,0.0,0.017008444294333458
236.0,427.0,-0.5318,0.1041,9.585,-0.0379,0.0426,-0.1235,-1.9483500919737757,-0.005265398882329464,3.3898842334747314,-1.6501820087432861,0.04050639271736145,2.076941967010498,5.103679287224569,-4.0002578316489235e-05,0.20634424686431885,-1.5415986219989222,0.0,0.006004459224641323,0.47309648990631104,0.0,-0.00274840509518981,1.1583867073059082,0.0,0.008514766581356525
232.0,407.0,-0.2871,-0.0885,9.6544,-0.0539,0.0606,-0.1164,-1.9483982525267542,-0.00450492138043046,3.35823392868042,-1.649901270866394,0.03947853669524193,2.0437541007995605,5.103683370142736,-3.529523382894695e-05,0.21255013346672058,-1.5416067282306116,0.0,-0.003983946051448584,0.47306039929389954,0.0,0.0009182553039863706,1.1583986282348633,0.0,0.04127878323197365
232.0,407.0,-0.2871,-0.0885,9.6544,-0.0539,0.0606,-0.1164,-1.948413988152975,-0.0035704474430531263,3.426724910736084,-1.6496939659118652,0.0400574766099453,2.110121250152588,5.103655147343435,-3.157934406772256e-05,0.19632141292095184,-1.5415862242328089,4.1000227213316975e-08,0.004181441850960255,0.47304031252861023,0.0,0.0018635493470355868,1.1584224700927734,0.0,-0.030362378805875778
232.0,407.0,-0.2871,-0.0885,9.6544,-0.0539,0.0606,-0.1164,-1.948413988152975,-0.0030607820954173803,3.354814052581787,-1.6492972373962402,0.04255366697907448,2.073456287384033,5.103594827442922,-2.769221828202717e-05,0.20562167465686798,-1.541602913533346,7.451590343030001e-13,0.0027740774676203728,0.4730280637741089,0.0,-1.0297866538167e-05,1.1583986282348633,0.0,-0.021230056881904602
232.0,407.0,-0.2871,-0.0885,9.6544,-0.0539,0.0606,-0.1164,-1.9484621487059535,-0.0027459277771413326,3.438018798828125,-1.6490694284439087,0.044368818402290344,2.078580141067505,5.103675144701757,-2.5351868316647597e-05,0.22007310390472412,-1.541558090840475,2.0741777529404803e-16,0.002338793594390154,0.4730522632598877,0.0,0.0023418045602738857,1.1583906412124634,0.0,-0.13466188311576843
232.0,407.0,-0.2871,-0.0885,9.6544,-0.0539,0.0606,-0.1164,-1.9484783611693324,-0.0027560030575841665,3.400346040725708,-1.6488057374954224,0.047006167471408844,2.0816426277160645,5.103675144701757,-2.337630940019153e-05,0.19840781390666962,-1.5415743033038538,5.77354942338394e-20,0.015235362574458122,0.47304439544677734,0.0,-0.01154753565788269,1.1584025621414185,0.0,-0.05759979039430618
232.0,407.0,-0.2871,-0.0885,9.6544,-0.0539,0.0606,-0.1164,-1.9485060177245082,-0.002430085791274905,3.4295878410339355,-1.6485419273376465,0.049035508185625076,2.0597496032714844,5.103651064425268,-2.168638093280606e-05,0.20668110251426697,-1.5416138807879847,1.6070885775885052e-23,0.022415880113840103,0.47299569845199585,0.0,-0.002147745108231902,1.1583629846572876,0.0,-0.1679728478193283
232.0,407.0,-0.2871,-0.0885,9.6544,-0.0539,0.0606,-0.1164,-1.9484740696349085,-0.0024525891058146954,3.3435826301574707,-1.6481775045394897,0.05063303932547569,2.094463348388672,5.103634673147955,-2.022435364779085e-05,0.20408612489700317,-1.5415743033038538,4.4733894522653095e-27,0.025701336562633514,0.47302812337875366,0.0,-0.0008065772708505392,1.158354640007019,0.0,-0.1325414776802063
232.0,407.0,-0.2871,-0.0885,9.6544,-0.0539,0.0606,-0.1164,-1.9484578571715296,-0.002208227291703224,3.345978260040283,-1.6477820873260498,0.05257387086749077,2.0801286697387695,5.103646981507101,-1.85563403647393e-05,0.20174357295036316,-1.5415623823748987,8.130165618140253e-32,0.041029803454875946,0.4730722904205322,0.0,-0.0021991287358105183,1.158402681350708,-0.0011673382250592113,-0.13788045942783356
232.0,407.0,-0.2871,-0.0885,9.6544,-0.0539,0.0606,-0.1164,-1.9484816990294398,-0.0017363502411171794,3.3302791118621826,-1.64748215675354,0.05549231171607971,2.0806679725646973,5.103647368937292,-3.0441560738836415e-05,0.21333935856819153,-1.5415905157672327,2.2630610928340318e-35,0.035503946244716644,0.4730563163757324,0.0,0.00348518043756485,1.158354640007019,-0.001463107531890273,-0.1844331920146942
232.0,407.0,-0.2871,-0.0885,9.6544,-0.0539,0.0606,-0.1164,-1.9485141239561976,-0.0014687018701806664,3.3725903034210205,-1.647121787071228,0.05524665489792824,2.1191799640655518,5.103663313179769,-3.302560799056664e-05,0.1986376792192459,-1.541602913533346,6.299314439916387e-39,0.04506966471672058,0.473003625869751,0.0,-0.005927275400608778,1.158342719078064,-0.001485531567595899,-0.10613763332366943
232.0,407.0,-0.2871,-0.0885,9.6544,-0.0539,0.0606,-0.1164,-1.9485260448851527,-0.0015533280093222857,3.3648009300231934,-1.6468064785003662,0.056883011013269424,2.100064277648926,5.103619056731024,-4.6937799197621644e-05,0.2043696790933609,-1.5416224638568323,1.753024378870346e-42,0.03868933022022247,0.4730883240699768,0.0,-0.0083280885592103,1.158342719078064,-0.0011750784469768405,-0.16536834836006165
232.0,407.0,-0.2871,-0.0885,9.6544,-0.0539,0.0606,-0.1164,-1.9485541782774867,-0.0020614275708794594,3.3336517810821533,-1.6464347839355469,0.06002512946724892,2.1327857971191406,5.103631394892492,-7.071624713717028e-05,0.2045687586069107,-1.5415623823748987,0.0,0.02848750539124012,0.47301995754241943,0.0,0.00966079905629158,1.1583348512649536,-0.0008819443173706532,-0.15108634531497955
232.0,407.0,-0.2871,-0.0885,9.6544,-0.0539,0.0606,-0.1164,-1.9485460720457972,-0.0025735627859830856,3.357254981994629,-1.6459100246429443,0.06093543767929077,2.1241955757141113,5.103599059372701,-0.0012912312522530556,0.20830941200256348,-1.5415905157672327,0.0,0.020156368613243103,0.4731370210647583,0.0,-0.004138243850320578,1.158382773399353,-0.0006671313312835991,-0.14351727068424225
232.0,407.0,-0.2871,-0.0885,9.6544,-0.0539,0.0606,-0.1164,-1.9485699139037074,-0.003281810088083148,3.342790126800537,-1.6455788612365723,0.062152761965990067,2.1321308612823486,5.103659289866247,-0.001768578076735139,0.18564525246620178,-1.541602913533346,0.0,0.03795004263520241,0.47303998470306396,0.0,0.0037811764050275087,1.1583150625228882,-0.00043166321120224893,-0.14596520364284515
224.0,355.0,-0.5444,-0.1244,9.6814,-0.0492,0.0782,-0.1206,-1.9485937557616175,-0.0039329747669398785,3.3684844970703125,-1.645206093788147,0.06031552702188492,2.1237740516662598,5.103551435261526,-0.0014777027536183596,0.1963469386100769,-1.5415943304644983,9.081175085157156e-05,0.01602952368557453,0.4730481803417206,0.0,-0.001713701756671071,1.158362627029419,-0.0004017729661427438,-0.13380596041679382
224.0,355.0,-0.5444,-0.1244,9.6814,-0.0492,0.0782,-0.1206,-1.9486218891539515,-0.004372033756226301,3.4161386489868164,-1.6448464393615723,0.059167105704545975,2.077232837677002,5.103570747166433,-0.0010362307075411081,0.1839125007390976,-1.5415623823748987,9.576579759595916e-05,0.02700168639421463,0.47312062978744507,0.0,0.0027669204864650965,1.1583147048950195,-0.00038318062433972955,-0.18862372636795044
224.0,355.0,-0.5444,-0.1244,9.6814,-0.0492,0.0782,-0.1206,-1.9486462078490199,-0.00467177527025342,3.3415703773498535,-1.6443064212799072,0.06025545671582222,2.126537799835205,5.103543060808935,-0.0007248420733958483,0.1853257715702057,-1.5415785948382776,8.82558524608612e-05,0.027408286929130554,0.47302401065826416,0.0,-0.001966981217265129,1.1583788394927979,-0.00035239383578300476,-0.17108120024204254
224.0,355.0,-0.5444,-0.1244,9.6814,-0.0492,0.0782,-0.1206,-1.9486333332457484,-0.004585052374750376,3.3101601600646973,-1.6440470218658447,0.06450917571783066,2.104738712310791,5.1036031422908685,-0.0006214854656718671,0.19780901074409485,-1.5415743033038538,8.335156599059701e-05,0.04447440057992935,0.47302401065826416,0.0,-0.00025666202418506145,1.1583027839660645,-0.00030967339989729226,-0.1771726757287979
224.0,355.0,-0.5444,-0.1244,9.6814,-0.0492,0.0782,-0.1206,-1.948721548120016,-0.00603093858808279,3.325144052505493,-1.6436394453048706,0.06968342512845993,2.145455837249756,5.10357956865386,-0.0008690980030223727,0.1866837441921234,-1.5415862242328089,9.44857529248111e-05,0.043307624757289886,0.4730522334575653,0.0,0.009516963735222816,1.158362627029419,-0.00025709570036269724,-0.1818518042564392
224.0,355.0,-0.5444,-0.1244,9.6814,-0.0492,0.0782,-0.1206,-1.9487978420653285,-0.008717162534594536,3.315554141998291,-1.6432151794433594,0.07300321757793427,2.1070282459259033,5.10359941700057,-0.0016195643693208694,0.1829972267150879,-1.5415380636798304,9.001749276649207e-05,0.03279276564717293,0.47310054302215576,0.0,0.013742516748607159,1.1583744287490845,-0.00021947450295556337,-0.2016507387161255
224.0,355.0,-0.5444,-0.1244,9.6814,-0.0492,0.0782,-0.1206,-1.9488378963866175,-0.01214633323252201,3.355520725250244,-1.6427634954452515,0.07436027377843857,2.159301519393921,5.103547203331747,-0.0019354582764208317,0.19830173254013062,-1.5415623823748987,8.573022205382586e-05,0.03429710492491722,0.47301584482192993,0.0,0.01054251380264759,1.1583309173583984,-0.0002297497703693807,-0.18111447989940643
224.0,355.0,-0.5444,-0.1244,9.6814,-0.0492,0.0782,-0.1206,-1.9489332638182582,-0.015126219019293785,3.2876229286193848,-1.6421349048614502,0.07617262005805969,2.0695791244506836,5.10356371381835,-0.0017834182363003492,0.18666917085647583,-1.5415423552142542,8.06110620032996e-05,0.05252767354249954,0.47306039929389954,0.0,0.010222404263913631,1.1583585739135742,-0.00022890110267326236,-0.20619960129261017
224.0,355.0,-0.5444,-0.1244,9.6814,-0.0492,0.0782,-0.1206,-1.9490777454771937,-0.016837868839502335,3.2936272621154785,-1.641699194908142,0.07854332029819489,2.1051061153411865,5.103515404253759,-0.0019819175358861685,0.17735426127910614,-1.5415542761432093,7.715573883615434e-05,0.03384522721171379,0.4730842411518097,0.0,-0.001522912411019206,1.1583268642425537,-0.00022590861772187054,-0.1725224405527115
224.0,355.0,-0.5444,-0.1244,9.6814,-0.0492,0.0782,-0.1206,-1.949169775048727,-0.017779851332306862,3.2463319301605225,-1.641215205192566,0.08071482926607132,2.140312671661377,5.1035435674484155,-0.002297911560162902,0.16606296598911285,-1.5415423552142542,7.39844617783092e-05,0.031747929751873016,0.4730801582336426,0.0,-0.002313421806320548,1.1583467721939087,-0.00021489875507541,-0.21256005764007568
224.0,355.0,-0.5444,-0.1244,9.6814,-0.0492,0.0782,-0.1206,-1.949294229547018,-0.018565228208899498,3.294219732284546,-1.6406911611557007,0.08141361176967621,2.1452791690826416,5.103531706124105,-0.0026609718333929777,0.17471067607402802,-1.5415743033038538,7.106361590558663e-05,0.027996178716421127,0.47309648990631104,0.0,0.0013904114020988345,1.158342719078064,-0.0002342345251236111,-0.19580209255218506
224.0,355.0,-0.5444,-0.1244,9.6814,-0.0492,0.0782,-0.1206,-1.94934143642568,-0.019684210419654846,3.269474983215332,-1.6401872634887695,0.0800454169511795,2.1419498920440674,5.103495615511694,-0.0024345992133021355,0.19750899076461792,-1.5415542761432093,7.9660392657388e-05,0.04516126215457916,0.4731287956237793,0.0,0.0034808446653187275,1.158342719078064,-0.00024604698410257697,-0.2008381187915802
224.0,355.0,-0.5444,-0.1244,9.6814,-0.0492,0.0782,-0.1206,-1.9495250187315882,-0.02137587033212185,3.2624869346618652,-1.6395992040634155,0.07498352229595184,2.123194932937622,5.103459197073736,-0.0023368343245238066,0.18145522475242615,-1.5415504614459437,7.591435132781044e-05,0.041312169283628464,0.4730280637741089,0.0,0.009627151302993298,1.1583027839660645,-0.0007338409777730703,-0.19976699352264404
224.0,355.0,-0.5444,-0.1244,9.6814,-0.0492,0.0782,-0.1206,-1.9495889149107875,-0.022513408213853836,3.271333932876587,-1.6390998363494873,0.07418008148670197,2.1462454795837402,5.103447603970327,-0.002121035009622574,0.18967127799987793,-1.5415342489825647,8.36423205328174e-05,0.05955146253108978,0.4731087386608124,0.0,0.0016276536043733358,1.1582988500595093,-0.002223138464614749,-0.22255587577819824
204.0,292.0,-0.5898,-0.0814,9.5204,-0.0429,0.0805,-0.1216,-1.9497772655882777,-0.023467108607292175,3.235508918762207,-1.6386713981628418,0.07636819034814835,2.136481761932373,5.103451746493139,-0.0018148247618228197,0.18743965029716492,-1.5415461699115198,8.090955816442147e-05,0.051264576613903046,0.47304821014404297,0.0,-0.003352466272190213,1.1582905054092407,-0.003174308454617858,-0.23593643307685852
204.0,292.0,-0.5898,-0.0814,9.5204,-0.0429,0.0805,-0.1216,-1.9499498806395472,-0.026118896901607513,3.3023693561553955,-1.638187050819397,0.07897869497537613,2.130943775177002,5.103452104121008,-0.0020319484174251556,0.18050558865070343,-1.5415423552142542,9.235024481313303e-05,0.04760318994522095,0.4730842113494873,0.0,0.011300740763545036,1.1582390069961548,-0.004727054387331009,-0.28236493468284607
204.0,292.0,-0.5898,-0.0814,9.5204,-0.0429,0.0805,-0.1216,-1.9501410923399867,-0.029501164332032204,3.2741894721984863,-1.6375797986984253,0.08228768408298492,2.124016284942627,5.10339184382514,-0.0023325171787291765,0.1741189807653427,-1.5415504614459437,8.540345152141526e-05,0.04938294738531113,0.4730280935764313,0.0,-0.0006472700624726713,1.1582227945327759,-0.005112338811159134,-0.2817102074623108
204.0,292.0,-0.5898,-0.0814,9.5204,-0.0429,0.0805,-0.1216,-1.9503046474852503,-0.03366284444928169,3.249126434326172,-1.637091875076294,0.08593060821294785,2.13846492767334,5.103367703944006,-0.0032573516946285963,0.1800006628036499,-1.541558567677633,9.641775977797806e-05,0.06590873003005981,0.4730600118637085,0.0,0.009360824711620808,1.1581830978393555,-0.005393580999225378,-0.2611904442310333
204.0,292.0,-0.5898,-0.0814,9.5204,-0.0429,0.0805,-0.1216,-1.9505530796446742,-0.03845563158392906,3.2418007850646973,-1.636564016342163,0.08914458751678467,2.1399569511413574,5.103339838772573,-0.0036478943657130003,0.18606635928153992,-1.5415342489825647,9.200687054544687e-05,0.057896047830581665,0.4731046259403229,0.0,0.004164536949247122,1.1581473350524902,-0.005883656442165375,-0.27720752358436584
204.0,292.0,-0.5898,-0.0814,9.5204,-0.0429,0.0805,-0.1216,-1.9507724247374476,-0.042153626680374146,3.240896701812744,-1.6359678506851196,0.09232966601848602,2.1886749267578125,5.103319692402639,-0.0030326861888170242,0.19275858998298645,-1.541558567677633,9.471695375395939e-05,0.05290168896317482,0.4730481207370758,0.0,0.00602569617331028,1.1581271886825562,-0.006738772615790367,-0.28961819410324097
204.0,292.0,-0.5898,-0.0814,9.5204,-0.0429,0.0805,-0.1216,-1.9509922466673792,-0.04355216398835182,3.2134995460510254,-1.6354156732559204,0.09202919155359268,2.1252341270446777,5.103332000761785,-0.0021316043566912413,0.1897173970937729,-1.5415428320514124,9.73837377387099e-05,0.0650249645113945,0.4730801582336426,0.0,0.00978180207312107,1.1580076217651367,-0.0074656871147453785,-0.3209776282310486
204.0,292.0,-0.5898,-0.0814,9.5204,-0.0429,0.0805,-0.1216,-1.9513565502562464,-0.04182036221027374,3.2413439750671387,-1.6347163915634155,0.08981722593307495,2.130815267562866,5.103323864727773,-0.0011801841901615262,0.17976447939872742,-1.5415023008929651,0.0002034467033809051,0.06281451880931854,0.47304031252861023,0.0,0.007831137627363205,1.1579716205596924,-0.009501131251454353,-0.3239809274673462
