ramyac6/ROB537/final_project/csv/good/good_1.csv
tof_0,tof_1,accelx,accely,accelz,gyrox,gyroy,gyroz,shoulder_lift_joint_position,shoulder_lift_joint_velocity,shoulder_lift_joint_effort,elbow_joint_position,elbow_joint_velocity,elbow_joint_effort,wrist_1_joint_position,wrist_1_joint_velocity,wrist_1_joint_effort,wrist_2_joint_position,wrist_2_joint_velocity,wrist_2_joint_effort,wrist_3_joint_position,wrist_3_joint_velocity,wrist_3_joint_effort,shoulder_pan_joint_position,shoulder_pan_joint_velocity,shoulder_pan_joint_effort
431.0,518.0,0.5527,0.0945,9.454,-0.0313,0.0244,-0.1211,-1.6875440082945765,0.0,2.9929986000061035,-1.8955039978027344,-0.0,2.588540554046631,-1.253611908560135,0.0,0.5457754135131836,-1.5255335013019007,-0.0,-0.2269689440727234,0.3474166691303253,-0.0,-0.09879264235496521,1.2107741832733154,0.0,0.484702467918396
431.0,518.0,0.5527,0.0945,9.454,-0.0313,0.0244,-0.1211,-1.6875559292235316,0.0,2.9751739501953125,-1.8955438137054443,-0.0,2.574033260345459,-1.253543035393097,0.0,0.5465730428695679,-1.5255454222308558,-0.0,-0.2289975881576538,0.34746062755584717,-0.0,-0.1031799167394638,1.2107380628585815,0.0,0.439609169960022
431.0,518.0,0.5527,0.0945,9.454,-0.0313,0.0244,-0.1211,-1.6875678501524867,0.0,2.9596285820007324,-1.8955482244491577,-0.0,2.6245477199554443,-1.253559486275055,0.0,0.5325563549995422,-1.5255335013019007,-5.013299232814461e-05,-0.22624139487743378,0.3473927676677704,-0.0,-0.10825327038764954,1.2107419967651367,0.0,0.4574355483055115
431.0,518.0,0.5527,0.0945,9.454,-0.0313,0.0244,-0.1211,-1.6875835857787074,0.0,3.0088043212890625,-1.895552158355713,-0.0,2.606898307800293,-1.2536442440799256,0.0,0.5510056018829346,-1.5255048910724085,-5.7079774705925956e-05,-0.2164182811975479,0.34743279218673706,-0.0,-0.10707695782184601,1.2107257843017578,0.0,0.4442291557788849
431.0,518.0,0.5527,0.0945,9.454,-0.0313,0.0244,-0.1211,-1.6875831089415492,0.0,3.028346300125122,-1.895590901374817,-0.0,2.5804483890533447,-1.2536602777293702,0.0,0.536574125289917,-1.5254972616778772,-5.367574340198189e-05,-0.21923616528511047,0.34743252396583557,-0.0,-0.11801394820213318,1.2107216119766235,0.0,0.4396231174468994
427.0,536.0,0.4726,0.1675,9.4008,-0.0341,0.0338,-0.1214,-1.6875635586180628,0.0,2.9962587356567383,-1.895471215248108,-0.0,2.605191230773926,-1.2535877388766785,0.0,0.5314013957977295,-1.5255087057696741,-5.0654762162594125e-05,-0.23829936981201172,0.34745264053344727,-0.0,-0.10534167289733887,1.210737943649292,0.0,0.5173922777175903
427.0,536.0,0.4726,0.1675,9.4008,-0.0341,0.0338,-0.1214,-1.6875273189940394,0.0,3.0211517810821533,-1.895567536354065,-0.0,2.624011516571045,-1.253619746570923,1.2244188996035632e-10,0.5427263975143433,-1.5255048910724085,-1.0705032593705255e-07,-0.23708784580230713,0.34738487005233765,-0.0,-0.09860828518867493,1.2107056379318237,0.0,0.43047240376472473
427.0,536.0,0.4726,0.1675,9.4008,-0.0341,0.0338,-0.1214,-1.6875392399229945,0.0,2.9987916946411133,-1.895552158355713,-0.0,2.616901159286499,-1.2536561650088807,1.4529753037783032e-16,0.5555791258811951,-1.5255172888385218,-1.2703291923151644e-13,-0.23006898164749146,0.347408652305603,-0.0,-0.07642757147550583,1.2107133865356445,0.0,0.4717644453048706
427.0,536.0,0.4726,0.1675,9.4008,-0.0341,0.0338,-0.1214,-1.6875797710814417,0.0,3.0087385177612305,-1.895527958869934,-0.0,2.6262025833129883,-1.2536155742457886,1.7241958624927782e-22,0.5378746390342712,-1.5255330244647425,-1.507455628527257e-19,-0.24293698370456696,0.3474403917789459,-0.0,-0.10726369172334671,1.210709810256958,0.0,0.49832889437675476
427.0,536.0,0.4726,0.1675,9.4008,-0.0341,0.0338,-0.1214,-1.6876117191710414,0.0,3.069946527481079,-1.8955789804458618,-0.0,2.5834836959838867,-1.2535913747600098,3.133640938355617e-27,0.5414229035377502,-1.5255048910724085,-2.739726151176605e-24,-0.2377106249332428,0.347392737865448,-0.0,-0.11327500641345978,1.2107257843017578,0.0,0.4537163972854614
427.0,536.0,0.4726,0.1675,9.4008,-0.0341,0.0338,-0.1214,-1.6875797710814417,0.0,3.0241634845733643,-1.895567536354065,-0.0,2.60491943359375,-1.2536078256419678,3.71858307396221e-33,0.546322226524353,-1.5255087057696741,-3.251137888837596e-30,-0.23209986090660095,0.3474205732345581,-0.0,-0.11461196839809418,1.2107502222061157,0.0,0.483267605304718
427.0,536.0,0.4726,0.1675,9.4008,-0.0341,0.0338,-0.1214,-1.6875511608519496,0.0,3.034839630126953,-1.8955193758010864,-0.0,2.5989036560058594,-1.2536078256419678,6.758340860731889e-38,0.5362446904182434,-1.5255253950702112,-5.908782492554654e-35,-0.24043633043766022,0.3474324941635132,-0.0,-0.07742936909198761,1.2107661962509155,0.0,0.4546581506729126
427.0,536.0,0.4726,0.1675,9.4008,-0.0341,0.0338,-0.1214,-1.6875878773131312,0.0,3.0614044666290283,-1.8955714702606201,-0.0,2.639249801635742,-1.2536155742457886,7.987401246651457e-44,0.5480881929397583,-1.5255172888385218,-7.01181725578852e-41,-0.24273425340652466,0.3474486768245697,-0.0,-0.11535469442605972,1.2107257843017578,0.0,0.4814649522304535
427.0,536.0,0.4726,0.1675,9.4008,-0.0341,0.0338,-0.1214,-1.687575479547018,0.0,3.001481294631958,-1.8955193758010864,-0.0,2.6145172119140625,-1.2536401611617585,0.0,0.5500444173812866,-1.5255005995379847,-0.0,-0.2527936100959778,0.3474605977535248,-0.0,-0.11122725158929825,1.210746169090271,0.0,0.4942392110824585
427.0,536.0,0.4726,0.1675,9.4008,-0.0341,0.0338,-0.1214,-1.6876117191710414,0.0,3.081970691680908,-1.8955601453781128,-0.0,2.5934438705444336,-1.2536401611617585,0.0,0.5349617600440979,-1.5255449453936976,-0.0,-0.23114317655563354,0.3474605977535248,-0.0,-0.11298474669456482,1.2107257843017578,0.0,0.482819139957428
422.0,556.0,0.5252,0.125,9.5539,-0.0467,0.026,-0.121,-1.6875354252257289,0.0,3.0269217491149902,-1.8955680131912231,-0.0,2.6147522926330566,-1.2536721986583252,0.0,0.5353103876113892,-1.5255373159991663,-0.0,-0.24807998538017273,0.34740471839904785,-0.0,-0.09257364273071289,1.210701584815979,0.0,0.48474156856536865
422.0,556.0,0.5252,0.125,9.5539,-0.0467,0.026,-0.121,-1.6875835857787074,0.0,3.0383622646331787,-1.8955601453781128,-0.0,2.5928711891174316,-1.253619746570923,0.0,0.5688614845275879,-1.525529686604635,-0.0,-0.24222680926322937,0.34742453694343567,-0.0,-0.10198564827442169,1.2106937170028687,0.0,0.4934650659561157
422.0,556.0,0.5252,0.125,9.5539,-0.0467,0.026,-0.121,-1.6875797710814417,0.0,3.045701503753662,-1.8955636024475098,-0.0,2.592327356338501,-1.25362382948909,0.0,0.5314750671386719,-1.525529686604635,-0.0,-0.25074028968811035,0.34742453694343567,-0.0,-0.11668632924556732,1.2107298374176025,0.0,0.5687660574913025
422.0,556.0,0.5252,0.125,9.5539,-0.0467,0.026,-0.121,-1.6875554523863734,0.0,3.027416944503784,-1.8955312967300415,-0.0,2.6198863983154297,-1.253631905918457,0.0,0.5587407946586609,-1.5255654493915003,-0.0,-0.24254028499126434,0.3474206030368805,-0.0,-0.11290445923805237,1.2107056379318237,0.0,0.5303924679756165
422.0,556.0,0.5252,0.125,9.5539,-0.0467,0.026,-0.121,-1.687603612939352,0.0,3.074431896209717,-1.8955397605895996,-0.0,2.584066390991211,-1.2536078256419678,0.0,0.5418465733528137,-1.5254810492144983,-5.743447400163859e-05,-0.24846063554286957,0.34741267561912537,-0.0,-0.11756617575883865,1.2107622623443604,0.0,0.5446561574935913
422.0,556.0,0.5252,0.125,9.5539,-0.0467,0.026,-0.121,-1.6875831089415492,0.0,3.0233640670776367,-1.8955397605895996,-0.0,2.6300783157348633,-1.2535635095885773,0.0,0.5578215718269348,-1.5255535284625452,-5.402350871008821e-05,-0.2466711699962616,0.3474566340446472,-0.0,-0.11845190823078156,1.2106974124908447,0.0,0.5015754699707031
422.0,556.0,0.5252,0.125,9.5539,-0.0467,0.026,-0.121,-1.687575479547018,0.0,3.050020217895508,-1.8955482244491577,-0.0,2.60807466506958,-1.2536561650088807,0.0,0.5573939681053162,-1.5255087057696741,-5.0964321417268366e-05,-0.25155341625213623,0.3474724590778351,-0.0,-0.11796257644891739,1.210758090019226,0.0,0.4715574383735657
422.0,556.0,0.5252,0.125,9.5539,-0.0467,0.026,-0.121,-1.6875435314574183,0.0,3.074838399887085,-1.8955193758010864,-0.0,2.6001136302948,-1.25362782300029,0.0,0.5436078310012817,-1.5255697409259241,-4.191262803487916e-07,-0.25897127389907837,0.34745657444000244,-3.579023655220226e-07,-0.11830393970012665,1.210709810256958,0.0,0.49774494767189026
422.0,556.0,0.5252,0.125,9.5539,-0.0467,0.026,-0.121,-1.6875554523863734,0.0,3.105865955352783,-1.895556092262268,-0.0,2.5816001892089844,-1.253619746570923,0.0,0.555919885635376,-1.5254934469806116,-4.97362622007419e-13,-0.26670992374420166,0.3474404513835907,-4.247103428493826e-13,-0.12588757276535034,1.2107138633728027,0.0,0.5146225690841675
422.0,556.0,0.5252,0.125,9.5539,-0.0467,0.026,-0.121,-1.6875554523863734,0.0,3.0977940559387207,-1.8955193758010864,-0.0,2.576416492462158,-1.2536520522883912,0.0,0.5589396357536316,-1.525512997304098,-5.90202776236053e-19,-0.2670243978500366,0.3474684953689575,-5.039891014108895e-19,-0.12986215949058533,1.2107741832733154,0.0,0.4951339364051819
421.0,522.0,0.5527,0.1801,9.2315,-0.0356,0.0287,-0.1176,-1.6875955067076625,0.0,3.147052764892578,-1.8955358266830444,-0.0,2.6047143936157227,-1.2536356908134003,0.0,0.5638267993927002,-1.5255253950702112,-1.0726643443825818e-23,-0.26871949434280396,0.34738489985466003,-9.15975427133429e-24,-0.14391940832138062,1.210785984992981,0.0,0.5152549743652344
421.0,522.0,0.5527,0.1801,9.2315,-0.0356,0.0287,-0.1176,-1.687571188012594,0.0,3.083073377609253,-1.895564079284668,-0.0,2.6063718795776367,-1.253631905918457,0.0,0.5739583969116211,-1.5255005995379847,-1.272893442934811e-29,-0.24888843297958374,0.3474447429180145,-1.0869564172449066e-29,-0.15356090664863586,1.2107175588607788,0.0,0.5014607310295105
421.0,522.0,0.5527,0.1801,9.2315,-0.0356,0.0287,-0.1176,-1.6876398525633753,0.0,3.1298153400421143,-1.8955397605895996,-0.0,2.571568489074707,-1.2536360782435914,0.0,0.5740941762924194,-1.5255573431598108,-2.3134210960537448e-34,-0.2570837140083313,0.347428560256958,-1.975489658655117e-34,-0.14072132110595703,1.2107138633728027,0.0,0.4844750761985779
421.0,522.0,0.5527,0.1801,9.2315,-0.0356,0.0287,-0.1176,-1.687575479547018,0.0,3.140477180480957,-1.8955312967300415,-0.0,2.589024066925049,-1.253636048441269,0.0,0.5645109415054321,-1.5255735556231897,-2.7452557954894626e-40,-0.25469836592674255,0.34741270542144775,-2.3442462139536297e-40,-0.15600961446762085,1.2106974124908447,0.0,0.5166290998458862
421.0,522.0,0.5527,0.1801,9.2315,-0.0356,0.0287,-0.1176,-1.6875831089415492,0.0,3.1788387298583984,-1.8955193758010864,-0.0,2.6147217750549316,-1.2536318761161347,0.0,0.5619436502456665,-1.5255492369281214,-0.0,-0.257076621055603,0.3474245071411133,-0.0,-0.14273132383823395,1.2107421159744263,0.0,0.4637547731399536
421.0,522.0,0.5527,0.1801,9.2315,-0.0356,0.0287,-0.1176,-1.687603612939352,0.0,3.1945128440856934,-1.8955681324005127,-0.0,2.612314224243164,-1.2535995703986664,0.0,0.5869048833847046,-1.525569264088766,-0.0,-0.252449631690979,0.34740471839904785,-0.0,-0.15439610183238983,1.2107661962509155,0.0,0.48008039593696594
421.0,522.0,0.5527,0.1801,9.2315,-0.0356,0.0287,-0.1176,-1.6875635586180628,0.0,3.120368480682373,-1.8955312967300415,-0.0,2.630201816558838,-1.2536360782435914,0.0,0.5871602296829224,-1.5255330244647425,-0.0,-0.2505004107952118,0.3473842740058899,-0.0,-0.14661002159118652,1.210713505744934,0.0,0.4945588707923889
421.0,522.0,0.5527,0.1801,9.2315,-0.0356,0.0287,-0.1176,-1.6875916920103968,0.0,3.1643686294555664,-1.8955312967300415,-0.0,2.611037254333496,-1.253631905918457,0.0,0.5850038528442383,-1.5255172888385218,-0.0,-0.2474469244480133,0.34738871455192566,-0.0,-0.15434163808822632,1.2107257843017578,0.0,0.5098108649253845
421.0,522.0,0.5527,0.1801,9.2315,-0.0356,0.0287,-0.1176,-1.6875435314574183,0.0,3.1921615600585938,-1.8955601453781128,-0.0,2.6002187728881836,-1.253636048441269,0.0,0.5773593783378601,-1.5255573431598108,-0.0,-0.24859081208705902,0.3474772572517395,-0.0,-0.15274429321289062,1.2107216119766235,0.0,0.49547964334487915
421.0,555.0,0.5581,0.2112,9.4277,-0.0443,0.0312,-0.1156,-1.6875235042967738,0.0,3.1833391189575195,-1.895499587059021,-0.0,2.571349620819092,-1.2536520820907135,0.0,0.5963791608810425,-1.5255416075335901,-0.0,-0.2418879270553589,0.34740474820137024,-0.0,-0.1659887731075287,1.2106937170028687,0.0,0.47936445474624634
421.0,555.0,0.5581,0.2112,9.4277,-0.0443,0.0312,-0.1156,-1.687575479547018,0.0,3.243100643157959,-1.8955477476119995,-0.0,2.593700647354126,-1.2536155742457886,0.0,0.6012880802154541,-1.5255573431598108,-0.0,-0.24487891793251038,0.3474530577659607,-0.0,-0.16913877427577972,1.2107421159744263,0.0,0.47897595167160034
421.0,555.0,0.5581,0.2112,9.4277,-0.0443,0.0312,-0.1156,-1.6875559292235316,0.0,3.229139804840088,-1.8955714702606201,-0.0,2.5876617431640625,-1.253615604048111,0.0,0.6095696687698364,-1.5255005995379847,-0.0,-0.24715647101402283,0.3473760485649109,-0.0,-0.16301287710666656,1.2107621431350708,0.0,0.46165400743484497
421.0,555.0,0.5581,0.2112,9.4277,-0.0443,0.0312,-0.1156,-1.6875511608519496,0.0,3.233112335205078,-1.8955039978027344,-0.0,2.6007437705993652,-1.2536520224860688,0.0,0.5852097272872925,-1.5255172888385218,-0.0,-0.2535698413848877,0.34746086597442627,-0.0,-0.17192813754081726,1.210749864578247,0.0,0.5074329376220703
421.0,555.0,0.5581,0.2112,9.4277,-0.0443,0.0312,-0.1156,-1.6875630817809046,0.0,3.251138210296631,-1.8955477476119995,6.179062253183765e-13,2.5715174674987793,-1.2536478799632569,0.0,0.5973365306854248,-1.5255573431598108,-0.0,-0.24391689896583557,0.34744489192962646,-6.54542054689955e-06,-0.17945294082164764,1.2107421159744263,0.0,0.5229387879371643
421.0,555.0,0.5581,0.2112,9.4277,-0.0443,0.0312,-0.1156,-1.6875354252257289,0.0,3.2617392539978027,-1.895556092262268,2.685855297498387e-22,2.5595221519470215,-1.25362382948909,0.0,0.6074454188346863,-1.525512997304098,-0.0,-0.2405143827199936,0.34737634658813477,-5.6423628848278895e-05,-0.18206679821014404,1.2107257843017578,0.0,0.567534327507019
421.0,555.0,0.5581,0.2112,9.4277,-0.0443,0.0312,-0.1156,-1.6875554523863734,0.0,3.2839884757995605,-1.8955193758010864,1.1674614926265083e-31,2.6298182010650635,-1.2536442440799256,0.0,0.6138092875480652,-1.5255454222308558,-0.0,-0.2535550892353058,0.3474001884460449,-6.370207847794518e-05,-0.1802263855934143,1.210681438446045,0.0,0.5309292674064636
421.0,555.0,0.5581,0.2112,9.4277,-0.0443,0.0312,-0.1156,-1.6875955067076625,0.0,3.2398905754089355,-1.8955119848251343,3.78242825515794e-39,2.5728960037231445,-1.253631905918457,0.0,0.6106696128845215,-1.5254853407489222,-0.0,-0.24534064531326294,0.3473682999610901,-6.084253982407972e-05,-0.16989481449127197,1.2107257843017578,0.0,0.5160217881202698
421.0,555.0,0.5581,0.2112,9.4277,-0.0443,0.0312,-0.1156,-1.687547346154684,0.0,3.308354377746582,-1.8955273628234863,-0.0,2.593931198120117,-1.2536279124072571,1.1149408063459987e-09,0.6037676334381104,-1.5255654493915003,-0.0,-0.24760323762893677,0.3474731743335724,-8.395382167236676e-09,-0.17133823037147522,1.2106937170028687,0.0,0.4998220205307007
421.0,555.0,0.5581,0.2112,9.4277,-0.0443,0.0312,-0.1156,-1.6875635586180628,0.0,3.3252973556518555,-1.8954596519470215,-0.0,2.5905380249023438,-1.2535918217948456,2.0263498046397058e-14,0.6027882099151611,-1.5255087057696741,-0.0,-0.24547642469406128,0.3474571704864502,-1.5258192658570285e-13,-0.1799120455980301,1.210737943649292,0.0,0.5661081075668335
426.0,529.0,0.5539,0.1364,9.4146,-0.0399,0.0247,-0.1202,-1.6875554523863734,0.0,3.308826446533203,-1.8955079317092896,-0.0,2.589144229888916,-1.2536197763732453,2.4045990157313062e-20,0.6068211793899536,-1.5255211035357874,-0.0,-0.24213746190071106,0.3474530577659607,-1.8106369685674897e-19,-0.1845237910747528,1.2107257843017578,0.0,0.5011680722236633
426.0,529.0,0.5539,0.1364,9.4146,-0.0399,0.0247,-0.1202,-1.687559267083639,0.0,3.3040082454681396,-1.8955273628234863,-0.0,2.6026673316955566,-1.2536320251277466,2.8534544159674265e-26,0.5977234840393066,-1.5255616346942347,-0.0,-0.238516703248024,0.3474002778530121,-2.148619954512404e-25,-0.17247319221496582,1.2107539176940918,0.0,0.5214830040931702
426.0,529.0,0.5539,0.1364,9.4146,-0.0399,0.0247,-0.1202,-1.687603612939352,0.0,3.3599915504455566,-1.8955835103988647,-0.0,2.5593361854553223,-1.2536037427238007,5.186012592918205e-31,0.6105223894119263,-1.5255172888385218,-0.0,-0.24456918239593506,0.3474572002887726,-3.905011041341252e-30,-0.18745136260986328,1.210746169090271,0.0,0.5402964353561401
426.0,529.0,0.5539,0.1364,9.4146,-0.0399,0.0247,-0.1202,-1.6875916920103968,0.0,3.286144733428955,-1.8954676389694214,-0.0,2.6065447330474854,-1.2536037427238007,6.154060269207624e-37,0.6061786413192749,-1.5255373159991663,-0.0,-0.23593461513519287,0.34746086597442627,-4.6339412911999464e-36,-0.18398615717887878,1.2107338905334473,0.0,0.5164413452148438
426.0,529.0,0.5539,0.1364,9.4146,-0.0399,0.0247,-0.1202,-1.687648435632223,-0.006127087399363518,2.6323604583740234,-1.895552158355713,-0.00209079054184258,2.0614864826202393,-1.2537363332561036,-0.025959480553865433,0.31273794174194336,-1.5254409948932093,0.01577412709593773,-0.055424243211746216,0.3474443852901459,0.007796172983944416,5.137268453836441e-05,1.2107019424438477,-0.005717286374419928,-0.01098485104739666
426.0,529.0,0.5539,0.1364,9.4146,-0.0399,0.0247,-0.1202,-1.6876236400999964,-0.0019055791199207306,2.6424167156219482,-1.8955397605895996,-9.335360262596737e-10,2.1087019443511963,-1.2539082330516358,-0.022160429507493973,0.33965063095092773,-1.5253375212298792,0.01856987737119198,-0.0706963986158371,0.3474920690059662,0.005553075578063726,0.006103235762566328,1.21062171459198,-0.005719895474612713,-0.036397017538547516
426.0,529.0,0.5539,0.1364,9.4146,-0.0399,0.0247,-0.1202,-1.6876393757262171,-0.000776881177444011,2.593860149383545,-1.8955601453781128,-4.057803512761237e-19,2.1634483337402344,-1.254040078525879,-0.005184715148061514,0.34289324283599854,-1.5252135435687464,0.00588500639423728,-0.03843742609024048,0.3475523293018341,0.00414828397333622,-0.0006472831591963768,1.210602045059204,-0.0074660382233560085,0.05046045780181885
426.0,529.0,0.5539,0.1364,9.4146,-0.0399,0.0247,-0.1202,-1.687678953210348,-0.002663379767909646,2.67722225189209,-1.895552158355713,-1.3146767578936594e-26,2.1737756729125977,-1.2540155810168763,0.0005746197421103716,0.34506088495254517,-1.5252540747271937,0.0004564700648188591,-0.051376573741436005,0.3475523293018341,0.0028157623019069433,-0.013120180927217007,1.210550308227539,-0.00521585950627923,-0.05066557601094246
426.0,529.0,0.5539,0.1364,9.4146,-0.0399,0.0247,-0.1202,-1.6876713238158167,-0.0015932177193462849,2.724710464477539,-1.8955317735671997,-5.714509307446675e-36,2.098759174346924,-1.2540279191783448,0.00019698271353263408,0.35528844594955444,-1.5252178351031702,0.00020671324455179274,-0.06209954619407654,0.34754377603530884,0.0010379976592957973,-0.009486155584454536,1.210518479347229,-0.004634232260286808,-0.01881362497806549
426.0,529.0,0.5539,0.1364,9.4146,-0.0399,0.0247,-0.1202,-1.687711854974264,-0.0005750002455897629,2.657376289367676,-1.8955756425857544,-2.802596928649634e-45,2.1379475593566895,-1.254047916536667,0.00018221381469629705,0.3378148078918457,-1.5252216498004358,0.00013126306293997914,-0.06484479457139969,0.3476002514362335,0.0006497706053778529,-0.007130712736397982,1.2104581594467163,-0.0037465679924935102,0.011081863194704056
403.0,545.0,0.4666,0.1005,9.472,-0.0428,0.0295,-0.1248,-1.687695165673727,-0.00038044273969717324,2.694896936416626,-1.895479679107666,-0.0,2.153235673904419,-1.2541127663901825,0.00014879213995300233,0.341846764087677,-1.5252421537982386,0.00010160759120481089,-0.06851355731487274,0.3475801646709442,0.0004773288674186915,0.002938542515039444,1.210386037826538,-0.0028954355511814356,-0.00380791537463665
403.0,545.0,0.4666,0.1005,9.472,-0.0428,0.0295,-0.1248,-1.6877361736693324,-0.00026738690212368965,2.6547648906707764,-1.8955312967300415,-0.0,2.15533185005188,-1.254007415180542,0.00011664260091492906,0.34465938806533813,-1.525262180958883,7.923667726572603e-05,-0.0674947127699852,0.3475842773914337,0.00024670243146829307,-0.00420575262978673,1.2104307413101196,-0.0018728126306086779,-0.03669125214219093
403.0,545.0,0.4666,0.1005,9.472,-0.0428,0.0295,-0.1248,-1.6876918278136195,-0.000206137090572156,2.6733596324920654,-1.8955119848251343,-0.0,2.1336960792541504,-1.2540602546981354,9.591978596290573e-05,0.35411107540130615,-1.5252178351031702,6.49404973955825e-05,-0.06062524765729904,0.34760066866874695,0.00019361366867087781,-0.008822344243526459,1.210402488708496,-0.0012596292654052377,-0.005905028432607651
403.0,545.0,0.4666,0.1005,9.472,-0.0428,0.0295,-0.1248,-1.6877075634398402,-0.000174213811988011,2.67915940284729,-1.89557945728302,-0.0,2.0969796180725098,-1.2540962559035798,8.398410864174366e-05,0.3487245738506317,-1.5252416769610804,5.674972999258898e-05,-0.05693718045949936,0.34760433435440063,0.0001959775690920651,0.0008824730757623911,1.2104185819625854,-0.001367612974718213,0.004303542897105217
403.0,545.0,0.4666,0.1005,9.472,-0.0428,0.0295,-0.1248,-1.6877032719054164,-0.00017515115905553102,2.688236951828003,-1.8955074548721313,-0.0,2.0997838973999023,-1.254040078525879,7.267948967637494e-05,0.3328248858451843,-1.5252378622638147,4.90213897137437e-05,-0.06219928339123726,0.3476245403289795,0.0001674750674283132,-0.00876756850630045,1.2104065418243408,-0.001178208040073514,0.015409506857395172
403.0,545.0,0.4666,0.1005,9.472,-0.0428,0.0295,-0.1248,-1.687695165673727,-0.00015503617760259658,2.7132368087768555,-1.8955755233764648,-0.0,2.1185123920440674,-1.2540560823730011,6.561421469086781e-05,0.3513559103012085,-1.5252059141742151,4.42054879385978e-05,-0.03556154668331146,0.3476085066795349,0.0001489900896558538,-0.009538128040730953,1.21039879322052,-0.0009178470354527235,-0.055348217487335205
403.0,545.0,0.4666,0.1005,9.472,-0.0428,0.0295,-0.1248,-1.6877395115294398,-0.00013557399506680667,2.68314266204834,-1.895567536354065,-0.0,2.1716489791870117,-1.2539832454970856,5.850506931892596e-05,0.3488425016403198,-1.5252216498004358,3.9370836020680144e-05,-0.05877936631441116,0.34758058190345764,0.00014710375398863107,-0.015980491414666176,1.21039879322052,-0.000598618236836046,0.01764003187417984
403.0,545.0,0.4666,0.1005,9.472,-0.0428,0.0295,-0.1248,-1.6876994572081507,-0.00012045328912790865,2.656035900115967,-1.8955397605895996,-0.0,2.128484010696411,-1.2540720862201233,5.278596290736459e-05,0.3501003384590149,-1.5252898375140589,5.3231568017508835e-05,-0.05162099748849869,0.34754031896591187,0.00013623209088109434,-0.0165067370980978,1.210390567779541,-0.0005051477928645909,-0.0175715871155262
403.0,545.0,0.4666,0.1005,9.472,-0.0428,0.0295,-0.1248,-1.6876632175841273,-0.00011058637028327212,2.618295669555664,-1.8955438137054443,-0.0,2.1727497577667236,-1.254040078525879,4.895737220067531e-05,0.3535388708114624,-1.5252259413348597,4.934268145007081e-05,-0.04890331253409386,0.34757232666015625,0.00012538603914435953,0.002149915788322687,1.2103745937347412,-0.0005568420747295022,-0.021342622116208076
403.0,545.0,0.4666,0.1005,9.472,-0.0428,0.0295,-0.1248,-1.6877476177611292,-0.0001003147117444314,2.664734125137329,-1.8955154418945312,-0.0,2.141326427459717,-1.2540762585452576,4.488777631195262e-05,0.3458021283149719,-1.5252578894244593,4.521142182056792e-05,-0.06366091966629028,0.3475920855998993,0.00011403767712181434,-0.014683844521641731,1.2103869915008545,-0.000729283201508224,-0.020888565108180046
397.0,520.0,0.3045,0.0425,9.4648,-0.0507,0.0412,-0.1258,-1.6876994572081507,-9.17890720302239e-05,2.6449427604675293,-1.895556092262268,-0.0,2.1097583770751953,-1.254007415180542,4.1442766814725474e-05,0.3574938178062439,-1.5252302328692835,-6.263209684220783e-08,-0.05634486302733421,0.3475600481033325,0.00011192868987563998,-0.00729261664673686,1.2103385925292969,-0.0010748214554041624,0.05264351889491081
397.0,520.0,0.3045,0.0425,9.4648,-0.0507,0.0412,-0.1258,-1.687678953210348,-8.594558312324807e-05,2.6784677505493164,-1.895556092262268,-0.0,2.1568074226379395,-1.254051999454834,3.9045502489898354e-05,0.35111063718795776,-1.525233570729391,-1.1383076556001348e-12,-0.0481223464012146,0.3476002514362335,0.00011207073112018406,-0.01697508618235588,1.2103103399276733,-0.001196119119413197,-0.035825856029987335
397.0,520.0,0.3045,0.0425,9.4648,-0.0507,0.0412,-0.1258,-1.6876870594420375,-7.96103267930448e-05,2.615668296813965,-1.8955159187316895,-0.0,2.170668840408325,-1.254040078525879,3.641266084741801e-05,0.3557809591293335,-1.5252259413348597,-1.3507904897924632e-18,-0.06548994779586792,0.3475359082221985,0.00010397847654530779,-0.007640223018825054,1.2103466987609863,-0.001046410878188908,-0.04897414892911911
397.0,520.0,0.3045,0.0425,9.4648,-0.0507,0.0412,-0.1258,-1.6876589260497035,-7.414499850710854e-05,2.6672556400299072,-1.8955312967300415,-0.0,2.159128427505493,-1.2540720862201233,2.4224396838690154e-05,0.35334348678588867,-1.5251897017108362,-1.602936270163216e-24,-0.06286802887916565,0.34762439131736755,9.697609493741766e-05,-0.0010133119067177176,1.2102984189987183,-0.0008076863596215844,0.015146083198487759
397.0,520.0,0.3045,0.0425,9.4648,-0.0507,0.0412,-0.1258,-1.6876875362791957,-7.028487016214058e-05,2.7153217792510986,-1.8955233097076416,-0.0,2.105527400970459,-1.2540602546981354,2.1647663743351586e-05,0.3514813780784607,-1.5251897017108362,-2.9132576294507985e-29,-0.04840901866555214,0.34757232666015625,9.201845386996865e-05,-0.004305821377784014,1.2103025913238525,-0.0007312141242437065,-0.03307998925447464
397.0,520.0,0.3045,0.0425,9.4648,-0.0507,0.0412,-0.1258,-1.6876832447447718,-6.59903816995211e-05,2.7006359100341797,-1.895491600036621,-0.0,2.1546874046325684,-1.2540359956077118,2.0419764041434973e-05,0.3614678978919983,-1.52517015138735,-3.4570631659914095e-35,-0.06581073254346848,0.347612589597702,6.483694596681744e-05,-0.002374325878918171,1.210314393043518,-0.0007891140994615853,0.004225393291562796
397.0,520.0,0.3045,0.0425,9.4648,-0.0507,0.0412,-0.1258,-1.6877075634398402,-6.291505269473419e-05,2.701183795928955,-1.8955438137054443,-0.0,2.1806533336639404,-1.2540639501861115,1.6792587587133312e-07,0.34630531072616577,-1.5252216498004358,-6.283043963447112e-40,-0.06107501685619354,0.34758424758911133,6.121994374552742e-05,-0.0052895983681082726,1.2103066444396973,-0.0008027302683331072,-0.007453470956534147
397.0,520.0,0.3045,0.0425,9.4648,-0.0507,0.0412,-0.1258,-1.687695165673727,-2.028931339737028e-05,2.6716060638427734,-1.895552158355713,-0.0,2.1317241191864014,-1.254060224895813,1.9927181920623843e-13,0.3470677435398102,-1.5252178351031702,-1.401298464324817e-45,-0.06493813544511795,0.34758833050727844,5.732086719945073e-05,-0.0008373428136110306,1.2102866172790527,-0.0008350381976924837,-0.0369618758559227
397.0,520.0,0.3045,0.0425,9.4648,-0.0507,0.0412,-0.1258,-1.6876832447447718,-8.819163051210742e-15,2.6525301933288574,-1.8955358266830444,-0.0,2.1440675258636475,-1.254040078525879,2.3646896514388967e-19,0.3552479147911072,-1.5252216498004358,-0.0,-0.06970599293708801,0.3475399911403656,5.388872159528546e-05,-0.00023224670439958572,1.2102906703948975,-0.0006388964247889817,-0.01142391562461853
436.0,535.0,0.3906,0.1974,9.4929,-0.0397,0.0275,-0.1246,-1.6877075634398402,-2.8572966078727694e-22,2.6204051971435547,-1.895511507987976,-0.0,2.1991360187530518,-1.2540319126895447,4.297706717465473e-24,0.33857542276382446,-1.5252178351031702,-0.0,-0.05616513639688492,0.3475961685180664,5.1425406127236784e-05,-0.017611153423786163,1.2103230953216553,-0.0005944895674474537,0.01609593629837036
436.0,535.0,0.3906,0.1974,9.4929,-0.0397,0.0275,-0.1246,-1.6877438030638636,-1.2419821920957574e-31,2.6695923805236816,-1.895567536354065,-0.0,2.1335017681121826,-1.2540320617011567,5.099940733641391e-30,0.3463978171348572,-1.5252302328692835,-0.0,-0.05101192370057106,0.347564160823822,2.5156202809739625e-07,-0.008877146057784557,1.2103148698806763,-0.00046709098387509584,-0.019939884543418884
436.0,535.0,0.3906,0.1974,9.4929,-0.0397,0.0275,-0.1246,-1.6876431904234828,-5.398502333811358e-41,2.68765926361084,-1.895567536354065,-0.0,2.1021809577941895,-1.2540319126895447,6.05192260610612e-36,0.3497929573059082,-1.5252421537982386,-0.0,-0.04772058129310608,0.34758833050727844,2.9851991646852316e-13,-0.013367726467549801,1.2102748155593872,-0.00038631094503216445,-0.018647514283657074
436.0,535.0,0.3906,0.1974,9.4929,-0.0397,0.0275,-0.1246,-1.6876551113524378,0.0,2.6723556518554688,-1.8955233097076416,-0.0,2.1100075244903564,-1.254040078525879,1.0999071906178354e-40,0.33797359466552734,-1.5252459684955042,-0.0,-0.0539231151342392,0.3475560247898102,5.425452408726626e-18,-0.004234071355313063,1.2102422714233398,-0.00034992449218407273,-0.028563130646944046
436.0,535.0,0.3906,0.1974,9.4929,-0.0397,0.0275,-0.1246,-1.687667032281393,0.0,2.6210885047912598,-1.8955278396606445,-0.0,2.1492221355438232,-1.2540442806533356,0.0,0.334844172000885,-1.5252540747271937,-0.0,-0.0487983413040638,0.34752359986305237,6.438196770096282e-24,-0.006151045672595501,1.2103071212768555,-0.0002742959186434746,0.009534211829304695
436.0,535.0,0.3906,0.1974,9.4929,-0.0397,0.0275,-0.1246,-1.6877032719054164,0.0,2.6601409912109375,-1.8955518007278442,-0.0,2.153869152069092,-1.2540237766555329,0.0,0.3266812562942505,-1.5252259413348597,-0.0,-0.07342362403869629,0.34762856364250183,1.170110413662753e-28,-0.013653152622282505,1.210282325744629,-0.00023360918567050248,0.03886151313781738
436.0,535.0,0.3906,0.1974,9.4929,-0.0397,0.0275,-0.1246,-1.6876551113524378,0.0,2.649491786956787,-1.8955397605895996,-0.0,2.1722707748413086,-1.2540401083282013,0.0,0.34270161390304565,-1.5251978079425257,-0.0,-0.06904405355453491,0.34756824374198914,1.3885295134460472e-34,-0.010505588725209236,1.2102783918380737,-0.0002252233389299363,-0.002015354111790657
436.0,535.0,0.3906,0.1974,9.4929,-0.0397,0.0275,-0.1246,-1.6876713238158167,0.0,2.6871981620788574,-1.8955358266830444,-0.0,2.1494197845458984,-1.2540680033019562,0.0,0.3405194878578186,-1.5252302328692835,-0.0,-0.05567212402820587,0.3475961685180664,1.6477167992763362e-40,-0.005549480207264423,1.2103230953216553,-0.00019476149464026093,-0.00045356061309576035
436.0,535.0,0.3906,0.1974,9.4929,-0.0397,0.0275,-0.1246,-1.6877113781371058,0.0,2.6577930450439453,-1.8955868482589722,-0.0,2.1189723014831543,-1.2540483933738251,0.0,0.3406204879283905,-1.5252216498004358,-0.0,-0.06104005500674248,0.3476002514362335,2.802596928649634e-45,0.005917390808463097,1.2103029489517212,-0.00017574537196196616,-0.02154652029275894
436.0,535.0,0.3906,0.1974,9.4929,-0.0397,0.0275,-0.1246,-1.6877075634398402,0.0,2.6927428245544434,-1.8954875469207764,-0.0,2.1894843578338623,-1.2540400487235566,0.0,0.340553879737854,-1.5252302328692835,-0.0,-0.06129509583115578,0.34760433435440063,0.0,-0.007969871163368225,1.2103071212768555,-0.00012424007582012564,-0.018333900719881058
429.0,536.0,0.6239,0.1956,9.4146,-0.0328,0.0341,-0.1219,-1.6876431904234828,0.0,2.6400606632232666,-1.8955273628234863,-0.0,2.124575614929199,-1.254040078525879,0.0,0.33469951152801514,-1.5252979437457483,-0.0,-0.0642099380493164,0.34757232666015625,0.0,-0.018803786486387253,1.210282564163208,-0.00010916977043962106,0.01711990498006344
429.0,536.0,0.6239,0.1956,9.4146,-0.0328,0.0341,-0.1219,-1.6876713238158167,0.0,2.6997570991516113,-1.8954875469207764,-0.0,2.1634609699249268,-1.2540397208980103,0.0,0.335438072681427,-1.5252259413348597,-0.0,-0.0634535551071167,0.34758833050727844,0.0,0.004260470625013113,1.2102346420288086,-0.00011914253991562873,-0.006637692451477051
429.0,536.0,0.6239,0.1956,9.4146,-0.0328,0.0341,-0.1219,-1.6876994572081507,0.0,2.6531386375427246,-1.8955159187316895,-0.0,2.148670196533203,-1.2540643972209473,0.0,0.34367653727531433,-1.5252378622638147,-0.0,-0.06821165978908539,0.3475395739078522,0.0,0.00012045027688145638,1.210274338722229,-0.00010752646630862728,-0.008225462399423122
429.0,536.0,0.6239,0.1956,9.4146,-0.0328,0.0341,-0.1219,-1.687667032281393,0.0,2.6680960655212402,-1.8955317735671997,-0.0,2.1753861904144287,-1.254040078525879,0.0,0.3410610556602478,-1.5252259413348597,-0.0,-0.0589810311794281,0.34757232666015625,0.0,-0.0032585319131612778,1.2102866172790527,-9.959396993508562e-05,0.015783321112394333
429.0,536.0,0.6239,0.1956,9.4146,-0.0328,0.0341,-0.1219,-1.687690874139303,0.0,2.648834705352783,-1.8955079317092896,-0.0,2.129441499710083,-1.254100279217102,0.0,0.344138503074646,-1.5252378622638147,-0.0,-0.06210750341415405,0.34762439131736755,0.0,-0.009237084537744522,1.210282564163208,-0.00012097354920115322,0.01345997303724289
429.0,536.0,0.6239,0.1956,9.4146,-0.0328,0.0341,-0.1219,-1.6876551113524378,0.0,2.6525068283081055,-1.8955198526382446,-0.0,2.1024973392486572,-1.2540520292571564,0.0,0.3409996032714844,-1.5252216498004358,-0.0,-0.0660569816827774,0.34754353761672974,0.0,-0.0011941298143938184,1.2102746963500977,-0.00011211451783310622,-0.0013893935829401016
429.0,536.0,0.6239,0.1956,9.4146,-0.0328,0.0341,-0.1219,-1.687690874139303,0.0,2.654956817626953,-1.8955312967300415,-0.0,2.1364240646362305,-1.2540279191783448,0.0,0.3488094210624695,-1.5252135435687464,-0.0,-0.062292009592056274,0.3475961685180664,0.0,-0.006491348147392273,1.2103071212768555,-0.0001055409011314623,0.04815743491053581
429.0,536.0,0.6239,0.1956,9.4146,-0.0328,0.0341,-0.1219,-1.6876994572081507,0.0,2.689699649810791,-1.8955273628234863,-0.0,2.139943838119507,-1.254040078525879,0.0,0.3405083119869232,-1.5252178351031702,-0.0,-0.05831017717719078,0.3476084768772125,0.0,-0.0018041697330772877,1.2103029489517212,-0.00011186994379386306,0.010221620090305805
429.0,536.0,0.6239,0.1956,9.4146,-0.0328,0.0341,-0.1219,-1.6876751385130824,0.0,2.6768903732299805,-1.8955438137054443,-0.0,2.109691619873047,-1.2540560823730011,0.0,0.3496702313423157,-1.5252540747271937,-0.0,-0.06395144760608673,0.3475359380245209,0.0,-0.012824591249227524,1.2102463245391846,-9.952130494639277e-05,0.005829412490129471
429.0,536.0,0.6239,0.1956,9.4146,-0.0328,0.0341,-0.1219,-1.6876994572081507,0.0,2.6534314155578613,-1.8955721855163574,-0.0,2.1287996768951416,-1.2540196639350434,0.0,0.34523898363113403,-1.525233570729391,-0.0,-0.06223664805293083,0.3475801646709442,0.0,-0.009887369349598885,1.2102948427200317,-9.143279021373019e-05,-0.012230354361236095
437.0,524.0,0.5234,0.1585,9.4654,-0.0331,0.0264,-0.1196,-1.6876832447447718,0.0,2.664910316467285,-1.8955988883972168,-0.0,2.1668741703033447,-1.2540359658053895,0.0,0.3420827090740204,-1.5252578894244593,-0.0,-0.0545051172375679,0.34756824374198914,0.0,-0.002824174938723445,1.2103148698806763,-8.300063200294971e-05,-0.0423436164855957
437.0,524.0,0.5234,0.1585,9.4654,-0.0331,0.0264,-0.1196,-1.6876193485655726,0.0,2.697558879852295,-1.895531415939331,-0.0,2.128929853439331,-1.2540359956077118,0.0,0.35507863759994507,-1.5252860228167933,-0.0,-0.07423585653305054,0.34758055210113525,0.0,-0.013446016237139702,1.210282564163208,-7.72978164604865e-05,0.01634467951953411
437.0,524.0,0.5234,0.1585,9.4654,-0.0331,0.0264,-0.1196,-1.687667032281393,0.0,2.622814655303955,-1.8955193758010864,-0.0,2.1380019187927246,-1.2540196639350434,0.0,0.3406788110733032,-1.5252097288714808,-0.0,-0.0545954555273056,0.34756824374198914,3.484328936487202e-10,-0.007001217920333147,1.210262417793274,-7.118417124729604e-05,-0.018097948282957077
437.0,524.0,0.5234,0.1585,9.4654,-0.0331,0.0264,-0.1196,-1.6876589260497035,0.0,2.640796661376953,-1.8955714702606201,-0.0,2.1693201065063477,-1.2540484231761475,0.0,0.3470118045806885,-1.5252655188189905,-0.0,-0.062331900000572205,0.34755194187164307,4.1347325691111513e-16,-0.009091459214687347,1.2102665901184082,-6.596672756131738e-05,-0.018322518095374107
437.0,524.0,0.5234,0.1585,9.4654,-0.0331,0.0264,-0.1196,-1.6876312694945277,0.0,2.6421236991882324,-1.895556092262268,-0.0,2.124981164932251,-1.2541040045074006,0.0,0.34047743678092957,-1.5252135435687464,-0.0,-0.06875195354223251,0.34762445092201233,7.514672524341432e-21,-0.013777820393443108,1.2102988958358765,-6.231293082237244e-05,0.030910270288586617
437.0,524.0,0.5234,0.1585,9.4654,-0.0331,0.0264,-0.1196,-1.6876751385130824,0.0,2.6408796310424805,-1.8955193758010864,-0.0,2.1583101749420166,-1.2540602546981354,0.0,0.3414171040058136,-1.5252540747271937,-0.0,-0.05973249673843384,0.34756824374198914,8.917400769158936e-27,-0.02070789784193039,1.2102506160736084,-5.8277990319766104e-05,-0.020716151222586632
437.0,524.0,0.5234,0.1585,9.4654,-0.0331,0.0264,-0.1196,-1.687695165673727,0.0,2.6467957496643066,-1.8954790830612183,-0.0,2.1500000953674316,-1.2540237468532105,0.0,0.33293384313583374,-1.5252459684955042,-0.0,-0.058258190751075745,0.347587913274765,1.0581969858099132e-32,-0.0022726363968104124,1.2102140188217163,-5.473391502164304e-05,0.0168970488011837
437.0,524.0,0.5234,0.1585,9.4654,-0.0331,0.0264,-0.1196,-1.6876708469786585,0.0,2.6532859802246094,-1.8955233097076416,-0.0,2.129265308380127,-1.2540680033019562,0.0,0.33219408988952637,-1.5252378622638147,-0.0,-0.07184510678052902,0.34754785895347595,1.9232209335688897e-37,0.004866062663495541,1.210274338722229,-5.2194543968653306e-05,0.024513334035873413
437.0,524.0,0.5234,0.1585,9.4654,-0.0331,0.0264,-0.1196,-1.6876512966551722,0.0,2.64615535736084,-1.8955601453781128,-0.0,2.146996259689331,-1.2540279191783448,0.0,0.34437882900238037,-1.5252135435687464,-0.0,-0.05070579797029495,0.3475801348686218,2.284116496849452e-43,-0.004750138148665428,1.2102506160736084,-5.745736416429281e-06,0.04504195600748062
426.0,539.0,0.4953,0.1645,9.4594,-0.0328,0.0206,-0.1194,-1.687678953210348,0.0,2.6549324989318848,-1.8955353498458862,-0.0,2.1818222999572754,-1.2540680033019562,0.0,0.34604352712631226,-1.5252378622638147,-0.0,-0.06195665895938873,0.3476002514362335,0.0,-0.004421726334840059,1.2103190422058105,-1.8615454501231393e-13,-0.0036116810515522957
426.0,539.0,0.4953,0.1645,9.4594,-0.0328,0.0206,-0.1194,-1.6876870594420375,0.0,2.63692569732666,-1.8955518007278442,-0.0,2.125675678253174,-1.2540720862201233,0.0,0.34278833866119385,-1.525233570729391,-0.0,-0.052423279732465744,0.34758880734443665,0.0,-0.0019871010445058346,1.2103029489517212,-8.091585487478381e-23,0.024413906037807465
426.0,539.0,0.4953,0.1645,9.4594,-0.0328,0.0206,-0.1194,-1.687667032281393,0.0,2.6662793159484863,-1.8955477476119995,-0.0,2.140333652496338,-1.2540442508510132,0.0,0.333781361579895,-1.5252016226397913,-0.0,-0.06404948979616165,0.3475519120693207,0.0,-0.007628982421010733,1.2103432416915894,-3.517172255587587e-32,-0.014122587628662586
426.0,539.0,0.4953,0.1645,9.4594,-0.0328,0.0206,-0.1194,-1.6877075634398402,0.0,2.6053996086120605,-1.8955596685409546,-0.0,2.1424918174743652,-1.2540762585452576,0.0,0.3258374333381653,-1.5252416769610804,-0.0,-0.06523610651493073,0.34756821393966675,0.0,0.001348519348539412,1.210307002067566,-1.1395190956073693e-39,0.02455609291791916
426.0,539.0,0.4953,0.1645,9.4594,-0.0328,0.0206,-0.1194,-1.6876913509764613,0.0,2.612874746322632,-1.8955079317092896,-0.0,2.1333324909210205,-1.2540279191783448,0.0,0.330314040184021,-1.5252497831927698,-0.0,-0.06575360149145126,0.34758421778678894,0.0,-0.003428800730034709,1.210270643234253,0.0,0.008067483082413673
426.0,539.0,0.4953,0.1645,9.4594,-0.0328,0.0206,-0.1194,-1.6876794300475062,0.0,2.647134304046631,-1.895556092262268,-0.0,2.139301300048828,-1.2539997559836884,0.0,0.339518278837204,-1.5252059141742151,-0.0,-0.057646218687295914,0.3475801646709442,0.0,-0.017423802986741066,1.2102988958358765,0.0,-0.009619763121008873
426.0,539.0,0.4953,0.1645,9.4594,-0.0328,0.0206,-0.1194,-1.6876632175841273,0.0,2.638428211212158,-1.8955438137054443,-0.0,2.1379613876342773,-1.2540237468532105,0.0,0.3509727120399475,-1.5252016226397913,-0.0,-0.06205037981271744,0.34758833050727844,0.0,0.0028439678717404604,1.2102664709091187,0.0,-0.029662420973181725
426.0,539.0,0.4953,0.1645,9.4594,-0.0328,0.0206,-0.1194,-1.6876913509764613,0.0,2.6432390213012695,-1.895552158355713,-0.0,2.120415687561035,-1.254047916536667,0.0,0.3313467800617218,-1.5252540747271937,-0.0,-0.046150945127010345,0.3475281596183777,0.0,-0.011606813408434391,1.2103071212768555,0.0,-0.022319503128528595
426.0,539.0,0.4953,0.1645,9.4594,-0.0328,0.0206,-0.1194,-1.6876875362791957,0.0,2.661271095275879,-1.8955438137054443,-0.0,2.1633553504943848,-1.2540237468532105,0.0,0.3416867256164551,-1.5252421537982386,-0.0,-0.05669582262635231,0.34757232666015625,0.0,0.00906798429787159,1.210282564163208,-2.2769776342190795e-10,0.02180016040802002
426.0,539.0,0.4953,0.1645,9.4594,-0.0328,0.0206,-0.1194,-1.6877075634398402,0.0,2.647416830062866,-1.8955397605895996,-0.0,2.1752612590789795,-1.254023627643921,0.0,0.3381485939025879,-1.5252655188189905,-0.0,-0.07621341198682785,0.3475642502307892,0.0,-0.005048439837992191,1.2102463245391846,-9.897345276167688e-20,0.016012193635106087
431.0,521.0,0.5408,0.128,9.4397,-0.0351,0.031,-0.1208,-1.6876832447447718,0.0,2.637266159057617,-1.8955119848251343,-0.0,2.091367483139038,-1.2540279191783448,0.0,0.342434823513031,-1.5252421537982386,-0.0,-0.06331942230463028,0.34757232666015625,0.0,-0.008448868989944458,1.210270643234253,-4.3020821244614453e-29,-0.02529849112033844
431.0,521.0,0.5408,0.128,9.4397,-0.0351,0.031,-0.1208,-1.6877156696715296,0.0,2.661325454711914,-1.8955233097076416,-0.0,2.1416189670562744,-1.2540157598308106,0.0,0.3528173565864563,-1.5252698103534144,-0.0,-0.06415291875600815,0.3475961685180664,0.0,-0.012856310233473778,1.2103148698806763,-1.3938197904726541e-36,0.00042530521750450134
431.0,521.0,0.5408,0.128,9.4397,-0.0351,0.031,-0.1208,-1.6877199612059535,0.0,2.6135830879211426,-1.8955601453781128,-0.0,2.157550573348999,-1.2540319126895447,0.0,0.3260473608970642,-1.5252259413348597,-0.0,-0.062270693480968475,0.3476203680038452,0.0,-0.005588286556303501,1.210290789604187,-0.0,-0.03379155695438385
431.0,521.0,0.5408,0.128,9.4397,-0.0351,0.031,-0.1208,-1.6876870594420375,0.0,2.6593923568725586,-1.8955438137054443,-0.0,2.14163875579834,-1.2540319126895447,0.0,0.3466140925884247,-1.525233570729391,-0.0,-0.045097462832927704,0.34756824374198914,0.0,-0.007344421464949846,1.2102748155593872,0.0,0.04551120102405548
431.0,521.0,0.5408,0.128,9.4397,-0.0351,0.031,-0.1208,-1.687695165673727,0.0,2.662975549697876,-1.8955601453781128,-0.0,2.1409802436828613,-1.2540762287429352,0.0,0.3445082902908325,-1.5252898375140589,-0.0,-0.06855896860361099,0.34758424758911133,0.0,-0.010390901938080788,1.210307002067566,0.0,-0.01277504675090313
431.0,521.0,0.5408,0.128,9.4397,-0.0351,0.031,-0.1208,-1.6876875362791957,0.0,2.659151077270508,-1.8955477476119995,-0.0,2.0973269939422607,-1.2541203957847138,0.0,0.3426983952522278,-1.525261704121725,-0.0,-0.06295768916606903,0.34762853384017944,0.0,-0.007385543547570705,1.2102746963500977,0.0,0.03230980783700943
431.0,521.0,0.5408,0.128,9.4397,-0.0351,0.031,-0.1208,-1.6876632175841273,0.0,2.6380348205566406,-1.8955079317092896,-0.0,2.1238555908203125,-1.254040078525879,0.0,0.33693140745162964,-1.5252216498004358,-0.0,-0.06432975828647614,0.3476080596446991,0.0,-0.007736332714557648,1.210278868675232,0.0,0.010298305191099644
431.0,521.0,0.5408,0.128,9.4397,-0.0351,0.031,-0.1208,-1.687695165673727,0.0,2.6261138916015625,-1.8955681324005127,-0.0,2.1394941806793213,-1.2541003090194245,0.0,0.33057689666748047,-1.5252497831927698,-0.0,-0.06510693579912186,0.34759655594825745,0.0,-0.0012601080816239119,1.2103266716003418,0.0,0.06452477723360062
431.0,521.0,0.5408,0.128,9.4397,-0.0351,0.031,-0.1208,-1.6876913509764613,0.0,2.665595531463623,-1.895552158355713,-0.0,2.1334404945373535,-1.254040078525879,0.0,0.3476172685623169,-1.5252178351031702,-0.0,-0.07279480993747711,0.347587913274765,0.0,-0.01782299391925335,1.2102587223052979,0.0,-0.026115434244275093
431.0,521.0,0.5408,0.128,9.4397,-0.0351,0.031,-0.1208,-1.6876994572081507,0.0,2.6942403316497803,-1.8954836130142212,-0.0,2.139333486557007,-1.254040078525879,0.0,0.34125033020973206,-1.5252497831927698,-0.0,-0.05898590758442879,0.34754377603530884,0.0,0.0014751420821994543,1.2102866172790527,0.0,-0.03232971951365471
443.0,555.0,0.5174,0.1537,9.3924,-0.0348,0.0353,-0.1167,-1.6876994572081507,0.0,2.6454689502716064,-1.8955482244491577,-0.0,2.18654465675354,-1.2540237766555329,0.0,0.3426104485988617,-1.525250260029928,-0.0,-0.06099824234843254,0.3475719392299652,0.0,-0.001044351258315146,1.2103229761123657,0.0,-0.03875872492790222
443.0,555.0,0.5174,0.1537,9.3924,-0.0348,0.0353,-0.1167,-1.687711854974264,0.0,2.670804738998413,-1.8955601453781128,-0.0,2.187187910079956,-1.2540279191783448,0.0,0.34850192070007324,-1.5252216498004358,-0.0,-0.056873470544815063,0.3475801646709442,0.0,-6.613065488636494e-05,1.210307002067566,0.0,0.014042928814888
443.0,555.0,0.5174,0.1537,9.3924,-0.0348,0.0353,-0.1167,-1.6876713238158167,0.0,2.6417417526245117,-1.8955079317092896,-0.0,2.143899440765381,-1.2540196639350434,0.0,0.3243555426597595,-1.525262180958883,-0.0,-0.057764723896980286,0.34756016731262207,0.0,-0.008089138194918633,1.2102385759353638,0.0,-0.004697871394455433
443.0,555.0,0.5174,0.1537,9.3924,-0.0348,0.0353,-0.1167,-1.687678953210348,0.0,2.6042442321777344,-1.8956198692321777,-0.0,2.1252782344818115,-1.2540721160224457,0.0,0.3427577018737793,-1.525233570729391,-0.0,-0.06802190840244293,0.3476080894470215,0.0,-0.0029889284633100033,1.2103554010391235,0.0,0.021824995055794716
443.0,555.0,0.5174,0.1537,9.3924,-0.0348,0.0353,-0.1167,-1.6877156696715296,0.0,2.6419520378112793,-1.8955397605895996,-0.0,2.1220664978027344,-1.2539992791465302,0.0,0.33500999212265015,-1.5252216498004358,-0.0,-0.0570569783449173,0.3475642502307892,0.0,-0.014724151231348515,1.210282564163208,0.0,-0.026128720492124557
443.0,555.0,0.5174,0.1537,9.3924,-0.0348,0.0353,-0.1167,-1.6876832447447718,0.0,2.7403838634490967,-1.8955641984939575,-0.0,2.1436409950256348,-1.2540400487235566,0.0,0.3473849594593048,-1.5252540747271937,-0.0,-0.07839235663414001,0.3476121723651886,0.0,0.001299617812037468,1.2102385759353638,0.0,0.013353422284126282
443.0,555.0,0.5174,0.1537,9.3924,-0.0348,0.0353,-0.1167,-1.6876994572081507,0.0,2.6570181846618652,-1.8955312967300415,-0.0,2.1051650047302246,-1.2540361744216462,0.0,0.32670319080352783,-1.5251734892474573,-0.0,-0.0608588382601738,0.34759247303009033,0.0,-0.001586142578162253,1.2102546691894531,0.0,0.009404852986335754
443.0,555.0,0.5174,0.1537,9.3924,-0.0348,0.0353,-0.1167,-1.6876632175841273,0.0,2.6483678817749023,-1.8955601453781128,-0.0,2.1421332359313965,-1.2540560525706788,0.0,0.3416522145271301,-1.5252216498004358,-0.0,-0.06811130046844482,0.34762856364250183,0.0,0.004766118712723255,1.2102746963500977,0.0,0.014982214197516441
443.0,555.0,0.5174,0.1537,9.3924,-0.0348,0.0353,-0.1167,-1.6876994572081507,0.0,2.665144920349121,-1.8955233097076416,-0.0,2.13218355178833,-1.2540680033019562,0.0,0.35305148363113403,-1.5252059141742151,-0.0,-0.061805177479982376,0.3476245403289795,0.0,-0.0006255822954699397,1.2103071212768555,0.0,-0.023483265191316605
443.0,555.0,0.5174,0.1537,9.3924,-0.0348,0.0353,-0.1167,-1.687690874139303,0.0,2.655106544494629,-1.8955153226852417,-0.0,2.132877826690674,-1.2540602546981354,0.0,0.33810701966285706,-1.5252259413348597,-0.0,-0.05447717010974884,0.34757232666015625,0.0,-0.006208269856870174,1.2102463245391846,0.0,0.0054132649675011635
423.0,547.0,0.588,0.0754,9.4427,-0.0464,0.0266,-0.1272,-1.6876832447447718,0.0,2.6630730628967285,-1.8955353498458862,-0.0,2.124420166015625,-1.2539909941009064,0.0,0.3400013744831085,-1.5252659956561487,-0.0,-0.06078817695379257,0.3475559949874878,0.0,-0.010090593248605728,1.2102506160736084,0.0,-0.02208002470433712
423.0,547.0,0.588,0.0754,9.4427,-0.0464,0.0266,-0.1272,-1.6877199612059535,0.0,2.663693428039551,-1.8955119848251343,-0.0,2.1207075119018555,-1.2540396612933655,0.0,0.32983434200286865,-1.525262180958883,-0.0,-0.06353916227817535,0.3476121723651886,0.0,-0.014001145958900452,1.2102506160736084,0.0,0.0016696674283593893
423.0,547.0,0.588,0.0754,9.4427,-0.0464,0.0266,-0.1272,-1.6876756153502406,0.0,2.6640236377716064,-1.895552158355713,-0.0,2.111138343811035,-1.254060224895813,0.0,0.35173842310905457,-1.5252297560321253,-0.0,-0.07794085890054703,0.3475760519504547,7.696849593230581e-07,-0.008605257607996464,1.2102423906326294,0.0,-0.002463624347001314
423.0,547.0,0.588,0.0754,9.4427,-0.0464,0.0266,-0.1272,-1.687667032281393,0.0,2.610133647918701,-1.8955762386322021,-0.0,2.0919723510742188,-1.2541044515422364,0.0,0.3347011208534241,-1.5252178351031702,-0.0,-0.05766294524073601,0.3476121723651886,1.398864270946154e-11,-0.015673892572522163,1.210270643234253,0.0,0.003704158589243889
423.0,547.0,0.588,0.0754,9.4427,-0.0464,0.0266,-0.1272,-1.687695165673727,0.0,2.640157699584961,-1.8955681324005127,-0.0,2.1887524127960205,-1.2540556651404877,0.0,0.33352571725845337,-1.5252259413348597,-0.0,-0.06447848677635193,0.34762030839920044,1.6599839026018233e-17,-0.005356082692742348,1.2102264165878296,0.0,-0.011060008779168129
423.0,547.0,0.588,0.0754,9.4427,-0.0464,0.0266,-0.1272,-1.6876589260497035,0.0,2.6307754516601562,-1.8954875469207764,-0.0,2.183187961578369,-1.2540560823730011,0.0,0.3363944888114929,-1.52519399324526,-0.0,-0.06700029969215393,0.347540020942688,3.0169388310244525e-22,-0.008734731003642082,1.2102546691894531,0.0,0.03452637046575546
423.0,547.0,0.588,0.0754,9.4427,-0.0464,0.0266,-0.1272,-1.6877199612059535,0.0,2.621758460998535,-1.8955518007278442,-0.0,2.0893964767456055,-1.2541044515422364,0.0,0.33845651149749756,-1.5252259413348597,-0.0,-0.05528193339705467,0.3475761115550995,3.580097451370579e-28,-0.015067411586642265,1.2102504968643188,0.0,0.011863045394420624
423.0,547.0,0.588,0.0754,9.4427,-0.0464,0.0266,-0.1272,-1.687667032281393,0.0,2.6582093238830566,-1.8954955339431763,-0.0,2.1374402046203613,-1.2540484231761475,0.0,0.3544277548789978,-1.5252259413348597,-0.0,-0.060287702828645706,0.3475601375102997,4.248377092180869e-34,-0.005735995247960091,1.2102463245391846,0.0,-0.0027372147887945175
423.0,547.0,0.588,0.0754,9.4427,-0.0464,0.0266,-0.1272,-1.6877395115294398,0.0,2.644787073135376,-1.8955438137054443,-0.0,2.1605381965637207,-1.254096196298935,0.0,0.3475775122642517,-1.5252578894244593,-0.0,-0.06663759797811508,0.3476162552833557,7.721216195562172e-39,-0.0013457117602229118,1.2102504968643188,0.0,-0.016290957108139992
426.0,545.0,0.4857,0.0837,9.35,-0.0389,0.0299,-0.1188,-1.6876870594420375,0.0,2.6600699424743652,-1.8955035209655762,-0.0,2.109254837036133,-1.2540319126895447,0.0,0.32866883277893066,-1.5252216498004358,-0.0,-0.067669577896595,0.34756413102149963,9.80908925027372e-45,-0.00741879316046834,1.2102746963500977,0.0,-0.003159790299832821
426.0,545.0,0.4857,0.0837,9.35,-0.0389,0.0299,-0.1188,-1.687723299066061,0.0,2.607112407684326,-1.8955477476119995,-0.0,2.117601156234741,-1.2540359956077118,0.0,0.3424699902534485,-1.525250260029928,-0.0,-0.053285516798496246,0.3475838899612427,0.0,0.011293678544461727,1.2102947235107422,-3.2280019044046704e-13,0.03684118762612343
426.0,545.0,0.4857,0.0837,9.35,-0.0389,0.0299,-0.1188,-1.6877356968321742,0.0,2.6136274337768555,-1.8955721855163574,-0.0,2.1253457069396973,-1.2540680033019562,0.0,0.34705814719200134,-1.5252259413348597,-0.0,-0.054268259555101395,0.3476080894470215,0.0,-0.01024068333208561,1.2102746963500977,-1.0458315095352856e-20,-0.020347101613879204
426.0,545.0,0.4857,0.0837,9.35,-0.0389,0.0299,-0.1188,-1.6876470051207484,0.0,2.663428783416748,-1.895483136177063,-0.0,2.144254684448242,-1.2540155512145539,0.0,0.33722972869873047,-1.5252097288714808,-0.0,-0.0654032975435257,0.34760022163391113,0.0,-0.0034587590489536524,1.2102988958358765,-4.54591990174856e-30,0.04902609810233116
426.0,545.0,0.4857,0.0837,9.35,-0.0389,0.0299,-0.1188,-1.687690874139303,0.0,2.6585593223571777,-1.8954750299453735,-0.0,2.131937026977539,-1.2541163724711915,0.0,0.33777207136154175,-1.5252302328692835,-0.0,-0.0632459744811058,0.347535640001297,0.0,-0.006816932465881109,1.2102222442626953,-1.4728202895284472e-37,0.006412009708583355
426.0,545.0,0.4857,0.0837,9.35,-0.0389,0.0299,-0.1188,-1.6876546345152796,0.0,2.6414730548858643,-1.8955159187316895,-0.0,2.140711545944214,-1.2540720862201233,0.0,0.3396592140197754,-1.5252741018878382,-0.0,-0.06752283871173859,0.34763625264167786,8.068220631685108e-05,0.001708656782284379,1.2103071212768555,-0.0,0.024337038397789
426.0,545.0,0.4857,0.0837,9.35,-0.0389,0.0299,-0.1188,-1.6877242527403773,0.0,2.6547207832336426,-1.895499587059021,-0.0,2.2110953330993652,-1.2540556651404877,0.0,0.33379635214805603,-1.5252421537982386,-0.0,-0.06298977136611938,0.3476043939590454,8.885420538717881e-05,-0.0036688640248030424,1.2102587223052979,0.0,-0.012990729883313179
426.0,545.0,0.4857,0.0837,9.35,-0.0389,0.0299,-0.1188,-1.6877314052977503,0.0,2.696397542953491,-1.8955198526382446,-0.0,2.1508190631866455,-1.2540798348239441,0.0,0.3309083580970764,-1.5252302328692835,-0.0,-0.07172705233097076,0.34766048192977905,0.00010410507820779458,-0.010638301260769367,1.2103229761123657,0.0,-0.030103322118520737
426.0,545.0,0.4857,0.0837,9.35,-0.0389,0.0299,-0.1188,-1.6877314052977503,0.0,2.6887595653533936,-1.8955079317092896,-0.0,2.146479606628418,-1.254035548572876,0.0,0.3316078782081604,-1.5252378622638147,-0.0,-0.05926453694701195,0.34760794043540955,0.00024964642943814397,0.003980506211519241,1.210315227508545,0.0,0.014945750124752522
426.0,545.0,0.4857,0.0837,9.35,-0.0389,0.0299,-0.1188,-1.687711854974264,0.0,2.634483814239502,-1.8955312967300415,-0.0,2.1837754249572754,-1.254063920383789,0.0,0.33738988637924194,-1.5252702871905726,-0.0,-0.06472878903150558,0.3476804792881012,0.00023556216910947114,0.014121200889348984,1.2102023363113403,0.0,0.05991330370306969
415.0,539.0,0.5952,0.0837,9.4355,-0.0357,0.0287,-0.1237,-1.6877271137633265,0.0,2.6145286560058594,-1.8955233097076416,-0.0,2.1032204627990723,-1.2541199785522004,0.0,0.342123419046402,-1.5252178351031702,-0.0,-0.07512038946151733,0.34762391448020935,0.00026710249949246645,0.002862596185877919,1.2102587223052979,-9.981015318771824e-05,0.04019453376531601
415.0,539.0,0.5952,0.0837,9.4355,-0.0357,0.0287,-0.1237,-1.6876875362791957,0.0,2.6497044563293457,-1.8955153226852417,-0.0,2.1054203510284424,-1.254132406120636,0.0,0.3470311164855957,-1.5252578894244593,-0.0,-0.06658851355314255,0.34763216972351074,0.00034511336707510054,0.02007848024368286,1.2102669477462769,-0.00010786091297632083,0.057529598474502563
415.0,539.0,0.5952,0.0837,9.4355,-0.0357,0.0287,-0.1237,-1.6876870594420375,0.0,2.615907669067383,-1.8955119848251343,-0.0,2.121779680252075,-1.2540556651404877,0.0,0.330520361661911,-1.5252097288714808,-0.0,-0.07517889887094498,0.3476441204547882,0.0003207229601684958,0.010531717911362648,1.2102264165878296,-9.988081728806719e-05,0.03291624039411545
415.0,539.0,0.5952,0.0837,9.4355,-0.0357,0.0287,-0.1237,-1.687695165673727,-1.3444876856283372e-07,2.5926947593688965,-1.8954790830612183,-0.0,2.15470552444458,-1.2540839177421113,-0.00024137420405168086,0.34587961435317993,-1.5252459684955042,-0.0,-0.0634593740105629,0.34762394428253174,0.0002931904455181211,0.022197067737579346,1.2102468013763428,-9.142559429164976e-05,0.0630476251244545
415.0,539.0,0.5952,0.0837,9.4355,-0.0357,0.0287,-0.1237,-1.6877638302245082,-5.844089261202264e-17,2.606407880783081,-1.8955438137054443,-0.0,2.110180377960205,-1.2541076701930542,-0.00038807609234936535,0.32040777802467346,-1.5252659956561487,-0.0,-0.07236863672733307,0.34768053889274597,0.0002926021406892687,0.009186985902488232,1.210242748260498,-8.429024455836043e-05,0.09643827378749847
415.0,539.0,0.5952,0.0837,9.4355,-0.0357,0.0287,-0.1237,-1.6877356968321742,-0.0006977063603699207,2.6225287914276123,-1.8954635858535767,-0.0,2.1274216175079346,-1.254128174190857,-0.0005552483489736915,0.3335900902748108,-1.5252216498004358,-0.0,-0.06449222564697266,0.3476358652114868,0.00031922594644129276,0.022503094747662544,1.2102711200714111,-9.255243639927357e-05,0.04422436282038689
415.0,539.0,0.5952,0.0837,9.4355,-0.0357,0.0287,-0.1237,-1.6877595386900843,-0.0008219382143579423,2.6072397232055664,-1.895539402961731,-0.0,2.1556804180145264,-1.2541118425181885,-0.0007572758477181196,0.3178292512893677,-1.5252183119403284,-0.0,-0.0740596130490303,0.34769585728645325,0.000323422544170171,0.023219026625156403,1.2103153467178345,-6.03119442530442e-05,0.09015253186225891
415.0,539.0,0.5952,0.0837,9.4355,-0.0357,0.0287,-0.1237,-1.687723299066061,-0.000924267980735749,2.567984104156494,-1.8955477476119995,-0.0,2.1741836071014404,-1.254132257109024,-0.0007726693293079734,0.3150295317173004,-1.5252302328692835,-0.0,-0.07471264898777008,0.347683846950531,0.00033301979419775307,0.021313827484846115,1.2102628946304321,-6.8631001340691e-05,0.09684420377016068
415.0,539.0,0.5952,0.0837,9.4355,-0.0357,0.0287,-0.1237,-1.687784334222311,-0.000858761603012681,2.5912418365478516,-1.895499587059021,-0.0,2.1253950595855713,-1.254156009559967,-0.0008052883786149323,0.31377163529396057,-1.5251978079425257,-0.0,-0.07774651050567627,0.3476838767528534,0.0003518445591907948,0.03781301528215408,1.2102751731872559,8.058168168645352e-05,0.09247666597366333
415.0,539.0,0.5952,0.0837,9.4355,-0.0357,0.0287,-0.1237,-1.6877595386900843,-0.0008670089882798493,2.514056444168091,-1.8955477476119995,-0.0,2.180792808532715,-1.2541601818851014,-0.0007596028735861182,0.3125000596046448,-1.5252216498004358,-0.0,-0.0803833156824112,0.3476482033729553,0.00040695926873013377,0.022297628223896027,1.210242748260498,5.565844548982568e-05,0.130669966340065
410.0,557.0,0.5731,0.1412,9.4146,-0.035,0.0284,-0.1165,-1.6878076992430628,-0.0007903637597337365,2.5380361080169678,-1.8955035209655762,-0.0,2.160364866256714,-1.2540911597064515,-0.0007465316448360682,0.3115008473396301,-1.5252216498004358,-0.0,-0.06726488471031189,0.3477400541305542,0.0007300873985514045,0.021237507462501526,1.2102386951446533,4.461943535716273e-05,0.1274789273738861
410.0,557.0,0.5731,0.1412,9.4146,-0.035,0.0284,-0.1165,-1.6877628765501917,-0.0007561033708043396,2.5365827083587646,-1.8954875469207764,-0.0,2.187041759490967,-1.2541199189475556,-0.0007834795978851616,0.3102779686450958,-1.5252216498004358,-0.0,-0.06723985075950623,0.34763187170028687,0.0038192810025066137,0.02543541230261326,1.2102550268173218,3.575554728740826e-05,0.11510413885116577
410.0,557.0,0.5731,0.1412,9.4146,-0.035,0.0284,-0.1165,-1.6877628765501917,-0.0007664451841264963,2.486057996749878,-1.895499587059021,-0.0,2.1862776279449463,-1.2541805070689698,-0.0009768098825588822,0.30238205194473267,-1.5252378622638147,-0.0,-0.06668256223201752,0.3478277027606964,0.02345406450331211,0.0457579642534256,1.2102186679840088,2.982984733534977e-05,0.16744589805603027
410.0,557.0,0.5731,0.1412,9.4146,-0.035,0.0284,-0.1165,-1.68778719524526,-0.00145444564986974,2.514652967453003,-1.8955079317092896,-0.0,2.125175714492798,-1.2541721624187012,-0.0015202970243990421,0.324311226606369,-1.5252340475665491,-0.0,-0.09256348758935928,0.3480510711669922,0.030322782695293427,0.041105981916189194,1.2102627754211426,2.6337942472309805e-05,0.15214170515537262
410.0,557.0,0.5731,0.1412,9.4146,-0.035,0.0284,-0.1165,-1.6878110371031703,-0.002672117203474045,2.4908857345581055,-1.8955035209655762,-0.0,2.2132515907287598,-1.2541840833476563,-0.0018540880410000682,0.29754865169525146,-1.5252097288714808,-0.0,-0.07530534267425537,0.34837037324905396,0.029497820883989334,0.026371076703071594,1.210250973701477,2.297598621225916e-05,0.18406730890274048
410.0,557.0,0.5731,0.1412,9.4146,-0.035,0.0284,-0.1165,-1.6877981624998988,-0.004280052147805691,2.4501590728759766,-1.8954551219940186,-0.0,2.1695735454559326,-1.2541960042766114,-0.0021560911554843187,0.2933179438114166,-1.5252540747271937,-0.0,-0.0754021629691124,0.3485458195209503,0.008276277221739292,0.03644778952002525,1.2102546691894531,4.07504485337995e-05,0.18966719508171082
410.0,557.0,0.5731,0.1412,9.4146,-0.035,0.0284,-0.1165,-1.687883039514059,-0.005343805532902479,2.4968528747558594,-1.8954715728759766,-0.0,2.126322031021118,-1.254240260725357,-0.0019384147599339485,0.2929704189300537,-1.5252421537982386,-0.0,-0.07883700728416443,0.3485821485519409,7.363913027802482e-06,0.040522560477256775,1.2102186679840088,3.7366640754044056e-05,0.23561815917491913
410.0,557.0,0.5731,0.1412,9.4146,-0.035,0.0284,-0.1165,-1.6879636249937953,-0.00652537913993001,2.4021172523498535,-1.8954756259918213,-0.0,2.220405101776123,-1.2542037528804322,-0.0014380894135683775,0.29707545042037964,-1.5252779165851038,-0.0,-0.07284785807132721,0.34852948784828186,8.738501242055996e-12,0.059179648756980896,1.2102388143539429,5.077919558971189e-05,0.2565644085407257
410.0,557.0,0.5731,0.1412,9.4146,-0.035,0.0284,-0.1165,-1.6880113087096156,-0.008021284826099873,2.3987531661987305,-1.895499587059021,-0.0,2.154571533203125,-1.254248009329178,-0.0014904823619872332,0.29539215564727783,-1.5252540747271937,-0.0,-0.07535815238952637,0.3485777676105499,1.5881793645635247e-16,0.03297534957528114,1.210242748260498,6.296845094766468e-05,0.1865520030260086
405.0,537.0,0.3589,0.3326,9.3601,-0.0331,0.0276,-0.1151,-1.6880542240538539,-0.010770732536911964,2.419037103652954,-1.8954715728759766,-0.0,2.1542510986328125,-1.2542640131763,-0.0015957225114107132,0.29362189769744873,-1.5252698103534144,-0.0,-0.07913969457149506,0.3486059904098511,1.8846376750579933e-22,0.04954252019524574,1.2102468013763428,5.790467548649758e-05,0.23789837956428528
405.0,537.0,0.3589,0.3326,9.3601,-0.0331,0.0276,-0.1151,-1.688235422173971,-0.012426739558577538,2.3766050338745117,-1.895479679107666,-0.0,2.1898136138916016,-1.2542558473399659,-0.0012868900084868073,0.2924385666847229,-1.5252216498004358,-0.0,-0.07746606320142746,0.3485495150089264,2.2364346292936653e-28,0.05964642018079758,1.2102386951446533,7.63195421313867e-05,0.24005092680454254
405.0,537.0,0.3589,0.3326,9.3601,-0.0331,0.0276,-0.1151,-1.6883274517455042,-0.013233792968094349,2.415238618850708,-1.8954837322235107,-0.0,2.2149291038513184,-1.2542356711677094,-0.0009935226989910007,0.2720499336719513,-1.5252459684955042,-0.0,-0.09493686258792877,0.34856998920440674,-7.5129973993171e-05,0.04270455241203308,1.2102468013763428,7.1472350100521e-05,0.2645953893661499
405.0,537.0,0.3589,0.3326,9.3601,-0.0331,0.0276,-0.1151,-1.688523908654684,-0.015193522907793522,2.357968807220459,-1.895499587059021,-0.0,2.2007298469543457,-1.2542036336711426,-0.0006492609973065555,0.285495400428772,-1.5252421537982386,-0.0,-0.09040382504463196,0.3485736548900604,-6.215337634785101e-05,0.046772971749305725,1.2102587223052979,6.621412467211485e-05,0.2699544429779053
405.0,537.0,0.3589,0.3326,9.3601,-0.0331,0.0276,-0.1151,-1.688578268090719,-0.016689978539943695,2.3856313228607178,-1.8954592943191528,8.243991032941267e-05,2.156278610229492,-1.2542840105346222,-0.00036139757139608264,0.27372390031814575,-1.5252578894244593,-0.0,-0.07743075489997864,0.3485375940799713,-5.3001727792434394e-05,0.05497605353593826,1.2102227210998535,4.9398520786780864e-05,0.2606511116027832
405.0,537.0,0.3589,0.3326,9.3601,-0.0331,0.0276,-0.1151,-1.6887709103026332,-0.017203623428940773,2.3655545711517334,-1.895471215248108,7.681126589886844e-05,2.1592442989349365,-1.254263923769333,-0.0002730832784436643,0.2836357653141022,-1.5252016226397913,-0.0,-0.09027592837810516,0.34851348400115967,-4.741640805150382e-05,0.048581067472696304,1.2102304697036743,4.6776844101259485e-05,0.26566433906555176
405.0,537.0,0.3589,0.3326,9.3601,-0.0331,0.0276,-0.1151,-1.6889177761473597,-0.021079793572425842,2.3455657958984375,-1.895431399345398,7.077127520460635e-05,2.1948797702789307,-1.254259930258133,-0.00020949405734427273,0.28981900215148926,-1.525245491658346,-0.0,-0.08720782399177551,0.34851792454719543,-4.189760147710331e-05,0.037392061203718185,1.2102025747299194,3.294270209153183e-05,0.29524943232536316
405.0,537.0,0.3589,0.3326,9.3601,-0.0331,0.0276,-0.1151,-1.6890942058958949,-0.021950818598270416,2.400984764099121,-1.8954558372497559,7.989922596607357e-05,2.198056221008301,-1.2542275053313752,-0.0001766005443641916,0.2868453562259674,-1.5252140204059046,-0.0,-0.09512068331241608,0.34854212403297424,-3.83288279408589e-05,0.036652013659477234,1.2102025747299194,-5.759456325904466e-05,0.3186561167240143
405.0,537.0,0.3589,0.3326,9.3601,-0.0331,0.0276,-0.1151,-1.6892973385252894,-0.021785840392112732,2.386836290359497,-1.895471215248108,7.439559703925624e-05,2.152745008468628,-1.2542398136905213,-0.00014762833598069847,0.2994023561477661,-1.525233570729391,-0.0,-0.07321717590093613,0.3486424386501312,-3.464056135271676e-05,0.050550781190395355,1.2102304697036743,-5.2398863772396e-05,0.25976812839508057
405.0,537.0,0.3589,0.3326,9.3601,-0.0331,0.0276,-0.1151,-1.6895457706847132,-0.022835146635770798,2.3813021183013916,-1.8954437971115112,6.96012211847119e-05,2.2175631523132324,-1.2542599600604554,-0.000126823375467211,0.27980470657348633,-1.5252741018878382,-0.0,-0.07020656019449234,0.34859418869018555,-3.1599789508618414e-05,0.03154502809047699,1.2102103233337402,-4.5741086069028825e-05,0.23293262720108032
422.0,538.0,0.539,0.2584,9.3763,-0.0275,0.0208,-0.1235,-1.6897536716856898,-0.025917235761880875,2.3433871269226074,-1.8955320119857788,6.618881889153272e-05,2.210958242416382,-1.2542516750148316,-0.00011397420894354582,0.2953181564807892,-1.5252378622638147,-0.0,-0.08515128493309021,0.34857815504074097,-2.952638897113502e-05,0.03994240611791611,1.2102386951446533,-6.228051643120125e-05,0.2898440957069397
422.0,538.0,0.539,0.2584,9.3763,-0.0275,0.0208,-0.1235,-1.6899925671019496,-0.027543801814317703,2.419860601425171,-1.8954951763153076,7.276114047272131e-05,2.1700925827026367,-1.254259930258133,-0.00010116249177372083,0.29134202003479004,-1.5252183119403284,-0.0,-0.10125687718391418,0.34859374165534973,-2.7288235287414864e-05,0.055167943239212036,1.2102669477462769,-7.445403753081337e-05,0.23743656277656555
422.0,538.0,0.539,0.2584,9.3763,-0.0275,0.0208,-0.1235,-1.6903015575804652,-0.028464073315262794,2.437436819076538,-1.8954437971115112,1.0208827916358132e-06,2.1664011478424072,-1.2542438966086884,-7.279323472175747e-05,0.29813334345817566,-1.5252135435687464,-0.0,-0.08457372337579727,0.3485376536846161,-2.53655161941424e-05,0.02778014913201332,1.2102067470550537,-8.411508315475658e-05,0.214140385389328
422.0,538.0,0.539,0.2584,9.3763,-0.0275,0.0208,-0.1235,-1.690618177453512,-0.02864118106663227,2.429278612136841,-1.8954319953918457,9.825111192185432e-05,2.1493852138519287,-1.254223809843399,-6.731090252287686e-05,0.29735156893730164,-1.5252578894244593,-0.0,-0.08181953430175781,0.3485220968723297,-2.4011978894122876e-05,0.027519073337316513,1.2102186679840088,-7.846299558877945e-05,0.24573412537574768
422.0,538.0,0.539,0.2584,9.3763,-0.0275,0.0208,-0.1235,-1.6908117733397425,-0.031209805980324745,2.4093880653381348,-1.8954473733901978,8.913673809729517e-05,2.1851489543914795,-1.2542721790126343,-6.15561511949636e-05,0.3095357418060303,-1.525233570729391,-0.0,-0.0805910974740982,0.34862232208251953,-2.2510532289743423e-05,0.023596690967679024,1.2102428674697876,-0.00013351993402466178,0.244320809841156
422.0,538.0,0.539,0.2584,9.3763,-0.0275,0.0208,-0.1235,-1.6911364994444789,-0.03450651466846466,2.4121744632720947,-1.8954399824142456,8.259272726718336e-05,2.1992745399475098,-1.2542804044536133,-5.761549618910067e-05,0.2984982430934906,-1.5252183119403284,-0.0,-0.09185291826725006,0.34858599305152893,-2.143812525901012e-05,0.034662287682294846,1.2101991176605225,-0.000140423042466864,0.22917479276657104
422.0,538.0,0.539,0.2584,9.3763,-0.0275,0.0208,-0.1235,-1.6914807758727015,-0.03506991267204285,2.417172431945801,-1.8954519033432007,9.078050788957626e-05,2.1564629077911377,-1.2542480391315003,-4.0010050724959e-05,0.3111138343811035,-1.5252016226397913,-0.0,-0.07208719849586487,0.3485454022884369,-2.0233252143952996e-05,0.05550599843263626,1.2102186679840088,-0.00014749709225725383,0.2672343850135803
422.0,538.0,0.539,0.2584,9.3763,-0.0275,0.0208,-0.1235,-1.6917668781676234,-0.031030528247356415,2.4063618183135986,-1.895487666130066,9.769838652573526e-05,2.188772201538086,-1.2542438966086884,-3.7249981687637046e-05,0.3094063401222229,-1.5252416769610804,-0.0,-0.09112393110990524,0.34857407212257385,-1.4152511385034927e-09,0.04232528805732727,1.2101706266403198,-0.0001320675655733794,0.20877692103385925
422.0,538.0,0.539,0.2584,9.3763,-0.0275,0.0208,-0.1235,-1.6920386753477992,-0.025394296273589134,2.411320686340332,-1.8954837322235107,9.199229680234566e-05,2.1838409900665283,-1.2542315286448975,-3.530187314026989e-05,0.30899569392204285,-1.525233570729391,-0.0,-0.07234035432338715,0.3485417366027832,-2.5721492061367597e-14,0.03337129205465317,1.2102108001708984,-0.00012185009836684912,0.2194320559501648
422.0,538.0,0.539,0.2584,9.3763,-0.0275,0.0208,-0.1235,-1.6923157177367152,-0.020285941660404205,2.441178321838379,-1.8954672813415527,8.57330160215497e-05,2.191739320755005,-1.2542398434928437,-3.3135693229269236e-05,0.3167210519313812,-1.5252178351031702,-0.0,-0.07946103066205978,0.3485335111618042,-3.052280304449333e-20,0.04161183908581734,1.2102067470550537,-0.00011110558261862025,0.22435231506824493
406.0,578.0,0.4433,-0.0018,9.3063,-0.027,0.0087,-0.1271,-1.6924506626524867,-0.014121629297733307,2.4504358768463135,-1.8954752683639526,8.02713111625053e-05,2.163283586502075,-1.254231945877411,-4.162654295214452e-05,0.30432528257369995,-1.525233570729391,-0.0,-0.088800810277462,0.34863391518592834,-3.622034508502063e-26,0.03887803107500076,1.2102067470550537,-0.00010210237087449059,0.25596749782562256
406.0,578.0,0.4433,-0.0018,9.3063,-0.027,0.0087,-0.1271,-1.6925631962218226,-0.008487525396049023,2.438739061355591,-1.8954514265060425,7.637869566679001e-05,2.1952123641967773,-1.2542721790126343,-3.9786460547475144e-05,0.2951827645301819,-1.5252378622638147,-0.0,-0.09528276324272156,0.34860965609550476,-6.58286804652576e-31,0.05272238701581955,1.2102711200714111,-9.588643297320232e-05,0.24166810512542725
406.0,578.0,0.4433,-0.0018,9.3063,-0.027,0.0087,-0.1271,-1.6926022968687953,-0.002826166106387973,2.396528959274292,-1.8954558372497559,0.00012339698150753975,2.1586649417877197,-1.2542439264110108,-4.721321250622523e-11,0.29590272903442383,-1.5252578894244593,-0.0,-0.10936495661735535,0.34857362508773804,-7.81166093102029e-37,0.04613976180553436,1.2102267742156982,-2.892432894441299e-05,0.2196653038263321
406.0,578.0,0.4433,-0.0018,9.3063,-0.027,0.0087,-0.1271,-1.6926104031004847,-0.0008120326092466712,2.407640218734741,-1.8954639434814453,0.0005844197585247457,2.2302916049957275,-1.2542922061732789,-5.602628622953135e-17,0.3021334409713745,-1.5252297560321253,-0.0,-0.08910351991653442,0.34856951236724854,-9.276595833830289e-43,0.04864147678017616,1.210250973701477,-9.027510117221027e-08,0.2790122628211975
406.0,578.0,0.4433,-0.0018,9.3063,-0.027,0.0087,-0.1271,-1.6925817928709925,-0.0005068978643976152,2.4097213745117188,-1.8954356908798218,0.0011411282466724515,2.2402050495147705,-1.254259930258133,-1.018250145400953e-21,0.29349958896636963,-1.5252135435687464,-0.0,-0.10467522591352463,0.34858596324920654,-0.0,0.040009744465351105,1.2102386951446533,-2.9247988376384683e-15,0.27568185329437256
406.0,578.0,0.4433,-0.0018,9.3063,-0.027,0.0087,-0.1271,-1.6925660572447718,-0.0003449485229793936,2.409935235977173,-1.8954403400421143,0.005300250370055437,2.177901268005371,-1.254259930258133,-1.2083218026502436e-27,0.3112683892250061,-1.5252659956561487,-0.0,-0.09298558533191681,0.3485454320907593,-0.0,0.05839382857084274,1.2102669477462769,-1.2713229100430724e-24,0.2752434015274048
406.0,578.0,0.4433,-0.0018,9.3063,-0.027,0.0087,-0.1271,-1.6926423511900843,-0.0003203056985512376,2.3869285583496094,-1.8953200578689575,0.01750326342880726,2.211634635925293,-1.2542398434928437,-2.1960653052987148e-32,0.2878579795360565,-1.5253060499774378,-0.0,-0.10245683789253235,0.3485855162143707,-0.0,0.035260070115327835,1.2102264165878296,-4.118924858441603e-32,0.27781403064727783
406.0,578.0,0.4433,-0.0018,9.3063,-0.027,0.0087,-0.1271,-1.692634721795553,-0.00029773544520139694,2.3925459384918213,-1.8951077461242676,0.01892971806228161,2.244572639465332,-1.2542679172805329,-2.6059947541048623e-38,0.30448776483535767,-1.5252817312823694,-0.0,-0.0926106870174408,0.34855765104293823,-0.0,0.03882060945034027,1.210250973701477,-1.7904390478678188e-41,0.34033697843551636
406.0,578.0,0.4433,-0.0018,9.3063,-0.027,0.0087,-0.1271,-1.6926185093321742,-0.0014511010376736522,2.3545291423797607,-1.8948591947555542,0.019674615934491158,2.208172082901001,-1.2542762917331238,-3.0828566215145976e-44,0.2941460907459259,-1.5252259413348597,-2.6492675715417136e-06,-0.10286425054073334,0.3486260771751404,-0.0,0.04411325603723526,1.2102346420288086,0.0,0.2651357352733612
406.0,578.0,0.4433,-0.0018,9.3063,-0.027,0.0087,-0.1271,-1.6926342449583949,-0.000757508329115808,2.3876681327819824,-1.8947316408157349,0.019577747210860252,2.22227144241333,-1.2542398434928437,-0.0,0.2876882255077362,-1.5252135435687464,-4.814912704653729e-11,-0.09930609911680222,0.3486101031303406,-0.0,0.04292042553424835,1.2102386951446533,0.00013350625522434711,0.314065158367157
445.0,567.0,0.7974,0.2937,9.734,-0.0359,0.024,-0.1229,-1.6925817928709925,-0.0004730051150545478,2.3604094982147217,-1.894543170928955,0.018512295559048653,2.2781777381896973,-1.2542320054820557,-0.0,0.28507354855537415,-1.5252459684955042,-5.713688538972465e-17,-0.09183886647224426,0.34856173396110535,-0.0,0.047148071229457855,1.2102631330490112,0.00015982626064214855,0.31454968452453613
445.0,567.0,0.7974,0.2937,9.734,-0.0359,0.024,-0.1229,-1.6925856075682582,-0.0003438865242060274,2.3291015625,-1.8943389654159546,0.01759176328778267,2.2987685203552246,-1.2542360884002228,-0.0,0.28572770953178406,-1.5252578894244593,-6.780236130091802e-23,-0.09723013639450073,0.3485896587371826,-0.0,0.05643542855978012,1.210250973701477,0.00040470383828505874,0.32853883504867554
445.0,567.0,0.7974,0.2937,9.734,-0.0359,0.024,-0.1229,-1.6926261387267054,-0.0003223797248210758,2.3443470001220703,-1.894252061843872,0.01446269266307354,2.234720468521118,-1.2542200845531006,-0.0,0.27415889501571655,-1.5252259413348597,-1.2322741118861016e-27,-0.0924772247672081,0.34854134917259216,-0.0,0.05400697886943817,1.2102627754211426,0.0003731978067662567,0.3411353826522827
445.0,567.0,0.7974,0.2937,9.734,-0.0359,0.024,-0.1229,-1.6926218471922816,-0.0010333340615034103,2.332252025604248,-1.894119381904602,0.009731187485158443,2.232886791229248,-1.254248009329178,-0.0,0.28886741399765015,-1.5252779165851038,-1.4622970645011749e-33,-0.10410694777965546,0.3486182987689972,-0.0,0.05108591914176941,1.2103110551834106,0.0003237699274905026,0.35460612177848816
445.0,567.0,0.7974,0.2937,9.734,-0.0359,0.024,-0.1229,-1.6926175556578578,-0.0015543093904852867,2.3057031631469727,-1.8940520286560059,0.005990129895508289,2.2546234130859375,-1.2542119187167664,-0.0,0.2796412706375122,-1.5252259413348597,-2.657652781213118e-38,-0.10264533013105392,0.3485814332962036,-0.0,0.04139755666255951,1.2102746963500977,0.00026855827309191227,0.3814179301261902
445.0,567.0,0.7974,0.2937,9.734,-0.0359,0.024,-0.1229,-1.6926661930479945,-0.0010575324995443225,2.3117189407348633,-1.8940476179122925,0.0023976315278559923,2.2137019634246826,-1.2542360884002228,-0.0,0.2933988571166992,-1.5252259413348597,-3.2229864679470793e-44,-0.10307756811380386,0.34853312373161316,-0.0,0.04507739096879959,1.2102627754211426,0.00025299712433479726,0.36795681715011597
445.0,567.0,0.7974,0.2937,9.734,-0.0359,0.024,-0.1229,-1.6926623783507289,-0.0010755060939118266,2.341710090637207,-1.8940123319625854,0.0008592661470174789,2.217846632003784,-1.2542558473399659,-0.0,0.30885615944862366,-1.525238339100973,-0.0,-0.11554363369941711,0.34862565994262695,-0.0,0.05741410702466965,1.2102669477462769,0.00021518886205740273,0.3590197265148163
445.0,567.0,0.7974,0.2937,9.734,-0.0359,0.024,-0.1229,-1.6926785908141078,-0.0021516033448278904,2.2978358268737793,-1.8940078020095825,0.0004679159028455615,2.1780335903167725,-1.2542356711677094,-2.362439666114824e-08,0.2806383967399597,-1.5252097288714808,-0.0,-0.10420975089073181,0.3485531806945801,-0.0,0.04982355609536171,1.210270643234253,0.0001922099618241191,0.4126240611076355
445.0,567.0,0.7974,0.2937,9.734,-0.0359,0.024,-0.1229,-1.6926690540709437,-0.004682487342506647,2.3034892082214355,-1.8940315246582031,0.00029432246810756624,2.212268590927124,-1.2542196673205872,-2.803425792560505e-14,0.2778588831424713,-1.5252378622638147,-0.0,-0.11453230679035187,0.3486018478870392,-0.0,0.05840405449271202,1.2102669477462769,0.0001695750979706645,0.40894246101379395
421.0,587.0,0.4481,0.3846,9.4953,-0.0356,0.0421,-0.1213,-1.6928140125670375,-0.006465408019721508,2.3138351440429688,-1.8940435647964478,0.0002217831352027133,2.209537982940674,-1.2542803448489686,-3.326728491936771e-20,0.27905404567718506,-1.5252302328692835,-0.0,-0.10652029514312744,0.3486498296260834,-0.0,0.043561287224292755,1.2102463245391846,0.00011973358050454408,0.3835991322994232
421.0,587.0,0.4481,0.3846,9.4953,-0.0356,0.0421,-0.1213,-1.6928092441954554,-0.006628486793488264,2.29369854927063,-1.8940004110336304,0.00022231040929909796,2.2457733154296875,-1.2543000143817444,-1.0615995961416047e-05,0.2831193804740906,-1.5252216498004358,-0.0,-0.12203415483236313,0.34867775440216064,-0.0,0.06711295247077942,1.2101902961730957,0.00012898846762254834,0.45658302307128906
421.0,587.0,0.4481,0.3846,9.4953,-0.0356,0.0421,-0.1213,-1.6929432354369105,-0.007516578771173954,2.255387306213379,-1.894024133682251,0.00018435949459671974,2.23976993560791,-1.2542356711677094,-0.0002930231858044863,0.27184492349624634,-1.5252059141742151,-0.0,-0.11984973400831223,0.34865403175354004,0.00020362962095532566,0.07026448845863342,1.2102746963500977,0.0001344654301647097,0.3645722270011902
421.0,587.0,0.4481,0.3846,9.4953,-0.0356,0.0421,-0.1213,-1.6929413280882777,-0.008694341406226158,2.2286386489868164,-1.8940402269363403,0.00016220775432884693,2.2460217475891113,-1.254231647854187,-0.0005799187929369509,0.26586049795150757,-1.5252578894244593,-0.0,-0.09949184209108353,0.34864166378974915,0.00023450875596608967,0.06317753344774246,1.210299015045166,0.00012454506941139698,0.4521152377128601
421.0,587.0,0.4481,0.3846,9.4953,-0.0356,0.0421,-0.1213,-1.6930738888182582,-0.011831209994852543,2.2243595123291016,-1.8940321207046509,0.00016453074931632727,2.2271008491516113,-1.254299984579422,-0.0008294195285998285,0.2584497630596161,-1.5252259413348597,-0.0,-0.12247445434331894,0.3486737012863159,0.000499495305120945,0.06878600269556046,1.2102627754211426,0.00012953361147083342,0.44077354669570923
421.0,587.0,0.4481,0.3846,9.4953,-0.0356,0.0421,-0.1213,-1.6931606731810511,-0.0136355459690094,2.2069573402404785,-1.8940681219100952,0.00011019066732842475,2.2327017784118652,-1.2542959314635773,-0.0009224754176102579,0.2618884742259979,-1.525222126637594,-0.0,-0.12277662754058838,0.34867334365844727,0.0007923587691038847,0.07269598543643951,1.210242748260498,0.00011884328705491498,0.47389763593673706
421.0,587.0,0.4481,0.3846,9.4953,-0.0356,0.0421,-0.1213,-1.6933051548399867,-0.015778502449393272,2.2177932262420654,-1.8940283060073853,0.0001378484594170004,2.248927354812622,-1.2542918187430878,-0.0011662333272397518,0.26994937658309937,-1.525238339100973,-0.0,-0.11706527322530746,0.3486892879009247,0.0007961451192386448,0.0749204084277153,1.2102627754211426,0.00011148287012474611,0.4827001094818115
421.0,587.0,0.4481,0.3846,9.4953,-0.0356,0.0421,-0.1213,-1.6935259304442347,-0.01878541149199009,2.199216604232788,-1.8940043449401855,0.00014417928468901664,2.22995662689209,-1.2542957824519654,-0.001305583049543202,0.26426824927330017,-1.5252216498004358,-0.0,-0.12423932552337646,0.3487216532230377,0.0005647101206704974,0.08013427257537842,1.2102546691894531,0.0001034723172779195,0.4413619637489319
421.0,587.0,0.4481,0.3846,9.4953,-0.0356,0.0421,-0.1213,-1.6937180958189906,-0.02409197762608528,2.1846635341644287,-1.8940680027008057,0.00013105824473313987,2.201324462890625,-1.2543563407710572,-0.0013212192570790648,0.25368839502334595,-1.5252020994769495,-0.0,-0.11457344889640808,0.3486413061618805,0.0004844516806770116,0.06017720699310303,1.2102264165878296,9.653574670664966e-05,0.4668343663215637
421.0,587.0,0.4481,0.3846,9.4953,-0.0356,0.0421,-0.1213,-1.6939250431456507,-0.028584983199834824,2.1526246070861816,-1.8940197229385376,0.000278809922747314,2.2567906379699707,-1.254332260494568,-0.0011699398746713996,0.27042651176452637,-1.5251978079425257,-0.0,-0.13496051728725433,0.34870973229408264,0.00041706638876348734,0.06472420692443848,1.2102388143539429,9.162205969914794e-05,0.5351970791816711
425.0,564.0,0.3715,0.3296,9.4834,-0.0211,0.0228,-0.1179,-1.694212099114889,-0.035448648035526276,2.1862590312957764,-1.8939886093139648,0.0014043512055650353,2.2841897010803223,-1.2543358367732544,-0.0006741881952621043,0.2454909384250641,-1.5252216498004358,-0.0,-0.12240424752235413,0.34867364168167114,0.00028744767769239843,0.06977240741252899,1.2102627754211426,8.614134276285768e-05,0.5116430521011353
425.0,564.0,0.3715,0.3296,9.4834,-0.0211,0.0228,-0.1179,-1.694524427453512,-0.04534163698554039,2.127476692199707,-1.8939765691757202,0.0034841045271605253,2.2757530212402344,-1.2543240052512665,-0.0005887927254661918,0.24728310108184814,-1.525262180958883,-0.0,-0.13249000906944275,0.3486650884151459,0.00026265816995874047,0.07202199101448059,1.2102711200714111,8.220725430874154e-05,0.5048022270202637
425.0,564.0,0.3715,0.3296,9.4834,-0.0211,0.0228,-0.1179,-1.695040842095846,-0.05796855688095093,2.10825777053833,-1.893883466720581,0.005868142936378717,2.23886775970459,-1.2543523472598572,-0.00045893024071119726,0.2544803023338318,-1.525245491658346,-1.2949489246238954e-05,-0.12566888332366943,0.3486974239349365,0.0002551236539147794,0.07508480548858643,1.2102710008621216,1.2726887099745454e-08,0.5585037469863892
425.0,564.0,0.3715,0.3296,9.4834,-0.0211,0.0228,-0.1179,-1.6956922016539515,-0.0713360458612442,2.113597869873047,-1.8938645124435425,0.009074869565665722,2.2752809524536133,-1.2543723446181794,-0.0003479832084849477,0.2602781653404236,-1.5252984205829065,-1.536670964086273e-11,-0.12526565790176392,0.3487216532230377,0.00031740040867589414,0.072929747402668,1.2102631330490112,5.531999889068356e-18,0.5619809031486511
425.0,564.0,0.3715,0.3296,9.4834,-0.0211,0.0228,-0.1179,-1.6962353191771449,-0.0800430029630661,2.08735728263855,-1.893759846687317,0.012478800490498543,2.2962403297424316,-1.2543563407710572,-0.0002915964578278363,0.2671222686767578,-1.525245491658346,-2.792823534099282e-16,-0.12931473553180695,0.3487537205219269,0.000354395859176293,0.06260614097118378,1.2102346420288086,1.7922974000808622e-25,0.5211226940155029
425.0,564.0,0.3715,0.3296,9.4834,-0.0211,0.0228,-0.1179,-1.697118421594137,-0.08924354612827301,2.117781162261963,-1.8936079740524292,0.015652373433113098,2.275369882583618,-1.2543723446181794,-0.00024248618865385652,0.26507747173309326,-1.525257412587301,-3.3141472888851346e-22,-0.11748109757900238,0.3487294316291809,0.0005958313122391701,0.08027120679616928,1.2102386951446533,1.2641314242500812e-05,0.5536186695098877
425.0,564.0,0.3715,0.3296,9.4834,-0.0211,0.0228,-0.1179,-1.6980611286559046,-0.0936521589756012,2.133729934692383,-1.8934636116027832,0.01922460086643696,2.305588722229004,-1.254368172293045,-0.000152022679685615,0.2783552408218384,-1.5252540747271937,-3.9327833724364915e-28,-0.11828801035881042,0.3486974239349365,0.00046439809375442564,0.07654167711734772,1.2101950645446777,1.377226918663002e-13,0.5232853889465332
425.0,564.0,0.3715,0.3296,9.4834,-0.0211,0.0228,-0.1179,-1.6988564930357875,-0.09758356958627701,2.1382694244384766,-1.8932429552078247,0.02259289100766182,2.361086845397949,-1.2543723446181794,-0.0001604623394086957,0.282291054725647,-1.5252421537982386,-7.147638950581014e-33,-0.12441066652536392,0.34867334365844727,0.0003698025248013437,0.08531185984611511,1.2101507186889648,4.462040829690477e-21,0.49971532821655273
425.0,564.0,0.3715,0.3296,9.4834,-0.0211,0.0228,-0.1179,-1.699888368646139,-0.10550890117883682,2.0954065322875977,-1.8930398225784302,0.028727823868393898,2.344425678253174,-1.2543960970691224,-0.00016309390775859356,0.2776256203651428,-1.5252259413348597,-9.261958621209487e-05,-0.1260378658771515,0.3486892580986023,0.00029422310763038695,0.06391362845897675,1.2102115154266357,-0.0007084257667884231,0.5376296043395996
425.0,564.0,0.3715,0.3296,9.4834,-0.0211,0.0228,-0.1179,-1.7007395229735316,-0.11163800954818726,2.132213592529297,-1.8927522897720337,0.03678403049707413,2.3380985260009766,-1.2543600064567109,-0.0001478755148127675,0.2963116466999054,-1.5252378622638147,-0.00014135640230961144,-0.12790873646736145,0.3486573398113251,0.0002528805925976485,0.07746514678001404,1.210191011428833,-0.0006160796619951725,0.5032272338867188
433.0,588.0,-0.1657,-0.1047,9.0562,-0.024,-0.0032,-0.1323,-1.7019311390318812,-0.1205967515707016,2.1885886192321777,-1.892303705215454,0.04852127656340599,2.35146427154541,-1.2543677550605317,-9.738143853610381e-05,0.29927319288253784,-1.5252817312823694,-0.00012216770846862346,-0.12574654817581177,0.3487130105495453,0.0001882301439763978,0.06818452477455139,1.2101225852966309,-0.0005229809903539717,0.4794125556945801
433.0,588.0,-0.1657,-0.1047,9.0562,-0.024,-0.0032,-0.1323,-1.703113695184225,-0.12143059819936752,2.1558260917663574,-1.8917914628982544,0.06289556622505188,2.2960166931152344,-1.2543800932220002,-6.911800301168114e-05,0.3085867464542389,-1.525245491658346,-0.00010756565461633727,-0.11999837309122086,0.34874171018600464,0.00016375033010262996,0.06855304539203644,1.2101869583129883,-0.0009130251128226519,0.5288200378417969
433.0,588.0,-0.1657,-0.1047,9.0562,-0.024,-0.0032,-0.1323,-1.7040478191771449,-0.12578244507312775,2.127088785171509,-1.891203761100769,0.0730188637971878,2.3762810230255127,-1.2543517512134095,-5.991414946038276e-05,0.29141661524772644,-1.525245491658346,-9.817801765166223e-05,-0.11605960130691528,0.34864503145217896,7.521588850067928e-05,0.0494072288274765,1.2101514339447021,-0.0016249066684395075,0.4955575168132782
433.0,588.0,-0.1657,-0.1047,9.0562,-0.024,-0.0032,-0.1323,-1.7053433857359828,-0.13291528820991516,2.1467208862304688,-1.8904082775115967,0.0826704129576683,2.380708694458008,-1.2543800932220002,-5.136471736477688e-05,0.30312445759773254,-1.5252659956561487,-8.852123573888093e-05,-0.11707586795091629,0.3486855626106262,4.3677635403582826e-05,0.04744649678468704,1.2101316452026367,-0.0033940067514777184,0.4917110800743103
433.0,588.0,-0.1657,-0.1047,9.0562,-0.024,-0.0032,-0.1323,-1.7066575489439906,-0.1336795538663864,2.2050347328186035,-1.8894996643066406,0.09479868412017822,2.4372153282165527,-1.2543600064567109,-2.543382470321376e-05,0.30667150020599365,-1.5252540747271937,-8.059410902205855e-05,-0.11716055870056152,0.3486294150352478,6.606670126529934e-07,0.0523407980799675,1.2100354433059692,-0.004958198871463537,0.5233114957809448
433.0,588.0,-0.1657,-0.1047,9.0562,-0.024,-0.0032,-0.1323,-1.707646986047262,-0.13163095712661743,2.1283321380615234,-1.888749361038208,0.09960983693599701,2.3582217693328857,-1.2543482643416901,-2.0434139514691196e-05,0.30373069643974304,-1.5252416769610804,-7.520622602896765e-05,-0.12755241990089417,0.3486413359642029,1.2007296198990325e-11,0.039415426552295685,1.2100353240966797,-0.005617778282612562,0.47893476486206055
433.0,588.0,-0.1657,-0.1047,9.0562,-0.024,-0.0032,-0.1323,-1.7089668713011683,-0.126811221241951,2.1302008628845215,-1.887648105621338,0.10662820190191269,2.416656970977783,-1.2543439728072663,-1.835081093304325e-05,0.2992435097694397,-1.5252941290484827,-6.940640741959214e-05,-0.12129726260900497,0.3486175239086151,1.4248641000562806e-17,0.032688695937395096,1.2099230289459229,-0.004607492126524448,0.48649680614471436
433.0,588.0,-0.1657,-0.1047,9.0562,-0.024,-0.0032,-0.1323,-1.7099815807738246,-0.13406631350517273,2.203321695327759,-1.8867809772491455,0.1197807565331459,2.4519314765930176,-1.254368172293045,-1.6966961993603036e-05,0.2888574004173279,-1.5252016226397913,-6.537326407851651e-05,-0.12137532979249954,0.3486015200614929,2.589620073077686e-22,0.029547832906246185,1.209931492805481,-0.004812235943973064,0.4198022782802582
433.0,588.0,-0.1657,-0.1047,9.0562,-0.024,-0.0032,-0.1323,-1.7114173374571742,-0.13985618948936462,2.156627655029297,-1.8855060338974,0.13887996971607208,2.4512746334075928,-1.2543924313834687,-1.5505389455938712e-05,0.2963278293609619,-1.525233570729391,-6.094629497965798e-05,-0.1323927342891693,0.3486654758453369,3.0730126155580583e-28,0.01925816759467125,1.2098474502563477,-0.007214121520519257,0.46727079153060913
435.0,642.0,0.7202,0.3356,9.9111,-0.0087,-0.0276,-0.1425,-1.7128006420531214,-0.13746066391468048,2.2022485733032227,-1.8840157985687256,0.15105687081813812,2.4075284004211426,-1.2543200117400666,-1.427567440259736e-05,0.2957228124141693,-1.5252302328692835,-5.7080927945207804e-05,-0.1226222962141037,0.3486897051334381,-0.0003631118743214756,0.011995630338788033,1.209763765335083,-0.006815733388066292,0.4710758924484253
435.0,642.0,0.7202,0.3356,9.9111,-0.0087,-0.0276,-0.1425,-1.7139550648131312,-0.1324508786201477,2.1481339931488037,-1.8827933073043823,0.15877404808998108,2.420241355895996,-1.2543363136104126,-5.898808908000319e-08,0.2830340564250946,-1.525245491658346,-4.487579644774087e-05,-0.1350962370634079,0.34862980246543884,-0.00034750319900922477,0.015429897233843803,1.2097599506378174,-0.006036556791514158,0.439505934715271
435.0,642.0,0.7202,0.3356,9.9111,-0.0087,-0.0276,-0.1425,-1.7152844868102015,-0.13511130213737488,2.160187005996704,-1.8811544179916382,0.1718958169221878,2.4490180015563965,-1.2543400090983887,-6.999910769295639e-14,0.28099876642227173,-1.5252378622638147,-1.4955703591112979e-05,-0.13606613874435425,0.34862974286079407,-0.0004054517485201359,0.014251604676246643,1.2097039222717285,-0.0050103142857551575,0.4033324122428894
435.0,642.0,0.7202,0.3356,9.9111,-0.0087,-0.0276,-0.1425,-1.7166692219176234,-0.14643597602844238,2.1876163482666016,-1.8793411254882812,0.18776850402355194,2.448939800262451,-1.2543722850135346,-8.306553527371186e-20,0.2890942096710205,-1.5252216498004358,-1.3808344192511868e-05,-0.13580089807510376,0.3486059904098511,-0.0003863854508381337,0.006914024706929922,1.2096158266067505,-0.004001037683337927,0.4511831998825073
435.0,642.0,0.7202,0.3356,9.9111,-0.0087,-0.0276,-0.1425,-1.7178918323912562,-0.1414453685283661,2.2291407585144043,-1.8778029680252075,0.19398309290409088,2.4879205226898193,-1.25426338732753,-1.5096751617957249e-24,0.29378023743629456,-1.525261704121725,-1.3009909707761835e-05,-0.12372565269470215,0.34862199425697327,-0.0003225549589842558,-0.008720426820218563,1.2095917463302612,-0.0027623779606074095,0.4712948203086853
435.0,642.0,0.7202,0.3356,9.9111,-0.0087,-0.0276,-0.1425,-1.719236513177389,-0.1251760721206665,2.2111873626708984,-1.8757596015930176,0.21087703108787537,2.4413046836853027,-1.2543199819377442,-1.7914793455684323e-30,0.2727622985839844,-1.5252059141742151,-1.2132972187828273e-05,-0.12494746595621109,0.34866589307785034,-0.0002413233887637034,-0.0005340252537280321,1.2096203565597534,-0.001356039778329432,0.41301676630973816
435.0,642.0,0.7202,0.3356,9.9111,-0.0087,-0.0276,-0.1425,-1.7203098736205042,-0.1277712881565094,2.1667087078094482,-1.8740527629852295,0.21652404963970184,2.4777140617370605,-1.2543441218188782,5.1786177209578454e-05,0.26982244849205017,-1.5252578894244593,-1.1512187484186143e-05,-0.1255202442407608,0.34858179092407227,-0.0002382411330472678,-0.0011338143376633525,1.209604024887085,-0.0009853231022134423,0.4573574364185333
435.0,642.0,0.7202,0.3356,9.9111,-0.0087,-0.0276,-0.1425,-1.7215787372984828,-0.1405426412820816,2.177619457244873,-1.8718369007110596,0.21303467452526093,2.482004404067993,-1.254315899019577,6.145287750891626e-11,0.2911607325077057,-1.525261704121725,-1.0820170246006455e-05,-0.129299134016037,0.34867772459983826,-0.0002193817199440673,-0.012171492911875248,1.2095839977264404,-0.0009197948384098709,0.4564690589904785
435.0,642.0,0.7202,0.3356,9.9111,-0.0087,-0.0276,-0.1425,-1.7229978046812953,-0.13365669548511505,2.2101097106933594,-1.869585394859314,0.23162832856178284,2.4991633892059326,-1.2542877060225983,7.29239913397687e-17,0.2882288098335266,-1.5252135435687464,-1.020663603412686e-05,-0.14370082318782806,0.3486655354499817,-0.00019295525271445513,-0.004315095022320747,1.2096004486083984,-0.001372732687741518,0.40591537952423096
435.0,642.0,0.7202,0.3356,9.9111,-0.0087,-0.0276,-0.1425,-1.7239700756468714,-0.11205171048641205,2.15867018699646,-1.8676587343215942,0.24303342401981354,2.4539613723754883,-1.2542998951724549,1.3253578105019746e-21,0.27806973457336426,-1.5252016226397913,-8.393544703722e-08,-0.1388111710548401,0.3486137390136719,-0.0001718944840831682,-0.0037606307305395603,1.2096529006958008,-0.0013182151596993208,0.4307326078414917
442.0,660.0,0.877,0.082,9.8536,-0.0489,0.044,-0.1263,-1.7251020870604457,-0.10124580562114716,2.179011821746826,-1.865147352218628,0.25056540966033936,2.4380812644958496,-1.254336343412735,-0.00023626080655958503,0.26040083169937134,-1.5252059141742151,-9.960330222278171e-14,-0.11795299500226974,0.34863796830177307,-0.00017002387903630733,-0.005215190351009369,1.2095396518707275,-0.000710096035618335,0.40441375970840454
442.0,660.0,0.877,0.082,9.8536,-0.0489,0.044,-0.1263,-1.7261678181090296,-0.11776077747344971,2.189222812652588,-1.8627147674560547,0.24977950751781464,2.4508025646209717,-1.2543682020953675,-0.0016530895372852683,0.2701192796230316,-1.5252578894244593,-1.1819578602891384e-19,-0.12974955141544342,0.348617821931839,-0.00015433751104865223,-0.01195217203348875,1.2095766067504883,-0.0027700946666300297,0.3931245505809784
442.0,660.0,0.877,0.082,9.8536,-0.0489,0.044,-0.1263,-1.7270122967162074,-0.12187020480632782,2.1743903160095215,-1.8606324195861816,0.25564733147621155,2.4791646003723145,-1.2542794209769745,-0.0004833820858038962,0.27850639820098877,-1.5252020994769495,-2.1481496948052792e-24,-0.14058421552181244,0.34859374165534973,-0.0001228963810717687,-0.014107942581176758,1.2094357013702393,-0.006147460546344519,0.41040366888046265
442.0,660.0,0.877,0.082,9.8536,-0.0489,0.044,-0.1263,-1.7280904255309046,-0.10807687044143677,2.131648540496826,-1.8579280376434326,0.27539151906967163,2.500575542449951,-1.2543280285647889,-5.362559285515545e-09,0.2596092224121094,-1.5252302328692835,-2.5491351075547754e-30,-0.13843294978141785,0.34858185052871704,-0.00012412785144988447,-0.0069030942395329475,1.209444284439087,-0.005888230632990599,0.44800877571105957
442.0,660.0,0.877,0.082,9.8536,-0.0489,0.044,-0.1263,-1.7291885815062464,-0.09084774553775787,2.179208278656006,-1.855193018913269,0.28950560092926025,2.4528796672821045,-1.2543562811664124,-6.36356371514369e-15,0.24747782945632935,-1.525238339100973,-3.0249697666804794e-36,-0.1279412806034088,0.3485814034938812,-0.00011580920545384288,0.003172451164573431,1.2093966007232666,-0.0033202029298990965,0.4694768190383911
442.0,660.0,0.877,0.082,9.8536,-0.0489,0.044,-0.1263,-1.7299448452391566,-0.09316452592611313,2.13460111618042,-1.8529021739959717,0.29499199986457825,2.484297513961792,-1.2543517810157319,-1.156546096389685e-19,0.23112426698207855,-1.5252464453326624,-5.497714265085555e-41,-0.1297987997531891,0.34855765104293823,-0.00011540511331986636,-0.005977184046059847,1.2094125747680664,-0.002021600492298603,0.39280813932418823
442.0,660.0,0.877,0.082,9.8536,-0.0489,0.044,-0.1263,-1.7309376202025355,-0.10468001663684845,2.175095558166504,-1.8499860763549805,0.2887321412563324,2.4129128456115723,-1.254371927385666,-0.00406729755923152,0.24238917231559753,-1.5251739660846155,-0.0,-0.1383499801158905,0.34856170415878296,-0.00011325085506541654,-0.0012094103731215,1.2093123197555542,-0.0042281136848032475,0.41930270195007324
442.0,660.0,0.877,0.082,9.8536,-0.0489,0.044,-0.1263,-1.731725355187887,-0.10732446610927582,2.1725237369537354,-1.847695231437683,0.2948518693447113,2.417755603790283,-1.2544120115092774,-0.0016155430348590016,0.2352728396654129,-1.5251615683185022,-0.0,-0.11949687451124191,0.34852540493011475,-0.00010565364209469408,-0.0031811632215976715,1.2092725038528442,-0.006586502306163311,0.4139218032360077
442.0,660.0,0.877,0.082,9.8536,-0.0489,0.044,-0.1263,-1.732694765130514,-0.10345035791397095,2.133810520172119,-1.844694972038269,0.2943557798862457,2.3779520988464355,-1.2544002097896119,-0.0002401678793830797,0.23034384846687317,-1.5251343886004847,0.0005004068370908499,-0.11912166327238083,0.3485736548900604,-9.747967851581052e-05,-0.011526405811309814,1.2092446088790894,-0.005714442580938339,0.36402177810668945
442.0,660.0,0.877,0.082,9.8536,-0.0489,0.044,-0.1263,-1.7337905369200648,-0.09763052314519882,2.2205512523651123,-1.8416510820388794,0.30288752913475037,2.408822536468506,-1.254436270599701,-0.00021421845303848386,0.24286103248596191,-1.525153938923971,0.00041709886863827705,-0.10741044580936432,0.34859782457351685,-9.047961793839931e-05,0.002220652299001813,1.2091803550720215,-0.004927188623696566,0.29423975944519043
443.0,585.0,1.0367,0.0826,8.6674,-0.1042,0.1804,-0.1133,-1.7345978222289027,-0.09954698383808136,2.1968259811401367,-1.8393088579177856,0.2992197871208191,2.41827130317688,-1.2544198793223877,-0.0016241575358435512,0.23221942782402039,-1.525125805531637,0.0005399302463047206,-0.10086344182491302,0.3486059308052063,-8.556419925298542e-05,-0.010343226604163647,1.209204912185669,-0.003963402938097715,0.28173911571502686
443.0,585.0,1.0367,0.0826,8.6674,-0.1042,0.1804,-0.1133,-1.7355948887267054,-0.11452989280223846,2.207944631576538,-1.8363382816314697,0.29214319586753845,2.458019495010376,-1.2544718843749543,-0.006296486593782902,0.23620572686195374,-1.5250943342791956,0.0015567404916509986,-0.10371020436286926,0.34859782457351685,-8.012316538952291e-05,-0.0022056489251554012,1.209165334701538,-0.005073464009910822,0.3154160976409912
443.0,585.0,1.0367,0.0826,8.6674,-0.1042,0.1804,-0.1133,-1.7367168865599574,-0.1161990612745285,2.2064976692199707,-1.833367109298706,0.28757351636886597,2.429403781890869,-1.2545121771148224,-0.00351767148822546,0.23739713430404663,-1.525102440510885,0.0024236596655100584,-0.09777125716209412,0.34862199425697327,-7.533272582804784e-05,-0.012909255921840668,1.2090972661972046,-0.006124763283878565,0.30078426003456116
443.0,585.0,1.0367,0.0826,8.6674,-0.1042,0.1804,-0.1133,-1.7375742397704066,-0.11082974076271057,2.233572483062744,-1.8311275243759155,0.28620538115501404,2.397153377532959,-1.2545481783202668,-0.0011538040125742555,0.23514878749847412,-1.5250380674945276,0.0023424839600920677,-0.08273086696863174,0.3485896587371826,-7.189403550000861e-05,-0.00455985264852643,1.209061622619629,-0.007280056364834309,0.2600246071815491
443.0,585.0,1.0367,0.0826,8.6674,-0.1042,0.1804,-0.1133,-1.73866667369985,-0.10797757655382156,2.235661029815674,-1.8283017873764038,0.2893083691596985,2.3890085220336914,-1.2545035642436524,-0.0005605766200460494,0.21409852802753448,-1.525062386189596,0.001862219301983714,-0.07715292274951935,0.3486059904098511,-2.963499809993664e-07,-0.008361821994185448,1.2089529037475586,-0.006659205071628094,0.20272263884544373
443.0,585.0,1.0367,0.0826,8.6674,-0.1042,0.1804,-0.1133,-1.7396003208556117,-0.11066285520792007,2.1716461181640625,-1.8260164260864258,0.27640876173973083,2.454914093017578,-1.2545637649348755,-0.006097047124058008,0.23258650302886963,-1.5250299612628382,0.0030225503724068403,-0.07788756489753723,0.34864577651023865,-5.386014117342297e-12,-0.008808248676359653,1.2089256048202515,-0.006726174149662256,0.16032440960407257
443.0,585.0,1.0367,0.0826,8.6674,-0.1042,0.1804,-0.1133,-1.74076571087026,-0.12930728495121002,2.1660516262054443,-1.8232344388961792,0.2714287042617798,2.4693541526794434,-1.2546722155860444,-0.006822471506893635,0.22449351847171783,-1.5249622503863733,0.004474863409996033,-0.0694190263748169,0.3485773801803589,-6.391397118528793e-18,-0.010532302781939507,1.2087854146957397,-0.009012633003294468,0.16125887632369995
