ramyac6/ROB537/final_project/csv/good/good_3.csv
tof_0,tof_1,accelx,accely,accelz,gyrox,gyroy,gyroz,shoulder_lift_joint_position,shoulder_lift_joint_velocity,shoulder_lift_joint_effort,elbow_joint_position,elbow_joint_velocity,elbow_joint_effort,wrist_1_joint_position,wrist_1_joint_velocity,wrist_1_joint_effort,wrist_2_joint_position,wrist_2_joint_velocity,wrist_2_joint_effort,wrist_3_joint_position,wrist_3_joint_velocity,wrist_3_joint_effort,shoulder_pan_joint_position,shoulder_pan_joint_velocity,shoulder_pan_joint_effort
394.0,363.0,0.7089,-6.5151,6.7149,-0.0345,0.0283,-0.1182,-1.5940352878966273,0.0,2.861499309539795,-1.853222131729126,0.002152274129912257,2.5085437297821045,-1.2821412843516846,0.00013409997336566448,0.44497835636138916,-0.8580892721759241,-0.00018414328224025667,-0.19492614269256592,0.5486899614334106,0.0,0.016320668160915375,1.3162524700164795,0.00034428320941515267,0.3665633797645569
394.0,363.0,0.7089,-6.5151,6.7149,-0.0345,0.0283,-0.1182,-1.5939871273436488,0.0,2.887132167816162,-1.8531932830810547,0.0008866751450113952,2.4774818420410156,-1.2821453672698517,0.0001199673060909845,0.437680721282959,-0.8580697218524378,-0.00016326442710123956,-0.1953893005847931,0.5486735701560974,1.1970515724490927e-12,0.017725953832268715,1.3162765502929688,0.0004917052574455738,0.40786629915237427
394.0,363.0,0.7089,-6.5151,6.7149,-0.0345,0.0283,-0.1182,-1.5940352878966273,0.0,2.86557936668396,-1.8532416820526123,0.00048060089466162026,2.5145013332366943,-1.2820889216712494,0.00010342319001210853,0.44416141510009766,-0.8580492178546351,-0.00014371119323186576,-0.17669418454170227,0.5487460494041443,9.274845982546932e-20,0.03947523981332779,1.3162602186203003,0.000863080145791173,0.415108323097229
394.0,363.0,0.7089,-6.5151,6.7149,-0.0345,0.0283,-0.1182,-1.594062944451803,0.0,2.8776049613952637,-1.8532541990280151,0.0003296762297395617,2.5087757110595703,-1.2821814578822632,9.088935621548444e-05,0.4426034390926361,-0.8580864111529749,-0.00012834114022552967,-0.19944079220294952,0.5487297773361206,7.186222401492093e-27,0.020289774984121323,1.3163291215896606,0.0015515009872615337,0.3475727140903473
382.0,365.0,0.6012,-6.5569,6.5569,-0.0417,0.0338,-0.1098,-1.5940267048277796,0.0,2.871147632598877,-1.853245735168457,7.72345156292431e-05,2.5022597312927246,-1.282153235082962,8.106524910544977e-05,0.43634235858917236,-0.8581097761737269,-0.00011594075476750731,-0.1877807229757309,0.5487215518951416,5.567942051020851e-34,0.02851448953151703,1.3163371086120605,0.001504534506238997,0.4157474935054779
382.0,365.0,0.6012,-6.5569,6.5569,-0.0417,0.0338,-0.1098,-1.594034811059469,0.0,2.876412868499756,-1.8532664775848389,6.142107304185629e-05,2.481018304824829,-1.282153235082962,7.315772381843999e-05,0.4428834021091461,-0.8581216971026819,-0.000105725834146142,-0.19407790899276733,0.5486936569213867,4.314037452270382e-41,0.034956566989421844,1.3162884712219238,0.0006840815767645836,0.399488240480423
382.0,365.0,0.6012,-6.5569,6.5569,-0.0417,0.0338,-0.1098,-1.594006677667135,0.0,2.9089794158935547,-1.8532499074935913,7.647419988643378e-05,2.493598222732544,-1.2821052235415955,6.665581895504147e-05,0.44633370637893677,-0.858093563710348,-9.716508066048846e-05,-0.189129039645195,0.5487260222434998,0.0,0.029245344921946526,1.3163044452667236,0.0005171738448552787,0.3840659260749817
382.0,365.0,0.6012,-6.5569,6.5569,-0.0417,0.0338,-0.1098,-1.5940467319884242,0.0,2.89505934715271,-1.8531776666641235,8.715431613381952e-05,2.4958553314208984,-1.28213723123584,6.121538899606094e-05,0.438963919878006,-0.8581216971026819,-8.98869038792327e-05,-0.20412395894527435,0.5487215518951416,0.0,0.024840325117111206,1.3163448572158813,0.0002682712802197784,0.3837648034095764
382.0,365.0,0.6012,-6.5569,6.5569,-0.0417,0.0338,-0.1098,-1.5940104923644007,0.0,2.8843636512756348,-1.8532499074935913,-3.126688898191787e-05,2.4907305240631104,-1.282149152164795,5.659601083607413e-05,0.44062143564224243,-0.858093563710348,-8.362315566046163e-05,-0.19295892119407654,0.5487018823623657,0.0,0.02537671849131584,1.316340684890747,0.0001975871855393052,0.37280428409576416
382.0,365.0,0.6012,-6.5569,6.5569,-0.0417,0.0338,-0.1098,-1.594051023522848,0.0,2.9173104763031006,-1.8532334566116333,-5.34275641257409e-05,2.437098503112793,-1.2821449798396607,5.262489867163822e-05,0.44580817222595215,-0.858105484639303,-1.3258671742732986e-06,-0.188167542219162,0.5487220287322998,0.0,0.030040962621569633,1.3163083791732788,0.00015638532931916416,0.38190722465515137
382.0,365.0,0.6012,-6.5569,6.5569,-0.0417,0.0338,-0.1098,-1.5940305195250453,0.0,2.9111804962158203,-1.8531662225723267,-2.2679954781779088e-05,2.47465181350708,-1.2821335655501862,3.2462187391502084e-06,0.433368980884552,-0.8581016699420374,-1.0272919938759256e-13,-0.19340810179710388,0.5487254858016968,0.0,0.031244847923517227,1.3163083791732788,0.00012940246961079538,0.36212170124053955
382.0,365.0,0.6012,-6.5569,6.5569,-0.0417,0.0338,-0.1098,-1.5940152607359828,0.0,2.9000437259674072,-1.853169322013855,-5.091092825093568e-11,2.5171496868133545,-1.2821331483176728,2.5151950834578773e-13,0.44418156147003174,-0.8581097761737269,-7.959536558562272e-21,-0.19437289237976074,0.548721969127655,0.0,0.012335184961557388,1.3163002729415894,0.00013243309513200074,0.39781904220581055
392.0,369.0,0.5145,-6.1077,6.8937,-0.0351,0.0162,-0.1194,-1.594022890130514,0.0,2.895432472229004,-1.8532458543777466,-2.9689503395670686e-22,2.500398874282837,-1.282161371116974,1.9487929329700378e-20,0.4474233388900757,-0.8581016699420374,-6.167112238077212e-28,-0.19027715921401978,0.548713743686676,0.0,0.026871146634221077,1.3163566589355469,0.00011544553854037076,0.34701967239379883
392.0,369.0,0.5145,-6.1077,6.8937,-0.0351,0.0162,-0.1194,-1.5940548382201136,0.0,2.9301576614379883,-1.8532098531723022,-1.7313898537589705e-33,2.4540891647338867,-1.2821491223624726,1.5099395727177898e-27,0.4491034150123596,-0.8581097761737269,-4.7783262779497235e-35,-0.1941824108362198,0.548713743686676,0.0,0.020259033888578415,1.3163330554962158,0.0001023206059471704,0.4045427441596985
392.0,369.0,0.5145,-6.1077,6.8937,-0.0351,0.0162,-0.1194,-1.5940305195250453,0.0,2.927539348602295,-1.8532261848449707,-9.80908925027372e-45,2.4426045417785645,-1.2821012002280732,1.1699125893658048e-34,0.4544419050216675,-0.8580783049212855,-3.702230542746167e-42,-0.20294515788555145,0.5487502217292786,0.0,0.025329576805233955,1.3163124322891235,4.0282666304847226e-05,0.3714727759361267
392.0,369.0,0.5145,-6.1077,6.8937,-0.0351,0.0162,-0.1194,-1.5940624676146449,0.0,2.9002299308776855,-1.8532499074935913,-0.0,2.4412155151367188,-1.2821089786342164,9.064999765717242e-42,0.4303687810897827,-0.8580783049212855,-0.0,-0.19600334763526917,0.5486613512039185,0.0,0.01599009893834591,1.316328525543213,3.551390182110481e-05,0.31907206773757935
392.0,369.0,0.5145,-6.1077,6.8937,-0.0351,0.0162,-0.1194,-1.5940028629698695,0.0,2.9159317016601562,-1.8532902002334595,-0.0,2.4329049587249756,-1.2821736198714753,0.0,0.4389059543609619,-0.8580697218524378,-0.0,-0.19581076502799988,0.5487179160118103,0.0,0.036518000066280365,1.3163166046142578,3.175477104377933e-05,0.33772170543670654
392.0,369.0,0.5145,-6.1077,6.8937,-0.0351,0.0162,-0.1194,-1.59399475673818,0.0,2.9137141704559326,-1.8532663583755493,-0.0,2.467090129852295,-1.2820889216712494,0.0,0.4484257400035858,-0.8580415884601038,-0.0,-0.1960858404636383,0.5486372113227844,0.0,0.004271323326975107,1.3163366317749023,2.87153416138608e-05,0.35310912132263184
392.0,369.0,0.5145,-6.1077,6.8937,-0.0351,0.0162,-0.1194,-1.5940548382201136,0.0,2.8516905307769775,-1.8532459735870361,-0.0,2.4438257217407227,-1.2821331781199952,0.0,0.43825048208236694,-0.8580496946917933,-0.0,-0.17511984705924988,0.5487178564071655,0.0,0.02587723545730114,1.316283941268921,2.620691157062538e-05,0.34876275062561035
396.0,367.0,0.585,-6.4253,6.6945,-0.0215,0.0454,-0.1126,-1.5940147838988246,0.0,2.90071964263916,-1.8532416820526123,-0.0,2.438265323638916,-1.2821654838374634,0.0,0.4202673137187958,-0.8580616156207483,-0.0,-0.19242893159389496,0.5487216114997864,0.0,0.02612568996846676,1.3163288831710815,2.410153319942765e-05,0.3307265639305115
396.0,367.0,0.585,-6.4253,6.6945,-0.0215,0.0454,-0.1126,-1.594034811059469,0.0,2.8013525009155273,-1.8532623052597046,-0.0,2.4006237983703613,-1.2821412843516846,0.0,0.41348379850387573,-0.8580740133868616,-0.0,-0.17260625958442688,0.5487256646156311,0.0,0.00944877415895462,1.3163485527038574,2.2309262931230478e-05,0.3246779441833496
396.0,367.0,0.585,-6.4253,6.6945,-0.0215,0.0454,-0.1126,-1.594039102593893,0.0,2.791024684906006,-1.8532419204711914,-0.0,2.4039390087127686,-1.2821453970721741,0.0,0.43013837933540344,-0.8580496946917933,-0.0,-0.17837856709957123,0.5486776828765869,0.0,0.025805801153182983,1.3163124322891235,2.076512828352861e-05,0.30922889709472656
396.0,367.0,0.585,-6.4253,6.6945,-0.0215,0.0454,-0.1126,-1.5940586529173792,0.0,2.8143277168273926,-1.8532787561416626,-0.0,2.4238758087158203,-1.2820969981006165,0.0,0.4225764870643616,-0.8580616156207483,-1.723972076206337e-10,-0.1720411777496338,0.5486736297607422,0.0,0.01869097538292408,1.3163206577301025,3.5727871772195385e-09,0.29973387718200684
396.0,367.0,0.585,-6.4253,6.6945,-0.0215,0.0454,-0.1126,-1.5940147838988246,0.0,2.7853007316589355,-1.8532416820526123,-6.607596878893673e-05,2.460371732711792,-1.282141314154007,0.0,0.4059683084487915,-0.8580778280841272,-1.3357466387100226e-17,-0.17358672618865967,0.5486776232719421,0.0,0.008645732887089252,1.3163288831710815,2.0835275684991414e-20,0.29564982652664185
396.0,367.0,0.585,-6.4253,6.6945,-0.0215,0.0454,-0.1126,-1.594034811059469,0.0,2.78076171875,-1.8532179594039917,-6.072605901863426e-05,2.3760573863983154,-1.282153235082962,0.0,0.4095783829689026,-0.8580377737628382,-1.0349467548579985e-24,-0.17359942197799683,0.5487256646156311,0.0,-0.0008958214893937111,1.3163206577301025,1.215041742365872e-31,0.31221410632133484
396.0,367.0,0.585,-6.4253,6.6945,-0.0215,0.0454,-0.1126,-1.5939904652037562,0.0,2.751934289932251,-1.8532541990280151,-5.61775486858096e-05,2.3964648246765137,-1.28213723123584,0.0,0.40496960282325745,-0.8580535093890589,-8.018847478611733e-32,-0.16343341767787933,0.5486695766448975,0.0,0.020329583436250687,1.3163288831710815,7.090570229483574e-43,0.304172158241272
396.0,367.0,0.585,-6.4253,6.6945,-0.0215,0.0454,-0.1126,-1.5940710506834925,0.0,2.7359890937805176,-1.8532179594039917,-5.226295979809947e-05,2.3447635173797607,-1.2821695369533082,0.0,0.41227027773857117,-0.8580377737628382,-6.213064519437195e-39,-0.1565127968788147,0.5486658811569214,0.0,0.007803059183061123,1.316312551498413,0.0,0.28900837898254395
411.0,363.0,0.8297,-6.5677,6.7274,-0.0418,0.02,-0.1153,-1.5940586529173792,0.0,2.740705728530884,-1.8532416820526123,-7.718247729826544e-08,2.3920481204986572,-1.2821573180011292,0.0,0.40691936016082764,-0.8580778280841272,-0.0,-0.1571725606918335,0.548721969127655,0.0,0.0014302587369456887,1.3163288831710815,0.0,0.23459908366203308
411.0,363.0,0.8297,-6.5677,6.7274,-0.0418,0.02,-0.1153,-1.594039102593893,0.0,2.7266974449157715,-1.8532664775848389,-4.501017483218748e-19,2.389536142349243,-1.2821052235415955,0.0,0.39918798208236694,-0.8580415884601038,-0.0,-0.15095725655555725,0.5486453175544739,0.0,0.006798482965677977,1.3163448572158813,0.0,0.2901201844215393
411.0,363.0,0.8297,-6.5677,6.7274,-0.0418,0.02,-0.1153,-1.5940748653807582,0.0,2.6662795543670654,-1.8532664775848389,-2.624839012617788e-30,2.4000039100646973,-1.2821453970721741,0.0,0.396188348531723,-0.8581140677081507,-0.0,-0.16254167258739471,0.548657238483429,0.0,0.023644374683499336,1.316284418106079,0.0,0.29225248098373413
411.0,363.0,0.8297,-6.5677,6.7274,-0.0418,0.02,-0.1153,-1.5940224132933558,-4.0102837374433875e-05,2.661269187927246,-1.8532748222351074,-1.5307784424284302e-41,2.3197693824768066,-1.2821253103068848,0.0,0.3932574391365051,-0.8580778280841272,-0.0,-0.13619714975357056,0.5486735701560974,0.0,0.019995275884866714,1.3162798881530762,0.0,0.2878907024860382
411.0,363.0,0.8297,-6.5677,6.7274,-0.0418,0.02,-0.1153,-1.594062944451803,-3.538054079399444e-05,2.6968178749084473,-1.8532179594039917,-0.0,2.2982726097106934,-1.2821212273887177,1.5709800891272607e-06,0.3773327171802521,-0.8580496946917933,-0.0,-0.14856910705566406,0.5487297177314758,0.0,0.009882092475891113,1.316304326057434,0.0,0.24939672648906708
411.0,363.0,0.8297,-6.5677,6.7274,-0.0418,0.02,-0.1153,-1.594022890130514,-4.747226557810791e-05,2.7342796325683594,-1.8532334566116333,-0.0,2.327000141143799,-1.2821331185153504,1.2172073516215215e-13,0.37719637155532837,-0.8580458799945276,-0.0,-0.1387672871351242,0.5486412644386292,0.0,0.014062797650694847,1.3162760734558105,0.0,0.22196120023727417
411.0,363.0,0.8297,-6.5677,6.7274,-0.0418,0.02,-0.1153,-1.594051023522848,-4.294220343581401e-05,2.640821933746338,-1.8532501459121704,-0.0,2.3517398834228516,-1.282141314154007,9.43101655128595e-21,0.3764727711677551,-0.8580535093890589,-0.0,-0.13462324440479279,0.5486899614334106,0.0,0.012935258448123932,1.316256046295166,0.0,0.18686848878860474
362.0,375.0,0.585,-6.3864,6.6592,-0.0241,0.0275,-0.1101,-1.594034811059469,-5.2267685532569885e-05,2.662086009979248,-1.8532779216766357,-0.0,2.3148388862609863,-1.2821093064597626,7.3072252095205405e-28,0.37098580598831177,-0.8580496946917933,-0.0,-0.14863218367099762,0.5486899614334106,0.0,0.006169673055410385,1.316312551498413,0.0,0.1983317732810974
362.0,375.0,0.585,-6.3864,6.6592,-0.0241,0.0275,-0.1101,-1.5940305195250453,-4.808009907719679e-05,2.6349658966064453,-1.853273868560791,-0.0,2.3715221881866455,-1.28213723123584,5.661693350423068e-35,0.3758932054042816,-0.8580296675311487,-0.0,-0.1505260318517685,0.5486817359924316,0.0,-0.0014220441225916147,1.316340684890747,0.0,0.24226923286914825
362.0,375.0,0.585,-6.3864,6.6592,-0.0241,0.0275,-0.1101,-1.594062944451803,-4.4513180910144e-05,2.717115879058838,-1.8532934188842773,-0.0,2.3322784900665283,-1.282129393225052,4.3860641933366774e-42,0.3725828528404236,-0.8580778280841272,-0.0,-0.13875651359558105,0.548721969127655,0.0,0.001148550072684884,1.316300392150879,0.0,0.2364959716796875
362.0,375.0,0.585,-6.3864,6.6592,-0.0241,0.0275,-0.1101,-1.594051023522848,-4.1438950574956834e-05,2.6311073303222656,-1.8532779216766357,-0.0,2.2854506969451904,-1.282161371116974,0.0,0.3714630603790283,-0.8580296675311487,-0.0,-0.1369362324476242,0.5486977696418762,0.0,0.013208528980612755,1.3163083791732788,0.0,0.20960859954357147
362.0,375.0,0.585,-6.3864,6.6592,-0.0241,0.0275,-0.1101,-1.5940624676146449,-2.433401480317343e-09,2.6496264934539795,-1.8532583713531494,-0.0,2.291557788848877,-1.282149152164795,0.0,0.37513843178749084,-0.8580058256732386,-0.0,-0.13432152569293976,0.5486654043197632,0.0,0.003660446498543024,1.3162760734558105,0.0,0.19129560887813568
362.0,375.0,0.585,-6.3864,6.6592,-0.0241,0.0275,-0.1101,-1.5940147838988246,-1.419076485331309e-20,2.595161199569702,-1.8532179594039917,-0.0,2.2510623931884766,-1.2821736198714753,0.0,0.3619668781757355,-0.8580539862262171,-0.0,-0.1367613524198532,0.5486817359924316,0.0,0.012405777350068092,1.3163330554962158,0.0,0.148352712392807
362.0,375.0,0.585,-6.3864,6.6592,-0.0241,0.0275,-0.1101,-1.5940305195250453,-6.16830372667437e-30,2.5525643825531006,-1.8532459735870361,-0.0,2.3260111808776855,-1.282149152164795,0.0,0.3670669198036194,-0.8580415884601038,-0.0,-0.13670165836811066,0.5486776828765869,0.0,-0.007606209255754948,1.3163288831710815,0.0,0.22578179836273193
362.0,375.0,0.585,-6.3864,6.6592,-0.0241,0.0275,-0.1101,-1.5940104923644007,-3.5971331579218054e-41,2.5770111083984375,-1.8532458543777466,-0.0,2.287675380706787,-1.2821654838374634,0.0,0.36188650131225586,-0.858065430318014,-0.0,-0.14393089711666107,0.5486494302749634,0.0,-0.0060046399012207985,1.316272497177124,0.0,0.16603802144527435
393.0,354.0,0.7172,-6.4552,6.7968,-0.0498,0.0212,-0.1155,-1.5940152607359828,0.0,2.6028754711151123,-1.8532334566116333,-0.0,2.350271224975586,-1.2821331483176728,0.0,0.3627588152885437,-0.8580620924579065,-0.0,-0.14145338535308838,0.5486859083175659,0.0,-0.0006461956072598696,1.3163167238235474,0.0,0.1893681287765503
393.0,354.0,0.7172,-6.4552,6.7968,-0.0498,0.0212,-0.1155,-1.5940185985960902,0.0,2.605459690093994,-1.8532459735870361,-0.0,2.3427822589874268,-1.282141314154007,0.0,0.36404478549957275,-0.8580496946917933,-0.0,-0.1580713391304016,0.5485929250717163,0.0,0.005894672125577927,1.316300392150879,-8.013196202227846e-05,0.13538533449172974
393.0,354.0,0.7172,-6.4552,6.7968,-0.0498,0.0212,-0.1155,-1.5939985714354457,0.0,2.591413974761963,-1.8532376289367676,-0.0,2.337785243988037,-1.28213723123584,0.0,0.3742990493774414,-0.8580377737628382,-0.0,-0.13750815391540527,0.5487378835678101,0.0,-0.006529456004500389,1.316264271736145,-7.23969133105129e-05,0.1386558711528778
393.0,354.0,0.7172,-6.4552,6.7968,-0.0498,0.0212,-0.1155,-1.594039102593893,0.0,2.6007750034332275,-1.8532541990280151,-0.0,2.2820913791656494,-1.2821449798396607,0.0,0.3504047095775604,-0.858065430318014,-0.0,-0.13112418353557587,0.5486981868743896,0.0,0.006184314377605915,1.3162920475006104,-6.602383655263111e-05,0.20988214015960693
393.0,354.0,0.7172,-6.4552,6.7968,-0.0498,0.0212,-0.1155,-1.594039102593893,0.0,2.543142080307007,-1.8532419204711914,-0.0,2.29522967338562,-1.2821011704257508,0.0,0.37784743309020996,-0.8580902258502405,-0.0,-0.13821996748447418,0.5487060546875,0.0,-0.008331933990120888,1.3162962198257446,-6.068195580155589e-05,0.19461402297019958
393.0,354.0,0.7172,-6.4552,6.7968,-0.0498,0.0212,-0.1155,-1.5939909420409144,0.0,2.5604026317596436,-1.8532261848449707,-0.0,2.270451068878174,-1.2821171444705506,0.0,0.3665775656700134,-0.8580778280841272,-0.0,-0.13064394891262054,0.548665463924408,0.0,0.001652698963880539,1.3163167238235474,-6.736779323546216e-05,0.14191357791423798
393.0,354.0,0.7172,-6.4552,6.7968,-0.0498,0.0212,-0.1155,-1.5939542255797328,0.0,2.596149444580078,-1.8532698154449463,-7.4525173658912536e-06,2.2642011642456055,-1.2821449798396607,0.0,0.35001298785209656,-0.8580535093890589,-0.0,-0.1330636441707611,0.5486412048339844,0.0,0.00367417698726058,1.3162684440612793,-6.267635762924328e-05,0.18511329591274261
391.0,364.0,0.5892,-6.3721,6.7466,-0.0374,0.0254,-0.1139,-1.5940185985960902,0.0,2.509883403778076,-1.8532582521438599,-4.3460529295956654e-17,2.3179330825805664,-1.2821736198714753,0.0,0.3610363304615021,-0.8580620924579065,-0.0,-0.1347905844449997,0.5486859083175659,0.0,0.0037992619909346104,1.316320776939392,-9.256386590550392e-08,0.19448551535606384
391.0,364.0,0.5892,-6.3721,6.7466,-0.0374,0.0254,-0.1139,-1.5940104923644007,0.0,2.539130449295044,-1.8532583713531494,-2.5344693992926734e-28,2.3002355098724365,-1.282149152164795,0.0,0.35141149163246155,-0.8580415884601038,-0.0,-0.13722974061965942,0.5486330389976501,0.0,0.0030098375864326954,1.3162962198257446,-5.398007486580305e-19,0.21265852451324463
391.0,364.0,0.5892,-6.3721,6.7466,-0.0374,0.0254,-0.1139,-1.5940309963622035,0.0,2.5141611099243164,-1.8532829284667969,-1.4780153513512078e-39,2.259803533554077,-1.2821290057948609,0.0,0.3599141240119934,-0.8580821196185511,-0.0,-0.12133151292800903,0.5486859083175659,0.0,0.005552005022764206,1.316284418106079,-3.147933998733706e-30,0.16090232133865356
391.0,364.0,0.5892,-6.3721,6.7466,-0.0374,0.0254,-0.1139,-1.5940185985960902,0.0,2.534072160720825,-1.8531652688980103,-0.0,2.2238807678222656,-1.2820969981006165,0.0,0.35569319128990173,-0.8580578009234827,-0.0,-0.13036611676216125,0.548713743686676,0.0,-0.00043769064359366894,1.3162600994110107,-1.8357009882655104e-41,0.14770284295082092
391.0,364.0,0.5892,-6.3721,6.7466,-0.0374,0.0254,-0.1139,-1.5940386257567347,0.0,2.530567169189453,-1.8532819747924805,-0.0,2.262517213821411,-1.282153235082962,0.0,0.3473837375640869,-0.8580539862262171,-0.0,-0.13730604946613312,0.5486940145492554,0.0,0.0063027855940163136,1.3162802457809448,0.0,0.17648008465766907
391.0,364.0,0.5892,-6.3721,6.7466,-0.0374,0.0254,-0.1139,-1.594039102593893,-4.8586331626802176e-14,2.5157217979431152,-1.8532819747924805,-0.0,2.2946505546569824,-1.2821978491595765,0.0,0.3467877507209778,-0.8580415884601038,-0.0,-0.1293857991695404,0.5486494302749634,0.0,0.006577933207154274,1.316312551498413,0.0,0.20504918694496155
391.0,364.0,0.5892,-6.3721,6.7466,-0.0374,0.0254,-0.1139,-1.594010969201559,-2.8333881980991746e-25,2.542194366455078,-1.8532706499099731,-0.0,2.228273868560791,-1.282141314154007,0.0,0.35430753231048584,-0.8580697218524378,-0.0,-0.11100511252880096,0.5487096309661865,0.0,0.005292615387588739,1.3163044452667236,0.0,0.1631999909877777
391.0,364.0,0.5892,-6.3721,6.7466,-0.0374,0.0254,-0.1139,-1.594039102593893,-1.652334559762958e-36,2.5492422580718994,-1.853205680847168,-0.0,2.3297858238220215,-1.282153235082962,-4.808538012213148e-10,0.33609819412231445,-0.8580735365497034,-0.0,-0.13503722846508026,0.5487176179885864,0.0,0.011116000823676586,1.3163167238235474,0.0,0.19709837436676025
384.0,361.0,0.5569,-6.5324,6.7717,-0.0347,0.0273,-0.1093,-1.5940424404540003,-0.0,2.5792346000671387,-1.8532261848449707,-0.0,2.2643370628356934,-1.2821654838374634,-3.725692285599271e-17,0.3607100248336792,-0.8580535093890589,-0.0,-0.1267121434211731,0.5487220287322998,0.0,0.0026205091271549463,1.3162684440612793,-2.0531606423901394e-05,0.17463530600070953
384.0,361.0,0.5569,-6.5324,6.7717,-0.0347,0.0273,-0.1093,-1.5940586529173792,-0.00022141564113553613,2.5432071685791016,-1.8532541990280151,-0.0,2.249629497528076,-1.282153235082962,-2.8866962626303897e-24,0.35754311084747314,-0.8580454031573694,-0.0,-0.13368579745292664,0.5487338900566101,0.0,0.004064859822392464,1.316300392150879,-4.79409220655036e-11,0.15080586075782776
384.0,361.0,0.5569,-6.5324,6.7717,-0.0347,0.0273,-0.1093,-1.5940710506834925,-0.00020901832613162696,2.5053610801696777,-1.8532416820526123,-0.0,2.2257933616638184,-1.2821449798396607,-2.2366344953067514e-31,0.369904100894928,-0.8580821196185511,-0.0,-0.15090903639793396,0.5486854910850525,0.0,0.018219096586108208,1.3163206577301025,-2.795749806265171e-22,0.1463434100151062
384.0,361.0,0.5569,-6.5324,6.7717,-0.0347,0.0273,-0.1093,-1.5940710506834925,-0.00017801181820686907,2.562736988067627,-1.8533058166503906,-0.0,2.270057201385498,-1.282140926723816,-1.7329618486267613e-38,0.3552582263946533,-0.858093563710348,-0.0,-0.1403350681066513,0.5486736297607422,0.0,0.00643543666228652,1.3162884712219238,-1.630385134322581e-33,0.20678909122943878
384.0,361.0,0.5569,-6.5324,6.7717,-0.0347,0.0273,-0.1093,-1.5940753422179164,-0.0001550160814076662,2.576019048690796,-1.853222131729126,-0.0,2.300112724304199,-1.2821654838374634,-1.401298464324817e-45,0.3666023015975952,-0.8581135908709925,-0.0,-0.15102678537368774,0.5486376881599426,0.0,0.015106730163097382,1.3162760734558105,-9.80908925027372e-45,0.2022435963153839
384.0,361.0,0.5569,-6.5324,6.7717,-0.0347,0.0273,-0.1093,-1.594079156915182,-0.00012012195657007396,2.619652509689331,-1.8532294034957886,-0.0,2.3389124870300293,-1.282149152164795,-0.0,0.3776496648788452,-0.8581097761737269,-0.0,-0.16043777763843536,0.5486696362495422,0.0,0.012147628702223301,1.3163247108459473,0.0,0.17917956411838531
384.0,361.0,0.5569,-6.5324,6.7717,-0.0347,0.0273,-0.1093,-1.5940586529173792,-5.336976391845383e-05,2.6218066215515137,-1.8532829284667969,-0.0,2.338585138320923,-1.2821613115123291,-0.0,0.3714342713356018,-0.8580821196185511,-0.0,-0.13634368777275085,0.548721969127655,0.0,0.015871860086917877,1.3162921667099,0.0,0.25320833921432495
373.0,342.0,0.7693,-6.4247,6.7382,-0.0396,0.0327,-0.1151,-1.5940467319884242,-4.367971996543929e-05,2.5609092712402344,-1.8532334566116333,-0.0,2.380004405975342,-1.28213723123584,-0.0,0.3689078688621521,-0.8580616156207483,-0.0,-0.14629177749156952,0.5486736297607422,0.0,0.023113515228033066,1.316300392150879,0.0,0.19383642077445984
373.0,342.0,0.7693,-6.4247,6.7382,-0.0396,0.0327,-0.1151,-1.5940710506834925,-3.812830982496962e-05,2.6366705894470215,-1.8531982898712158,-0.0,2.325741767883301,-1.2821171444705506,-0.0,0.38696470856666565,-0.8580854574786585,-0.0,-0.1613815873861313,0.5486413240432739,0.0,-0.005029038526117802,1.3162760734558105,0.0,0.25133880972862244
373.0,342.0,0.7693,-6.4247,6.7382,-0.0396,0.0327,-0.1151,-1.594039102593893,-1.6914445950533263e-05,2.6305551528930664,-1.8532828092575073,-0.0,2.314723014831543,-1.2821974617293854,-0.0,0.3734702467918396,-0.8580740133868616,-0.0,-0.15350955724716187,0.5487174987792969,0.0,-0.008207820355892181,1.3163330554962158,0.0,0.22919873893260956
373.0,342.0,0.7693,-6.4247,6.7382,-0.0396,0.0327,-0.1151,-1.5940472088255824,-1.5200420421024319e-05,2.6279959678649902,-1.8532294034957886,-0.0,2.321807384490967,-1.282149152164795,-0.0,0.37513604760169983,-0.8580892721759241,-0.0,-0.15825581550598145,0.5486817359924316,0.0,0.009818634018301964,1.3163167238235474,0.0,0.23333802819252014
373.0,342.0,0.7693,-6.4247,6.7382,-0.0396,0.0327,-0.1151,-1.594079156915182,-2.593514034632385e-16,2.6437182426452637,-1.8532623052597046,-0.0,2.321497917175293,-1.282157228594162,-0.0,0.37427541613578796,-0.858105484639303,-0.0,-0.15043596923351288,0.548721969127655,0.0,0.00950617901980877,1.3163448572158813,0.0,0.21184241771697998
373.0,342.0,0.7693,-6.4247,6.7382,-0.0396,0.0327,-0.1151,-1.5939866505064906,-1.5124481927668514e-27,2.6439743041992188,-1.8532664775848389,-0.0,2.2985353469848633,-1.2822055381587525,-0.0,0.3666626214981079,-0.858065430318014,-0.0,-0.15094609558582306,0.5486813187599182,0.0,0.016719704493880272,1.3163083791732788,0.0,0.16522455215454102
373.0,342.0,0.7693,-6.4247,6.7382,-0.0396,0.0327,-0.1151,-1.5940147838988246,-8.820076616227157e-39,2.6439976692199707,-1.8532543182373047,-0.0,2.3455514907836914,-1.2821449798396607,-0.0,0.3893982172012329,-0.858093563710348,-0.0,-0.15853740274906158,0.5486735701560974,0.0,0.01383090391755104,1.316300392150879,0.0,0.20409315824508667
373.0,342.0,0.7693,-6.4247,6.7382,-0.0396,0.0327,-0.1151,-1.5940710506834925,0.0,2.6312074661254883,-1.8532419204711914,-0.0,2.344658136367798,-1.2821048361114045,-0.0,0.3722113370895386,-0.8581097761737269,-0.0,-0.15459731221199036,0.5486695170402527,0.0,0.0031739012338221073,1.3162802457809448,0.0,0.2192579209804535
372.0,379.0,0.3278,-6.2889,6.8632,-0.0386,0.0228,-0.1188,-1.594062944451803,0.0,2.6608059406280518,-1.8532541990280151,-8.031690157395133e-08,2.3591408729553223,-1.282140926723816,-0.0,0.3903319239616394,-0.8581135908709925,1.3595996073770267e-12,-0.15745586156845093,0.5487096905708313,0.0,0.0079735666513443,1.3162962198257446,0.0,0.2688694894313812
372.0,379.0,0.3278,-6.2889,6.8632,-0.0386,0.0228,-0.1188,-1.5940467319884242,0.0,2.6775479316711426,-1.8532334566116333,-4.68380682100495e-19,2.4088878631591797,-1.2821773153594513,-0.0,0.3899904489517212,-0.8581097761737269,1.0534285333826029e-19,-0.16296592354774475,0.5486936569213867,0.0,0.014180636033415794,1.316300392150879,0.0,0.26007378101348877
372.0,379.0,0.3278,-6.2889,6.8632,-0.0386,0.0228,-0.1188,-1.5940467319884242,0.0,2.7206239700317383,-1.8532302379608154,-2.731435285378603e-30,2.372551441192627,-1.282140926723816,-0.0,0.3929615020751953,-0.8580811659442347,8.162045652366418e-27,-0.17492690682411194,0.5486531853675842,0.0,0.013144263997673988,1.3163329362869263,0.0,0.28184986114501953
372.0,379.0,0.3278,-6.2889,6.8632,-0.0386,0.0228,-0.1188,-1.5940834484496058,0.0,2.716285228729248,-1.8532787561416626,-1.5928559643980196e-41,2.376565933227539,-1.282149152164795,-0.0,0.3990696966648102,-0.8581379095660608,6.3240158848724195e-34,-0.17254027724266052,0.5486936569213867,0.0,0.014401992782950401,1.3162962198257446,0.0,0.2602611482143402
372.0,379.0,0.3278,-6.2889,6.8632,-0.0386,0.0228,-0.1188,-1.5940543613829554,0.0,2.7081594467163086,-1.853222131729126,-0.0,2.4026026725769043,-1.282149003153183,-0.0,0.4096461534500122,-0.8581097761737269,4.899920340204588e-41,-0.1819227635860443,0.5487096309661865,0.0,0.018839821219444275,1.3162761926651,0.0,0.31359046697616577
372.0,379.0,0.3278,-6.2889,6.8632,-0.0386,0.0228,-0.1188,-1.594039102593893,0.0,2.7294816970825195,-1.8532706499099731,-0.0,2.425586223602295,-1.2821368438056489,-0.0,0.40991875529289246,-0.8580659071551722,0.0,-0.17179366946220398,0.5487579703330994,0.0,0.01882803440093994,1.3162962198257446,0.0,0.3047037124633789
372.0,379.0,0.3278,-6.2889,6.8632,-0.0386,0.0228,-0.1188,-1.5940667591490687,0.0,2.7310194969177246,-1.8532098531723022,-0.0,2.403169631958008,-1.2821695369533082,-0.0,0.4067559242248535,-0.8581298033343714,0.0,-0.1717650592327118,0.5486977100372314,0.0,0.03296031802892685,1.3163083791732788,0.0,0.2949610948562622
386.0,356.0,0.7836,-6.551,6.7717,-0.0385,0.0283,-0.1228,-1.5940872631468714,0.0,2.7416300773620605,-1.8532261848449707,-0.0,2.3630359172821045,-1.282149152164795,-0.0,0.4014720916748047,-0.858065430318014,0.0,-0.16426685452461243,0.5486854910850525,0.0,0.021112360060214996,1.316320776939392,0.0,0.25400978326797485
386.0,356.0,0.7836,-6.551,6.7717,-0.0385,0.0283,-0.1228,-1.5940104923644007,0.0,2.7115273475646973,-1.8532416820526123,-0.0,2.362325429916382,-1.282153235082962,-0.0,0.401985764503479,-0.8580740133868616,0.0,-0.17195264995098114,0.5486977100372314,0.0,0.021664055064320564,1.316320776939392,0.0,0.2787230312824249
386.0,356.0,0.7836,-6.551,6.7717,-0.0385,0.0283,-0.1228,-1.5940104923644007,0.0,2.6982216835021973,-1.8532376289367676,-0.0,2.3361878395080566,-1.282149152164795,-0.0,0.39716213941574097,-0.8581097761737269,0.0,-0.15928322076797485,0.5487179160118103,0.0,0.007363594137132168,1.3162643909454346,0.0,0.24237987399101257
386.0,356.0,0.7836,-6.551,6.7717,-0.0385,0.0283,-0.1228,-1.5940586529173792,0.0,2.682821035385132,-1.85331392288208,-0.0,2.3865764141082764,-1.2821368438056489,-0.0,0.38975608348846436,-0.8580973784076136,-2.790113830997143e-05,-0.16331632435321808,0.5486817955970764,0.0,0.018773887306451797,1.3162561655044556,3.882514156092892e-13,0.24601498246192932
386.0,356.0,0.7836,-6.551,6.7717,-0.0385,0.0283,-0.1228,-1.5940548382201136,0.0,2.604729413986206,-1.8532624244689941,-0.0,2.290799140930176,-1.2821089190295716,-9.614244333988609e-08,0.3764820098876953,-0.8580902258502405,-2.5606055714888498e-05,-0.1529807448387146,0.5486735701560974,0.0,0.005770514253526926,1.3162921667099,2.264149127120087e-24,0.25315719842910767
386.0,356.0,0.7836,-6.551,6.7717,-0.0385,0.0283,-0.1228,-1.5939985714354457,0.0,2.63791561126709,-1.853213906288147,-0.0,2.3257522583007812,-1.282153235082962,-7.449188902980582e-15,0.38120388984680176,-0.8580697218524378,-1.1796628314186819e-05,-0.1481626331806183,0.5486977100372314,0.0,-0.0003719469241332263,1.3162925243377686,1.3203741730540972e-35,0.189194917678833
386.0,356.0,0.7836,-6.551,6.7717,-0.0385,0.0283,-0.1228,-1.594034334222311,0.0,2.6101012229919434,-1.8532624244689941,-0.0,2.2762529850006104,-1.2821326118758698,-5.771688569928284e-22,0.37311288714408875,-0.8580740133868616,-1.0936157195828855e-05,-0.14660587906837463,0.548689603805542,0.0,0.020092954859137535,1.316284418106079,0.0,0.22801795601844788
386.0,356.0,0.7836,-6.551,6.7717,-0.0385,0.0283,-0.1228,-1.5941106281676234,0.0,2.554762125015259,-1.8532098531723022,-0.0,2.303584098815918,-1.282153145675995,-4.4719491455563995e-29,0.3574388027191162,-0.8580864111529749,-1.327868062617199e-06,-0.13368555903434753,0.548721969127655,0.0,0.006576106883585453,1.3162561655044556,0.0,0.2298888862133026
405.0,362.0,0.6473,-6.5438,6.8405,-0.0336,0.0266,-0.1213,-1.594107290307516,0.0,2.5539894104003906,-1.8532664775848389,-0.0,2.3136978149414062,-1.2821933192065735,-3.464900895109606e-36,0.3581589460372925,-0.8581178824054163,-1.0288422674573083e-13,-0.1336199939250946,0.548713743686676,0.0,0.010036281310021877,1.3163329362869263,0.0,0.21418282389640808
405.0,362.0,0.6473,-6.5438,6.8405,-0.0336,0.0266,-0.1213,-1.594046255151266,0.0,2.5565803050994873,-1.853222131729126,-0.0,2.2865350246429443,-1.2821491819671174,-2.6904930515036488e-43,0.36901193857192993,-0.858065430318014,-7.971548448902764e-21,-0.14290329813957214,0.5486695766448975,0.0,0.006518032401800156,1.316320776939392,0.0,0.1652032732963562
405.0,362.0,0.6473,-6.5438,6.8405,-0.0336,0.0266,-0.1213,-1.594107290307516,0.0,2.5537309646606445,-1.8532934188842773,-0.0,2.2905116081237793,-1.2822137934020539,-0.0,0.37041622400283813,-0.8580740133868616,-6.176417368603519e-28,-0.12545087933540344,0.5487257242202759,0.0,0.005024678539484739,1.3163248300552368,0.0,0.21081233024597168
405.0,362.0,0.6473,-6.5438,6.8405,-0.0336,0.0266,-0.1213,-1.5940991840758265,0.0,2.558986186981201,-1.8532543182373047,-0.0,2.2579476833343506,-1.2821933192065735,-0.0,0.3668615221977234,-0.8581016699420374,-4.785535938369977e-35,-0.136154443025589,0.5487256646156311,0.0,-0.0014672842808067799,1.3163371086120605,0.0,0.1677648276090622
405.0,362.0,0.6473,-6.5438,6.8405,-0.0336,0.0266,-0.1213,-1.5940906010069789,0.0,2.608193874359131,-1.8532698154449463,-0.0,2.2917604446411133,-1.2821249228766938,-0.0,0.3715263903141022,-0.8580616156207483,-3.707835736603466e-42,-0.15298005938529968,0.5487338304519653,0.0,0.026183953508734703,1.3163126707077026,0.0,0.21440303325653076
405.0,362.0,0.6473,-6.5438,6.8405,-0.0336,0.0266,-0.1213,-1.5940987072386683,0.0,2.6249680519104004,-1.8532779216766357,-0.0,2.268559455871582,-1.2821208399585267,-0.0,0.38027459383010864,-0.858105484639303,-0.0,-0.15172578394412994,0.5487015247344971,0.0,0.007578677497804165,1.3162925243377686,0.0,0.2049836814403534
405.0,362.0,0.6473,-6.5438,6.8405,-0.0336,0.0266,-0.1213,-1.5940586529173792,0.0,2.62245512008667,-1.8532664775848389,-0.0,2.3188676834106445,-1.2821933192065735,-0.0,0.3834293484687805,-0.8581422011004847,-0.0,-0.14994816482067108,0.5487579107284546,0.0,0.01620982214808464,1.3163288831710815,0.0,0.2077661007642746
391.0,368.0,0.4457,-6.3529,6.7555,-0.0339,0.0371,-0.1142,-1.5940424404540003,0.0,2.6746280193328857,-1.8532376289367676,-0.0,2.376650810241699,-1.2821933192065735,-0.0,0.39192378520965576,-0.8580854574786585,-0.0,-0.1561352014541626,0.5487419366836548,0.0,0.019169531762599945,1.316300630569458,0.0,0.28016579151153564
391.0,368.0,0.4457,-6.3529,6.7555,-0.0339,0.0371,-0.1142,-1.5940991840758265,0.0,2.6981091499328613,-1.8532583713531494,-0.0,2.4346673488616943,-1.2822212141803284,-0.0,0.39956653118133545,-0.858161751423971,-0.0,-0.16792073845863342,0.5486695170402527,0.0,0.011041476391255856,1.316312551498413,0.0,0.2765672206878662
391.0,368.0,0.4457,-6.3529,6.7555,-0.0339,0.0371,-0.1142,-1.5941311321654261,0.0,2.723865032196045,-1.8532376289367676,-0.0,2.4808244705200195,-1.282176987533905,-0.0,0.41377460956573486,-0.8581579367267054,-0.0,-0.1862770915031433,0.5486732721328735,0.0,0.027697062119841576,1.3163248300552368,-1.1914027027160046e-06,0.37307000160217285
391.0,368.0,0.4457,-6.3529,6.7555,-0.0339,0.0371,-0.1142,-1.5941230259337367,-6.617460894631222e-05,2.7602486610412598,-1.8532179594039917,-0.0,2.517198085784912,-1.2822372180274506,-0.0,0.4280368983745575,-0.8581698576556605,-0.0004590122844092548,-0.20197156071662903,0.5487579107284546,0.0,0.015690602362155914,1.3163167238235474,-6.94785309712179e-18,0.4258338510990143
391.0,368.0,0.4457,-6.3529,6.7555,-0.0339,0.0371,-0.1142,-1.594102521935934,-8.507938036927953e-05,2.7589595317840576,-1.853205680847168,0.00032382793142460287,2.511277198791504,-1.2822249990752717,-0.0,0.43352168798446655,-0.8581894079791468,-0.0006249045836739242,-0.22068184614181519,0.5487419366836548,0.0,0.014536223374307156,1.3163044452667236,-4.051749148436885e-29,0.5055801272392273
391.0,368.0,0.4457,-6.3529,6.7555,-0.0339,0.0371,-0.1142,-1.5941182575621546,-0.00037281218101270497,2.8057749271392822,-1.8532416820526123,0.0003621108189690858,2.5718812942504883,-1.2821809512427826,-0.0,0.45229673385620117,-0.8581612745868128,-0.000712488079443574,-0.23669201135635376,0.5487337708473206,0.0,0.03699003905057907,1.316336989402771,0.0005015569040551782,0.5719732046127319
391.0,368.0,0.4457,-6.3529,6.7555,-0.0339,0.0371,-0.1142,-1.5941664181151332,-0.000865269685164094,2.838224411010742,-1.8532582521438599,0.00033514638198539615,2.597557544708252,-1.2822209161571045,-0.0,0.44786298274993896,-0.858197037373678,-0.0005959942936897278,-0.22979623079299927,0.5487498044967651,3.7572715771982956e-11,0.02808370068669319,1.316312551498413,0.0010312206577509642,0.6315049529075623
391.0,368.0,0.4457,-6.3529,6.7555,-0.0339,0.0371,-0.1142,-1.5942031345763148,-0.002971106907352805,2.77913761138916,-1.853222131729126,0.00037057092413306236,2.609959125518799,-1.2822008293918152,-0.0,0.44463688135147095,-0.858185116444723,-0.0005332419532351196,-0.22729504108428955,0.5487738251686096,2.9111629042068745e-18,0.0228829737752676,1.316287636756897,0.0009983687195926905,0.6369001269340515
382.0,373.0,0.6341,-6.2716,6.8303,-0.0229,0.0206,-0.1251,-1.5942751369872035,-0.009482856839895248,2.764787197113037,-1.8532302379608154,0.0006534490967169404,2.652371883392334,-1.28225730479274,-0.0,0.4441666305065155,-0.8582294623004358,-0.0005615122499875724,-0.2399759143590927,0.548729658126831,2.255591711931669e-25,0.0191531702876091,1.3163247108459473,0.0009023533784784377,0.6754782199859619
382.0,373.0,0.6341,-6.2716,6.8303,-0.0229,0.0206,-0.1251,-1.5943666897215785,-0.004146764986217022,2.7553272247314453,-1.8532499074935913,0.001144380192272365,2.674800395965576,-1.282261000280716,-0.0,0.43735432624816895,-0.858253304158346,-0.002217718632891774,-0.23163184523582458,0.5486732721328735,1.747649328353743e-32,0.03307487070560455,1.3163566589355469,0.0007032083813101053,0.6907815933227539
382.0,373.0,0.6341,-6.2716,6.8303,-0.0229,0.0206,-0.1251,-1.5944067440428675,-0.004326016642153263,2.755110740661621,-1.8532829284667969,-0.00011320169869577512,2.675938129425049,-1.2822528344443818,-4.015796832845808e-07,0.43829023838043213,-0.858436409627096,-0.027609623968601227,-0.23698052763938904,0.548729658126831,1.3540915216586426e-39,0.04141806811094284,1.3163206577301025,0.0014388030394911766,0.7061523199081421
382.0,373.0,0.6341,-6.2716,6.8303,-0.0229,0.0206,-0.1251,-1.5944987736144007,-0.004712213762104511,2.739267349243164,-1.8531817197799683,-8.331635763170198e-05,2.7099766731262207,-1.2822205287269135,-3.111470499653213e-14,0.42836490273475647,-0.8586562315570276,-0.02333354391157627,-0.23588745296001434,0.5487256050109863,0.00013407427468337119,0.030869439244270325,1.3163485527038574,0.0009265045518986881,0.7215397357940674
382.0,373.0,0.6341,-6.2716,6.8303,-0.0229,0.0206,-0.1251,-1.5944825611510218,-0.0041327811777591705,2.7596991062164307,-1.8531858921051025,-2.6474197725549764e-13,2.687706708908081,-1.2822770041278382,-2.41079123809809e-21,0.43403327465057373,-0.858955208455221,-0.025038763880729675,-0.24908116459846497,0.5487293601036072,0.00011384917161194608,0.023103462532162666,1.3163526058197021,0.0010127031709998846,0.7186962962150574
382.0,373.0,0.6341,-6.2716,6.8303,-0.0229,0.0206,-0.1251,-1.5945383510985316,-0.0027587173972278833,2.7250657081604004,-1.853194236755371,-1.5438846079886998e-24,2.7281694412231445,-1.2822971504977723,-1.8678998696035256e-28,0.4474874436855316,-0.8594144026385706,-0.05156087502837181,-0.24310113489627838,0.5487616062164307,9.884397877613083e-05,0.03651561588048935,1.3163363933563232,0.0013175407657399774,0.7403481006622314
382.0,373.0,0.6341,-6.2716,6.8303,-0.0229,0.0206,-0.1251,-1.5945903263487757,-0.00411645695567131,2.7436118125915527,-1.8531982898712158,-9.003408550366712e-36,2.7050061225891113,-1.2822765868953248,-1.447263134602631e-35,0.44644513726234436,-0.8604877630816858,-0.13170814514160156,-0.2677733600139618,0.5487616062164307,0.00010480058699613437,0.044876933097839355,1.3163604736328125,0.0015654043527320027,0.7652221918106079
382.0,373.0,0.6341,-6.2716,6.8303,-0.0229,0.0206,-0.1251,-1.5946704349913539,-0.006549161393195391,2.7000060081481934,-1.8532063961029053,-0.0,2.6972408294677734,-1.2822647553733368,-1.1210387714598537e-42,0.44270265102386475,-0.8623154799090784,-0.1543726623058319,-0.2790979743003845,0.5487256050109863,0.00010924669186351821,0.035160377621650696,1.3163400888442993,0.0009388066246174276,0.7121180295944214
381.0,364.0,0.9386,-6.8195,6.5073,-0.004,0.0385,-0.1147,-1.5947863064207972,-0.00871539581567049,2.7360334396362305,-1.8532416820526123,-0.0,2.657384157180786,-1.2822565299323578,-0.0,0.4454241394996643,-0.8646376768695276,-0.227616086602211,-0.3109068274497986,0.548693060874939,0.00011286141671007499,0.044043876230716705,1.3163847923278809,0.000551906181499362,0.7945554256439209
381.0,364.0,0.9386,-6.8195,6.5073,-0.004,0.0385,-0.1147,-1.5948740444579066,-0.009618296287953854,2.7139999866485596,-1.8532664775848389,-0.0,2.6749091148376465,-1.282292978172638,-0.0,0.43842872977256775,-0.8674872557269495,-0.2617355287075043,-0.31687140464782715,0.548729658126831,0.00010355754056945443,0.05106745660305023,1.3163726329803467,0.0003287717408966273,0.7492704391479492
381.0,364.0,0.9386,-6.8195,6.5073,-0.004,0.0385,-0.1147,-1.5950061283507289,-0.011665712110698223,2.698610305786133,-1.8532706499099731,-0.0,2.713250160217285,-1.2822528344443818,-7.345429912675172e-05,0.43427610397338867,-0.8710916678058069,-0.3313773572444916,-0.3437381386756897,0.5487857460975647,0.00010163357364945114,0.050372108817100525,1.3163845539093018,0.00022687087766826153,0.7264299392700195
381.0,364.0,0.9386,-6.8195,6.5073,-0.004,0.0385,-0.1147,-1.5951782665648402,-0.015179064124822617,2.70697021484375,-1.8532416820526123,-0.0,2.65421462059021,-1.2822770041278382,-0.0001419636100763455,0.43339288234710693,-0.8753116766559046,-0.3841871917247772,-0.3564711809158325,0.5487052798271179,0.00010278553236275911,0.039959609508514404,1.3163766860961914,0.00017417888739146292,0.691064715385437
381.0,364.0,0.9386,-6.8195,6.5073,-0.004,0.0385,-0.1147,-1.5954023800291957,-0.02013346739113331,2.6999411582946777,-1.8532179594039917,-0.0,2.6571741104125977,-1.2822409135154267,-7.302144513232633e-05,0.4300677478313446,-0.8803470770465296,-0.43934616446495056,-0.36924535036087036,0.5487976670265198,9.595436131348833e-05,0.039095789194107056,1.316408634185791,0.0001413505378877744,0.7000555992126465
381.0,364.0,0.9386,-6.8195,6.5073,-0.004,0.0385,-0.1147,-1.5956975422301234,-0.026954395696520805,2.718092441558838,-1.8531901836395264,-0.0,2.606088638305664,-1.2822647553733368,-1.096952823714803e-11,0.42528223991394043,-0.8861978689776819,-0.5187426209449768,-0.40325045585632324,0.5487857460975647,8.67097478476353e-05,0.04331601411104202,1.316380500793457,9.514849807601422e-05,0.6580942273139954
381.0,364.0,0.9386,-6.8195,6.5073,-0.004,0.0385,-0.1147,-1.5960456333556117,-0.03548499941825867,2.679366111755371,-1.8532055616378784,-0.0,2.5654149055480957,-1.2823052269271393,-8.499274590127765e-19,0.43998420238494873,-0.8928020636187952,-0.5930521488189697,-0.41199958324432373,0.5487337708473206,9.204664820572361e-05,0.04832557588815689,1.3163443803787231,6.175645830808207e-05,0.6386023163795471
397.0,355.0,0.9685,-7.9029,6.5049,0.2772,0.0585,-0.1171,-1.5966135464110316,-0.04428510367870331,2.6342735290527344,-1.8532706499099731,-0.0,2.5693697929382324,-1.282268838291504,-6.585303601005703e-26,0.43211811780929565,-0.9002679030047815,-0.6507039070129395,-0.38686689734458923,0.5487175583839417,8.481789700454101e-05,0.03684362769126892,1.3163886070251465,-0.0001218170509673655,0.6342130899429321
397.0,355.0,0.9685,-7.9029,6.5049,0.2772,0.0585,-0.1171,-1.5972172222533167,-0.057939864695072174,2.696606159210205,-1.8532253503799438,-0.00016990733274724334,2.5570132732391357,-1.2822848421386261,-5.102344901707467e-33,0.41642799973487854,-0.9083660284625452,-0.6948293447494507,-0.39874571561813354,0.5487937927246094,7.84785152063705e-05,0.04992777109146118,1.3163366317749023,-0.0005976847023703158,0.5891599059104919
397.0,355.0,0.9685,-7.9029,6.5049,0.2772,0.0585,-0.1171,-1.5979649029173792,-0.06666579842567444,2.6650102138519287,-1.8532624244689941,-0.00016694508667569607,2.545628547668457,-1.282261000280716,-3.953329214568531e-40,0.44074422121047974,-0.917027775441305,-0.7339437007904053,-0.40316128730773926,0.5487494468688965,7.30208630557172e-05,0.03161627799272537,1.3163526058197021,-0.0005892347544431686,0.5827658772468567
397.0,355.0,0.9685,-7.9029,6.5049,0.2772,0.0585,-0.1171,-1.5987721882262171,-0.06664901971817017,2.704852819442749,-1.8532055616378784,-0.0002661576436366886,2.4788758754730225,-1.2822086077979584,-0.0,0.4261164665222168,-0.9260271231280726,-0.7589046955108643,-0.42478740215301514,0.5487053990364075,3.531391121214256e-05,0.04297107458114624,1.3163325786590576,-0.0003825270396191627,0.5063579082489014
397.0,355.0,0.9685,-7.9029,6.5049,0.2772,0.0585,-0.1171,-1.5994025669493617,-0.057484615594148636,2.663761615753174,-1.853273868560791,-0.0006381138227880001,2.4338059425354004,-1.2821962994388123,-0.0,0.420043408870697,-0.9337108770953577,-0.7778122425079346,-0.39642322063446045,0.5487015247344971,3.20030958391726e-05,0.042388830333948135,1.316332459449768,-0.00041089937440119684,0.41001343727111816
397.0,355.0,0.9685,-7.9029,6.5049,0.2772,0.0585,-0.1171,-1.600114484826559,-0.05354319512844086,2.615882396697998,-1.8532583713531494,-0.001109040342271328,2.4337799549102783,-1.2823093098453064,-0.0,0.4364204406738281,-0.9429286162005823,-0.766951322555542,-0.376980721950531,0.5487335324287415,2.891816257033497e-05,0.02652100846171379,1.316340684890747,-0.00041864742524921894,0.37723493576049805
397.0,355.0,0.9685,-7.9029,6.5049,0.2772,0.0585,-0.1171,-1.6007782421507777,-0.05699950084090233,2.63822603225708,-1.8533142805099487,-0.0004047155671287328,2.3637921810150146,-1.2822487515262146,-0.0,0.4058569669723511,-0.9521768728839319,-0.7637403607368469,-0.35291463136672974,0.5487456321716309,2.63756955973804e-05,0.036700665950775146,1.3163044452667236,-0.001202007057145238,0.37316250801086426
397.0,355.0,0.9685,-7.9029,6.5049,0.2772,0.0585,-0.1171,-1.6013695202269496,-0.06034074351191521,2.595235824584961,-1.8532664775848389,0.0001584294077474624,2.3702898025512695,-1.2822487515262146,-0.00011313562572468072,0.39711618423461914,-0.961219612752096,-0.7482707500457764,-0.37422606348991394,0.5486693978309631,1.2125601642765105e-05,0.031201299279928207,1.316300392150879,-0.0017586214235052466,0.2987937033176422
352.0,377.0,0.195,-5.8337,7.6283,0.7381,0.1213,-0.1639,-1.6021090946593226,-0.06370734423398972,2.5016634464263916,-1.8532811403274536,0.00010366924107074738,2.3475351333618164,-1.282249168758728,-8.214765693992376e-05,0.3763106167316437,-0.9698422590838831,-0.7143624424934387,-0.3258826434612274,0.5487335324287415,1.121570312534459e-05,0.02981480211019516,1.3162399530410767,-0.00440420676022768,0.26954352855682373
352.0,377.0,0.195,-5.8337,7.6283,0.7381,0.1213,-0.1639,-1.6029964886107386,-0.07629700750112534,2.4792327880859375,-1.8532624244689941,1.325023276876891e-05,2.2783451080322266,-1.282269225721695,-9.672802116256207e-05,0.3589363098144531,-0.9782698790179651,-0.6840261816978455,-0.3500053882598877,0.5487174987792969,1.0435442163725384e-05,0.011415911838412285,1.3162329196929932,-0.005648396909236908,0.23569229245185852
352.0,377.0,0.195,-5.8337,7.6283,0.7381,0.1213,-0.1639,-1.603891988793844,-0.09136828035116196,2.400257110595703,-1.8532706499099731,7.727079898895526e-17,2.242922067642212,-1.282261000280716,-6.877224950585514e-05,0.35032111406326294,-0.9861462751971644,-0.645698606967926,-0.3462403118610382,0.5487656593322754,8.387519301322754e-08,0.012404965236783028,1.3161325454711914,-0.007698149885982275,0.20147332549095154
352.0,377.0,0.195,-5.8337,7.6283,0.7381,0.1213,-0.1639,-1.6051317654051722,-0.09418371319770813,2.374582290649414,-1.8532583713531494,4.506167624360814e-28,2.2225749492645264,-1.282261000280716,-0.0002581461158115417,0.33588355779647827,-0.9935200850116175,-0.5928995013237,-0.31482285261154175,0.5487015247344971,6.498713327592271e-15,0.015820825472474098,1.3160279989242554,-0.011431654915213585,0.15413998067378998
352.0,377.0,0.195,-5.8337,7.6283,0.7381,0.1213,-0.1639,-1.606302400628561,-0.10140552371740341,2.3043723106384277,-1.8532252311706543,2.6278423984621505e-39,2.222043991088867,-1.2822246116450806,-0.0006384322769008577,0.3169654607772827,-1.0002778212176722,-0.5361791849136353,-0.30477121472358704,0.5487133860588074,5.035253467202088e-22,0.005771642550826073,1.315895915031433,-0.009302296675741673,0.15393003821372986
352.0,377.0,0.195,-5.8337,7.6283,0.7381,0.1213,-0.1639,-1.6076098881163539,-0.11698343604803085,2.2493538856506348,-1.8533306121826172,-0.0,2.1561670303344727,-1.2822528344443818,-0.0009942874312400818,0.3094232976436615,-1.0062950293170374,-0.4845503270626068,-0.30545154213905334,0.5487095713615417,3.9013532790796856e-29,-0.0002796968910843134,1.3157720565795898,-0.008441407233476639,0.16117516160011292
352.0,377.0,0.195,-5.8337,7.6283,0.7381,0.1213,-0.1639,-1.6090122661986292,-0.1360705941915512,2.249530553817749,-1.8532779216766357,-0.00011618324788287282,2.164689064025879,-1.2822449964335938,-0.00047227335744537413,0.3004686236381531,-1.01166278520693,-0.4101491868495941,-0.2515072822570801,0.5486615896224976,3.0227987181541194e-36,0.005219745449721813,1.3156886100769043,-0.009243970736861229,0.13551560044288635
334.0,376.0,-0.0951,-4.6032,7.2347,0.576,0.0861,-0.1898,-1.610659738580221,-0.13604314625263214,2.1864569187164307,-1.8532664775848389,-1.6872379144869387e-12,2.148560047149658,-1.2821810108474274,-0.000258178188232705,0.3094046711921692,-1.0162213484393519,-0.36250752210617065,-0.25641992688179016,0.5487093925476074,2.3401684354224445e-43,0.0044352165423333645,1.315632700920105,-0.007738723419606686,0.12198909372091293
334.0,376.0,-0.0951,-4.6032,7.2347,0.576,0.0861,-0.1898,-1.6123668156065882,-0.15102320909500122,2.157660961151123,-1.8532975912094116,-9.839393439922926e-24,2.1229240894317627,-1.282261000280716,-0.00026743111084215343,0.2917177081108093,-1.0199444929706019,-0.27764084935188293,-0.2217833399772644,0.5487216114997864,0.0,-0.008101520128548145,1.3155324459075928,-0.0054002623073756695,0.06785912811756134
334.0,376.0,-0.0951,-4.6032,7.2347,0.576,0.0861,-0.1898,-1.6142298183836878,-0.16338737308979034,2.233057975769043,-1.8532334566116333,-5.73799774226519e-35,2.1348750591278076,-1.2822246116450806,-0.0002139862481271848,0.2994866967201233,-1.0226815382586878,-0.210192009806633,-0.20146730542182922,0.5486815571784973,0.0,-0.007832139730453491,1.3154810667037964,-0.00626928498968482,0.11922406405210495
334.0,376.0,-0.0951,-4.6032,7.2347,0.576,0.0861,-0.1898,-1.61621155361318,-0.17305614054203033,2.2180371284484863,-1.8532334566116333,-0.0,2.1263649463653564,-1.2822286647609253,-0.00011790743155870587,0.29400911927223206,-1.0245569388019007,-0.0984254777431488,-0.17344000935554504,0.5486976504325867,0.0,-0.008051996119320393,1.3153600692749023,-0.007868999615311623,0.08665728569030762
334.0,376.0,-0.0951,-4.6032,7.2347,0.576,0.0861,-0.1898,-1.6183420620360316,-0.18789806962013245,2.2695200443267822,-1.853177547454834,0.0001975732739083469,2.1060612201690674,-1.2822168332389374,-3.532081245793961e-05,0.2996247112751007,-1.0250304380999964,-0.006246083416044712,-0.13544654846191406,0.5486616492271423,0.0,0.011504873633384705,1.3153332471847534,-0.008223108947277069,0.14850035309791565
334.0,376.0,-0.0951,-4.6032,7.2347,0.576,0.0861,-0.1898,-1.6207291088499964,-0.18507041037082672,2.299328327178955,-1.8532302379608154,0.0006997609161771834,2.182631015777588,-1.2822328370860596,-2.024948480539024e-05,0.31840279698371887,-1.0248468557940882,0.025301560759544373,-0.13254618644714355,0.5486656427383423,0.0,0.002032784279435873,1.315232515335083,-0.006588371470570564,0.13538365066051483
334.0,376.0,-0.0951,-4.6032,7.2347,0.576,0.0861,-0.1898,-1.6230551205077113,-0.20523716509342194,2.330216884613037,-1.8532582521438599,1.2193131053439554e-11,2.189638137817383,-1.2823012334159394,-1.7840944565250538e-05,0.3107515573501587,-1.024492088948385,0.04261311516165733,-0.13591381907463074,0.5487095713615417,0.0,0.0021252266597002745,1.3151322603225708,-0.005466181319206953,0.1629301756620407
334.0,376.0,-0.0951,-4.6032,7.2347,0.576,0.0861,-0.1898,-1.6256572208800257,-0.2086239606142044,2.340895652770996,-1.8531899452209473,0.0006033164681866765,2.2037155628204346,-1.2822328370860596,-2.3805433180257296e-09,0.3370018005371094,-1.0239656607257288,0.055322520434856415,-0.13194385170936584,0.5487295389175415,0.0,0.002806851640343666,1.315020203590393,-0.00668060639873147,0.17322896420955658
325.0,365.0,-0.2453,-2.991,7.4895,0.1359,-0.0777,-0.2207,-1.6281310520567835,-0.20804347097873688,2.411635160446167,-1.8532581329345703,0.00047892125439830124,2.221482276916504,-1.2822328370860596,-1.8444636087851962e-16,0.3330324590206146,-1.0235918203936976,0.017308223992586136,-0.13571032881736755,0.5486934781074524,0.0,-0.0070481691509485245,1.3149117231369019,-0.008474958129227161,0.20171362161636353
325.0,365.0,-0.2453,-2.991,7.4895,0.1359,-0.0777,-0.2207,-1.6306892834105433,-0.20614971220493317,2.483654737472534,-1.8531982898712158,-0.00020231535017956048,2.1718382835388184,-1.2822532218745728,-1.429104517975092e-23,0.3569120764732361,-1.023623291646139,-0.013575620017945766,-0.17009878158569336,0.5486656427383423,0.0,0.009997827000916004,1.3149049282073975,-0.005905556958168745,0.25074702501296997
325.0,365.0,-0.2453,-2.991,7.4895,0.1359,-0.0777,-0.2207,-1.633054872552389,-0.19302956759929657,2.525451898574829,-1.853202223777771,-6.013489837641828e-05,2.259634017944336,-1.2822449964335938,-1.1072811659604547e-30,0.36249446868896484,-1.023703400288717,-0.007011476904153824,-0.1790536642074585,0.5487695336341858,0.0,-0.0029702740721404552,1.3148200511932373,-0.0064481510780751705,0.226491779088974
325.0,365.0,-0.2453,-2.991,7.4895,0.1359,-0.0777,-0.2207,-1.635301252404684,-0.19054639339447021,2.6144826412200928,-1.8531455993652344,-8.875261414686975e-08,2.2459006309509277,-1.2822249990752717,0.0007299428107216954,0.3849678039550781,-1.0237587133990687,-0.0006407679757103324,-0.1864623725414276,0.5487294793128967,0.0,-0.0024414851795881987,1.3147484064102173,-0.004501158371567726,0.2785648703575134
325.0,365.0,-0.2453,-2.991,7.4895,0.1359,-0.0777,-0.2207,-1.6374079189696253,-0.1611044853925705,2.682474136352539,-1.8531132936477661,0.006259457673877478,2.3112499713897705,-1.2822055381587525,0.001422622473910451,0.3970438838005066,-1.0237663427936,-0.0019211791222915053,-0.2024545967578888,0.5487174987792969,0.0,-0.012055134400725365,1.3147165775299072,-0.0027483035810291767,0.37767887115478516
325.0,365.0,-0.2453,-2.991,7.4895,0.1359,-0.0777,-0.2207,-1.639170309106344,-0.13916893303394318,2.782670021057129,-1.8530657291412354,0.0049417950212955475,2.3627781867980957,-1.2821729344180604,0.0006030298536643386,0.41143712401390076,-1.0238145033465784,-0.006908646784722805,-0.21301652491092682,0.5487377047538757,0.0,0.0029101166874170303,1.3147284984588623,0.000587213842663914,0.42011281847953796
325.0,365.0,-0.2453,-2.991,7.4895,0.1359,-0.0777,-0.2207,-1.6407090626158656,-0.125465527176857,2.8433749675750732,-1.8530375957489014,0.0013430751860141754,2.3607277870178223,-1.2821892362884064,0.00038292715908028185,0.4279068112373352,-1.023918930684225,-0.0065841092728078365,-0.2140149027109146,0.5487537980079651,0.0,0.000754876877181232,1.3147087097167969,0.00011868334695464,0.39890921115875244
339.0,336.0,1.4584,-4.8293,7.8413,-0.0176,-0.1119,-0.2243,-1.6419750652708949,-0.10134640336036682,2.8271021842956543,-1.8530254364013672,0.0019958324264734983,2.375969886779785,-1.2822014850429078,0.00032065086998045444,0.42337924242019653,-1.023954216633932,-0.0018580653704702854,-0.20038971304893494,0.5486856698989868,0.0,0.010952141135931015,1.3147528171539307,6.567576201632619e-05,0.4118339419364929
339.0,336.0,1.4584,-4.8293,7.8413,-0.0176,-0.1119,-0.2243,-1.6430140934386195,-0.08031513541936874,2.8851990699768066,-1.8529621362686157,0.0030400047544389963,2.345348358154297,-1.2822252970984955,0.00025302713038399816,0.41342368721961975,-1.023978058491842,-0.0007281905272975564,-0.18793295323848724,0.5486738085746765,0.0,-0.004170334432274103,1.314684510231018,0.00013702306023333222,0.4237542152404785
339.0,336.0,1.4584,-4.8293,7.8413,-0.0176,-0.1119,-0.2243,-1.643853326837057,-0.05949493497610092,2.950728178024292,-1.8529226779937744,0.006122165359556675,2.3697550296783447,-1.2821973127177735,0.00013664843572769314,0.4210885167121887,-1.023954216633932,-0.0003633067535702139,-0.19150428473949432,0.5487294793128967,0.0,-0.0010161641985177994,1.31477689743042,0.00010503752127988264,0.4264046549797058
339.0,336.0,1.4584,-4.8293,7.8413,-0.0176,-0.1119,-0.2243,-1.6444851360716761,-0.04108109697699547,2.8570806980133057,-1.8528697490692139,0.005738493055105209,2.3504583835601807,-1.2821691495231171,0.00011558705591596663,0.42561623454093933,-1.023926083241598,-0.0003032190725207329,-0.20646336674690247,0.5487214922904968,0.0,-0.0016591879539191723,1.314768671989441,0.00011354574235156178,0.39305180311203003
339.0,336.0,1.4584,-4.8293,7.8413,-0.0176,-0.1119,-0.2243,-1.6448804340758265,-0.027478136122226715,2.920731544494629,-1.852745532989502,0.007146698422729969,2.3870255947113037,-1.2822252970984955,0.00010015131556428969,0.44181835651397705,-1.0240262190448206,-0.00035860983189195395,-0.1954251080751419,0.5487455725669861,0.0,-0.0024035517126321793,1.314704418182373,9.547718946123496e-05,0.40614762902259827
339.0,336.0,1.4584,-4.8293,7.8413,-0.0176,-0.1119,-0.2243,-1.645064493218893,-0.011324536986649036,3.044367790222168,-1.852654218673706,0.010887004435062408,2.387667655944824,-1.2821732324412842,8.835274638840929e-05,0.43412309885025024,-1.0240657965289515,-0.0014797369949519634,-0.1800537109375,0.5487256646156311,0.0,-0.0003399773850105703,1.3147364854812622,8.24559319880791e-05,0.3749426305294037
339.0,336.0,1.4584,-4.8293,7.8413,-0.0176,-0.1119,-0.2243,-1.6451527080931605,-0.0011898037046194077,3.0650243759155273,-1.852454423904419,0.015599984675645828,2.451253890991211,-1.2822212141803284,7.904128142399713e-05,0.431925892829895,-1.0240896383868616,-0.0012993405107408762,-0.1798241287469864,0.548749566078186,0.0,0.007572304457426071,1.314748764038086,4.087374691152945e-05,0.4028012156486511
339.0,336.0,1.4584,-4.8293,7.8413,-0.0176,-0.1119,-0.2243,-1.6451083622374476,-0.0002902926062233746,3.049333095550537,-1.852242112159729,0.019925247877836227,2.430575370788574,-1.2822055381587525,7.150543387979269e-05,0.44310954213142395,-1.0241220633136194,-0.0013457256136462092,-0.18931804597377777,0.548729658126831,0.0,0.027761222794651985,1.3147764205932617,3.597262912080623e-05,0.4598390460014343
403.0,333.0,1.9304,-5.7404,7.9926,-0.062,-0.0182,-0.1376,-1.6450802288451136,0.0002649929956533015,3.0798816680908203,-1.8519622087478638,0.032536476850509644,2.4733455181121826,-1.2821650070003052,7.833757990738377e-05,0.4447641372680664,-1.0241659323321741,-0.0028999389614909887,-0.17590740323066711,0.5487415790557861,0.0,0.010982945561408997,1.3147884607315063,3.212106821592897e-05,0.41237324476242065
403.0,333.0,1.9304,-5.7404,7.9926,-0.062,-0.0182,-0.1376,-1.6450802288451136,0.0001851422421168536,3.050344944000244,-1.8514621257781982,0.04735304415225983,2.4661943912506104,-1.2821773153594513,7.206501322798431e-05,0.45672646164894104,-1.0242093245135706,-0.005727727431803942,-0.1708688735961914,0.548729658126831,0.0,0.018069854006171227,1.3146604299545288,2.901452171499841e-05,0.3830757141113281
403.0,333.0,1.9304,-5.7404,7.9926,-0.062,-0.0182,-0.1376,-1.6450840435423792,8.981064780755332e-08,3.081590175628662,-1.8508174419403076,0.06151214614510536,2.5195775032043457,-1.2822331351092835,5.705183502868749e-05,0.4503430426120758,-1.0243132750140589,-0.004277694970369339,-0.1693626344203949,0.5487695336341858,0.0,0.025530090555548668,1.3147006034851074,1.3227945601101965e-05,0.42776787281036377
403.0,333.0,1.9304,-5.7404,7.9926,-0.062,-0.0182,-0.1376,-1.64512362102651,-0.0004176142974756658,3.0875754356384277,-1.8499454259872437,0.07785847783088684,2.5730693340301514,-1.2822410029223938,5.176447666599415e-05,0.45481449365615845,-1.0242722670184534,-0.0011830248404294252,-0.1568162441253662,0.5487295389175415,0.0,0.017951006069779396,1.3147127628326416,2.2582933342182073e-16,0.4570964276790619
403.0,333.0,1.9304,-5.7404,7.9926,-0.062,-0.0182,-0.1376,-1.6451803646483363,-0.0013936571776866913,3.088008403778076,-1.8489269018173218,0.09692403674125671,2.582681655883789,-1.2822168332389374,4.33662350474151e-08,0.4527389705181122,-1.0242803732501429,-0.0005557285039685667,-0.16956539452075958,0.548729658126831,0.0,0.025350656360387802,1.314732551574707,1.3169589848777583e-27,0.37092524766921997
403.0,333.0,1.9304,-5.7404,7.9926,-0.062,-0.0182,-0.1376,-1.6451722584166468,-0.0009246590198017657,3.0781617164611816,-1.847597599029541,0.10848691314458847,2.6004862785339355,-1.2822246116450806,3.3600488351674587e-15,0.4544760584831238,-1.024325195943014,-0.00041518869693391025,-0.15996909141540527,0.548733651638031,0.0,0.038791291415691376,1.314788579940796,7.680051651874167e-39,0.4051840901374817
403.0,333.0,1.9304,-5.7404,7.9926,-0.062,-0.0182,-0.1376,-1.645156045953268,-0.0007003534119576216,3.084074020385742,-1.846538782119751,0.11534108221530914,2.5815372467041016,-1.2822008293918152,3.987253698369244e-21,0.463142991065979,-1.0243528524981897,-0.00023824709933251143,-0.15900716185569763,0.548753559589386,-1.397925075252715e-06,0.033841878175735474,1.3147447109222412,0.0,0.3673574924468994
429.0,350.0,1.188,-5.7428,8.0967,-0.0654,0.0808,-0.0718,-1.6452075443663539,-0.0004620385298039764,3.0913987159729004,-1.8450084924697876,0.13090109825134277,2.6194236278533936,-1.282249168758728,3.08935461261867e-28,0.46224579215049744,-1.0243528524981897,-0.0004882964421994984,-0.163419708609581,0.5488094091415405,-1.083123188035974e-13,0.03626324236392975,1.3147364854812622,0.0,0.34111905097961426
429.0,350.0,1.188,-5.7428,8.0967,-0.0654,0.0808,-0.0718,-1.6452480755248011,-0.00418351124972105,3.1144676208496094,-1.8432639837265015,0.14882110059261322,2.624619960784912,-1.2822328370860596,2.393655329666615e-35,0.4523395895957947,-1.0243290106402796,-0.00032538079540245235,-0.1404837816953659,0.548737645149231,-8.392119707184828e-21,0.04160787910223007,1.3147525787353516,0.0,0.4111369550228119
429.0,350.0,1.188,-5.7428,8.0967,-0.0654,0.0808,-0.0718,-1.645355840722555,-0.009645683690905571,3.1015329360961914,-1.841299295425415,0.1589231789112091,2.619962215423584,-1.2822328370860596,1.5824833665689653e-09,0.46338993310928345,-1.0243528524981897,-0.0002706766244955361,-0.15255534648895264,0.5487335920333862,-6.502279900368979e-28,0.02558523416519165,1.3146963119506836,0.0,0.361136257648468
429.0,350.0,1.188,-5.7428,8.0967,-0.0654,0.0808,-0.0718,-1.6454116306700648,-0.009871996007859707,3.1015288829803467,-1.8393471240997314,0.1725071370601654,2.6937990188598633,-1.282292978172638,1.2261202928666963e-16,0.44449788331985474,-1.0243404547320765,-0.00020902391406707466,-0.16392701864242554,0.5487415790557861,-5.038017259055664e-35,0.028625991195440292,1.3147364854812622,0.0,0.36155009269714355
429.0,350.0,1.188,-5.7428,8.0967,-0.0654,0.0808,-0.0718,-1.6456157169737757,-0.009651209227740765,3.058454990386963,-1.8371433019638062,0.1830810308456421,2.6720054149627686,-1.2822528344443818,9.500072021290255e-24,0.45402252674102783,-1.0243285338031214,-0.00019789427460636944,-0.1531974822282791,0.5487614274024963,-3.9040175216089404e-42,0.0282277911901474,1.314720630645752,-0.0003710903401952237,0.3512782156467438
429.0,350.0,1.188,-5.7428,8.0967,-0.0654,0.0808,-0.0718,-1.64569153408193,-0.010964498855173588,3.0942394733428955,-1.834839105606079,0.1911110132932663,2.6777517795562744,-1.2822286647609253,7.360730274284094e-31,0.45187708735466003,-1.024280850087301,-0.00011395072215236723,-0.16726255416870117,0.5487015247344971,-0.0,0.03593546152114868,1.314664602279663,-0.00034162000520154834,0.33973461389541626
429.0,350.0,1.188,-5.7428,8.0967,-0.0654,0.0808,-0.0718,-1.6458312473692835,-0.010796072892844677,3.09494686126709,-1.8324824571609497,0.20552219450473785,2.7310333251953125,-1.282260612850525,5.703150785668816e-38,0.44852301478385925,-1.0242803732501429,-4.960806836606935e-05,-0.1618122160434723,0.5487733483314514,-0.0,0.034193120896816254,1.314677119255066,-0.001577708637341857,0.401785671710968
429.0,350.0,1.188,-5.7428,8.0967,-0.0654,0.0808,-0.0718,-1.646003862420553,-0.01276943925768137,3.0869200229644775,-1.8299877643585205,0.21246179938316345,2.694917678833008,-1.2822528344443818,4.203895392974451e-45,0.45330512523651123,-1.0242608229266565,-2.128421147062909e-05,-0.16258031129837036,0.5487693548202515,-0.0,0.028324099257588387,1.3146564960479736,-0.002278544008731842,0.3605705201625824
368.0,336.0,0.6461,-4.8538,8.3097,-0.0359,0.1878,-0.0315,-1.646203180352682,-0.017737850546836853,3.1055126190185547,-1.8273156881332397,0.224022775888443,2.7264833450317383,-1.2823294562152405,0.0,0.4501757025718689,-1.0243051687823694,-1.2544220003019024e-11,-0.16099581122398376,0.54878169298172,-0.0,0.019488783553242683,1.3146002292633057,-0.0023267476353794336,0.3152552843093872
368.0,336.0,0.6461,-4.8538,8.3097,-0.0359,0.1878,-0.0315,-1.6464549503722132,-0.02389170601963997,3.0622787475585938,-1.8246897459030151,0.2309783399105072,2.7326462268829346,-1.2822528344443818,0.0,0.44577986001968384,-1.0242565313922327,-9.719357721837356e-19,-0.16428783535957336,0.5487295985221863,-0.0,0.021793661639094353,1.3146286010742188,-0.0020750127732753754,0.3648163676261902
368.0,336.0,0.6461,-4.8538,8.3097,-0.0359,0.1878,-0.0315,-1.6468354664244593,-0.030965054407715797,3.0093507766723633,-1.8217945098876953,0.24637752771377563,2.72942852973938,-1.282280759220459,-9.526892972644418e-05,0.45041462779045105,-1.0242660681353968,-7.530631985289392e-26,-0.16737854480743408,0.5487852692604065,-0.0,0.027569543570280075,1.3145442008972168,-0.001968695316463709,0.35949718952178955
368.0,336.0,0.6461,-4.8538,8.3097,-0.0359,0.1878,-0.0315,-1.6472345791258753,-0.043963029980659485,3.0072550773620605,-1.8188467025756836,0.2520413100719452,2.752753734588623,-1.2823171478560944,-0.0001101150264730677,0.43528610467910767,-1.0242608229266565,-5.8347913909430034e-33,-0.171214759349823,0.5487217307090759,-0.0,0.028613783419132233,1.314552664756775,-0.0025779851712286472,0.3799002170562744
368.0,336.0,0.6461,-4.8538,8.3097,-0.0359,0.1878,-0.0315,-1.6478826008238734,-0.05880631133913994,2.999627113342285,-1.8157888650894165,0.2603304386138916,2.7252845764160156,-1.2823286813548584,-0.00022033866844139993,0.4445793032646179,-1.0242212454425257,-4.520841079635438e-40,-0.16707932949066162,0.5487015843391418,-0.0,0.024601001292467117,1.314480185508728,-0.004146812949329615,0.34019845724105835
368.0,336.0,0.6461,-4.8538,8.3097,-0.0359,0.1878,-0.0315,-1.6486698589720667,-0.07321411371231079,2.9596729278564453,-1.8125627040863037,0.26466861367225647,2.722050666809082,-1.282288835649826,-0.00018531284877099097,0.43938708305358887,-1.024268929158346,-0.0,-0.1640383005142212,0.548713743686676,-0.0,0.026533082127571106,1.3144410848617554,-0.006311152130365372,0.3692721128463745
368.0,336.0,0.6461,-4.8538,8.3097,-0.0359,0.1878,-0.0315,-1.6495939693846644,-0.08259210735559464,2.929328441619873,-1.8093284368515015,0.26839178800582886,2.7650139331817627,-1.282268450861313,-0.00014156656106933951,0.44501447677612305,-1.0242131392108362,-0.0,-0.1739567220211029,0.5487614274024963,-0.0,0.013794811442494392,1.3142759799957275,-0.007623729296028614,0.35320454835891724
316.0,337.0,0.1537,-5.2044,7.9944,-0.0528,0.2146,-0.017,-1.6506811581053675,-0.08757632970809937,2.9483306407928467,-1.8060693740844727,0.26883578300476074,2.748581886291504,-1.2823290687850495,-0.00011453805200289935,0.4283062815666199,-1.0242212454425257,-0.0,-0.1869984269142151,0.548749566078186,-0.0,0.02073531784117222,1.3142485618591309,-0.007508129812777042,0.3735833466053009
316.0,337.0,0.1537,-5.2044,7.9944,-0.0528,0.2146,-0.017,-1.6517592869200648,-0.08950745314359665,2.978942394256592,-1.8029041290283203,0.2653787136077881,2.7095143795013428,-1.2823208433440705,-3.7944933865219355e-05,0.4398044943809509,-1.0242131392108362,-0.0,-0.17119517922401428,0.5487654209136963,-0.0,0.016570348292589188,1.3141807317733765,-0.006120255216956139,0.3504018783569336
316.0,337.0,0.1537,-5.2044,7.9944,-0.0528,0.2146,-0.017,-1.652949949304098,-0.10644599050283432,2.8951261043548584,-1.799733281135559,0.2605201005935669,2.6999106407165527,-1.2823126775077363,-5.990477802697569e-05,0.4279496967792511,-1.024177376423971,0.00012964564666617662,-0.15912175178527832,0.548709511756897,-0.0,0.010596860200166702,1.3141045570373535,-0.005427488591521978,0.3804500699043274
316.0,337.0,0.1537,-5.2044,7.9944,-0.0528,0.2146,-0.017,-1.654389043847555,-0.12699253857135773,2.908541202545166,-1.7966639995574951,0.2623494267463684,2.731621742248535,-1.2823089224151154,-0.00013344721810426563,0.43338364362716675,-1.0241535345660608,0.0006508530932478607,-0.19208911061286926,0.5487534999847412,-0.0,0.019238363951444626,1.3141013383865356,-0.005791750270873308,0.36394578218460083
316.0,337.0,0.1537,-5.2044,7.9944,-0.0528,0.2146,-0.017,-1.6559754810728968,-0.13155405223369598,2.8993167877197266,-1.793513298034668,0.2589957118034363,2.681199550628662,-1.2822082203677674,-4.6287215809570625e-05,0.43651607632637024,-1.0241339842425745,0.0005136901745572686,-0.16606776416301727,0.548725426197052,-0.0,0.013566233217716217,1.3139936923980713,-0.005832582246512175,0.42779815196990967
316.0,337.0,0.1537,-5.2044,7.9944,-0.0528,0.2146,-0.017,-1.6576692066588343,-0.1329682469367981,2.9469454288482666,-1.7904906272888184,0.25761550664901733,2.727876663208008,-1.2823208433440705,-0.00010468452819623053,0.42314648628234863,-1.0241134802447718,0.0006371330237016082,-0.18489545583724976,0.5487654209136963,-0.0,0.015060897916555405,1.3139129877090454,-0.00571594899520278,0.3752938508987427
316.0,337.0,0.1537,-5.2044,7.9944,-0.0528,0.2146,-0.017,-1.6593839130797328,-0.16118304431438446,2.8761186599731445,-1.7875522375106812,0.2411302626132965,2.6740598678588867,-1.282288835649826,-5.573147063842043e-06,0.4111054241657257,-1.0240772406207483,0.0008367884438484907,-0.19588476419448853,0.5487772822380066,-0.0,0.010340181179344654,1.3138129711151123,-0.006012101657688618,0.39219462871551514
316.0,337.0,0.1537,-5.2044,7.9944,-0.0528,0.2146,-0.017,-1.6613699398436488,-0.16480624675750732,2.8640990257263184,-1.7846530675888062,0.2368142157793045,2.6679697036743164,-1.2823249262622376,-4.318117857639997e-13,0.431657612323761,-1.0240419546710413,0.0004334841505624354,-0.1892501413822174,0.5487732887268066,-0.0,0.023001832887530327,1.3137280941009521,-0.005668066442012787,0.37348341941833496
306.0,359.0,-0.5157,-4.462,7.9525,-0.0373,0.15,-0.0657,-1.6632315121092738,-0.1434858739376068,3.00445818901062,-1.7818572521209717,0.2285786271095276,2.665795087814331,-1.2823167604259034,-3.345711640760009e-20,0.42252445220947266,-1.0240381399737757,0.00029251156956888735,-0.19281336665153503,0.548749566078186,-0.0,0.021812357008457184,1.3137532472610474,-0.002681644866243005,0.39666301012039185
306.0,359.0,-0.5157,-4.462,7.9525,-0.0373,0.15,-0.0657,-1.665065427819723,-0.16788029670715332,2.9101459980010986,-1.7793315649032593,0.20243582129478455,2.635272979736328,-1.2823445957950135,-0.0011745583033189178,0.4067978262901306,-1.0240257422076624,0.00025720306439325213,-0.18943166732788086,0.548737645149231,-0.0,0.017120562493801117,1.3137365579605103,-0.0008832649909891188,0.39948248863220215
306.0,359.0,-0.5157,-4.462,7.9525,-0.0373,0.15,-0.0657,-1.66703524212026,-0.17359445989131927,2.893754720687866,-1.776881217956543,0.1880764663219452,2.5923454761505127,-1.2823171776584168,0.0002456985239405185,0.41917920112609863,-1.0240777174579065,0.00020680570742115378,-0.2004939615726471,0.5487574338912964,-0.0,0.012373379431664944,1.3136441707611084,-0.004851822275668383,0.3619193136692047
306.0,359.0,-0.5157,-4.462,7.9525,-0.0373,0.15,-0.0657,-1.6690451107420863,-0.15797972679138184,2.8714561462402344,-1.7746875286102295,0.1762116700410843,2.5657124519348145,-1.2823572021773835,7.39460374461487e-05,0.40788257122039795,-1.0240619818316858,0.00019745473400689662,-0.19289717078208923,0.5487613677978516,-0.0,0.013511809520423412,1.3136329650878906,-0.003954081330448389,0.3952867388725281
306.0,359.0,-0.5157,-4.462,7.9525,-0.0373,0.15,-0.0657,-1.670939107934469,-0.165751114487648,2.888232707977295,-1.7727806568145752,0.15057511627674103,2.5165693759918213,-1.2823089224151154,1.6702123275535996e-06,0.39109277725219727,-1.0240419546710413,0.00016955415776465088,-0.20681701600551605,0.548749566078186,-0.0,0.01660257764160633,1.3135725259780884,-0.0015606250381097198,0.33010661602020264
306.0,359.0,-0.5157,-4.462,7.9525,-0.0373,0.15,-0.0657,-1.672861238519186,-0.16784575581550598,2.901360034942627,-1.7711015939712524,0.13086803257465363,2.4748542308807373,-1.282296673660614,1.294093277632788e-13,0.39457952976226807,-1.0240219275103968,0.00012033974780933931,-0.19697308540344238,0.5487337112426758,-0.0,0.00825832411646843,1.3134642839431763,-0.0051482124254107475,0.3909364938735962
306.0,359.0,-0.5157,-4.462,7.9525,-0.0373,0.15,-0.0657,-1.6747628651061,-0.16532158851623535,2.845229387283325,-1.769713282585144,0.1092836931347847,2.46016788482666,-1.2823208433440705,1.0026736034134015e-20,0.37394630908966064,-1.0239937941180628,0.00014163363084662706,-0.19855624437332153,0.5487134456634521,-0.0,0.0062695653177797794,1.313391923904419,-0.008242914453148842,0.37269073724746704
303.0,346.0,0.3984,-4.1294,7.7671,-0.0107,0.0504,-0.1318,-1.6767646274962367,-0.16134291887283325,2.8063645362854004,-1.7685160636901855,0.08871233463287354,2.405466079711914,-1.2822766166976471,7.768791654062441e-28,0.3745935261249542,-1.0239737669574183,0.0003638870839495212,-0.19074811041355133,0.5487055778503418,-0.0,0.017541561275720596,1.313376545906067,-0.008519044145941734,0.330310195684433
303.0,346.0,0.3984,-4.1294,7.7671,-0.0107,0.0504,-0.1318,-1.6786986790099085,-0.16654299199581146,2.782951593399048,-1.7675702571868896,0.07287731766700745,2.3813650608062744,-1.2823249262622376,6.019319139561518e-35,0.3787938356399536,-1.0239899794207972,0.0004495586617849767,-0.17894472181797028,0.5487217903137207,-0.0,0.0032910394947975874,1.3133047819137573,-0.007910394109785557,0.33580482006073
303.0,346.0,0.3984,-4.1294,7.7671,-0.0107,0.0504,-0.1318,-1.6807486019530238,-0.17668335139751434,2.7991580963134766,-1.7668570280075073,0.05559920892119408,2.3713583946228027,-1.2822565299323578,4.663521289272991e-42,0.35464414954185486,-1.0240543524371546,0.0005264198989607394,-0.18691033124923706,0.5487574934959412,-0.0,0.003016028320416808,1.3131325244903564,-0.012056791223585606,0.2979528307914734
303.0,346.0,0.3984,-4.1294,7.7671,-0.0107,0.0504,-0.1318,-1.6828628979124964,-0.16875597834587097,2.7934718132019043,-1.7662228345870972,0.04737300053238869,2.3770387172698975,-1.282320813541748,-6.488263898063451e-05,0.35130834579467773,-1.0240100065814417,0.000371408648788929,-0.17605173587799072,0.5487534403800964,-0.0,0.001100004417821765,1.313020944595337,-0.01604389026761055,0.25915005803108215
303.0,346.0,0.3984,-4.1294,7.7671,-0.0107,0.0504,-0.1318,-1.6849600277342738,-0.17963650822639465,2.8277931213378906,-1.7657885551452637,0.03010411374270916,2.3372342586517334,-1.2823368173888703,-8.941442501964048e-05,0.35577794909477234,-1.0239980856524866,0.00026287673972547054,-0.1703537404537201,0.5487253665924072,-0.0,0.001563067315146327,1.312764048576355,-0.017369989305734634,0.2581939101219177
303.0,346.0,0.3984,-4.1294,7.7671,-0.0107,0.0504,-0.1318,-1.6872173748412074,-0.1858070343732834,2.7853386402130127,-1.7655129432678223,0.013981814496219158,2.327310085296631,-1.2823048394969483,-7.459190237568691e-05,0.34601420164108276,-1.0240057150470179,0.0002373484312556684,-0.18495574593544006,0.5487055778503418,-0.0,-0.00859135389328003,1.3125243186950684,-0.024100549519062042,0.24475590884685516
303.0,346.0,0.3984,-4.1294,7.7671,-0.0107,0.0504,-0.1318,-1.6894556484618128,-0.17747777700424194,2.725830316543579,-1.7655014991760254,0.0011062764097005129,2.287886142730713,-1.2823249262622376,-8.542317664250731e-05,0.3558739423751831,-1.023978058491842,0.00019358353165443987,-0.1795753538608551,0.5487338304519653,-0.0,0.0003254845505580306,1.3122649192810059,-0.030888313427567482,0.26504582166671753
303.0,346.0,0.3984,-4.1294,7.7671,-0.0107,0.0504,-0.1318,-1.691761156121725,-0.19974127411842346,2.6673667430877686,-1.7655928134918213,-0.005194759462028742,2.232750415802002,-1.282345013027527,-0.0016408544033765793,0.350986123085022,-1.0239980856524866,0.00014291815750766546,-0.1606590747833252,0.5487055778503418,-0.0,-0.009549954906105995,1.311787724494934,-0.03547080233693123,0.21057091653347015
281.0,332.0,0.1986,-4.319,6.9314,0.0066,-0.0843,-0.239,-1.694134374658102,-0.18837866187095642,2.7327728271484375,-1.7655771970748901,-0.00018606719095259905,2.240978240966797,-1.2823245090297242,-0.0006935112760402262,0.3439728021621704,-1.0239136854754847,0.00039958913112059236,-0.15818636119365692,0.5487456321716309,-0.0,0.009311109781265259,1.311319351196289,-0.042611781507730484,0.2064477801322937
281.0,332.0,0.1986,-4.319,6.9314,0.0066,-0.0843,-0.239,-1.6960159740843714,-0.20248198509216309,2.730564594268799,-1.7655845880508423,-0.0002915827790275216,2.182037353515625,-1.2823445957950135,-0.0009287695284001529,0.3435586094856262,-1.0239465872394007,0.0009113290579989552,-0.15697939693927765,0.548697292804718,-0.0,-0.013391832821071148,1.3109042644500732,-0.04767896607518196,0.17714056372642517
281.0,332.0,0.1986,-4.319,6.9314,0.0066,-0.0843,-0.239,-1.6984731159605921,-0.20743897557258606,2.738553285598755,-1.7655730247497559,-1.3652800134877907e-07,2.189082384109497,-1.2823609870723267,-0.0017508144956082106,0.33676454424858093,-1.0239303747760218,0.001750911702401936,-0.15889282524585724,0.5487179756164551,-0.0,-0.0068899523466825485,1.3102797269821167,-0.056930530816316605,0.16313289105892181
281.0,332.0,0.1986,-4.319,6.9314,0.0066,-0.0843,-0.239,-1.7009064159789027,-0.20154421031475067,2.7526564598083496,-1.765533685684204,0.0005040260148234665,2.206690788269043,-1.2823486787131806,-0.0005942725692875683,0.33192116022109985,-1.023966137562887,0.001243025530129671,-0.1594369113445282,0.5486812591552734,-0.0,-0.007593061309307814,1.3095555305480957,-0.06761323660612106,0.12622709572315216
281.0,332.0,0.1986,-4.319,6.9314,0.0066,-0.0843,-0.239,-1.7033645115294398,-0.19982661306858063,2.742502212524414,-1.7655565738677979,0.00017801718786358833,2.229105234146118,-1.2823085349849244,-0.0004174087371211499,0.32270926237106323,-1.0239694754229944,0.000580433988943696,-0.16471822559833527,0.5487010478973389,-0.0,0.017900485545396805,1.3086754083633423,-0.07852628082036972,0.14489418268203735
281.0,332.0,0.1986,-4.319,6.9314,0.0066,-0.0843,-0.239,-1.7057138882079066,-0.20253945887088776,2.7599945068359375,-1.7654809951782227,0.0002233245177194476,2.214752674102783,-1.2823650699904938,-0.00029864103998988867,0.3289654552936554,-1.023994270955221,0.00035343252238817513,-0.16063576936721802,0.5487215518951416,-0.0,0.011819710955023766,1.3076914548873901,-0.08056692779064178,0.09850888699293137
281.0,332.0,0.1986,-4.319,6.9314,0.0066,-0.0843,-0.239,-1.708079000512594,-0.1987486034631729,2.708975076675415,-1.765545129776001,0.00014410328003577888,2.2460858821868896,-1.2822925311378022,-7.055134483380243e-05,0.3283771574497223,-1.0239747206317347,0.00029603615985251963,-0.1512082815170288,0.5487051606178284,-0.0,0.002232795115560293,1.3067514896392822,-0.07928304374217987,0.13311871886253357
276.0,290.0,0.9063,-4.0427,8.0572,0.0254,-0.1031,-0.3103,-1.710376878777975,-0.1966591626405716,2.718217372894287,-1.7655210494995117,0.0014455675845965743,2.1980836391448975,-1.2823167604259034,-2.855864295270294e-05,0.3389664888381958,-1.0239704290973108,0.00020706835493911058,-0.1628117859363556,0.5487055778503418,-0.0,0.010867798700928688,1.3057595491409302,-0.08292674273252487,0.14251121878623962
276.0,290.0,0.9063,-4.0427,8.0572,0.0254,-0.1031,-0.3103,-1.712731500665182,-0.19325877726078033,2.7535855770111084,-1.7654974460601807,0.0006887660711072385,2.1781387329101562,-1.2822765868953248,-2.485635863802571e-10,0.3300608992576599,-1.0239580313311976,0.00015693384921178222,-0.15750031173229218,0.5487133264541626,-0.0,0.0029819097835570574,1.3047312498092651,-0.08612428605556488,0.11599604040384293
276.0,290.0,0.9063,-4.0427,8.0572,0.0254,-0.1031,-0.3103,-1.7150098286070765,-0.17684131860733032,2.8264427185058594,-1.7654694318771362,0.004420313518494368,2.213108539581299,-1.2822565299323578,0.0010051355930045247,0.33379068970680237,-1.0239694754229944,0.00012977595906704664,-0.16567184031009674,0.5486735701560974,-0.0,0.010215599089860916,1.3036949634552002,-0.10018374770879745,0.11151246726512909
276.0,290.0,0.9063,-4.0427,8.0572,0.0254,-0.1031,-0.3103,-1.7172414265074671,-0.18964892625808716,2.873267889022827,-1.7654216289520264,0.0019324102904647589,2.2296946048736572,-1.282280759220459,0.0005133400554768741,0.3561159670352936,-1.023954216633932,8.870011515682563e-05,-0.17295929789543152,0.5487174987792969,-0.0,-0.01243546511977911,1.3024388551712036,-0.10667677223682404,0.10568182170391083
276.0,290.0,0.9063,-4.0427,8.0572,0.0254,-0.1031,-0.3103,-1.7194439373412074,-0.16704405844211578,2.878479480743408,-1.7653616666793823,0.006541279144585133,2.265026807785034,-1.2822647553733368,0.0015136670554056764,0.3653604984283447,-1.0239899794207972,7.712771912338212e-05,-0.1787484884262085,0.5487338304519653,-0.0,-0.00736247468739748,1.301202654838562,-0.09748494625091553,0.20330381393432617
276.0,290.0,0.9063,-4.0427,8.0572,0.0254,-0.1031,-0.3103,-1.7214981518187464,-0.16954152286052704,2.95424222946167,-1.7653295993804932,0.0032770398538559675,2.2308290004730225,-1.2823007565787812,0.0002535338280722499,0.3565215766429901,-1.0239937941180628,6.832311191828921e-05,-0.18642157316207886,0.5487456917762756,-0.0,0.01240677759051323,1.3001151084899902,-0.08371440321207047,0.19451840221881866
276.0,290.0,0.9063,-4.0427,8.0572,0.0254,-0.1031,-0.3103,-1.723544260064596,-0.1744123250246048,2.860952615737915,-1.7653180360794067,0.0010296404361724854,2.1777846813201904,-1.2822528344443818,0.00023081475228536874,0.36127766966819763,-1.0239904562579554,6.135380681371316e-05,-0.17212775349617004,0.5487215518951416,-0.0,0.005661708302795887,1.2990632057189941,-0.08989725261926651,0.1611640304327011
276.0,290.0,0.9063,-4.0427,8.0572,0.0254,-0.1031,-0.3103,-1.7254864178099574,-0.14490333199501038,2.9687280654907227,-1.7652300596237183,0.007572480943053961,2.2334651947021484,-1.2822569471648713,0.0006863712333142757,0.36014294624328613,-1.0239899794207972,5.5661956139374524e-05,-0.17013587057590485,0.5487461090087891,-0.0,0.003395445877686143,1.298075795173645,-0.0961730107665062,0.134653240442276
281.0,301.0,1.0217,-4.986,8.5747,-0.024,-0.069,-0.3041,-1.727220197717184,-0.1513621211051941,2.902444362640381,-1.7651543617248535,0.003163341199979186,2.2599005699157715,-1.282305286531784,0.00028650389867834747,0.3651607036590576,-1.0239737669574183,5.0936614570673555e-05,-0.17514963448047638,0.5486695170402527,-0.0,-0.005843365099281073,1.2969276905059814,-0.09166181832551956,0.14872968196868896
281.0,301.0,1.0217,-4.986,8.5747,-0.024,-0.069,-0.3041,-1.7289625606932582,-0.14646941423416138,2.8943419456481934,-1.7650343179702759,0.010555054061114788,2.2822864055633545,-1.2822609704783936,0.0002372174058109522,0.36891674995422363,-1.0240181128131312,4.695074676419608e-05,-0.16989150643348694,0.5487174987792969,-0.0,0.0032657950650900602,1.2957431077957153,-0.08847448229789734,0.1824013888835907
281.0,301.0,1.0217,-4.986,8.5747,-0.024,-0.069,-0.3041,-1.730600496331686,-0.12506937980651855,2.9673519134521484,-1.7649388313293457,0.015599679201841354,2.2877354621887207,-1.2822651726058503,0.0006279236986301839,0.3756197690963745,-1.0240262190448206,4.35434230894316e-05,-0.17706537246704102,0.5486653447151184,-0.0,0.003913601860404015,1.2946834564208984,-0.0780511125922203,0.1486802101135254
281.0,301.0,1.0217,-4.986,8.5747,-0.024,-0.069,-0.3041,-1.7321144543089808,-0.12630531191825867,2.9595961570739746,-1.764755368232727,0.009149922989308834,2.244795322418213,-1.282261000280716,0.00015189505938906223,0.3709152936935425,-1.023949925099508,4.059725324623287e-05,-0.16294772922992706,0.5487133264541626,-0.0,-0.006108193192631006,1.2938196659088135,-0.07323746383190155,0.17817483842372894
281.0,301.0,1.0217,-4.986,8.5747,-0.024,-0.069,-0.3041,-1.7335802517332972,-0.12681542336940765,2.9753355979919434,-1.764683723449707,0.008452828973531723,2.1954619884490967,-1.2822368305972596,0.00010081438085762784,0.3500877320766449,-1.0240181128131312,3.657441294269148e-10,-0.16012175381183624,0.5487494468688965,-0.0,0.00012596359010785818,1.2928991317749023,-0.07544010132551193,0.17426864802837372
281.0,301.0,1.0217,-4.986,8.5747,-0.024,-0.069,-0.3041,-1.7348772488036097,-0.10722234845161438,3.0354788303375244,-1.764527440071106,0.01275452971458435,2.2194700241088867,-1.282249168758728,0.00015088205691426992,0.36454761028289795,-1.0239937941180628,2.833813575999286e-17,-0.1658812165260315,0.5487133264541626,-0.0,0.011401647701859474,1.2920033931732178,-0.07350073009729385,0.1551155149936676
281.0,301.0,1.0217,-4.986,8.5747,-0.024,-0.069,-0.3041,-1.7361952267088832,-0.10158153623342514,2.9761266708374023,-1.764359712600708,0.012858504429459572,2.2393836975097656,-1.2822286647609253,0.00012057311687385663,0.3694748282432556,-1.0239737669574183,2.195660420544025e-24,-0.15059106051921844,0.5487374663352966,-0.0,0.004799121059477329,1.2910634279251099,-0.07482466101646423,0.16526025533676147
336.0,282.0,1.5452,-5.2965,7.2861,-0.0186,-0.0313,-0.2422,-1.7373806438841761,-0.10450759530067444,3.0145528316497803,-1.7642890214920044,0.011813958175480366,2.2456586360931396,-1.282249168758728,0.00010039613698609173,0.3663232624530792,-1.0239904562579554,1.7012145684718969e-31,-0.1558246910572052,0.5487338304519653,-0.0,-0.0009547951631247997,1.2902114391326904,-0.06986799091100693,0.16049222648143768
336.0,282.0,1.5452,-5.2965,7.2861,-0.0186,-0.0313,-0.2422,-1.7385293445982875,-0.09626234322786331,3.0146641731262207,-1.7640528678894043,0.016299575567245483,2.2895050048828125,-1.2822208863547822,0.00010630281030898914,0.36405813694000244,-1.0240104834186,1.318114164496028e-38,-0.16826491057872772,0.5487616658210754,-0.0,0.002591523341834545,1.2895047664642334,-0.05606184899806976,0.1555596888065338
336.0,282.0,1.5452,-5.2965,7.2861,-0.0186,-0.0313,-0.2422,-1.7395674190916957,-0.07599792629480362,3.0292134284973145,-1.763845682144165,0.019452454522252083,2.2871456146240234,-1.2822049123099823,0.00011293414718238637,0.3714907169342041,-1.0239904562579554,1.401298464324817e-45,-0.164444237947464,0.548798143863678,-0.0,0.008606359362602234,1.288880467414856,-0.04251958802342415,0.18342527747154236
336.0,282.0,1.5452,-5.2965,7.2861,-0.0186,-0.0313,-0.2422,-1.7405482731261195,-0.08047731220722198,3.073969841003418,-1.763606309890747,0.02332977205514908,2.297276735305786,-1.2822286945632477,7.852369162719697e-05,0.378301203250885,-1.0239694754229944,0.0,-0.17033350467681885,0.5487010478973389,-0.0,0.014378749765455723,1.2884562015533447,-0.032302506268024445,0.1892353743314743
336.0,282.0,1.5452,-5.2965,7.2861,-0.0186,-0.0313,-0.2422,-1.741448541680807,-0.08971811830997467,3.0530405044555664,-1.7632229328155518,0.03376951813697815,2.279186248779297,-1.2821809214404603,8.675536082591861e-05,0.38272276520729065,-1.024017635975973,0.0,-0.15653619170188904,0.5487052202224731,-0.0,0.010504679754376411,1.2881009578704834,-0.027061637490987778,0.21603240072727203
336.0,282.0,1.5452,-5.2965,7.2861,-0.0186,-0.0313,-0.2422,-1.7425509891905726,-0.08187061548233032,3.0836379528045654,-1.7626365423202515,0.05576484650373459,2.361621618270874,-1.2822089952281495,0.0002152013184968382,0.3919652998447418,-1.0240219275103968,0.0,-0.15935587882995605,0.5487534999847412,-0.0,0.010760568082332611,1.2878531217575073,-0.019151167944073677,0.30324670672416687
336.0,282.0,1.5452,-5.2965,7.2861,-0.0186,-0.0313,-0.2422,-1.7435604534544886,-0.07983946800231934,3.0904574394226074,-1.7618499994277954,0.07716969400644302,2.3946001529693604,-1.2822245818427582,0.00017881786334328353,0.3998669385910034,-1.0240181128131312,0.0,-0.17275527119636536,0.5487494468688965,-0.0,0.024378260597586632,1.2876927852630615,-0.009400945156812668,0.27029919624328613
336.0,282.0,1.5452,-5.2965,7.2861,-0.0186,-0.0313,-0.2422,-1.7446171245970667,-0.0848555639386177,3.106271743774414,-1.7608883380889893,0.09379584342241287,2.398118257522583,-1.2821768385222931,0.00015277319471351802,0.3925163149833679,-1.023961369191305,0.0,-0.1640297770500183,0.548761248588562,-0.0,0.012396445497870445,1.2875730991363525,-0.004893830977380276,0.22648906707763672
424.0,301.0,0.8961,-5.8427,7.4584,-0.0389,-0.0157,-0.152,-1.7456346950926722,-0.08559780567884445,3.1230530738830566,-1.759660243988037,0.10717138648033142,2.431483268737793,-1.282196657066681,0.0001523772079963237,0.40339815616607666,-1.0239976088153284,2.129593440258759e-06,-0.17398270964622498,0.5487575531005859,-0.0,0.023886391893029213,1.2875046730041504,-0.002824097638949752,0.29645347595214844
424.0,301.0,0.8961,-5.8427,7.4584,-0.0389,-0.0157,-0.152,-1.7466360531248988,-0.08225593715906143,3.2008867263793945,-1.758223295211792,0.12425100803375244,2.4359374046325684,-1.2822049123099823,0.000939928344450891,0.41322803497314453,-1.0240381399737757,1.6500253312116964e-13,-0.17908084392547607,0.5487214922904968,-0.0,0.017464030534029007,1.2875690460205078,-0.00015558398445136845,0.29861217737197876
424.0,301.0,0.8961,-5.8427,7.4584,-0.0389,-0.0157,-0.152,-1.7476769886412562,-0.09127506613731384,3.177933692932129,-1.7565871477127075,0.1529700607061386,2.4409594535827637,-1.2822089952281495,0.00046176256728358567,0.4093133211135864,-1.0240419546710413,1.278452146126243e-20,-0.1781783550977707,0.5487576127052307,-0.0,0.03393641114234924,1.2875690460205078,-1.8144795900705037e-14,0.3210213780403137
424.0,301.0,0.8961,-5.8427,7.4584,-0.0389,-0.0157,-0.152,-1.7488986454405726,-0.0990806370973587,3.131343126296997,-1.7545315027236938,0.17601008713245392,2.4920132160186768,-1.282216803436615,0.0002542699803598225,0.40133458375930786,-1.0239813963519495,9.905544964259484e-28,-0.1732228696346283,0.5487174391746521,-0.0,0.03287613391876221,1.2875490188598633,-1.0581422730036974e-25,0.3467971682548523
424.0,301.0,0.8961,-5.8427,7.4584,-0.0389,-0.0157,-0.152,-1.7501327000060023,-0.091815285384655,3.148301124572754,-1.7523211240768433,0.18727876245975494,2.489614486694336,-1.282229022388794,0.00022278168762568384,0.40724027156829834,-1.0239937941180628,7.67489273009932e-35,-0.17378251254558563,0.5487338304519653,-0.0,0.022045038640499115,1.2875287532806396,-6.170722044260078e-37,0.3280010521411896
424.0,301.0,0.8961,-5.8427,7.4584,-0.0389,-0.0157,-0.152,-1.7512055836119593,-0.09050218015909195,3.1243011951446533,-1.749955415725708,0.20446966588497162,2.582723617553711,-1.2822651726058503,0.00012174006405984983,0.394004762172699,-1.0240100065814417,5.947110682594524e-42,-0.1533692181110382,0.5488100647926331,-0.0,0.03201867640018463,1.2874850034713745,-0.0010014486033469439,0.34242570400238037
424.0,301.0,0.8961,-5.8427,7.4584,-0.0389,-0.0157,-0.152,-1.752406736413473,-0.10459751635789871,3.09308123588562,-1.7473543882369995,0.21668916940689087,2.5148468017578125,-1.2822289925864716,9.750965546118096e-05,0.3929234743118286,-1.0240462462054651,-4.900830390397459e-05,-0.1709733009338379,0.5487092137336731,-0.0,0.02959607169032097,1.2874847650527954,-0.000638821511529386,0.28980231285095215
495.0,268.0,1.3579,-5.8612,7.8736,-0.0889,0.0594,-0.0483,-1.7537208996214808,-0.11057005077600479,3.1134276390075684,-1.744480848312378,0.2443823516368866,2.5026190280914307,-1.2822049123099823,1.5957464256644016e-06,0.3847968280315399,-1.023978058491842,-3.196762190782465e-05,-0.15410049259662628,0.5487859845161438,-0.0,0.024795418605208397,1.2874690294265747,-0.0035358525346964598,0.25847259163856506
495.0,268.0,1.3579,-5.8612,7.8736,-0.0889,0.0594,-0.0483,-1.7550980053343714,-0.11071910709142685,3.0994486808776855,-1.7414320707321167,0.25758635997772217,2.5522212982177734,-1.2822612983039399,1.236396510347071e-13,0.3804296553134918,-1.023994270955221,-9.589530558518078e-11,-0.14489534497261047,0.5487292408943176,-0.0,0.032553233206272125,1.2874127626419067,-0.00410532345995307,0.2945764660835266
495.0,268.0,1.3579,-5.8612,7.8736,-0.0889,0.0594,-0.0483,-1.75645174602651,-0.10720402002334595,3.0083084106445312,-1.738332986831665,0.2645224332809448,2.495124340057373,-1.2822929185679932,-0.0016429772367700934,0.3602582812309265,-1.023926083241598,0.003579898038879037,-0.13471755385398865,0.5487534403800964,-0.0,0.026563841849565506,1.287389874458313,-0.0067766932770609856,0.23707570135593414
495.0,268.0,1.3579,-5.8612,7.8736,-0.0889,0.0594,-0.0483,-1.7575532398619593,-0.11578910797834396,2.9754862785339355,-1.735667109489441,0.26915061473846436,2.4733669757843018,-1.2822889250567933,-0.0007729241042397916,0.3423771262168884,-1.0238984266864222,0.011746562086045742,-0.11791394650936127,0.5487456321716309,-0.0,0.02439761906862259,1.2872729301452637,-0.010202735662460327,0.1576758325099945
495.0,268.0,1.3579,-5.8612,7.8736,-0.0889,0.0594,-0.0483,-1.7589837513365687,-0.13020586967468262,2.953568935394287,-1.732384204864502,0.2757289707660675,2.529608726501465,-1.2822368305972596,-0.0003416556282900274,0.3341647684574127,-1.0238187948810022,0.0020572287030518055,-0.10105223208665848,0.5487415790557861,-0.0,0.01510368101298809,1.2871164083480835,-0.01387828029692173,0.1557312309741974
495.0,268.0,1.3579,-5.8612,7.8736,-0.0889,0.0594,-0.0483,-1.760557313958639,-0.12415710091590881,2.895042896270752,-1.7288967370986938,0.30142828822135925,2.565598487854004,-1.2822770041278382,-0.00020019462681375444,0.336978018283844,-1.0238106886493128,0.00011860068480018526,-0.1058921068906784,0.5487055778503418,-0.0,0.014833750203251839,1.2869572639465332,-0.015474256128072739,0.15743586421012878
495.0,268.0,1.3579,-5.8612,7.8736,-0.0889,0.0594,-0.0483,-1.7621313534178675,-0.13106831908226013,2.8432698249816895,-1.7253782749176025,0.30582699179649353,2.534330368041992,-1.282268838291504,-0.0001763333275448531,0.32904791831970215,-1.02379018465151,0.0001807963417377323,-0.10610923171043396,0.5487658381462097,-0.0,0.010203569196164608,1.2867443561553955,-0.01754523254930973,0.13455268740653992
495.0,268.0,1.3579,-5.8612,7.8736,-0.0889,0.0594,-0.0483,-1.7637368641295375,-0.14948411285877228,2.8182008266448975,-1.7217460870742798,0.2944716215133667,2.450137138366699,-1.2823249858668824,-0.0033640055917203426,0.31223437190055847,-1.0237467924701136,0.002539842389523983,-0.09300868958234787,0.5487415790557861,-0.0,0.015607060864567757,1.2864487171173096,-0.02713102102279663,0.10183512419462204
383.0,262.0,-0.0173,-4.9274,7.8461,-0.0174,0.2094,-0.0211,-1.7654830418028773,-0.14916016161441803,2.821631908416748,-1.7180620431900024,0.3029977083206177,2.5027894973754883,-1.2823413175395508,0.000379189703380689,0.30774348974227905,-1.023742977772848,0.0015011039795354009,-0.09072519838809967,0.5487695336341858,-0.0,0.01471119374036789,1.2861324548721313,-0.035295519977808,0.009494541212916374
383.0,262.0,-0.0173,-4.9274,7.8461,-0.0174,0.2094,-0.0211,-1.7672134838499964,-0.1401173174381256,2.84965443611145,-1.7144545316696167,0.3026244342327118,2.4898431301116943,-1.2822528344443818,0.00011952117347391322,0.2908787727355957,-1.023783032094137,0.0006581521010957658,-0.09078142046928406,0.5487214922904968,-0.0,0.011437008157372475,1.2856680154800415,-0.03565024957060814,-0.0065164812840521336
383.0,262.0,-0.0173,-4.9274,7.8461,-0.0174,0.2094,-0.0211,-1.76896395305776,-0.15301179885864258,2.7930049896240234,-1.7108702659606934,0.2956019341945648,2.404107093811035,-1.2823249262622376,6.536171603954699e-11,0.28612804412841797,-1.0237229506122034,0.0003880212316289544,-0.08488866686820984,0.5487699508666992,-0.0,0.01063336618244648,1.2852845191955566,-0.03667216747999191,0.08518964052200317
383.0,262.0,-0.0173,-4.9274,7.8461,-0.0174,0.2094,-0.0211,-1.7707697353758753,-0.16067427396774292,2.8242878913879395,-1.7073420286178589,0.29162225127220154,2.4263157844543457,-1.282268450861313,-0.0006431131041608751,0.28763920068740845,-1.0236786047564905,0.0009482820169068873,-0.08140406757593155,0.5487132668495178,-0.0,0.01486454252153635,1.2847236394882202,-0.0444602444767952,-0.07432084530591965
383.0,262.0,-0.0173,-4.9274,7.8461,-0.0174,0.2094,-0.0211,-1.772627969781393,-0.16417713463306427,2.8305234909057617,-1.7039376497268677,0.2938028573989868,2.437011957168579,-1.2823167008212586,-0.0003749005263671279,0.27883800864219666,-1.0237229506122034,0.0007687729084864259,-0.06323572993278503,0.548789918422699,-0.0,0.007384052500128746,1.2842285633087158,-0.04694714769721031,0.0076278215274214745
383.0,262.0,-0.0173,-4.9274,7.8461,-0.0174,0.2094,-0.0211,-1.7746859989561976,-0.17183910310268402,2.79178786277771,-1.7004903554916382,0.288229376077652,2.428985595703125,-1.282288835649826,-0.00024308389401994646,0.2795529067516327,-1.0237310568438929,0.0006389463087543845,-0.09108904004096985,0.548729658126831,-0.0,0.011535472236573696,1.283599853515625,-0.049264587461948395,-0.04274987801909447
383.0,262.0,-0.0173,-4.9274,7.8461,-0.0174,0.2094,-0.0211,-1.7768103084959925,-0.17162089049816132,2.8322396278381348,-1.6969698667526245,0.29164958000183105,2.38641619682312,-1.2823208433440705,-0.00023825513198971748,0.2889532744884491,-1.023674790059225,0.00041718033025972545,-0.081450454890728,0.5487939715385437,-0.0,0.0055355168879032135,1.2830168008804321,-0.05559128150343895,-0.06667621433734894
280.0,258.0,0.7783,-5.543,7.3184,-0.1126,0.1158,-0.0748,-1.7790166340269984,-0.2011754810810089,2.8009209632873535,-1.693554162979126,0.2909039258956909,2.440491199493408,-1.2823126775077363,-0.00023018009960651398,0.28298601508140564,-1.0236790815936487,0.0004132736357860267,-0.06518717110157013,0.5487616658210754,-0.0,-0.006463142111897469,1.2822723388671875,-0.05547193065285683,-0.020608289167284966
280.0,258.0,0.7783,-5.543,7.3184,-0.1126,0.1158,-0.0748,-1.7815777264037074,-0.20110800862312317,2.8190243244171143,-1.6900537014007568,0.2805820405483246,2.4102816581726074,-1.2822929185679932,-0.0009555824799463153,0.2739523649215698,-1.0237072149859827,0.0006709135486744344,-0.07803098857402802,0.548673152923584,-0.0,0.0027725042309612036,1.2816162109375,-0.055160630494356155,-0.04887884855270386
280.0,258.0,0.7783,-5.543,7.3184,-0.1126,0.1158,-0.0748,-1.7840458355345667,-0.21109254658222198,2.7736690044403076,-1.6866741180419922,0.2757682502269745,2.403301239013672,-1.2823568743518372,-0.0016120580257847905,0.2746480107307434,-1.0236790815936487,0.0005119441193528473,-0.06865034997463226,0.548798143863678,-0.0,-1.0954216122627258e-05,1.2809566259384155,-0.05796702206134796,-0.020942866802215576
280.0,258.0,0.7783,-5.543,7.3184,-0.1126,0.1158,-0.0748,-1.7866884670653285,-0.2210017442703247,2.779872417449951,-1.6834094524383545,0.26160359382629395,2.4074575901031494,-1.2823408407023926,-0.0015681902877986431,0.2716659605503082,-1.0236991087542933,0.00038709849468432367,-0.0797610655426979,0.5487133264541626,-0.0,0.008866799995303154,1.2802366018295288,-0.06107035651803017,-0.03138750046491623
280.0,258.0,0.7783,-5.543,7.3184,-0.1126,0.1158,-0.0748,-1.7893082104124964,-0.2175900638103485,2.7473511695861816,-1.6803292036056519,0.248493954539299,2.3772318363189697,-1.2823605996421357,-0.000848719384521246,0.26431918144226074,-1.0236995855914515,0.0003126499068457633,-0.07350234687328339,0.548729658126831,-0.0,-0.007007653824985027,1.2794841527938843,-0.060622140765190125,-0.07723715901374817
280.0,258.0,0.7783,-5.543,7.3184,-0.1126,0.1158,-0.0748,-1.7920123539366664,-0.22866053879261017,2.7683887481689453,-1.6774624586105347,0.23440182209014893,2.3453145027160645,-1.2823605996421357,-0.0012627325486391783,0.2681911289691925,-1.0237353483783167,0.00027621228946372867,-0.062332987785339355,0.5487092733383179,-0.0,8.717738091945648e-05,1.2787718772888184,-0.06167210638523102,-0.04322431609034538
