ramyac6/ROB537/final_project/csv/good/good_27.csv
tof_0,tof_1,accelx,accely,accelz,gyrox,gyroy,gyroz,shoulder_lift_joint_position,shoulder_lift_joint_velocity,shoulder_lift_joint_effort,elbow_joint_position,elbow_joint_velocity,elbow_joint_effort,wrist_1_joint_position,wrist_1_joint_velocity,wrist_1_joint_effort,wrist_2_joint_position,wrist_2_joint_velocity,wrist_2_joint_effort,wrist_3_joint_position,wrist_3_joint_velocity,wrist_3_joint_effort,shoulder_pan_joint_position,shoulder_pan_joint_velocity,shoulder_pan_joint_effort
250.0,255.0,4.6355,0.1143,7.9968,-0.0269,0.0218,-0.1141,-1.5699114364436646,0.0,2.153987407684326,-1.578562617301941,-0.0,2.1581785678863525,4.2267209726521,0.0,0.2828795909881592,-1.2930076758014124,-0.0,-0.03568565100431442,0.2866448163986206,-0.0,-0.008155460469424725,1.2718212604522705,0.0,0.0005560433492064476
250.0,255.0,4.6355,0.1143,7.9968,-0.0269,0.0218,-0.1141,-1.5699317361325775,0.0,2.1427416801452637,-1.5786266326904297,-0.0,2.2036149501800537,4.226756735438965,0.0,0.28881141543388367,-1.292999569569723,-0.0,-0.04208037629723549,0.28661656379699707,-0.0,-0.014493445865809917,1.2718212604522705,0.0,-0.0005716810701414943
250.0,255.0,4.6355,0.1143,7.9968,-0.0269,0.0218,-0.1141,-1.5699312431136896,0.0,2.1786999702453613,-1.5786027908325195,-0.0,2.2438063621520996,4.226723833675049,0.0,0.2945173978805542,-1.293011490498678,-0.0,-0.025890808552503586,0.28658461570739746,-0.0,-0.0015851656207814813,1.2718212604522705,0.0,0.008755612187087536
250.0,255.0,4.6355,0.1143,7.9968,-0.0269,0.0218,-0.1141,-1.5699275943082576,0.0,2.2175686359405518,-1.5786385536193848,-0.0,2.200805187225342,4.226696653957031,0.0,0.2910810112953186,-1.2929876486407679,-0.0,-0.03913474455475807,0.28662440180778503,-0.0,-0.0037110187113285065,1.2718052864074707,0.0,-0.008963337168097496
250.0,255.0,4.6355,0.1143,7.9968,-0.0269,0.0218,-0.1141,-1.569919407749996,0.0,2.1534645557403564,-1.5786906480789185,-0.0,2.1883485317230225,4.226715727443359,0.0,0.2801233232021332,-1.2930391470538538,-0.0,-0.038051001727581024,0.28663256764411926,-0.0,-0.01740797981619835,1.2718249559402466,0.0,-0.032337937504053116
250.0,255.0,4.6355,0.1143,7.9968,-0.0269,0.0218,-0.1141,-1.5699597860551258,0.0,2.1662280559539795,-1.5786147117614746,-0.0,2.1747522354125977,4.226692362422607,0.0,0.2835993766784668,-1.2930510679828089,-0.0,-0.03175543248653412,0.2866084575653076,-0.0,-0.0018944028997793794,1.2717889547348022,0.0,0.007485675159841776
250.0,255.0,4.6355,0.1143,7.9968,-0.0269,0.0218,-0.1141,-1.5699597500827913,0.0,2.2167437076568604,-1.5786187648773193,-0.0,2.211252212524414,4.226740522975586,0.0,0.28598451614379883,-1.2930195967303675,-0.0,-0.04057786986231804,0.2865961790084839,-0.0,-0.010432353243231773,1.2718535661697388,0.0,-0.008264088071882725
250.0,255.0,4.6355,0.1143,7.9968,-0.0269,0.0218,-0.1141,-1.5699597500827913,0.0,2.2203283309936523,-1.5786305665969849,-0.0,2.2697274684906006,4.226776762599609,0.0,0.28566765785217285,-1.2930272261248987,-0.0,-0.045345209538936615,0.28661617636680603,-0.0,-0.001533416099846363,1.271793007850647,0.0,0.01958658918738365
250.0,255.0,4.5673,0.1292,8.053,-0.0319,0.0269,-0.1135,-1.5699353975108643,0.0,2.146756887435913,-1.5786464214324951,-0.0,2.236433506011963,4.226776762599609,0.0,0.2957698106765747,-1.2929957548724573,-0.0,-0.04061945527791977,0.28661251068115234,-0.0,-0.008342812769114971,1.2718172073364258,0.0,-0.020846035331487656
250.0,255.0,4.5673,0.1292,8.053,-0.0319,0.0269,-0.1135,-1.5698952665300858,0.0,2.2042999267578125,-1.5786266326904297,-0.0,2.194727897644043,4.22676865636792,0.0,0.2795242369174957,-1.2930548826800745,-0.0,-0.028433244675397873,0.28659653663635254,-0.0,-0.005908592604100704,1.2718414068222046,0.0,0.02356598898768425
250.0,255.0,4.5673,0.1292,8.053,-0.0319,0.0269,-0.1135,-1.5699271295200852,0.0,2.214592218399048,-1.5786187648773193,-0.0,2.1404571533203125,4.226728125209473,0.0,0.2864573001861572,-1.293023411427633,-0.0,-0.04443168640136719,0.28660058975219727,-0.0,-0.016537420451641083,1.271773099899292,0.0,-0.017628740519285202
250.0,255.0,4.5673,0.1292,8.053,-0.0319,0.0269,-0.1135,-1.5699433487937604,0.0,2.211293935775757,-1.5786622762680054,-0.0,2.171752452850342,4.22671286642041,0.0,0.2855660915374756,-1.2930076758014124,-0.0,-0.04178398847579956,0.2866084575653076,-0.0,-0.004554389975965023,1.2718212604522705,0.0,-0.007283578161150217
250.0,255.0,4.5673,0.1292,8.053,-0.0319,0.0269,-0.1135,-1.5699394863662128,0.0,2.1883769035339355,-1.5786465406417847,-0.0,2.211237907409668,4.226720018977783,0.0,0.28772932291030884,-1.2930157820331019,-0.0,-0.04473034292459488,0.28658053278923035,-0.0,-0.012532143853604794,1.2718253135681152,0.0,-0.005587593652307987
250.0,255.0,4.5673,0.1292,8.053,-0.0319,0.0269,-0.1135,-1.569943616141547,0.0,2.1837360858917236,-1.5786426067352295,-0.0,2.244086980819702,4.226731939906738,0.0,0.2945507764816284,-1.293011490498678,-0.0,-0.03368204087018967,0.28661251068115234,-0.0,-0.009486188180744648,1.2717649936676025,0.0,-0.003926537930965424
250.0,255.0,4.5673,0.1292,8.053,-0.0319,0.0269,-0.1135,-1.569951567424443,0.0,2.246960401535034,-1.5785903930664062,-0.0,2.224836587905884,4.22671286642041,0.0,0.2810141444206238,-1.2930434385882776,-0.0,-0.04285360872745514,0.28668084740638733,-0.0,0.003982476890087128,1.2717649936676025,0.0,0.003209784161299467
250.0,255.0,4.5673,0.1292,8.053,-0.0319,0.0269,-0.1135,-1.5699517868673247,0.0,2.1741888523101807,-1.5786068439483643,-0.0,2.173541307449341,4.226728125209473,0.0,0.28808051347732544,-1.2930315176593226,-0.0,-0.027906939387321472,0.28659653663635254,-0.0,-0.004227395635098219,1.271809458732605,0.0,0.008287353441119194
250.0,255.0,4.5673,0.1292,8.053,-0.0319,0.0269,-0.1135,-1.569903217812982,0.0,2.2252721786499023,-1.5786346197128296,-0.0,2.224337577819824,4.226708574885986,0.0,0.28870120644569397,-1.2930315176593226,-0.0,-0.031642913818359375,0.28659650683403015,-0.0,-0.008408427238464355,1.2717931270599365,0.0,0.03040202707052231
250.0,255.0,4.5673,0.1292,8.053,-0.0319,0.0269,-0.1135,-1.5699353975108643,0.0,2.171635627746582,-1.5786107778549194,-0.0,2.272972583770752,4.226700468654297,0.0,0.2846370339393616,-1.2930076758014124,-0.0,-0.023284167051315308,0.28658464550971985,-0.0,0.0006609591655433178,1.2717931270599365,0.0,-0.00608487706631422
250.0,255.0,4.5673,0.1292,8.053,-0.0319,0.0269,-0.1135,-1.5699271788801816,0.0,2.2263622283935547,-1.5786107778549194,-0.0,2.185260772705078,4.2267042833515625,0.0,0.284101277589798,-1.2930429617511194,-0.0,-0.021938849240541458,0.2866165339946747,-0.0,0.007732120342552662,1.271801233291626,0.0,0.017587143927812576
250.0,255.0,4.5673,0.1292,8.053,-0.0319,0.0269,-0.1135,-1.56989939630542,0.0,2.178697347640991,-1.5786187648773193,-0.0,2.1422321796417236,4.226736231441162,0.0,0.29180893301963806,-1.2930591742144983,-0.0,-0.04596715793013573,0.2866247296333313,-0.0,-0.004432363901287317,1.271801233291626,0.0,0.028320971876382828
250.0,255.0,4.5673,0.1292,8.053,-0.0319,0.0269,-0.1135,-1.5699556562797916,0.0,2.237056255340576,-1.5786187648773193,-0.0,2.199458599090576,4.2267042833515625,0.0,0.2828385829925537,-1.2929638067828577,-0.0,-0.04207487776875496,0.2866247594356537,-0.0,-0.0012015977408736944,1.2717931270599365,0.0,0.020907215774059296
250.0,255.0,4.5673,0.1292,8.053,-0.0319,0.0269,-0.1135,-1.5699193877265607,0.0,2.2573039531707764,-1.5786545276641846,-0.0,2.2234907150268555,4.22665993749585,0.0,0.2831071615219116,-1.2930353323565882,-0.0,-0.039298489689826965,0.2866567075252533,-0.0,-0.01584196835756302,1.271809458732605,0.0,0.0189901702105999
250.0,255.0,4.5673,0.1292,8.053,-0.0319,0.0269,-0.1135,-1.5699155662189987,0.0,2.2064852714538574,-1.5786226987838745,-0.0,2.2294845581054688,4.22674481451001,0.0,0.2926470935344696,-1.2930353323565882,-0.0,-0.03591001778841019,0.2866447865962982,-0.0,-0.010806579142808914,1.271801233291626,0.0,-0.0496579185128212
250.0,255.0,4.5673,0.1292,8.053,-0.0319,0.0269,-0.1135,-1.5699353975108643,0.0,2.216465950012207,-1.5786187648773193,-0.0,2.1963610649108887,4.226708574885986,0.0,0.288784921169281,-1.293023411427633,-0.0,-0.0337969996035099,0.2866407334804535,-0.0,-0.0011527989991009235,1.2718653678894043,0.0,-0.020459745079278946
235.0,238.0,4.5655,0.0999,8.2205,-0.0392,0.0247,-0.1219,-1.5699353975108643,0.0,2.2104196548461914,-1.57864248752594,-0.0,2.2030186653137207,4.2267209726521,0.0,0.27987322211265564,-1.2930195967303675,-0.0,-0.04203008860349655,0.2865723967552185,-0.0,-0.003064423566684127,1.2718331813812256,0.0,-0.04237256199121475
235.0,238.0,4.5655,0.0999,8.2205,-0.0392,0.0247,-0.1219,-1.5698669682936561,0.0,2.2120888233184814,-1.5785982608795166,-0.0,2.190415382385254,4.226700468654297,0.0,0.28812864422798157,-1.2930195967303675,-0.0,-0.030438218265771866,0.28666484355926514,-0.0,0.006884775590151548,1.2718291282653809,0.0,-0.029144106432795525
235.0,238.0,4.5655,0.0999,8.2205,-0.0392,0.0247,-0.1219,-1.5699435922181983,0.0,2.1713364124298096,-1.5785982608795166,-0.0,2.222414970397949,4.226740522975586,0.0,0.2788153290748596,-1.2930076758014124,-0.0,-0.055923860520124435,0.28661248087882996,-0.0,-0.005831670947372913,1.2717931270599365,0.0,0.01432148739695549
235.0,238.0,4.5655,0.0999,8.2205,-0.0392,0.0247,-0.1219,-1.5699317361325775,0.0,2.1914098262786865,-1.5786385536193848,-0.0,2.2254436016082764,4.22674481451001,0.0,0.29556065797805786,-1.2930434385882776,-0.0,-0.04606343433260918,0.28661251068115234,-0.0,-0.0004933940945193172,1.2718172073364258,0.0,0.04572189226746559
235.0,238.0,4.5655,0.0999,8.2205,-0.0392,0.0247,-0.1219,-1.5699275943082576,0.0,2.149106740951538,-1.5786305665969849,-0.0,2.175051689147949,4.226696653957031,0.0,0.28276869654655457,-1.2930434385882776,-0.0,-0.045731764286756516,0.2866247892379761,-0.0,-0.014109348878264427,1.271813154220581,0.0,-0.0155201256275177
235.0,238.0,4.5655,0.0999,8.2205,-0.0392,0.0247,-0.1219,-1.5699073641192918,0.0,2.2222094535827637,-1.5785828828811646,-0.0,2.1481828689575195,4.226736231441162,0.0,0.28237515687942505,-1.293011490498678,-0.0,-0.0313410609960556,0.2866125702857971,-0.0,-0.004776156507432461,1.2717931270599365,0.0,0.01722794771194458
235.0,238.0,4.5655,0.0999,8.2205,-0.0392,0.0247,-0.1219,-1.5699597500827913,0.0,2.2230186462402344,-1.5786583423614502,-0.0,2.2217659950256348,4.22671286642041,0.0,0.2823575735092163,-1.293011490498678,-0.0,-0.03185805678367615,0.28659650683403015,-0.0,-0.00674681318923831,1.271841287612915,0.0,0.00851681362837553
235.0,238.0,4.5655,0.0999,8.2205,-0.0392,0.0247,-0.1219,-1.5699276063572434,0.0,2.1883068084716797,-1.5786906480789185,-0.0,2.210008382797241,4.226736231441162,0.0,0.28512704372406006,-1.2930548826800745,-0.0,-0.027661282569169998,0.2865723669528961,-0.0,-0.0005693945568054914,1.2718172073364258,0.0,-0.030681699514389038
235.0,238.0,4.5655,0.0999,8.2205,-0.0392,0.0247,-0.1219,-1.5699234765819092,0.0,2.169438123703003,-1.5786266326904297,-0.0,2.184356451034546,4.226731939906738,0.0,0.28353816270828247,-1.2930391470538538,-0.0,-0.05516562610864639,0.2866407334804535,-0.0,-0.010044220834970474,1.2718253135681152,0.0,-0.016288626939058304
235.0,238.0,4.5655,0.0999,8.2205,-0.0392,0.0247,-0.1219,-1.5699193996009235,0.0,2.1742730140686035,-1.578654408454895,-0.0,2.145864248275757,4.226776762599609,0.0,0.29224908351898193,-1.2930195967303675,-0.0,-0.03113621100783348,0.2865961790084839,-0.0,-0.002626374363899231,1.271813154220581,0.0,0.0196860209107399
235.0,238.0,4.5655,0.0999,8.2205,-0.0392,0.0247,-0.1219,-1.5699271870292542,0.0,2.2113304138183594,-1.5785903930664062,-0.0,2.191505193710327,4.226672335261963,0.0,0.28256702423095703,-1.2930076758014124,-0.0,-0.034871190786361694,0.28658053278923035,-0.0,-0.001334482803940773,1.271801233291626,0.0,-0.03744541481137276
235.0,238.0,4.5655,0.0999,8.2205,-0.0392,0.0247,-0.1219,-1.5699114364436646,0.0,2.1999404430389404,-1.5786068439483643,-0.0,2.185366630554199,4.22674481451001,0.0,0.291106641292572,-1.2930153051959437,-0.0,-0.028110219165682793,0.2865765392780304,-0.0,-0.00834640022367239,1.2718172073364258,0.0,-0.021971244364976883
235.0,238.0,4.5655,0.0999,8.2205,-0.0392,0.0247,-0.1219,-1.5699114858619687,0.0,2.203242301940918,-1.5786505937576294,-0.0,2.2027785778045654,4.22674481451001,0.0,0.28970253467559814,-1.2930195967303675,-0.0,-0.03710705414414406,0.2866365909576416,-0.0,-0.004958570469170809,1.2718331813812256,0.0,-0.0011110263876616955
235.0,238.0,4.5655,0.0999,8.2205,-0.0392,0.0247,-0.1219,-1.5698828452480775,0.0,2.2067675590515137,-1.5786068439483643,-0.0,2.1920440196990967,4.226700468654297,0.0,0.2727110981941223,-1.2929914633380335,-0.0,-0.0381515696644783,0.2865924835205078,-0.0,-0.01296439953148365,1.2717649936676025,0.0,-0.02937415800988674
235.0,238.0,4.5655,0.0999,8.2205,-0.0392,0.0247,-0.1219,-1.5699234765819092,0.0,2.1588962078094482,-1.5786226987838745,-0.0,2.210047960281372,4.226731939906738,0.0,0.2921158969402313,-1.2929957548724573,-0.0,-0.04575197398662567,0.2866325378417969,-0.0,-0.01731954887509346,1.2717809677124023,0.0,-0.00558780413120985
241.0,255.0,4.535,0.1053,8.2313,-0.038,0.0189,-0.1081,-1.5699555995273222,0.0,2.206280469894409,-1.5786465406417847,-0.0,2.178232192993164,4.226716681117676,0.0,0.28438660502433777,-1.2930553595172327,-0.0,-0.03958439826965332,0.2866043150424957,-0.0,-0.0030197505839169025,1.2718331813812256,0.0,0.029635053128004074
241.0,255.0,4.535,0.1053,8.2313,-0.038,0.0189,-0.1081,-1.569959794262406,0.0,2.1867072582244873,-1.57864248752594,-0.0,2.1649327278137207,4.226716681117676,0.0,0.27061551809310913,-1.2930353323565882,-0.0,-0.03372926265001297,0.28661251068115234,-0.0,-0.014574842527508736,1.2717608213424683,0.0,0.059232547879219055
241.0,255.0,4.535,0.1053,8.2313,-0.038,0.0189,-0.1081,-1.569955656221584,0.0,2.1977789402008057,-1.5785943269729614,-0.0,2.225918769836426,4.22674481451001,0.0,0.285190612077713,-1.2930391470538538,-0.0,-0.036005474627017975,0.28659653663635254,-0.0,-0.012170241214334965,1.271785020828247,0.0,-0.04788101464509964
241.0,255.0,4.535,0.1053,8.2313,-0.038,0.0189,-0.1081,-1.5699353975108643,0.0,2.2035012245178223,-1.5786147117614746,-0.0,2.211738348007202,4.226723833675049,0.0,0.28366369009017944,-1.292999569569723,-0.0,-0.020992733538150787,0.2866685390472412,-0.0,-0.02769978903234005,1.2718052864074707,0.0,-0.0154816173017025
241.0,255.0,4.535,0.1053,8.2313,-0.038,0.0189,-0.1081,-1.5699271789383893,0.0,2.221139430999756,-1.5786068439483643,-0.0,2.1670892238616943,4.226720018977783,0.0,0.29324522614479065,-1.293023411427633,-0.0,-0.022983726114034653,0.2866485118865967,-0.0,-0.0044212304055690765,1.2717889547348022,0.0,-0.021747872233390808
241.0,255.0,4.535,0.1053,8.2313,-0.038,0.0189,-0.1081,-1.569931279784516,0.0,2.2252371311187744,-1.5785431861877441,-0.0,2.1797842979431152,4.226772947902344,0.0,0.2754712402820587,-1.2930472532855433,-0.0,-0.04325319081544876,0.2866448163986206,-0.0,0.0002727414248511195,1.2718175649642944,0.0,0.013098632916808128
241.0,255.0,4.535,0.1053,8.2313,-0.038,0.0189,-0.1081,-1.5699679858265263,0.0,2.1917498111724854,-1.5786346197128296,-0.0,2.213501453399658,4.226720018977783,0.0,0.2873860001564026,-1.2930787245379847,-0.0,-0.0464940071105957,0.28662028908729553,-0.0,-0.014721824787557125,1.2717812061309814,0.0,-0.0073951235972344875
241.0,255.0,4.535,0.1053,8.2313,-0.038,0.0189,-0.1081,-1.5699716220591036,0.0,2.1753616333007812,-1.5786266326904297,-0.0,2.2234606742858887,4.226740522975586,0.0,0.2816022038459778,-1.2930548826800745,-0.0,-0.03417474031448364,0.2866448163986206,-0.0,-0.004889613948762417,1.271801233291626,0.0,0.03134513646364212
241.0,255.0,4.535,0.1053,8.2313,-0.038,0.0189,-0.1081,-1.5699394417791446,0.0,2.1910722255706787,-1.5785908699035645,-0.0,2.21455454826355,4.226740522975586,0.0,0.2859261929988861,-1.2930353323565882,-0.0,-0.037748198956251144,0.2866607904434204,-0.0,-0.01048667449504137,1.2717889547348022,0.0,-0.006120727397501469
241.0,255.0,4.535,0.1053,8.2313,-0.038,0.0189,-0.1081,-1.5699353975108643,0.0,2.1969594955444336,-1.5786585807800293,-0.0,2.197005271911621,4.22674481451001,0.0,0.28706374764442444,-1.2930353323565882,-0.0,-0.03292231261730194,0.2866727113723755,-0.0,0.0006419338751584291,1.271813154220581,0.0,0.038091279566287994
241.0,255.0,4.535,0.1053,8.2313,-0.038,0.0189,-0.1081,-1.569971630208176,0.0,2.1745071411132812,-1.5786147117614746,-0.0,2.1849751472473145,4.226728125209473,0.0,0.28184640407562256,-1.2930315176593226,-0.0,-0.03511061891913414,0.28658831119537354,-0.0,-0.011098615825176239,1.2718249559402466,0.0,-0.021967466920614243
241.0,255.0,4.535,0.1053,8.2313,-0.038,0.0189,-0.1081,-1.569947421176341,0.0,2.1593613624572754,-1.5786186456680298,-0.0,2.183990240097046,4.226720018977783,0.0,0.27522480487823486,-1.293023411427633,-0.0,-0.03340940549969673,0.2866407334804535,-0.0,-0.006389626767486334,1.2717931270599365,0.0,-0.0005578477866947651
241.0,255.0,4.535,0.1053,8.2313,-0.038,0.0189,-0.1081,-1.5699275943082576,0.0,2.2362473011016846,-1.5786107778549194,-0.0,2.1844842433929443,4.226720018977783,0.0,0.29087644815444946,-1.2930272261248987,-0.0,-0.03469949588179588,0.2865886092185974,-0.0,-0.015906922519207,1.2717890739440918,0.0,0.04091356694698334
241.0,255.0,4.535,0.1053,8.2313,-0.038,0.0189,-0.1081,-1.5699433606681232,0.0,2.179614782333374,-1.5786783695220947,-0.0,2.170728921890259,4.226723833675049,0.0,0.28652259707450867,-1.293011490498678,-0.0,-0.029119420796632767,0.28664886951446533,-0.0,0.005244584288448095,1.2718253135681152,0.0,0.01296394132077694
241.0,255.0,4.535,0.1053,8.2313,-0.038,0.0189,-0.1081,-1.5699556562797916,0.0,2.25673770904541,-1.578614592552185,-0.0,2.226127862930298,4.226720018977783,0.0,0.28110402822494507,-1.2930076758014124,-0.0,-0.03878001496195793,0.28659653663635254,-0.0,0.0004592086188495159,1.2718172073364258,0.0,0.014213122427463531
244.0,265.0,4.5852,0.1226,8.1589,-0.0315,0.0278,-0.1126,-1.5699716057027508,0.0,2.1880083084106445,-1.5786266326904297,-0.0,2.197373390197754,4.226740522975586,0.0,0.286432683467865,-1.293023411427633,-0.0,-0.039935946464538574,0.2866325378417969,-0.0,-0.00082355213817209,1.2717889547348022,0.0,-0.04433586448431015
244.0,265.0,4.5852,0.1226,8.1589,-0.0315,0.0278,-0.1126,-1.5699394663427775,0.0,2.21685791015625,-1.5786346197128296,-0.0,2.215291976928711,4.226728125209473,0.0,0.2818325161933899,-1.2929757277118128,-0.0,-0.04866126924753189,0.2866084575653076,-0.0,-0.00634551327675581,1.2718372344970703,0.0,0.0009435183019377291
244.0,265.0,4.5852,0.1226,8.1589,-0.0315,0.0278,-0.1126,-1.5698870838717376,0.0,2.176058530807495,-1.5785346031188965,-0.0,2.196134328842163,4.226764364833496,0.0,0.282982736825943,-1.292999569569723,-0.0,-0.044203922152519226,0.28665295243263245,-0.0,-0.010110300034284592,1.2717771530151367,0.0,-0.024653811007738113
244.0,265.0,4.5852,0.1226,8.1589,-0.0315,0.0278,-0.1126,-1.5699111497709346,0.0,2.1900088787078857,-1.5786187648773193,-0.0,2.159359931945801,4.226720018977783,0.0,0.2966894507408142,-1.293011490498678,-0.0,-0.03989599645137787,0.28664883971214294,-0.0,0.00011019129306077957,1.2718172073364258,0.0,-0.026911303400993347
244.0,265.0,4.5852,0.1226,8.1589,-0.0315,0.0278,-0.1126,-1.56993947449185,0.0,2.1412596702575684,-1.5786305665969849,-0.0,2.1835601329803467,4.226723833675049,0.0,0.28760311007499695,-1.2930353323565882,-0.0,-0.0417005717754364,0.28661251068115234,-0.0,0.0012829549377784133,1.27182936668396,0.0,0.020351547747850418
244.0,265.0,4.5852,0.1226,8.1589,-0.0315,0.0278,-0.1126,-1.5699394499864248,0.0,2.2078840732574463,-1.5786266326904297,-0.0,2.2075893878936768,4.226731939906738,0.0,0.29193684458732605,-1.293062988911764,-0.0,-0.0331345871090889,0.2866244316101074,-0.0,-0.0015455648535862565,1.271785020828247,0.0,0.003064662218093872
244.0,265.0,4.5852,0.1226,8.1589,-0.0315,0.0278,-0.1126,-1.5699230768699017,0.0,2.159836769104004,-1.5786226987838745,-0.0,2.1971683502197266,4.22671286642041,0.0,0.29277557134628296,-1.2930353323565882,-0.0,-0.0301494300365448,0.28657227754592896,-0.0,-0.013744460418820381,1.271776795387268,0.0,-0.04544159770011902
244.0,265.0,4.5852,0.1226,8.1589,-0.0315,0.0278,-0.1126,-1.569931276001018,0.0,2.1559834480285645,-1.5786305665969849,-0.0,2.173356056213379,4.226728125209473,0.0,0.278482049703598,-1.2930157820331019,-0.0,-0.03320169821381569,0.28658419847488403,-0.0,-0.002297408180311322,1.2717971801757812,0.0,-0.004753486253321171
244.0,265.0,4.5852,0.1226,8.1589,-0.0315,0.0278,-0.1126,-1.5699394991136906,0.0,2.1534504890441895,-1.578586459159851,-0.0,2.268381357192993,4.226772947902344,0.0,0.28239285945892334,-1.2930272261248987,-0.0,-0.04109679162502289,0.28659650683403015,-0.0,0.002280786167830229,1.271801233291626,0.0,-0.04030800610780716
244.0,265.0,4.5852,0.1226,8.1589,-0.0315,0.0278,-0.1126,-1.5698833865211164,0.0,2.192573070526123,-1.5785948038101196,-0.0,2.190267324447632,4.226784868831299,2.90888396703437e-10,0.2887119948863983,-1.2930510679828089,-0.0,-0.04897920787334442,0.28659242391586304,-0.0,-0.005146899726241827,1.2718372344970703,0.0,-0.007046052720397711
244.0,265.0,4.5852,0.1226,8.1589,-0.0315,0.0278,-0.1126,-1.5698635143092652,0.0015329151647165418,2.215550661087036,-1.5786266326904297,0.0008123525185510516,2.1874542236328125,4.226816816920898,0.0009223363595083356,0.2808384299278259,-1.2930272261248987,-0.0,-0.05721268057823181,0.2866488993167877,-0.0,0.0017697729635983706,1.2718616724014282,0.0,0.014256861992180347
244.0,265.0,4.5852,0.1226,8.1589,-0.0315,0.0278,-0.1126,-1.5698594254539167,0.001954026520252228,2.2086825370788574,-1.5785624980926514,0.0007466340321116149,2.1756913661956787,4.226743860835693,0.0007234293734654784,0.2870762348175049,-1.2929919401751917,-0.0,-0.029734525829553604,0.2865961194038391,-0.0,-0.018533186987042427,1.2717889547348022,0.0,0.023579465225338936
244.0,265.0,4.5852,0.1226,8.1589,-0.0315,0.0278,-0.1126,-1.569843223235086,0.0015250813448801637,2.213192939758301,-1.5786187648773193,0.0005579739809036255,2.2117180824279785,4.226760073299072,0.0006168379914015532,0.2841230630874634,-1.292999569569723,-0.0,-0.03313683345913887,0.28666451573371887,-0.0,-0.011247734539210796,1.2718576192855835,0.0,0.011099409312009811
244.0,265.0,4.5852,0.1226,8.1589,-0.0315,0.0278,-0.1126,-1.569815164697804,0.0011138084810227156,2.1498541831970215,-1.5786266326904297,0.00027257259353064,2.1613712310791016,4.226760073299072,0.0004908849950879812,0.27658647298812866,-1.2930353323565882,-0.0,-0.02860425040125847,0.2866448163986206,-0.0,-0.010668610222637653,1.2718210220336914,0.0,-0.03216886892914772
244.0,265.0,4.5852,0.1226,8.1589,-0.0315,0.0278,-0.1126,-1.5698391257650037,0.0006656484329141676,2.201327085494995,-1.5786147117614746,0.00014034690684638917,2.1983137130737305,4.226821108455322,0.00040749556501396,0.2847106456756592,-1.2930672804461878,-0.0,-0.046138256788253784,0.2866407632827759,-0.0,-0.0043275607749819756,1.271785020828247,0.0,-0.002468330319970846
244.0,265.0,4.5852,0.1226,8.1589,-0.0315,0.0278,-0.1126,-1.5698594254539167,0.0005494375363923609,2.2077298164367676,-1.5786147117614746,0.00012140934995841235,2.189080238342285,4.226808710689209,0.00036604635533876717,0.2998688817024231,-1.2930353323565882,-0.0,-0.011748974211513996,0.2866005599498749,-0.0,-0.007706449832767248,1.2718372344970703,0.0,0.05160076916217804
233.0,250.0,4.5745,0.1101,8.1338,-0.0301,0.0234,-0.1164,-1.5698795240935688,0.00016178864461835474,2.191422462463379,-1.5786346197128296,0.00010097375343320891,2.1792232990264893,4.226736231441162,0.000317593541694805,0.28168487548828125,-1.2930553595172327,-0.0,-0.03497767448425293,0.2866244316101074,-0.0,0.011763871647417545,1.2717931270599365,0.0,-0.0504860021173954
233.0,250.0,4.5745,0.1101,8.1338,-0.0301,0.0234,-0.1164,-1.569891613417287,8.065576548688114e-05,2.1747586727142334,-1.5785788297653198,4.3214778997935355e-05,2.2179365158081055,4.226796312923096,0.00028047122759744525,0.29121631383895874,-1.2930830160724085,-0.0,-0.028926022350788116,0.2866002023220062,-0.0,-0.0040219430811703205,1.271809458732605,0.0,0.004725008737295866
233.0,250.0,4.5745,0.1101,8.1338,-0.0301,0.0234,-0.1164,-1.569875126970448,4.9943962949328125e-05,2.1848134994506836,-1.5786226987838745,3.7772271753055975e-05,2.1898200511932373,4.226760073299072,0.00025111998547799885,0.2874801754951477,-1.2930510679828089,-0.0,-0.03143578767776489,0.2866649031639099,-0.0,-0.0017481660470366478,1.271841287612915,0.0,-0.025547830387949944
233.0,250.0,4.5745,0.1101,8.1338,-0.0301,0.0234,-0.1164,-1.569887475376465,4.2815277993213385e-05,2.178877353668213,-1.5786147117614746,3.354812361067161e-05,2.195481777191162,4.226764364833496,0.00022733087826054543,0.2784574627876282,-1.2930315176593226,-0.0,-0.036379292607307434,0.28664079308509827,-0.0,-0.0060857729986310005,1.2718613147735596,0.0,-0.013199190609157085
233.0,250.0,4.5745,0.1101,8.1338,-0.0301,0.0234,-0.1164,-1.569879512219206,7.491395808756351e-05,2.203697681427002,-1.5786147117614746,6.0345591919030994e-05,2.2428441047668457,4.226808710689209,0.00020765914814546704,0.2920108735561371,-1.2930315176593226,-0.0,-0.03594554215669632,0.286636620759964,-0.0,-0.006987119559198618,1.271773099899292,0.0,0.03825518488883972
233.0,250.0,4.5745,0.1101,8.1338,-0.0301,0.0234,-0.1164,-1.5698635143092652,6.661505904048681e-05,2.1827025413513184,-1.5786023139953613,8.211846579797566e-05,2.2303926944732666,4.226760073299072,0.00016296628746204078,0.2849386930465698,-1.2930672804461878,-0.0,-0.037930138409137726,0.2866608202457428,-0.0,-0.01646975800395012,1.2718454599380493,0.0,0.00038330163806676865
233.0,250.0,4.5745,0.1101,8.1338,-0.0301,0.0234,-0.1164,-1.5698676440845993,8.99350707186386e-05,2.1591968536376953,-1.5785908699035645,9.493323159404099e-05,2.1630001068115234,4.22682444631543,0.00012248584243934602,0.2803301215171814,-1.2930353323565882,-0.0,-0.031585078686475754,0.2866005599498749,-0.0,0.002994170179590583,1.2718653678894043,0.0,0.042324453592300415
233.0,250.0,4.5745,0.1101,8.1338,-0.0301,0.0234,-0.1164,-1.5698350368514475,8.176597475539893e-05,2.159046173095703,-1.5785152912139893,0.006233865860849619,2.1693453788757324,4.226751967067383,0.00011323156650178134,0.28948861360549927,-1.2930033842669886,-0.0,-0.024767260998487473,0.28662028908729553,-0.0,0.000635640462860465,1.2718613147735596,0.0,0.034187305718660355
233.0,250.0,4.5745,0.1101,8.1338,-0.0301,0.0234,-0.1164,-1.5698635143092652,-3.6132027162238955e-05,2.1773083209991455,-1.5784707069396973,0.013660363852977753,2.2000229358673096,4.226751967067383,0.00014702649787068367,0.2782381474971771,-1.293023411427633,-0.0,-0.035090066492557526,0.28661659359931946,-0.0,0.0032356437295675278,1.2719134092330933,0.002781383227556944,0.03212151676416397
233.0,250.0,4.5745,0.1101,8.1338,-0.0301,0.0234,-0.1164,-1.5698594254539167,-3.229765934520401e-05,2.1856541633605957,-1.5783711671829224,0.012875102460384369,2.190248727798462,4.2268006044575195,0.00013772929378319532,0.28742969036102295,-1.2930548826800745,-0.0,-0.03644106164574623,0.28665265440940857,-0.0,-0.0027236687019467354,1.271949052810669,0.006495534908026457,-0.006547234021127224
233.0,250.0,4.5745,0.1101,8.1338,-0.0301,0.0234,-0.1164,-1.5698391257650037,-2.915840013884008e-05,2.1726486682891846,-1.5783514976501465,0.0065785846672952175,2.2090024948120117,4.226781054134033,0.0001292522792937234,0.28502482175827026,-1.2930510679828089,-0.0,-0.030809814110398293,0.2865886986255646,-0.0,-0.0054902927950024605,1.2720378637313843,0.011810055002570152,-0.008484341204166412
233.0,250.0,4.5745,0.1101,8.1338,-0.0301,0.0234,-0.1164,-1.5698432555403379,-2.6575338779366575e-05,2.2334938049316406,-1.5783113241195679,0.002256215550005436,2.243515729904175,4.226783915156982,0.000134663816425018,0.2866289019584656,-1.293011490498678,-0.0,-0.034009773284196854,0.28660428524017334,-0.0,-0.0045273397117853165,1.272085189819336,0.01514376699924469,0.02225319668650627
233.0,250.0,4.5745,0.1101,8.1338,-0.0301,0.0234,-0.1164,-1.5699034851607685,-2.4412716811639257e-05,2.2299365997314453,-1.5783199071884155,0.0014099505497142673,2.1996641159057617,4.226748152370117,0.0001315246627200395,0.2769239544868469,-1.2930272261248987,-0.0,-0.032525427639484406,0.28660842776298523,-0.0,-0.006997652351856232,1.2721493244171143,0.011744949966669083,0.038810353726148605
233.0,250.0,4.5745,0.1101,8.1338,-0.0301,0.0234,-0.1164,-1.5699237848496814,-4.3595748138614e-05,2.21818208694458,-1.5783193111419678,0.0008714972645975649,2.212470293045044,4.226756735438965,0.0001268900668947026,0.28688591718673706,-1.2930472532855433,-0.0,-0.03390894830226898,0.28658828139305115,-0.0,0.0007294928655028343,1.272193193435669,0.007877972908318043,0.030280955135822296
233.0,250.0,4.5745,0.1101,8.1338,-0.0301,0.0234,-0.1164,-1.5699234601673488,-0.00030938154668547213,2.1907405853271484,-1.578291416168213,-0.0005178158171474934,2.2072601318359375,4.2267443376728515,0.00012051803059875965,0.2900255620479584,-1.2930830160724085,-0.0,-0.04587358981370926,0.2866206765174866,-0.0,-0.011091525666415691,1.272205114364624,0.002115533221513033,0.053354471921920776
242.0,252.0,4.7713,0.2082,8.4269,-0.0137,0.0322,-0.1089,-1.570015499343146,-0.00647061038762331,2.153535842895508,-1.5784038305282593,-0.0035204056184738874,2.1698243618011475,4.22676055013623,0.00010044310329249129,0.2730851471424103,-1.2930434385882776,-0.0,-0.03301917016506195,0.28654003143310547,-0.0,0.006466879043728113,1.2722132205963135,-0.0009644933161325753,0.03473842889070511
242.0,252.0,4.7713,0.2082,8.4269,-0.0137,0.0322,-0.1089,-1.5700551614030083,-0.010382725857198238,2.230490207672119,-1.5784271955490112,-0.005344404838979244,2.195667028427124,4.226740522975586,9.582894563209265e-05,0.28046515583992004,-1.2930272261248987,-0.0,-0.03587891533970833,0.28662851452827454,-0.0,0.0025506443344056606,1.2721450328826904,-0.0020084597636014223,-0.03203963488340378
242.0,252.0,4.7713,0.2082,8.4269,-0.0137,0.0322,-0.1089,-1.5701392370723006,-0.01272994838654995,2.17704439163208,-1.5784707069396973,-0.0051576984114944935,2.200150489807129,4.226752443904541,9.164695802610368e-05,0.2899419069290161,-1.2930195967303675,-0.0,-0.027650341391563416,0.28660881519317627,-0.0,-0.021137939766049385,1.2721611261367798,-0.001149483723565936,-0.024868551641702652
242.0,252.0,4.7713,0.2082,8.4269,-0.0137,0.0322,-0.1089,-1.5702152375927945,-0.012173401191830635,2.1912832260131836,-1.5784581899642944,-0.0048189009539783,2.197425365447998,4.226740522975586,4.7174580686260015e-05,0.2812741696834564,-1.2930353323565882,-0.0,-0.03191487863659859,0.28659650683403015,-0.0,-0.00025766436010599136,1.2721972465515137,-0.0001321738527622074,0.009770805016160011
242.0,252.0,4.7713,0.2082,8.4269,-0.0137,0.0322,-0.1089,-1.5702670020148908,-0.00811428390443325,2.2022576332092285,-1.5785348415374756,-0.003208438865840435,2.157496452331543,4.226764841670654,4.369766975287348e-05,0.304653137922287,-1.2930472532855433,-0.0,-0.03437696769833565,0.2866206765174866,-0.0,-0.01157844066619873,1.2722091674804688,-0.0001828832464525476,0.008161106146872044
242.0,252.0,4.7713,0.2082,8.4269,-0.0137,0.0322,-0.1089,-1.5703111972000734,-0.0038653090596199036,2.185755729675293,-1.5784870386123657,-0.0009037584532052279,2.1692376136779785,4.226784868831299,4.073109812452458e-05,0.28289172053337097,-1.2930272261248987,-0.0,-0.049518294632434845,0.28658050298690796,-0.0,0.0028457522857934237,1.2721612453460693,-0.0002779050264507532,0.05442769080400467
242.0,252.0,4.7713,0.2082,8.4269,-0.0137,0.0322,-0.1089,-1.5703112218510178,-0.0011400115909054875,2.2053210735321045,-1.5785466432571411,-0.00014974267105571926,2.1847457885742188,4.226731939906738,3.814179581240751e-05,0.28079938888549805,-1.2931068579303187,-0.0,-0.025637924671173096,0.28661659359931946,-0.0,-0.0005043698474764824,1.2720807790756226,-0.002035959158092737,-0.04898533970117569
242.0,252.0,4.7713,0.2082,8.4269,-0.0137,0.0322,-0.1089,-1.5703030032203351,-0.00016679333930369467,2.206019639968872,-1.578579068183899,-0.00019967430853284895,2.2330162525177,4.22674481451001,3.5861983633367345e-05,0.286016047000885,-1.2929876486407679,-0.0,-0.04116053134202957,0.28658050298690796,-0.0,0.0023058224469423294,1.2720770835876465,-0.004758857190608978,0.04375285655260086
242.0,252.0,4.7713,0.2082,8.4269,-0.0137,0.0322,-0.1089,-1.5702830117991944,-2.462585158014008e-08,2.1773557662963867,-1.5785187482833862,-0.00022433714184444398,2.163540840148926,4.22676865636792,3.383934745215811e-05,0.29660096764564514,-1.293023411427633,-0.0,-0.03995731472969055,0.2866046726703644,-0.0,-0.00947475340217352,1.2720168828964233,-0.006672573741525412,-0.01428659912198782
242.0,252.0,4.7713,0.2082,8.4269,-0.0137,0.0322,-0.1089,-1.570343340983829,-5.946854337093854e-14,2.198484420776367,-1.578566551208496,-0.00023973420320544392,2.169132709503174,4.2267209726521,3.203271990059875e-05,0.278751939535141,-1.2929757277118128,-0.0,-0.03831697627902031,0.2866366505622864,-0.0,-0.01010964810848236,1.27194082736969,-0.007772818207740784,0.013492260128259659
242.0,252.0,4.7713,0.2082,8.4269,-0.0137,0.0322,-0.1089,-1.570254949361999,-1.43609527407019e-19,2.1560280323028564,-1.5785551071166992,-8.002775575732812e-05,2.2101845741271973,4.22671286642041,3.0409233659156598e-05,0.27228301763534546,-1.292999569569723,-0.0,-0.048139844089746475,0.286568284034729,-0.0,-0.00135600077919662,1.2719290256500244,-0.00891379825770855,-0.031178109347820282
242.0,252.0,4.7713,0.2082,8.4269,-0.0137,0.0322,-0.1089,-1.5703032870408897,-2.5849207971108483e-23,2.213332176208496,-1.5784989595413208,-5.243966734269634e-05,2.2619800567626953,4.226664229030273,2.2172504031914286e-05,0.29678842425346375,-1.2930272261248987,-0.0,-0.043347131460905075,0.28664088249206543,-0.0,-0.011209585703909397,1.2718409299850464,-0.008397701196372509,-0.06617440283298492
242.0,252.0,4.7713,0.2082,8.4269,-0.0137,0.0322,-0.1089,-1.570235089664795,-6.242278996764837e-29,2.191389322280884,-1.5785233974456787,-8.91860896246044e-09,2.237063407897949,4.226715727443359,6.37707557871181e-08,0.28139451146125793,-1.2929719130145472,-0.0,-0.03342924639582634,0.2866489291191101,-0.0,-0.008708307519555092,1.2718250751495361,-0.009542170912027359,-0.06389870494604111
242.0,252.0,4.7713,0.2082,8.4269,-0.0137,0.0322,-0.1089,-1.5702313709519622,0.0008774912566877902,2.1542558670043945,-1.5785069465637207,-2.1537393247420163e-14,2.1484525203704834,4.226728125209473,1.7750823380624503e-11,0.2808941602706909,-1.2929876486407679,-0.0,-0.047827862203121185,0.28660058975219727,-0.0,-0.008783595636487007,1.2717289924621582,-0.01251153089106083,0.011471636593341827
242.0,252.0,4.7713,0.2082,8.4269,-0.0137,0.0322,-0.1089,-1.5702074262993229,0.0011962978169322014,2.228679656982422,-1.5784950256347656,-5.2010267021630194e-20,2.2101309299468994,4.22676055013623,4.94100660858093e-15,0.2876828610897064,-1.2929719130145472,-0.0,-0.037271443754434586,0.28660428524017334,-0.0,-0.0025366689078509808,1.2716654539108276,-0.015056440606713295,-0.0070747435092926025
245.0,264.0,5.9396,0.0479,7.9561,0.0286,-0.0472,-0.1049,-1.5701869001244013,0.0007219433900900185,2.1804311275482178,-1.5784950256347656,0.00019397590949665755,2.219398260116577,4.226723833675049,1.3753476210227844e-18,0.29370442032814026,-1.293023411427633,-0.0,-0.030755512416362762,0.28661248087882996,-0.0,-0.01778504066169262,1.2715530395507812,-0.017272913828492165,-0.0690837875008583
245.0,264.0,5.9396,0.0479,7.9561,0.0286,-0.0472,-0.1049,-1.5702473972090338,0.0005151748773641884,2.19301438331604,-1.578471064567566,0.000219485504203476,2.2158937454223633,4.22674481451001,3.8283303610050454e-22,0.28822779655456543,-1.2929795424090784,-0.0,-0.03584657609462738,0.28660425543785095,-0.0,-0.009519505314528942,1.2713886499404907,-0.019113441929221153,-0.04735151678323746
245.0,264.0,5.9396,0.0479,7.9561,0.0286,-0.0472,-0.1049,-1.5702111285975953,0.00040050855022855103,2.2228500843048096,-1.5785109996795654,0.0001766854984452948,2.2157886028289795,4.226715727443359,1.0656296723298928e-25,0.2969129979610443,-1.2929795424090784,-0.0,-0.055013954639434814,0.2866608202457428,-0.0,-0.010720442980527878,1.2712689638137817,-0.0220032911747694,-0.05110487341880798
245.0,264.0,5.9396,0.0479,7.9561,0.0286,-0.0472,-0.1049,-1.5701951188132917,0.00027301133377477527,2.179502010345459,-1.5784791707992554,0.00014768757682759315,2.1152291297912598,4.22674481451001,2.9662191982886784e-29,0.2940855026245117,-1.2929719130145472,-0.0,-0.03437359631061554,0.2865961492061615,-0.0,-0.005633046850562096,1.2711247205734253,-0.023823589086532593,-0.0875973105430603
245.0,264.0,5.9396,0.0479,7.9561,0.0286,-0.0472,-0.1049,-1.5702190798804914,0.00018542117322795093,2.1283459663391113,-1.5784989595413208,0.00012686669651884586,2.103193759918213,4.226704760188721,8.256581954047528e-33,0.28635385632514954,-1.2929719130145472,-0.0,-0.029258128255605698,0.28661659359931946,-0.0,-0.008935223333537579,1.2710130214691162,-0.026703961193561554,-0.17691384255886078
245.0,264.0,5.9396,0.0479,7.9561,0.0286,-0.0472,-0.1049,-1.5702590507319947,0.00013385807687882334,2.1832423210144043,-1.57852303981781,0.00011119185364805162,2.167414665222168,4.226729078883789,2.298249836215204e-36,0.2799379229545593,-1.292936150227682,-0.0,-0.024705886840820312,0.28662025928497314,-0.0,-0.018048791214823723,1.2707923650741577,-0.03094395250082016,-0.16568942368030548
245.0,264.0,5.9396,0.0479,7.9561,0.0286,-0.0472,-0.1049,-1.5702672693626774,0.00010594743798719719,2.140909194946289,-1.5784626007080078,9.896429401123896e-05,2.163872241973877,4.2267090517231445,6.397263801274228e-40,0.29909610748291016,-1.2929557005511683,-0.0,-0.034173861145973206,0.2866407632827759,-0.0,-0.007612274028360844,1.270612359046936,-0.03272324800491333,-0.1712302565574646
245.0,264.0,5.9396,0.0479,7.9561,0.0286,-0.0472,-0.1049,-1.5702590507319947,9.47883163462393e-05,2.116942882537842,-1.5784950256347656,8.916000660974532e-05,2.1532740592956543,4.226716681117676,1.7796490496925177e-43,0.28901776671409607,-1.2929518858539026,-0.0,-0.026244353502988815,0.2866448163986206,-0.0,5.39321918040514e-05,1.2704408168792725,-0.03381234034895897,-0.19659681618213654
245.0,264.0,5.9396,0.0479,7.9561,0.0286,-0.0472,-0.1049,-1.5702672693626774,8.575632091378793e-05,2.0876364707946777,-1.5784831047058105,8.112324576359242e-05,2.168001174926758,4.22674481451001,0.0,0.28135088086128235,-1.2929518858539026,-0.0,-0.02074471116065979,0.2866407632827759,-0.0,-0.008269472047686577,1.270212173461914,-0.03465695679187775,-0.20202258229255676
245.0,264.0,5.9396,0.0479,7.9561,0.0286,-0.0472,-0.1049,-1.5702391785201435,7.829580863472074e-05,2.094730854034424,-1.5784506797790527,7.441556226694956e-05,2.1399741172790527,4.226688547725342,0.0,0.2941257953643799,-1.2929676214801233,-0.0,-0.028265757486224174,0.28661251068115234,-0.0,-0.009940135292708874,1.270105242729187,-0.033600546419620514,-0.1970078945159912
245.0,264.0,5.9396,0.0479,7.9561,0.0286,-0.0472,-0.1049,-1.570235089664795,-4.8600719310343266e-05,2.1126251220703125,-1.5784910917282104,7.052782166283578e-05,2.142333507537842,4.226764364833496,0.0,0.2947116792201996,-1.2929795424090784,-0.0,-0.039836108684539795,0.286636620759964,-0.0,-0.007441279012709856,1.2699453830718994,-0.03173515945672989,-0.2398047149181366
245.0,264.0,5.9396,0.0479,7.9561,0.0286,-0.0472,-0.1049,-1.5702227412587781,-9.767589654074982e-05,2.125868320465088,-1.5784791707992554,6.540261529153213e-05,2.1211953163146973,4.226740522975586,0.0,0.28534966707229614,-1.2929876486407679,-0.0,-0.028998494148254395,0.28656819462776184,-0.0,-0.016649015247821808,1.2697283029556274,-0.029229655861854553,-0.21702450513839722
245.0,264.0,5.9396,0.0479,7.9561,0.0286,-0.0472,-0.1049,-1.570315351597248,-0.001069040852598846,2.1249637603759766,-1.5784751176834106,6.097185905673541e-05,2.09443998336792,4.226756735438965,0.0,0.2838630676269531,-1.2930033842669886,-0.0,-0.021710842847824097,0.2866407632827759,-0.0,-0.0003982985799666494,1.2695560455322266,-0.026103705167770386,-0.21555157005786896
245.0,264.0,5.9396,0.0479,7.9561,0.0286,-0.0472,-0.1049,-1.5703071003993792,-0.0031781739089637995,2.1214840412139893,-1.5784626007080078,-2.2289392290986143e-05,2.096108913421631,4.226740522975586,0.0,0.28654128313064575,-1.2929757277118128,-0.0,-0.025314539670944214,0.2866845726966858,-0.0,-0.002613682532683015,1.269404649734497,-0.02391272969543934,-0.18724113702774048
245.0,264.0,5.9396,0.0479,7.9561,0.0286,-0.0472,-0.1049,-1.5703470629562908,-0.004511700943112373,2.1095197200775146,-1.578502893447876,-2.0858808056800626e-05,2.133316993713379,4.2267042833515625,0.0,0.2955383360385895,-1.2929876486407679,-0.0,-0.030299898236989975,0.28662019968032837,-0.0,-0.006026926450431347,1.269261121749878,-0.023995526134967804,-0.19274179637432098
245.0,264.0,5.9396,0.0479,7.9561,0.0286,-0.0472,-0.1049,-1.570355014210083,-0.005452582146972418,2.078512191772461,-1.578554630279541,-1.950279693119228e-05,2.132840871810913,4.226729078883789,0.0,0.3106945753097534,-1.2930391470538538,-0.0,-0.040412530303001404,0.28666818141937256,-0.0,0.004318977240473032,1.2691328525543213,-0.021765490993857384,-0.2508583664894104
249.0,253.0,4.9753,0.7484,7.9137,-0.0142,-0.0197,-0.1491,-1.5703868692547367,-0.004866675473749638,2.1238043308258057,-1.5784707069396973,-1.831234294513706e-05,2.1406476497650146,4.226756735438965,0.0,0.30184614658355713,-1.2930391470538538,-0.0,-0.03764888644218445,0.28669273853302,-0.0,0.015007839538156986,1.2689768075942993,-0.02240792103111744,-0.1907559186220169
249.0,253.0,4.9753,0.7484,7.9137,-0.0142,-0.0197,-0.1491,-1.5704272511978452,-0.0035319633316248655,2.1451382637023926,-1.5785431861877441,-5.90204399486538e-06,2.13969349861145,4.22674481451001,0.0,0.31464943289756775,-1.2929957548724573,-0.0,-0.05261395126581192,0.2866485118865967,-0.0,0.01986880972981453,1.2688320875167847,-0.02311650663614273,-0.15184974670410156
249.0,253.0,4.9753,0.7484,7.9137,-0.0142,-0.0197,-0.1491,-1.5704311463963059,-0.001960055436939001,2.1292152404785156,-1.5784790515899658,-1.4252742215614678e-11,2.176215648651123,4.226764841670654,0.0,0.3161197006702423,-1.2929957548724573,-0.0,-0.041563939303159714,0.2866964340209961,-0.0,0.010736184194684029,1.268716812133789,-0.022818662226200104,-0.14157715439796448
249.0,253.0,4.9753,0.7484,7.9137,-0.0142,-0.0197,-0.1491,-1.570455127807083,-0.0011613537790253758,2.1650664806365967,-1.5785069465637207,-3.441869412075586e-17,2.16593861579895,4.226732416743896,0.0,0.3105023503303528,-1.2929557005511683,-0.0,-0.05063220113515854,0.2866804301738739,-0.0,0.023229332640767097,1.2685809135437012,-0.02439425326883793,-0.17327409982681274
249.0,253.0,4.9753,0.7484,7.9137,-0.0142,-0.0197,-0.1491,-1.5704307188901403,-0.0007610854227095842,2.1980206966400146,-1.5784910917282104,-8.311709234471252e-23,2.1845483779907227,4.226708574885986,1.336389595962828e-05,0.31899493932724,-1.2929795424090784,-0.0,-0.06745641678571701,0.2866564095020294,0.0003028132487088442,0.02677803859114647,1.2684330940246582,-0.02626219391822815,-0.14196763932704926
249.0,253.0,4.9753,0.7484,7.9137,-0.0142,-0.0197,-0.1491,-1.5704591963188541,-0.0007118855719454587,2.1390902996063232,-1.5785154104232788,-2.0071798731748293e-28,2.2051820755004883,4.2267042833515625,1.2822048120142426e-05,0.3184272348880768,-1.292959992085592,-0.0,-0.053000159561634064,0.28664809465408325,0.0002960956480819732,0.018338311463594437,1.2682361602783203,-0.028371071442961693,-0.15073873102664948
249.0,253.0,4.9753,0.7484,7.9137,-0.0142,-0.0197,-0.1491,-1.5704831814840254,-0.000756103137973696,2.200467586517334,-1.5784631967544556,-4.8471032011577e-34,2.1246042251586914,4.226736231441162,1.229649660672294e-05,0.318971186876297,-1.292999569569723,-0.0,-0.06085808947682381,0.286684513092041,0.00025925764930434525,0.03863567113876343,1.2680727243423462,-0.03129422292113304,-0.11194860935211182
249.0,253.0,4.9753,0.7484,7.9137,-0.0142,-0.0197,-0.1491,-1.5705030499414825,-0.0021822694689035416,2.198836326599121,-1.5785154104232788,-1.170518620235163e-39,2.1570212841033936,4.226688547725342,1.1812338016170543e-05,0.32363587617874146,-1.2930153051959437,-0.0,-0.046242088079452515,0.286756694316864,0.00026180571876466274,0.02851102501153946,1.2679007053375244,-0.03464715927839279,-0.1344340741634369
249.0,253.0,4.9753,0.7484,7.9137,-0.0142,-0.0197,-0.1491,-1.5704790685307053,-0.0024579076562076807,2.1088531017303467,-1.5785466432571411,-2.1019476964872256e-43,2.1801443099975586,4.226664229030273,1.151021115219919e-05,0.320644736289978,-1.293011490498678,-0.0,-0.07219269126653671,0.28670835494995117,0.00024389411555603147,0.026745926588773727,1.2677689790725708,-0.036435600370168686,-0.11152052879333496
249.0,253.0,4.9753,0.7484,7.9137,-0.0142,-0.0197,-0.1491,-1.57051919948238,-0.0023618657141923904,2.1519055366516113,-1.5784790515899658,-0.0,2.2083740234375,4.226700468654297,1.1084915058745537e-05,0.32238319516181946,-1.293011490498678,-0.0,-0.051672130823135376,0.2866804301738739,0.0002185210323659703,0.029200663790106773,1.2675076723098755,-0.03948148339986801,-0.15552663803100586
249.0,253.0,4.9753,0.7484,7.9137,-0.0142,-0.0197,-0.1491,-1.5705150533215892,-0.002181983320042491,2.174240827560425,-1.5784751176834106,-0.0,2.184046983718872,4.226700468654297,1.0689921509765554e-05,0.3228074014186859,-1.2930195967303675,-0.0,-0.0639621913433075,0.2866964340209961,0.0002260689507238567,0.028331631794571877,1.2673699855804443,-0.0421244241297245,-0.16210901737213135
249.0,253.0,4.9753,0.7484,7.9137,-0.0142,-0.0197,-0.1491,-1.5705068510763631,-0.0017071135807782412,2.1501576900482178,-1.5785354375839233,-0.0,2.1912522315979004,4.226736231441162,1.0322118214389775e-05,0.32046544551849365,-1.2929838339435022,-0.0,-0.051021330058574677,0.28672435879707336,0.0002070953050861135,0.0365741029381752,1.2670649290084839,-0.04378149285912514,-0.16159296035766602
249.0,253.0,4.9753,0.7484,7.9137,-0.0142,-0.0197,-0.1491,-1.5705352092957874,-0.0009438235429115593,2.117633104324341,-1.5784872770309448,-0.0,2.194972515106201,4.226684733028076,9.978777598007582e-06,0.32970237731933594,-1.2930434385882776,-0.0,-0.0644388347864151,0.2866886854171753,0.00017941390979103744,0.04344264417886734,1.2667765617370605,-0.04544641077518463,-0.18036672472953796
249.0,253.0,4.9753,0.7484,7.9137,-0.0142,-0.0197,-0.1491,-1.570547249434032,-0.0006947623332962394,2.1429076194763184,-1.5784831047058105,-0.0,2.202627658843994,4.226740522975586,5.479549702869235e-09,0.3230370879173279,-1.2930272261248987,-0.0,-0.06482619047164917,0.2866923213005066,0.00019228184828534722,0.0466061569750309,1.2664885520935059,-0.045959170907735825,-0.17678533494472504
249.0,253.0,4.9753,0.7484,7.9137,-0.0142,-0.0197,-0.1491,-1.5705109399608155,-0.0005011909524910152,2.1721975803375244,-1.5785586833953857,-0.0,2.188863754272461,4.226748152370117,1.5252527973269592e-12,0.3325878381729126,-1.2930434385882776,-0.0,-0.05852042883634567,0.28672027587890625,0.00020265071361791342,0.04153794050216675,1.2662161588668823,-0.046314358711242676,-0.1322515457868576
235.0,253.0,4.1647,0.3129,8.4592,-0.036,0.0651,-0.1495,-1.5705068510763631,-0.0003920055169146508,2.160111427307129,-1.5784353017807007,-0.0,2.153700351715088,4.226748629207275,4.2455972705059185e-16,0.328791081905365,-1.2930076758014124,-0.0,-0.05127791315317154,0.28673255443573,0.00035487874993123114,0.05400463193655014,1.2659002542495728,-0.04740898683667183,-0.15453863143920898
235.0,253.0,4.1647,0.3129,8.4592,-0.036,0.0651,-0.1495,-1.570486551416554,-0.00032189051853492856,2.1556897163391113,-1.5784871578216553,-0.0,2.208869695663452,4.22676055013623,1.1817776900119667e-19,0.32120102643966675,-1.2930272261248987,-0.0,-0.07937624305486679,0.28673261404037476,0.00039228153764270246,0.04427039623260498,1.265653133392334,-0.049018844962120056,-0.12790778279304504
235.0,253.0,4.1647,0.3129,8.4592,-0.036,0.0651,-0.1495,-1.5705187311144364,-0.00031792078516446054,2.1431162357330322,-1.5785387754440308,-0.0,2.166025161743164,4.226752443904541,3.289521575779031e-23,0.319369912147522,-1.2930510679828089,-0.0,-0.06675796955823898,0.286740779876709,0.00038965322892181575,0.06401429325342178,1.2652955055236816,-0.04702238366007805,-0.12132243812084198
235.0,253.0,4.1647,0.3129,8.4592,-0.036,0.0651,-0.1495,-1.5704947700472367,-0.0003159245243296027,2.1461048126220703,-1.578490972518921,-0.0,2.135509729385376,4.226723833675049,9.156502660638678e-27,0.3360903263092041,-1.2930076758014124,-0.0,-0.07635726034641266,0.2867521345615387,0.00045881132245995104,0.05310528352856636,1.2650564908981323,-0.04508975148200989,-0.15249106287956238
235.0,253.0,4.1647,0.3129,8.4592,-0.036,0.0651,-0.1495,-1.5705632592474394,-0.00023703454644419253,2.120734930038452,-1.578502893447876,-0.0,2.160754680633545,4.226764364833496,2.5487463480630714e-30,0.33206111192703247,-1.2930472532855433,-0.00012680589861702174,-0.0747956708073616,0.2867000997066498,0.0004190014733467251,0.06212537735700607,1.2647850513458252,-0.04346656799316406,-0.12644460797309875
235.0,253.0,4.1647,0.3129,8.4592,-0.036,0.0651,-0.1495,-1.5704988998225708,-0.0002458109811414033,2.158228635787964,-1.5784751176834106,-0.0,2.112212896347046,4.226723833675049,7.09452993213987e-34,0.31834471225738525,-1.293074909840719,-0.00012049998622387648,-0.06921830773353577,0.2866919934749603,0.00034626651904545724,0.06660684943199158,1.264468789100647,-0.040297731757164,-0.15193012356758118
235.0,253.0,4.1647,0.3129,8.4592,-0.036,0.0651,-0.1495,-1.5705109399608155,-0.00022803359024692327,2.1293232440948486,-1.5785069465637207,-0.0,2.1565356254577637,4.22676865636792,3.024509154270062e-36,0.3163135349750519,-1.2930510679828089,-0.00011437517969170585,-0.08141745626926422,0.28672435879707336,0.00035113925696350634,0.07051912695169449,1.264299750328064,-0.03830496594309807,-0.13032785058021545
235.0,253.0,4.1647,0.3129,8.4592,-0.036,0.0651,-0.1495,-1.5705150697361496,-0.00020569743355736136,2.1756744384765625,-1.578534722328186,-0.0,2.1366124153137207,4.226752443904541,8.418833017847782e-40,0.3153049051761627,-1.2930038611041468,-0.00010627161100273952,-0.07938997447490692,0.2867484390735626,0.0003058701695408672,0.07076840102672577,1.2641172409057617,-0.034947469830513,-0.12916742265224457
235.0,253.0,4.1647,0.3129,8.4592,-0.036,0.0651,-0.1495,-1.5705150697361496,-0.00018734562036115676,2.1480929851531982,-1.578502893447876,-0.0,2.107041120529175,4.226724310512207,2.3401684354224445e-43,0.3246261775493622,-1.2930033842669886,-9.92402492556721e-05,-0.05899208039045334,0.28670433163642883,0.0003050904779229313,0.07414817810058594,1.2639209032058716,-0.032136328518390656,-0.12379604578018188
235.0,253.0,4.1647,0.3129,8.4592,-0.036,0.0651,-0.1495,-1.5704865924238511,-0.00017200145521201193,2.1118998527526855,-1.578502893447876,-0.0,2.1191091537475586,4.226748152370117,0.0,0.302783727645874,-1.2930353323565882,-9.30819078348577e-05,-0.07308696210384369,0.2867603600025177,0.0002520777052268386,0.07409074157476425,1.26374089717865,-0.03003220073878765,-0.18623623251914978
235.0,253.0,4.1647,0.3129,8.4592,-0.036,0.0651,-0.1495,-1.5705150576871638,-0.00018167874077335,2.0967228412628174,-1.5785233974456787,-0.0,2.050647735595703,4.226789160365723,0.0,0.31042325496673584,-1.2930076758014124,-8.764307858655229e-05,-0.07860641181468964,0.2867361307144165,0.00024727251729927957,0.05901560187339783,1.2634966373443604,-0.028372395783662796,-0.23107603192329407
235.0,253.0,4.1647,0.3129,8.4592,-0.036,0.0651,-0.1495,-1.5705390308033493,-0.00023995741503313184,2.0784995555877686,-1.5784989595413208,-0.0,2.1025078296661377,4.22674481451001,0.0,0.29685819149017334,-1.293011490498678,-8.280475594801828e-05,-0.06805182993412018,0.2868049740791321,0.00022607001301366836,0.0821254625916481,1.2634207010269165,-0.027411144226789474,-0.16075816750526428
235.0,253.0,4.1647,0.3129,8.4592,-0.036,0.0651,-0.1495,-1.570558845578791,-0.0015275401528924704,2.1107659339904785,-1.578554630279541,-0.0,2.0663113594055176,4.226732416743896,0.0,0.30589261651039124,-1.2930153051959437,-7.8472716268152e-05,-0.06645198166370392,0.28677260875701904,0.00023416319163516164,0.06164119765162468,1.263244867324829,-0.02784476801753044,-0.24173009395599365
235.0,253.0,4.1647,0.3129,8.4592,-0.036,0.0651,-0.1495,-1.57057078302417,-0.002914111828431487,2.0880393981933594,-1.5785233974456787,-0.0,2.088606119155884,4.2267724710651855,2.4339691663044505e-05,0.3051338493824005,-1.2930315176593226,-7.457154424628243e-05,-0.07190664112567902,0.28671205043792725,0.00023308023810386658,0.078311488032341,1.2630974054336548,-0.028947381302714348,-0.17870956659317017
235.0,253.0,4.1647,0.3129,8.4592,-0.036,0.0651,-0.1495,-1.5705988614102644,-0.005301251076161861,2.0491771697998047,-1.5784950256347656,-0.0,2.077012062072754,4.226748629207275,2.386210508120712e-05,0.30054575204849243,-1.2930510679828089,-7.103977259248495e-05,-0.060896653681993484,0.28677260875701904,0.0002189260849263519,0.07713878899812698,1.2628971338272095,-0.03164628893136978,-0.21630322933197021
235.0,253.0,4.1647,0.3129,8.4592,-0.036,0.0651,-0.1495,-1.5706227940430217,-0.0068621281534433365,2.0472795963287354,-1.5785154104232788,-0.0,2.088531494140625,4.226736231441162,2.2949536287342198e-05,0.30393797159194946,-1.293011490498678,-6.782747368561104e-05,-0.06360676139593124,0.2867443561553955,0.00020062539260834455,0.09193401038646698,1.2626887559890747,-0.03353668749332428,-0.2411457896232605
237.0,251.0,4.6062,0.5874,8.0794,-0.0606,0.0229,-0.1617,-1.5706746860708627,-0.008570773527026176,2.0499939918518066,-1.578534722328186,-0.0,2.1210293769836426,4.22676055013623,2.210408820246812e-05,0.30574020743370056,-1.2930472532855433,-6.489312363555655e-05,-0.06352436542510986,0.2867361009120941,0.00020397096523083746,0.07327409088611603,1.2624770402908325,-0.03801017627120018,-0.22571909427642822
237.0,251.0,4.6062,0.5874,8.0794,-0.0606,0.0229,-0.1617,-1.5707390769169542,-0.009031988680362701,2.050992250442505,-1.5785468816757202,-5.664206764777191e-05,2.0613770484924316,4.226756735438965,2.131871588062495e-05,0.29804250597953796,-1.2930353323565882,-6.220214709173888e-05,-0.04536911100149155,0.2867526113986969,0.00021422977442853153,0.0864490419626236,1.2622241973876953,-0.040953949093818665,-0.21881839632987976
237.0,251.0,4.6062,0.5874,8.0794,-0.0606,0.0229,-0.1617,-1.5707544995787721,-0.010069339536130428,2.0372982025146484,-1.578554630279541,-5.213007170823403e-05,2.075700521469116,4.226776762599609,2.058723293885123e-05,0.29650864005088806,-1.2930272261248987,-5.9725458413595334e-05,-0.05100417882204056,0.2867721915245056,0.0001924359967233613,0.09130606055259705,1.2619560956954956,-0.04451848566532135,-0.24199992418289185
237.0,251.0,4.6062,0.5874,8.0794,-0.0606,0.0229,-0.1617,-1.570850511590475,-0.011135958135128021,2.0312304496765137,-1.5785274505615234,-7.193097553681582e-05,2.0127785205841064,4.226748152370117,1.990428972931113e-05,0.29016783833503723,-1.2930033842669886,-4.5954115194035694e-05,-0.04992222040891647,0.2867480218410492,0.00020086723088752478,0.09343522042036057,1.2617331743240356,-0.0470745675265789,-0.25142019987106323
237.0,251.0,4.6062,0.5874,8.0794,-0.0606,0.0229,-0.1617,-1.5708586178221644,-0.012351837940514088,2.0178558826446533,-1.5785307884216309,-6.83042235323228e-05,1.9935944080352783,4.2267724710651855,8.485511671096901e-08,0.30195772647857666,-1.292999569569723,-4.4806925870943815e-05,-0.05702024698257446,0.2867361009120941,0.0001905437675304711,0.09081672132015228,1.2615247964859009,-0.05045390874147415,-0.24728789925575256
237.0,251.0,4.6062,0.5874,8.0794,-0.0606,0.0229,-0.1617,-1.5709945164122523,-0.01384787354618311,2.008579730987549,-1.5785233974456787,-6.348604802042246e-05,2.048880100250244,4.2267443376728515,2.3619732905655333e-11,0.2880236804485321,-1.2929957548724573,-4.3194115278311074e-05,-0.04808764159679413,0.286756306886673,0.00019318722479511052,0.1058625727891922,1.261232614517212,-0.05093693360686302,-0.32199007272720337
237.0,251.0,4.6062,0.5874,8.0794,-0.0606,0.0229,-0.1617,-1.5710627041258753,-0.01601225696504116,1.9812891483306885,-1.5785109996795654,-5.930282350163907e-05,1.9820295572280884,4.226776762599609,6.574640090434725e-15,0.29132384061813354,-1.2930033842669886,-4.169336534687318e-05,-0.04735160246491432,0.28677627444267273,0.00018431888020131737,0.09038016945123672,1.2609131336212158,-0.05383782461285591,-0.2907882332801819
237.0,251.0,4.6062,0.5874,8.0794,-0.0606,0.0229,-0.1617,-1.5712110004820765,-0.017137104645371437,1.9925644397735596,-1.5784831047058105,-5.563679587794468e-05,2.002318859100342,4.226715727443359,1.8300754803179385e-18,0.288219690322876,-1.293027702962057,-4.0293412894243374e-05,-0.06808216124773026,0.2868082523345947,0.00019806556520052254,0.11101129651069641,1.260556697845459,-0.05769997835159302,-0.2644084393978119
237.0,251.0,4.6062,0.5874,8.0794,-0.0606,0.0229,-0.1617,-1.571249624291891,-0.017644785344600677,2.005244016647339,-1.5784831047058105,-5.239771053311415e-05,2.031783103942871,4.226748152370117,5.094082043456912e-22,0.29903554916381836,-1.2930510679828089,-1.572176734043751e-05,-0.04336455836892128,0.28683653473854065,0.0002099290577461943,0.10359018296003342,1.2601851224899292,-0.06234101206064224,-0.28536903858184814
237.0,251.0,4.6062,0.5874,8.0794,-0.0606,0.0229,-0.1617,-1.5713454685606898,-0.01758876070380211,2.024075984954834,-1.578534722328186,-4.9514990678289905e-05,1.9943571090698242,4.226793451900146,1.4179566462764902e-25,0.2977467179298401,-1.2930434385882776,-1.451845673727803e-05,-0.056039661169052124,0.2868041694164276,0.0002465361321810633,0.1022556945681572,1.259802222251892,-0.06467009335756302,-0.3030170798301697
237.0,251.0,4.6062,0.5874,8.0794,-0.0606,0.0229,-0.1617,-1.5714942417540492,-0.017760198563337326,2.00049090385437,-1.5784990787506104,-4.6932895202189684e-05,2.0872879028320312,4.226813002223633,3.9469352260384705e-29,0.306360125541687,-1.2930434385882776,-1.384815823257668e-05,-0.06089160591363907,0.28684869408607483,0.00045899595716036856,0.130967378616333,1.259363055229187,-0.06461916118860245,-0.2697467803955078
237.0,251.0,4.6062,0.5874,8.0794,-0.0606,0.0229,-0.1617,-1.5715819797911585,-0.017935315147042274,2.0377044677734375,-1.578502893447876,-4.46068006567657e-05,2.0580716133117676,4.226764364833496,1.0986440566485788e-32,0.29243794083595276,-1.2930353323565882,-2.4745369955780916e-05,-0.07613451778888702,0.2868446111679077,0.0008405519183725119,0.11037112772464752,1.259010672569275,-0.061959825456142426,-0.3022921681404114
237.0,251.0,4.6062,0.5874,8.0794,-0.0606,0.0229,-0.1617,-1.571669717828268,-0.018802644684910774,1.9894828796386719,-1.578502893447876,-4.250036727171391e-05,2.062135696411133,4.226825399989746,3.0581159236101906e-36,0.31619706749916077,-1.2930434385882776,-2.5354962417623028e-05,-0.06380998343229294,0.2867354452610016,0.0013945566024631262,0.12228772044181824,1.2586804628372192,-0.05857954919338226,-0.21936462819576263
237.0,251.0,4.6062,0.5874,8.0794,-0.0606,0.0229,-0.1617,-1.5717860660948695,-0.019393544644117355,2.0420336723327637,-1.5784910917282104,-4.0583920053904876e-05,2.0983188152313232,4.226816816920898,8.512383703326107e-40,0.32132625579833984,-1.2930672804461878,-3.648757410701364e-05,-0.06433753669261932,0.28691673278808594,0.0033881976269185543,0.11514066159725189,1.2583329677581787,-0.052996788173913956,-0.229771226644516
237.0,251.0,4.6062,0.5874,8.0794,-0.0606,0.0229,-0.1617,-1.5718852482237757,-0.019105635583400726,2.0616343021392822,-1.5784506797790527,-3.883287718053907e-05,2.0890731811523438,4.226740046138428,2.368194404708941e-43,0.32116585969924927,-1.293051544819967,-4.67329919047188e-05,-0.07803216576576233,0.2869326174259186,0.014621320180594921,0.13222432136535645,1.2579728364944458,-0.05036715790629387,-0.2073214054107666
256.0,251.0,4.2126,0.2399,8.2229,-0.0476,0.0232,-0.1594,-1.572033544579977,-0.02003653533756733,2.047780990600586,-1.5784465074539185,-3.7226654967525974e-05,2.0626187324523926,4.226756258601807,3.3221607736777514e-05,0.325411856174469,-1.2930672804461878,-4.5005279389442876e-05,-0.07113775610923767,0.2870444059371948,0.022286076098680496,0.12354405224323273,1.2576860189437866,-0.049958232790231705,-0.18301722407341003
256.0,251.0,4.2126,0.2399,8.2229,-0.0476,0.0232,-0.1594,-1.5721413097777308,-0.021702351048588753,2.036005973815918,-1.5784990787506104,-3.574804577510804e-05,2.016860008239746,4.226736231441162,3.155588638037443e-05,0.329668253660202,-1.2930510679828089,-0.00017866614507511258,-0.09126287698745728,0.2871444523334503,0.022374743595719337,0.15280193090438843,1.2573832273483276,-0.051254745572805405,-0.262128621339798
256.0,251.0,4.2126,0.2399,8.2229,-0.0476,0.0232,-0.1594,-1.5722414455809535,-0.02192627638578415,2.0941550731658936,-1.5785154104232788,-3.438240310060792e-05,2.0838489532470703,4.226720018977783,4.496014298638329e-05,0.3379588723182678,-1.293091122304098,-0.00018342351540923119,-0.08906649053096771,0.2872120141983032,0.018950749188661575,0.13770590722560883,1.2570874691009521,-0.050276339054107666,-0.1717081069946289
256.0,251.0,4.2126,0.2399,8.2229,-0.0476,0.0232,-0.1594,-1.572369237939352,-0.021967347711324692,2.0481386184692383,-1.5784950256347656,-3.352849671500735e-05,2.051168918609619,4.226844950313232,5.4288553656078875e-05,0.33323225378990173,-1.2930553595172327,-0.00017898714577313513,-0.09051835536956787,0.28731605410575867,0.01630728505551815,0.13605178892612457,1.2568589448928833,-0.050774574279785156,-0.23004725575447083
256.0,251.0,4.2126,0.2399,8.2229,-0.0476,0.0232,-0.1594,-1.5724693737425746,-0.02196137234568596,2.0540528297424316,-1.5784626007080078,-3.232431481592357e-05,2.0693366527557373,4.226813002223633,6.562220369232818e-05,0.33851245045661926,-1.2930591742144983,-0.00018984107009600848,-0.08790625631809235,0.28740429878234863,0.009697244502604008,0.14998400211334229,1.2566207647323608,-0.05019185692071915,-0.19842343032360077
256.0,251.0,4.2126,0.2399,8.2229,-0.0476,0.0232,-0.1594,-1.5726052723326625,-0.021381203085184097,2.0709002017974854,-1.5785267353057861,-3.120362453046255e-05,2.057129383087158,4.2268287378498535,0.0003094023559242487,0.32826709747314453,-1.293074909840719,-0.00019971199799329042,-0.09248863160610199,0.287460058927536,0.0038236917462199926,0.14707517623901367,1.256309151649475,-0.04772847890853882,-0.1977280080318451
256.0,251.0,4.2126,0.2399,8.2229,-0.0476,0.0232,-0.1594,-1.5727693043150843,-0.020280146971344948,2.087268829345703,-1.5785387754440308,-3.0158062145346776e-05,2.087928533554077,4.226804895991943,0.00038263938040472567,0.3513198494911194,-1.2931225935565394,-0.00032957812072709203,-0.09960833191871643,0.28742775321006775,0.0016890988918021321,0.1383964568376541,1.2559846639633179,-0.04465973749756813,-0.17525026202201843
256.0,251.0,4.2126,0.2399,8.2229,-0.0476,0.0232,-0.1594,-1.5728851757445277,-0.018874550238251686,2.0867421627044678,-1.5785069465637207,1.4521875527861994e-05,2.046142339706421,4.226764364833496,0.0009686623816378415,0.34413692355155945,-1.2930553595172327,-0.00032622338039800525,-0.09397439658641815,0.2875124514102936,0.0007352963439188898,0.14789114892482758,1.2557859420776367,-0.04178636521100998,-0.18881350755691528
256.0,251.0,4.2126,0.2399,8.2229,-0.0476,0.0232,-0.1594,-1.5729886494078578,-0.017210932448506355,2.0325827598571777,-1.5785108804702759,7.528565326708758e-09,2.0710060596466064,4.2268077570148925,0.0012005598982796073,0.34070825576782227,-1.2930591742144983,-0.00028267307789064944,-0.10783658176660538,0.2874678075313568,0.0007647642050869763,0.14332720637321472,1.2555267810821533,-0.04126746580004692,-0.1677522361278534
256.0,251.0,4.2126,0.2399,8.2229,-0.0476,0.0232,-0.1594,-1.573080678979391,-0.016139406710863113,2.0860588550567627,-1.578490972518921,1.8180599983385476e-14,2.087999105453491,4.2268006044575195,0.0011131116189062595,0.3442740738391876,-1.293091122304098,-0.0002846793213393539,-0.1122671514749527,0.28751614689826965,0.0023760730400681496,0.15705208480358124,1.2552669048309326,-0.0415390282869339,-0.16100695729255676
256.0,251.0,4.2126,0.2399,8.2229,-0.0476,0.0232,-0.1594,-1.5731803379454554,-0.016353916376829147,2.0650579929351807,-1.578534722328186,4.390400687853563e-20,2.0625946521759033,4.226820154781006,0.001340655144304037,0.3435749411582947,-1.2930868307696741,-0.00027606156072579324,-0.1034780964255333,0.2875686585903168,0.00444329809397459,0.15312683582305908,1.2550640106201172,-0.042404260486364365,-0.1582442820072174
256.0,251.0,4.2126,0.2399,8.2229,-0.0476,0.0232,-0.1594,-1.5733167133727015,-0.016670746728777885,2.0913310050964355,-1.5785154104232788,1.0602301659526878e-25,2.0126428604125977,4.226852579707764,0.0021156547591090202,0.3492722809314728,-1.2931106726275843,-0.00025030545657500625,-0.10629302263259888,0.28752797842025757,0.0055333334021270275,0.15956926345825195,1.2547764778137207,-0.04331201687455177,-0.15405791997909546
256.0,251.0,4.2126,0.2399,8.2229,-0.0476,0.0232,-0.1594,-1.5733925304808558,-0.017361072823405266,2.0892579555511475,-1.5784910917282104,2.560330844890425e-31,2.0681309700012207,4.226880236262939,0.002971300622448325,0.34864580631256104,-1.293103043233053,-0.0002570109791122377,-0.10659592598676682,0.2875959873199463,0.006741467863321304,0.17358186841011047,1.2545448541641235,-0.043626222759485245,-0.16382840275764465
256.0,251.0,4.2126,0.2399,8.2229,-0.0476,0.0232,-0.1594,-1.5735160313048304,-0.017758680507540703,2.0531699657440186,-1.5785911083221436,6.1828978705646575e-37,2.0146067142486572,4.2268921571918945,0.0057898652739822865,0.36042100191116333,-1.2930987516986292,-0.00025293102953583,-0.10366673022508621,0.2877044081687927,0.006899569183588028,0.16888776421546936,1.2542567253112793,-0.04224606230854988,-0.18318958580493927
256.0,251.0,4.2126,0.2399,8.2229,-0.0476,0.0232,-0.1594,-1.5735842190184535,-0.017595194280147552,2.0509862899780273,-1.5784990787506104,1.493784162970255e-42,2.059370994567871,4.2268921571918945,0.008837196044623852,0.36390066146850586,-1.2930672804461878,-0.00023350479023065418,-0.09756863117218018,0.2876879870891571,0.0063942186534404755,0.17481058835983276,1.254037618637085,-0.041993528604507446,-0.20546995103359222
255.0,254.0,4.462,0.2231,8.2875,-0.0405,0.0124,-0.1483,-1.5737606487669886,-0.01835162192583084,2.0203216075897217,-1.5785154104232788,-0.0,2.063077926635742,4.226984186763428,0.005499301012605429,0.3644602298736572,-1.2931068579303187,-0.00023988887551240623,-0.10889732837677002,0.2876957356929779,0.005404606461524963,0.17425864934921265,1.2537741661071777,-0.04040292277932167,-0.12273088097572327
255.0,254.0,4.462,0.2231,8.2875,-0.0405,0.0124,-0.1483,-1.573848386804098,-0.018610743805766106,1.9841415882110596,-1.5784586668014526,-0.0,2.0975351333618164,4.22700469076123,0.0016789173241704702,0.3669259548187256,-1.2930510679828089,-0.00021831001504324377,-0.11625058948993683,0.2877039313316345,0.004140874836593866,0.1735193431377411,1.2535098791122437,-0.03889595717191696,-0.1466110646724701
255.0,254.0,4.462,0.2231,8.2875,-0.0405,0.0124,-0.1483,-1.5739079914488734,-0.018298637121915817,2.0094709396362305,-1.5785274505615234,-0.0,2.038067102432251,4.226931734676025,0.0010760322911664844,0.3480653166770935,-1.2930792013751429,-0.00020582730940077454,-0.118487149477005,0.28773999214172363,0.0035082066897302866,0.1851886659860611,1.253382921218872,-0.036894213408231735,-0.16168206930160522
255.0,254.0,4.462,0.2231,8.2875,-0.0405,0.0124,-0.1483,-1.573968072930807,-0.018881170079112053,1.9824390411376953,-1.578534722328186,-0.0,2.0574159622192383,4.226936026210449,0.0007106241537258029,0.34311071038246155,-1.2930591742144983,-0.00018956836720462888,-0.10509075224399567,0.28775960206985474,0.0029098219238221645,0.1764335334300995,1.2531514167785645,-0.03603240102529526,-0.1286199390888214
255.0,254.0,4.462,0.2231,8.2875,-0.0405,0.0124,-0.1483,-1.5741120777525843,-0.020565643906593323,1.9536335468292236,-1.5784950256347656,-0.0,2.0554468631744385,4.226963682765625,0.0005307638784870505,0.3551071286201477,-1.293062988911764,-0.00017569032206665725,-0.11237578094005585,0.28775179386138916,0.002487004967406392,0.1731683313846588,1.2529391050338745,-0.03439000993967056,-0.10786260664463043
255.0,254.0,4.462,0.2231,8.2875,-0.0405,0.0124,-0.1483,-1.5743161640562953,-0.022034233435988426,1.9367833137512207,-1.578494906425476,-0.0,2.06459903717041,4.226883574123047,0.00042361338273622096,0.33465301990509033,-1.293114964162008,-0.0001639446709305048,-0.1129540354013443,0.2878039479255676,0.002163744531571865,0.16814514994621277,1.2527594566345215,-0.03341766446828842,-0.12009398639202118
255.0,254.0,4.462,0.2231,8.2875,-0.0405,0.0124,-0.1483,-1.574383398095602,-0.02419760823249817,1.879854679107666,-1.578503131866455,-0.0,2.028247117996216,4.22692791997876,0.00035247564665041864,0.3408198952674866,-1.2930949370013636,-0.00014020284288562834,-0.11913202702999115,0.28779157996177673,0.002478696871548891,0.17475786805152893,1.252571940422058,-0.031776729971170425,-0.13453015685081482
255.0,254.0,4.462,0.2231,8.2875,-0.0405,0.0124,-0.1483,-1.5745593510069789,-0.026349976658821106,1.9413976669311523,-1.5785307884216309,-0.0,2.0047736167907715,4.2269322115131835,0.0003018019488081336,0.35110563039779663,-1.2931306997882288,-0.00012821538257412612,-0.11115513741970062,0.28782355785369873,0.0029303620103746653,0.17312240600585938,1.2524044513702393,-0.030141882598400116,-0.11541996151208878
255.0,254.0,4.462,0.2231,8.2875,-0.0405,0.0124,-0.1483,-1.574674745599264,-0.027636295184493065,1.8968725204467773,-1.5785233974456787,-0.0,2.039215564727783,4.226915522212646,0.000263870315393433,0.34362277388572693,-1.2931187788592737,-0.000141331649501808,-0.13071691989898682,0.28782758116722107,0.0036039925180375576,0.17199169099330902,1.2522212266921997,-0.02870616316795349,-0.08751470595598221
255.0,254.0,4.462,0.2231,8.2875,-0.0405,0.0124,-0.1483,-1.5748630962767542,-0.029009705409407616,1.881753921508789,-1.5784950256347656,-0.0,2.0835342407226562,4.226967974300049,0.00023441103985533118,0.3468608856201172,-1.2931068579303187,-0.0001525479747215286,-0.12649227678775787,0.2878311276435852,0.0049399761483073235,0.16419784724712372,1.2520289421081543,-0.027017440646886826,-0.13857443630695343
255.0,254.0,4.462,0.2231,8.2875,-0.0405,0.0124,-0.1483,-1.575071474114889,-0.031762927770614624,1.8974528312683105,-1.5785155296325684,-0.0,2.0871422290802,4.226944132442139,0.00021086954802740365,0.3504261076450348,-1.293114964162008,-0.00015289749717339873,-0.11673887073993683,0.2879360020160675,0.007514726836234331,0.16614601016044617,1.2518970966339111,-0.02450834959745407,-0.09387087821960449
255.0,254.0,4.462,0.2231,8.2875,-0.0405,0.0124,-0.1483,-1.5753151379027308,-0.0347326286137104,1.8510432243347168,-1.5785149335861206,-0.0,2.051021099090576,4.226915522212646,0.0001916256151162088,0.34335026144981384,-1.2930634657489222,-0.00015287040150724351,-0.11478683352470398,0.2879478335380554,0.009847323410212994,0.17432230710983276,1.2517863512039185,-0.022328464314341545,-0.03240940719842911
255.0,254.0,4.462,0.2231,8.2875,-0.0405,0.0124,-0.1483,-1.5755144558348597,-0.0393182598054409,1.8578219413757324,-1.5785307884216309,-0.0,2.017040967941284,4.226923628444336,5.131918442202732e-05,0.34903812408447266,-1.2931068579303187,-0.0002055917284451425,-0.12733812630176544,0.288075715303421,0.014259621500968933,0.17428572475910187,1.2516344785690308,-0.018626192584633827,-0.059892501682043076
255.0,254.0,4.462,0.2231,8.2875,-0.0405,0.0124,-0.1483,-1.5757700405516566,-0.043551940470933914,1.8120648860931396,-1.5785307884216309,-0.0,2.0343549251556396,4.2268921571918945,4.715168324764818e-05,0.33728986978530884,-1.293091122304098,-0.00018852319044526666,-0.12964917719364166,0.28817617893218994,0.021124858409166336,0.18303467333316803,1.2514983415603638,-0.015472015365958214,-0.016816293820738792
255.0,254.0,4.462,0.2231,8.2875,-0.0405,0.0124,-0.1483,-1.576022287408346,-0.04905916005373001,1.7831926345825195,-1.5785274505615234,-0.0,1.9610041379928589,4.226907415980957,2.3320684704231098e-05,0.33001893758773804,-1.2931068579303187,-0.00016747345216572285,-0.11988729238510132,0.2883121073246002,0.031853433698415756,0.19466307759284973,1.25141441822052,-0.012116787023842335,-0.026292897760868073
255.0,254.0,4.462,0.2231,8.2875,-0.0405,0.0124,-0.1483,-1.576182027856344,-0.05403834208846092,1.7601525783538818,-1.5785387754440308,-0.0,2.046377420425415,4.226939840907715,2.085169944621157e-05,0.3403662145137787,-1.2930830160724085,-0.00015586991503369063,-0.10956849157810211,0.2885323762893677,0.042752012610435486,0.1849130541086197,1.2513787746429443,-0.01060841977596283,0.03258094936609268
249.0,241.0,4.7163,-0.2979,7.9065,-0.0351,0.0041,-0.1529,-1.5765344105162562,-0.058140672743320465,1.799209713935852,-1.578534722328186,-0.0,2.0313773155212402,4.2269322115131835,3.3610797345318133e-07,0.33615538477897644,-1.293114964162008,-0.00014119580737315118,-0.1087382361292839,0.28885647654533386,0.06865957379341125,0.21039938926696777,1.2513314485549927,-0.008108841255307198,-0.045474823564291
249.0,241.0,4.7163,-0.2979,7.9065,-0.0351,0.0041,-0.1529,-1.5769058666624964,-0.06203821301460266,1.7773683071136475,-1.5784913301467896,-0.0,2.024427890777588,4.226900263423584,9.355689833956404e-11,0.32974785566329956,-1.2931268850909632,-0.00012904753384646028,-0.1231159195303917,0.2894684970378876,0.1186683401465416,0.21158257126808167,1.2513238191604614,-0.005695402156561613,-0.04477762430906296
249.0,241.0,4.7163,-0.2979,7.9065,-0.0351,0.0041,-0.1529,-1.5772129497923792,-0.06525877863168716,1.759914517402649,-1.5785586833953857,-0.0,1.9853218793869019,4.226900263423584,2.6041904296523165e-14,0.32846033573150635,-1.2930830160724085,-0.00011882416583830491,-0.11041978001594543,0.29045698046684265,0.1844538301229477,0.24736937880516052,1.2512954473495483,-0.004303826484829187,-0.06802178174257278
249.0,241.0,4.7163,-0.2979,7.9065,-0.0351,0.0041,-0.1529,-1.577676912347311,-0.06603861600160599,1.7360020875930786,-1.5785467624664307,-0.0,2.0012104511260986,4.226876421565674,7.248859158946162e-18,0.32412976026535034,-1.293062988911764,-0.00011010178423020989,-0.09798736125230789,0.29172882437705994,0.21825635433197021,0.25083351135253906,1.2512348890304565,-0.0027896419633179903,0.012435904704034328
249.0,241.0,4.7163,-0.2979,7.9065,-0.0351,0.0041,-0.1529,-1.5780726871886195,-0.06658017635345459,1.7551323175430298,-1.5785547494888306,-0.0,1.9521496295928955,4.226900263423584,2.017746757300072e-21,0.3246470093727112,-1.293091122304098,-0.00010257239773636684,-0.10553790628910065,0.2930842339992523,0.2477755844593048,0.2604377269744873,1.251251459121704,-0.001574458903633058,-0.07315309345722198
249.0,241.0,4.7163,-0.2979,7.9065,-0.0351,0.0041,-0.1529,-1.5784522495665492,-0.06855248659849167,1.7244617938995361,-1.5785267353057861,-0.0,2.015378713607788,4.226855440730713,5.6164722153866025e-25,0.329273521900177,-1.293074909840719,-9.600715566193685e-05,-0.10781949758529663,0.29467982053756714,0.2709973454475403,0.28099262714385986,1.2512633800506592,-0.0011194528779014945,-0.07350943237543106
249.0,241.0,4.7163,-0.2979,7.9065,-0.0351,0.0041,-0.1529,-1.578928133050436,-0.07402102649211884,1.7481846809387207,-1.5785467624664307,-0.0,1.9791221618652344,4.226851626033447,1.563365687895318e-28,0.3229908347129822,-1.2930672804461878,-9.023169695865363e-05,-0.10453064739704132,0.2962947487831116,0.2891383469104767,0.2741766571998596,1.2512633800506592,-0.000763531366828829,-0.07043435424566269
249.0,241.0,4.7163,-0.2979,7.9065,-0.0351,0.0041,-0.1529,-1.5793677769102992,-0.08339503407478333,1.7039291858673096,-1.578502893447876,-0.0,1.9667624235153198,4.22687213003125,-0.00033427280141040683,0.3271065354347229,-1.2930987516986292,-8.511171472491696e-05,-0.10719986259937286,0.29826968908309937,0.34167566895484924,0.28838637471199036,1.251267433166504,-0.0005791882867924869,0.02229761704802513
249.0,241.0,4.7163,-0.2979,7.9065,-0.0351,0.0041,-0.1529,-1.5798431835570277,-0.0892261490225792,1.7822787761688232,-1.578502893447876,-0.0,2.040181875228882,4.226880236262939,-0.0002741347416304052,0.31810057163238525,-1.2930949370013636,-8.054164209170267e-05,-0.10608240962028503,0.30040889978408813,0.36207371950149536,0.3037867546081543,1.2512474060058594,-0.00033420714316889644,-0.026968970894813538
249.0,241.0,4.7163,-0.2979,7.9065,-0.0351,0.0041,-0.1529,-1.580407281915182,-0.09411024302244186,1.7066311836242676,-1.5784950256347656,-0.0,1.9716312885284424,4.226843996638916,-0.00023176211107056588,0.3209667205810547,-1.2931464354144495,-7.64372744015418e-05,-0.1125025823712349,0.3025544583797455,0.36324793100357056,0.278472363948822,1.251279592514038,-0.00043057798757217824,-0.06007277965545654
249.0,241.0,4.7163,-0.2979,7.9065,-0.0351,0.0041,-0.1529,-1.5808907947936,-0.09072346985340118,1.7366948127746582,-1.5784666538238525,-0.0,1.957592248916626,4.226851626033447,-0.0002007379080168903,0.31889715790748596,-1.2930710951434534,-7.273109076777473e-05,-0.11318528652191162,0.3049578070640564,0.4100664258003235,0.3171343505382538,1.251251459121704,-0.0009397747926414013,-0.043554697185754776
249.0,241.0,4.7163,-0.2979,7.9065,-0.0351,0.0041,-0.1529,-1.581454416314596,-0.08888303488492966,1.725588321685791,-1.578490972518921,-0.0,2.027277946472168,4.226851626033447,-0.00017704034689813852,0.32582467794418335,-1.2930591742144983,-6.93676047376357e-05,-0.13438419997692108,0.30737483501434326,0.4314333200454712,0.3053455054759979,1.251247525215149,-0.001836409093812108,-0.09151823818683624
249.0,241.0,4.7163,-0.2979,7.9065,-0.0351,0.0041,-0.1529,-1.5819817982115687,-0.08741603791713715,1.777451992034912,-1.5784790515899658,-0.0,2.0066394805908203,4.22684018194165,-0.00015834797522984445,0.3278629779815674,-1.293091122304098,-6.630145799135789e-05,-0.12201638519763947,0.3099771738052368,0.42968976497650146,0.29473045468330383,1.2512272596359253,-0.0016347613418474793,-0.055345773696899414
249.0,241.0,4.7163,-0.2979,7.9065,-0.0351,0.0041,-0.1529,-1.58233704189443,-0.09117915481328964,1.769263744354248,-1.578503131866455,-0.0,2.04414963722229,4.226880236262939,-0.00014793554146308452,0.31948527693748474,-1.293114964162008,-6.440364086301997e-05,-0.12100516259670258,0.31182441115379333,0.4599072337150574,0.32325148582458496,1.2512158155441284,-0.0015585863729938865,-0.06459394842386246
249.0,241.0,4.7163,-0.2979,7.9065,-0.0351,0.0041,-0.1529,-1.58292879680776,-0.09548632055521011,1.7693231105804443,-1.5784544944763184,-0.0,2.0809812545776367,4.22687213003125,-0.000161114294314757,0.31406277418136597,-1.293074909840719,-6.17522673564963e-05,-0.0988837257027626,0.31444865465164185,0.47504115104675293,0.3006402552127838,1.2512357234954834,-0.0014321121852844954,-0.0667061135172844
237.0,236.0,4.1186,0.2512,8.2319,0.0075,-0.0287,0.073,-1.583508630792135,-0.09844790399074554,1.7933731079101562,-1.5785307884216309,-0.0,2.057774782180786,4.226880236262939,-0.0001482731313444674,0.3201574385166168,-1.293051544819967,-5.931053965468891e-05,-0.09668708592653275,0.3173863887786865,0.47878479957580566,0.2917972207069397,1.2511911392211914,-0.001430859905667603,-0.09227778762578964
237.0,236.0,4.1186,0.2512,8.2319,0.0075,-0.0287,0.073,-1.5840918026366175,-0.09909846633672714,1.7858396768569946,-1.5785428285598755,-0.0,2.042557716369629,4.226900263423584,-0.0001369882229482755,0.3113062381744385,-1.2931068579303187,-4.602639455697499e-05,-0.08555107563734055,0.32029834389686584,0.49520930647850037,0.28998175263404846,1.2511954307556152,-0.00202657631598413,-0.1483091562986374
237.0,236.0,4.1186,0.2512,8.2319,0.0075,-0.0287,0.073,-1.5846992931761683,-0.10041102021932602,1.8203935623168945,-1.5784950256347656,-0.0,2.01278018951416,4.226859732265137,-0.0001272997324122116,0.3224358856678009,-1.2931306997882288,-4.397132943267934e-05,-0.11407462507486343,0.32329902052879333,0.4881131052970886,0.27168500423431396,1.2511757612228394,-0.0032407932449132204,-0.14075660705566406
237.0,236.0,4.1186,0.2512,8.2319,0.0075,-0.0287,0.073,-1.58526672939443,-0.10449827462434769,1.8126367330551147,-1.5784626007080078,-0.0,1.9983419179916382,4.226879759425781,-0.00011889138841070235,0.3220960199832916,-1.2931268850909632,-4.241693750373088e-05,-0.09748141467571259,0.3263114094734192,0.5087721943855286,0.27897047996520996,1.25115168094635,-0.004557464271783829,-0.16736039519309998
237.0,236.0,4.1186,0.2512,8.2319,0.0075,-0.0287,0.073,-1.5858737430968226,-0.1079169511795044,1.842108964920044,-1.5785069465637207,-0.0,2.0358920097351074,4.22689597188916,-9.309994493378326e-05,0.3187614381313324,-1.2931068579303187,-4.096883276361041e-05,-0.10444991290569305,0.32932043075561523,0.501491367816925,0.25334909558296204,1.2511156797409058,-0.0070792599581182,-0.1626618206501007
237.0,236.0,4.1186,0.2512,8.2319,0.0075,-0.0287,0.073,-1.58652987102651,-0.10620267689228058,1.825684666633606,-1.5784748792648315,-0.0,2.0524935722351074,4.226871653194092,-8.751496352488175e-05,0.31567132472991943,-1.293114964162008,-2.008098817896098e-05,-0.10103864967823029,0.3323204517364502,0.5044013857841492,0.2658538222312927,1.2510355710983276,-0.009541763924062252,-0.1853395253419876
237.0,236.0,4.1186,0.2512,8.2319,0.0075,-0.0287,0.073,-1.5871530971922816,-0.10464582592248917,1.8382806777954102,-1.578434705734253,0.0005186820635572076,2.0899617671966553,4.22691981374707,-6.83181788190268e-05,0.31288275122642517,-1.2930987516986292,-1.8923268726211973e-05,-0.09347152709960938,0.3352966010570526,0.49745631217956543,0.2429887056350708,1.2509799003601074,-0.012023434974253178,-0.17568662762641907
237.0,236.0,4.1186,0.2512,8.2319,0.0075,-0.0287,0.073,-1.5877682171263636,-0.10006486624479294,1.9017935991287231,-1.5784387588500977,0.0005918776150792837,2.070815324783325,4.226887865657471,-6.269666482694447e-05,0.3229329586029053,-1.2931388060199183,-1.1766075658670161e-05,-0.1001812070608139,0.3381568491458893,0.4781735837459564,0.24211855232715607,1.2509242296218872,-0.013769241981208324,-0.21618695557117462
237.0,236.0,4.1186,0.2512,8.2319,0.0075,-0.0287,0.073,-1.5883962116637171,-0.09451361745595932,1.920714259147644,-1.578519582748413,0.0003971886762883514,2.0745673179626465,4.226924105281494,-5.958299516350962e-05,0.3237909972667694,-1.2930710951434534,-1.132030229200609e-05,-0.09624141454696655,0.34098538756370544,0.46805518865585327,0.2185686230659485,1.2507919073104858,-0.01558392122387886,-0.21529245376586914
237.0,236.0,4.1186,0.2512,8.2319,0.0075,-0.0287,0.073,-1.5889913044371546,-0.08777081221342087,1.9522814750671387,-1.5785071849822998,0.00029766507213935256,2.0698153972625732,4.2268921571918945,-5.676450746250339e-05,0.3232196569442749,-1.2930710951434534,-1.0908680451393593e-05,-0.10960839688777924,0.343758761882782,0.43557649850845337,0.18470685184001923,1.2506474256515503,-0.017126619815826416,-0.23780852556228638
237.0,236.0,4.1186,0.2512,8.2319,0.0075,-0.0287,0.073,-1.5895630321898402,-0.09262143820524216,1.950071096420288,-1.5784790515899658,0.00014972775534261018,2.078779458999634,4.22689597188916,-1.6495769159519114e-05,0.323365181684494,-1.2931187788592737,-1.0525932339078281e-05,-0.09513822942972183,0.3463079631328583,0.43346238136291504,0.19898700714111328,1.2505958080291748,-0.01852361112833023,-0.22128267586231232
237.0,236.0,4.1186,0.2512,8.2319,0.0075,-0.0287,0.073,-1.5901948414244593,-0.10232887417078018,1.9400289058685303,-1.5785307884216309,0.00012785031867679209,2.0461626052856445,4.226859732265137,-1.5560477550025098e-05,0.3300858736038208,-1.2930710951434534,-6.715598033224524e-07,-0.10987339913845062,0.34874603152275085,0.4086173176765442,0.1721067875623703,1.250459909439087,-0.02174505591392517,-0.19887082278728485
237.0,236.0,4.1186,0.2512,8.2319,0.0075,-0.0287,0.073,-1.5905705891051234,-0.10832785815000534,1.929931640625,-1.578451156616211,0.00015413264918606728,2.0662407875061035,4.226880236262939,-1.5040377547848038e-05,0.3225163221359253,-1.2930830160724085,-2.8629643100686053e-09,-0.10122859477996826,0.3502849042415619,0.3718860447406769,0.1458156853914261,1.25038480758667,-0.024084214121103287,-0.20220538973808289
237.0,236.0,4.1186,0.2512,8.2319,0.0075,-0.0287,0.073,-1.5911413631834925,-0.11187368631362915,1.8985528945922852,-1.5784707069396973,8.75566984177567e-05,2.069356918334961,4.226900263423584,-1.4322321476356592e-05,0.30553102493286133,-1.2930949370013636,-7.969165691928959e-13,-0.09628478437662125,0.3523877263069153,0.35242289304733276,0.12874901294708252,1.2502202987670898,-0.029116138815879822,-0.23682838678359985
237.0,236.0,4.1186,0.2512,8.2319,0.0075,-0.0287,0.073,-1.5918499432005824,-0.11382155865430832,1.9022672176361084,-1.5784029960632324,0.0006355139194056392,2.026360511779785,4.22692791997876,-1.3669731742993463e-05,0.30241483449935913,-1.2930987516986292,-2.218246410565412e-16,-0.11014583706855774,0.35428154468536377,0.3150862753391266,0.11432889103889465,1.25002121925354,-0.036142513155937195,-0.24750426411628723
237.0,236.0,4.1186,0.2512,8.2319,0.0075,-0.0287,0.073,-1.5925332508482875,-0.10897810012102127,1.973339319229126,-1.578394889831543,0.002740376628935337,2.105991840362549,4.2268640237995605,-1.3074000889901072e-05,0.30880308151245117,-1.2931187788592737,-6.17457046175877e-20,-0.08868616074323654,0.3560532331466675,0.2833218276500702,0.0955113023519516,1.24984610080719,-0.04160579666495323,-0.312450647354126
246.0,251.0,4.118,-0.2243,8.1236,-0.0336,-0.0186,0.3396,-1.5932170353331507,-0.09970742464065552,1.9744845628738403,-1.5783662796020508,0.003606267971917987,2.0886645317077637,4.226875944728516,-1.2528038496384397e-05,0.30588221549987793,-1.2931068579303187,-1.718714604487813e-23,-0.0997350737452507,0.3575735092163086,0.2159287929534912,0.04535587877035141,1.2495700120925903,-0.04716721922159195,-0.2671140730381012
246.0,251.0,4.118,-0.2243,8.1236,-0.0336,-0.0186,0.3396,-1.5938521824278773,-0.09201705455780029,1.9850122928619385,-1.5783872604370117,0.0023432576563209295,2.085784912109375,4.226887865657471,-1.2025835530948825e-05,0.30434757471084595,-1.293091122304098,-4.784104737611158e-27,-0.0813460648059845,0.358641654253006,0.19409100711345673,0.026493771001696587,1.2492213249206543,-0.05067913606762886,-0.31205540895462036
246.0,251.0,4.118,-0.2243,8.1236,-0.0336,-0.0186,0.3396,-1.594459672967428,-0.08882191777229309,2.0375866889953613,-1.5784194469451904,0.00010589783050818369,2.12595796585083,4.226867838496826,-1.1562344297999516e-05,0.3031565546989441,-1.2931068579303187,-1.3316729753007863e-30,-0.09604407101869583,0.35980281233787537,0.1672070175409317,0.03064369596540928,1.2489348649978638,-0.052924565970897675,-0.3292226195335388
246.0,251.0,4.118,-0.2243,8.1236,-0.0336,-0.0186,0.3396,-1.5950590572752894,-0.09360778331756592,2.0481512546539307,-1.5784633159637451,2.557307976491785e-10,2.130368709564209,4.22681634008374,-2.207726902270224e-05,0.30902618169784546,-1.2930987516986292,-3.7067604936110668e-34,-0.09897066652774811,0.3605218827724457,0.09702707082033157,-0.008763215504586697,1.248607873916626,-0.05703805387020111,-0.34405261278152466
246.0,251.0,4.118,-0.2243,8.1236,-0.0336,-0.0186,0.3396,-1.5956341228880824,-0.106082484126091,1.9867796897888184,-1.5784387588500977,-0.0020555579103529453,2.1650071144104004,4.22684828817334,-4.1516617784509435e-05,0.3018914759159088,-1.2931306997882288,-1.0317904085786375e-37,-0.07836953550577164,0.3607597351074219,0.030420640483498573,-0.047751933336257935,1.248252034187317,-0.059430208057165146,-0.37973886728286743
246.0,251.0,4.118,-0.2243,8.1236,-0.0336,-0.0186,0.3396,-1.596274038354391,-0.11556039750576019,2.0162839889526367,-1.578474760055542,-0.0011569970520213246,2.1129894256591797,4.226827784175537,-0.00013068591943010688,0.2963689863681793,-1.2930710951434534,-2.8719612026337126e-41,-0.08704400062561035,0.36077937483787537,-0.01941058784723282,-0.08614958077669144,1.2478686571121216,-0.0671481341123581,-0.35540950298309326
246.0,251.0,4.118,-0.2243,8.1236,-0.0336,-0.0186,0.3396,-1.5969740353026332,-0.12060369551181793,1.9833287000656128,-1.5784152746200562,-1.2029514095956984e-07,2.0955562591552734,4.22684018194165,-0.00012156798766227439,0.3006417751312256,-1.2930868307696741,-8.407790785948902e-45,-0.09301793575286865,0.36059173941612244,-0.04932465776801109,-0.08149091899394989,1.247454047203064,-0.07833673804998398,-0.32891929149627686
246.0,251.0,4.118,-0.2243,8.1236,-0.0336,-0.0186,0.3396,-1.597673078576559,-0.11766094714403152,2.017233371734619,-1.578379511833191,0.0036612667609006166,2.075737714767456,4.226915522212646,-9.016163676278666e-05,0.2958586513996124,-1.2930868307696741,-0.0,-0.07310070097446442,0.36026912927627563,-0.07472532987594604,-0.09614333510398865,1.2468608617782593,-0.09075102210044861,-0.3801521062850952
246.0,251.0,4.118,-0.2243,8.1236,-0.0336,-0.0186,0.3396,-1.5983168087401332,-0.1147269532084465,2.0014595985412598,-1.578343391418457,0.006489462219178677,2.075819730758667,4.226911230678223,-8.36889012134634e-05,0.3036777973175049,-1.2930987516986292,-0.0,-0.07782730460166931,0.3598831295967102,-0.08658891916275024,-0.0977349728345871,1.2463505268096924,-0.10063622891902924,-0.4059527516365051
246.0,251.0,4.118,-0.2243,8.1236,-0.0336,-0.0186,0.3396,-1.598839899102682,-0.10861753672361374,2.023665428161621,-1.5783392190933228,0.006523382384330034,2.113175868988037,4.226923628444336,-7.997056673048064e-05,0.29516392946243286,-1.2931306997882288,-0.0,-0.07614406198263168,0.35958096385002136,-0.07708729058504105,-0.0872994065284729,1.2459516525268555,-0.10132433474063873,-0.4209858179092407
246.0,251.0,4.118,-0.2243,8.1236,-0.0336,-0.0186,0.3396,-1.5995236835875453,-0.09587056934833527,2.0617988109588623,-1.5782955884933472,0.003327754558995366,2.088491916656494,4.226859732265137,-7.497402839362621e-05,0.30376574397087097,-1.2931306997882288,-0.0,-0.08478543907403946,0.35923415422439575,-0.04180576279759407,-0.08837586641311646,1.2453727722167969,-0.0956028401851654,-0.3702359199523926
246.0,251.0,4.118,-0.2243,8.1236,-0.0336,-0.0186,0.3396,-1.600058218041891,-0.09444005787372589,2.0541000366210938,-1.578371286392212,-0.00027095869882032275,2.098890542984009,4.226859732265137,-7.0565176429227e-05,0.2835560441017151,-1.2930434385882776,-0.0,-0.09339442849159241,0.35911041498184204,-0.0030491072684526443,-0.05207817256450653,1.2448056936264038,-0.09221265465021133,-0.3105112910270691
246.0,251.0,4.118,-0.2243,8.1236,-0.0336,-0.0186,0.3396,-1.6007348499693812,-0.1010967269539833,2.0365638732910156,-1.5783313512802124,-0.003434807760640979,2.132429599761963,4.226827784175537,-4.214084037812427e-05,0.3108145594596863,-1.2930710951434534,-0.0,-0.0873822569847107,0.3592025935649872,0.02322797290980816,-0.035937823355197906,1.2442502975463867,-0.08659021556377411,-0.2859768271446228
246.0,251.0,4.118,-0.2243,8.1236,-0.0336,-0.0186,0.3396,-1.6013661823668421,-0.11055876314640045,2.0389747619628906,-1.5784244537353516,-0.0034741954877972603,2.1159474849700928,4.22678725301709,-0.00010817786824190989,0.30368030071258545,-1.293074909840719,-0.0,-0.08373887091875076,0.35938265919685364,0.02988327108323574,-0.03326601907610893,1.2437764406204224,-0.08652263879776001,-0.30945223569869995
246.0,251.0,4.118,-0.2243,8.1236,-0.0336,-0.0186,0.3396,-1.6019741497435511,-0.11366882175207138,2.023317575454712,-1.578383207321167,-0.0016012666746973991,2.083444595336914,4.226908846492432,-9.860110003501177e-05,0.31205838918685913,-1.2930830160724085,-0.0,-0.093258798122406,0.35948657989501953,0.02091788686811924,-0.04334297776222229,1.2431930303573608,-0.08954065293073654,-0.29195889830589294
224.0,239.0,6.2082,-0.0634,8.211,0.0104,-0.1793,-0.0886,-1.6026574573912562,-0.11624272167682648,2.0481412410736084,-1.578310489654541,-5.613430431594679e-08,2.0908701419830322,4.226812048549316,-8.886468276614323e-05,0.29278627038002014,-1.2930672804461878,-0.0,-0.08376317471265793,0.35950973629951477,0.006214155815541744,-0.02089875563979149,1.242707371711731,-0.09572537243366241,-0.30398330092430115
224.0,239.0,6.2082,-0.0634,8.211,0.0104,-0.1793,-0.0886,-1.603305002252096,-0.1124296635389328,2.076446771621704,-1.578315258026123,0.0032481045927852392,2.074655294418335,4.22690407812085,-0.0001243978476850316,0.2970215976238251,-1.293091122304098,-0.0,-0.07684677839279175,0.3594537675380707,3.555280272848904e-05,-0.05016247555613518,1.2421231269836426,-0.10278702527284622,-0.36283761262893677
224.0,239.0,6.2082,-0.0634,8.211,0.0104,-0.1793,-0.0886,-1.6039568386473597,-0.10735590755939484,2.0717999935150146,-1.5783076286315918,0.0050568715669214725,2.091313123703003,4.22689597188916,-5.36869301868137e-05,0.3142188489437103,-1.293154541646139,-0.0,-0.09500857442617416,0.35953012108802795,-0.0018852646462619305,-0.041438303887844086,1.241484522819519,-0.11025453358888626,-0.3428880572319031
224.0,239.0,6.2082,-0.0634,8.211,0.0104,-0.1793,-0.0886,-1.6045314274229945,-0.1010773628950119,2.1359848976135254,-1.5782389640808105,0.004159139469265938,2.1485800743103027,4.226984186763428,-2.2950134734855965e-05,0.3128778338432312,-1.2931464354144495,-0.0,-0.08891177177429199,0.3595219850540161,-0.0009932663524523377,-0.04050424322485924,1.2408095598220825,-0.1095152199268341,-0.3287208080291748
224.0,239.0,6.2082,-0.0634,8.211,0.0104,-0.1793,-0.0886,-1.605187555352682,-0.09462276101112366,2.1635501384735107,-1.578247308731079,0.0020871302112936974,2.119572401046753,4.2268921571918945,-6.38825481402705e-09,0.31999900937080383,-1.2931268850909632,-0.0,-0.10779961943626404,0.3595297336578369,-0.0006737306248396635,-0.052153557538986206,1.2402111291885376,-0.10437987744808197,-0.31208547949790955
224.0,239.0,6.2082,-0.0634,8.211,0.0104,-0.1793,-0.0886,-1.605790754357809,-0.0918300673365593,2.1839849948883057,-1.5782716274261475,0.0001986883144127205,2.1310408115386963,4.226895018214844,-1.7781940199815272e-12,0.3174113631248474,-1.2931426207171839,-0.0002443897828925401,-0.11233679950237274,0.35950565338134766,-0.0005099218687973917,-0.043826889246702194,1.2395724058151245,-0.09742691367864609,-0.25353121757507324
224.0,239.0,6.2082,-0.0634,8.211,0.0104,-0.1793,-0.0886,-1.6063300571837367,-0.09304294735193253,2.1357932090759277,-1.5783073902130127,4.798089148216889e-10,2.1730780601501465,4.226936026210449,-4.949669320411618e-16,0.32274824380874634,-1.2931464354144495,-0.0005092697101645172,-0.10836762189865112,0.35950565338134766,-0.0004102354869246483,-0.04439231753349304,1.238993525505066,-0.0904335230588913,-0.21817322075366974
224.0,239.0,6.2082,-0.0634,8.211,0.0104,-0.1793,-0.0886,-1.6069022617735804,-0.09112150967121124,2.179183006286621,-1.5782705545425415,1.1586819912958119e-15,2.175856828689575,4.22687213003125,-1.3777583613698878e-19,0.31711557507514954,-1.2931025663958948,-0.0004743271565530449,-0.12486506998538971,0.35950973629951477,-0.00022751506185159087,-0.03206480294466019,1.2384380102157593,-0.08364465832710266,-0.18553179502487183
224.0,239.0,6.2082,-0.0634,8.211,0.0104,-0.1793,-0.0886,-1.6072579822936,-0.09277761727571487,2.1814992427825928,-1.5782830715179443,-0.0007797247380949557,2.2002148628234863,4.226875944728516,-5.873599806334231e-22,0.3308451175689697,-1.2931345144854944,-0.0005478815292008221,-0.1249840259552002,0.3595420718193054,-9.464345930609852e-05,-0.039305903017520905,1.2380993366241455,-0.08075074851512909,-0.19087478518486023
224.0,239.0,6.2082,-0.0634,8.211,0.0104,-0.1793,-0.0886,-1.6078015766539515,-0.09505245834589005,2.1941123008728027,-1.5783114433288574,-0.0005188023787923157,2.1727683544158936,4.226859732265137,-1.6349381384167365e-25,0.32976382970809937,-1.2931464354144495,-0.00048123853048309684,-0.12285216152667999,0.3595096468925476,-8.135557436617091e-05,-0.0386476144194603,1.237604022026062,-0.07820513844490051,-0.14014732837677002
224.0,239.0,6.2082,-0.0634,8.211,0.0104,-0.1793,-0.0886,-1.6083208523192347,-0.09662636369466782,2.1385867595672607,-1.5782594680786133,-0.0002316502359462902,2.1778671741485596,4.22691981374707,-4.5509101667903995e-29,0.32151201367378235,-1.2931388060199183,-0.00043486294453032315,-0.13632117211818695,0.3595700263977051,-7.163947884691879e-05,-0.04464064538478851,1.237164855003357,-0.07962589710950851,-0.17061889171600342
224.0,239.0,6.2082,-0.0634,8.211,0.0104,-0.1793,-0.0886,-1.6088282070555628,-0.09220882505178452,2.179711103439331,-1.578287124633789,0.00035478960489854217,2.1272122859954834,4.226888342494629,-1.266762670956007e-32,0.33449918031692505,-1.29313832918276,-0.0004522989911492914,-0.12938550114631653,0.35958218574523926,-3.256243871874176e-05,-0.020036041736602783,1.2367182970046997,-0.08100499957799911,-0.17227871716022491
224.0,239.0,6.2082,-0.0634,8.211,0.0104,-0.1793,-0.0886,-1.6093360386290492,-0.08211096376180649,2.1867642402648926,-1.5782592296600342,0.001016794005408883,2.134389877319336,4.226900263423584,-3.526080195973951e-36,0.3304121494293213,-1.2931698004352015,-0.0052466727793216705,-0.12558414041996002,0.3595256507396698,-2.89142280962551e-05,-0.028781641274690628,1.236222505569458,-0.07945787161588669,-0.12858346104621887
224.0,239.0,6.2082,-0.0634,8.211,0.0104,-0.1793,-0.0886,-1.609892030755514,-0.07444757223129272,2.198976993560791,-1.5782749652862549,0.000879205297678709,2.172391414642334,4.226875944728516,-9.814974703823884e-40,0.33412015438079834,-1.2932618300067347,-0.02173854410648346,-0.14877043664455414,0.3595375716686249,-1.7738905171427177e-06,-0.026103001087903976,1.2357841730117798,-0.07601577788591385,-0.1042805090546608
224.0,239.0,6.2082,-0.0634,8.211,0.0104,-0.1793,-0.0886,-1.6102997265257777,-0.07264706492424011,2.1773157119750977,-1.5782153606414795,0.0006436947733163834,2.1771674156188965,4.226887865657471,-2.7325320054333933e-43,0.3295227885246277,-1.2934053579913538,-0.02835956960916519,-0.15799269080162048,0.35963836312294006,-4.937690811779305e-10,-0.018261320888996124,1.2353769540786743,-0.06979392468929291,-0.0900735929608345
221.0,252.0,3.3278,0.6042,8.9324,0.0108,-0.0932,-0.299,-1.6106864414610804,-0.07502343505620956,2.200435161590576,-1.5782837867736816,0.0004444087389856577,2.2060546875,4.226908369655273,-0.0,0.3295832872390747,-1.293511692677633,-0.022261153906583786,-0.1543714851140976,0.3595617413520813,-1.3744245270976702e-13,-0.02873219922184944,1.2349175214767456,-0.0634828507900238,-0.01986258663237095
221.0,252.0,3.3278,0.6042,8.9324,0.0108,-0.0932,-0.299,-1.6111542187132777,-0.0781083032488823,2.1963815689086914,-1.5782349109649658,0.00036655933945439756,2.218299627304077,4.22689597188916,-0.0,0.3368692696094513,-1.2936151663409632,-0.01042610127478838,-0.1588781177997589,0.35956165194511414,-3.825761949127976e-17,-0.010632197372615337,1.2345540523529053,-0.05963991954922676,-0.0691966637969017
221.0,252.0,3.3278,0.6042,8.9324,0.0108,-0.0932,-0.299,-1.611614843408102,-0.0770912915468216,2.183040142059326,-1.57820725440979,0.0003565858642105013,2.2393107414245605,4.226888342494629,-0.0,0.3327369689941406,-1.2935875097857874,-1.0739901199485757e-06,-0.14729279279708862,0.3594973683357239,-1.064914905540182e-20,-0.0061278981156647205,1.2341912984848022,-0.0569172278046608,-0.017483465373516083
221.0,252.0,3.3278,0.6042,8.9324,0.0108,-0.0932,-0.299,-1.6120697460570277,-0.07423143833875656,2.135638475418091,-1.5782511234283447,0.00031051275436766446,2.2098402976989746,4.22689597188916,-0.0,0.3360341489315033,-1.293567959462301,0.0022720396518707275,-0.16857735812664032,0.3595338463783264,-2.9642300483457157e-24,-0.01721782051026821,1.233803153038025,-0.052178096026182175,-0.009726403281092644
221.0,252.0,3.3278,0.6042,8.9324,0.0108,-0.0932,-0.299,-1.6124416790404261,-0.07008522748947144,2.179928779602051,-1.5782309770584106,0.0002029690076597035,2.1759347915649414,4.22689597188916,-0.0,0.33229368925094604,-1.2935712973224085,0.0010331543162465096,-0.1546497941017151,0.3595174551010132,-8.251041141759602e-28,-0.007515317760407925,1.2335206270217896,-0.04552655294537544,-0.008743971586227417
221.0,252.0,3.3278,0.6042,8.9324,0.0108,-0.0932,-0.299,-1.612833162347311,-0.06414330005645752,2.214155673980713,-1.5782513618469238,0.00025011031539179385,2.2084927558898926,4.226911230678223,-0.0,0.3359665274620056,-1.2935555616961878,0.0006890649674460292,-0.1484319567680359,0.35946139693260193,-2.2967078990066542e-31,0.0026067227590829134,1.2333133220672607,-0.03682045266032219,0.03991331905126572
